vladlanda/robotic-transformer/data/env_000_episode_0160.csv
sim_time_s,robot_box_x,robot_box_y,robot_box_z,robot_box_quat_w,robot_box_quat_x,robot_box_quat_y,robot_box_quat_z,robot_box_linvel_x,robot_box_linvel_y,robot_box_linvel_z,robot_box_angvel_x,robot_box_angvel_y,robot_box_angvel_z,cube_world_x,cube_world_y,cube_world_z,cube_quat_w,cube_quat_x,cube_quat_y,cube_quat_z,cube_linvel_x,cube_linvel_y,cube_linvel_z,cube_angvel_x,cube_angvel_y,cube_angvel_z,endpoint_world_x,endpoint_world_y,endpoint_world_z,endpoint_linvel_x,endpoint_linvel_y,endpoint_linvel_z,target_cube_world_x,target_cube_world_y,target_cube_world_z,gripper_actual_pos_rad_gp_leftgearjoint,gripper_actual_vel_rad_s_gp_leftgearjoint,gripper_actual_pos_rad_gp_rotatingjoint,gripper_actual_vel_rad_s_gp_rotatingjoint,motor_angle_rad_joint1,motor_angle_rad_joint2,motor_angle_rad_joint3,motor_angle_rad_joint4,motor_speed_rad_s_joint1,motor_speed_rad_s_joint2,motor_speed_rad_s_joint3,motor_speed_rad_s_joint4
0.0,0.0,0.0,0.0,1.0,0.0,0.0,0.0,0.0,0.0,0.0,0.0,0.0,0.0,-0.41333240270614624,0.7509771585464478,0.41999998688697815,1.0,0.0,0.0,0.0,0.0,0.0,0.0,0.0,0.0,0.0,3.42540442943573e-06,-0.005000244826078415,1.313499927520752,0.0,0.0,0.0,0.3856154680252075,0.6504022479057312,0.42000001668930054,-1.5707999467849731,0.0,0.0,0.0,0.0,0.0,0.0,0.0,0.0,0.0,0.0,0.0
0.016666666666666666,0.0028778850100934505,0.0021806680597364902,0.0,0.9998081922531128,0.0,0.0,0.019586581736803055,0.24087215960025787,0.18240931630134583,0.0,0.0,0.0,3.1418697834014893,-0.4133325219154358,0.7509768605232239,0.41999998688697815,1.0,3.279964630564791e-06,-8.339746386809566e-07,8.465587342243452e-08,-1.9833529222523794e-05,0.00017983045836444944,-6.132945418357849e-05,0.0009432713268324733,-0.004689474124461412,-0.00031981561915017664,-0.007110234349966049,0.003379564033821225,1.3159373998641968,-0.8143353462219238,0.9868683815002441,0.18095196783542633,0.3856154680252075,0.6504022479057312,0.42000001668930054,-1.5301095247268677,3.0000011920928955,-0.04584788903594017,-2.9999992847442627,0.0008691533003002405,0.0007963840034790337,0.0007110277656465769,0.0006108740926720202,0.11094217747449875,0.09756709635257721,0.08334315568208694,0.06823883205652237
0.03333333333333333,0.008960993029177189,0.006802001968026161,0.0,0.9997960329055786,0.0,0.0,0.020196842029690742,0.4070222079753876,0.31530794501304626,0.0,0.0,0.0,-0.8691328167915344,-0.41333264112472534,0.7509768009185791,0.4200000464916229,1.0,3.390805204617209e-06,-2.132404688381939e-06,-3.708747797759315e-08,0.0002635775599628687,0.0002693787682801485,-0.0001050964929163456,-0.0017706695944070816,0.004130705259740353,-0.00013547964044846594,-0.027554113417863846,0.026247672736644745,1.3165886402130127,-1.5913585424423218,1.6161627769470215,-0.08604463189840317,0.3856154680252075,0.6504022479057312,0.42000001668930054,-1.4800903797149658,3.0000011920928955,-0.09588772058486938,-3.0000014305114746,0.0029900982044637203,0.0026527021545916796,0.002277267398312688,0.0018607188249006867,0.16421373188495636,0.13975712656974792,0.1138157919049263,0.0862976685166359
0.05,0.01829495280981064,0.013743175193667412,0.0,1.0,0.0,0.0,-0.00017599832790438086,0.6323097348213196,0.4641452133655548,0.0,0.0,0.0,-3.348714828491211,-0.41333267092704773,0.7509768605232239,0.4200000464916229,1.0,3.765131168620428e-06,-2.2118479137134273e-06,5.629145594099327e-09,0.00026531046023592353,0.00026691515813581645,-0.00010440382175147533,-0.001724305097013712,0.004177468363195658,-0.00012949509255122393,-0.05761219561100006,0.056929897516965866,1.31180739402771,-1.9714350700378418,2.0351603031158447,-0.46201324462890625,0.3856154680252075,0.6504022479057312,0.42000001668930054,-1.4300720691680908,2.9999988079071045,-0.14592640101909637,-3.0000016689300537,0.005942406132817268,0.005111112259328365,0.004207446239888668,0.003227157285436988,0.20646026730537415,0.16628007590770721,0.12419397383928299,0.08012053370475769
0.06666666666666667,0.030172405764460564,0.02311849035322666,0.0,0.9999940395355225,0.0,0.0,-0.0034587744157761335,0.7545671463012695,0.6084192395210266,0.0,0.0,0.0,0.5838926434516907,-0.41333267092704773,0.7509768009185791,0.4200000464916229,0.9999999403953552,3.406752739465446e-06,-2.2855651877762284e-06,4.3010143713217985e-07,0.0002670265967026353,0.000267917406745255,-0.00010437914170324802,-0.0017406505066901445,0.004211799707263708,-0.00012850486382376403,-0.09301980584859848,0.08960377424955368,1.3016455173492432,-2.145228385925293,2.068007469177246,-0.7361708879470825,0.3856154680252075,0.6504022479057312,0.42000001668930054,-1.3800537586212158,2.999997615814209,-0.19593065977096558,-3.000000238418579,0.008283319883048534,0.006656398065388203,0.004917675629258156,0.0030602095648646355,0.11826320737600327,0.05837589129805565,-0.0036674898583441973,-0.06787776947021484
0.08333333333333333,0.03593892231583595,0.03624025359749794,0.0,0.9997521638870239,0.0,0.0,-0.0222635380923748,0.21248865127563477,0.8570265173912048,0.0,0.0,0.0,-3.1967005729675293,-0.41333267092704773,0.7509768009185791,0.4200000464916229,1.0,3.6972376165067544e-06,-2.188903863498126e-06,-2.6322030066694424e-07,0.00026389601407572627,0.0002658639568835497,-0.00010434049181640148,-0.0017081866972148418,0.004150202497839928,-0.00012991315452381968,-0.12497130036354065,0.12963885068893433,1.2862708568572998,-1.6988680362701416,2.6842520236968994,-1.0249673128128052,0.3856154680252075,0.6504022479057312,0.42000001668930054,-1.3300278186798096,2.999997615814209,-0.16216063499450684,3.0000007152557373,0.004116646014153957,0.0016867807134985924,-0.000908551795873791,-0.003679345827549696,-0.3702741861343384,-0.4296242594718933,-0.49168914556503296,-0.5566737055778503
0.1,0.04563853517174721,0.05083156004548073,0.0,0.9976359605789185,0.0,0.0,-0.06872069835662842,0.7340290546417236,0.8869167566299438,0.0,0.0,0.0,-6.365647315979004,-0.41333267092704773,0.7509768009185791,0.4200000464916229,0.9999999403953552,3.6203459785610903e-06,-2.2651347535429522e-06,1.7462500068177178e-07,0.000266767485300079,0.0002674072457011789,-0.0001040799543261528,-0.0017386269755661488,0.0042091254144907,-0.0001277512201340869,-0.15168572962284088,0.17609462141990662,1.2709671258926392,-1.5646021366119385,2.900451183319092,-0.8963257074356079,0.3856154680252075,0.6504022479057312,0.42000001668930054,-1.280037522315979,3.0000016689300537,-0.1939014345407486,-2.999999523162842,0.0025703113060444593,-0.0015584310749545693,-0.005852962378412485,-0.010322476737201214,-0.03152085840702057,-0.14434003829956055,-0.2561797499656677,-0.3669028580188751
0.11666666666666667,0.053553514182567596,0.06600694358348846,0.0,0.9954356551170349,0.0,0.0,-0.09543483704328537,0.47266292572021484,0.9517411589622498,0.0,0.0,0.0,-2.025474786758423,-0.41333267092704773,0.7509768009185791,0.4200000464916229,1.0,3.7984141272318084e-06,-2.2627370981354034e-06,-1.5020638954865717e-07,0.00026374036679044366,0.0002656599972397089,-0.00010428996756672859,-0.0017054114723578095,0.004147567320615053,-0.00012979685561731458,-0.1836465448141098,0.22144198417663574,1.2541701793670654,-1.9833928346633911,2.8865694999694824,-1.0251344442367554,0.3856154680252075,0.6504022479057312,0.42000001668930054,-1.230021595954895,2.9999866485595703,-0.16010665893554688,3.000000476837158,-0.000581058207899332,-0.006366608664393425,-0.0122936200350523,-0.018370112404227257,-0.11278555542230606,-0.225913867354393,-0.3358185291290283,-0.44228801131248474
0.13333333333333333,0.05920993536710739,0.07919744402170181,0.0,0.9911555647850037,0.0,0.0,-0.1327051818370819,0.2863776683807373,0.7279399633407593,0.0,0.0,0.0,-5.333205699920654,-0.41333267092704773,0.7509768605232239,0.4200000464916229,0.9999999403953552,3.550497694959631e-06,-2.2297181203612126e-06,2.9291419423316256e-07,0.0002670333778951317,0.00026779333711601794,-0.00010416889563202858,-0.0017439303919672966,0.004213552922010422,-0.0001280046853935346,-0.21285417675971985,0.2736973166465759,1.2366244792938232,-1.5197087526321411,3.4468159675598145,-1.1106643676757812,0.3856154680252075,0.6504022479057312,0.42000001668930054,-1.1806697845458984,2.893472909927368,-0.19184477627277374,-3.0000007152557373,-0.003296662587672472,-0.011096784844994545,-0.018968677148222923,-0.026916446164250374,-0.23593734204769135,-0.35316112637519836,-0.4660567343235016,-0.5744054913520813
0.15,0.061029691249132156,0.09276541322469711,0.0,0.9884730577468872,0.0,0.0,-0.15139685571193695,0.030150962993502617,0.8455289602279663,0.0,0.0,0.0,-1.0461724996566772,-0.41333264112472534,0.7509768009185791,0.4200000464916229,1.0,3.332216692797374e-06,-2.1019013729528524e-06,1.313122055535132e-07,0.0002673068374861032,0.00026859444915317,-0.00010459451004862785,-0.0017497956287115812,0.004215684719383717,-0.00012927704665344208,-0.245758056640625,0.3294670879840851,1.210955023765564,-2.1127471923828125,3.4777379035949707,-1.9246331453323364,0.3856154680252075,0.6504022479057312,0.42000001668930054,-1.1549558639526367,0.3896452784538269,-0.1580638289451599,3.000000238418579,-0.008438855409622192,-0.01775233820080757,-0.027055302634835243,-0.03634991869330406,-0.36895427107810974,-0.4328145682811737,-0.4919740557670593,-0.5464487075805664
0.16666666666666666,0.06711094826459885,0.1069975346326828,0.0,0.9830772280693054,0.0,0.0,-0.1831916719675064,0.3611103594303131,0.8283253908157349,0.0,0.0,0.0,-4.687645435333252,-0.41333267092704773,0.7509768009185791,0.4200000464916229,1.0,3.7372994938777993e-06,-2.233063014500658e-06,-1.8764163201012707e-07,0.00026432870072312653,0.0002662685001268983,-0.00010446133092045784,-0.0017119026742875576,0.004157518967986107,-0.00013001746265217662,-0.2796730697154999,0.3919077515602112,1.1759474277496338,-1.9600743055343628,3.979173421859741,-2.3284215927124023,0.3856154680252075,0.6504022479057312,0.42000001668930054,-1.1149871349334717,3.0000009536743164,-0.18982061743736267,-3.000000476837158,-0.012488339096307755,-0.02294045127928257,-0.03329918533563614,-0.04356804117560387,-0.41826868057250977,-0.45455506443977356,-0.48769429326057434,-0.5178241729736328
0.18333333333333332,0.0694252997636795,0.11845576018095016,0.0,0.9747222065925598,0.0,0.0,-0.22342029213905334,0.11216869205236435,0.6358012557029724,0.0,0.0,0.0,-4.971627712249756,-0.41333267092704773,0.7509768605232239,0.4200000464916229,0.9999999403953552,3.6603269109036773e-06,-2.3022055302135414e-06,2.5285271476604976e-07,0.00026690986123867333,0.0002676024450920522,-0.00010412652045488358,-0.0017412863671779633,0.004211564548313618,-0.0001278719719266519,-0.3134974241256714,0.45807746052742004,1.1289966106414795,-1.8510639667510986,4.179495811462402,-3.229682207107544,0.3856154680252075,0.6504022479057312,0.42000001668930054,-1.0777441263198853,1.5617982149124146,-0.23984941840171814,-2.999999761581421,-0.023485738784074783,-0.03381010517477989,-0.04401801899075508,-0.05412183701992035,-0.7029438614845276,-0.6805494427680969,-0.6570412516593933,-0.6329822540283203
0.2,0.0680704265832901,0.13128696382045746,0.0,0.9671144485473633,0.0,0.0,-0.25434157252311707,-0.14035798609256744,0.7816839218139648,0.0,0.0,0.0,-3.229670763015747,-0.41333267092704773,0.7509768009185791,0.4200000464916229,1.0,3.59091814061685e-06,-2.3004013200988993e-06,1.3872175941287423e-07,0.00026654574321582913,0.000267320079728961,-0.0001042394433170557,-0.0017326025990769267,0.004203422926366329,-0.0001282018783967942,-0.34621596336364746,0.5260319709777832,1.0675365924835205,-1.7831730842590332,4.150600433349609,-4.071900367736816,0.3856154680252075,0.6504022479057312,0.42000001668930054,-1.031072735786438,2.999998092651367,-0.2898755371570587,-3.0000007152557373,-0.037726256996393204,-0.047235965728759766,-0.056618086993694305,-0.06589893996715546,-0.8644983172416687,-0.8086244463920593,-0.7520048022270203,-0.6954391598701477
0.21666666666666667,0.07039554417133331,0.1454007923603058,0.0,0.9534319043159485,0.0,0.0,-0.30160847306251526,0.10885892063379288,0.9148625731468201,0.0,0.0,0.0,-6.757150173187256,-0.41333267092704773,0.7509768605232239,0.4200000464916229,1.0,3.607027110774652e-06,-2.2609576717513846e-06,1.960636986098052e-08,0.0002644723863340914,0.00026558543322607875,-0.00010396563448011875,-0.001708892290480435,0.004164312966167927,-0.0001283241290366277,-0.3742917776107788,0.5962471961975098,0.9925618171691895,-1.3927628993988037,4.169915676116943,-4.907962799072266,0.3856154680252075,0.6504022479057312,0.42000001668930054,-0.9810696840286255,2.999998092651367,-0.33990147709846497,-2.999998092651367,-0.05109216272830963,-0.05982719734311104,-0.06830290704965591,-0.0766831785440445,-0.9849678874015808,-0.9415591955184937,-0.8517495393753052,-0.7653113007545471
0.23333333333333334,0.06935906410217285,0.1569846272468567,0.0,0.9438024163246155,0.0,0.0,-0.3305102586746216,-0.09769216179847717,0.6397918462753296,0.0,0.0,0.0,-2.487963914871216,-0.41333264112472534,0.7509768009185791,0.4200000464916229,0.9999999403953552,3.7423217236209894e-06,-2.2274525690590963e-06,4.588922308812471e-07,0.0002647516375873238,0.00026671364321373403,-0.0001045342069119215,-0.0017189101781696081,0.004165767692029476,-0.00013019373000133783,-0.3983796238899231,0.6567602157592773,0.9033031463623047,-1.0932180881500244,3.4313697814941406,-5.745771408081055,0.3856154680252075,0.6504022479057312,0.42000001668930054,-0.9310609102249146,2.9999983310699463,-0.38993045687675476,-2.999999523162842,-0.06700600683689117,-0.07568978518247604,-0.08387008309364319,-0.0904027670621872,-0.9667391777038574,-0.9560075998306274,-0.9470224976539612,-0.8538623452186584
0.25,0.0649486854672432,0.16899272799491882,0.0,0.932807445526123,0.0,0.0,-0.36037519574165344,-0.342938631772995,0.7557182312011719,0.0,0.0,0.0,-4.432465076446533,-0.41333267092704773,0.7509768009185791,0.4200000464916229,1.0,3.39448661179631e-06,-2.2819845071353484e-06,1.3360543960061477e-07,0.00026679469738155603,0.0002679398749023676,-0.0001043959055095911,-0.0017417483031749725,0.004206670913845301,-0.0001288425992242992,-0.4156090319156647,0.7066969871520996,0.8016020059585571,-0.7594606876373291,2.671607732772827,-6.375715732574463,0.3856154680252075,0.6504022479057312,0.42000001668930054,-0.8810502886772156,2.9999992847442627,-0.4399612843990326,-2.999999523162842,-0.0834987610578537,-0.09217851608991623,-0.10035677254199982,-0.10685335099697113,-0.9912387132644653,-0.9924858808517456,-0.993415355682373,-0.9941447377204895
0.26666666666666666,0.06422911584377289,0.17605113983154297,0.0,0.9286531209945679,0.0,0.0,-0.37094929814338684,0.00805828906595707,0.3181686997413635,0.0,0.0,0.0,-0.24177652597427368,-0.41333267092704773,0.7509768605232239,0.4200000464916229,1.0,3.683507657115115e-06,-2.3100117232388584e-06,2.1007953421303682e-07,0.0002647930814418942,0.0002662573242560029,-0.00010421173647046089,-0.0017168023623526096,0.004168960731476545,-0.00012909334327559918,-0.43031132221221924,0.7407348155975342,0.6942623853683472,-0.6504150629043579,1.492544174194336,-6.551848888397217,0.3856154680252075,0.6504022479057312,0.42000001668930054,-0.83104008436203,2.999997615814209,-0.4899929463863373,-2.999999523162842,-0.09879771620035172,-0.10737710446119308,-0.11545702815055847,-0.12184008210897446,-0.9909897446632385,-0.987117350101471,-0.9744351506233215,-0.9651669263839722
0.2833333333333333,0.059317413717508316,0.17934779822826385,0.0,0.9212788343429565,0.0,0.0,-0.3889027535915375,-0.47013649344444275,0.12017606943845749,0.0,0.0,0.0,-2.727173089981079,-0.41333267092704773,0.7509768009185791,0.4200000464916229,1.0,3.307009365016711e-06,-2.2123917915450875e-06,2.6254483032062126e-07,0.00026660889852792025,0.00026745148352347314,-0.00010424572974443436,-0.0017353077419102192,0.004204495809972286,-0.0001282844168599695,-0.43608736991882324,0.7575621604919434,0.583412766456604,-0.003887288272380829,0.5806965827941895,-6.553732872009277,0.3856154680252075,0.6504022479057312,0.42000001668930054,-0.7810312509536743,2.999998092651367,-0.5400234460830688,-2.9999985694885254,-0.11566522717475891,-0.12408170104026794,-0.1320718675851822,-0.1384134441614151,-0.9788315892219543,-0.9701003432273865,-0.966985821723938,-0.9687386751174927
0.3,0.05493710935115814,0.17893090844154358,0.0,0.9219606518745422,0.0,0.0,-0.3872835040092468,-0.13877087831497192,-0.08345916122198105,0.0,0.0,0.0,1.0052547454833984,-0.41333267092704773,0.7509768009185791,0.4200000464916229,1.0,3.6413346151675796e-06,-2.3777658952894853e-06,-4.194106395516428e-07,0.0002661141334101558,0.00026725803036242723,-0.00010423245839774609,-0.0017334752483293414,0.0041945013217628,-0.00012854678789153695,-0.4363226890563965,0.7578544616699219,0.47571948170661926,0.18146169185638428,-0.564717173576355,-6.333998680114746,0.3856154680252075,0.6504022479057312,0.42000001668930054,-0.7310224771499634,3.0,-0.5900522470474243,-2.9999988079071045,-0.13268159329891205,-0.140981525182724,-0.14888153970241547,-0.15513814985752106,-0.9982309937477112,-0.9978468418121338,-0.9979555606842041,-0.9913176894187927
0.31666666666666665,0.0488719716668129,0.17658817768096924,0.0,0.9167694449424744,0.0,0.0,-0.39941686391830444,-0.4646727442741394,-0.16366003453731537,0.0,0.0,0.0,-2.5298967361450195,-0.41319647431373596,0.7507355809211731,0.42036354541778564,0.9999462962150574,0.009085610508918762,1.3157419743947685e-05,-0.004984130151569843,0.014514953829348087,-0.035809386521577835,0.04982316493988037,2.4971814155578613,0.001075129141099751,-1.367192029953003,-0.4332934021949768,0.7558380961418152,0.42983198165893555,0.06761105358600616,-0.04344670847058296,-0.13413459062576294,0.3856154680252075,0.6504022479057312,0.42000001668930054,-0.6811116337776184,3.000229597091675,-0.6405627727508545,-3.002689838409424,-0.14369481801986694,-0.1521260291337967,-0.15998879075050354,-0.16597947478294373,-0.2680993974208832,-0.2990541160106659,-0.3092074990272522,-0.29498401284217834
0.3333333333333333,0.03874899446964264,0.17288734018802643,0.0,0.9179421663284302,0.0,0.0,-0.3967142403125763,-0.6640717387199402,-0.2490159422159195,0.0,0.0,0.0,1.2778348922729492,-0.41304337978363037,0.7505642771720886,0.42023593187332153,0.999947726726532,0.005905259400606155,-5.428549775388092e-05,-0.008335845544934273,0.007554218173027039,0.0015544806374236941,-0.02454434521496296,-1.2554937601089478,0.01844981499016285,-0.23074182868003845,-0.434417188167572,0.7576599717140198,0.42760372161865234,0.07081883400678635,-0.0090404711663723,-0.23895950615406036,0.3856154680252075,0.6504022479057312,0.42000001668930054,-0.6311050057411194,2.9999899864196777,-0.6906013488769531,-3.0000011920928955,-0.1521996408700943,-0.15964633226394653,-0.1663002222776413,-0.17088784277439117,-0.6132116317749023,-0.5065512657165527,-0.3918626010417938,-0.27470916509628296
0.35,0.025115085765719414,0.16731597483158112,0.0,0.9128440618515015,0.0,0.0,-0.40830838680267334,-0.8747218251228333,-0.3702273964881897,0.0,0.0,0.0,-2.4629476070404053,-0.41294193267822266,0.7509190440177917,0.4200001060962677,0.9999584555625916,4.070913746545557e-06,5.278548542264616e-06,-0.00911039113998413,0.006071247160434723,0.003985475283116102,-0.00016940182831604034,-0.003011607099324465,-0.008178059943020344,-0.06316718459129333,-0.429260790348053,0.7565897703170776,0.42393192648887634,0.4956590533256531,-0.06804312765598297,-0.2175605595111847,0.3856154680252075,0.6504022479057312,0.42000001668930054,-0.5810999274253845,2.9999821186065674,-0.7406545281410217,-2.9999804496765137,-0.16509388387203217,-0.16988226771354675,-0.1737774908542633,-0.1756577044725418,-0.7933152318000793,-0.6130465269088745,-0.42840078473091125,-0.25072169303894043
0.36666666666666664,0.01462374348193407,0.15859082341194153,0.0,0.9142892360687256,0.0,0.0,-0.4050619900226593,-0.5015054941177368,-0.5951122045516968,0.0,0.0,0.0,1.364851951599121,-0.41078147292137146,0.7537960410118103,0.4200000464916229,0.9994297623634338,-2.0867205421382096e-06,2.5513675154797966e-06,-0.033766187727451324,0.16419637203216553,0.24084250628948212,-9.757531370269135e-05,0.005588388070464134,-0.0009500845335423946,-5.498445510864258,-0.41996389627456665,0.7580857276916504,0.420301616191864,0.6408771872520447,0.1928659975528717,-0.1927231252193451,0.3856154680252075,0.6504022479057312,0.42000001668930054,-0.531095027923584,2.999972343444824,-0.7906956672668457,-2.999969244003296,-0.17615066468715668,-0.17786534130573273,-0.17857666313648224,-0.177377849817276,-0.5379208922386169,-0.35941585898399353,-0.17239737510681152,0.009435434825718403
0.3833333333333333,0.003194513963535428,0.14782138168811798,0.0,0.9093438982963562,0.0,0.0,-0.41604533791542053,-0.7584506273269653,-0.6719061732292175,0.0,0.0,0.0,-2.405916452407837,-0.40448883175849915,0.7617301940917969,0.42000043392181396,0.9929209351539612,-4.848839580517961e-06,-7.841044862288982e-07,-0.11877711117267609,0.5366692543029785,0.6491224765777588,-0.00042237419984303415,0.011111222207546234,0.006674234289675951,-14.36230182647705,-0.4084959030151367,0.7641118764877319,0.41967397928237915,0.7845463156700134,0.6469522714614868,0.03460671752691269,0.3856154680252075,0.6504022479057312,0.42000001668930054,-0.4810614585876465,3.0000016689300537,-0.8406991362571716,-2.9999680519104004,-0.1862916797399521,-0.18496350944042206,-0.1824893355369568,-0.17820696532726288,-0.5401052832603455,-0.3816760182380676,-0.21454010903835297,-0.05316830426454544
0.4,-0.010346359573304653,0.13443800806999207,0.0,0.8921481966972351,0.0,0.0,-0.45174288749694824,-0.8648364543914795,-0.8446961641311646,0.0,0.0,0.0,-5.58221960067749,-0.39183878898620605,0.7766382098197937,0.4205341339111328,0.9805707335472107,-0.013066963292658329,0.002641316968947649,-0.19571219384670258,1.049904227256775,1.1369646787643433,0.0709988921880722,-3.310865640640259,1.295122504234314,-6.142593860626221,-0.3929062783718109,0.7775206565856934,0.421095609664917,1.156296968460083,0.9714092016220093,0.12520070374011993,0.3856154680252075,0.6504022479057312,0.42000001668930054,-0.43099600076675415,2.9999494552612305,-0.890703558921814,-2.99997878074646,-0.19250349700450897,-0.189143106341362,-0.18425920605659485,-0.1774381697177887,-0.3006801903247833,-0.18061156570911407,-0.033162932842969894,0.1263667494058609
0.4166666666666667,-0.021585173904895782,0.11815530061721802,0.0,0.8605300188064575,0.0,0.0,-0.5093997716903687,-0.6028647422790527,-1.0334341526031494,0.0,0.0,0.0,-8.727688789367676,-0.36051440238952637,0.8000454902648926,0.42332956194877625,0.9671610593795776,-0.017009006813168526,-0.02658839337527752,-0.2521968483924866,3.0932352542877197,1.7380610704421997,0.14453618228435516,28.185314178466797,-16.111894607543945,11.569722175598145,-0.36140239238739014,0.8014690279960632,0.42345279455184937,2.6502039432525635,1.8632354736328125,0.36929675936698914,0.3856154680252075,0.6504022479057312,0.42000001668930054,-0.3908761441707611,1.5983150005340576,-0.9407244920730591,-3.0000007152557373,-0.19832743704319,-0.19270090758800507,-0.1851181983947754,-0.17543092370033264,-0.3732251226902008,-0.2235681265592575,-0.05188276991248131,0.1260768324136734
0.43333333333333335,-0.02881869114935398,0.09989124536514282,0.0,0.8122099041938782,0.0,0.0,-0.583365261554718,-0.35160744190216064,-1.1985630989074707,0.0,0.0,0.0,-11.249796867370605,-0.2917754054069519,0.8371835350990295,0.4278816878795624,0.9475352764129639,0.04169389232993126,-0.06759212166070938,-0.30962833762168884,5.61881160736084,2.2068099975585938,0.2977604568004608,19.288616180419922,-13.836345672607422,18.583463668823242,-0.29239851236343384,0.8388773202896118,0.42808765172958374,5.217512130737305,2.642496109008789,0.40090668201446533,0.3856154680252075,0.6504022479057312,0.42000001668930054,-0.3709760904312134,0.991184413433075,-0.9033552408218384,2.996546983718872,-0.20728936791419983,-0.19841192662715912,-0.18751081824302673,-0.1746990829706192,-0.5217717885971069,-0.3354114592075348,-0.15601865947246552,0.002180722076445818
0.45,-0.03410784900188446,0.08671919256448746,0.0,0.7718338370323181,0.0,0.0,-0.6358242630958557,-0.2422862946987152,-0.6539693474769592,0.0,0.0,0.0,-6.823170185089111,-0.20265521109104156,0.8717746734619141,0.43575209379196167,0.9012725353240967,0.11810111999511719,-0.10566871613264084,-0.4032295048236847,5.705752372741699,1.1518501043319702,0.5029954314231873,11.790614128112793,-19.673078536987305,12.067580223083496,-0.2043246328830719,0.8736457824707031,0.4357990026473999,5.503748893737793,1.625849962234497,0.5407346487045288,0.3856154680252075,0.6504022479057312,0.42000001668930054,-0.35500603914260864,0.9429733157157898,-0.8533669710159302,2.994004249572754,-0.22188414633274078,-0.2098361998796463,-0.19466687738895416,-0.1782686561346054,-0.8715657591819763,-0.7485675811767578,-0.4887390434741974,-0.27583128213882446
0.4666666666666667,-0.041393812745809555,0.07075798511505127,0.0,0.7510204911231995,0.0,0.0,-0.660278856754303,-0.4279792308807373,-0.916496217250824,0.0,0.0,0.0,-2.6460182666778564,-0.11066003143787384,0.887852132320404,0.4457395672798157,0.8636952042579651,0.12408635020256042,-0.11606443673372269,-0.47451263666152954,5.678136825561523,0.07585678994655609,0.5836923718452454,6.741745471954346,-2.8777151107788086,-3.386810779571533,-0.11184433102607727,0.8905104398727417,0.4458172917366028,5.673734664916992,0.23021340370178223,0.7557460069656372,0.3856154680252075,0.6504022479057312,0.42000001668930054,-0.3356359302997589,1.2455496788024902,-0.879337728023529,-3.0000009536743164,-0.23432156443595886,-0.21949999034404755,-0.19973348081111908,-0.17945298552513123,-0.9162459373474121,-0.6709063053131104,-0.3422592282295227,-0.05654989555478096
0.48333333333333334,-0.0502544529736042,0.05885797739028931,0.0,0.7235338687896729,0.0,0.0,-0.6902888417243958,-0.5639363527297974,-0.6972142457962036,0.0,0.0,0.0,-5.595078945159912,-0.015849869698286057,0.8806042671203613,0.4532487392425537,0.8164068460464478,0.10154548287391663,-0.13209545612335205,-0.5529186725616455,5.662417411804199,-1.8000707626342773,0.5390346050262451,-12.555105209350586,11.004656791687012,11.59807014465332,-0.017250388860702515,0.8851926326751709,0.45489591360092163,5.805552005767822,-0.7899068593978882,0.4597299098968506,0.3856154680252075,0.6504022479057312,0.42000001668930054,-0.3161832392215729,0.8542881011962891,-0.9293619990348816,-2.9998226165771484,-0.24005089700222015,-0.23217420279979706,-0.20704184472560883,-0.18193615972995758,-0.047276221215724945,-0.6218713521957397,-0.3428198993206024,-0.08490809798240662
0.5,-0.056666791439056396,0.04411715269088745,0.0,0.7085893154144287,0.0,0.0,-0.7056211233139038,-0.34976446628570557,-0.9499252438545227,0.0,0.0,0.0,-1.5371413230895996,0.0782630667090416,0.8604188561439514,0.4551616907119751,0.7382475733757019,0.005116552580147982,-0.20675508677959442,-0.6420409679412842,5.165177822113037,-2.0971832275390625,0.3962182402610779,-0.669576108455658,11.69726848602295,5.0790228843688965,0.07558497786521912,0.8655555248260498,0.46105867624282837,5.530436992645264,-1.6586008071899414,0.19755178689956665,0.3856154680252075,0.6504022479057312,0.42000001668930054,-0.30568426847457886,0.48595505952835083,-0.979386031627655,-2.999356269836426,-0.23898856341838837,-0.23870472609996796,-0.20998366177082062,-0.18169087171554565,0.03297283127903938,-0.29289713501930237,-0.11965230107307434,0.024732135236263275
0.5166666666666666,-0.05999496951699257,0.03252427652478218,0.0,0.6850790977478027,0.0,0.0,-0.7284687161445618,-0.12605246901512146,-0.6448787450790405,0.0,0.0,0.0,-4.748833656311035,0.16100339591503143,0.8277518153190613,0.45499348640441895,0.7118622064590454,0.002328528556972742,-0.1637735217809677,-0.6829531192779541,4.461481094360352,-2.6678309440612793,-0.2593326270580292,-3.866574287414551,0.41695645451545715,8.284029006958008,0.16018570959568024,0.8330605626106262,0.4600052535533905,4.815312385559082,-2.2481369972229004,-0.21430882811546326,0.3856154680252075,0.6504022479057312,0.42000001668930054,-0.2950550615787506,0.7290272116661072,-1.0294089317321777,-3.0000007152557373,-0.23983745276927948,-0.2397001087665558,-0.2127774953842163,-0.182874396443367,0.04079880937933922,0.0830165296792984,-0.08030975610017776,-0.04707600548863411
0.5333333333333333,-0.05961059033870697,0.02590872161090374,0.0,0.6759454607963562,0.0,0.0,-0.7369516491889954,0.06863522529602051,-0.2765430212020874,0.0,0.0,0.0,-0.5428748726844788,0.23246972262859344,0.7868821024894714,0.4480067789554596,0.6624870896339417,-0.03802024945616722,-0.13903658092021942,-0.7350741624832153,3.5921945571899414,-3.202836036682129,-0.4549122154712677,-3.1042373180389404,2.6781201362609863,14.88741397857666,0.23263883590698242,0.7923781871795654,0.4531632959842682,3.9932475090026855,-2.6565792560577393,-0.5259513854980469,0.3856154680252075,0.6504022479057312,0.42000001668930054,-0.2818767726421356,0.7172937393188477,-1.0794310569763184,-2.9999783039093018,-0.2397017627954483,-0.23845279216766357,-0.21426697075366974,-0.1844995617866516,0.03280532360076904,0.11283862590789795,-0.05831314995884895,-0.11019933968782425
0.55,-0.05599066615104675,0.018771756440401077,0.0,0.6565393209457397,0.0,0.0,-0.754291832447052,0.2770605981349945,-0.5036658644676208,0.0,0.0,0.0,-4.130584716796875,0.2913024127483368,0.7453181147575378,0.43400198221206665,0.632429301738739,-0.0769362598657608,-0.11773707717657089,-0.7617425918579102,2.778578758239746,-2.9388740062713623,-0.8539429306983948,0.2692880630493164,2.77344012260437,17.89801788330078,0.29233860969543457,0.7503520846366882,0.4394558072090149,3.2712039947509766,-2.535287857055664,-0.9890345335006714,0.3856154680252075,0.6504022479057312,0.42000001668930054,-0.26999568939208984,0.6081637144088745,-1.129453182220459,-2.999999761581421,-0.2341325581073761,-0.23253870010375977,-0.21226626634597778,-0.1848483383655548,0.46911972761154175,0.47255128622055054,0.21491746604442596,0.022757021710276604
0.5666666666666667,-0.05044599995017052,0.014629609882831573,0.0,0.6500036716461182,0.0,0.0,-0.7599310278892517,0.3686528205871582,-0.19027288258075714,0.0,0.0,0.0,-0.07051195949316025,0.3356459438800812,0.708368718624115,0.42283302545547485,0.6009748578071594,-0.05159930884838104,-0.03977304324507713,-0.7966082096099854,1.6204954385757446,-2.364313840866089,0.02526177652180195,-6.040635108947754,4.209948539733887,20.391063690185547,0.33643901348114014,0.7109336853027344,0.42575299739837646,1.9843978881835938,-1.8697030544281006,0.11458288133144379,0.3856154680252075,0.6504022479057312,0.42000001668930054,-0.26015740633010864,0.5817665457725525,-1.179416298866272,-2.9998888969421387,-0.2274894118309021,-0.22579355537891388,-0.2097160518169403,-0.18583351373672485,0.4493359923362732,0.43115881085395813,0.16790208220481873,-0.07072263211011887
0.5833333333333334,-0.04667283967137337,0.013469942845404148,0.0,0.6345088481903076,0.0,0.0,-0.7729155421257019,0.17455622553825378,-0.004295164253562689,0.0,0.0,0.0,-3.3164281845092773,0.36483630537986755,0.6813791394233704,0.42199400067329407,0.5910932421684265,-0.031183600425720215,-0.03159119188785553,-0.8053808212280273,1.0478371381759644,-1.9203733205795288,0.05305593088269234,1.2579339742660522,-6.995670795440674,24.397085189819336,0.36436721682548523,0.6835967302322388,0.424846887588501,1.4842650890350342,-1.5218769311904907,-0.08147066831588745,0.3856154680252075,0.6504022479057312,0.42000001668930054,-0.2491789013147354,0.5560510158538818,-1.1415461301803589,2.992299795150757,-0.21840830147266388,-0.21762871742248535,-0.2062801867723465,-0.1869400590658188,0.5575725436210632,0.4990440607070923,0.22360403835773468,-0.0570998378098011
0.6,-0.04171445965766907,0.007333784364163876,0.0,0.6320940852165222,0.0,0.0,-0.7748916149139404,0.3431449234485626,-0.48205646872520447,0.0,0.0,0.0,0.564425528049469,0.3799232840538025,0.6591652631759644,0.4216792583465576,0.6435931921005249,-0.02712174691259861,-0.027983177453279495,-0.7643749117851257,0.10031311959028244,-1.9617106914520264,0.264564573764801,-6.17563533782959,-8.57960033416748,26.221323013305664,0.382913738489151,0.6630710363388062,0.4258463978767395,0.8195134401321411,-1.0024096965789795,0.10564940422773361,0.3856154680252075,0.6504022479057312,0.42000001668930054,-0.23645749688148499,0.25373953580856323,-1.1636853218078613,-3.000906467437744,-0.20426668226718903,-0.2053089290857315,-0.19910341501235962,-0.18515869975090027,0.8840694427490234,0.7717342376708984,0.47341734170913696,0.14668256044387817
0.6166666666666667,-0.0349787212908268,0.004502326250076294,0.0,0.6193066239356995,0.0,0.0,-0.7851492166519165,0.43953388929367065,-0.06376951932907104,0.0,0.0,0.0,-2.893183946609497,0.39061903953552246,0.649773120880127,0.4210313558578491,0.6349219083786011,-0.019825097173452377,-0.011164494790136814,-0.7722411751747131,0.03754786029458046,-1.205413818359375,-0.24922703206539154,1.4311668872833252,-20.495622634887695,36.79039001464844,0.39087772369384766,0.6519615650177002,0.425077885389328,0.36634358763694763,-0.3936186730861664,-0.07322441786527634,0.3856154680252075,0.6504022479057312,0.42000001668930054,-0.2394620031118393,-0.5198937058448792,-1.1258224248886108,2.9914965629577637,-0.19010460376739502,-0.19344769418239594,-0.1922743171453476,-0.18390846252441406,0.7915419936180115,0.6577974557876587,0.37718039751052856,0.0564698688685894
0.6333333333333333,-0.026460595428943634,0.005946091376245022,0.0,0.6197201013565063,0.0,0.0,-0.784822940826416,0.5526876449584961,0.11878062039613724,0.0,0.0,0.0,0.9994717240333557,0.3935244679450989,0.6437442898750305,0.4209337830543518,0.667921781539917,-0.017675595358014107,-0.011728525161743164,-0.7439290285110474,-0.01320981327444315,-0.29244422912597656,-0.0013857182348147035,-1.354973316192627,-0.9606081247329712,7.977715015411377,0.3931501507759094,0.6472352147102356,0.42672449350357056,0.04591713845729828,-0.1698591411113739,0.16976547241210938,0.3856154680252075,0.6504022479057312,0.42000001668930054,-0.2772132158279419,-2.999988079071045,-1.147929072380066,-2.999634027481079,-0.1780589073896408,-0.183530792593956,-0.18657733500003815,-0.1831418126821518,0.6849879026412964,0.5643553733825684,0.3358149230480194,0.061376992613077164
0.65,-0.015824444591999054,0.00808719638735056,0.0,0.6431019902229309,0.0,0.0,-0.7657805681228638,0.6766515374183655,0.17878445982933044,0.0,0.0,0.0,4.481184482574463,0.39163529872894287,0.6411463022232056,0.42073771357536316,0.7038414478302002,-0.012334845960140228,-0.013240092433989048,-0.7101264595985413,-0.19526898860931396,-0.04038097336888313,0.024931367486715317,-0.9519476294517517,-0.2989955544471741,5.675234794616699,0.39286008477211,0.6481743454933167,0.42941373586654663,-0.04199916869401932,0.20617777109146118,0.1716674119234085,0.3856154680252075,0.6504022479057312,0.42000001668930054,-0.3212042450904846,-2.3212294578552246,-1.1978946924209595,-2.9985239505767822,-0.16595982015132904,-0.17362040281295776,-0.18033480644226074,-0.18132396042346954,0.7261468768119812,0.5948286652565002,0.3898749053478241,0.1383763700723648
0.6666666666666666,-0.007670582737773657,0.006197565235197544,0.0,0.6530719995498657,0.0,0.0,-0.7572958469390869,0.36429035663604736,-0.08037393540143967,0.0,0.0,0.0,0.4531085789203644,0.38928139209747314,0.640759289264679,0.42032212018966675,0.7270117998123169,-0.005492941476404667,-0.005929918494075537,-0.6865772604942322,-0.10516384989023209,-0.007413479965180159,-0.027969742193818092,1.4386730194091797,0.04490368813276291,3.115128993988037,0.39244401454925537,0.6529129147529602,0.4313589334487915,-0.146760493516922,0.20860698819160461,0.03180014714598656,0.3856154680252075,0.6504022479057312,0.42000001668930054,-0.37066298723220825,-3.0000011920928955,-1.2042044401168823,1.8124421834945679,-0.15302900969982147,-0.16197505593299866,-0.17175012826919556,-0.1765817254781723,0.42990052700042725,0.4716261029243469,0.37150320410728455,0.2183903455734253
0.6833333333333333,9.088439401239157e-05,0.002149993786588311,0.0,0.6713715195655823,0.0,0.0,-0.7411209940910339,0.5095536708831787,-0.3209596872329712,0.0,0.0,0.0,3.7518386840820312,0.38803479075431824,0.6406012177467346,0.4203093945980072,0.7295532822608948,0.004532285965979099,-0.005308220162987709,-0.68388831615448,-0.11635523289442062,0.009323030710220337,0.07165620476007462,-0.31117114424705505,-3.1208229064941406,-0.935185968875885,0.39024192094802856,0.6547130942344666,0.4344256520271301,-0.12899011373519897,0.053881607949733734,0.28118881583213806,0.3856154680252075,0.6504022479057312,0.42000001668930054,-0.4206702411174774,-2.999854564666748,-1.235448956489563,-2.999861478805542,-0.14873071014881134,-0.15608350932598114,-0.1660788655281067,-0.17194394767284393,0.18063797056674957,0.30614274740219116,0.3515298664569855,0.35234013199806213
0.7,0.009976557455956936,-0.0050901612266898155,0.0,0.6760700345039368,0.0,0.0,-0.7368373870849609,0.6256231665611267,-0.47832968831062317,0.0,0.0,0.0,-0.24176378548145294,0.3866114318370819,0.6406810879707336,0.4205246865749359,0.7266885042190552,0.009660798124969006,-0.00913237128406763,-0.6868383288383484,-0.07268853485584259,0.004382124170660973,-0.002611507661640644,-0.007981853559613228,0.13407312333583832,-0.40281251072883606,0.3916988968849182,0.6559410095214844,0.4398135840892792,0.2014668583869934,0.007472679018974304,0.3457486629486084,0.3856154680252075,0.6504022479057312,0.42000001668930054,-0.4706782400608063,-2.999999761581421,-1.285460114479065,-2.9999988079071045,-0.14761054515838623,-0.15243123471736908,-0.1607741266489029,-0.16563871502876282,0.02535133995115757,0.1919475793838501,0.3279874324798584,0.42877981066703796
0.7166666666666667,0.021714329719543457,-0.01486977282911539,0.0,0.6591095924377441,0.0,0.0,-0.7520469427108765,0.7354341745376587,-0.6721088886260986,0.0,0.0,0.0,-3.5989673137664795,0.3861800730228424,0.6407330632209778,0.4200008511543274,0.7256321907043457,1.2601988601090852e-05,-3.240426303818822e-05,-0.6880826950073242,0.00978072453290224,0.0008059137035161257,-0.0006961713079363108,0.04131551831960678,0.04265724495053291,0.0062355417758226395,0.40072745084762573,0.6574273109436035,0.4534989595413208,0.837119460105896,0.1330052614212036,1.3913381099700928,0.3856154680252075,0.6504022479057312,0.42000001668930054,-0.5206907987594604,-2.9999866485595703,-1.33547842502594,-2.999999523162842,-0.14986298978328705,-0.15180036425590515,-0.15746928751468658,-0.16020739078521729,-0.19884072244167328,-0.027846088632941246,0.145538792014122,0.2883320152759552
0.7333333333333333,0.037401773035526276,-0.019106358289718628,0.0,0.6194387078285217,0.0,0.0,-0.7850450277328491,1.0219820737838745,-0.1143493577837944,0.0,0.0,0.0,-7.247847080230713,0.3861812651157379,0.6407325863838196,0.4200000464916229,0.7256322503089905,1.1108595572295599e-06,3.5179161272935744e-07,-0.6880826950073242,6.962922270759009e-06,0.00010213425412075594,-3.772834315896034e-05,-0.005135940853506327,-0.0034401402808725834,-0.0001573377230670303,0.4249432682991028,0.651942253112793,0.48144298791885376,2.131579875946045,-0.7276425957679749,2.1030471324920654,0.3856154680252075,0.6504022479057312,0.42000001668930054,-0.570693850517273,-2.9996254444122314,-1.385496735572815,-2.999941110610962,-0.16243316233158112,-0.15991418063640594,-0.16099056601524353,-0.15975727140903473,-0.9398713707923889,-0.6410090923309326,-0.3263322114944458,-0.050099920481443405
0.75,0.050989795476198196,-0.016652734950184822,0.0,0.5908570885658264,0.0,0.0,-0.806776225566864,0.6279340982437134,-0.009939506649971008,0.0,0.0,0.0,-2.977656602859497,0.3861809968948364,0.6407328248023987,0.42000001668930054,0.72563236951828,7.074190193634422e-07,-3.917241429007845e-06,-0.6880825757980347,0.00027379070525057614,-0.0002833544567693025,-0.00010085036046802998,0.0044157677330076694,0.002115607727319002,4.418965909280814e-05,0.45539581775665283,0.6437236070632935,0.5184293985366821,1.7152705192565918,-0.1557515263557434,2.2350685596466064,0.3856154680252075,0.6504022479057312,0.42000001668930054,-0.5907179713249207,0.3147355020046234,-1.43551504611969,-2.9999873638153076,-0.1759057492017746,-0.1709464192390442,-0.16752909123897552,-0.1624836027622223,-0.2816298007965088,-0.2800171971321106,-0.1567016839981079,-0.060950178653001785
0.7666666666666666,0.057849932461977005,-0.01758524961769581,0.0,0.5910833477973938,0.0,0.0,-0.8066105246543884,0.3305223882198334,-0.0071944803930819035,0.0,0.0,0.0,0.9277593493461609,0.3861810266971588,0.6407328248023987,0.42000001668930054,0.7256324291229248,8.821717187856848e-07,-4.006298240710748e-06,-0.6880825161933899,0.00027110695373266935,-0.00025280346744693816,-9.984942153096199e-05,0.003804225940257311,0.002232008147984743,3.402326001378242e-06,0.4821433424949646,0.6426147222518921,0.5506585836410522,1.2384065389633179,0.022834371775388718,1.6738333702087402,0.3856154680252075,0.6504022479057312,0.42000001668930054,-0.5640008449554443,2.661334753036499,-1.485533356666565,-3.0,-0.1754700243473053,-0.17146505415439606,-0.16711848974227905,-0.1614525467157364,0.12240594625473022,0.05620362237095833,0.0875251442193985,0.10101410746574402
0.7833333333333333,0.06070182844996452,-0.015639428049325943,0.0,0.6130005121231079,0.0,0.0,-0.7900825142860413,0.12556515634059906,0.18103940784931183,0.0,0.0,0.0,4.201646327972412,0.3861810266971588,0.6407327651977539,0.42000001668930054,0.72563236951828,8.920402478906908e-07,-4.152576366323046e-06,-0.6880825757980347,0.0002715997688937932,-0.0002530057681724429,-9.998446330428123e-05,0.003807061817497015,0.0022395746782422066,3.0659412004752085e-06,0.492792546749115,0.6451647281646729,0.5746411085128784,0.04463232681155205,0.289314866065979,1.2771580219268799,0.3856154680252075,0.6504022479057312,0.42000001668930054,-0.5144273638725281,2.999990940093994,-1.4468491077423096,2.999999523162842,-0.17204727232456207,-0.1693088859319687,-0.1648474484682083,-0.15933026373386383,0.26209762692451477,0.18189768493175507,0.1696636974811554,0.1421830803155899
0.8,0.060964297503232956,-0.016658291220664978,0.0,0.620094895362854,0.0,0.0,-0.7845268249511719,-0.004008376970887184,-0.09107590466737747,0.0,0.0,0.0,-0.01343628205358982,0.3861810266971588,0.6407327651977539,0.42000001668930054,0.7256322503089905,8.70497217420052e-07,-3.990271125076106e-06,-0.6880826354026794,0.0002714988077059388,-0.00025308970361948013,-0.00010000425390899181,0.0038084781263023615,0.002235602820292115,3.2603563795419177e-06,0.48740193247795105,0.6498773097991943,0.5912092328071594,-0.7119810581207275,0.21418511867523193,0.8554247617721558,0.3856154680252075,0.6504022479057312,0.42000001668930054,-0.5015905499458313,-1.1147302389144897,-1.396796464920044,3.0,-0.16733969748020172,-0.16561780869960785,-0.16122981905937195,-0.15598562359809875,0.21378710865974426,0.18670997023582458,0.20379766821861267,0.2094285637140274
0.8166666666666667,0.05872981250286102,-0.011794748716056347,0.0,0.6375396847724915,0.0,0.0,-0.7704175114631653,-0.1621684581041336,0.25417423248291016,0.0,0.0,0.0,3.40336012840271,0.3861810266971588,0.6407328248023987,0.42000001668930054,0.7256321907043457,1.1143250731038279e-06,-4.336010078986874e-06,-0.6880826950073242,0.00026955781504511833,-0.00025154900504276156,-9.942101314663887e-05,0.0037814383395016193,0.002209664788097143,3.6001260923512746e-06,0.47650420665740967,0.6512882709503174,0.6008002758026123,-0.42398154735565186,0.13608580827713013,0.3475702404975891,0.3856154680252075,0.6504022479057312,0.42000001668930054,-0.49796682596206665,1.3376381397247314,-1.41495943069458,-2.999911308288574,-0.16835995018482208,-0.1658470630645752,-0.16019853949546814,-0.15396174788475037,0.17061544954776764,0.17637155950069427,0.20678846538066864,0.22987055778503418
0.8333333333333334,0.058531567454338074,-0.011337880976498127,0.0,0.6423291563987732,0.0,0.0,-0.7664288878440857,-0.01294584572315216,-0.011605937033891678,0.0,0.0,0.0,-0.00804273784160614,0.3861810266971588,0.6407328248023987,0.42000001668930054,0.7256323099136353,1.0746235830083606e-06,-4.303646619518986e-06,-0.6880826354026794,0.00027428450994193554,-0.0002553788071963936,-0.00010077562183141708,0.0038494293112307787,0.002274780534207821,3.0715384582435945e-06,0.46445828676223755,0.6568182706832886,0.602737545967102,-1.0881390571594238,0.4806968569755554,0.011080551892518997,0.3856154680252075,0.6504022479057312,0.42000001668930054,-0.48628270626068115,0.15509869158267975,-1.3764756917953491,2.9999992847442627,-0.1638673096895218,-0.16183412075042725,-0.15642449259757996,-0.1505255252122879,0.1766255646944046,0.1529630869626999,0.13312238454818726,0.10576219111680984
0.85,0.06042180582880974,-0.013882428407669067,0.0,0.6574532389640808,0.0,0.0,-0.7534953355789185,0.16991586983203888,-0.22585131227970123,0.0,0.0,0.0,3.1615612506866455,0.3861810266971588,0.6407327651977539,0.42000001668930054,0.72563236951828,8.799160013950313e-07,-4.083663952769712e-06,-0.6880825757980347,0.0002713985159061849,-0.0002528247714508325,-9.993743151426315e-05,0.003803943982347846,0.0022368391510099173,3.046811571039143e-06,0.44973957538604736,0.662699282169342,0.6044899821281433,-0.676846444606781,0.27502357959747314,0.2522844970226288,0.3856154680252075,0.6504022479057312,0.42000001668930054,-0.4978093206882477,-1.393813967704773,-1.3264230489730835,3.000000238418579,-0.16203323006629944,-0.15985728800296783,-0.15429659187793732,-0.14830748736858368,0.10675324499607086,0.12859223783016205,0.14864253997802734,0.16930872201919556
0.8666666666666667,0.06474214047193527,-0.019302720203995705,0.0,0.6583148837089539,0.0,0.0,-0.7527426481246948,0.2974855303764343,-0.3932955861091614,0.0,0.0,0.0,-0.8373713493347168,0.3861810266971588,0.6407328248023987,0.42000001668930054,0.7256322503089905,9.097403790292447e-07,-4.122977316001197e-06,-0.6880826354026794,0.00027132415561936796,-0.0002529200282879174,-9.996839798986912e-05,0.0038054424803704023,0.0022331150248646736,3.2249706691800384e-06,0.4419354796409607,0.6661297082901001,0.6028389930725098,-0.31701865792274475,0.08080673217773438,-0.23693513870239258,0.3856154680252075,0.6504022479057312,0.42000001668930054,-0.5325228571891785,-2.6363470554351807,-1.3427492380142212,-2.9999992847442627,-0.16174520552158356,-0.15871086716651917,-0.1523427963256836,-0.1454753279685974,0.014829173684120178,0.08899082988500595,0.15781529247760773,0.2328755259513855
0.8833333333333333,0.07261528819799423,-0.020062556490302086,0.0,0.6365054845809937,0.0,0.0,-0.7712721824645996,0.4305977523326874,-0.030667824670672417,0.0,0.0,0.0,-4.184688091278076,0.3861810266971588,0.6407327651977539,0.42000001668930054,0.7256323099136353,9.490427714808902e-07,-4.1689058889460284e-06,-0.6880825161933899,0.0002713417343329638,-0.0002527125761844218,-9.99609474092722e-05,0.0038016897160559893,0.0022353490348905325,2.903306267398875e-06,0.4413791298866272,0.6640867590904236,0.5973250865936279,0.3105955123901367,-0.15044206380844116,-0.22334685921669006,0.3856154680252075,0.6504022479057312,0.42000001668930054,-0.5520902276039124,0.06862613558769226,-1.3927675485610962,-3.0,-0.1667279154062271,-0.16181208193302155,-0.15376591682434082,-0.14518201351165771,-0.13526223599910736,-0.06432519108057022,-0.004155815578997135,0.06340184062719345
0.9,0.0816773921251297,-0.018620116636157036,0.0,0.6303382515907288,0.0,0.0,-0.7763205766677856,0.5859285593032837,0.11742380261421204,0.0,0.0,0.0,0.056226275861263275,0.3861810266971588,0.6407327651977539,0.42000001668930054,0.7256324291229248,8.930852573030279e-07,-4.040729436383117e-06,-0.6880825161933899,0.00027160721947439015,-0.0002532398502808064,-0.00010002986527979374,0.003811289556324482,0.0022370496299117804,3.3499952678539557e-06,0.44648095965385437,0.6653705835342407,0.5989475846290588,0.3174772262573242,0.28331509232521057,0.37160465121269226,0.3856154680252075,0.6504022479057312,0.42000001668930054,-0.5302646160125732,2.3358945846557617,-1.376350998878479,2.999999523162842,-0.16664306819438934,-0.1617933064699173,-0.1540149599313736,-0.14555040001869202,0.12674245238304138,0.05953427404165268,-0.02226703055202961,-0.09519527852535248
0.9166666666666666,0.08746355026960373,-0.023075981065630913,0.0,0.6486326456069946,0.0,0.0,-0.7611016035079956,0.3722052276134491,-0.3021847605705261,0.0,0.0,0.0,3.490333318710327,0.3861810266971588,0.6407327651977539,0.42000001668930054,0.7256323099136353,8.968448241830629e-07,-4.070446266268846e-06,-0.6880825757980347,0.0002717137977015227,-0.00025333338999189436,-0.00010005384683609009,0.003812929382547736,0.002238514134660363,3.3603751035116147e-06,0.4483588635921478,0.6713259220123291,0.605178713798523,-0.12756426632404327,0.24646398425102234,0.293590784072876,0.3856154680252075,0.6504022479057312,0.42000001668930054,-0.5193420648574829,-0.7622472047805786,-1.3262983560562134,2.999999761581421,-0.15856359899044037,-0.15551215410232544,-0.14983095228672028,-0.14333653450012207,0.30298662185668945,0.23460762202739716,0.14060765504837036,0.04640663415193558
