vladlanda/robotic-transformer/data/env_000_episode_0112.csv
sim_time_s,robot_box_x,robot_box_y,robot_box_z,robot_box_quat_w,robot_box_quat_x,robot_box_quat_y,robot_box_quat_z,robot_box_linvel_x,robot_box_linvel_y,robot_box_linvel_z,robot_box_angvel_x,robot_box_angvel_y,robot_box_angvel_z,cube_world_x,cube_world_y,cube_world_z,cube_quat_w,cube_quat_x,cube_quat_y,cube_quat_z,cube_linvel_x,cube_linvel_y,cube_linvel_z,cube_angvel_x,cube_angvel_y,cube_angvel_z,endpoint_world_x,endpoint_world_y,endpoint_world_z,endpoint_linvel_x,endpoint_linvel_y,endpoint_linvel_z,target_cube_world_x,target_cube_world_y,target_cube_world_z,gripper_actual_pos_rad_gp_leftgearjoint,gripper_actual_vel_rad_s_gp_leftgearjoint,gripper_actual_pos_rad_gp_rotatingjoint,gripper_actual_vel_rad_s_gp_rotatingjoint,motor_angle_rad_joint1,motor_angle_rad_joint2,motor_angle_rad_joint3,motor_angle_rad_joint4,motor_speed_rad_s_joint1,motor_speed_rad_s_joint2,motor_speed_rad_s_joint3,motor_speed_rad_s_joint4
0.0,0.0,0.0,0.0,1.0,0.0,0.0,0.0,0.0,0.0,0.0,0.0,0.0,0.0,-0.3928469121456146,0.6364160180091858,0.41999998688697815,1.0,0.0,0.0,0.0,0.0,0.0,0.0,0.0,0.0,0.0,3.42540442943573e-06,-0.005000244826078415,1.313499927520752,0.0,0.0,0.0,0.35245266556739807,0.7252703905105591,0.42000001668930054,-1.5707999467849731,0.0,0.0,0.0,0.0,0.0,0.0,0.0,0.0,0.0,0.0,0.0
0.016666666666666666,0.0028778850100934505,0.0021806680597364902,0.0,0.9998081922531128,0.0,0.0,0.019586581736803055,0.24087215960025787,0.18240931630134583,0.0,0.0,0.0,3.1418697834014893,-0.3928470313549042,0.6364157199859619,0.41999998688697815,1.0,3.279964630564791e-06,-8.339746386809566e-07,8.465587342243452e-08,-1.9833529222523794e-05,0.00017983045836444944,-6.132945418357849e-05,0.0009432713268324733,-0.004689474124461412,-0.00031981561915017664,-0.007110234349966049,0.003379564033821225,1.3159373998641968,-0.8143353462219238,0.9868683815002441,0.18095196783542633,0.35245266556739807,0.7252703905105591,0.42000001668930054,-1.5301095247268677,3.0000011920928955,-0.04584788903594017,-2.9999992847442627,0.0008691533003002405,0.0007963840034790337,0.0007110277656465769,0.0006108740926720202,0.11094217747449875,0.09756709635257721,0.08334315568208694,0.06823883205652237
0.03333333333333333,0.008960957638919353,0.006801832001656294,0.0,0.9997960329055786,0.0,0.0,0.020196832716464996,0.4070190191268921,0.3153054416179657,0.0,0.0,0.0,-0.8691297769546509,-0.3928471505641937,0.6364156603813171,0.4200000464916229,1.0,3.3908179375430336e-06,-2.132458348569344e-06,-3.7097745320124886e-08,0.00026357852038927376,0.00026937833172269166,-0.00010509369894862175,-0.0017707126680761576,0.004130884539335966,-0.0001354814594378695,-0.02754337713122368,0.025844000279903412,1.3166507482528687,-1.5912822484970093,1.6065678596496582,-0.07856670022010803,0.35245266556739807,0.7252703905105591,0.42000001668930054,-1.4800904989242554,3.0000009536743164,-0.09588771313428879,-3.0000007152557373,0.002990191802382469,0.0026528378948569298,0.0022774410899728537,0.0018609266262501478,0.1642289012670517,0.13977526128292084,0.11383673548698425,0.08632123470306396
0.05,0.017540140077471733,0.013726922683417797,0.0,0.9994503259658813,0.0,0.0,0.033152319490909576,0.5872250199317932,0.4631844460964203,0.0,0.0,0.0,2.6899123191833496,-0.3928471803665161,0.6364157199859619,0.4200000464916229,1.0,3.7651293496310245e-06,-2.2119379536889028e-06,5.6273887771851605e-09,0.0002653067058417946,0.00026691422681324184,-0.00010440615005791187,-0.0017243530601263046,0.00417736079543829,-0.00012949267693329602,-0.05953410640358925,0.053449902683496475,1.3117663860321045,-2.185368537902832,1.7220215797424316,-0.46201789379119873,0.35245266556739807,0.7252703905105591,0.42000001668930054,-1.4300721883773804,2.999997854232788,-0.145926371216774,-3.0000011920928955,0.005631415639072657,0.004843626171350479,0.003983751405030489,0.0030472634825855494,0.19121627509593964,0.15435707569122314,0.11563291400671005,0.07494950294494629
0.06666666666666667,0.02875128760933876,0.0229872427880764,0.0,0.9995076656341553,0.0,0.0,0.03137486055493355,0.7141323685646057,0.5933278799057007,0.0,0.0,0.0,-1.171552062034607,-0.3928471803665161,0.6364156603813171,0.4200000464916229,0.9999999403953552,3.406754103707499e-06,-2.2856077066535363e-06,4.300980265270482e-07,0.0002670255198609084,0.0002679179306142032,-0.0001043803058564663,-0.001740670995786786,0.004211848136037588,-0.00012850687198806554,-0.09801063686609268,0.08714122325181961,1.299534559249878,-2.4518513679504395,2.197580337524414,-0.9814050197601318,0.35245266556739807,0.7252703905105591,0.42000001668930054,-1.3800437450408936,3.0,-0.14172011613845825,2.987182378768921,0.008175529539585114,0.006696323398500681,0.005106362048536539,0.003399869427084923,0.14868290722370148,0.09752258658409119,0.04433758556842804,-0.01095475535839796
0.08333333333333333,0.043209224939346313,0.03439047932624817,0.0,0.9999996423721313,0.0,0.0,0.0008494656067341566,0.9319221377372742,0.7261574864387512,0.0,0.0,0.0,-4.489178657531738,-0.3928471803665161,0.6364156603813171,0.4200000464916229,0.9999999403953552,3.6260603337723296e-06,-2.3353738924924983e-06,3.0322857469400333e-07,0.00026613770751282573,0.00026685066404752433,-0.00010405178181827068,-0.0017283547203987837,0.004196325317025185,-0.000127911422168836,-0.13748303055763245,0.12641704082489014,1.2816541194915771,-2.351794719696045,2.3979859352111816,-1.1722657680511475,0.35245266556739807,0.7252703905105591,0.42000001668930054,-1.3300374746322632,3.000004529953003,-0.1736563742160797,-3.0,0.009933868423104286,0.007475726306438446,0.004866601899266243,0.0021002490539103746,0.08227413892745972,0.014447476714849472,-0.05550123751163483,-0.12753625214099884
0.1,0.05184303969144821,0.043292347341775894,0.0,0.9999246001243591,0.0,0.0,-0.012279718182981014,0.37084218859672546,0.4500107765197754,0.0,0.0,0.0,-0.5593363046646118,-0.3928471803665161,0.6364156603813171,0.4200000464916229,1.0,3.4220743145851884e-06,-2.30867885875341e-06,1.7964234189093986e-07,0.0002668164379429072,0.0002680036413948983,-0.00010440708138048649,-0.0017430284060537815,0.004207152873277664,-0.00012891023652628064,-0.17991729080677032,0.16286899149417877,1.2587933540344238,-2.5326602458953857,2.2352094650268555,-1.4940001964569092,0.35245266556739807,0.7252703905105591,0.42000001668930054,-1.2800111770629883,2.999993324279785,-0.13995899260044098,3.000000238418579,0.004976192489266396,0.0018218479817733169,-0.0015349311288446188,-0.005103321745991707,-0.42351034283638,-0.46591541171073914,-0.5109290480613708,-0.5587736964225769
0.11666666666666667,0.06262744963169098,0.05498574301600456,0.0,0.999184787273407,0.0,0.0,-0.04037068411707878,0.8554720282554626,0.8110848665237427,0.0,0.0,0.0,-4.293565273284912,-0.3928471803665161,0.6364157199859619,0.4200000464916229,1.0,3.711451881827088e-06,-2.3327925191551913e-06,2.574467430349614e-07,0.0002648566151037812,0.0002663534542080015,-0.00010423408821225166,-0.0017182299634441733,0.004170136991888285,-0.0001291574299102649,-0.21766820549964905,0.20638228952884674,1.2309626340866089,-2.0644919872283936,2.9455904960632324,-1.8104679584503174,0.35245266556739807,0.7252703905105591,0.42000001668930054,-1.2300087213516235,3.000000476837158,-0.17181546986103058,-2.999999523162842,0.0001690477365627885,-0.004222392104566097,-0.008824597112834454,-0.01364920474588871,-0.19754528999328613,-0.29307466745376587,-0.38764727115631104,-0.48130685091018677
0.13333333333333333,0.07334349304437637,0.06437595933675766,0.0,0.9956682324409485,0.0,0.0,-0.09297744184732437,0.621803343296051,0.4756293296813965,0.0,0.0,0.0,-6.924421787261963,-0.3928471803665161,0.6364156603813171,0.4200000464916229,1.0,3.335707106089103e-06,-2.2319818526739255e-06,3.1131835953601694e-07,0.00026669749058783054,0.00026759348111227155,-0.00010428577661514282,-0.0017370672430843115,0.004205907229334116,-0.00012840131239499897,-0.25405585765838623,0.2577741742134094,1.1985535621643066,-2.1728553771972656,3.2992920875549316,-2.127711534500122,0.35245266556739807,0.7252703905105591,0.42000001668930054,-1.1799962520599365,2.999997615814209,-0.15776976943016052,3.0000007152557373,-0.005159146152436733,-0.01107507012784481,-0.01716873236000538,-0.023451102897524834,-0.30075934529304504,-0.3952324688434601,-0.48650217056274414,-0.5744621753692627
0.15,0.08063341677188873,0.07400646805763245,0.0,0.9925277829170227,0.0,0.0,-0.12201865762472153,0.3602752685546875,0.6335142254829407,0.0,0.0,0.0,-2.314814329147339,-0.3928471803665161,0.6364156603813171,0.4200000464916229,1.0,3.518956873449497e-06,-2.2831925434729783e-06,-3.625542035479157e-07,0.0002661838079802692,0.0002673559356480837,-0.00010425667278468609,-0.0017348496476188302,0.004195802379399538,-0.00012861037976108491,-0.293829083442688,0.3085474371910095,1.1592938899993896,-2.2452945709228516,3.2377190589904785,-2.5859007835388184,0.35245266556739807,0.7252703905105591,0.42000001668930054,-1.1300032138824463,3.0000014305114746,-0.1894816905260086,-3.0000007152557373,-0.011645195074379444,-0.01900346577167511,-0.026469724252820015,-0.034054502844810486,-0.45653384923934937,-0.5330753326416016,-0.6052517294883728,-0.6730879545211792
0.16666666666666666,0.08462081104516983,0.08214610069990158,0.0,0.986905574798584,0.0,0.0,-0.16129900515079498,0.19101582467556,0.4322623610496521,0.0,0.0,0.0,-5.610694885253906,-0.3928471803665161,0.6364156603813171,0.4200000464916229,1.0,3.6666233427240513e-06,-2.3392092316498747e-06,-3.150152849684673e-07,0.0002659587189555168,0.00026667414931580424,-0.00010403618216514587,-0.0017253721598535776,0.0041928282007575035,-0.00012778467498719692,-0.33000168204307556,0.3660131096839905,1.1091198921203613,-1.9734575748443604,3.674433708190918,-3.394289970397949,0.35245266556739807,0.7252703905105591,0.42000001668930054,-1.0800001621246338,2.999997138977051,-0.23950910568237305,-2.999999761581421,-0.020706970244646072,-0.029074454680085182,-0.03747325390577316,-0.045917343348264694,-0.6103408932685852,-0.6526960730552673,-0.6908372044563293,-0.7250720262527466
0.18333333333333332,0.09321961551904678,0.0912286713719368,0.0,0.973596453666687,0.0,0.0,-0.22827604413032532,0.6742475032806396,0.5957444906234741,0.0,0.0,0.0,-9.2006196975708,-0.3928471803665161,0.6364156603813171,0.4200000464916229,1.0,3.814353021880379e-06,-2.3995974061108427e-06,-2.7029872740058636e-07,0.00026549032190814614,0.0002661117759998888,-0.00010391208343207836,-0.0017177986446768045,0.004184774123132229,-0.0001275356044061482,-0.3604600429534912,0.43312978744506836,1.0441861152648926,-1.4812495708465576,4.315074920654297,-4.297971725463867,0.35245266556739807,0.7252703905105591,0.42000001668930054,-1.0299971103668213,3.000001907348633,-0.2895374298095703,-3.0,-0.02961672656238079,-0.038667965680360794,-0.04767560213804245,-0.05665936321020126,-0.5294498801231384,-0.5584195852279663,-0.5833920240402222,-0.6047219038009644
0.2,0.09852626919746399,0.09757991880178452,0.0,0.9608454704284668,0.0,0.0,-0.27708473801612854,0.27162426710128784,0.38852450251579285,0.0,0.0,0.0,-4.6962056159973145,-0.3928471803665161,0.6364156603813171,0.4200000464916229,1.0,3.6000794807478087e-06,-2.2913106931810034e-06,-2.2022658185960609e-07,0.00026573013747110963,0.00026644987519830465,-0.00010397983714938164,-0.001722664455883205,0.004188813269138336,-0.00012773538765031844,-0.3870527744293213,0.49477845430374146,0.9641081094741821,-1.1690025329589844,3.725508213043213,-5.262216567993164,0.35245266556739807,0.7252703905105591,0.42000001668930054,-0.9799906015396118,3.0,-0.3395656943321228,-2.9999992847442627,-0.04387101158499718,-0.052764542400836945,-0.06144646927714348,-0.06998739391565323,-0.7867642641067505,-0.8137164115905762,-0.8397706151008606,-0.8640369176864624
0.21666666666666667,0.10033585876226425,0.10410114377737045,0.0,0.957373857498169,0.0,0.0,-0.28885161876678467,0.033045802265405655,0.4153068959712982,0.0,0.0,0.0,-0.4135819375514984,-0.3928471803665161,0.6364156603813171,0.4200000464916229,0.9999999403953552,3.639640453911852e-06,-2.2620747586188372e-06,2.2244168462748348e-07,0.00026687351055443287,0.0002675433352123946,-0.00010412069968879223,-0.0017403893871232867,0.004211045801639557,-0.00012783610145561397,-0.4104454219341278,0.543948769569397,0.8737583756446838,-1.161838173866272,2.6308484077453613,-5.658002853393555,0.35245266556739807,0.7252703905105591,0.42000001668930054,-0.9299799203872681,3.0000009536743164,-0.3895959258079529,-2.999999523162842,-0.05929476395249367,-0.06800064444541931,-0.07649407535791397,-0.08484728634357452,-0.9878966212272644,-0.9634109139442444,-0.9317474961280823,-0.9009917974472046
0.23333333333333334,0.09898336976766586,0.10776521265506744,0.0,0.9500236511230469,0.0,0.0,-0.3121779263019562,-0.14581924676895142,0.16987860202789307,0.0,0.0,0.0,-3.768352746963501,-0.3928471505641937,0.6364156603813171,0.4200000464916229,1.0,3.4207046155643184e-06,-2.3169197902461747e-06,2.955582374397636e-07,0.00026680153678171337,0.00026803999207913876,-0.00010442547500133514,-0.0017437575152143836,0.004206853453069925,-0.00012899478315375745,-0.42586857080459595,0.5854426622390747,0.7734787464141846,-0.5853220224380493,2.186108112335205,-6.2437334060668945,0.35245266556739807,0.7252703905105591,0.42000001668930054,-0.8799692392349243,2.999999523162842,-0.4396273195743561,-3.0000016689300537,-0.07575669139623642,-0.08444474637508392,-0.09274443984031677,-0.10078122466802597,-0.9909645915031433,-0.9925031065940857,-0.9936820268630981,-0.9919835925102234
0.25,0.09962976723909378,0.10956940054893494,0.0,0.9481332302093506,0.0,0.0,-0.3178732097148895,0.07754120230674744,0.06062924489378929,0.0,0.0,0.0,0.21120840311050415,-0.3928471803665161,0.6364156603813171,0.4200000464916229,0.9999999403953552,3.347574192957836e-06,-2.2592728328163503e-06,1.8080250185903424e-07,0.0002668772649485618,0.0002679102180991322,-0.00010439311154186726,-0.001740425475873053,0.0042082504369318485,-0.00012870212958659977,-0.4348975419998169,0.6113117933273315,0.6685092449188232,-0.28928008675575256,1.000519037246704,-6.328866004943848,0.35245266556739807,0.7252703905105591,0.42000001668930054,-0.8299590349197388,2.9999966621398926,-0.48965853452682495,-3.0000011920928955,-0.09238613396883011,-0.1010255217552185,-0.10928510129451752,-0.1172739714384079,-0.993990421295166,-0.9949296712875366,-0.9956750273704529,-0.9962936043739319
0.26666666666666666,0.0967530682682991,0.10917268693447113,0.0,0.9417799115180969,0.0,0.0,-0.33623000979423523,-0.1634460836648941,-0.09635548293590546,0.0,0.0,0.0,-3.1357414722442627,-0.3928471803665161,0.6364156603813171,0.4200000464916229,0.9999999403953552,3.5356974876776803e-06,-2.300349251527223e-06,-1.2690559003658564e-07,0.0002660165191628039,0.00026712179533205926,-0.0001041970681399107,-0.0017316269222646952,0.004192802589386702,-0.0001284941245103255,-0.4308968782424927,0.622577965259552,0.5659867525100708,0.655928373336792,0.45676207542419434,-5.842766761779785,0.35245266556739807,0.7252703905105591,0.42000001668930054,-0.7799502015113831,3.000000238418579,-0.5396883487701416,-3.000000238418579,-0.11038797348737717,-0.11869782954454422,-0.12671825289726257,-0.1345243752002716,-0.8435003757476807,-0.8756099343299866,-0.9063851237297058,-0.9344570636749268
0.2833333333333333,0.09219445288181305,0.10607483237981796,0.0,0.9415820837020874,0.0,0.0,-0.3367835283279419,-0.31047311425209045,-0.22215628623962402,0.0,0.0,0.0,0.8428522348403931,-0.3928471803665161,0.6364157199859619,0.4200000464916229,1.0,3.5934608604293317e-06,-2.2626772988587618e-06,-5.659101631749763e-08,0.00026704638730734587,0.0002677501179277897,-0.00010416633449494839,-0.0017431543674319983,0.0042140609584748745,-0.00012789462925866246,-0.4208371043205261,0.6337340474128723,0.4763314127922058,0.7543827295303345,0.7176655530929565,-4.858663558959961,0.35245266556739807,0.7252703905105591,0.42000001668930054,-0.7299414277076721,3.0000009536743164,-0.5897164344787598,-3.0000009536743164,-0.12744222581386566,-0.1357022225856781,-0.14369799196720123,-0.15149056911468506,-1.0266257524490356,-1.0201436281204224,-1.0151909589767456,-1.011224627494812
0.3,0.08532330393791199,0.1008877232670784,0.0,0.9363983273506165,0.0,0.0,-0.3509390652179718,-0.4632353186607361,-0.35293811559677124,0.0,0.0,0.0,-2.659388303756714,-0.3928471505641937,0.6364156603813171,0.4200000464916229,0.9999999403953552,3.725033366208663e-06,-2.2360766251949826e-06,3.8281430647657544e-07,0.0002647967776283622,0.0002667308144737035,-0.00010453932918608189,-0.0017188972560688853,0.004166559781879187,-0.0001301638112636283,-0.41419562697410583,0.6404896974563599,0.4288521409034729,-0.02656807377934456,0.04555368423461914,-0.2417478859424591,0.35245266556739807,0.7252703905105591,0.42000001668930054,-0.6799367070198059,2.9996302127838135,-0.640152096748352,-2.9999914169311523,-0.1419539898633957,-0.15010839700698853,-0.1577349305152893,-0.16483895480632782,-0.6344722509384155,-0.6223881244659424,-0.5701444745063782,-0.47377341985702515
0.31666666666666665,0.07612600177526474,0.09339017421007156,0.0,0.9371878504753113,0.0,0.0,-0.34882500767707825,-0.5916382670402527,-0.4895314574241638,0.0,0.0,0.0,1.2027431726455688,-0.3927319645881653,0.6373506784439087,0.4200010895729065,0.999863862991333,-4.6174609451554716e-05,1.6246955055976287e-05,-0.01650124229490757,0.06523369997739792,0.21263477206230164,-0.0014302185736596584,0.06764340400695801,0.0005706436350010335,-5.866268634796143,-0.41488736867904663,0.6450210809707642,0.4256218671798706,0.11615511775016785,0.2533235549926758,-0.21301448345184326,0.35245266556739807,0.7252703905105591,0.42000001668930054,-0.6299301981925964,2.9999547004699707,-0.6902085542678833,-2.9999918937683105,-0.15367846190929413,-0.16068559885025024,-0.166534423828125,-0.17119507491588593,-0.7190336585044861,-0.6124008297920227,-0.4716510772705078,-0.2958221435546875
0.3333333333333333,0.06468767672777176,0.08361981064081192,0.0,0.9326176643371582,0.0,0.0,-0.36086609959602356,-0.7329276204109192,-0.6259198784828186,0.0,0.0,0.0,-2.46160888671875,-0.39131981134414673,0.6410303711891174,0.420000284910202,0.9982243180274963,-5.5950713431229815e-06,6.780398507544305e-06,-0.05956682562828064,0.12895575165748596,0.2743217945098877,-0.000296162033919245,0.010779347270727158,-0.004819777794182301,-6.300347328186035,-0.410589337348938,0.6487491130828857,0.4223606586456299,0.4193246364593506,0.27965638041496277,-0.1796875149011612,0.35245266556739807,0.7252703905105591,0.42000001668930054,-0.5799251198768616,2.9999773502349854,-0.7402661442756653,-2.999976396560669,-0.165946826338768,-0.17079783976078033,-0.17395685613155365,-0.1753973662853241,-0.7132095098495483,-0.5663197040557861,-0.391654372215271,-0.19024565815925598
0.35,0.0566888190805912,0.07123320549726486,0.0,0.9339032769203186,0.0,0.0,-0.3575257956981659,-0.39071211218833923,-0.7881051301956177,0.0,0.0,0.0,1.3439953327178955,-0.3877819776535034,0.647260308265686,0.4200000464916229,0.9907675981521606,2.183116157539189e-05,-3.518571247695945e-06,-0.13557063043117523,0.31630194187164307,0.5096715688705444,-0.0005003299447707832,-0.0248323492705822,0.00355184031650424,-14.318791389465332,-0.4029618501663208,0.6560583710670471,0.4201567769050598,0.4935073256492615,0.6378412842750549,0.016672305762767792,0.35245266556739807,0.7252703905105591,0.42000001668930054,-0.529920220375061,2.9999794960021973,-0.7903003096580505,-3.000000238418579,-0.1776229441165924,-0.17960695922374725,-0.17948193848133087,-0.17726173996925354,-0.6298759579658508,-0.4510127902030945,-0.2497185468673706,-0.029023470357060432
0.36666666666666664,0.04635394737124443,0.057388417422771454,0.0,0.9294238686561584,0.0,0.0,-0.3690139055252075,-0.7034091353416443,-0.8577789068222046,0.0,0.0,0.0,-2.4437801837921143,-0.3784092962741852,0.6603495478630066,0.4200029969215393,0.9845397472381592,4.588937372318469e-05,-5.16512318426976e-06,-0.17516100406646729,0.6871271133422852,0.9066579937934875,-0.003645549062639475,-0.04808927699923515,-0.040416695177555084,-5.352261066436768,-0.3912826180458069,0.6675726175308228,0.4197593927383423,0.89406418800354,0.8108941316604614,0.017888810485601425,0.35245266556739807,0.7252703905105591,0.42000001668930054,-0.47991493344306946,2.9999959468841553,-0.8403433561325073,-2.999791383743286,-0.18981660902500153,-0.18831560015678406,-0.18438871204853058,-0.17812450230121613,-0.6771524548530579,-0.4695197641849518,-0.2450459897518158,-0.0087239695712924
0.3833333333333333,0.03929898142814636,0.040826454758644104,0.0,0.9132261872291565,0.0,0.0,-0.4074530303478241,-0.38143008947372437,-1.0342001914978027,0.0,0.0,0.0,-5.82695198059082,-0.36263442039489746,0.6799576282501221,0.42038190364837646,0.9749534130096436,-0.0061424290761351585,-0.002698104362934828,-0.22230787575244904,1.144518494606018,1.3807116746902466,0.034412603825330734,-0.5026578903198242,-2.0492169857025146,-6.207961082458496,-0.3726211190223694,0.6850024461746216,0.4215644598007202,1.4472074508666992,1.202094316482544,0.1400127112865448,0.35245266556739807,0.7252703905105591,0.42000001668930054,-0.4298713803291321,2.9925317764282227,-0.8903539180755615,-3.0000360012054443,-0.19779793918132782,-0.19326145946979523,-0.18594837188720703,-0.17603540420532227,-0.44691047072410583,-0.2604334056377411,-0.05525032430887222,0.16259987652301788
0.4,0.03438080474734306,0.027288014069199562,0.0,0.8830339312553406,0.0,0.0,-0.46930912137031555,-0.2691919207572937,-0.6284273266792297,0.0,0.0,0.0,-9.085514068603516,-0.3238297998905182,0.7046837210655212,0.42549073696136475,0.9631437063217163,0.03234029933810234,-0.04283551126718521,-0.26357781887054443,3.576042890548706,2.0999200344085693,0.4061773121356964,24.37645721435547,-14.379697799682617,3.4280283451080322,-0.33318030834198,0.7114170789718628,0.42586830258369446,3.3548104763031006,2.0310566425323486,0.45767927169799805,0.35245266556739807,0.7252703905105591,0.42000001668930054,-0.39009031653404236,1.5090302228927612,-0.857573390007019,2.9962494373321533,-0.20954319834709167,-0.20092108845710754,-0.18938234448432922,-0.17524103820323944,-0.830855667591095,-0.5565475225448608,-0.28261613845825195,-0.018289221450686455
0.4166666666666667,0.03299187496304512,0.018550820648670197,0.0,0.8367044925689697,0.0,0.0,-0.5476546287536621,-0.0042525390163064,-0.5350632667541504,0.0,0.0,0.0,-11.583906173706055,-0.24622848629951477,0.7461214661598206,0.432384192943573,0.9380196332931519,0.06377707421779633,-0.07493533194065094,-0.3323197066783905,6.061674118041992,2.5797276496887207,0.5748842358589172,10.579108238220215,-11.968276023864746,13.716214179992676,-0.25446391105651855,0.7540258169174194,0.43263185024261475,5.741174697875977,3.0364437103271484,0.498060941696167,0.35245266556739807,0.7252703905105591,0.42000001668930054,-0.37267231941223145,0.8995798826217651,-0.883938729763031,-3.000000476837158,-0.21994614601135254,-0.20940762758255005,-0.19397570192813873,-0.17624758183956146,-0.4480409324169159,-0.37690556049346924,-0.2085518091917038,-0.06335508823394775
0.43333333333333335,0.028285019099712372,0.01428375393152237,0.0,0.7985431551933289,0.0,0.0,-0.6019375920295715,-0.23249298334121704,-0.23205573856830597,0.0,0.0,0.0,-6.549161434173584,-0.15187931060791016,0.7879996299743652,0.44350630044937134,0.8895010948181152,0.12679316103458405,-0.10430258512496948,-0.42641788721084595,6.006446361541748,1.5234500169754028,0.7235718369483948,5.782857894897461,-19.406612396240234,20.70025634765625,-0.15946757793426514,0.797711968421936,0.44351571798324585,5.864367485046387,2.3411777019500732,0.702003002166748,0.35245266556739807,0.7252703905105591,0.42000001668930054,-0.3579353988170624,0.8432391881942749,-0.8466986417770386,2.9968574047088623,-0.23144479095935822,-0.21882370114326477,-0.20034955441951752,-0.1801881641149521,-0.5285739302635193,-0.4410337507724762,-0.3150518238544464,-0.2230229675769806
0.45,0.02891266532242298,0.004690566100180149,0.0,0.780132532119751,0.0,0.0,-0.6256142854690552,-0.005414828658103943,-0.6152902841567993,0.0,0.0,0.0,-2.299197196960449,-0.05533410608768463,0.8165919184684753,0.45410287380218506,0.8435712456703186,0.1360493302345276,-0.11307922750711441,-0.5070416331291199,5.913564205169678,0.14434434473514557,0.7149016261100769,-3.585817575454712,-10.388482093811035,16.559045791625977,-0.06121063977479935,0.8275649547576904,0.45453566312789917,5.920525550842285,1.089728832244873,0.8085497617721558,0.35245266556739807,0.7252703905105591,0.42000001668930054,-0.3450852930545807,0.6186808347702026,-0.8727774620056152,-3.0000007152557373,-0.23581387102603912,-0.22166940569877625,-0.20131689310073853,-0.17980143427848816,-0.4515547454357147,-0.28209829330444336,-0.11076671630144119,0.02361840009689331
0.4666666666666667,0.025778602808713913,-0.0002703759237192571,0.0,0.7542800307273865,0.0,0.0,-0.6565528512001038,-0.1806599646806717,-0.2646588981151581,0.0,0.0,0.0,-5.518754959106445,0.04022388532757759,0.8239036202430725,0.4627082049846649,0.779359757900238,0.13049107789993286,-0.1294858455657959,-0.5990023016929626,5.453853130340576,-0.9760191440582275,0.6270499229431152,-12.242293357849121,10.71169662475586,13.018704414367676,0.034400660544633865,0.8358780145645142,0.46470874547958374,5.877327919006348,0.09888384491205215,0.5246942043304443,0.35245266556739807,0.7252703905105591,0.42000001668930054,-0.33609539270401,0.39003580808639526,-0.9228034019470215,-2.9983327388763428,-0.23980553448200226,-0.22978386282920837,-0.20626580715179443,-0.18221955001354218,0.015466075390577316,-0.4108167290687561,-0.2595411539077759,-0.1389186531305313
0.48333333333333334,0.02521827630698681,-0.002013408113270998,0.0,0.7425196170806885,0.0,0.0,-0.6698243021965027,0.019626975059509277,-0.042434144765138626,0.0,0.0,0.0,-0.9870433211326599,0.13021281361579895,0.8159491419792175,0.4666404128074646,0.6954718232154846,0.1017477810382843,-0.148650661110878,-0.69560706615448,4.814892292022705,-1.4211291074752808,-0.01681494154036045,-20.831199645996094,8.496232032775879,-0.944907009601593,0.12414942681789398,0.8300402164459229,0.4698428511619568,5.165515899658203,-0.7801006436347961,0.2188044637441635,0.35245266556739807,0.7252703905105591,0.42000001668930054,-0.33004483580589294,0.31963253021240234,-0.9728279709815979,-2.9988417625427246,-0.239663228392601,-0.2352495640516281,-0.20982544124126434,-0.18436205387115479,0.03238481655716896,-0.22776411473751068,-0.15068170428276062,-0.10215574502944946
0.5,0.02823925018310547,-0.004492972511798143,0.0,0.7222734093666077,0.0,0.0,-0.6916075944900513,0.24057365953922272,-0.17207607626914978,0.0,0.0,0.0,-4.532308578491211,0.20784991979599,0.7989554405212402,0.46054157614707947,0.6126539707183838,0.022004371508955956,-0.20118609070777893,-0.7639992833137512,4.215331554412842,-1.2296762466430664,-0.31999701261520386,-10.762575149536133,11.665616035461426,-1.1886259317398071,0.201141357421875,0.8163145780563354,0.46765604615211487,4.236241817474365,-1.0566151142120361,-0.3936973810195923,0.35245266556739807,0.7252703905105591,0.42000001668930054,-0.3222981095314026,0.5210116505622864,-1.0228512287139893,-2.9994049072265625,-0.23520371317863464,-0.234831765294075,-0.20946656167507172,-0.18437379598617554,0.3729270100593567,0.17178592085838318,0.11984425038099289,0.0532994382083416
0.5166666666666666,0.03325624391436577,-0.004147964995354414,0.0,0.7144348621368408,0.0,0.0,-0.6997019648551941,0.3453601598739624,0.07041623443365097,0.0,0.0,0.0,-0.35711851716041565,0.26910609006881714,0.7782487869262695,0.4504299461841583,0.5733778476715088,-0.013199830427765846,-0.17859329283237457,-0.7994799017906189,3.2043449878692627,-1.7961740493774414,-0.5144102573394775,-4.356505870819092,8.831158638000488,3.2271728515625,0.2642129957675934,0.7959877848625183,0.45806562900543213,3.3406152725219727,-1.3661155700683594,-0.7657842636108398,0.35245266556739807,0.7252703905105591,0.42000001668930054,-0.313944011926651,0.4722747802734375,-1.0728733539581299,-2.999969482421875,-0.2301931232213974,-0.23203934729099274,-0.20777752995491028,-0.18402495980262756,0.34008917212486267,0.24105390906333923,0.14005455374717712,0.027720127254724503
0.5333333333333333,0.03666564077138901,-0.005713989492505789,0.0,0.6987873911857605,0.0,0.0,-0.7153294086456299,0.1151527613401413,-0.17566457390785217,0.0,0.0,0.0,-3.497673749923706,0.3163585960865021,0.7557255029678345,0.43359893560409546,0.5513239502906799,-0.05239453166723251,-0.16235630214214325,-0.8166621923446655,2.3624892234802246,-1.4729176759719849,-0.9986934661865234,-5.077144145965576,11.490891456604004,-4.052052974700928,0.3127439618110657,0.7728469371795654,0.4415636658668518,2.50689697265625,-1.4353539943695068,-1.1626627445220947,0.35245266556739807,0.7252703905105591,0.42000001668930054,-0.303646445274353,0.7335671186447144,-1.1228954792022705,-2.99957013130188,-0.2255101203918457,-0.22821637988090515,-0.205849289894104,-0.1841709315776825,0.3102973997592926,0.28209301829338074,0.14187057316303253,-0.007603373844176531
0.55,0.04051755368709564,-0.004168768413364887,0.0,0.6954653263092041,0.0,0.0,-0.7185596823692322,0.2565450370311737,0.09681248664855957,0.0,0.0,0.0,0.36315909028053284,0.3450058102607727,0.7377434372901917,0.4229961931705475,0.5455086827278137,-0.03743518143892288,-0.04503103345632553,-0.8360568881034851,1.091631293296814,-0.9530479311943054,-0.012266937643289566,-8.232335090637207,6.07616662979126,-1.344234824180603,0.34266746044158936,0.7507111430168152,0.4289124608039856,1.1272845268249512,-1.0151845216751099,-0.2457907348871231,0.35245266556739807,0.7252703905105591,0.42000001668930054,-0.2892301380634308,0.8949652314186096,-1.1729176044464111,-2.9994122982025146,-0.22253333032131195,-0.22509007155895233,-0.20505625009536743,-0.18581558763980865,0.3418339192867279,0.3194476068019867,0.12662388384342194,-0.06048935279250145
0.5666666666666667,0.04650163650512695,-0.006808084901422262,0.0,0.6822994947433472,0.0,0.0,-0.731072723865509,0.4000350534915924,-0.19516652822494507,0.0,0.0,0.0,-2.9857585430145264,0.3585297465324402,0.7295936942100525,0.4200284779071808,0.5591679215431213,0.0013589939335361123,-0.0003126152150798589,-0.8290532827377319,0.4052102863788605,-1.0442129373550415,0.7005853652954102,-25.472150802612305,-3.9071884155273438,16.14240264892578,0.35510772466659546,0.7400190830230713,0.4253217577934265,0.30892249941825867,-0.46149900555610657,-0.1864616721868515,0.35245266556739807,0.7252703905105591,0.42000001668930054,-0.2720301151275635,0.5510632395744324,-1.1438047885894775,3.0000193119049072,-0.21356770396232605,-0.21696168184280396,-0.20086883008480072,-0.1853296458721161,0.46193957328796387,0.44288870692253113,0.22074303030967712,0.012646511197090149
0.5833333333333334,0.05034084990620613,-0.006293529644608498,0.0,0.6818395256996155,0.0,0.0,-0.7315017580986023,0.17566072940826416,0.04666190966963768,0.0,0.0,0.0,0.7801052331924438,0.36305078864097595,0.721786379814148,0.4209080934524536,0.5928900837898254,-0.014894058927893639,0.005544353276491165,-0.8051264882087708,0.18902422487735748,-0.4419810473918915,0.05655834078788757,1.2260185480117798,2.7595815658569336,-0.573534369468689,0.35809171199798584,0.7298693656921387,0.4229302406311035,0.017117898911237717,-0.4461299180984497,0.13868620991706848,0.35245266556739807,0.7252703905105591,0.42000001668930054,-0.29947566986083984,-2.985499858856201,-1.166189432144165,-2.929391384124756,-0.2078254073858261,-0.211062490940094,-0.19834500551223755,-0.18596793711185455,0.4146612584590912,0.4074699580669403,0.1881522536277771,-0.013584948144853115
0.6,0.05500621721148491,-0.0029419814236462116,0.0,0.6709411144256592,0.0,0.0,-0.7415106296539307,0.298336923122406,0.2407044619321823,0.0,0.0,0.0,-2.682875633239746,0.3648179769515991,0.7157469391822815,0.4202374815940857,0.6057093143463135,-0.004277641419321299,5.820242949994281e-05,-0.7956744432449341,0.032227665185928345,-0.29422977566719055,-0.07224064320325851,-1.9747300148010254,-4.01756477355957,4.561951637268066,0.35895836353302,0.7283686399459839,0.4253907799720764,0.1107247993350029,0.11235179007053375,0.16529737412929535,0.35245266556739807,0.7252703905105591,0.42000001668930054,-0.33029142022132874,-0.8756068348884583,-1.2161356210708618,-2.9985082149505615,-0.19955720007419586,-0.2036060392856598,-0.1950567066669464,-0.18638771772384644,0.6155125498771667,0.5368183255195618,0.2646888196468353,0.02507050894200802
0.6166666666666667,0.06144237145781517,-0.0040678419172763824,0.0,0.6719428896903992,0.0,0.0,-0.740602970123291,0.401601105928421,-0.06948315352201462,0.0,0.0,0.0,0.9925023317337036,0.3649023771286011,0.7124868631362915,0.4200010299682617,0.617961585521698,7.199982064776123e-05,7.456556545548665e-07,-0.7862082123756409,-0.06382428109645844,-0.11687395721673965,-0.0011012160684913397,-0.06860180199146271,0.002284790389239788,-1.3481249809265137,0.35809212923049927,0.7297272682189941,0.4283107817173004,-0.22543449699878693,-0.01050569023936987,0.182973250746727,0.35245266556739807,0.7252703905105591,0.42000001668930054,-0.3738267421722412,-2.9990532398223877,-1.266128420829773,-2.999981164932251,-0.18726211786270142,-0.19261962175369263,-0.18850648403167725,-0.1837787926197052,0.5160858035087585,0.4967091381549835,0.2927881181240082,0.10980334132909775
0.6333333333333333,0.07036109268665314,-0.0006395305972546339,0.0,0.6939440965652466,0.0,0.0,-0.7200288772583008,0.5637562274932861,0.19263149797916412,0.0,0.0,0.0,4.429729461669922,0.3620572090148926,0.711526095867157,0.42032358050346375,0.6178232431411743,0.0050422935746610165,-0.00635351799428463,-0.7862751483917236,-0.14306840300559998,-0.04433922469615936,0.02697303518652916,-0.34621474146842957,-1.3439468145370483,-1.4616129398345947,0.3546184301376343,0.7297160625457764,0.43137326836586,-0.15317195653915405,0.1414623260498047,0.21016252040863037,0.35245266556739807,0.7252703905105591,0.42000001668930054,-0.4238438308238983,-2.999934434890747,-1.3160905838012695,-2.998849868774414,-0.18202714622020721,-0.1870131492614746,-0.18538610637187958,-0.18283340334892273,0.4223688542842865,0.42190390825271606,0.26762664318084717,0.1360919177532196
0.65,0.08105993270874023,-0.0016442169435322285,0.0,0.7027698159217834,0.0,0.0,-0.7114173173904419,0.6614760160446167,-0.08534961193799973,0.0,0.0,0.0,0.4220275580883026,0.3602907955646515,0.7108932733535767,0.42000195384025574,0.6100024580955505,2.343782171010389e-06,7.62774288887158e-06,-0.7923994064331055,-0.07718420028686523,-0.032327037304639816,-0.0010033277794718742,-0.05078919976949692,0.024713750928640366,-1.0283093452453613,0.3529413044452667,0.733053982257843,0.43604764342308044,-0.1375156193971634,0.12495081126689911,0.2986094057559967,0.35245266556739807,0.7252703905105591,0.42000001668930054,-0.4738812744617462,-2.99226450920105,-1.3660606145858765,-2.999959945678711,-0.17338404059410095,-0.17828789353370667,-0.17880775034427643,-0.17796693742275238,0.3775448799133301,0.43318918347358704,0.3690428137779236,0.3276819586753845
0.6666666666666666,0.0931745395064354,-0.00583909684792161,0.0,0.6898811459541321,0.0,0.0,-0.723922610282898,0.7601582407951355,-0.32603487372398376,0.0,0.0,0.0,-3.0395617485046387,0.35974353551864624,0.7106741666793823,0.4200001358985901,0.6087242364883423,3.768216174648842e-06,1.7348926348859095e-06,-0.7933818697929382,-0.007021477911621332,-0.004056320991367102,-0.00019178004004061222,-0.008724247105419636,0.0024458905681967735,-0.30251726508140564,0.3544052243232727,0.7363832592964172,0.4458666741847992,0.2971288561820984,0.23467829823493958,0.9889044165611267,0.35245266556739807,0.7252703905105591,0.42000001668930054,-0.5238941311836243,-2.999983072280884,-1.4160789251327515,-3.0,-0.16935794055461884,-0.1730184406042099,-0.17401111125946045,-0.1732766181230545,0.16427098214626312,0.25236809253692627,0.25202786922454834,0.27208104729652405
0.6833333333333333,0.10853540152311325,-0.005320869851857424,0.0,0.655285656452179,0.0,0.0,-0.755381166934967,0.8944934606552124,0.0259969774633646,0.0,0.0,0.0,-6.433915138244629,0.3597433269023895,0.7106745839118958,0.4200000464916229,0.6087245345115662,-1.2782160752067284e-07,-4.2736569412227254e-06,-0.7933815717697144,0.00013919247430749238,-0.0003507175715640187,-8.733686991035938e-05,0.00806814432144165,-0.0011273638810962439,-0.0006132376729510725,0.3687245845794678,0.7359785437583923,0.46860790252685547,1.4804928302764893,-0.08273688703775406,1.821615219116211,0.35245266556739807,0.7252703905105591,0.42000001668930054,-0.5739061832427979,-2.999966859817505,-1.4660972356796265,-2.9999992847442627,-0.17412249743938446,-0.17501315474510193,-0.17454040050506592,-0.1721404492855072,-0.22062848508358002,-0.07807561755180359,0.0028087343089282513,0.09796562790870667
0.7,0.12046749889850616,-0.0027525557670742273,0.0,0.6343002915382385,0.0,0.0,-0.7730867266654968,0.6620866060256958,0.14512379467487335,0.0,0.0,0.0,-2.1881706714630127,0.35974329710006714,0.710674524307251,0.4200000464916229,0.6087242364883423,4.921833465232339e-07,-3.303932544440613e-06,-0.7933817505836487,0.0001461826905142516,-0.00027930786018259823,-9.612995199859142e-05,0.0061177038587629795,-0.0009815501980483532,-0.0006032916135154665,0.39248520135879517,0.7384927868843079,0.5004948377609253,1.3606858253479004,0.3651520311832428,1.9514014720916748,0.35245266556739807,0.7252703905105591,0.42000001668930054,-0.5938988327980042,0.3279198706150055,-1.5161155462265015,-3.0,-0.17701447010040283,-0.17628000676631927,-0.17507633566856384,-0.17180085182189941,-0.026828527450561523,0.006331680808216333,-0.005143202841281891,-0.01053786650300026
0.7166666666666667,0.12811172008514404,0.001260302378796041,0.0,0.6384779214859009,0.0,0.0,-0.7696400880813599,0.38443246483802795,0.2858501076698303,0.0,0.0,0.0,1.5325270891189575,0.3597433269023895,0.710674524307251,0.4200000464916229,0.6087245941162109,4.2225687479913177e-07,-3.51690391653392e-06,-0.7933816313743591,0.00015091853856574744,-0.0002788041310850531,-9.712623432278633e-05,0.006078361067920923,-0.0009199131745845079,-0.0006135439616627991,0.41087302565574646,0.7452874183654785,0.5274899005889893,0.7776976823806763,0.4307030439376831,1.336768388748169,0.35245266556739807,0.7252703905105591,0.42000001668930054,-0.5668990612030029,2.6834726333618164,-1.4773426055908203,3.000000476837158,-0.17625635862350464,-0.17517071962356567,-0.174203023314476,-0.17111411690711975,0.10572242736816406,0.11826693266630173,0.10224754363298416,0.08506625890731812
0.7333333333333333,0.13160340487957,0.0009375508525408804,0.0,0.631722629070282,0.0,0.0,-0.7751944661140442,0.1997934728860855,-0.05762415751814842,0.0,0.0,0.0,-1.8649868965148926,0.3597433269023895,0.710674524307251,0.4200000464916229,0.6087245345115662,4.351332165697386e-07,-3.561622861525393e-06,-0.7933815121650696,0.00015127970254980028,-0.0002788761048577726,-9.725149720907211e-05,0.006077850237488747,-0.0009169764816761017,-0.0006144653889350593,0.4166974127292633,0.7520731687545776,0.5430570244789124,-0.09331399947404861,0.2572190463542938,0.6820164918899536,0.35245266556739807,0.7252703905105591,0.42000001668930054,-0.5394461154937744,0.7561021447181702,-1.4272899627685547,2.999999761581421,-0.17181210219860077,-0.17084801197052002,-0.17037034034729004,-0.16784068942070007,0.1459709107875824,0.17089898884296417,0.17546892166137695,0.16819584369659424
0.75,0.1322290599346161,0.005694466643035412,0.0,0.637766420841217,0.0,0.0,-0.7702298164367676,-0.0023549601901322603,0.27261391282081604,0.0,0.0,0.0,1.6802618503570557,0.3597433269023895,0.710674524307251,0.4200000464916229,0.6087247133255005,4.6021418143027404e-07,-3.239139687138959e-06,-0.79338139295578,0.00014821795048192143,-0.0002782683295663446,-9.658094495534897e-05,0.006079995539039373,-0.0009520230814814568,-0.0006073454860597849,0.4113250970840454,0.7552822828292847,0.5516809225082397,-0.43035992980003357,0.308759868144989,0.35473376512527466,0.35245266556739807,0.7252703905105591,0.42000001668930054,-0.5129275918006897,2.27497935295105,-1.4348781108856201,-2.999999761581421,-0.17419908940792084,-0.17191091179847717,-0.1704588234424591,-0.1673116683959961,0.03544095903635025,0.06232253462076187,0.0770181268453598,0.07389723509550095
0.7666666666666666,0.13064256310462952,0.006305675022304058,0.0,0.6324524283409119,0.0,0.0,-0.7745991945266724,-0.1653558313846588,0.020554739981889725,0.0,0.0,0.0,-1.576144814491272,0.35974329710006714,0.710674524307251,0.4200000464916229,0.6087247133255005,5.257684847492783e-07,-3.4608704027050408e-06,-0.79338139295578,0.00014709423703607172,-0.00027794655761681497,-9.637651965022087e-05,0.006077967118471861,-0.000965557643212378,-0.0006046771886758506,0.39764469861984253,0.7580462098121643,0.5509539842605591,-1.2012462615966797,0.015558123588562012,-0.24976250529289246,0.35245266556739807,0.7252703905105591,0.42000001668930054,-0.512643039226532,-1.880873203277588,-1.396336317062378,2.9999992847442627,-0.17320451140403748,-0.1704985350370407,-0.16875509917736053,-0.16562747955322266,-0.016635362058877945,0.02571662701666355,0.06236066669225693,0.07755427062511444
0.7833333333333333,0.1306183785200119,0.005184861831367016,0.0,0.6388101577758789,0.0,0.0,-0.7693644165992737,0.05052339658141136,-0.1656615287065506,0.0,0.0,0.0,1.7317619323730469,0.3597433269023895,0.710674524307251,0.4200000464916229,0.6087247133255005,4.233809818288137e-07,-3.4890128972620005e-06,-0.79338139295578,0.000150726453284733,-0.00027875942760147154,-9.707408025860786e-05,0.006078342441469431,-0.0009218750055879354,-0.0006130784167908132,0.38275623321533203,0.759613037109375,0.5467503070831299,-0.6156129837036133,0.19396579265594482,-0.214177206158638,0.35245266556739807,0.7252703905105591,0.42000001668930054,-0.523542046546936,0.385436087846756,-1.4145289659500122,-3.0000011920928955,-0.17467309534549713,-0.1709943413734436,-0.1682496964931488,-0.1644192487001419,-0.058303769677877426,-0.006390401627868414,0.05455856770277023,0.10252954810857773
0.8,0.13320845365524292,0.0008734992588870227,0.0,0.6329418420791626,0.0,0.0,-0.7741993069648743,0.1998985856771469,-0.31730523705482483,0.0,0.0,0.0,-1.7796409130096436,0.35974329710006714,0.710674524307251,0.4200000464916229,0.6087245941162109,4.3868965349247446e-07,-3.346244511703844e-06,-0.7933815121650696,0.00014980601554270834,-0.0002786095137707889,-9.694346226751804e-05,0.006079330574721098,-0.0009344725986011326,-0.000611023569945246,0.37598034739494324,0.7600847482681274,0.5404369235038757,-0.16154177486896515,-0.08228395134210587,-0.3481811285018921,0.35245266556739807,0.7252703905105591,0.42000001668930054,-0.5549664497375488,-3.0000014305114746,-1.3760452270507812,2.999999523162842,-0.1769663542509079,-0.17211878299713135,-0.16792918741703033,-0.16278357803821564,-0.13984721899032593,-0.06079776957631111,0.04035690799355507,0.1378774791955948
0.8166666666666667,0.13960298895835876,0.0013762913877144456,0.0,0.6045575737953186,0.0,0.0,-0.7965614199638367,0.34373846650123596,0.0543052963912487,0.0,0.0,0.0,-5.101644515991211,0.35974329710006714,0.710674524307251,0.4200000464916229,0.6087245941162109,4.914821829515859e-07,-3.384449428267544e-06,-0.7933815121650696,0.0001472915173508227,-0.00027786780265159905,-9.639468044042587e-05,0.006075432989746332,-0.0009617015602998435,-0.0006049918010830879,0.37769415974617004,0.7531701326370239,0.537621021270752,0.4246438145637512,-0.48736274242401123,0.15434305369853973,0.35245266556739807,0.7252703905105591,0.42000001668930054,-0.6049729585647583,-2.9999589920043945,-1.3946460485458374,-2.9999990463256836,-0.1843937635421753,-0.17753252387046814,-0.17095018923282623,-0.1634863018989563,-0.29605406522750854,-0.22170983254909515,-0.1167498305439949,-0.007668951991945505
0.8333333333333334,0.14749032258987427,0.0037575613241642714,0.0,0.5927336812019348,0.0,0.0,-0.8053985238075256,0.5134653449058533,0.1777869611978531,0.0,0.0,0.0,-0.726024866104126,0.35974329710006714,0.710674524307251,0.4200000464916229,0.6087245941162109,4.87985573727201e-07,-3.424244141569943e-06,-0.7933815121650696,0.00014739428297616541,-0.0002778420166578144,-9.641516953706741e-05,0.006074247881770134,-0.0009602399659343064,-0.0006051877862773836,0.3851461708545685,0.7497525215148926,0.542087197303772,0.4094318151473999,-0.03591471165418625,0.3534000515937805,0.35245266556739807,0.7252703905105591,0.42000001668930054,-0.6237238049507141,0.46318691968917847,-1.4446643590927124,-3.0,-0.18681295216083527,-0.17985618114471436,-0.17266057431697845,-0.1644754856824875,-0.030682481825351715,-0.07292717695236206,-0.08719751983880997,-0.0958511009812355
0.85,0.15175661444664001,0.0003685300762299448,0.0,0.6065956950187683,0.0,0.0,-0.795010507106781,0.275515615940094,-0.2538183033466339,0.0,0.0,0.0,2.7067782878875732,0.35974329710006714,0.710674524307251,0.4200000464916229,0.6087245941162109,5.009015353607538e-07,-3.469028570179944e-06,-0.7933815121650696,0.0001476552861277014,-0.00027781116659753025,-9.648175910115242e-05,0.006072122137993574,-0.0009570177062414587,-0.0006057576392777264,0.39148274064064026,0.7531577944755554,0.5445319414138794,0.32943782210350037,0.1807749718427658,-0.09567936509847641,0.35245266556739807,0.7252703905105591,0.42000001668930054,-0.6043845415115356,1.7326805591583252,-1.4060919284820557,3.000000476837158,-0.1807059496641159,-0.17536915838718414,-0.16936802864074707,-0.16227294504642487,0.2326434999704361,0.17448104918003082,0.13336452841758728,0.0906374379992485
0.8666666666666667,0.1538456678390503,-0.0003352906205691397,0.0,0.6057009696960449,0.0,0.0,-0.7956923842430115,0.07031375914812088,0.100829117000103,0.0,0.0,0.0,-1.1059776544570923,0.35974329710006714,0.710674524307251,0.4200000464916229,0.6087242960929871,4.4558910872183333e-07,-3.442787146923365e-06,-0.7933817505836487,0.00014616618864238262,-0.00027867325115948915,-9.607081301510334e-05,0.006101029459387064,-0.0009783859131857753,-0.0006028225761838257,0.3952077627182007,0.7524023056030273,0.5402991771697998,0.15136955678462982,-0.16571420431137085,-0.2546297013759613,0.35245266556739807,0.7252703905105591,0.42000001668930054,-0.6079043745994568,-1.8424550294876099,-1.35603928565979,3.0,-0.18102458119392395,-0.17593616247177124,-0.17000581324100494,-0.16310253739356995,-0.12044940143823624,-0.12092029303312302,-0.11490367352962494,-0.11871613562107086
