vladlanda/robotic-transformer/data/env_000_episode_0255.csv
sim_time_s,robot_box_x,robot_box_y,robot_box_z,robot_box_quat_w,robot_box_quat_x,robot_box_quat_y,robot_box_quat_z,robot_box_linvel_x,robot_box_linvel_y,robot_box_linvel_z,robot_box_angvel_x,robot_box_angvel_y,robot_box_angvel_z,cube_world_x,cube_world_y,cube_world_z,cube_quat_w,cube_quat_x,cube_quat_y,cube_quat_z,cube_linvel_x,cube_linvel_y,cube_linvel_z,cube_angvel_x,cube_angvel_y,cube_angvel_z,endpoint_world_x,endpoint_world_y,endpoint_world_z,endpoint_linvel_x,endpoint_linvel_y,endpoint_linvel_z,target_cube_world_x,target_cube_world_y,target_cube_world_z,gripper_actual_pos_rad_gp_leftgearjoint,gripper_actual_vel_rad_s_gp_leftgearjoint,gripper_actual_pos_rad_gp_rotatingjoint,gripper_actual_vel_rad_s_gp_rotatingjoint,motor_angle_rad_joint1,motor_angle_rad_joint2,motor_angle_rad_joint3,motor_angle_rad_joint4,motor_speed_rad_s_joint1,motor_speed_rad_s_joint2,motor_speed_rad_s_joint3,motor_speed_rad_s_joint4
0.0,0.0,0.0,0.0,1.0,0.0,0.0,0.0,0.0,0.0,0.0,0.0,0.0,0.0,-0.41309720277786255,0.6332156658172607,0.41999998688697815,1.0,0.0,0.0,0.0,0.0,0.0,0.0,0.0,0.0,0.0,3.42540442943573e-06,-0.005000244826078415,1.313499927520752,0.0,0.0,0.0,0.34319406747817993,0.7552889585494995,0.42000001668930054,-1.5707999467849731,0.0,0.0,0.0,0.0,0.0,0.0,0.0,0.0,0.0,0.0,0.0
0.016666666666666666,0.0028778850100934505,0.0021806680597364902,0.0,0.9998081922531128,0.0,0.0,0.019586581736803055,0.24087215960025787,0.18240931630134583,0.0,0.0,0.0,3.1418697834014893,-0.4130973219871521,0.6332153677940369,0.41999998688697815,1.0,3.279964630564791e-06,-8.339746386809566e-07,8.465587342243452e-08,-1.9833529222523794e-05,0.00017983045836444944,-6.132945418357849e-05,0.0009432713268324733,-0.004689474124461412,-0.00031981561915017664,-0.007110234349966049,0.003379564033821225,1.3159373998641968,-0.8143353462219238,0.9868683815002441,0.18095196783542633,0.34319406747817993,0.7552889585494995,0.42000001668930054,-1.5301095247268677,3.0000011920928955,-0.04584788903594017,-2.9999992847442627,0.0008691533003002405,0.0007963840034790337,0.0007110277656465769,0.0006108740926720202,0.11094217747449875,0.09756709635257721,0.08334315568208694,0.06823883205652237
0.03333333333333333,0.008960952050983906,0.006801788229495287,0.0,0.9997960329055786,0.0,0.0,0.020196832716464996,0.4070180356502533,0.3153024911880493,0.0,0.0,0.0,-0.8691298961639404,-0.41309744119644165,0.6332153081893921,0.4200000464916229,1.0,3.3908354453160428e-06,-2.1324485715012997e-06,-3.710144014235084e-08,0.00026357831666246057,0.00026937946677207947,-0.00010509486310184002,-0.0017707672668620944,0.004130808170884848,-0.000135478752781637,-0.027540797367691994,0.02574736811220646,1.3166658878326416,-1.5910353660583496,1.59966242313385,-0.07673502713441849,0.34319406747817993,0.7552889585494995,0.42000001668930054,-1.4800903797149658,3.000000476837158,-0.09588772058486938,-3.0000009536743164,0.0029902115929871798,0.002652866067364812,0.002277476480230689,0.0018609696999192238,0.16423198580741882,0.13977915048599243,0.11384137719869614,0.08632658421993256
0.05,0.017730405554175377,0.013768321834504604,0.0,0.9993825554847717,0.0,0.0,0.03513506427407265,0.5934423208236694,0.46492502093315125,0.0,0.0,0.0,2.65110182762146,-0.41309747099876404,0.6332153677940369,0.4200000464916229,1.0,3.765139354072744e-06,-2.2119161258160602e-06,5.630195420991413e-09,0.0002653095289133489,0.00026691411039792,-0.00010440382175147533,-0.0017242460744455457,0.004177400842308998,-0.00012949357915204018,-0.05965480953454971,0.05315413326025009,1.3118619918823242,-2.187298059463501,1.7225698232650757,-0.4601760804653168,0.34319406747817993,0.7552889585494995,0.42000001668930054,-1.4300720691680908,3.000002384185791,-0.145926371216774,-3.0000014305114746,0.0057031842879951,0.004911592695862055,0.004047863185405731,0.0031069680117070675,0.1928199678659439,0.1559176743030548,0.11714097857475281,0.07641155272722244
0.06666666666666667,0.02903963252902031,0.023059306666254997,0.0,0.9994536638259888,0.0,0.0,0.03305109590291977,0.7199941873550415,0.5950588583946228,0.0,0.0,0.0,-1.2084152698516846,-0.41309747099876404,0.6332153081893921,0.4200000464916229,0.9999999403953552,3.4067529668391217e-06,-2.2856381747260457e-06,4.300985096961085e-07,0.00026702662580646574,0.00026791892014443874,-0.00010437914170324802,-0.001740677747875452,0.004211848136037588,-0.0001285130565520376,-0.09844276309013367,0.08635875582695007,1.2996093034744263,-2.474297285079956,2.1504628658294678,-0.9831424951553345,0.34319406747817993,0.7552889585494995,0.42000001668930054,-1.3800537586212158,2.9999992847442627,-0.19592835009098053,-3.0000009536743164,0.008339904248714447,0.006874313112348318,0.005297807045280933,0.003604928031563759,0.15715648233890533,0.10749276727437973,0.055798906832933426,0.0019862568005919456
0.08333333333333333,0.04349837824702263,0.03444560244679451,0.0,0.9999932646751404,0.0,0.0,0.0036732726730406284,0.9361260533332825,0.7256273627281189,0.0,0.0,0.0,-4.542970180511475,-0.41309747099876404,0.6332153081893921,0.4200000464916229,1.0,3.697281499626115e-06,-2.1890098196308827e-06,-2.632294240356714e-07,0.00026389621780253947,0.00026586363674141467,-0.00010433816350996494,-0.0017081034602597356,0.004150185268372297,-0.00012991165567655116,-0.13966211676597595,0.12623965740203857,1.2800419330596924,-2.488363027572632,2.513132095336914,-1.356259822845459,0.34319406747817993,0.7552889585494995,0.42000001668930054,-1.3300241231918335,2.9999983310699463,-0.16681888699531555,3.0000007152557373,0.01027668733149767,0.007897789590060711,0.005366423167288303,0.0026789186522364616,0.10038875788450241,0.037733662873506546,-0.026962995529174805,-0.0937517061829567
0.1,0.052732884883880615,0.04751930013298988,0.0,0.9999507665634155,0.0,0.0,-0.009920571930706501,0.4260125160217285,0.8325337171554565,0.0,0.0,0.0,-0.6453217267990112,-0.41309747099876404,0.6332153081893921,0.4200000464916229,0.9999999403953552,3.6203855415806174e-06,-2.265273224111297e-06,1.7462159007664013e-07,0.0002667683002073318,0.00026740814791992307,-0.0001040794886648655,-0.0017385776154696941,0.004209164995700121,-0.00012775571667589247,-0.1826358139514923,0.16251130402088165,1.25554621219635,-2.511117458343506,2.1400370597839355,-1.5150871276855469,0.34319406747817993,0.7552889585494995,0.42000001668930054,-1.2800215482711792,3.000000238418579,-0.19846776127815247,-3.000001907348633,0.00627170829102397,0.0031154865864664316,-0.00023717369185760617,-0.0037940824404358864,-0.3489052355289459,-0.4021894633769989,-0.45751866698265076,-0.5151699185371399
0.11666666666666667,0.057325322180986404,0.05818266421556473,0.0,0.9993162751197815,0.0,0.0,-0.03697210177779198,0.4197426438331604,0.5495219826698303,0.0,0.0,0.0,-3.473834276199341,-0.41309747099876404,0.6332153081893921,0.4200000464916229,1.0,3.7983813854225446e-06,-2.2628894384979503e-06,-1.5019897148249584e-07,0.00026373917353339493,0.00026566049200482666,-0.00010429113171994686,-0.0017053951742127538,0.004147559404373169,-0.00012979967868886888,-0.22192516922950745,0.203578382730484,1.2276382446289062,-2.2663116455078125,2.823624610900879,-1.6902368068695068,0.34319406747817993,0.7552889585494995,0.42000001668930054,-1.2300032377243042,3.000002384185791,-0.24122419953346252,-2.1636135578155518,-0.00035344468778930604,-0.004667332861572504,-0.009182517416775227,-0.013911304995417595,-0.05201008543372154,-0.18173161149024963,-0.30750468373298645,-0.42922917008399963
0.13333333333333333,0.0623132586479187,0.06850705295801163,0.0,0.9963207840919495,0.0,0.0,-0.08570253103971481,0.18524716794490814,0.6722748875617981,0.0,0.0,0.0,-6.605281829833984,-0.41309747099876404,0.6332153677940369,0.4200000464916229,0.9999999403953552,3.55046631739242e-06,-2.229890242233523e-06,2.9291771852513193e-07,0.00026703221374191344,0.00026779237668961287,-0.00010416773147881031,-0.0017439918592572212,0.0042135524563491344,-0.00012800241529475898,-0.260082483291626,0.25466489791870117,1.1958343982696533,-2.2607741355895996,3.2514517307281494,-2.131781578063965,0.34319406747817993,0.7552889585494995,0.42000001668930054,-1.1799895763397217,2.9999947547912598,-0.20300491154193878,2.9999985694885254,-0.0023183298762887716,-0.008725940249860287,-0.015254007652401924,-0.0219136793166399,-0.2007218301296234,-0.31435269117355347,-0.422931045293808,-0.5264157652854919
0.15,0.07172897458076477,0.07603936642408371,0.0,0.9933117032051086,0.0,0.0,-0.11546367406845093,0.5779228210449219,0.44566428661346436,0.0,0.0,0.0,-2.310314655303955,-0.41309744119644165,0.6332153081893921,0.4200000464916229,1.0,3.3322221497655846e-06,-2.1020302938268287e-06,1.3131158027590573e-07,0.0002673070412129164,0.0002685954386834055,-0.00010459451004862785,-0.0017497260123491287,0.004215645603835583,-0.00012928212527185678,-0.3004436492919922,0.3051922917366028,1.1566646099090576,-2.2779955863952637,3.247899055480957,-2.65686297416687,0.34319406747817993,0.7552889585494995,0.42000001668930054,-1.1299978494644165,3.0,-0.23440057039260864,-3.0000007152557373,-0.00255790026858449,-0.010999911464750767,-0.01946263201534748,-0.027956467121839523,-0.2355368584394455,-0.3187110126018524,-0.3980216681957245,-0.47349703311920166
0.16666666666666666,0.07617291808128357,0.08504656702280045,0.0,0.987623393535614,0.0,0.0,-0.15684401988983154,0.2574461102485657,0.5160238742828369,0.0,0.0,0.0,-5.619707107543945,-0.41309747099876404,0.6332153081893921,0.4200000464916229,1.0,3.737278348125983e-06,-2.2331944364850642e-06,-1.8764472997645498e-07,0.00026432870072312653,0.00026626777253113687,-0.00010446063242852688,-0.0017119222320616245,0.004157560411840677,-0.00013001241313759238,-0.33592772483825684,0.3629603385925293,1.1047484874725342,-1.9702720642089844,3.694478988647461,-3.3446974754333496,0.34319406747817993,0.7552889585494995,0.42000001668930054,-1.0799869298934937,2.9999969005584717,-0.20089495182037354,3.0000014305114746,-0.01276493165642023,-0.021821914240717888,-0.030862394720315933,-0.03990473598241806,-0.5590773820877075,-0.6056952476501465,-0.6486567854881287,-0.6882102489471436
0.18333333333333332,0.07772283256053925,0.0953274816274643,0.0,0.9799205660820007,0.0,0.0,-0.1993882954120636,0.01912028342485428,0.6928678750991821,0.0,0.0,0.0,-4.999431133270264,-0.41309747099876404,0.6332153677940369,0.4200000464916229,0.9999999403953552,3.6602618820325006e-06,-2.3023178528092103e-06,2.528582569993887e-07,0.0002669094246812165,0.0002676024450920522,-0.0001041253563016653,-0.001741250162012875,0.004211540333926678,-0.0001278737763641402,-0.36874663829803467,0.424433171749115,1.0429117679595947,-1.7008233070373535,3.8357226848602295,-4.041330814361572,0.34319406747817993,0.7552889585494995,0.42000001668930054,-1.0299885272979736,2.9999992847442627,-0.23232625424861908,-3.000000476837158,-0.024279598146677017,-0.033792294561862946,-0.04322490841150284,-0.05260225757956505,-0.7767056822776794,-0.7863279581069946,-0.792589008808136,-0.7959267497062683
0.2,0.08396846055984497,0.10230769217014313,0.0,0.9760720729827881,0.0,0.0,-0.21744735538959503,0.3997727334499359,0.4012971818447113,0.0,0.0,0.0,-0.9902389049530029,-0.41309747099876404,0.6332153081893921,0.4200000464916229,1.0,3.5908608424506383e-06,-2.300466803717427e-06,1.3872747217646975e-07,0.00026654714019969106,0.00026732240803539753,-0.00010424014180898666,-0.0017327213427051902,0.004203526768833399,-0.0001282061421079561,-0.399380087852478,0.48066216707229614,0.9708858132362366,-1.5528115034103394,3.266080617904663,-4.692252159118652,0.34319406747817993,0.7552889585494995,0.42000001668930054,-0.9799824357032776,3.0,-0.2823552191257477,-3.0000011920928955,-0.034611448645591736,-0.044087402522563934,-0.053443361073732376,-0.0627143606543541,-0.8213507533073425,-0.7729529142379761,-0.7249321937561035,-0.6781207323074341
0.21666666666666667,0.0849517211318016,0.11224696040153503,0.0,0.9689078330993652,0.0,0.0,-0.24742206931114197,0.054385311901569366,0.5725778341293335,0.0,0.0,0.0,-4.3829145431518555,-0.41309747099876404,0.6332153677940369,0.4200000464916229,1.0,3.6069873203814495e-06,-2.261009740323061e-06,1.9610945756198817e-08,0.00026447101845405996,0.000265582901192829,-0.00010396563448011875,-0.0017088254680857062,0.004164384678006172,-0.00012832769425585866,-0.4212689697742462,0.532031774520874,0.8847708702087402,-1.0674991607666016,2.9377999305725098,-5.378395080566406,0.34319406747817993,0.7552889585494995,0.42000001668930054,-0.9299717545509338,3.0,-0.33238595724105835,-3.0000009536743164,-0.05064096674323082,-0.06005601957440376,-0.06937335431575775,-0.07859697192907333,-0.8142197132110596,-0.8269559741020203,-0.8449459075927734,-0.8642404675483704
0.23333333333333334,0.09008483588695526,0.11752040684223175,0.0,0.9659852981567383,0.0,0.0,-0.25859710574150085,0.31389710307121277,0.23629435896873474,0.0,0.0,0.0,-0.30909934639930725,-0.41309744119644165,0.6332153081893921,0.4200000464916229,0.9999999403953552,3.742314447663375e-06,-2.2275469291344052e-06,4.588965509810805e-07,0.00026475070626474917,0.00026671463274396956,-0.0001045342069119215,-0.001718964078463614,0.004165732767432928,-0.0001301961310673505,-0.44010913372039795,0.571586012840271,0.7927837371826172,-0.8710051774978638,2.002014398574829,-5.689914703369141,0.34319406747817993,0.7552889585494995,0.42000001668930054,-0.8799610733985901,2.999999523162842,-0.38241761922836304,-3.0000009536743164,-0.06480500102043152,-0.07420133054256439,-0.08320748060941696,-0.0920671597123146,-0.9887816905975342,-0.9906635880470276,-0.9548938274383545,-0.8927838206291199
0.25,0.09018030017614365,0.12024398148059845,0.0,0.9593152403831482,0.0,0.0,-0.2823372483253479,-0.07645149528980255,0.08707334101200104,0.0,0.0,0.0,-3.8017048835754395,-0.41309747099876404,0.6332153081893921,0.4200000464916229,1.0,3.394471605133731e-06,-2.28208023145271e-06,1.3361282924506668e-07,0.0002667925728019327,0.00026793935103341937,-0.00010439474135637283,-0.001741714426316321,0.004206551238894463,-0.00012884216266684234,-0.4474634826183319,0.5977039337158203,0.6946225166320801,0.03537488728761673,1.1365914344787598,-5.828232765197754,0.34319406747817993,0.7552889585494995,0.42000001668930054,-0.8299508690834045,2.9999749660491943,-0.4324492812156677,-2.9999887943267822,-0.08270276337862015,-0.09177348017692566,-0.10053510963916779,-0.10920742154121399,-0.9884846806526184,-0.990330696105957,-0.9923667907714844,-0.9943681955337524
0.26666666666666666,0.08846399188041687,0.11958242207765579,0.0,0.9578219652175903,0.0,0.0,-0.28736239671707153,-0.1442161500453949,-0.08479122072458267,0.0,0.0,0.0,0.2991505563259125,-0.41309747099876404,0.6332153677940369,0.4200000464916229,1.0,3.683473778437474e-06,-2.310144282091642e-06,2.1009151396356174e-07,0.0002647919754963368,0.00026625837199389935,-0.00010421406477689743,-0.0017168897902593017,0.004169071558862925,-0.00012909626821056008,-0.448304146528244,0.6150182485580444,0.6029164791107178,0.14707481861114502,0.862544059753418,-5.200380802154541,0.34319406747817993,0.7552889585494995,0.42000001668930054,-0.7799420356750488,2.999999761581421,-0.4824801981449127,-3.000002384185791,-0.098914735019207,-0.10807167738676071,-0.11694435775279999,-0.1257534772157669,-1.0166046619415283,-1.0124623775482178,-1.0093117952346802,-1.0068140029907227
0.2833333333333333,0.0839301347732544,0.1164112240076065,0.0,0.9524191617965698,0.0,0.0,-0.3047913610935211,-0.32525354623794556,-0.23906226456165314,0.0,0.0,0.0,-3.034703493118286,-0.41309747099876404,0.6332153081893921,0.4200000464916229,1.0,3.306992994112079e-06,-2.2125836949271616e-06,2.6255548846165766e-07,0.0002666075888555497,0.0002674507559277117,-0.00010424456559121609,-0.0017352629220113158,0.004204458557069302,-0.0001282876473851502,-0.44056326150894165,0.6280737519264221,0.5153688788414001,0.8274603486061096,0.6408478021621704,-5.188282012939453,0.34319406747817993,0.7552889585494995,0.42000001668930054,-0.7299332618713379,3.0000016689300537,-0.5325098037719727,-3.0000011920928955,-0.11628920584917068,-0.1252703219652176,-0.13400860130786896,-0.14271102845668793,-1.0043678283691406,-1.003290057182312,-1.0024678707122803,-1.0018126964569092
0.3,0.07694405317306519,0.11095506697893143,0.0,0.9522861242294312,0.0,0.0,-0.3052068054676056,-0.4570232927799225,-0.3646467626094818,0.0,0.0,0.0,0.8759656548500061,-0.41309747099876404,0.6332153081893921,0.4200000464916229,1.0,3.64134757546708e-06,-2.3780066840117797e-06,-4.194093037312996e-07,0.0002661148027982563,0.0002672590489964932,-0.00010423548519611359,-0.0017336418386548758,0.004194686189293861,-0.0001285519974771887,-0.42560744285583496,0.6368072032928467,0.43183085322380066,1.1031802892684937,0.3657393753528595,-4.861705780029297,0.34319406747817993,0.7552889585494995,0.42000001668930054,-0.679926335811615,3.000000238418579,-0.5825375914573669,-3.0000016689300537,-0.1333995759487152,-0.14227049052715302,-0.15092778205871582,-0.1595681607723236,-1.0048853158950806,-1.0036981105804443,-1.0027893781661987,-1.0020586252212524
0.31666666666666665,0.06763730943202972,0.10340166091918945,0.0,0.9475759863853455,0.0,0.0,-0.3195304572582245,-0.6069434285163879,-0.493376225233078,0.0,0.0,0.0,-2.7089481353759766,-0.4131036102771759,0.6332533955574036,0.4200025200843811,0.9999996423721313,-0.00024145154748111963,6.610091804759577e-05,-0.0006695567863062024,-0.017950762063264847,0.051271889358758926,-0.00580398365855217,0.2653028666973114,-0.046360816806554794,-2.384418249130249,-0.4276382327079773,0.638677716255188,0.425087571144104,0.012723005376756191,0.050991520285606384,-0.21438628435134888,0.34319406747817993,0.7552889585494995,0.42000001668930054,-0.6299225687980652,2.999962091445923,-0.6329801082611084,-2.999986171722412,-0.14520804584026337,-0.15355530381202698,-0.16172966361045837,-0.16826783120632172,-0.6607763171195984,-0.6049158573150635,-0.549095869064331,-0.4049907624721527
0.3333333333333333,0.056062132120132446,0.09353373199701309,0.0,0.9481509327888489,0.0,0.0,-0.31782037019729614,-0.7336679697036743,-0.6335038542747498,0.0,0.0,0.0,1.1626434326171875,-0.41202497482299805,0.6364705562591553,0.4200030267238617,0.9991465210914612,0.00018577073933556676,-0.00017986679449677467,-0.04130547121167183,0.14197520911693573,0.2908340394496918,-0.004293974954634905,-0.14113305509090424,0.0838334709405899,-6.726797103881836,-0.4262174367904663,0.641884982585907,0.422343373298645,-0.0023379847407341003,0.2924010157585144,0.24978041648864746,0.34319406747817993,0.7552889585494995,0.42000001668930054,-0.5799173712730408,3.0000009536743164,-0.6830187439918518,-2.999753952026367,-0.1571241021156311,-0.16386690735816956,-0.17033664882183075,-0.1739150583744049,-0.6911638975143433,-0.5651483535766602,-0.4278414845466614,-0.22651857137680054
0.35,0.0479678176343441,0.0810374766588211,0.0,0.9440392255783081,0.0,0.0,-0.3298332989215851,-0.403835654258728,-0.7949888110160828,0.0,0.0,0.0,-2.3942625522613525,-0.4097178280353546,0.6410984396934509,0.41999998688697815,0.9955388903617859,6.542954338328855e-07,7.546111646661302e-06,-0.09435196220874786,0.21577636897563934,0.3961724638938904,-9.484486508881673e-05,0.0014294865541160107,-0.004283222835510969,-10.93317699432373,-0.4232986569404602,0.6479063034057617,0.4234994053840637,0.37264201045036316,0.4692841172218323,-0.07565774023532867,0.34319406747817993,0.7552889585494995,0.42000001668930054,-0.5299124121665955,2.9999821186065674,-0.7330436110496521,-3.0000009536743164,-0.1683301478624344,-0.17242340743541718,-0.17597843706607819,-0.1757652461528778,-0.6340574026107788,-0.45075103640556335,-0.24980898201465607,-0.008273455314338207
0.36666666666666664,0.03682826831936836,0.06694113463163376,0.0,0.9292299151420593,0.0,0.0,-0.36950209736824036,-0.7617576718330383,-0.8735246062278748,0.0,0.0,0.0,-6.010747909545898,-0.40141478180885315,0.6538704633712769,0.42000117897987366,0.9888603091239929,-7.087059202603996e-05,3.261423626099713e-05,-0.14884601533412933,0.6498895287513733,0.9450247287750244,-0.002500935923308134,0.22645729780197144,-0.21438130736351013,-3.554161787033081,-0.4133536219596863,0.6594389081001282,0.4202117919921875,0.716153085231781,0.8629448413848877,0.06395411491394043,0.34319406747817993,0.7552889585494995,0.42000001668930054,-0.4799081087112427,2.9999947547912598,-0.7830939888954163,-2.9999306201934814,-0.18101827800273895,-0.18160805106163025,-0.1813632696866989,-0.17688393592834473,-0.7136043310165405,-0.5058618187904358,-0.27813684940338135,-0.030453365296125412
0.3833333333333333,0.029126200824975967,0.050008468329906464,0.0,0.9010847210884094,0.0,0.0,-0.433643102645874,-0.43237340450286865,-1.0543177127838135,0.0,0.0,0.0,-9.105875015258789,-0.38133472204208374,0.6803082823753357,0.4218805134296417,0.9825747013092041,0.01799028553068638,-0.02618662640452385,-0.183132141828537,1.8500267267227173,2.259834051132202,0.16897940635681152,-2.2339446544647217,-5.742880344390869,-7.207895278930664,-0.3880922496318817,0.6831026077270508,0.422351598739624,2.456644058227539,1.9999042749404907,0.18105724453926086,0.34319406747817993,0.7552889585494995,0.42000001668930054,-0.4299042224884033,3.0000011920928955,-0.8331339359283447,-2.999919891357422,-0.19145932793617249,-0.1882249116897583,-0.1837858408689499,-0.17490847408771515,-0.6941220164299011,-0.4223713278770447,-0.13091816008090973,0.16131167113780975
0.4,0.02332206256687641,0.03786473721265793,0.0,0.856683075428009,0.0,0.0,-0.5158431529998779,-0.24925744533538818,-0.7625546455383301,0.0,0.0,0.0,-11.84680461883545,-0.3147827982902527,0.7200716733932495,0.42666301131248474,0.9668460488319397,0.060834407806396484,-0.06455592066049576,-0.23945863544940948,5.237030506134033,3.243218183517456,0.007501320913434029,32.6207160949707,-17.326175689697266,4.00120210647583,-0.3215462863445282,0.7248170971870422,0.42668136954307556,5.070500373840332,3.1034955978393555,0.3077891170978546,0.34319406747817993,0.7552889585494995,0.42000001668930054,-0.39293959736824036,1.2629084587097168,-0.796349287033081,3.0006964206695557,-0.20691606402397156,-0.20125405490398407,-0.1905316710472107,-0.17581482231616974,-0.5376802682876587,-0.5867331624031067,-0.2968399226665497,-0.038328588008880615
0.4166666666666667,0.021684927865862846,0.02760135754942894,0.0,0.818324863910675,0.0,0.0,-0.5747559666633606,-0.04324178770184517,-0.5546535849571228,0.0,0.0,0.0,-7.282415390014648,-0.22824636101722717,0.770386278629303,0.43347811698913574,0.9287828803062439,0.13071361184120178,-0.10650910437107086,-0.3300485908985138,5.49158239364624,2.097001552581787,0.5772483944892883,-6.8199357986450195,-4.80198335647583,8.684486389160156,-0.2354334443807602,0.7770043015480042,0.43331441283226013,5.374955177307129,2.852904796600342,0.476965069770813,0.34319406747817993,0.7552889585494995,0.42000001668930054,-0.37583255767822266,0.9478431344032288,-0.7768895030021667,-0.37639716267585754,-0.21667839586734772,-0.21122723817825317,-0.19633589684963226,-0.17815232276916504,-0.5587497353553772,-0.543533205986023,-0.32838496565818787,-0.16153813898563385
0.43333333333333335,0.02315446361899376,0.020846668630838394,0.0,0.7991579174995422,0.0,0.0,-0.601121187210083,0.14062805473804474,-0.3423451781272888,0.0,0.0,0.0,-2.7758095264434814,-0.13909569382667542,0.8094931244850159,0.4428713917732239,0.8763812780380249,0.1413806974887848,-0.11974164098501205,-0.4445551335811615,5.867365837097168,1.496024250984192,0.638359546661377,6.6171135902404785,-18.496246337890625,2.868291139602661,-0.1460375189781189,0.8174406290054321,0.4413953423500061,5.426653861999512,1.9526581764221191,0.6452214121818542,0.34319406747817993,0.7552889585494995,0.42000001668930054,-0.36095723509788513,0.7848361134529114,-0.8224840760231018,-3.000002861022949,-0.22613658010959625,-0.2197875827550888,-0.20162270963191986,-0.18101640045642853,-0.5334221720695496,-0.4583840072154999,-0.2894946038722992,-0.17253324389457703
0.45,0.02144639380276203,0.019332898780703545,0.0,0.772243857383728,0.0,0.0,-0.6353262066841125,-0.06358284503221512,-0.08233264833688736,0.0,0.0,0.0,-5.854442596435547,-0.050159752368927,0.8317142724990845,0.450930655002594,0.8408969640731812,0.13591405749320984,-0.12511564791202545,-0.5086902379989624,5.48638391494751,0.10900423675775528,0.3488367795944214,-6.202620983123779,-18.515474319458008,24.791675567626953,-0.05511389672756195,0.8410567045211792,0.4499409794807434,5.5748467445373535,1.017388105392456,0.5960395336151123,0.34319406747817993,0.7552889585494995,0.42000001668930054,-0.3493705689907074,0.543313205242157,-0.8725093603134155,-3.000005006790161,-0.2373349368572235,-0.22889871895313263,-0.20769889652729034,-0.1848517805337906,-0.5308459997177124,-0.41554024815559387,-0.2690680921077728,-0.15874280035495758
0.4666666666666667,0.0240988340228796,0.012253477238118649,0.0,0.756748378276825,0.0,0.0,-0.6537062525749207,0.126915842294693,-0.4334661662578583,0.0,0.0,0.0,-1.660125732421875,0.03893084451556206,0.8404966592788696,0.4567580819129944,0.7772006988525391,0.12540367245674133,-0.12686213850975037,-0.6034391522407532,4.962372779846191,-0.7999060750007629,0.10348689556121826,-16.171831130981445,-16.4834041595459,19.460174560546875,0.033893004059791565,0.8511121869087219,0.4555782079696655,5.256629467010498,0.0817711129784584,0.3840067982673645,0.34319406747817993,0.7552889585494995,0.42000001668930054,-0.34015893936157227,0.4912574291229248,-0.9225351810455322,-3.0000033378601074,-0.2400059849023819,-0.23113977909088135,-0.2082887440919876,-0.18438641726970673,-0.036607421934604645,-0.25837135314941406,-0.126133531332016,-0.03688943386077881
0.48333333333333334,0.02361505851149559,0.01007984671741724,0.0,0.7333865761756897,0.0,0.0,-0.6798118352890015,-0.03839497268199921,-0.10328318178653717,0.0,0.0,0.0,-4.9155073165893555,0.11859674751758575,0.8350110054016113,0.45801255106925964,0.7329941391944885,0.11616147309541702,-0.12129872292280197,-0.6591756939888,4.295219898223877,-1.2460449934005737,-0.13377203047275543,-11.346085548400879,-7.584504127502441,20.71709442138672,0.11452683061361313,0.8463003635406494,0.4573367238044739,4.729355812072754,-0.5015465617179871,0.055140186101198196,0.34319406747817993,0.7552889585494995,0.42000001668930054,-0.33091914653778076,0.5229347944259644,-0.9725597500801086,-3.000002145767212,-0.2396421879529953,-0.23712852597236633,-0.21240907907485962,-0.1873282641172409,0.08888644725084305,-0.2171899974346161,-0.16774508357048035,-0.15047401189804077
0.5,0.025074860081076622,0.010782154276967049,0.0,0.7245588302612305,0.0,0.0,-0.6892129778862,0.1291840672492981,0.09545508772134781,0.0,0.0,0.0,-0.4670667350292206,0.1879960596561432,0.8226109147071838,0.4534186124801636,0.698016345500946,0.09366218745708466,-0.11276283860206604,-0.7009171843528748,3.5578863620758057,-1.5336803197860718,-0.5272670984268188,-11.376311302185059,-5.687471389770508,14.18146800994873,0.1851833462715149,0.833223819732666,0.4531567096710205,3.934199810028076,-1.029916763305664,-0.3602748513221741,0.34319406747817993,0.7552889585494995,0.42000001668930054,-0.32009562849998474,0.6841064095497131,-1.0225828886032104,-3.000002145767212,-0.23802900314331055,-0.23944158852100372,-0.21452102065086365,-0.18970584869384766,0.1191072165966034,-0.05197785049676895,-0.07120008021593094,-0.1159575879573822
0.5166666666666666,0.02953990362584591,0.007157013285905123,0.0,0.7070852518081665,0.0,0.0,-0.7071282863616943,0.31456923484802246,-0.20965637266635895,0.0,0.0,0.0,-3.66560697555542,0.2465631365776062,0.8078116178512573,0.44122251868247986,0.6573124527931213,0.05974676460027695,-0.10817555338144302,-0.7434168457984924,2.8651506900787354,-1.3145071268081665,-0.5623895525932312,16.297348022460938,-7.219860553741455,18.242429733276367,0.2435450255870819,0.8178554773330688,0.44152653217315674,3.2319045066833496,-1.105522871017456,-0.9068295955657959,0.34319406747817993,0.7552889585494995,0.42000001668930054,-0.30601781606674194,0.9122565388679504,-1.072605013847351,-2.999999523162842,-0.23143334686756134,-0.23573820292949677,-0.21251964569091797,-0.18966591358184814,0.23368693888187408,0.14539149403572083,0.051389697939157486,-0.06109917536377907
0.5333333333333333,0.03177029639482498,0.008120601996779442,0.0,0.7025408744812012,0.0,0.0,-0.711643397808075,0.08201993256807327,0.061126694083213806,0.0,0.0,0.0,0.12626704573631287,0.29444241523742676,0.7886150479316711,0.42557278275489807,0.564660906791687,0.04032529145479202,-0.12863433361053467,-0.8142389059066772,2.632063627243042,-1.1044195890426636,-1.0747058391571045,-18.982830047607422,-9.97281551361084,-26.640729904174805,0.2875942885875702,0.7971950173377991,0.4287703037261963,1.9662625789642334,-1.0805351734161377,-0.20347443222999573,0.34319406747817993,0.7552889585494995,0.42000001668930054,-0.28666257858276367,1.5485923290252686,-1.1226931810379028,-2.999624490737915,-0.23073461651802063,-0.23525412380695343,-0.213405042886734,-0.1922348290681839,0.16804535686969757,0.1507817804813385,0.02184130810201168,-0.11406832188367844
0.55,0.03544091805815697,0.004990107845515013,0.0,0.6883845329284668,0.0,0.0,-0.7253459095954895,0.2460089921951294,-0.21907193958759308,0.0,0.0,0.0,-3.1160244941711426,0.3187965154647827,0.7761592268943787,0.42134374380111694,0.5917719006538391,0.01997528225183487,-0.02605527639389038,-0.8054364919662476,1.0226304531097412,-1.625694751739502,0.3085286021232605,13.728246688842773,-7.730944633483887,17.91291618347168,0.3154786229133606,0.7838976383209229,0.4268615245819092,1.046496033668518,-0.5800274014472961,0.20610138773918152,0.34319406747817993,0.7552889585494995,0.42000001668930054,-0.2602812945842743,1.0110834836959839,-1.1727396249771118,-3.0000016689300537,-0.22526748478412628,-0.23015597462654114,-0.21110045909881592,-0.19267266988754272,0.2745589017868042,0.2920042872428894,0.13380415737628937,-0.018066417425870895
0.5666666666666667,0.03707657754421234,0.005576700437813997,0.0,0.6871049404144287,0.0,0.0,-0.7265581488609314,0.05953759327530861,0.05068518593907356,0.0,0.0,0.0,0.6426915526390076,0.3356870114803314,0.7630854845046997,0.4203106164932251,0.5854856371879578,0.004339492414146662,-0.004416710697114468,-0.8106591105461121,0.9451791048049927,-1.0883344411849976,-0.12057049572467804,-0.7816952466964722,3.6159615516662598,6.276885986328125,0.3317270874977112,0.7696888446807861,0.4263969361782074,0.8533825874328613,-0.8197953104972839,-0.1404532641172409,0.34319406747817993,0.7552889585494995,0.42000001668930054,-0.2563350200653076,-0.007813144475221634,-1.2227617502212524,-3.000002145767212,-0.22272291779518127,-0.22668151557445526,-0.21004147827625275,-0.19394104182720184,0.25522541999816895,0.29775410890579224,0.12545658648014069,-0.0365438386797905
0.5833333333333334,0.03987995907664299,0.0029039387591183186,0.0,0.6757588982582092,0.0,0.0,-0.7371227145195007,0.20484216511249542,-0.2183910310268402,0.0,0.0,0.0,-2.611422061920166,0.34665390849113464,0.7561267018318176,0.4200742244720459,0.5725378394126892,0.0022147500421851873,-0.0004514611209742725,-0.8198751211166382,0.42356088757514954,-0.3710991144180298,-0.07789228856563568,-1.2442049980163574,2.5484836101531982,-12.699926376342773,0.34122762084007263,0.7615360021591187,0.42235904932022095,0.2300451397895813,-0.19333776831626892,0.1217997670173645,0.34319406747817993,0.7552889585494995,0.42000001668930054,-0.24755500257015228,1.0621880292892456,-1.2727285623550415,-2.9986672401428223,-0.21541860699653625,-0.2192847728729248,-0.20621667802333832,-0.19340750575065613,0.40510937571525574,0.42247605323791504,0.21660207211971283,0.02927996590733528
0.6,0.04502982646226883,0.0028073680587112904,0.0,0.6774886846542358,0.0,0.0,-0.7355331778526306,0.3417453169822693,0.03406951203942299,0.0,0.0,0.0,1.1281440258026123,0.3494223952293396,0.7522262930870056,0.4200000762939453,0.5934946537017822,-4.129358785576187e-06,-2.645250606292393e-05,-0.8048378229141235,0.16289526224136353,-0.2689984142780304,-0.0011014807969331741,0.06371811032295227,0.026499738916754723,-0.058255065232515335,0.34472715854644775,0.756901741027832,0.421353280544281,0.07185865938663483,-0.20325297117233276,-0.045638009905815125,0.34319406747817993,0.7552889585494995,0.42000001668930054,-0.26417291164398193,-2.681124687194824,-1.2450194358825684,2.946486711502075,-0.21037697792053223,-0.21378925442695618,-0.2039555013179779,-0.19407179951667786,0.34928518533706665,0.361054927110672,0.15768776834011078,-0.02462606132030487
0.6166666666666667,0.05168372020125389,0.005743443965911865,0.0,0.6684969067573547,0.0,0.0,-0.7437149286270142,0.4516616463661194,0.2317350208759308,0.0,0.0,0.0,-2.443249225616455,0.35156282782554626,0.7486640214920044,0.4200000464916229,0.5951284766197205,-1.086599681343614e-07,4.752759252824035e-07,-0.8036304712295532,0.11739692091941833,-0.19563134014606476,-3.2865791581571102e-06,-8.261143375420943e-05,-0.00017514881619717926,0.26820409297943115,0.3457793593406677,0.7576403617858887,0.42284178733825684,0.03780278190970421,0.13925939798355103,0.18877606093883514,0.34319406747817993,0.7552889585494995,0.42000001668930054,-0.3141096234321594,-3.0000007152557373,-1.2667545080184937,-2.9989230632781982,-0.20296896994113922,-0.20679622888565063,-0.20066192746162415,-0.1939774751663208,0.5371040105819702,0.4901711940765381,0.25871142745018005,0.059837620705366135
0.6333333333333333,0.06109638139605522,0.0038060529623180628,0.0,0.6711400747299194,0.0,0.0,-0.7413305640220642,0.5284441113471985,-0.13492238521575928,0.0,0.0,0.0,1.3224965333938599,0.3525312840938568,0.7466408014297485,0.42001932859420776,0.6118206977844238,0.0004740685399156064,-0.00016717985272407532,-0.7909963130950928,-0.10986679792404175,-0.017766539007425308,0.040348850190639496,-0.9759631752967834,-2.1689231395721436,1.5518125295639038,0.3449554741382599,0.7594954967498779,0.42654159665107727,-0.18340179324150085,0.020076103508472443,0.27491986751556396,0.34319406747817993,0.7552889585494995,0.42000001668930054,-0.36412540078163147,-2.9999985694885254,-1.3167741298675537,-2.9999959468841553,-0.19155675172805786,-0.1961396187543869,-0.19354580342769623,-0.18981218338012695,0.5295491218566895,0.5405147075653076,0.396574467420578,0.28352320194244385
0.65,0.0714045986533165,0.00024383141135331243,0.0,0.6626375913619995,0.0,0.0,-0.7489402294158936,0.6555827260017395,-0.30248624086380005,0.0,0.0,0.0,-2.278817892074585,0.351266473531723,0.746404767036438,0.42000025510787964,0.6193506121635437,2.9222233024484012e-06,4.745419573737308e-06,-0.7851144075393677,-0.051084235310554504,-0.011820088140666485,-4.572770558297634e-05,-0.0008448956068605185,-0.0023760078474879265,0.826987087726593,0.34470540285110474,0.7601760625839233,0.4310356378555298,0.13435626029968262,0.02183493971824646,0.3334013819694519,0.34319406747817993,0.7552889585494995,0.42000001668930054,-0.4141402244567871,-2.9999942779541016,-1.3667933940887451,-2.999999761581421,-0.185242161154747,-0.18905650079250336,-0.18797479569911957,-0.18524743616580963,0.29620498418807983,0.36700841784477234,0.3171670734882355,0.2964322865009308
0.6666666666666666,0.08508983254432678,0.0007821117760613561,0.0,0.6317456364631653,0.0,0.0,-0.7751757502555847,0.7922285795211792,0.0605151392519474,0.0,0.0,0.0,-5.7107157707214355,0.3511342406272888,0.7463626265525818,0.4200001060962677,0.6204385161399841,1.6299449271173216e-05,-6.412650236597983e-06,-0.7842550277709961,0.0013329604407772422,0.00040808034827932715,-0.0005640890449285507,-0.010085062123835087,0.005339574068784714,-0.003845615079626441,0.34891602396965027,0.7582554221153259,0.4449130892753601,0.5206600427627563,-0.09238819032907486,1.3784927129745483,0.34319406747817993,0.7552889585494995,0.42000001668930054,-0.4641537666320801,-2.9999773502349854,-1.4168117046356201,-2.9999985694885254,-0.18664835393428802,-0.18838272988796234,-0.1870332807302475,-0.18367992341518402,-0.04147206246852875,0.05500704050064087,0.060432471334934235,0.0889936313033104
0.6833333333333333,0.0952678918838501,0.0030357236973941326,0.0,0.6151259541511536,0.0,0.0,-0.7884288430213928,0.5397517681121826,0.13934899866580963,0.0,0.0,0.0,-1.4854780435562134,0.35113611817359924,0.7463635206222534,0.42000001668930054,0.6204372048377991,-2.5353745058964705e-06,-4.516792159847682e-06,-0.7842560410499573,7.885745435487479e-05,-0.00036634819116443396,-0.00010367808863520622,0.008230650797486305,-0.002436078153550625,-0.0004310800286475569,0.35816287994384766,0.7594538331031799,0.4701318144798279,0.522157609462738,0.21989934146404266,1.6407456398010254,0.34319406747817993,0.7552889585494995,0.42000001668930054,-0.5079017877578735,-2.279181480407715,-1.4668300151824951,-3.000000238418579,-0.1863231211900711,-0.18704907596111298,-0.18598094582557678,-0.1825694590806961,0.1116006001830101,0.1327606588602066,0.0883202999830246,0.061574969440698624
0.7,0.10095160454511642,0.006964955013245344,0.0,0.6232943534851074,0.0,0.0,-0.7819873094558716,0.27505460381507874,0.28875669836997986,0.0,0.0,0.0,2.075434446334839,0.35113611817359924,0.7463634610176086,0.42000001668930054,0.62043696641922,-2.3889651856734417e-06,-4.56257021141937e-06,-0.7842562198638916,8.84945402503945e-05,-0.0003686879645101726,-0.0001012221910059452,0.008312420919537544,-0.002325726905837655,-0.00045206883805803955,0.3679251968860626,0.7655751705169678,0.4898965358734131,0.5339985489845276,0.45045751333236694,0.8205858469009399,0.34319406747817993,0.7552889585494995,0.42000001668930054,-0.5202742218971252,0.5559511780738831,-1.5168483257293701,-3.0,-0.18308615684509277,-0.18369364738464355,-0.18341737985610962,-0.1805759221315384,0.24320891499519348,0.2463085949420929,0.20233818888664246,0.16556675732135773
0.7166666666666667,0.10288085043430328,0.0066240690648555756,0.0,0.618768572807312,0.0,0.0,-0.7855733036994934,0.08538107573986053,-0.09819073975086212,0.0,0.0,0.0,-1.6212117671966553,0.35113611817359924,0.7463635206222534,0.42000001668930054,0.6204372048377991,-2.1814466890646145e-06,-4.574759714159882e-06,-0.7842561602592468,8.772060391493142e-05,-0.0003683693357743323,-0.0001015104353427887,0.008298994973301888,-0.002335954224690795,-0.00045053198118694127,0.3718838095664978,0.7715597152709961,0.49793487787246704,-0.04036789387464523,0.22944329679012299,0.31142374873161316,0.34319406747817993,0.7552889585494995,0.42000001668930054,-0.5347025990486145,-2.0490007400512695,-1.478075385093689,2.999999761581421,-0.1774875521659851,-0.1781560331583023,-0.17861860990524292,-0.17650412023067474,0.2773376405239105,0.2932707369327545,0.2719650864601135,0.24284714460372925
0.7333333333333333,0.10773609578609467,0.012043025344610214,0.0,0.6267228722572327,0.0,0.0,-0.779242217540741,0.22525960206985474,0.3692542314529419,0.0,0.0,0.0,1.949399709701538,0.35113608837127686,0.7463634610176086,0.42000001668930054,0.62043696641922,-2.2192864435055526e-06,-4.78397168990341e-06,-0.7842562198638916,9.136703738477081e-05,-0.00036944079329259694,-0.00010057934559881687,0.008336768485605717,-0.002298617037013173,-0.00045872607734054327,0.370792418718338,0.7739099264144897,0.502164363861084,-0.08229655772447586,0.2990764081478119,0.20950505137443542,0.34319406747817993,0.7552889585494995,0.42000001668930054,-0.5608887076377869,-1.1516094207763672,-1.4946837425231934,-2.9999890327453613,-0.18007244169712067,-0.1792253702878952,-0.17878760397434235,-0.17610614001750946,-0.018503960222005844,0.022109191864728928,0.037273019552230835,0.03586840257048607
0.75,0.1082749143242836,0.013207408599555492,0.0,0.626640260219574,0.0,0.0,-0.7793086171150208,0.02082796022295952,0.04076450318098068,0.0,0.0,0.0,-1.1924210786819458,0.35113611817359924,0.7463635206222534,0.42000001668930054,0.6204372644424438,-2.1844973616680363e-06,-4.586992417898728e-06,-0.784256100654602,8.761363278608769e-05,-0.00036818758235313,-0.00010148482397198677,0.008294192142784595,-0.0023334440775215626,-0.00045004679122939706,0.37065941095352173,0.7759279012680054,0.4999468922615051,0.042448390275239944,-0.12357869744300842,-0.361603707075119,0.34319406747817993,0.7552889585494995,0.42000001668930054,-0.6048822402954102,-3.0000007152557373,-1.4708335399627686,2.9999992847442627,-0.1779213398694992,-0.17643655836582184,-0.1755969077348709,-0.17273470759391785,-0.021346211433410645,0.06492184102535248,0.14306749403476715,0.20568977296352386
0.7666666666666666,0.11062456667423248,0.01144681591540575,0.0,0.6038745045661926,0.0,0.0,-0.7970794439315796,0.1889631748199463,-0.1664780229330063,0.0,0.0,0.0,-4.376084327697754,0.35113611817359924,0.7463635206222534,0.42000001668930054,0.6204370856285095,-2.146426140825497e-06,-4.715460818260908e-06,-0.784256100654602,8.734138100408018e-05,-0.0003679723013192415,-0.0001014957670122385,0.008288726210594177,-0.002335471101105213,-0.00044936593621969223,0.37296730279922485,0.7733811140060425,0.49842149019241333,0.29217439889907837,-0.17255288362503052,0.29408329725265503,0.34319406747817993,0.7552889585494995,0.42000001668930054,-0.6549041271209717,-2.9999706745147705,-1.4876327514648438,-2.999999523162842,-0.17969077825546265,-0.17676392197608948,-0.1744706928730011,-0.1703619807958603,-0.13127340376377106,-0.05003197863698006,0.03874233737587929,0.11759474128484726
0.7833333333333333,0.11653705686330795,0.013956727460026741,0.0,0.5943295359611511,0.0,0.0,-0.8042216300964355,0.3315875828266144,0.09452824294567108,0.0,0.0,0.0,-0.38864848017692566,0.35113608837127686,0.7463635206222534,0.42000001668930054,0.6204370856285095,-2.2261128833633848e-06,-4.440457360033179e-06,-0.784256100654602,8.998260454973206e-05,-0.00036831595934927464,-0.0001008063554763794,0.008302932605147362,-0.002308269264176488,-0.0004552863829303533,0.3767494559288025,0.77265465259552,0.5075250864028931,0.24555611610412598,0.22748783230781555,0.7319978475570679,0.34319406747817993,0.7552889585494995,0.42000001668930054,-0.6718016266822815,0.6683406829833984,-1.5376510620117188,-2.999994993209839,-0.18529096245765686,-0.18077830970287323,-0.17676490545272827,-0.17115779221057892,-0.07868547737598419,-0.06828572601079941,-0.03991244360804558,-0.01580146513879299
0.8,0.11878574639558792,0.010689951479434967,0.0,0.6087103486061096,0.0,0.0,-0.793392539024353,0.08154596388339996,-0.22347334027290344,0.0,0.0,0.0,2.7907986640930176,0.35113611817359924,0.7463635206222534,0.42000001668930054,0.6204370260238647,-2.2670724320050795e-06,-4.511252882366534e-06,-0.7842562198638916,8.561921276850626e-05,-0.00036589938099496067,-0.0001016366295516491,0.00822916254401207,-0.0023435819894075394,-0.0004446023958735168,0.38392841815948486,0.7766401171684265,0.5178364515304565,0.5007681250572205,0.1473921537399292,0.5487600564956665,0.34319406747817993,0.7552889585494995,0.42000001668930054,-0.6717450618743896,-0.557545006275177,-1.498816967010498,3.000000476837158,-0.18415795266628265,-0.17960406839847565,-0.17521098256111145,-0.16928325593471527,-0.03258148208260536,5.564652383327484e-08,0.05370204895734787,0.09975090622901917
0.8166666666666667,0.11819379776716232,0.011389908380806446,0.0,0.608305037021637,0.0,0.0,-0.7937033772468567,-0.05162683129310608,0.09331972151994705,0.0,0.0,0.0,-0.8743895888328552,0.35113611817359924,0.7463634610176086,0.42000001668930054,0.6204369068145752,-2.3802838313713437e-06,-4.580886070471024e-06,-0.7842563390731812,8.8497057731729e-05,-0.00036889949114993215,-0.00010128505527973175,0.008317340165376663,-0.002326817950233817,-0.00045218117884360254,0.39162513613700867,0.775293231010437,0.5244709849357605,0.5366274118423462,-0.13473644852638245,0.3463851511478424,0.34319406747817993,0.7552889585494995,0.42000001668930054,-0.690813422203064,-1.6209232807159424,-1.5149905681610107,-3.0000007152557373,-0.18836602568626404,-0.18255147337913513,-0.17657339572906494,-0.16923585534095764,-0.118174709379673,-0.07838819175958633,-0.01393982395529747,0.046449221670627594
0.8333333333333334,0.11958268284797668,0.009259811602532864,0.0,0.619175910949707,0.0,0.0,-0.7852523326873779,0.10069546103477478,-0.15080201625823975,0.0,0.0,0.0,2.4953317642211914,0.35113611817359924,0.7463635206222534,0.42000001668930054,0.6204370856285095,-2.163212229788769e-06,-4.594052825268591e-06,-0.7842561602592468,8.781474753050134e-05,-0.0003684111579786986,-0.00010149343870580196,0.008300316520035267,-0.0023351649288088083,-0.00045075954403728247,0.40002185106277466,0.7734601497650146,0.5317594408988953,0.413512259721756,-0.13257859647274017,0.5762600898742676,0.34319406747817993,0.7552889585494995,0.42000001668930054,-0.7033103108406067,-0.009363383054733276,-1.5650088787078857,-2.999999523162842,-0.18884016573429108,-0.18247607350349426,-0.17553424835205078,-0.1672784984111786,-0.06270356476306915,-0.017910970374941826,0.050117045640945435,0.11490311473608017
0.85,0.11949272453784943,0.005132487043738365,0.0,0.6173565983772278,0.0,0.0,-0.7866834402084351,-0.04622657597064972,-0.2994344234466553,0.0,0.0,0.0,-1.1495686769485474,0.35113611817359924,0.7463635206222534,0.42000001668930054,0.6204372644424438,-2.1600712898361962e-06,-4.723499841929879e-06,-0.7842560410499573,8.732781134312972e-05,-0.0003679444780573249,-0.00010149157606065273,0.00828802864998579,-0.002335264580324292,-0.0004493034502957016,0.407958984375,0.7691284418106079,0.5405079126358032,0.5543088912963867,-0.35450804233551025,0.6171928644180298,0.34319406747817993,0.7552889585494995,0.42000001668930054,-0.7204011082649231,-1.8665406703948975,-1.540544033050537,3.0000007152557373,-0.1908583790063858,-0.18351353704929352,-0.17519116401672363,-0.1655799299478531,-0.0984182357788086,-0.03992847353219986,0.04286877438426018,0.12615272402763367
0.8666666666666667,0.12103315442800522,0.004267644602805376,0.0,0.6247320771217346,0.0,0.0,-0.780839204788208,0.12307590246200562,-0.0318027101457119,0.0,0.0,0.0,2.089378595352173,0.35113608837127686,0.7463634610176086,0.42000001668930054,0.6204370260238647,-2.1008113435527775e-06,-4.43567705588066e-06,-0.7842562198638916,9.082400356419384e-05,-0.00036904445732943714,-0.00010064849629998207,0.008325569331645966,-0.0023021758534014225,-0.0004573399492073804,0.4160529375076294,0.7633921504020691,0.5546474456787109,0.45066165924072266,-0.26122981309890747,1.0989253520965576,0.34319406747817993,0.7552889585494995,0.42000001668930054,-0.7379043698310852,-0.35073935985565186,-1.5558457374572754,-2.999999761581421,-0.1935936063528061,-0.1853531002998352,-0.17570750415325165,-0.1647127866744995,-0.02775626815855503,-0.012481290847063065,0.03199407830834389,0.08601516485214233
0.8833333333333333,0.12054036557674408,-0.0002499626134522259,0.0,0.6256163120269775,0.0,0.0,-0.780130922794342,-0.04953752085566521,-0.2612527012825012,0.0,0.0,0.0,-0.7839558124542236,0.35113611817359924,0.7463634610176086,0.42000001668930054,0.6204368472099304,-2.3887587303761393e-06,-4.547655407804996e-06,-0.7842562794685364,8.852581231622025e-05,-0.00036909725167788565,-0.00010135932825505733,0.008321094326674938,-0.0023278407752513885,-0.00045235801371745765,0.42381447553634644,0.7596619129180908,0.5717617273330688,0.42387861013412476,-0.2903217673301697,1.05277681350708,0.34319406747817993,0.7552889585494995,0.42000001668930054,-0.7395092844963074,0.11897656321525574,-1.6058522462844849,-2.9999992847442627,-0.1910860538482666,-0.1830274909734726,-0.17311346530914307,-0.1616782546043396,0.07449368387460709,0.08284067362546921,0.11239947378635406,0.1481601893901825
