vladlanda/robotic-transformer/data/env_000_episode_0161.csv
sim_time_s,robot_box_x,robot_box_y,robot_box_z,robot_box_quat_w,robot_box_quat_x,robot_box_quat_y,robot_box_quat_z,robot_box_linvel_x,robot_box_linvel_y,robot_box_linvel_z,robot_box_angvel_x,robot_box_angvel_y,robot_box_angvel_z,cube_world_x,cube_world_y,cube_world_z,cube_quat_w,cube_quat_x,cube_quat_y,cube_quat_z,cube_linvel_x,cube_linvel_y,cube_linvel_z,cube_angvel_x,cube_angvel_y,cube_angvel_z,endpoint_world_x,endpoint_world_y,endpoint_world_z,endpoint_linvel_x,endpoint_linvel_y,endpoint_linvel_z,target_cube_world_x,target_cube_world_y,target_cube_world_z,gripper_actual_pos_rad_gp_leftgearjoint,gripper_actual_vel_rad_s_gp_leftgearjoint,gripper_actual_pos_rad_gp_rotatingjoint,gripper_actual_vel_rad_s_gp_rotatingjoint,motor_angle_rad_joint1,motor_angle_rad_joint2,motor_angle_rad_joint3,motor_angle_rad_joint4,motor_speed_rad_s_joint1,motor_speed_rad_s_joint2,motor_speed_rad_s_joint3,motor_speed_rad_s_joint4
0.0,0.0,0.0,0.0,1.0,0.0,0.0,0.0,0.0,0.0,0.0,0.0,0.0,0.0,-0.439206063747406,0.6851361393928528,0.41999998688697815,1.0,0.0,0.0,0.0,0.0,0.0,0.0,0.0,0.0,0.0,3.42540442943573e-06,-0.005000244826078415,1.313499927520752,0.0,0.0,0.0,0.46913665533065796,0.6285897493362427,0.42000001668930054,-1.5707999467849731,0.0,0.0,0.0,0.0,0.0,0.0,0.0,0.0,0.0,0.0,0.0
0.016666666666666666,0.0028778850100934505,0.0021806680597364902,0.0,0.9998081922531128,0.0,0.0,0.019586581736803055,0.24087215960025787,0.18240931630134583,0.0,0.0,0.0,3.1418697834014893,-0.43920618295669556,0.6851358413696289,0.41999998688697815,1.0,3.279964630564791e-06,-8.339746386809566e-07,8.465587342243452e-08,-1.9833529222523794e-05,0.00017983045836444944,-6.132945418357849e-05,0.0009432713268324733,-0.004689474124461412,-0.00031981561915017664,-0.007110234349966049,0.003379564033821225,1.3159373998641968,-0.8143353462219238,0.9868683815002441,0.18095196783542633,0.46913665533065796,0.6285897493362427,0.42000001668930054,-1.5301095247268677,3.0000011920928955,-0.04584788903594017,-2.9999992847442627,0.0008691533003002405,0.0007963840034790337,0.0007110277656465769,0.0006108740926720202,0.11094217747449875,0.09756709635257721,0.08334315568208694,0.06823883205652237
0.03333333333333333,0.00896097719669342,0.006801924202591181,0.0,0.9997960329055786,0.0,0.0,0.020196842029690742,0.40702101588249207,0.3153088390827179,0.0,0.0,0.0,-0.86913001537323,-0.4392063021659851,0.6851357817649841,0.4200000464916229,1.0,3.3908354453160428e-06,-2.1324485715012997e-06,-3.710144014235084e-08,0.00026357831666246057,0.00026937946677207947,-0.00010509486310184002,-0.0017707672668620944,0.004130808170884848,-0.000135478752781637,-0.0275493822991848,0.026053844019770622,1.316618800163269,-1.591526985168457,1.6154930591583252,-0.08243671804666519,0.46913665533065796,0.6285897493362427,0.42000001668930054,-1.4800903797149658,3.0000035762786865,-0.09588772058486938,-3.0000009536743164,0.002990143606439233,0.0026527687441557646,0.0022773549426347017,0.0018608237151056528,0.16422143578529358,0.139766126871109,0.11382623016834259,0.08630932122468948
0.05,0.017709415405988693,0.013763071969151497,0.0,0.9993895292282104,0.0,0.0,0.03493586182594299,0.5929208397865295,0.4647330045700073,0.0,0.0,0.0,2.6545987129211426,-0.4392063319683075,0.6851358413696289,0.4200000464916229,1.0,3.765139354072744e-06,-2.2119161258160602e-06,5.630195420991413e-09,0.0002653095289133489,0.00026691411039792,-0.00010440382175147533,-0.0017242460744455457,0.004177400842308998,-0.00012949357915204018,-0.05965717136859894,0.05377589911222458,1.311685562133789,-2.187112808227539,1.742446780204773,-0.46989700198173523,0.46913665533065796,0.6285897493362427,0.42000001668930054,-1.4300720691680908,2.9999990463256836,-0.145926371216774,-3.0000009536743164,0.005694160237908363,0.004902875982224941,0.004039480816572905,0.0030994846019893885,0.1925913691520691,0.15568730235099792,0.11691039800643921,0.07616746425628662
0.06666666666666667,0.029010431841015816,0.02305111661553383,0.0,0.9994593262672424,0.0,0.0,0.03287980332970619,0.7195109128952026,0.5949005484580994,0.0,0.0,0.0,-1.2050230503082275,-0.4392063319683075,0.6851357817649841,0.4200000464916229,0.9999999403953552,3.4067529668391217e-06,-2.2856381747260457e-06,4.300985096961085e-07,0.00026702662580646574,0.00026791892014443874,-0.00010437914170324802,-0.001740677747875452,0.004211848136037588,-0.0001285130565520376,-0.09787949174642563,0.08782277256250381,1.2992982864379883,-2.4191994667053223,2.2265892028808594,-0.9916907548904419,0.46913665533065796,0.6285897493362427,0.42000001668930054,-1.3800537586212158,3.0000009536743164,-0.19594143331050873,-3.0,0.008247717283666134,0.006758817005902529,0.005159005988389254,0.0034421600867062807,0.14835765957832336,0.09659965336322784,0.04280811920762062,-0.013089819811284542
0.08333333333333333,0.03465595841407776,0.035641737282276154,0.0,1.0,0.0,0.0,-7.623546844115481e-05,0.18625454604625702,0.8255075216293335,0.0,0.0,0.0,-4.930074214935303,-0.4392063319683075,0.6851357817649841,0.4200000464916229,0.9999999403953552,3.62606829185097e-06,-2.335380486329086e-06,3.0323212740768213e-07,0.0002661412872839719,0.00026685078046284616,-0.00010405294597148895,-0.001728333649225533,0.00419644033536315,-0.0001279062998946756,-0.13659124076366425,0.12936615943908691,1.2779725790023804,-2.2631564140319824,2.6234450340270996,-1.4734688997268677,0.46913665533065796,0.6285897493362427,0.42000001668930054,-1.3300262689590454,2.999998092651367,-0.16217540204524994,2.999999761581421,0.005320309661328793,0.003245493397116661,0.0010095330653712153,-0.001397768035531044,-0.2822682559490204,-0.32218503952026367,-0.36468586325645447,-0.4100598692893982
0.1,0.04414524510502815,0.049649983644485474,0.0,0.9998927116394043,0.0,0.0,-0.014646261930465698,0.6744833588600159,0.8510616421699524,0.0,0.0,0.0,-0.6947816610336304,-0.4392063319683075,0.6851357817649841,0.4200000464916229,1.0,3.4221370697196107e-06,-2.3086815872375155e-06,1.796389312858082e-07,0.00026681539020501077,0.00026800509658642113,-0.00010440591722726822,-0.0017431024461984634,0.004207069985568523,-0.00012891364167444408,-0.17674681544303894,0.16807350516319275,1.2551631927490234,-2.3999452590942383,2.317786693572998,-1.3532319068908691,0.46913665533065796,0.6285897493362427,0.42000001668930054,-1.2800283432006836,3.0000014305114746,-0.19386029243469238,-3.000000238418579,0.005512427072972059,0.0019588260911405087,-0.0017543118447065353,-0.005637648515403271,0.0511796735227108,-0.0523030124604702,-0.15488159656524658,-0.2565058767795563
0.11666666666666667,0.05185791477560997,0.06137280538678169,0.0,0.9991299510002136,0.0,0.0,-0.0417046882212162,0.4625742733478546,0.6575568914413452,0.0,0.0,0.0,-3.911174774169922,-0.4392063319683075,0.6851358413696289,0.4200000464916229,1.0,3.711518957061344e-06,-2.332746134925401e-06,2.574393818122189e-07,0.0002648587978910655,0.00026635429821908474,-0.00010423408821225166,-0.0017181973671540618,0.0041701472364366055,-0.0001291576772928238,-0.21273759007453918,0.21366168558597565,1.2315127849578857,-1.9498794078826904,3.1066761016845703,-1.425649642944336,0.46913665533065796,0.6285897493362427,0.42000001668930054,-1.230002999305725,2.999992609024048,-0.16009719669818878,2.999999523162842,0.004354092292487621,-0.0010963518870994449,-0.00667791161686182,-0.01240026205778122,-0.028980519622564316,-0.1637529879808426,-0.2954625189304352,-0.42391765117645264
0.13333333333333333,0.056737661361694336,0.07426097244024277,0.0,0.9956303834915161,0.0,0.0,-0.09338152408599854,0.22359594702720642,0.8240106105804443,0.0,0.0,0.0,-7.004994869232178,-0.4392063319683075,0.6851357817649841,0.4200000464916229,0.9999999403953552,3.4247466373926727e-06,-2.302080702065723e-06,1.5600794256442896e-07,0.0002670696994755417,0.0002681137702893466,-0.0001044438686221838,-0.0017433431930840015,0.0042120348662137985,-0.00012877548579126596,-0.2459874302148819,0.26664721965789795,1.206915259361267,-1.9837861061096191,3.284874200820923,-1.5928632020950317,0.46913665533065796,0.6285897493362427,0.42000001668930054,-1.189321756362915,1.9388588666915894,-0.19184646010398865,-2.999999761581421,0.0025431595277041197,-0.005088289733976126,-0.012784694321453571,-0.020552055910229683,-0.18600742518901825,-0.30375200510025024,-0.41738295555114746,-0.526716947555542
0.15,0.05840897932648659,0.08559640496969223,0.0,0.9922741651535034,0.0,0.0,-0.1240646168589592,0.055449798703193665,0.5879471898078918,0.0,0.0,0.0,-2.6208062171936035,-0.4392063319683075,0.6851357817649841,0.4200000464916229,1.0,3.713895694090752e-06,-2.2079168502386892e-06,-1.6907364397411584e-07,0.0002635339042171836,0.00026536150835454464,-0.00010422081686556339,-0.0017013062024489045,0.004144124686717987,-0.00012960462481714785,-0.2850087881088257,0.3189254403114319,1.1740576028823853,-2.3051650524139404,3.3624234199523926,-2.316685676574707,0.46913665533065796,0.6285897493362427,0.42000001668930054,-1.1437273025512695,2.9999961853027344,-0.17515157163143158,3.0000007152557373,-0.001441732980310917,-0.010727183893322945,-0.019999315962195396,-0.029263179749250412,-0.2942137122154236,-0.37333863973617554,-0.44794631004333496,-0.5181093215942383
0.16666666666666666,0.06187250092625618,0.09726288169622421,0.0,0.9858188033103943,0.0,0.0,-0.16781337559223175,0.29994475841522217,0.7458162903785706,0.0,0.0,0.0,-6.230263710021973,-0.4392063319683075,0.6851357817649841,0.4200000464916229,0.9999999403953552,3.6383539736561943e-06,-2.278940200994839e-06,2.700881793771259e-07,0.0002668279630597681,0.00026750098913908005,-0.00010410090908408165,-0.0017400282667949796,0.004210173152387142,-0.00012781485565938056,-0.32100826501846313,0.3786836862564087,1.1326522827148438,-1.9215319156646729,3.8400750160217285,-2.6520872116088867,0.46913665533065796,0.6285897493362427,0.42000001668930054,-1.0938994884490967,2.9558587074279785,-0.20678676664829254,-2.999999761581421,-0.006369315553456545,-0.01699361950159073,-0.027523359283804893,-0.03796567767858505,-0.32675138115882874,-0.39918196201324463,-0.4670576751232147,-0.5305144786834717
0.18333333333333332,0.06283941864967346,0.10634911060333252,0.0,0.9813595414161682,0.0,0.0,-0.19218070805072784,-0.006887848488986492,0.47782203555107117,0.0,0.0,0.0,-1.8101353645324707,-0.4392063319683075,0.6851357817649841,0.4200000464916229,1.0,3.386442813280155e-06,-2.3004331524134614e-06,1.4394974812148575e-07,0.00026674536638893187,0.0002678722084965557,-0.00010437029413878918,-0.0017412299057468772,0.004205992445349693,-0.00012878747656941414,-0.35615646839141846,0.43845653533935547,1.0793430805206299,-1.9261113405227661,3.682668447494507,-3.6510510444641113,0.46913665533065796,0.6285897493362427,0.42000001668930054,-1.0555100440979004,1.7259044647216797,-0.256815105676651,-3.000000476837158,-0.016161775216460228,-0.027042515575885773,-0.037784989923238754,-0.04840578883886337,-0.6889308094978333,-0.6742869019508362,-0.657975971698761,-0.6406945586204529
0.2,0.06351225823163986,0.11585433036088943,0.0,0.9737179279327393,0.0,0.0,-0.2277572602033615,0.0814552828669548,0.6118083000183105,0.0,0.0,0.0,-5.248151779174805,-0.4392063319683075,0.6851358413696289,0.4200000464916229,1.0,3.6755052406078903e-06,-2.326723233636585e-06,2.2115256115284865e-07,0.00026484549744054675,0.0002663145714905113,-0.00010421895422041416,-0.0017177033005282283,0.004169865511357784,-0.00012909747601952404,-0.3877270519733429,0.500732421875,1.011828064918518,-1.6755058765411377,3.7505035400390625,-4.391843795776367,0.46913665533065796,0.6285897493362427,0.42000001668930054,-1.0081627368927002,2.999999761581421,-0.30684205889701843,-3.0000007152557373,-0.030419837683439255,-0.04063650220632553,-0.050706397742033005,-0.06066003814339638,-0.9459876418113708,-0.8878617882728577,-0.83024662733078,-0.7739909291267395
0.21666666666666667,0.06194286793470383,0.12747153639793396,0.0,0.9695701003074646,0.0,0.0,-0.244813933968544,-0.16074806451797485,0.7353100180625916,0.0,0.0,0.0,-1.06707763671875,-0.4392063319683075,0.6851357817649841,0.4200000464916229,1.0,3.3222572710656095e-06,-2.2081776478444226e-06,2.7429024385128287e-07,0.00026662927120923996,0.00026749641983769834,-0.00010426202788949013,-0.0017358721233904362,0.0042048306204378605,-0.00012833892833441496,-0.4178042709827423,0.555640697479248,0.9339954257011414,-1.586639165878296,3.099487066268921,-4.919924259185791,0.46913665533065796,0.6285897493362427,0.42000001668930054,-0.9581536650657654,2.9999988079071045,-0.3568713366985321,-3.0000014305114746,-0.04663435369729996,-0.05672755837440491,-0.06592351943254471,-0.07460012286901474,-0.9855140447616577,-0.9753554463386536,-0.9448654055595398,-0.8606938123703003
0.23333333333333334,0.0641399696469307,0.13559256494045258,0.0,0.9617069363594055,0.0,0.0,-0.274079829454422,0.1681102067232132,0.4055522680282593,0.0,0.0,0.0,-4.321735382080078,-0.4392063319683075,0.6851357817649841,0.4200000464916229,1.0,3.6564526908478e-06,-2.3736010916763917e-06,-4.0766275333226076e-07,0.0002661167527548969,0.0002672596601769328,-0.00010423432104289532,-0.0017335143638774753,0.0041946242563426495,-0.0001285518374061212,-0.44229650497436523,0.6060390472412109,0.8451616764068604,-1.192495346069336,2.8158516883850098,-5.649707794189453,0.46913665533065796,0.6285897493362427,0.42000001668930054,-0.9081429839134216,3.0000009536743164,-0.4069020450115204,-2.999999761581421,-0.062081314623355865,-0.07211192697286606,-0.08110719919204712,-0.08885764330625534,-0.9884250164031982,-0.9902142286300659,-0.9916218519210815,-0.9644454717636108
0.25,0.06109108775854111,0.14639855921268463,0.0,0.958410918712616,0.0,0.0,-0.2853919267654419,-0.15429507195949554,0.6237221956253052,0.0,0.0,0.0,-0.4100353419780731,-0.4392063319683075,0.6851358413696289,0.4200000464916229,1.0,3.630446599345305e-06,-2.242833488708129e-06,1.1232739183242302e-08,0.0002667997614480555,0.00026705898926593363,-0.00010390509851276875,-0.0017341489437967539,0.004210493993014097,-0.00012702637468464673,-0.45932188630104065,0.6379275321960449,0.7503253221511841,-0.7519294023513794,1.4639347791671753,-5.641131401062012,0.46913665533065796,0.6285897493362427,0.42000001668930054,-0.8581323027610779,2.9999945163726807,-0.4569336473941803,-2.9999988079071045,-0.07901126146316528,-0.08888106793165207,-0.09778716415166855,-0.1054922491312027,-0.7233080863952637,-0.7695914506912231,-0.8148164749145508,-0.8571784496307373
0.26666666666666666,0.06333804130554199,0.15241211652755737,0.0,0.9510899782180786,0.0,0.0,-0.30891406536102295,0.15161418914794922,0.30160385370254517,0.0,0.0,0.0,-3.5928659439086914,-0.4392063021659851,0.6851357817649841,0.4200000464916229,0.9999999403953552,3.7399906887003453e-06,-2.2365486529452028e-06,4.5000140858064697e-07,0.0002647956134751439,0.0002667304943315685,-0.00010454049333930016,-0.001718976185657084,0.004166697151958942,-0.00013017040328122675,-0.46965354681015015,0.6620748043060303,0.6529324054718018,-0.3035884499549866,1.246514081954956,-5.908993244171143,0.46913665533065796,0.6285897493362427,0.42000001668930054,-0.8081227540969849,2.9999969005584717,-0.5069645047187805,-3.0000011920928955,-0.09201651066541672,-0.10232635587453842,-0.11159669607877731,-0.11965569853782654,-0.9932624101638794,-0.994623064994812,-0.9908069968223572,-0.9706820845603943
0.2833333333333333,0.061503004282712936,0.15526139736175537,0.0,0.9496511220932007,0.0,0.0,-0.3133094310760498,-0.18214623630046844,0.11473847925662994,0.0,0.0,0.0,0.3960116505622864,-0.4392063319683075,0.6851357817649841,0.4200000464916229,1.0,3.3915084713953547e-06,-2.291397777298698e-06,1.246272489652256e-07,0.0002667707158252597,0.00026789307594299316,-0.0001043747179210186,-0.001741324202157557,0.004206291865557432,-0.00012878513371106237,-0.4714268445968628,0.6755334138870239,0.5599260926246643,0.21062056720256805,0.5225095748901367,-5.268744468688965,0.46913665533065796,0.6285897493362427,0.42000001668930054,-0.7581139802932739,3.0,-0.5569941401481628,-3.0,-0.10969721525907516,-0.11975660175085068,-0.1288413107395172,-0.13675840198993683,-1.0108846426010132,-1.008191466331482,-1.0061428546905518,-1.0045127868652344
0.3,0.056093115359544754,0.1551760584115982,0.0,0.9440694451332092,0.0,0.0,-0.32974663376808167,-0.31721943616867065,-0.06959757208824158,0.0,0.0,0.0,-2.89302921295166,-0.4392063319683075,0.6851358413696289,0.4200000464916229,1.0,3.680589315990801e-06,-2.319327450095443e-06,2.0111419019031018e-07,0.00026478979270905256,0.00026625863392837346,-0.00010421290062367916,-0.001716940081678331,0.004168967716395855,-0.00012910025543533266,-0.4620038866996765,0.682553768157959,0.47279757261276245,0.8645912408828735,0.407571405172348,-5.183350563049316,0.46913665533065796,0.6285897493362427,0.42000001668930054,-0.7081059813499451,2.999993324279785,-0.6070219278335571,-3.0000014305114746,-0.12663774192333221,-0.13658784329891205,-0.14559179544448853,-0.15344710648059845,-0.9983519911766052,-0.9977554082870483,-0.9905169606208801,-0.9842507243156433
0.31666666666666665,0.04920776188373566,0.1523554027080536,0.0,0.9442809820175171,0.0,0.0,-0.3291405439376831,-0.4513748288154602,-0.20977769792079926,0.0,0.0,0.0,0.9767955541610718,-0.4392063319683075,0.6851357817649841,0.4200000464916229,1.0,3.3040937523765024e-06,-2.2217041077965405e-06,2.5357689992233645e-07,0.0002666085201781243,0.0002674520656000823,-0.00010424340143799782,-0.0017352992435917258,0.004204439930617809,-0.00012827932368963957,-0.45475512742996216,0.687537431716919,0.4271140992641449,0.14687761664390564,-0.03664350137114525,-0.2831592857837677,0.46913665533065796,0.6285897493362427,0.42000001668930054,-0.6581013202667236,3.000001907348633,-0.6574336886405945,-2.9998116493225098,-0.13937783241271973,-0.14926624298095703,-0.15808433294296265,-0.165586456656456,-0.4701651632785797,-0.46508708596229553,-0.44475069642066956,-0.4048891067504883
0.3333333333333333,0.03996334969997406,0.14720678329467773,0.0,0.9395275712013245,0.0,0.0,-0.3424733281135559,-0.6047120094299316,-0.3508357107639313,0.0,0.0,0.0,-2.5711417198181152,-0.4387311041355133,0.6860489845275879,0.4200209081172943,0.9999417066574097,0.00047532934695482254,4.8993515520123765e-05,-0.010781613178551197,0.1535058319568634,0.2667721211910248,0.009416412562131882,0.5681117177009583,-0.08324577659368515,-5.811803817749023,-0.45293354988098145,0.6916837096214294,0.42389020323753357,0.21446025371551514,0.3118721842765808,-0.1938285380601883,0.46913665533065796,0.6285897493362427,0.42000001668930054,-0.6080957055091858,2.9999680519104004,-0.707525908946991,-2.9999940395355225,-0.14738765358924866,-0.15674623847007751,-0.16475032269954681,-0.17110705375671387,-0.5045629143714905,-0.44597986340522766,-0.37224918603897095,-0.2818491458892822
0.35,0.028503604233264923,0.13972336053848267,0.0,0.9404559135437012,0.0,0.0,-0.3399156630039215,-0.7258458137512207,-0.48897305130958557,0.0,0.0,0.0,1.2584718465805054,-0.4349403977394104,0.6923587322235107,0.4200000762939453,0.9964349865913391,3.554468094080221e-06,6.817503617639886e-06,-0.08436429500579834,0.2654832899570465,0.4404054880142212,-0.00012482442252803594,0.000519632245413959,-0.0058479225262999535,-11.063361167907715,-0.44777771830558777,0.6990902423858643,0.4207671880722046,0.4213218688964844,0.5559412240982056,-0.16602419316768646,0.46913665533065796,0.6285897493362427,0.42000001668930054,-0.5580906867980957,2.9999754428863525,-0.7575691342353821,-2.9999985694885254,-0.15700963139533997,-0.1646663397550583,-0.17073848843574524,-0.17493900656700134,-0.5799258351325989,-0.45447397232055664,-0.3165878653526306,-0.1677609086036682
0.36666666666666664,0.014834191650152206,0.12998205423355103,0.0,0.9360731244087219,0.0,0.0,-0.3518054485321045,-0.8644986152648926,-0.6240078806877136,0.0,0.0,0.0,-2.4479429721832275,-0.4292809069156647,0.7020530104637146,0.4200255274772644,0.9939994812011719,-0.0005528390756808221,-3.228602872695774e-05,-0.10938320308923721,0.421435683965683,0.7402702569961548,0.017558902502059937,-0.7082951068878174,-0.030464433133602142,5.368525505065918,-0.4403303861618042,0.709160327911377,0.4219619631767273,0.6439522504806519,0.7750811576843262,-0.04003249853849411,0.46913665533065796,0.6285897493362427,0.42000001668930054,-0.5080857872962952,2.9999923706054688,-0.8075932860374451,-3.000000476837158,-0.1663445085287094,-0.17158859968185425,-0.1750100702047348,-0.17636750638484955,-0.5266897082328796,-0.37185654044151306,-0.2041172981262207,-0.026981990784406662
0.3833333333333333,0.003063856391236186,0.1175214946269989,0.0,0.9216262102127075,0.0,0.0,-0.3880787193775177,-0.6504381895065308,-0.7990050911903381,0.0,0.0,0.0,-5.447532653808594,-0.41787123680114746,0.7192163467407227,0.42000067234039307,0.9864470362663269,2.825070623657666e-05,-2.934034273494035e-05,-0.1640799641609192,0.7699430584907532,1.1149945259094238,-0.001072523184120655,-0.029565367847681046,0.05080754682421684,-4.351767063140869,-0.4265577793121338,0.7238246202468872,0.4200645089149475,0.9684529304504395,0.9660506844520569,0.1275780349969864,0.46913665533065796,0.6285897493362427,0.42000001668930054,-0.4580300748348236,3.000002861022949,-0.8576003909111023,-2.9999711513519287,-0.1757664978504181,-0.1779494285583496,-0.17804647982120514,-0.1759023517370224,-0.5139153599739075,-0.31954801082611084,-0.10697345435619354,0.11783869564533234
0.4,-0.0049337358213961124,0.10199017077684402,0.0,0.8946979641914368,0.0,0.0,-0.44667163491249084,-0.4039413332939148,-0.9895941019058228,0.0,0.0,0.0,-8.550511360168457,-0.39364418387413025,0.7440848350524902,0.42229512333869934,0.9767648577690125,-0.020545130595564842,-0.01260774489492178,-0.21295355260372162,2.466033458709717,1.7852798700332642,0.1252734661102295,26.604835510253906,-11.873025894165039,6.47052526473999,-0.40097421407699585,0.748115599155426,0.42242610454559326,2.2276458740234375,1.945657730102539,0.2709368169307709,0.46913665533065796,0.6285897493362427,0.42000001668930054,-0.40897446870803833,2.5378293991088867,-0.9076165556907654,-3.0000016689300537,-0.18467317521572113,-0.18330788612365723,-0.17955483496189117,-0.17337951064109802,-0.5424460172653198,-0.31090646982192993,-0.06441435217857361,0.1889045536518097
0.4166666666666667,-0.008932915516197681,0.08337458968162537,0.0,0.8523266911506653,0.0,0.0,-0.5230097770690918,-0.17320549488067627,-1.17610764503479,0.0,0.0,0.0,-11.177531242370605,-0.3323100507259369,0.7844530940055847,0.425954669713974,0.9601025581359863,0.034257084131240845,-0.054768580943346024,-0.27208420634269714,5.193302631378174,2.9365015029907227,0.23099304735660553,21.950010299682617,-11.945915222167969,9.652463912963867,-0.33923012018203735,0.7892885208129883,0.4259249269962311,4.792920112609863,2.9507970809936523,0.3362913131713867,0.46913665533065796,0.6285897493362427,0.42000001668930054,-0.3839242458343506,0.9910457134246826,-0.8704800009727478,3.00056791305542,-0.19664357602596283,-0.1904536485671997,-0.18188117444515228,-0.1710580438375473,-0.7192532420158386,-0.43062490224838257,-0.15237689018249512,0.10563014447689056
0.43333333333333335,-0.01729506626725197,0.07116150856018066,0.0,0.789650022983551,0.0,0.0,-0.6135575175285339,-0.6067073345184326,-0.5806331634521484,0.0,0.0,0.0,-14.16615104675293,-0.2288977950811386,0.8290249705314636,0.434198796749115,0.9337059259414673,0.10552311688661575,-0.09457644820213318,-0.3288057744503021,7.792852878570557,2.1147115230560303,0.6221622824668884,16.30974769592285,-17.663217544555664,18.875879287719727,-0.2350022941827774,0.8357123136520386,0.4341805577278137,7.44954252243042,2.698788642883301,0.6425774097442627,0.46913665533065796,0.6285897493362427,0.42000001668930054,-0.3698268532752991,0.8593332767486572,-0.8204544186592102,2.994786024093628,-0.21273066103458405,-0.20511853694915771,-0.192024365067482,-0.17554138600826263,-0.9153393507003784,-0.9016662240028381,-0.7509471774101257,-0.41249731183052063
0.45,-0.023068074136972427,0.0656176507472992,0.0,0.7312549948692322,0.0,0.0,-0.6821041703224182,-0.35092198848724365,-0.4258100986480713,0.0,0.0,0.0,-9.364006042480469,-0.10429578274488449,0.8546819090843201,0.44591349363327026,0.8746959567070007,0.13988424837589264,-0.11597352474927902,-0.44932106137275696,7.606354236602783,0.11741146445274353,0.9275781512260437,-8.203245162963867,4.685113906860352,5.403478622436523,-0.11086314916610718,0.8647310137748718,0.44528207182884216,7.4522857666015625,1.0622326135635376,0.7546704411506653,0.46913665533065796,0.6285897493362427,0.42000001668930054,-0.3545837998390198,0.8821465373039246,-0.8471789956092834,-2.998183012008667,-0.22761496901512146,-0.22010402381420135,-0.20680849254131317,-0.18431203067302704,-0.5612526535987854,-0.624649167060852,-0.6865023374557495,-0.453380286693573
0.4666666666666667,-0.02456452138721943,0.05205002427101135,0.0,0.6943662762641907,0.0,0.0,-0.7196217775344849,-0.0179396141320467,-0.7149525880813599,0.0,0.0,0.0,-4.826569080352783,0.02048560604453087,0.8613430261611938,0.45785921812057495,0.8063833713531494,0.13262023031711578,-0.11096235364675522,-0.5655484199523926,7.630425453186035,-0.7485553026199341,0.6393725872039795,-0.655343770980835,-16.893157958984375,-4.9234209060668945,0.013358743861317635,0.8740247488021851,0.45685723423957825,7.365545272827148,-0.41828176379203796,0.7572317123413086,0.46913665533065796,0.6285897493362427,0.42000001668930054,-0.3401517868041992,0.7071162462234497,-0.8972035050392151,-3.000004529953003,-0.23461075127124786,-0.2267616242170334,-0.2133156657218933,-0.18697769939899445,-0.8088314533233643,-0.634610652923584,-0.4874136745929718,-0.1920485943555832
0.48333333333333334,-0.026600325480103493,0.04428038373589516,0.0,0.6848000288009644,0.0,0.0,-0.7287310361862183,-0.1484696865081787,-0.37926173210144043,0.0,0.0,0.0,-0.5093426704406738,0.1283489614725113,0.8461917638778687,0.4661460518836975,0.7526755928993225,0.12308900058269501,-0.11782841384410858,-0.6359598636627197,5.1705169677734375,-2.3165059089660645,0.4696158766746521,-12.663329124450684,10.28044319152832,22.829269409179688,0.12424969673156738,0.8606477975845337,0.4667823314666748,5.93267822265625,-1.2817206382751465,0.47847938537597656,0.46913665533065796,0.6285897493362427,0.42000001668930054,-0.3320131003856659,0.1558757722377777,-0.9472275972366333,-2.9996867179870605,-0.2400234192609787,-0.2393905073404312,-0.22285741567611694,-0.19192096590995789,-0.04502037540078163,-0.6593207120895386,-0.49129265546798706,-0.27659928798675537
0.5,-0.026542022824287415,0.03344987705349922,0.0,0.6660929322242737,0.0,0.0,-0.7458687424659729,0.03319036588072777,-0.6795111894607544,0.0,0.0,0.0,-3.9157509803771973,0.21382224559783936,0.819546639919281,0.46910199522972107,0.690321147441864,0.0804944857954979,-0.11604708433151245,-0.7095845341682434,4.387518882751465,-2.9393954277038574,0.136812224984169,-3.872706651687622,-8.584753036499023,27.39977264404297,0.2108038365840912,0.8347616195678711,0.4708966612815857,4.863903999328613,-2.0460410118103027,0.16108402609825134,0.46913665533065796,0.6285897493362427,0.42000001668930054,-0.3303545415401459,-0.061426419764757156,-0.9972514510154724,-3.000002384185791,-0.2389558106660843,-0.2400209754705429,-0.22718781232833862,-0.19374734163284302,-0.01720298081636429,-0.03179178386926651,-0.15270613133907318,-0.019959010183811188
0.5166666666666666,-0.023827603086829185,0.027205009013414383,0.0,0.6605778932571411,0.0,0.0,-0.7507575154304504,0.19546817243099213,-0.3156272768974304,0.0,0.0,0.0,0.09354230016469955,0.2852269113063812,0.7822030782699585,0.46799182891845703,0.6461016535758972,0.059136390686035156,-0.08771157264709473,-0.7558850646018982,3.5960466861724854,-3.005368232727051,-0.2862659990787506,-3.6674375534057617,0.7944654822349548,15.931020736694336,0.28404417634010315,0.7959650158882141,0.46955788135528564,4.126218318939209,-2.5231196880340576,-0.21714363992214203,0.46913665533065796,0.6285897493362427,0.42000001668930054,-0.32935959100723267,0.17541463673114777,-1.0472736358642578,-3.0000016689300537,-0.23986990749835968,-0.23983176052570343,-0.23018549382686615,-0.19525718688964844,0.0229151863604784,0.050781991332769394,-0.027937209233641624,-0.01677839644253254
0.5333333333333333,-0.01882196217775345,0.02472429908812046,0.0,0.6463615298271179,0.0,0.0,-0.7630313038825989,0.3501604497432709,-0.07553429156541824,0.0,0.0,0.0,-3.129683256149292,0.3447764217853546,0.7423209547996521,0.45762118697166443,0.6070610284805298,0.00838799774646759,-0.0829148069024086,-0.7902731895446777,2.8017752170562744,-2.656689167022705,-0.7533831000328064,-5.31199312210083,3.3708620071411133,21.354772567749023,0.34471389651298523,0.7554783821105957,0.46052563190460205,3.3250226974487305,-2.47281551361084,-0.7344474196434021,0.46913665533065796,0.6285897493362427,0.42000001668930054,-0.32080626487731934,0.7279826402664185,-1.0972957611083984,-2.999969959259033,-0.23738256096839905,-0.23731067776679993,-0.2293456643819809,-0.19568945467472076,0.23559384047985077,0.23608484864234924,0.13246917724609375,-0.007366480305790901
0.55,-0.01067917887121439,0.017322562634944916,0.0,0.644931972026825,0.0,0.0,-0.7642399668693542,0.5399519205093384,-0.5649986267089844,0.0,0.0,0.0,0.7138953804969788,0.39224767684936523,0.7034967541694641,0.44162410497665405,0.5395606756210327,-0.08016997575759888,-0.08380269259214401,-0.8339208960533142,2.5148444175720215,-2.0104291439056396,-1.017382264137268,-6.205240249633789,5.971504211425781,-3.7878334522247314,0.3922831416130066,0.7161641716957092,0.44659852981567383,2.4217519760131836,-2.311105728149414,-0.9335383176803589,0.46913665533065796,0.6285897493362427,0.42000001668930054,-0.3046279549598694,1.2057284116744995,-1.147317886352539,-3.0000016689300537,-0.22788988053798676,-0.22841019928455353,-0.2227441370487213,-0.19280500710010529,0.7225480675697327,0.6716009974479675,0.5193107724189758,0.23982085287570953
0.5666666666666667,-0.0009900776203721762,0.013178503140807152,0.0,0.6327844262123108,0.0,0.0,-0.7743279933929443,0.6144282817840576,-0.1454915553331375,0.0,0.0,0.0,-2.826493263244629,0.4310685396194458,0.6720755696296692,0.42387354373931885,0.45536500215530396,-0.10013745725154877,-0.04664803668856621,-0.883424699306488,2.0694241523742676,-1.2813084125518799,-0.42289847135543823,24.83902359008789,-19.768308639526367,5.341970443725586,0.429227739572525,0.6830635070800781,0.42700010538101196,1.9785408973693848,-1.8016724586486816,-1.2853248119354248,0.46913665533065796,0.6285897493362427,0.42000001668930054,-0.276754230260849,2.0003485679626465,-1.1180850267410278,2.999117374420166,-0.21734477579593658,-0.2189188003540039,-0.21588638424873352,-0.191203311085701,0.6522333025932312,0.5690754055976868,0.39665597677230835,0.04321608692407608
0.5833333333333334,0.010194815695285797,0.0075543662533164024,0.0,0.6331273913383484,0.0,0.0,-0.7740476131439209,0.7702184915542603,-0.30112147331237793,0.0,0.0,0.0,0.9605122804641724,0.45197173953056335,0.6548665165901184,0.42281487584114075,0.49466463923454285,-0.05934305861592293,-0.018309473991394043,-0.8668621182441711,0.9628781080245972,-1.1518754959106445,0.13649006187915802,1.0265549421310425,5.886948108673096,-0.5824121236801147,0.45130467414855957,0.6633142232894897,0.4240739345550537,0.922849178314209,-1.0126287937164307,0.13261736929416656,0.46913665533065796,0.6285897493362427,0.42000001668930054,-0.25032269954681396,0.8467309474945068,-1.13982355594635,-2.9972164630889893,-0.20643745362758636,-0.2092127948999405,-0.20871399343013763,-0.1898246705532074,0.4442172050476074,0.4117226302623749,0.30217018723487854,-0.019648756831884384
0.6,0.019557299092411995,0.00468980148434639,0.0,0.6225156188011169,0.0,0.0,-0.78260737657547,0.4925435781478882,-0.13216610252857208,0.0,0.0,0.0,-2.55240535736084,0.46703603863716125,0.6410313248634338,0.4214690923690796,0.5137421488761902,-0.0327567420899868,-0.01865275390446186,-0.8571161031723022,0.6254429817199707,-0.9192062616348267,0.06828832626342773,-4.246533393859863,2.2807466983795166,6.416322708129883,0.46427762508392334,0.6487166881561279,0.42279642820358276,0.5760501623153687,-0.6623135805130005,0.025496186688542366,0.46913665533065796,0.6285897493362427,0.42000001668930054,-0.26401838660240173,-1.6868764162063599,-1.1021006107330322,3.0000059604644775,-0.1978491246700287,-0.20168624818325043,-0.2032783180475235,-0.18994154036045074,0.547304630279541,0.4806891977787018,0.3619008958339691,0.03752462938427925
0.6166666666666667,0.028966587036848068,0.005539545789361,0.0,0.6247677206993103,0.0,0.0,-0.7808106541633606,0.5995948314666748,0.11886340379714966,0.0,0.0,0.0,1.240171194076538,0.4736413359642029,0.6305614709854126,0.4211001396179199,0.5279231667518616,-0.022129841148853302,-0.01527134608477354,-0.84886634349823,0.18844886124134064,-0.3748812973499298,-0.01618080586194992,1.0681779384613037,-1.423807144165039,2.2907369136810303,0.4701108932495117,0.6401628255844116,0.423237681388855,0.14863532781600952,-0.29781922698020935,0.1263735294342041,0.46913665533065796,0.6285897493362427,0.42000001668930054,-0.28971096873283386,-1.407011866569519,-1.1247968673706055,-2.999315023422241,-0.1897365152835846,-0.1946841925382614,-0.19807235896587372,-0.18983469903469086,0.4814549684524536,0.4142884314060211,0.31352442502975464,0.02159220352768898
0.6333333333333333,0.03654775023460388,0.0022625583223998547,0.0,0.615401029586792,0.0,0.0,-0.7882142066955566,0.34839382767677307,-0.2229754626750946,0.0,0.0,0.0,-2.2181901931762695,0.47520774602890015,0.6264289021492004,0.42000812292099,0.5563095808029175,9.031234367284924e-05,-5.847035572514869e-05,-0.8309750556945801,0.06442277133464813,-0.18751676380634308,-0.0011579556157812476,-0.03495928645133972,-0.04279475659132004,3.307495355606079,0.4718320965766907,0.6390551328659058,0.4256860911846161,-0.0003902949392795563,-0.063398577272892,0.17453086376190186,0.46913665533065796,0.6285897493362427,0.42000001668930054,-0.32832589745521545,-2.999999761581421,-1.1747629642486572,-2.9990532398223877,-0.1776622086763382,-0.18426254391670227,-0.18982702493667603,-0.18672238290309906,0.5686967968940735,0.5162253975868225,0.4276502728462219,0.16789540648460388
0.65,0.04486069455742836,0.0036706444807350636,0.0,0.6193637251853943,0.0,0.0,-0.7851042151451111,0.5066636204719543,0.0952538400888443,0.0,0.0,0.0,1.4549201726913452,0.47531795501708984,0.6246093511581421,0.42000001668930054,0.5643246173858643,-2.916207449743524e-06,4.034530320495833e-06,-0.8255529999732971,0.0015741166425868869,-0.0829417034983635,-0.00010574536281637847,-0.0025413413532078266,-0.005173180717974901,0.9289130568504333,0.47112688422203064,0.638799786567688,0.428134560585022,0.018334105610847473,0.11121402680873871,0.14770916104316711,0.46913665533065796,0.6285897493362427,0.42000001668930054,-0.37177175283432007,-2.228943347930908,-1.2247453927993774,-2.999826192855835,-0.17246219515800476,-0.1792852133512497,-0.1855885088443756,-0.1859201341867447,0.39930516481399536,0.35525915026664734,0.28962549567222595,0.07871178537607193
0.6666666666666666,0.05444091930985451,0.000435652065789327,0.0,0.6350241899490356,0.0,0.0,-0.7724922895431519,0.5786210298538208,-0.23414450883865356,0.0,0.0,0.0,2.834850311279297,0.4748944342136383,0.6244799494743347,0.42001664638519287,0.565626323223114,0.00023258337751030922,-0.0003452603705227375,-0.8246615529060364,-0.08485160022974014,0.047488946467638016,0.00688528036698699,-0.12207882106304169,-0.32510629296302795,-0.02959144115447998,0.47053205966949463,0.6422099471092224,0.431094765663147,-0.0882149338722229,0.21965289115905762,0.20864154398441315,0.46913665533065796,0.6285897493362427,0.42000001668930054,-0.420986533164978,-3.000000476837158,-1.274715542793274,-2.9989981651306152,-0.1628776490688324,-0.17075912654399872,-0.17835940420627594,-0.18213391304016113,0.517761766910553,0.47987934947013855,0.43029308319091797,0.2625714838504791
0.6833333333333333,0.06664732843637466,0.000718176132068038,0.0,0.6352155208587646,0.0,0.0,-0.7723348736763,0.7369669675827026,0.05810071527957916,0.0,0.0,0.0,-0.9608738422393799,0.4742998480796814,0.624817430973053,0.42000001668930054,0.5655980706214905,-7.506284305236477e-07,1.5910284218989545e-06,-0.8246810436248779,-0.01664799079298973,0.009267319925129414,-3.5045784898102283e-05,-0.0007409967947751284,-0.0016741962172091007,-0.0035599637776613235,0.4714367389678955,0.6455680131912231,0.43564313650131226,0.14379005134105682,0.218147873878479,0.3303356468677521,0.46913665533065796,0.6285897493362427,0.42000001668930054,-0.4709908068180084,-2.999662160873413,-1.3246874809265137,-3.0000009536743164,-0.15681535005569458,-0.164795383810997,-0.17250210046768188,-0.17801138758659363,0.4335193932056427,0.4222198724746704,0.4210757315158844,0.34273430705070496
0.7,0.08005846291780472,-0.0016248109750449657,0.0,0.6124600172042847,0.0,0.0,-0.7905015349388123,0.8361960053443909,-0.19999554753303528,0.0,0.0,0.0,-4.429396152496338,0.4742995500564575,0.6248176097869873,0.4200000464916229,0.5655982494354248,5.503072202373005e-07,-3.0131313906167634e-06,-0.8246808052062988,0.00011741799971787259,-0.00023478061484638602,-7.812725380063057e-05,0.00566422613337636,-0.0007594085764139891,-0.0007217572419904172,0.4771544933319092,0.6494949460029602,0.44683489203453064,0.5312949419021606,0.19171716272830963,1.1354851722717285,0.46913665533065796,0.6285897493362427,0.42000001668930054,-0.5210031270980835,-2.999981164932251,-1.3747059106826782,-2.999999523162842,-0.1517978310585022,-0.15951643884181976,-0.16671636700630188,-0.1727621853351593,0.1465197503566742,0.1983000487089157,0.2669709622859955,0.28432339429855347
0.7166666666666667,0.09581469744443893,-0.0009580760961398482,0.0,0.6029967665672302,0.0,0.0,-0.7977436184883118,0.9639497995376587,0.08163309097290039,0.0,0.0,0.0,-0.42371371388435364,0.4742995500564575,0.6248176097869873,0.4200000464916229,0.5655985474586487,9.975234860348792e-08,-2.9422233183140634e-06,-0.8246806263923645,7.677247776882723e-05,-0.0002580659347586334,-8.409633301198483e-05,0.006396415177732706,-0.0017443140968680382,-0.0007036647875793278,0.4889734983444214,0.6550636291503906,0.4728987216949463,0.9219423532485962,0.49096566438674927,1.9927048683166504,0.46913665533065796,0.6285897493362427,0.42000001668930054,-0.5710116028785706,-3.0,-1.4247242212295532,-3.0,-0.15227144956588745,-0.15911829471588135,-0.16513067483901978,-0.17064492404460907,-0.0069082072004675865,0.015661150217056274,0.059925686568021774,0.07754158228635788
0.7333333333333333,0.10815425962209702,-0.004550781100988388,0.0,0.6183081269264221,0.0,0.0,-0.7859357595443726,0.6512813568115234,-0.26041141152381897,0.0,0.0,0.0,3.0979599952697754,0.4742995500564575,0.6248176693916321,0.4200000464916229,0.5655983686447144,2.7809301172965206e-07,-2.9503280529752374e-06,-0.824680745601654,7.264861778821796e-05,-0.0002614085387904197,-8.321856148540974e-05,0.00650461670011282,-0.0018087608041241765,-0.0007002065540291369,0.5063575506210327,0.6623449325561523,0.49971604347229004,1.0567439794540405,0.3527545630931854,1.3088583946228027,0.46913665533065796,0.6285897493362427,0.42000001668930054,-0.5964032411575317,-0.26516392827033997,-1.4747425317764282,-3.000000476837158,-0.15063032507896423,-0.15669293701648712,-0.16159486770629883,-0.16633827984333038,-0.006801614072173834,0.08750630170106888,0.1977837234735489,0.29087260365486145
0.75,0.11550519615411758,-0.011201392859220505,0.0,0.6195693612098694,0.0,0.0,-0.7849419116973877,0.3648351728916168,-0.4492286443710327,0.0,0.0,0.0,-0.823701024055481,0.4742995500564575,0.6248176693916321,0.4200000464916229,0.5655984282493591,2.7218786158300645e-07,-2.8917204417666653e-06,-0.824680745601654,7.633511268068105e-05,-0.0002587596245575696,-8.393661119043827e-05,0.006418253295123577,-0.0017500517424196005,-0.0007036597817204893,0.5208436250686646,0.665459930896759,0.5152068138122559,0.7034042477607727,0.05444580689072609,0.7307341694831848,0.46913665533065796,0.6285897493362427,0.42000001668930054,-0.6268054842948914,-3.0000007152557373,-1.4360896348953247,3.0000009536743164,-0.1522476226091385,-0.1563301831483841,-0.15910236537456512,-0.1620042324066162,-0.11100064218044281,0.016614940017461777,0.14697915315628052,0.2603332996368408
0.7666666666666666,0.1259964257478714,-0.012015262618660927,0.0,0.6325410008430481,0.0,0.0,-0.7745268940925598,0.7257164120674133,0.08907818794250488,0.0,0.0,0.0,3.0148491859436035,0.47429952025413513,0.6248176097869873,0.4200000464916229,0.5655983686447144,9.940723089130188e-08,-2.8422887226042803e-06,-0.824680745601654,7.515797187807038e-05,-0.0002585684705991298,-8.370890282094479e-05,0.006419642828404903,-0.0017635193653404713,-0.000700579781550914,0.5294880270957947,0.6645572185516357,0.5300077795982361,0.40247678756713867,-0.04194609820842743,1.0616110563278198,0.46913665533065796,0.6285897493362427,0.42000001668930054,-0.6512377262115479,-0.1580517590045929,-1.453538179397583,-2.999999761581421,-0.16046026349067688,-0.16134041547775269,-0.16097454726696014,-0.16105270385742188,-0.5553717017173767,-0.3619338274002075,-0.17391616106033325,1.0593794286251068e-08
0.7833333333333333,0.1325353980064392,-0.015970222651958466,0.0,0.6515162587165833,0.0,0.0,-0.7586346864700317,0.38880082964897156,-0.27170780301094055,0.0,0.0,0.0,2.621715784072876,0.4742995500564575,0.6248176693916321,0.4200000464916229,0.5655986070632935,2.859036669633497e-07,-3.0340281682583736e-06,-0.8246806263923645,7.653819920960814e-05,-0.000258652406046167,-8.397921919822693e-05,0.006413691211491823,-0.0017475980566814542,-0.0007040002383291721,0.5328109264373779,0.665397047996521,0.5416483283042908,-0.040070295333862305,-0.09050145745277405,0.4055140018463135,0.46913665533065796,0.6285897493362427,0.42000001668930054,-0.651132345199585,0.14877550303936005,-1.4297512769699097,3.0,-0.16366973519325256,-0.1621991991996765,-0.15957309305667877,-0.1575334519147873,-0.30291035771369934,-0.13999266922473907,0.013046321459114552,0.15629194676876068
0.8,0.1359388828277588,-0.020806947723031044,0.0,0.6507753729820251,0.0,0.0,-0.7592703104019165,0.12636081874370575,-0.36148801445961,0.0,0.0,0.0,-1.0284805297851562,0.4742995500564575,0.6248176693916321,0.4200000464916229,0.5655985474586487,3.63746750053906e-07,-2.9294940304680495e-06,-0.8246806263923645,7.522546366089955e-05,-0.00026169579359702766,-8.371705189347267e-05,0.006498423404991627,-0.001778425881639123,-0.0007066308753564954,0.5324733853340149,0.662966787815094,0.5463693141937256,-0.00952068716287613,-0.22101633250713348,0.2818848192691803,0.46913665533065796,0.6285897493362427,0.42000001668930054,-0.6609373688697815,-1.2002440690994263,-1.4472992420196533,-2.999999761581421,-0.16919897496700287,-0.16509772837162018,-0.15993976593017578,-0.15541882812976837,-0.24765154719352722,-0.1093389019370079,0.026744525879621506,0.16631807386875153
0.8166666666666667,0.13995268940925598,-0.02420300804078579,0.0,0.6299737691879272,0.0,0.0,-0.7766164541244507,0.2927480936050415,-0.1106855720281601,0.0,0.0,0.0,-4.092405319213867,0.4742995500564575,0.6248176693916321,0.4200000464916229,0.5655983686447144,2.0392297983562457e-07,-2.8693925742118154e-06,-0.8246808648109436,7.981085946084931e-05,-0.0002591822703834623,-8.465978316962719e-05,0.00640945415943861,-0.0017114800866693258,-0.0007121090893633664,0.5367439985275269,0.6609325408935547,0.551414966583252,0.45442184805870056,-0.11843731254339218,0.4822540879249573,0.46913665533065796,0.6285897493362427,0.42000001668930054,-0.6648582816123962,0.5794330835342407,-1.4973175525665283,-2.999999761581421,-0.17248469591140747,-0.16690044105052948,-0.1601620465517044,-0.15380102396011353,-0.17156320810317993,-0.10357551276683807,-0.027113689109683037,0.07077956199645996
0.8333333333333334,0.14650389552116394,-0.023294322192668915,0.0,0.6244086623191833,0.0,0.0,-0.7810978293418884,0.426031231880188,0.12145096808671951,0.0,0.0,0.0,0.09743113070726395,0.4742995500564575,0.6248176097869873,0.4200000464916229,0.5655984878540039,1.0885880641353651e-07,-3.042651769646909e-06,-0.824680745601654,7.6542331953533e-05,-0.0002583459427114576,-8.398969657719135e-05,0.006406439933925867,-0.0017457938520237803,-0.0007033905712887645,0.5423953533172607,0.6631228923797607,0.5635055303573608,0.2454715073108673,0.370027631521225,0.9653440713882446,0.46913665533065796,0.6285897493362427,0.42000001668930054,-0.6318333148956299,2.99999737739563,-1.4819495677947998,2.9999988079071045,-0.1739690601825714,-0.1682852953672409,-0.16132597625255585,-0.15438102185726166,-0.005625269841402769,-0.051627885550260544,-0.09327391535043716,-0.1144811287522316
0.85,0.14956437051296234,-0.027732033282518387,0.0,0.6431268453598022,0.0,0.0,-0.7657596468925476,0.21467944979667664,-0.30121317505836487,0.0,0.0,0.0,3.559450626373291,0.47429952025413513,0.6248176693916321,0.4200000464916229,0.5655984878540039,2.6692191568145063e-07,-2.8663664579653414e-06,-0.824680745601654,7.170958269853145e-05,-0.00026112658088095486,-8.302577771246433e-05,0.0065026720985770226,-0.001818403834477067,-0.0006977146258577704,0.5417860746383667,0.6682478189468384,0.5792279839515686,-0.35939252376556396,0.10108224302530289,0.906566858291626,0.46913665533065796,0.6285897493362427,0.42000001668930054,-0.6230471134185791,-1.5539135932922363,-1.4318931102752686,2.999999761581421,-0.16841131448745728,-0.16391585767269135,-0.15807569026947021,-0.15190312266349792,0.15578235685825348,0.1367948204278946,0.11637968569993973,0.10975706577301025
0.8666666666666667,0.15069419145584106,-0.02808147296309471,0.0,0.6475967764854431,0.0,0.0,-0.7619832158088684,0.017783699557185173,0.01720011606812477,0.0,0.0,0.0,-0.1790563315153122,0.47429952025413513,0.6248176097869873,0.4200000464916229,0.5655984282493591,1.218434135807911e-07,-2.9938435091025895e-06,-0.824680745601654,7.532488234573975e-05,-0.000258384709013626,-8.37007537484169e-05,0.006414555013179779,-0.0017592220101505518,-0.0007004932267591357,0.537128746509552,0.6696614027023315,0.5852726697921753,-0.17729508876800537,0.0879153460264206,0.005289182066917419,0.46913665533065796,0.6285897493362427,0.42000001668930054,-0.620896577835083,1.541085124015808,-1.3818633556365967,2.999999761581421,-0.16824840009212494,-0.16376422345638275,-0.15797868371009827,-0.1516711711883545,0.09647654742002487,0.07984431087970734,0.06150376796722412,0.05498971417546272
0.8833333333333333,0.15140856802463531,-0.03144863620400429,0.0,0.6623201966285706,0.0,0.0,-0.7492209076881409,0.015827234834432602,-0.2035907655954361,0.0,0.0,0.0,2.9780380725860596,0.47429952025413513,0.6248176693916321,0.4200000464916229,0.5655984878540039,2.2329692228595377e-07,-3.063247277168557e-06,-0.824680745601654,7.083447417244315e-05,-0.000261489738477394,-8.278270252048969e-05,0.00651719281449914,-0.0018288388382643461,-0.0006962974439375103,0.5301035642623901,0.6702656745910645,0.5878751277923584,-0.6636526584625244,0.056246284395456314,0.307955801486969,0.46913665533065796,0.6285897493362427,0.42000001668930054,-0.6138301491737366,-0.5216525793075562,-1.331810712814331,3.0,-0.16631324589252472,-0.16208261251449585,-0.15664127469062805,-0.15055662393569946,0.017016349360346794,0.012740528210997581,2.3632310330867767e-08,-0.010278954170644283
0.9,0.15331214666366577,-0.03618542104959488,0.0,0.6618533730506897,0.0,0.0,-0.7496333122253418,0.165116086602211,-0.3984459340572357,0.0,0.0,0.0,-1.0411432981491089,0.4742995500564575,0.6248176097869873,0.4200000464916229,0.5655986070632935,2.5185846652675536e-07,-3.032304221051163e-06,-0.8246806859970093,7.255582750076428e-05,-0.0002614696859382093,-8.310377597808838e-05,0.00650824885815382,-0.0018066917546093464,-0.0007000543409958482,0.5219686031341553,0.6713863015174866,0.5860199928283691,-0.3484037518501282,0.02490903250873089,-0.32883062958717346,0.46913665533065796,0.6285897493362427,0.42000001668930054,-0.611329972743988,0.7127035856246948,-1.2817656993865967,2.9999992847442627,-0.16717112064361572,-0.16274906694889069,-0.1571841835975647,-0.150895357131958,-0.021693788468837738,-0.0017309559043496847,0.017124272882938385,0.04258853942155838
