vladlanda/robotic-transformer/data/env_000_episode_0250.csv
sim_time_s,robot_box_x,robot_box_y,robot_box_z,robot_box_quat_w,robot_box_quat_x,robot_box_quat_y,robot_box_quat_z,robot_box_linvel_x,robot_box_linvel_y,robot_box_linvel_z,robot_box_angvel_x,robot_box_angvel_y,robot_box_angvel_z,cube_world_x,cube_world_y,cube_world_z,cube_quat_w,cube_quat_x,cube_quat_y,cube_quat_z,cube_linvel_x,cube_linvel_y,cube_linvel_z,cube_angvel_x,cube_angvel_y,cube_angvel_z,endpoint_world_x,endpoint_world_y,endpoint_world_z,endpoint_linvel_x,endpoint_linvel_y,endpoint_linvel_z,target_cube_world_x,target_cube_world_y,target_cube_world_z,gripper_actual_pos_rad_gp_leftgearjoint,gripper_actual_vel_rad_s_gp_leftgearjoint,gripper_actual_pos_rad_gp_rotatingjoint,gripper_actual_vel_rad_s_gp_rotatingjoint,motor_angle_rad_joint1,motor_angle_rad_joint2,motor_angle_rad_joint3,motor_angle_rad_joint4,motor_speed_rad_s_joint1,motor_speed_rad_s_joint2,motor_speed_rad_s_joint3,motor_speed_rad_s_joint4
0.0,0.0,0.0,0.0,1.0,0.0,0.0,0.0,0.0,0.0,0.0,0.0,0.0,0.0,-0.3772432506084442,0.7214691042900085,0.41999998688697815,1.0,0.0,0.0,0.0,0.0,0.0,0.0,0.0,0.0,0.0,3.42540442943573e-06,-0.005000244826078415,1.313499927520752,0.0,0.0,0.0,0.4522543251514435,0.6822963953018188,0.42000001668930054,-1.5707999467849731,0.0,0.0,0.0,0.0,0.0,0.0,0.0,0.0,0.0,0.0,0.0
0.016666666666666666,0.0028812983073294163,0.002176533220335841,0.0,0.999816358089447,0.0,0.0,0.019162489101290703,0.24097096920013428,0.1822613626718521,0.0,0.0,0.0,3.1418039798736572,-0.37724336981773376,0.7214688062667847,0.41999998688697815,1.0,3.279964630564791e-06,-8.339746386809566e-07,8.465587342243452e-08,-1.9833529222523794e-05,0.00017983045836444944,-6.132945418357849e-05,0.0009432713268324733,-0.004689474124461412,-0.00031981561915017664,-0.007109291851520538,0.0033904218580573797,1.3159382343292236,-0.8139908313751221,0.9872548580169678,0.18096141517162323,0.4522543251514435,0.6822963953018188,0.42000001668930054,-1.5301094055175781,3.0000009536743164,-0.045848872512578964,-2.999999761581421,0.0008701388724148273,0.0007967961137183011,0.0007113683386705816,0.0006112272385507822,0.11095310002565384,0.09759075194597244,0.08336719870567322,0.06826149672269821
0.03333333333333333,0.008965098299086094,0.0067956168204545975,0.0,0.9998044967651367,0.0,0.0,0.019772455096244812,0.40706366300582886,0.31517404317855835,0.0,0.0,0.0,-0.8690752983093262,-0.3772434890270233,0.7214687466621399,0.4200000464916229,1.0,3.3908179375430336e-06,-2.132458348569344e-06,-3.7097745320124886e-08,0.00026357852038927376,0.00026937833172269166,-0.00010509369894862175,-0.0017707126680761576,0.004130884539335966,-0.0001354814594378695,-0.027537565678358078,0.026329170912504196,1.3165805339813232,-1.5900547504425049,1.6178158521652222,-0.0871238186955452,0.4522543251514435,0.6822963953018188,0.42000001668930054,-1.4800902605056763,3.0000014305114746,-0.09588872641324997,-3.0000016689300537,0.002990374341607094,0.002652656054124236,0.002277206163853407,0.001860697055235505,0.16416065394878387,0.13971827924251556,0.11378035694360733,0.08626417070627213
0.05,0.01847824454307556,0.013903624378144741,0.0,0.9999730587005615,0.0,0.0,-0.007340192329138517,0.6362866163253784,0.47246813774108887,0.0,0.0,0.0,-4.072826862335205,-0.3772435188293457,0.7214688062667847,0.4200000464916229,1.0,3.7651902857760433e-06,-2.2119197637948673e-06,5.609367637049445e-09,0.00026530938339419663,0.00026691678795032203,-0.00010440615005791187,-0.0017243892652913928,0.004177466034889221,-0.00012949809024576098,-0.05676459148526192,0.05796544998884201,1.3118746280670166,-1.916069507598877,2.1008400917053223,-0.46166276931762695,0.4522543251514435,0.6822963953018188,0.42000001668930054,-1.4300719499588013,3.000000238418579,-0.14592741429805756,-2.999999523162842,0.005965971387922764,0.00511151785030961,0.004184735473245382,0.003181338543072343,0.20197844505310059,0.16042739152908325,0.1169518306851387,0.07147902995347977
0.06666666666666667,0.0308145210146904,0.023398542776703835,0.0,0.999870777130127,0.0,0.0,-0.01607486605644226,0.7729846239089966,0.6164430975914001,0.0,0.0,0.0,-0.033650197088718414,-0.3772435188293457,0.7214687466621399,0.4200000464916229,0.9999999403953552,3.406832092878176e-06,-2.28558906201215e-06,4.300801492718165e-07,0.0002670248504728079,0.0002679176686797291,-0.0001043803058564663,-0.00174071139190346,0.00421183044090867,-0.00012850876373704523,-0.09152450412511826,0.09226392954587936,1.3017022609710693,-2.1241536140441895,2.176422119140625,-0.7488126158714294,0.4522543251514435,0.6822963953018188,0.42000001668930054,-1.380043387413025,3.0000014305114746,-0.13766878843307495,3.000000476837158,0.008388631045818329,0.006728211883455515,0.00495539465919137,0.0030642510391771793,0.11903732270002365,0.06014568731188774,-1.0360963642597198e-08,-0.06422033905982971
0.08333333333333333,0.03685305640101433,0.0367816686630249,0.0,0.9992030262947083,0.0,0.0,-0.039915844798088074,0.22719033062458038,0.8764750957489014,0.0,0.0,0.0,-3.805454969406128,-0.3772435188293457,0.7214687466621399,0.4200000464916229,0.9999999403953552,3.626166289905086e-06,-2.3353043161478126e-06,3.032100153177453e-07,0.00026614085072651505,0.0002668516826815903,-0.00010405341163277626,-0.001728349830955267,0.004196455702185631,-0.0001279077841900289,-0.12156891822814941,0.13237936794757843,1.2875118255615234,-1.5141236782073975,2.643345832824707,-0.8845511674880981,0.4522543251514435,0.6822963953018188,0.42000001668930054,-1.3300410509109497,3.0000007152557373,-0.16954819858074188,-2.999999761581421,0.004061406943947077,0.00156678375788033,-0.0010820175521075726,-0.003932985942810774,-0.38830605149269104,-0.4516831040382385,-0.5172158479690552,-0.5870228409767151
0.1,0.04671516641974449,0.05174289271235466,0.0,0.9958207011222839,0.0,0.0,-0.09132995456457138,0.737507164478302,0.9043652415275574,0.0,0.0,0.0,-6.9631028175354,-0.3772435188293457,0.7214687466621399,0.4200000464916229,1.0,3.4222334761579987e-06,-2.3086047349352157e-06,1.796183539681806e-07,0.0002668157103471458,0.00026800340856425464,-0.00010440708138048649,-0.0017429988365620375,0.004207124002277851,-0.00012891183723695576,-0.1485232412815094,0.17849200963974,1.2725136280059814,-1.714530348777771,2.9151530265808105,-0.9722490310668945,0.4522543251514435,0.6822963953018188,0.42000001668930054,-1.2800307273864746,2.9999985694885254,-0.19172225892543793,0.09354319423437119,0.0020611865911632776,-0.0020126281306147575,-0.006236010696738958,-0.010682158172130585,-0.0285986065864563,-0.13040851056575775,-0.2308557778596878,-0.33099234104156494
0.11666666666666667,0.055243127048015594,0.06380146741867065,0.0,0.9923999309539795,0.0,0.0,-0.123054139316082,0.5395886301994324,0.685333251953125,0.0,0.0,0.0,-2.5760719776153564,-0.3772435188293457,0.7214688062667847,0.4200000464916229,1.0,3.711570343511994e-06,-2.332746134925401e-06,2.5742929210537113e-07,0.0002648576919455081,0.0002663539198692888,-0.00010423408821225166,-0.0017182708252221346,0.004170178435742855,-0.0001291575754294172,-0.1808394342660904,0.22464975714683533,1.254589319229126,-1.8904672861099243,2.9818315505981445,-1.085087537765503,0.4522543251514435,0.6822963953018188,0.42000001668930054,-1.2300353050231934,2.999788761138916,-0.20949995517730713,-2.031733751296997,-0.000620782608166337,-0.006303227972239256,-0.012105194851756096,-0.018112648278474808,-0.07489272952079773,-0.19055891036987305,-0.30275794863700867,-0.4118102788925171
0.13333333333333333,0.06162611022591591,0.07365980744361877,0.0,0.9863698482513428,0.0,0.0,-0.16454339027404785,0.31499460339546204,0.4858923852443695,0.0,0.0,0.0,-5.754366397857666,-0.3772435188293457,0.7214687466621399,0.4200000464916229,1.0,3.335774863444385e-06,-2.2319691197481006e-06,3.1131583000387764e-07,0.0002666965883690864,0.0002675943251233548,-0.00010428344830870628,-0.0017370636342093349,0.004205815959721804,-0.0001284035388380289,-0.21066144108772278,0.27932024002075195,1.2330899238586426,-1.6378908157348633,3.6519412994384766,-1.478405475616455,0.4522543251514435,0.6822963953018188,0.42000001668930054,-1.1801047325134277,2.973126173019409,-0.17080536484718323,3.000000238418579,-0.00319420057348907,-0.010723203420639038,-0.01830465719103813,-0.026026351377367973,-0.23824822902679443,-0.33718836307525635,-0.4322648048400879,-0.5233673453330994
0.15,0.06381725519895554,0.0839742124080658,0.0,0.9735503792762756,0.0,0.0,-0.22847235202789307,0.0604466013610363,0.6764724850654602,0.0,0.0,0.0,-8.805726051330566,-0.3772435188293457,0.7214687466621399,0.4200000464916229,1.0,3.51896619577019e-06,-2.2831691239844076e-06,-3.625396516326873e-07,0.00026618328411132097,0.00026735622668638825,-0.00010425481013953686,-0.0017348447581753135,0.004195693414658308,-0.0001286104234168306,-0.24058926105499268,0.3413674235343933,1.2041068077087402,-1.719398856163025,3.9485974311828613,-2.0267810821533203,0.4522543251514435,0.6822963953018188,0.42000001668930054,-1.1484441757202148,0.9736135005950928,-0.2024795264005661,-3.000000238418579,-0.00886355061084032,-0.01781998760998249,-0.026753176003694534,-0.03574643284082413,-0.4149865508079529,-0.48222464323043823,-0.545081377029419,-0.6032125949859619
0.16666666666666666,0.06943649053573608,0.09648628532886505,0.0,0.961587131023407,0.0,0.0,-0.2744998633861542,0.33671748638153076,0.7911319136619568,0.0,0.0,0.0,-4.608513355255127,-0.3772435188293457,0.7214687466621399,0.4200000464916229,1.0,3.6666901905846316e-06,-2.339151933483663e-06,-3.150083500713663e-07,0.00026595874805934727,0.0002666740329004824,-0.00010403385385870934,-0.001725255511701107,0.004192718770354986,-0.0001277866685995832,-0.2758235037326813,0.4064122438430786,1.1626207828521729,-2.0018372535705566,4.202922344207764,-2.9559972286224365,0.4522543251514435,0.6822963953018188,0.42000001668930054,-1.1055172681808472,3.000000238418579,-0.2525026500225067,-2.999999761581421,-0.014897502958774567,-0.024681750684976578,-0.03437130153179169,-0.04404454678297043,-0.5254206657409668,-0.5356549620628357,-0.5434772968292236,-0.5486838221549988
0.18333333333333332,0.07185336202383041,0.10618608444929123,0.0,0.95771723985672,0.0,0.0,-0.28771117329597473,0.10283409059047699,0.5116331577301025,0.0,0.0,0.0,-0.5389280915260315,-0.3772435188293457,0.7214687466621399,0.4200000464916229,1.0,3.814420779235661e-06,-2.399499635430402e-06,-2.7027235205423494e-07,0.00026548944879323244,0.0002661115431692451,-0.00010391324758529663,-0.0017178029520437121,0.004184751771390438,-0.00012753890769090503,-0.31187641620635986,0.4709438681602478,1.106461524963379,-1.9218089580535889,3.9794702529907227,-3.6995351314544678,0.4522543251514435,0.6822963953018188,0.42000001668930054,-1.0555142164230347,3.000002384185791,-0.302529901266098,-3.0,-0.02589004673063755,-0.035364795476198196,-0.04472535476088524,-0.05405070632696152,-0.7030574083328247,-0.6744312644004822,-0.6450080275535583,-0.6147462725639343
0.2,0.07208244502544403,0.11715395748615265,0.0,0.9496851563453674,0.0,0.0,-0.31320619583129883,-0.057725939899683,0.6724616885185242,0.0,0.0,0.0,-4.031792640686035,-0.3772435188293457,0.7214687466621399,0.4200000464916229,1.0,3.600102218115353e-06,-2.29119359573815e-06,-2.2019156631358783e-07,0.0002657294971868396,0.00026644946774467826,-0.00010398216545581818,-0.0017227602656930685,0.004188841208815575,-0.00012773591151926666,-0.3405768573284149,0.5378361940383911,1.0387392044067383,-1.509745717048645,3.9942991733551025,-4.330713272094727,0.4522543251514435,0.6822963953018188,0.42000001668930054,-1.0055073499679565,2.9999988079071045,-0.35255488753318787,-3.0,-0.039975687861442566,-0.04870213568210602,-0.05731312558054924,-0.06588989496231079,-0.8639411330223083,-0.8213706612586975,-0.7782806158065796,-0.7346615195274353
0.21666666666666667,0.07488173246383667,0.1268254667520523,0.0,0.9336491227149963,0.0,0.0,-0.35818901658058167,0.18182098865509033,0.5768868923187256,0.0,0.0,0.0,-6.411519527435303,-0.3772435188293457,0.7214687466621399,0.4200000464916229,0.9999999403953552,3.639728220150573e-06,-2.261914687551325e-06,2.2246757680477458e-07,0.0002668741799425334,0.0002675442083273083,-0.00010411837138235569,-0.0017403532983735204,0.004211121238768101,-0.00012784327554982156,-0.36282190680503845,0.6047451496124268,0.9579764604568481,-0.9800847768783569,3.9656009674072266,-5.3089399337768555,0.4522543251514435,0.6822963953018188,0.42000001668930054,-0.9555021524429321,3.00000262260437,-0.40258216857910156,-2.9999992847442627,-0.054592352360486984,-0.06271494179964066,-0.07028663158416748,-0.07780981063842773,-0.9857494235038757,-0.9830824136734009,-0.8955682516098022,-0.8033666014671326
0.23333333333333334,0.07460726797580719,0.1348428577184677,0.0,0.9236782789230347,0.0,0.0,-0.38316893577575684,-0.05986234173178673,0.3620976209640503,0.0,0.0,0.0,-2.077913999557495,-0.3772434890270233,0.7214687466621399,0.4200000464916229,1.0,3.4208205761387944e-06,-2.31679678108776e-06,2.9558265168816433e-07,0.0002668011875357479,0.00026803891523741186,-0.00010442500934004784,-0.0017436320194974542,0.004206853918731213,-0.00012899722787551582,-0.3807271122932434,0.6590145826339722,0.8636062741279602,-0.7818524837493896,2.930305004119873,-5.964481353759766,0.4522543251514435,0.6822963953018188,0.42000001668930054,-0.9054923057556152,3.000000476837158,-0.45261144638061523,-2.999999523162842,-0.07055152207612991,-0.07869108766317368,-0.08612591028213501,-0.0934356153011322,-0.9883298277854919,-0.9880611300468445,-0.9592171311378479,-0.9232922792434692
0.25,0.07068178802728653,0.14404498040676117,0.0,0.9114967584609985,0.0,0.0,-0.41130730509757996,-0.3264238238334656,0.6071929931640625,0.0,0.0,0.0,-4.6619873046875,-0.3772435188293457,0.7214687466621399,0.4200000464916229,0.9999999403953552,3.3476744647487067e-06,-2.2591534616367426e-06,1.8083225938880787e-07,0.0002668770612217486,0.00026791077107191086,-0.00010439194738864899,-0.0017404238460585475,0.004208190366625786,-0.00012870175123680383,-0.3923880159854889,0.7001016139984131,0.7585715055465698,-0.42579665780067444,2.070239543914795,-6.544230937957764,0.4522543251514435,0.6822963953018188,0.42000001668930054,-0.8554818034172058,2.9999969005584717,-0.5026420950889587,-2.999999523162842,-0.08688990026712418,-0.09502249956130981,-0.10246563702821732,-0.1097884476184845,-0.9920580387115479,-0.9935678243637085,-0.9946863055229187,-0.9944442510604858
0.26666666666666666,0.07055272907018661,0.14830146729946136,0.0,0.9058417677879333,0.0,0.0,-0.4236162304878235,-0.0036528371274471283,0.19798284769058228,0.0,0.0,0.0,-0.2765142619609833,-0.3772435188293457,0.7214687466621399,0.4200000464916229,0.9999999403953552,3.5357529668544885e-06,-2.3003142359812045e-06,-1.2686169270637038e-07,0.00026601762510836124,0.0002671225811354816,-0.00010419590398669243,-0.0017317383317276835,0.004192912019789219,-0.0001284929021494463,-0.4022854268550873,0.725500226020813,0.6502324342727661,-0.37537917494773865,0.9149019718170166,-6.538222312927246,0.4522543251514435,0.6822963953018188,0.42000001668930054,-0.805472731590271,3.0000007152557373,-0.5526723861694336,-3.0000011920928955,-0.10120969265699387,-0.10924853384494781,-0.11655081063508987,-0.12374985218048096,-0.9926929473876953,-0.9937390089035034,-0.9892868995666504,-0.983106255531311
0.2833333333333333,0.06688626855611801,0.15021629631519318,0.0,0.9128876328468323,0.0,0.0,-0.40821099281311035,-0.30289945006370544,0.09110259264707565,0.0,0.0,0.0,3.0706498622894287,-0.3772435188293457,0.7214688062667847,0.4200000464916229,1.0,3.5935311188950436e-06,-2.2625688416155754e-06,-5.654767321061627e-08,0.00026704734773375094,0.0002677497686818242,-0.00010416633449494839,-0.0017430580919608474,0.004214033950120211,-0.00012789166066795588,-0.40991055965423584,0.7294641137123108,0.5442312955856323,-0.3641228675842285,-0.46876060962677,-6.102295875549316,0.4522543251514435,0.6822963953018188,0.42000001668930054,-0.7554639577865601,2.999999761581421,-0.6027016639709473,-3.000000238418579,-0.118709035217762,-0.1265203207731247,-0.13365508615970612,-0.14072586596012115,-1.0060397386550903,-1.0045759677886963,-1.003456711769104,-1.0025593042373657
0.3,0.0663994699716568,0.14888429641723633,0.0,0.9135635495185852,0.0,0.0,-0.40669602155685425,0.014651313424110413,-0.11796247959136963,0.0,0.0,0.0,-0.5646631121635437,-0.3772434890270233,0.7214687466621399,0.4200000464916229,0.9999999403953552,3.725058377312962e-06,-2.236010232081753e-06,3.828667161087651e-07,0.0002647990477271378,0.00026672965032048523,-0.00010453816503286362,-0.001718871295452118,0.0041667441837489605,-0.00013016721641179174,-0.40820837020874023,0.7261654138565063,0.4427779018878937,0.5601904392242432,-0.2573840916156769,-5.775470733642578,0.4522543251514435,0.6822963953018188,0.42000001668930054,-0.7054561376571655,3.000002145767212,-0.6527287364006042,-3.0000011920928955,-0.13573811948299408,-0.14343249797821045,-0.1505100578069687,-0.1575462371110916,-1.0236542224884033,-1.017944574356079,-1.013576626777649,-1.010069489479065
0.31666666666666665,0.06294701248407364,0.14623351395130157,0.0,0.9201673865318298,0.0,0.0,-0.3915252089500427,-0.29993414878845215,-0.17716583609580994,0.0,0.0,0.0,2.8725037574768066,-0.3772670328617096,0.7213173508644104,0.42017048597335815,0.9999927282333374,0.00375347095541656,-0.0005656170542351902,3.654006093256612e-07,-0.001757303369231522,-0.007174050901085138,0.012307737953960896,0.4813413918018341,-0.16142220795154572,0.0026860302314162254,-0.40420636534690857,0.7266615629196167,0.4129028022289276,0.24295955896377563,0.2760722041130066,-0.040064916014671326,0.4522543251514435,0.6822963953018188,0.42000001668930054,-0.6556418538093567,2.963900566101074,-0.7030381560325623,-2.8084864616394043,-0.1438843309879303,-0.15211264789104462,-0.1596180498600006,-0.16690099239349365,-0.15169493854045868,-0.23286862671375275,-0.29283857345581055,-0.3234027028083801
0.3333333333333333,0.05499281734228134,0.14205391705036163,0.0,0.9200235605239868,0.0,0.0,-0.391863077878952,-0.5336101055145264,-0.2867184281349182,0.0,0.0,0.0,-1.0115762948989868,-0.37660232186317444,0.7223288416862488,0.4200000464916229,0.9999907612800598,1.873657492978964e-05,-1.1791291399276815e-05,-0.004295123275369406,0.23061612248420715,0.30831438302993774,-0.000577746715862304,-0.035979121923446655,0.0451270192861557,-2.7749228477478027,-0.40037256479263306,0.7306498289108276,0.42424094676971436,0.4878533184528351,0.24161715805530548,-0.14346712827682495,0.4522543251514435,0.6822963953018188,0.42000001668930054,-0.6056323647499084,2.9999547004699707,-0.7531073093414307,-2.99999737739563,-0.14845450222492218,-0.15687277913093567,-0.1641932874917984,-0.17079749703407288,-0.46550244092941284,-0.41444820165634155,-0.34638383984565735,-0.2552781105041504
0.35,0.04503076523542404,0.13575348258018494,0.0,0.9254053831100464,0.0,0.0,-0.3789787292480469,-0.5326392650604248,-0.456079363822937,0.0,0.0,0.0,2.5653069019317627,-0.3714483380317688,0.7289927005767822,0.4200000762939453,0.9990954399108887,3.8688128256580967e-07,1.3647954233420023e-07,-0.042522769421339035,0.3892550766468048,0.4869993329048157,-0.0001232064823852852,0.004891812801361084,-0.0021229377016425133,-5.747575283050537,-0.3899151384830475,0.7359650135040283,0.42165255546569824,0.7371190190315247,0.4398766756057739,-0.1546672284603119,0.4522543251514435,0.6822963953018188,0.42000001668930054,-0.5556273460388184,2.999990224838257,-0.8031346201896667,-3.000000476837158,-0.15749037265777588,-0.1643185317516327,-0.1697658747434616,-0.1741318255662918,-0.39660021662712097,-0.3103845417499542,-0.2045888602733612,-0.07409826666116714
0.36666666666666664,0.03474894538521767,0.12600238621234894,0.0,0.9244585633277893,0.0,0.0,-0.38128259778022766,-0.663640022277832,-0.609277069568634,0.0,0.0,0.0,-1.2625175714492798,-0.36256229877471924,0.738939106464386,0.42000049352645874,0.9930596947669983,2.367904562561307e-05,-1.5054624782351311e-05,-0.11761151254177094,0.6764575242996216,0.694768488407135,-0.0008770186104811728,-0.017351100221276283,0.02833118848502636,-13.765417098999023,-0.3757554292678833,0.745051920413971,0.42070692777633667,0.9793157577514648,0.6656550168991089,0.05316678434610367,0.4522543251514435,0.6822963953018188,0.42000001668930054,-0.5056027770042419,3.0000014305114746,-0.8531585335731506,-2.9999537467956543,-0.16335244476795197,-0.16877135634422302,-0.1724739819765091,-0.1746789664030075,-0.36303049325942993,-0.26730990409851074,-0.15347820520401,-0.01722784712910652
0.3833333333333333,0.025686677545309067,0.11391457915306091,0.0,0.9117224812507629,0.0,0.0,-0.41080668568611145,-0.5985644459724426,-0.7391732335090637,0.0,0.0,0.0,-4.559340953826904,-0.34730085730552673,0.7538500428199768,0.4204133450984955,0.9706499576568604,-0.010249870829284191,0.0014806143008172512,-0.24027329683303833,1.2122517824172974,1.131284236907959,0.10746283829212189,-5.01007604598999,1.9555010795593262,-6.76741361618042,-0.35567331314086914,0.7597899436950684,0.42195773124694824,1.4039478302001953,0.989096999168396,0.10066882520914078,0.4522543251514435,0.6822963953018188,0.42000001668930054,-0.45556357502937317,2.999868392944336,-0.9031705260276794,-2.9999771118164062,-0.16907496750354767,-0.17263278365135193,-0.1741354912519455,-0.17374677956104279,-0.46571457386016846,-0.31393277645111084,-0.14281515777111053,0.049337662756443024
0.4,0.01887688785791397,0.09938950836658478,0.0,0.8865894675254822,0.0,0.0,-0.4625571072101593,-0.3325445353984833,-0.9269844889640808,0.0,0.0,0.0,-7.734251499176025,-0.31746628880500793,0.7763688564300537,0.42277613282203674,0.9549276232719421,-0.03220827877521515,-0.006716001313179731,-0.2950095236301422,2.361867666244507,1.6187705993652344,0.22734910249710083,21.261640548706055,-14.08732795715332,1.8883765935897827,-0.3247848153114319,0.7824293971061707,0.4239686131477356,2.3126120567321777,1.5990631580352783,0.276487797498703,0.4522543251514435,0.6822963953018188,0.42000001668930054,-0.40699073672294617,2.432676315307617,-0.9531891942024231,-3.0000009536743164,-0.17699550092220306,-0.17784059047698975,-0.1762966811656952,-0.17251837253570557,-0.469592809677124,-0.299282044172287,-0.11150169372558594,0.09353721141815186
0.4166666666666667,0.016206052154302597,0.08148857951164246,0.0,0.8460185527801514,0.0,0.0,-0.5331534147262573,-0.09233181923627853,-1.138216257095337,0.0,0.0,0.0,-10.458545684814453,-0.25615835189819336,0.8097689151763916,0.4269372820854187,0.9345642328262329,0.024360347539186478,-0.050163816660642624,-0.35139691829681396,5.071033477783203,2.277553081512451,0.41152423620224,7.113243579864502,-7.371232986450195,2.6839101314544678,-0.26284924149513245,0.8160842657089233,0.4280043840408325,4.760562419891357,2.391583204269409,0.36119699478149414,0.4522543251514435,0.6822963953018188,0.42000001668930054,-0.3835548758506775,0.9806750416755676,-0.9161051511764526,3.000007152557373,-0.18820542097091675,-0.1850310117006302,-0.17940601706504822,-0.1715346723794937,-0.7053651809692383,-0.450876384973526,-0.20259536802768707,0.03570719435811043
0.43333333333333335,0.009398321621119976,0.06974701583385468,0.0,0.7854192852973938,0.0,0.0,-0.6189640760421753,-0.5073511004447937,-0.5580019354820251,0.0,0.0,0.0,-13.559770584106445,-0.1551305651664734,0.8443954586982727,0.4362146556377411,0.9046801328659058,0.06263624876737595,-0.07218164205551147,-0.4152352511882782,7.401028633117676,1.3931481838226318,0.771727979183197,7.514540195465088,-12.356185913085938,19.049362182617188,-0.16081631183624268,0.8521106243133545,0.4374103546142578,7.232593536376953,2.057544469833374,0.735206127166748,0.4522543251514435,0.6822963953018188,0.42000001668930054,-0.3687174618244171,0.904198408126831,-0.9357704520225525,-3.0000009536743164,-0.20434604585170746,-0.19972991943359375,-0.18998673558235168,-0.17672514915466309,-0.9249963760375977,-0.9121405482292175,-0.7809443473815918,-0.4553932845592499
0.45,0.005586517043411732,0.06289205700159073,0.0,0.73133784532547,0.0,0.0,-0.6820154190063477,-0.15498363971710205,-0.4918782711029053,0.0,0.0,0.0,-8.46711540222168,-0.03650183975696564,0.8618228435516357,0.447100967168808,0.8433563709259033,0.10826453566551208,-0.08400651067495346,-0.5195879936218262,6.966928482055664,-0.2524676024913788,0.8456013202667236,-5.375782489776611,3.2608909606933594,11.514660835266113,-0.0422373004257679,0.872856855392456,0.44821399450302124,7.090079307556152,0.6861211061477661,0.6129159927368164,0.4522543251514435,0.6822963953018188,0.42000001668930054,-0.3531149625778198,0.8898341655731201,-0.9452453851699829,1.4388227462768555,-0.21812734007835388,-0.21365010738372803,-0.2038225531578064,-0.18460813164710999,-0.639879047870636,-0.6549534797668457,-0.6517736315727234,-0.36145058274269104
0.4666666666666667,0.0016682941932231188,0.05774485319852829,0.0,0.7021305561065674,0.0,0.0,-0.7120482325553894,-0.2961382269859314,-0.24324272572994232,0.0,0.0,0.0,-3.8886730670928955,0.07878613471984863,0.8610051870346069,0.4567736089229584,0.7731114029884338,0.1156320795416832,-0.07834190875291824,-0.6187006831169128,6.6862592697143555,-1.23178231716156,0.5334042906761169,7.7809739112854,-14.465495109558105,8.423297882080078,0.07209532707929611,0.8747451305389404,0.4576786160469055,6.610452651977539,-0.5911746621131897,0.5658559203147888,0.4522543251514435,0.6822963953018188,0.42000001668930054,-0.33966556191444397,0.5402801036834717,-0.9813145399093628,-3.0000016689300537,-0.23185046017169952,-0.22589513659477234,-0.21453432738780975,-0.1902385950088501,-0.8266109228134155,-0.6863422989845276,-0.5535274147987366,-0.26945552229881287
0.48333333333333334,5.77266764594242e-05,0.047272589057683945,0.0,0.6961615681648254,0.0,0.0,-0.7178851366043091,-0.029451707378029823,-0.7533754110336304,0.0,0.0,0.0,-0.07283652573823929,0.1747118979692459,0.846134603023529,0.46220457553863525,0.7146868705749512,0.10197079926729202,-0.07067451626062393,-0.6883528232574463,4.634690284729004,-2.3333616256713867,0.29414626955986023,-8.9058198928833,-4.851922035217285,30.997583389282227,0.17133688926696777,0.8608703017234802,0.4641679525375366,5.391273498535156,-1.2662922143936157,0.33181697130203247,0.4522543251514435,0.6822963953018188,0.42000001668930054,-0.3345266580581665,0.04208703339099884,-1.0313373804092407,-3.000002145767212,-0.23945772647857666,-0.23145797848701477,-0.2181989550590515,-0.19026950001716614,-0.28956663608551025,-0.15974077582359314,-0.04154929891228676,0.1370924860239029
0.5,0.0008714598370715976,0.04086415842175484,0.0,0.6814455389976501,0.0,0.0,-0.7318688035011292,0.07338421046733856,-0.22570966184139252,0.0,0.0,0.0,-3.2819104194641113,0.2524506449699402,0.8200252652168274,0.4603177607059479,0.5979515910148621,0.036610350012779236,-0.10524306446313858,-0.7937489748001099,3.972673177719116,-2.2950639724731445,-0.5534225702285767,-31.622465133666992,10.342991828918457,-8.069209098815918,0.24726000428199768,0.8371919393539429,0.4649856686592102,4.154171943664551,-1.748152256011963,-0.03318711742758751,0.4522543251514435,0.6822963953018188,0.42000001668930054,-0.3326157331466675,0.23203617334365845,-1.0813593864440918,-2.9998254776000977,-0.23957276344299316,-0.23638468980789185,-0.22107502818107605,-0.19088318943977356,0.08250989764928818,-0.30756691098213196,-0.1849730908870697,-0.09068465232849121
0.5166666666666666,0.004234818741679192,0.035245440900325775,0.0,0.6797299385070801,0.0,0.0,-0.7334624528884888,0.25179898738861084,-0.38348403573036194,0.0,0.0,0.0,0.6518340110778809,0.3128296136856079,0.7888633608818054,0.4530814588069916,0.5549265742301941,-0.0018890018109232187,-0.0905841812491417,-0.8269505500793457,3.236640214920044,-2.3142542839050293,-0.3129757344722748,-0.4226170778274536,12.698455810546875,0.3068147599697113,0.3106555938720703,0.8058830499649048,0.4587087035179138,3.382439136505127,-2.028601884841919,-0.5908172726631165,0.4522543251514435,0.6822963953018188,0.42000001668930054,-0.32554370164871216,0.6139147877693176,-1.1313815116882324,-2.999476909637451,-0.23539671301841736,-0.23756374418735504,-0.2209520936012268,-0.1904405951499939,0.3484880328178406,0.0929025188088417,0.1357525885105133,0.0939265713095665
0.5333333333333333,0.009950370527803898,0.03243604302406311,0.0,0.669624924659729,0.0,0.0,-0.7426994442939758,0.3960903584957123,-0.09714024513959885,0.0,0.0,0.0,-2.425344228744507,0.3625289797782898,0.7574429512023926,0.43847382068634033,0.5132843852043152,-0.036846332252025604,-0.07985063642263412,-0.8537009954452515,2.537843942642212,-2.363373279571533,-0.7832411527633667,0.47535884380340576,6.0593109130859375,6.192056655883789,0.3620033264160156,0.7742833495140076,0.44466403126716614,2.739640235900879,-1.8628065586090088,-1.0618727207183838,0.4522543251514435,0.6822963953018188,0.42000001668930054,-0.3142208158969879,0.6817509531974792,-1.181403636932373,-2.9999518394470215,-0.22922976315021515,-0.2352062165737152,-0.21883095800876617,-0.19013836979866028,0.3956046402454376,0.20755921304225922,0.15485461056232452,-0.0054901340045034885
0.55,0.018105247989296913,0.028575493022799492,0.0,0.6721664667129517,0.0,0.0,-0.7404000163078308,0.5168053507804871,-0.32010889053344727,0.0,0.0,0.0,1.2741485834121704,0.3990013003349304,0.7285812497138977,0.4220670163631439,0.480570912361145,-0.04922156035900116,-0.010468903928995132,-0.8755108118057251,1.9849025011062622,-1.547458291053772,-0.2143448144197464,-38.14637756347656,-25.293556213378906,14.452730178833008,0.3999607264995575,0.7433408498764038,0.42747947573661804,1.326587200164795,-1.4331517219543457,-0.3641144633293152,0.4522543251514435,0.6822963953018188,0.42000001668930054,-0.30289116501808167,0.7349804639816284,-1.2314256429672241,-2.999999523162842,-0.2225206196308136,-0.23068799078464508,-0.21549396216869354,-0.18998143076896667,0.4260949492454529,0.3316274583339691,0.2395753711462021,0.024304747581481934
0.5666666666666667,0.023791316896677017,0.026592805981636047,0.0,0.66401606798172,0.0,0.0,-0.747718334197998,0.2813880145549774,-0.06463673710823059,0.0,0.0,0.0,-2.1851892471313477,0.42009973526000977,0.7123057842254639,0.42152172327041626,0.4770364761352539,-0.02174711786210537,-0.021985143423080444,-0.8783392906188965,0.9130076169967651,-1.234391689300537,0.31642165780067444,19.02311897277832,7.254295825958252,2.3924572467803955,0.4191957712173462,0.7261573076248169,0.4272949695587158,1.0396513938903809,-0.8909304141998291,-0.10295092314481735,0.4522543251514435,0.6822963953018188,0.42000001668930054,-0.292000412940979,0.5414400696754456,-1.19338059425354,3.0000011920928955,-0.21495527029037476,-0.2246023416519165,-0.21156667172908783,-0.1901489943265915,0.4931970536708832,0.42115268111228943,0.2658996880054474,-0.00434380816295743
0.5833333333333334,0.03009142354130745,0.02217469923198223,0.0,0.6677035689353943,0.0,0.0,-0.7444272637367249,0.4133170545101166,-0.29556241631507874,0.0,0.0,0.0,1.4086508750915527,0.4324388802051544,0.6994062662124634,0.4211328625679016,0.48097172379493713,-0.020803824067115784,0.001255054259672761,-0.8764883279800415,0.3178613483905792,-0.8498975038528442,0.1328379511833191,2.7636256217956543,5.539797782897949,2.7912075519561768,0.43091487884521484,0.7121849060058594,0.4268103837966919,0.36906981468200684,-0.7188475131988525,0.07210616767406464,0.4522543251514435,0.6822963953018188,0.42000001668930054,-0.29090866446495056,-0.14153960347175598,-1.215024471282959,-2.999001979827881,-0.20605240762233734,-0.21632833778858185,-0.2059137225151062,-0.189014732837677,0.44423821568489075,0.4528703987598419,0.31145673990249634,0.056561633944511414
0.6,0.0384383462369442,0.02090754546225071,0.0,0.6602291464805603,0.0,0.0,-0.7510642409324646,0.5341784358024597,-0.02876603789627552,0.0,0.0,0.0,-2.0783796310424805,0.4377550780773163,0.6924315094947815,0.42000728845596313,0.5072253942489624,-9.528506780043244e-05,-0.00011009711306542158,-0.8618134260177612,0.1022847592830658,-0.17610181868076324,-0.0011308452812954783,0.020644305273890495,0.038658469915390015,4.450832366943359,0.43504226207733154,0.7052040100097656,0.42404240369796753,0.07405151426792145,-0.13576790690422058,-0.07323461025953293,0.4522543251514435,0.6822963953018188,0.42000001668930054,-0.30056071281433105,-0.8300861120223999,-1.1860690116882324,2.999782085418701,-0.19805729389190674,-0.20854593813419342,-0.2010502964258194,-0.18872255086898804,0.5652022957801819,0.5392244458198547,0.3407105803489685,0.054759230464696884
0.6166666666666667,0.04632889851927757,0.021579965949058533,0.0,0.6649971008300781,0.0,0.0,-0.7468459010124207,0.4416143596172333,0.14069482684135437,0.0,0.0,0.0,1.626638650894165,0.4389737546443939,0.6903681755065918,0.4200000464916229,0.5268030762672424,-7.117374138942978e-07,-2.216575012425892e-07,-0.8499873876571655,0.06400958448648453,-0.10645371675491333,-3.1548552215099335e-07,4.220952178002335e-05,1.6588247717663762e-06,2.250265598297119,0.435311496257782,0.70213782787323,0.4256700277328491,-0.05170847475528717,-0.14546458423137665,0.16788777709007263,0.4522543251514435,0.6822963953018188,0.42000001668930054,-0.3443565368652344,-3.0000009536743164,-1.207377314567566,-2.999807596206665,-0.18943804502487183,-0.2000095248222351,-0.1955958604812622,-0.18767572939395905,0.4553892910480499,0.46878939867019653,0.29662472009658813,0.051202382892370224
0.6333333333333333,0.05530553311109543,0.01850960962474346,0.0,0.6579608917236328,0.0,0.0,-0.7530521154403687,0.5179864168167114,-0.21055853366851807,0.0,0.0,0.0,-2.058828353881836,0.43953654170036316,0.6894524693489075,0.4200000464916229,0.5336207747459412,-2.423149965125049e-07,-2.8319869116444352e-08,-0.8457238674163818,0.023362042382359505,-0.03736462444067001,-1.3078097254037857e-06,5.738714025937952e-05,-2.8834887416451238e-05,0.5891892910003662,0.43583381175994873,0.7049849033355713,0.4291008412837982,0.004536829888820648,0.2850651443004608,0.233970046043396,0.4522543251514435,0.6822963953018188,0.42000001668930054,-0.3943471908569336,-3.000000238418579,-1.2573306560516357,-2.998781681060791,-0.17654456198215485,-0.18769939243793488,-0.18701089918613434,-0.18377651274204254,0.7305383682250977,0.7273263931274414,0.5248578786849976,0.27001649141311646
0.65,0.0663037821650505,0.019664550200104713,0.0,0.6627312302589417,0.0,0.0,-0.748857319355011,0.6841846704483032,0.07355549931526184,0.0,0.0,0.0,1.6279643774032593,0.4395606517791748,0.6894152760505676,0.4200000464916229,0.5338022112846375,-1.1633150052148267e-06,-1.1653429510261049e-06,-0.8456093072891235,-2.8660331736318767e-05,-3.877078415825963e-05,-4.2522093281149864e-05,1.875951056717895e-05,-0.000333881180267781,-0.00013271869102027267,0.43544381856918335,0.7076855301856995,0.4334225058555603,0.06496567279100418,0.18170961737632751,0.29563963413238525,0.4522543251514435,0.6822963953018188,0.42000001668930054,-0.4443610906600952,-3.000000238418579,-1.3073490858078003,-2.999999523162842,-0.16931812465190887,-0.17966769635677338,-0.18134675920009613,-0.18127793073654175,0.44550150632858276,0.48225656151771545,0.3426325023174286,0.16524051129817963
0.6666666666666666,0.07866168767213821,0.01772555708885193,0.0,0.6598491668701172,0.0,0.0,-0.7513980865478516,0.7743104696273804,-0.15818578004837036,0.0,0.0,0.0,-1.630133032798767,0.43956053256988525,0.689415454864502,0.41999998688697815,0.5338025093078613,-3.176133759552613e-06,-3.807370148933842e-06,-0.845609188079834,-5.4808602726552635e-05,-0.0003164865483995527,-8.978834375739098e-05,0.008469446562230587,-0.0036095213145017624,-0.0007665688754059374,0.43683725595474243,0.7110759615898132,0.4366709887981415,0.07212062925100327,0.1709928959608078,0.29677653312683105,0.4522543251514435,0.6822963953018188,0.42000001668930054,-0.49434810876846313,-2.9997692108154297,-1.3573342561721802,-2.999999761581421,-0.16240200400352478,-0.17173580825328827,-0.1750536859035492,-0.17709748446941376,0.34448322653770447,0.43506747484207153,0.3815130293369293,0.30634307861328125
0.6833333333333333,0.0927671417593956,0.012292185798287392,0.0,0.6343739628791809,0.0,0.0,-0.7730262875556946,0.882830023765564,-0.39915820956230164,0.0,0.0,0.0,-4.905933380126953,0.43956056237220764,0.689415454864502,0.41999998688697815,0.5338025689125061,-3.0543321827281034e-06,-4.275041192158824e-06,-0.845609188079834,-5.0794264097930863e-05,-0.0003161791537422687,-8.864630945026875e-05,0.008462706580758095,-0.0035714346449822187,-0.0007730983779765666,0.4428662657737732,0.7145003080368042,0.4473552703857422,0.6809033155441284,0.18631109595298767,1.1125226020812988,0.4522543251514435,0.6822963953018188,0.42000001668930054,-0.5443605184555054,-2.9999332427978516,-1.4073528051376343,-2.9999938011169434,-0.15961803495883942,-0.16705338656902313,-0.1706017404794693,-0.17313243448734283,0.050599001348018646,0.18316183984279633,0.20243947207927704,0.21099206805229187
0.7,0.11008165776729584,0.011503459885716438,0.0,0.6215978264808655,0.0,0.0,-0.7833365797996521,1.0085899829864502,0.0022468101233243942,0.0,0.0,0.0,-0.9624394178390503,0.43956056237220764,0.689415454864502,0.41999998688697815,0.5338026881217957,-3.204615040885983e-06,-4.1436601350142155e-06,-0.8456090092658997,-5.076415982330218e-05,-0.00031636544736102223,-8.861441165208817e-05,0.008469532243907452,-0.003577005583792925,-0.0007733831880614161,0.45449167490005493,0.7198532819747925,0.47217002511024475,0.7815585136413574,0.5693109631538391,1.7956478595733643,0.4522543251514435,0.6822963953018188,0.42000001668930054,-0.5871872305870056,-2.177900552749634,-1.4573711156845093,-2.9999988079071045,-0.16389457881450653,-0.16880279779434204,-0.1715545654296875,-0.17349843680858612,-0.15973520278930664,-0.06835215538740158,-0.06534572690725327,-0.06819531321525574
0.7166666666666667,0.12350931763648987,0.012161060236394405,0.0,0.6331897974014282,0.0,0.0,-0.7739965319633484,0.729178249835968,0.08518031239509583,0.0,0.0,0.0,2.6670544147491455,0.43956056237220764,0.689415454864502,0.41999998688697815,0.533802330493927,-3.1084705369721632e-06,-3.793902124016313e-06,-0.845609188079834,-5.5087628425098956e-05,-0.0003169528499711305,-9.05089545994997e-05,0.008467347361147404,-0.0035987887531518936,-0.0007682864088565111,0.47101354598999023,0.7278178334236145,0.49465805292129517,1.0219979286193848,0.4320277273654938,0.9973206520080566,0.4522543251514435,0.6822963953018188,0.42000001668930054,-0.5950279831886292,0.966690182685852,-1.5073894262313843,-3.000000238418579,-0.16457590460777283,-0.16833190619945526,-0.17114195227622986,-0.1731579601764679,-0.007086549419909716,0.06326229125261307,0.07098161429166794,0.07755915820598602
0.7333333333333333,0.13220058381557465,0.00858065765351057,0.0,0.6325100064277649,0.0,0.0,-0.7745522260665894,0.4796960651874542,-0.2510294020175934,0.0,0.0,0.0,-1.07968008518219,0.43956056237220764,0.689415454864502,0.41999998688697815,0.5338025093078613,-3.193646307408926e-06,-4.203942353342427e-06,-0.845609188079834,-5.01766953675542e-05,-0.00031637714710086584,-8.843280375003815e-05,0.008470888249576092,-0.003574951086193323,-0.0007745036273263395,0.48248180747032166,0.7344838380813599,0.5048743486404419,0.3241831064224243,0.23358814418315887,0.3962932825088501,0.4522543251514435,0.6822963953018188,0.42000001668930054,-0.6029809713363647,-1.6827011108398438,-1.4686436653137207,2.999999523162842,-0.16222138702869415,-0.16507644951343536,-0.16787491738796234,-0.169904887676239,0.006704198196530342,0.0955374464392662,0.13603021204471588,0.1698703169822693
0.75,0.13741114735603333,0.00993269681930542,0.0,0.6431142091751099,0.0,0.0,-0.7657702565193176,0.2594515085220337,0.07039549946784973,0.0,0.0,0.0,2.4184958934783936,0.43956053256988525,0.689415454864502,0.41999998688697815,0.5338026285171509,-3.1846896035858663e-06,-4.093085863132728e-06,-0.8456090092658997,-5.1104685553582385e-05,-0.00031637094798497856,-8.873525075614452e-05,0.008468814194202423,-0.0035782731138169765,-0.0007728039636276662,0.486952543258667,0.7371484041213989,0.510212779045105,0.32018160820007324,0.25876951217651367,0.2449689507484436,0.4522543251514435,0.6822963953018188,0.42000001668930054,-0.6034864783287048,1.359049916267395,-1.4854316711425781,-3.000000238418579,-0.1667214035987854,-0.16740301251411438,-0.16876578330993652,-0.16957049071788788,-0.1303219199180603,-0.049181874841451645,-0.0015682126395404339,0.037371840327978134
0.7666666666666666,0.1391206681728363,0.006844289600849152,0.0,0.6405932903289795,0.0,0.0,-0.767880380153656,0.061708513647317886,-0.27053332328796387,0.0,0.0,0.0,-1.3032554388046265,0.43956053256988525,0.689415454864502,0.41999998688697815,0.5338024497032166,-3.0948672247177456e-06,-3.87439922633348e-06,-0.845609188079834,-5.354926543077454e-05,-0.00031687357113696635,-9.004469029605389e-05,0.00846683420240879,-0.003586557926610112,-0.000770903192460537,0.4869389533996582,0.7404395937919617,0.5087547302246094,-0.311659038066864,0.1217842847108841,-0.24137204885482788,0.4522543251514435,0.6822963953018188,0.42000001668930054,-0.6105093955993652,-1.9120830297470093,-1.4467493295669556,3.0,-0.16794461011886597,-0.16742214560508728,-0.16800403594970703,-0.16815924644470215,-0.06472267955541611,0.008793989196419716,0.06248879432678223,0.10753078758716583
0.7833333333333333,0.14289171993732452,0.00878584198653698,0.0,0.6499639749526978,0.0,0.0,-0.7599650025367737,0.15904013812541962,0.16071581840515137,0.0,0.0,0.0,2.1517891883850098,0.43956053256988525,0.689415454864502,0.41999998688697815,0.5338025093078613,-3.343708613101626e-06,-4.127462943870341e-06,-0.8456091284751892,-5.178750870982185e-05,-0.0003161989734508097,-8.8902423158288e-05,0.00846325047314167,-0.0035799567122012377,-0.000771190389059484,0.4829457998275757,0.740727424621582,0.5066840052604675,-0.10505340993404388,0.18376843631267548,-0.016153495758771896,0.4522543251514435,0.6822963953018188,0.42000001668930054,-0.6174004673957825,0.8484216928482056,-1.463992953300476,-2.999999761581421,-0.17464901506900787,-0.17205369472503662,-0.1707766205072403,-0.16922065615653992,-0.25886857509613037,-0.18516670167446136,-0.10978908836841583,-0.03285606577992439
0.8,0.14471597969532013,0.006785399280488491,0.0,0.647100031375885,0.0,0.0,-0.7624050974845886,0.09172782301902771,-0.15228746831417084,0.0,0.0,0.0,-1.251801609992981,0.43956053256988525,0.689415454864502,0.41999998688697815,0.5338025689125061,-3.4234906252095243e-06,-4.142587386013474e-06,-0.8456091284751892,-5.5107029766077176e-05,-0.000316016492433846,-8.994783274829388e-05,0.008451408706605434,-0.003594276960939169,-0.000764594180509448,0.48030439019203186,0.7424649000167847,0.5047767162322998,-0.2500172257423401,-0.0834682360291481,-0.072661392390728,0.4522543251514435,0.6822963953018188,0.42000001668930054,-0.6413456797599792,-3.0000009536743164,-1.4253733158111572,2.999999523162842,-0.1769070029258728,-0.17333537340164185,-0.17089657485485077,-0.16806305944919586,-0.2572461664676666,-0.16642972826957703,-0.06005021557211876,0.05316478759050369
0.8166666666666667,0.14830631017684937,0.0053255134262144566,0.0,0.6243612766265869,0.0,0.0,-0.7811357378959656,0.26445114612579346,-0.05939941108226776,0.0,0.0,0.0,-4.503999710083008,0.43956056237220764,0.689415454864502,0.41999998688697815,0.5338026285171509,-3.225239197490737e-06,-4.115166575502371e-06,-0.8456091284751892,-5.021012475481257e-05,-0.00031622755341231823,-8.839508518576622e-05,0.008467159233987331,-0.0035714670084416866,-0.0007738652057014406,0.4813777506351471,0.7434020638465881,0.5071706175804138,0.3743813633918762,0.14443734288215637,0.47569307684898376,0.4522543251514435,0.6822963953018188,0.42000001668930054,-0.6816474199295044,-1.896364688873291,-1.4430466890335083,-3.0,-0.18059761822223663,-0.17619957029819489,-0.17249709367752075,-0.1681462675333023,-0.15024349093437195,-0.13243481516838074,-0.08119619637727737,-0.009110548533499241
0.8333333333333334,0.15431123971939087,0.006868141703307629,0.0,0.6161510944366455,0.0,0.0,-0.7876279354095459,0.3947414755821228,0.15886849164962769,0.0,0.0,0.0,-0.27378228306770325,0.43956056237220764,0.689415454864502,0.41999998688697815,0.5338026285171509,-3.203490450687241e-06,-4.171550244791433e-06,-0.8456091284751892,-5.069654434919357e-05,-0.0003163530200254172,-8.85864719748497e-05,0.008469506166875362,-0.003576186252757907,-0.0007734398823231459,0.4863399863243103,0.7488023638725281,0.5172640085220337,0.20977149903774261,0.48572105169296265,0.7409615516662598,0.4522543251514435,0.6822963953018188,0.42000001668930054,-0.6822043061256409,1.531901478767395,-1.4930649995803833,-3.0,-0.18279436230659485,-0.17864440381526947,-0.1746436059474945,-0.16967695951461792,-0.09262818843126297,-0.1346093863248825,-0.14669066667556763,-0.14296618103981018
0.85,0.15763092041015625,0.004811536520719528,0.0,0.630824863910675,0.0,0.0,-0.7759252190589905,0.13745255768299103,-0.17190809547901154,0.0,0.0,0.0,2.9131414890289307,0.43956056237220764,0.689415454864502,0.41999998688697815,0.5338026881217957,-3.347374558870797e-06,-3.995464339823229e-06,-0.8456090688705444,-5.3858682804275304e-05,-0.00031618797220289707,-8.953362703323364e-05,0.0084597859531641,-0.0035915211774408817,-0.0007673267391510308,0.4861683249473572,0.7544843554496765,0.5258945226669312,-0.27116990089416504,0.19977690279483795,0.3464362919330597,0.4522543251514435,0.6822963953018188,0.42000001668930054,-0.6737344861030579,-0.36045363545417786,-1.4543540477752686,3.0000007152557373,-0.18288715183734894,-0.17912176251411438,-0.17505785822868347,-0.16983139514923096,-0.07734164595603943,-0.0652317926287651,-0.03055141679942608,0.01014292985200882
0.8666666666666667,0.1577816903591156,0.0007505281246267259,0.0,0.6298072934150696,0.0,0.0,-0.7767514586448669,-0.03463693708181381,-0.3315774202346802,0.0,0.0,0.0,-1.1073338985443115,0.43956056237220764,0.689415454864502,0.41999998688697815,0.5338025093078613,-3.0773192065680632e-06,-4.20770948039717e-06,-0.845609188079834,-5.0169699534308165e-05,-0.0003164070949424058,-8.850870653986931e-05,0.008469676598906517,-0.0035711675882339478,-0.0007745385519228876,0.4814262390136719,0.757805347442627,0.5279407501220703,-0.2924681007862091,0.203622967004776,0.05139555037021637,0.4522543251514435,0.6822963953018188,0.42000001668930054,-0.6699472665786743,0.7184240818023682,-1.457236409187317,-2.8371756076812744,-0.18518653512001038,-0.1809898167848587,-0.17614302039146423,-0.17006438970565796,-0.10632170736789703,-0.08095980435609818,-0.035823192447423935,0.012610258534550667
0.8833333333333333,0.1611340492963791,0.0008332339348271489,0.0,0.6409533619880676,0.0,0.0,-0.7675798535346985,0.31370487809181213,0.2080027014017105,0.0,0.0,0.0,2.715571641921997,0.43956056237220764,0.689415454864502,0.41999998688697815,0.5338026285171509,-3.196680154360365e-06,-4.0971663111122325e-06,-0.8456090092658997,-5.0999686209252104e-05,-0.0003163745568599552,-8.870684541761875e-05,0.008469018153846264,-0.0035778768360614777,-0.0007730118231847882,0.47496333718299866,0.7574122548103333,0.5305464267730713,-0.4388903081417084,-0.11998707056045532,0.30184608697891235,0.4522543251514435,0.6822963953018188,0.42000001668930054,-0.660592794418335,0.4207577109336853,-1.417986273765564,3.000000476837158,-0.1925051510334015,-0.18670965731143951,-0.18002121150493622,-0.17215171456336975,-0.5456569790840149,-0.4303246736526489,-0.3015787601470947,-0.1767635941505432
