vladlanda/robotic-transformer/data/env_000_episode_0174.csv
sim_time_s,robot_box_x,robot_box_y,robot_box_z,robot_box_quat_w,robot_box_quat_x,robot_box_quat_y,robot_box_quat_z,robot_box_linvel_x,robot_box_linvel_y,robot_box_linvel_z,robot_box_angvel_x,robot_box_angvel_y,robot_box_angvel_z,cube_world_x,cube_world_y,cube_world_z,cube_quat_w,cube_quat_x,cube_quat_y,cube_quat_z,cube_linvel_x,cube_linvel_y,cube_linvel_z,cube_angvel_x,cube_angvel_y,cube_angvel_z,endpoint_world_x,endpoint_world_y,endpoint_world_z,endpoint_linvel_x,endpoint_linvel_y,endpoint_linvel_z,target_cube_world_x,target_cube_world_y,target_cube_world_z,gripper_actual_pos_rad_gp_leftgearjoint,gripper_actual_vel_rad_s_gp_leftgearjoint,gripper_actual_pos_rad_gp_rotatingjoint,gripper_actual_vel_rad_s_gp_rotatingjoint,motor_angle_rad_joint1,motor_angle_rad_joint2,motor_angle_rad_joint3,motor_angle_rad_joint4,motor_speed_rad_s_joint1,motor_speed_rad_s_joint2,motor_speed_rad_s_joint3,motor_speed_rad_s_joint4
0.0,0.0,0.0,0.0,1.0,0.0,0.0,0.0,0.0,0.0,0.0,0.0,0.0,0.0,-0.3928942382335663,0.6844689846038818,0.41999998688697815,1.0,0.0,0.0,0.0,0.0,0.0,0.0,0.0,0.0,0.0,3.42540442943573e-06,-0.005000244826078415,1.313499927520752,0.0,0.0,0.0,0.45475709438323975,0.6339454650878906,0.42000001668930054,-1.5707999467849731,0.0,0.0,0.0,0.0,0.0,0.0,0.0,0.0,0.0,0.0,0.0
0.016666666666666666,0.0028778850100934505,0.0021806680597364902,0.0,0.9998081922531128,0.0,0.0,0.019586581736803055,0.24087215960025787,0.18240931630134583,0.0,0.0,0.0,3.1418697834014893,-0.39289435744285583,0.684468686580658,0.41999998688697815,1.0,3.279964630564791e-06,-8.339746386809566e-07,8.465587342243452e-08,-1.9833529222523794e-05,0.00017983045836444944,-6.132945418357849e-05,0.0009432713268324733,-0.004689474124461412,-0.00031981561915017664,-0.007110234349966049,0.003379564033821225,1.3159373998641968,-0.8143353462219238,0.9868683815002441,0.18095196783542633,0.45475709438323975,0.6339454650878906,0.42000001668930054,-1.5301095247268677,3.0000011920928955,-0.04584788903594017,-2.9999992847442627,0.0008691533003002405,0.0007963840034790337,0.0007110277656465769,0.0006108740926720202,0.11094217747449875,0.09756709635257721,0.08334315568208694,0.06823883205652237
0.03333333333333333,0.00896098930388689,0.006801970303058624,0.0,0.9997960329055786,0.0,0.0,0.020196842029690742,0.4070219397544861,0.31530821323394775,0.0,0.0,0.0,-0.8691314458847046,-0.3928944766521454,0.6844686269760132,0.4200000464916229,1.0,3.3908179375430336e-06,-2.132458348569344e-06,-3.7097745320124886e-08,0.00026357852038927376,0.00026937833172269166,-0.00010509369894862175,-0.0017707126680761576,0.004130884539335966,-0.0001354814594378695,-0.027552228420972824,0.02616804651916027,1.3166009187698364,-1.591436505317688,1.6158795356750488,-0.08441472053527832,0.45475709438323975,0.6339454650878906,0.42000001668930054,-1.4800903797149658,3.0000016689300537,-0.0958876982331276,-3.000000238418579,0.0029901182278990746,0.002652732189744711,0.0022773053497076035,0.0018607642268761992,0.16421733796596527,0.1397612988948822,0.11382047086954117,0.08630288392305374
0.05,0.018456678837537766,0.013878943398594856,0.0,0.9999819993972778,0.0,0.0,-0.005996914114803076,0.6361066699028015,0.47162967920303345,0.0,0.0,0.0,-4.077619552612305,-0.3928945064544678,0.684468686580658,0.4200000464916229,1.0,3.7651293496310245e-06,-2.2119379536889028e-06,5.6273887771851605e-09,0.0002653067058417946,0.00026691422681324184,-0.00010440615005791187,-0.0017243530601263046,0.00417736079543829,-0.00012949267693329602,-0.057261716574430466,0.057095322757959366,1.3119721412658691,-1.9547743797302246,2.030231237411499,-0.4512041211128235,0.45475709438323975,0.6339454650878906,0.42000001668930054,-1.4300720691680908,3.0000014305114746,-0.14592638611793518,-3.0000007152557373,0.006007714197039604,0.005169358104467392,0.004258527420461178,0.0032710344530642033,0.20726612210273743,0.16690587997436523,0.12462946772575378,0.08035541325807571
0.06666666666666667,0.030762245878577232,0.0233541801571846,0.0,0.9998957514762878,0.0,0.0,-0.01444066409021616,0.7724456191062927,0.6153677105903625,0.0,0.0,0.0,-0.042914729565382004,-0.3928945064544678,0.6844686269760132,0.4200000464916229,0.9999999403953552,3.406754103707499e-06,-2.2856077066535363e-06,4.300980265270482e-07,0.0002670255198609084,0.0002679179306142032,-0.0001043803058564663,-0.001740670995786786,0.004211848136037588,-0.00012850687198806554,-0.09438793361186981,0.08994102478027344,1.301272988319397,-2.3516783714294434,2.083730459213257,-0.822418212890625,0.45475709438323975,0.6339454650878906,0.42000001668930054,-1.3800444602966309,2.9999990463256836,-0.1303194910287857,3.0000014305114746,0.008688087575137615,0.007124819327145815,0.005449548363685608,0.003655283944681287,0.14634092152118683,0.09485022723674774,0.041207313537597656,-0.01461369264870882
0.08333333333333333,0.03680545836687088,0.03666302561759949,0.0,0.9992637038230896,0.0,0.0,-0.03836725279688835,0.2264944612979889,0.8744133114814758,0.0,0.0,0.0,-3.8137612342834473,-0.3928945064544678,0.6844686269760132,0.4200000464916229,1.0,3.697269221447641e-06,-2.188940243286197e-06,-2.6321629320591455e-07,0.00026389610138721764,0.0002658638986758888,-0.00010433932766318321,-0.0017081708647310734,0.004150133114308119,-0.00012991161202080548,-0.12812396883964539,0.1287660300731659,1.2854316234588623,-1.732011079788208,2.5798211097717285,-0.9946927428245544,0.45475709438323975,0.6339454650878906,0.42000001668930054,-1.3300373554229736,3.0000007152557373,-0.16224171221256256,-3.0000016689300537,0.004870875272899866,0.002561438363045454,8.601902663940564e-05,-0.002565598115324974,-0.3559396266937256,-0.4157513678073883,-0.47834137082099915,-0.5439165234565735
0.1,0.04664389789104462,0.051597293466329575,0.0,0.9960396885871887,0.0,0.0,-0.08890938758850098,0.7369701266288757,0.9029249548912048,0.0,0.0,0.0,-6.975235939025879,-0.3928945064544678,0.6844686269760132,0.4200000464916229,0.9999999403953552,3.6203723539074417e-06,-2.2652432107861387e-06,1.7462606649587542e-07,0.00026676998822949827,0.00026740916655398905,-0.0001040794886648655,-0.0017386159161105752,0.0042092096991837025,-0.00012775268987752497,-0.159393772482872,0.17384612560272217,1.2678197622299194,-1.992372989654541,2.8557300567626953,-1.1718502044677734,0.45475709438323975,0.6339454650878906,0.42000001668930054,-1.2800266742706299,2.999998092651367,-0.18624182045459747,-0.1073419600725174,0.003446870716288686,-0.00037744679138995707,-0.004372152499854565,-0.008547448553144932,0.01161076407879591,-0.08698275685310364,-0.18461161851882935,-0.28120148181915283
0.11666666666666667,0.055152662098407745,0.06364186853170395,0.0,0.9926859140396118,0.0,0.0,-0.12072567641735077,0.537577211856842,0.6854267120361328,0.0,0.0,0.0,-2.585111618041992,-0.3928945064544678,0.6844686269760132,0.4200000464916229,1.0,3.7983443235134473e-06,-2.2628721580986166e-06,-1.5019327292975504e-07,0.00026374091976322234,0.0002656608703546226,-0.00010428996756672859,-0.0017054241616278887,0.004147560801357031,-0.00012980113388039172,-0.19560742378234863,0.21863970160484314,1.24647855758667,-2.0938775539398193,2.898782253265381,-1.2917594909667969,0.45475709438323975,0.6339454650878906,0.42000001668930054,-1.2300198078155518,3.000000238418579,-0.18541139364242554,0.17779481410980225,0.001416376675479114,-0.004018259234726429,-0.009598229080438614,-0.015333160758018494,-0.035961806774139404,-0.15436096489429474,-0.2695535123348236,-0.3813486695289612
0.13333333333333333,0.061491016298532486,0.07285338640213013,0.0,0.9867585301399231,0.0,0.0,-0.16219618916511536,0.3281686305999756,0.4806410074234009,0.0,0.0,0.0,-5.806667804718018,-0.3928945064544678,0.684468686580658,0.4200000464916229,0.9999999403953552,3.550494056980824e-06,-2.2298402200249257e-06,2.929137679075211e-07,0.00026703279581852257,0.0002677927550394088,-0.00010417005978524685,-0.0017440064111724496,0.00421349098905921,-0.00012799979595001787,-0.22860056161880493,0.2713730037212372,1.2222697734832764,-1.8186919689178467,3.4906673431396484,-1.5997570753097534,0.45475709438323975,0.6339454650878906,0.42000001668930054,-1.1800119876861572,2.9999992847442627,-0.14903156459331512,3.0000014305114746,-0.000706350605469197,-0.008051276206970215,-0.015479080379009247,-0.02299686148762703,-0.17929889261722565,-0.2892903685569763,-0.3952295780181885,-0.4969560503959656
0.15,0.06388963758945465,0.08260194212198257,0.0,0.9831563234329224,0.0,0.0,-0.18276651203632355,0.06357841193675995,0.6206653714179993,0.0,0.0,0.0,-1.3449991941452026,-0.3928945064544678,0.6844686269760132,0.4200000464916229,0.9999999403953552,3.3380551940354053e-06,-2.242888285763911e-06,-2.8010754604679278e-08,0.0002667464141268283,0.00026758297462947667,-0.00010427739471197128,-0.0017367892432957888,0.0042068264447152615,-0.00012831403000745922,-0.2648922801017761,0.3254691958427429,1.189957857131958,-2.170701026916504,3.3641514778137207,-2.2793898582458496,0.45475709438323975,0.6339454650878906,0.42000001668930054,-1.142914891242981,1.5490542650222778,-0.1808026283979416,-3.0000007152557373,-0.005176360718905926,-0.014032508246600628,-0.02289336547255516,-0.03176469728350639,-0.33946388959884644,-0.4090114235877991,-0.4740442633628845,-0.5345918536186218
0.16666666666666666,0.06939040869474411,0.09165435284376144,0.0,0.9765349626541138,0.0,0.0,-0.21535901725292206,0.3694697618484497,0.5167954564094543,0.0,0.0,0.0,-4.7079362869262695,-0.3928945064544678,0.684468686580658,0.4200000464916229,0.9999999403953552,3.6477645153354388e-06,-2.307274144186522e-06,3.529925152179203e-08,0.00026726932264864445,0.0002680148754734546,-0.0001041884534060955,-0.0017472195904701948,0.004217570647597313,-0.000127984574646689,-0.30039405822753906,0.38660889863967896,1.1449368000030518,-2.013227939605713,3.923649311065674,-3.112473249435425,0.45475709438323975,0.6339454650878906,0.42000001668930054,-1.096392273902893,3.0000007152557373,-0.16550171375274658,3.0,-0.0107682840898633,-0.020492181181907654,-0.030156344175338745,-0.03976929560303688,-0.4847121834754944,-0.5039197206497192,-0.5208112597465515,-0.5356255769729614
0.18333333333333332,0.07102582603693008,0.10297028720378876,0.0,0.9620341062545776,0.0,0.0,-0.27292925119400024,0.06306637078523636,0.7241384387016296,0.0,0.0,0.0,-7.949721336364746,-0.3928945064544678,0.6844686269760132,0.4200000464916229,0.9999999403953552,3.2904786166909616e-06,-2.1938897134532453e-06,-2.792105249227461e-07,0.00026678101858124137,0.00026776143931783736,-0.00010434072464704514,-0.0017391619039699435,0.0042070201598107815,-0.00012845500896219164,-0.3302125632762909,0.4554806351661682,1.0865521430969238,-1.445597767829895,4.399271488189697,-3.7389726638793945,0.45475709438323975,0.6339454650878906,0.42000001668930054,-1.0463923215866089,2.999999523162842,-0.19720709323883057,-3.0,-0.023753611370921135,-0.033328909426927567,-0.04282164201140404,-0.05224934220314026,-0.7872794270515442,-0.7835536599159241,-0.7776800394058228,-0.7700569033622742
0.2,0.07743203639984131,0.11050834506750107,0.0,0.9503320455551147,0.0,0.0,-0.3112378716468811,0.4104798436164856,0.36733537912368774,0.0,0.0,0.0,-3.527644634246826,-0.3928945064544678,0.6844686269760132,0.4200000464916229,1.0,3.280698592789122e-06,-2.2191520656633656e-06,1.5949687792726763e-07,0.00026627854094840586,0.0002674016577657312,-0.0001042510848492384,-0.0017356991302222013,0.004197761882096529,-0.00012865323515143245,-0.35686078667640686,0.5232938528060913,1.0172338485717773,-1.3010342121124268,4.094794273376465,-4.606670379638672,0.45475709438323975,0.6339454650878906,0.42000001668930054,-0.9963908791542053,2.999997854232788,-0.24723400175571442,-2.9999990463256836,-0.035583797842264175,-0.044745635241270065,-0.05380915477871895,-0.06280212849378586,-0.8712158799171448,-0.8091216683387756,-0.7481439709663391,-0.6890268325805664
0.21666666666666667,0.07799112051725388,0.12137983739376068,0.0,0.9483898878097534,0.0,0.0,-0.31710660457611084,0.04252926632761955,0.6213523149490356,0.0,0.0,0.0,0.3291896879673004,-0.3928945064544678,0.684468686580658,0.4200000464916229,1.0,3.6131289107288467e-06,-2.270098320877878e-06,2.2102773300503031e-07,0.00026712726685218513,0.0002678176388144493,-0.00010414118878543377,-0.0017445299308747053,0.004215225111693144,-0.00012786460865754634,-0.38072603940963745,0.5763957500457764,0.9332878589630127,-1.2600808143615723,2.8405709266662598,-5.292179107666016,0.45475709438323975,0.6339454650878906,0.42000001668930054,-0.9463818073272705,2.999993324279785,-0.2972632944583893,-2.999997854232788,-0.05157984793186188,-0.06075035408139229,-0.06982351839542389,-0.07875636965036392,-0.64664626121521,-0.7010117173194885,-0.7512823939323425,-0.7964306473731995
0.23333333333333334,0.07763682305812836,0.12720167636871338,0.0,0.942060649394989,0.0,0.0,-0.33544260263442993,-0.06832456588745117,0.2677999436855316,0.0,0.0,0.0,-3.195625066757202,-0.3928945064544678,0.6844686269760132,0.4200000464916229,1.0,3.3818575957411667e-06,-2.290973952767672e-06,2.7281259917799616e-07,0.00026691483799368143,0.00026780000189319253,-0.00010433257557451725,-0.0017395805334672332,0.004209765233099461,-0.0001284360041609034,-0.39917871356010437,0.6221808195114136,0.8396283388137817,-0.8849877119064331,2.459085464477539,-5.845133304595947,0.45475709438323975,0.6339454650878906,0.42000001668930054,-0.8963716626167297,2.9999969005584717,-0.34729447960853577,-2.9999992847442627,-0.06285034865140915,-0.07260261476039886,-0.08219947665929794,-0.09158845245838165,-0.7480613589286804,-0.7599393129348755,-0.7694041132926941,-0.7762183547019958
0.25,0.07350847870111465,0.135470911860466,0.0,0.9413793087005615,0.0,0.0,-0.3373500108718872,-0.2893700897693634,0.48177775740623474,0.0,0.0,0.0,0.6675829291343689,-0.3928944766521454,0.6844686269760132,0.4200000464916229,0.9999999403953552,3.7065874494146556e-06,-2.222986267952365e-06,-2.2550398171006236e-07,0.00026424622046761215,0.00026656605768948793,-0.00010457751341164112,-0.0017168939812108874,0.004155486822128296,-0.00013062988000456244,-0.4140172004699707,0.6531655788421631,0.7406399846076965,-0.802737295627594,1.325506567955017,-5.960103988647461,0.45475709438323975,0.6339454650878906,0.42000001668930054,-0.8463616371154785,2.9999966621398926,-0.39732614159584045,-2.9999990463256836,-0.07858788967132568,-0.08839143067598343,-0.09785626828670502,-0.10699789226055145,-0.8019324541091919,-0.8334263563156128,-0.8626223206520081,-0.8886783123016357
0.26666666666666666,0.07365832477807999,0.13887955248355865,0.0,0.9359457492828369,0.0,0.0,-0.3521442711353302,0.0023065824061632156,0.1875872164964676,0.0,0.0,0.0,-2.3716697692871094,-0.3928945064544678,0.6844686269760132,0.4200000464916229,0.9999999403953552,3.7197082747297827e-06,-2.4034441139519913e-06,-1.830746896303026e-07,0.0002662326442077756,0.0002672917617019266,-0.00010425853542983532,-0.0017327014356851578,0.004196543712168932,-0.00012851170322392136,-0.42395341396331787,0.6734783053398132,0.6362558603286743,-0.2752404808998108,0.8123891353607178,-6.359546184539795,0.45475709438323975,0.6339454650878906,0.42000001668930054,-0.7963528037071228,2.999995231628418,-0.44735756516456604,-2.99999737739563,-0.09192381799221039,-0.10201035439968109,-0.11175339668989182,-0.121132493019104,-0.996283233165741,-0.9965294599533081,-0.9967343807220459,-0.9969188570976257
0.2833333333333333,0.07011256366968155,0.1400635987520218,0.0,0.9374380707740784,0.0,0.0,-0.3481520712375641,-0.30354562401771545,0.04363793507218361,0.0,0.0,0.0,1.3612806797027588,-0.3928945064544678,0.684468686580658,0.4200000464916229,0.9999999403953552,3.584110345400404e-06,-2.315385700057959e-06,7.404764090779281e-08,0.0002652206749189645,0.00026455355691723526,-0.00010317307896912098,-0.0017021505627781153,0.004185084719210863,-0.00012499569857027382,-0.42481449246406555,0.6814383268356323,0.536443829536438,0.2644003629684448,0.1656211018562317,-5.563521385192871,0.45475709438323975,0.6339454650878906,0.42000001668930054,-0.7463440299034119,3.0000016689300537,-0.49738767743110657,-3.000000238418579,-0.10977447032928467,-0.11957840621471405,-0.12911051511764526,-0.1383255422115326,-1.0152353048324585,-1.0114847421646118,-1.0086275339126587,-1.0063525438308716
0.3,0.06268163025379181,0.13921204209327698,0.0,0.9334292411804199,0.0,0.0,-0.35876157879829407,-0.4121386408805847,-0.12831419706344604,0.0,0.0,0.0,-2.164931297302246,-0.3928945064544678,0.6844686269760132,0.4200000464916229,1.0,3.7243103179207537e-06,-2.2717667889082804e-06,9.635199660351645e-08,0.00026312642148695886,0.0002652582770679146,-0.00010438216850161552,-0.0016961309593170881,0.004134850110858679,-0.00013027526438236237,-0.4132625460624695,0.6828844547271729,0.44641873240470886,1.058347463607788,0.07067924737930298,-5.17373514175415,0.45475709438323975,0.6339454650878906,0.42000001668930054,-0.6963363885879517,2.999993085861206,-0.5474157333374023,-3.0,-0.12685105204582214,-0.13653098046779633,-0.14600111544132233,-0.15518486499786377,-0.8372945189476013,-0.8701702952384949,-0.9023141860961914,-0.931659460067749
0.31666666666666665,0.054381027817726135,0.13535696268081665,0.0,0.9354150891304016,0.0,0.0,-0.3535514771938324,-0.5391925573348999,-0.2721100151538849,0.0,0.0,0.0,1.5480241775512695,-0.3928934633731842,0.6844689249992371,0.4200001657009125,0.9999999403953552,1.2877214885520516e-06,1.0507175829843618e-05,-8.472506124235224e-06,-0.00048728444380685687,-0.00023104727733880281,-0.00013244360161479563,0.005941682495176792,0.0018406187882646918,0.03336704149842262,-0.40531599521636963,0.6861929893493652,0.41715580224990845,0.29254740476608276,0.2302500456571579,-0.15877702832221985,0.45475709438323975,0.6339454650878906,0.42000001668930054,-0.6464484333992004,2.9644510746002197,-0.5979401469230652,-2.8592400550842285,-0.13511362671852112,-0.14516212046146393,-0.15482006967067719,-0.1639510840177536,-0.29899004101753235,-0.30029308795928955,-0.28088515996932983,-0.23598365485668182
0.3333333333333333,0.043836694210767746,0.12916049361228943,0.0,0.9317758083343506,0.0,0.0,-0.363034188747406,-0.678207278251648,-0.41236308217048645,0.0,0.0,0.0,-2.1269516944885254,-0.3911513388156891,0.6870418787002563,0.4202764332294464,0.9997375011444092,0.0068932101130485535,4.7949200961738825e-05,-0.021844949573278427,0.26447784900665283,0.36771905422210693,0.046838365495204926,2.3903515338897705,-0.03927512466907501,-5.505705833435059,-0.40262895822525024,0.692246675491333,0.4225373864173889,0.2699572443962097,0.403835654258728,-0.15195584297180176,0.45475709438323975,0.6339454650878906,0.42000001668930054,-0.5964367389678955,2.9999825954437256,-0.6480136513710022,-3.000000238418579,-0.13946807384490967,-0.1492595374584198,-0.15829527378082275,-0.1663760542869568,-0.3594706952571869,-0.3161875605583191,-0.25633469223976135,-0.17743262648582458
0.35,0.031140103936195374,0.12065909057855606,0.0,0.9339898228645325,0.0,0.0,-0.35729968547821045,-0.8012462258338928,-0.5497010350227356,0.0,0.0,0.0,1.6614583730697632,-0.3856126070022583,0.6947157382965088,0.4202490746974945,0.9959875345230103,0.006211461964994669,-0.0006354249780997634,-0.08927413821220398,0.3858349025249481,0.5199450254440308,-0.006830792874097824,-0.3000078499317169,0.0010680507402867079,-9.377137184143066,-0.39671945571899414,0.7004603743553162,0.42005014419555664,0.4451708197593689,0.5562868714332581,-0.13146378099918365,0.45475709438323975,0.6339454650878906,0.42000001668930054,-0.5464317798614502,2.999983310699463,-0.6980502009391785,-2.9999992847442627,-0.14701303839683533,-0.15535777807235718,-0.16269363462924957,-0.16880735754966736,-0.477260947227478,-0.36602166295051575,-0.24098052084445953,-0.10231146961450577
0.36666666666666664,0.021493224427103996,0.10948369652032852,0.0,0.9307401776313782,0.0,0.0,-0.3656812608242035,-0.4953511357307434,-0.7183823585510254,0.0,0.0,0.0,-1.9641406536102295,-0.3793169856071472,0.7030715942382812,0.42000091075897217,0.9865829944610596,-2.11827991734026e-05,2.5410670332348673e-06,-0.16325996816158295,0.4523375630378723,0.5672898292541504,-0.0008404425461776555,0.03942164406180382,-0.0062774051912128925,-11.234161376953125,-0.38834744691848755,0.7088319063186646,0.42011046409606934,0.6899095773696899,0.536666989326477,-0.10479419678449631,0.45475709438323975,0.6339454650878906,0.42000001668930054,-0.4964264929294586,2.999997138977051,-0.748074471950531,-3.0000009536743164,-0.1561983823776245,-0.16191576421260834,-0.16636954247951508,-0.16937938332557678,-0.5463370084762573,-0.36777645349502563,-0.17506267130374908,0.028888501226902008
0.3833333333333333,0.009389850310981274,0.09669306874275208,0.0,0.9159019589424133,0.0,0.0,-0.40140199661254883,-0.7824110984802246,-0.80420982837677,0.0,0.0,0.0,-5.555115699768066,-0.3683457374572754,0.7155150771141052,0.42027726769447327,0.9759085178375244,-0.006804751697927713,0.0013524015666916966,-0.21806937456130981,0.9153398871421814,0.9785056710243225,0.07349096983671188,-3.3864057064056396,1.4793283939361572,-5.262994289398193,-0.37424883246421814,0.719245433807373,0.42121344804763794,1.0522552728652954,0.8285839557647705,0.1342550814151764,0.45475709438323975,0.6339454650878906,0.42000001668930054,-0.44635313749313354,2.999875068664551,-0.7980756759643555,-2.999605417251587,-0.16742657124996185,-0.16957518458366394,-0.17019613087177277,-0.1691814810037613,-0.5964857339859009,-0.3875778019428253,-0.16091932356357574,0.078879214823246
0.4,0.0006391892675310373,0.08083796501159668,0.0,0.8873296976089478,0.0,0.0,-0.46113553643226624,-0.48714980483055115,-0.9973032474517822,0.0,0.0,0.0,-8.711053848266602,-0.33911287784576416,0.7354184985160828,0.42346522212028503,0.9641246199607849,-0.016808096319437027,-0.029200714081525803,-0.2633029520511627,2.653911590576172,1.424682378768921,0.20767134428024292,10.17133617401123,-9.315516471862793,1.871054768562317,-0.3448808193206787,0.739990234375,0.4236295223236084,2.5685064792633057,1.6139559745788574,0.280459463596344,0.45475709438323975,0.6339454650878906,0.42000001668930054,-0.4010452330112457,1.8744463920593262,-0.8480933904647827,-2.999878168106079,-0.17688795924186707,-0.17521902918815613,-0.17171025276184082,-0.16635167598724365,-0.6347410082817078,-0.36999326944351196,-0.08950909227132797,0.19939881563186646
0.4166666666666667,-0.005675781052559614,0.06743723154067993,0.0,0.8419535160064697,0.0,0.0,-0.5395500659942627,-0.3371445834636688,-0.6590401530265808,0.0,0.0,0.0,-11.668718338012695,-0.27008503675460815,0.7679087519645691,0.4266946613788605,0.9445626139640808,0.02856219746172428,-0.07609264552593231,-0.318112313747406,5.726130962371826,1.8239095211029053,0.2369951754808426,18.910884857177734,-15.751704216003418,19.23938751220703,-0.27543020248413086,0.7729814648628235,0.4268510937690735,5.388140678405762,2.4387528896331787,0.3530194163322449,0.45475709438323975,0.6339454650878906,0.42000001668930054,-0.3798167407512665,0.9565197229385376,-0.8112362027168274,3.0008318424224854,-0.19223134219646454,-0.18579263985157013,-0.17647171020507812,-0.1654960662126541,-0.96076899766922,-0.7370913028717041,-0.3864942789077759,-0.058802854269742966
0.43333333333333335,-0.008507181890308857,0.05807549133896828,0.0,0.7774043083190918,0.0,0.0,-0.629001259803772,-0.10975910723209381,-0.5260513424873352,0.0,0.0,0.0,-14.063912391662598,-0.16132012009620667,0.8055572509765625,0.4329507052898407,0.9085596799850464,0.0539034865796566,-0.10953664034605026,-0.39951881766319275,7.620212554931641,1.7907768487930298,0.5665304064750671,22.487133026123047,-4.891417026519775,11.636334419250488,-0.16664673388004303,0.8120821714401245,0.4328865706920624,7.624306678771973,2.374199867248535,0.4800759553909302,0.45475709438323975,0.6339454650878906,0.42000001668930054,-0.3649604618549347,0.9362798929214478,-0.8381702899932861,-3.0000011920928955,-0.20414409041404724,-0.19783227145671844,-0.18388718366622925,-0.16798202693462372,-0.6900749206542969,-0.6729758977890015,-0.4344346523284912,-0.1876198649406433
0.45,-0.013232894241809845,0.05313528701663017,0.0,0.719620406627655,0.0,0.0,-0.6943676471710205,-0.2923644185066223,-0.255261093378067,0.0,0.0,0.0,-9.181646347045898,-0.040636468678712845,0.8309845328330994,0.44239670038223267,0.86208575963974,0.10213850438594818,-0.13145102560520172,-0.478640079498291,7.230399131774902,0.23471809923648834,0.6525717973709106,4.568451881408691,-15.111226081848145,18.184179306030273,-0.045367877930402756,0.8399225473403931,0.4424542486667633,7.1674346923828125,0.9877508878707886,0.6030313372612,0.45475709438323975,0.6339454650878906,0.42000001668930054,-0.3486451804637909,0.9444427490234375,-0.8133919835090637,2.9963269233703613,-0.21939755976200104,-0.21257264912128448,-0.19384534657001495,-0.17323711514472961,-0.8846264481544495,-0.8191993236541748,-0.559620201587677,-0.3127400279045105
0.4666666666666667,-0.01562151126563549,0.04290149360895157,0.0,0.6830120086669922,0.0,0.0,-0.7304071187973022,-0.10828245431184769,-0.6025360226631165,0.0,0.0,0.0,-4.8471784591674805,0.07359433174133301,0.8365486264228821,0.4523296058177948,0.8177692294120789,0.1048717051744461,-0.12860305607318878,-0.5511048436164856,6.510349750518799,-1.2854849100112915,0.7931099534034729,16.4299373626709,-5.987316131591797,33.216835021972656,0.06940597295761108,0.8478960990905762,0.45238977670669556,6.683210372924805,-0.281916081905365,0.6730937361717224,0.45475709438323975,0.6339454650878906,0.42000001668930054,-0.33368706703186035,0.6972375512123108,-0.8398213386535645,-3.000002384185791,-0.23199589550495148,-0.22289453446865082,-0.19967687129974365,-0.17490547895431519,-0.9425337910652161,-0.7115307450294495,-0.4012201726436615,-0.11898821592330933
0.48333333333333334,-0.019395718351006508,0.03765125945210457,0.0,0.6721106171607971,0.0,0.0,-0.7404507398605347,-0.20529018342494965,-0.2535591721534729,0.0,0.0,0.0,-0.6502411961555481,0.1712065190076828,0.8236987590789795,0.46119096875190735,0.7694231867790222,0.09387676417827606,-0.1199825182557106,-0.6203057169914246,5.1391754150390625,-2.180262565612793,0.45488661527633667,-1.1711996793746948,-10.381902694702148,24.320175170898438,0.1694081723690033,0.8353460431098938,0.4626527726650238,5.4331183433532715,-1.1906933784484863,0.5738657116889954,0.45475709438323975,0.6339454650878906,0.42000001668930054,-0.32415592670440674,0.3448118567466736,-0.8898464441299438,-3.0000007152557373,-0.24003161489963531,-0.23759040236473083,-0.20902085304260254,-0.17945685982704163,-0.041700996458530426,-0.8129889965057373,-0.5414868593215942,-0.29892122745513916
0.5,-0.020796792581677437,0.029904179275035858,0.0,0.653169572353363,0.0,0.0,-0.7572116255760193,-0.02361886203289032,-0.4817885458469391,0.0,0.0,0.0,-3.8671276569366455,0.2517974078655243,0.7978666424751282,0.46561041474342346,0.7102066278457642,0.07291126996278763,-0.11797809600830078,-0.6901967525482178,4.109263896942139,-2.699427604675293,0.25127169489860535,-3.82881498336792,-7.191518306732178,23.292699813842773,0.2503276467323303,0.8098263740539551,0.4681733250617981,4.496586799621582,-2.0004055500030518,0.23645414412021637,0.45475709438323975,0.6339454650878906,0.42000001668930054,-0.31960007548332214,0.15361574292182922,-0.9398704767227173,-3.0000014305114746,-0.23997493088245392,-0.24002207815647125,-0.2167011946439743,-0.18377232551574707,-0.045746468007564545,-0.026606343686580658,-0.42199671268463135,-0.23675422370433807
0.5166666666666666,-0.0190495066344738,0.025701746344566345,0.0,0.6487175226211548,0.0,0.0,-0.7610293030738831,0.13560797274112701,-0.18132758140563965,0.0,0.0,0.0,0.2442583590745926,0.317132830619812,0.7632660269737244,0.4657055139541626,0.6756381392478943,0.05561378598213196,-0.09652233868837357,-0.728768527507782,3.2193868160247803,-2.8041727542877197,-0.15824292600154877,-2.259688138961792,-0.30828407406806946,14.839241027832031,0.3169710338115692,0.7739467620849609,0.46846282482147217,3.625828266143799,-2.2938406467437744,-0.10837700217962265,0.45475709438323975,0.6339454650878906,0.42000001668930054,-0.3144228160381317,0.4203081429004669,-0.9898945093154907,-2.999999761581421,-0.23991790413856506,-0.23979689180850983,-0.22300297021865845,-0.18818005919456482,0.010793372057378292,0.06298070400953293,-0.23806123435497284,-0.20268860459327698
0.5333333333333333,-0.014931395649909973,0.02248578891158104,0.0,0.6342180967330933,0.0,0.0,-0.7731541991233826,0.29762184619903564,-0.16574572026729584,0.0,0.0,0.0,-3.1934125423431396,0.36947107315063477,0.727872371673584,0.45705679059028625,0.6379544734954834,0.012384395115077496,-0.08935239166021347,-0.7647724151611328,2.3686795234680176,-2.498434543609619,-0.5718651413917542,-1.023466944694519,0.7105456590652466,24.541000366210938,0.3697742521762848,0.7384066581726074,0.4611132740974426,2.8424651622772217,-2.1153464317321777,-0.6483030319213867,0.45475709438323975,0.6339454650878906,0.42000001668930054,-0.30461254715919495,0.6456348299980164,-1.0399169921875,-3.0000007152557373,-0.23604170978069305,-0.23575732111930847,-0.22422440350055695,-0.1905480921268463,0.32167044281959534,0.32638832926750183,0.027843596413731575,-0.10816935449838638
0.55,-0.008510252460837364,0.0225268192589283,0.0,0.6334893703460693,0.0,0.0,-0.7737513780593872,0.4187239110469818,0.07217953354120255,0.0,0.0,0.0,0.7597754597663879,0.4087393879890442,0.6930245757102966,0.44094663858413696,0.572421669960022,-0.08381329476833344,-0.11744041740894318,-0.8071656227111816,1.5738798379898071,-2.4617598056793213,-1.2026762962341309,-23.20658302307129,16.59353256225586,0.03526630625128746,0.40835487842559814,0.7041927576065063,0.4482959508895874,1.9432307481765747,-1.9779441356658936,-0.8243331909179688,0.45475709438323975,0.6339454650878906,0.42000001668930054,-0.29248157143592834,0.7274635434150696,-1.0899391174316406,-2.9987800121307373,-0.23038969933986664,-0.23008885979652405,-0.22310566902160645,-0.19250532984733582,0.37297308444976807,0.37166720628738403,0.12195363640785217,-0.10453537851572037
0.5666666666666667,0.0005908425082452595,0.017447510734200478,0.0,0.6205234527587891,0.0,0.0,-0.7841878533363342,0.597602903842926,-0.4333614706993103,0.0,0.0,0.0,-3.030963182449341,0.4373641312122345,0.6680760383605957,0.4231758117675781,0.5496007800102234,-0.06378255784511566,-0.03668206185102463,-0.832180917263031,1.3671804666519165,-0.8963371515274048,-0.5951805710792542,42.52419662475586,-17.1092586517334,10.770879745483398,0.4367179274559021,0.6761053800582886,0.42739003896713257,1.3266621828079224,-1.463876485824585,-1.297298789024353,0.45475709438323975,0.6339454650878906,0.42000001668930054,-0.27798086404800415,1.1429023742675781,-1.1399612426757812,-2.993955612182617,-0.21738459169864655,-0.21856050193309784,-0.21663086116313934,-0.19147418439388275,0.9266175031661987,0.8113673329353333,0.508551299571991,0.1376344859600067
0.5833333333333334,0.010306322947144508,0.01707049086689949,0.0,0.6199913024902344,0.0,0.0,-0.7846086621284485,0.6430917382240295,0.0961359366774559,0.0,0.0,0.0,0.8523528575897217,0.45134466886520386,0.656156063079834,0.42026305198669434,0.518576443195343,0.00427290890365839,0.0048513514921069145,-0.8550068140029907,0.25088056921958923,-1.4633636474609375,0.2559618651866913,12.973947525024414,-14.769996643066406,23.171356201171875,0.4481465518474579,0.661856472492218,0.4234699606895447,0.2763868570327759,-0.4194212257862091,0.20972082018852234,0.45475709438323975,0.6339454650878906,0.42000001668930054,-0.25127413868904114,1.4504618644714355,-1.1019699573516846,2.998900890350342,-0.20749017596244812,-0.2096574306488037,-0.21136821806430817,-0.19164301455020905,0.5338337421417236,0.476838082075119,0.2869109809398651,-0.03993583843111992
0.6,0.017941085621714592,0.013454564847052097,0.0,0.6086162328720093,0.0,0.0,-0.7934647798538208,0.3838706612586975,-0.24763639271259308,0.0,0.0,0.0,-2.558260679244995,0.4554475247859955,0.6496901512145996,0.42069941759109497,0.5622367262840271,-0.009694973938167095,0.015015319921076298,-0.8267830610275269,0.0676364153623581,-0.47478795051574707,0.058681827038526535,1.2272002696990967,2.709934949874878,4.162140846252441,0.45121654868125916,0.6544026136398315,0.4233458638191223,-0.021065346896648407,-0.4105258584022522,0.10140813887119293,0.45475709438323975,0.6339454650878906,0.42000001668930054,-0.268770307302475,-2.869467258453369,-1.1230968236923218,-2.9919791221618652,-0.19689778983592987,-0.20014309883117676,-0.20480673015117645,-0.19066205620765686,0.46814703941345215,0.4484635591506958,0.3357025682926178,0.04379516467452049
0.6166666666666667,0.026449602097272873,0.0137425372377038,0.0,0.6104273796081543,0.0,0.0,-0.7920722365379333,0.5250226855278015,0.05213566869497299,0.0,0.0,0.0,1.1476243734359741,0.4550217092037201,0.6434226632118225,0.42095261812210083,0.5830321311950684,-0.014248201623558998,0.019828543066978455,-0.8120821118354797,-0.056013837456703186,-0.29494550824165344,-0.002369494643062353,-0.04057908058166504,-0.11460553109645844,2.2221462726593018,0.45106011629104614,0.650214433670044,0.42512762546539307,0.08073212951421738,-0.04070591926574707,0.10968348383903503,0.45475709438323975,0.6339454650878906,0.42000001668930054,-0.2990058660507202,-0.9060284495353699,-1.1730552911758423,-2.9980826377868652,-0.19156770408153534,-0.19486291706562042,-0.20072168111801147,-0.19089598953723907,0.3956449627876282,0.367819219827652,0.2946462035179138,0.03294997289776802
0.6333333333333333,0.034056492149829865,0.009933038614690304,0.0,0.6005289554595947,0.0,0.0,-0.7996030449867249,0.426577091217041,-0.25559577345848083,0.0,0.0,0.0,-2.3222239017486572,0.4550447463989258,0.6421694159507751,0.42135465145111084,0.5962456464767456,-0.020939713343977928,0.028107181191444397,-0.8020365834236145,-0.045869819819927216,0.005676407366991043,0.0072755636647343636,0.23055937886238098,0.47327837347984314,0.3660981357097626,0.4511265158653259,0.6520096659660339,0.42726871371269226,-0.14078697562217712,0.11108144372701645,0.16204071044921875,0.45475709438323975,0.6339454650878906,0.42000001668930054,-0.3283078372478485,-2.4617133140563965,-1.2230126857757568,-2.9984638690948486,-0.18136747181415558,-0.18575504422187805,-0.19314242899417877,-0.18793785572052002,0.5025038123130798,0.464048832654953,0.41156911849975586,0.1719432920217514
0.65,0.04334758222103119,0.010211252607405186,0.0,0.6038310527801514,0.0,0.0,-0.7971123456954956,0.5708379745483398,0.051198337227106094,0.0,0.0,0.0,1.3670599460601807,0.4533926546573639,0.6422423720359802,0.42062124609947205,0.6086973547935486,-0.009433724917471409,0.012290889397263527,-0.7932512164115906,-0.06764218956232071,0.01756371557712555,-0.07256004959344864,-1.006213903427124,-3.748638391494751,0.016814257949590683,0.4496982991695404,0.6533545255661011,0.4299718141555786,-0.0458160862326622,0.1489812731742859,0.1787702888250351,0.45475709438323975,0.6339454650878906,0.42000001668930054,-0.3775026798248291,-2.9995899200439453,-1.2729979753494263,-2.9998135566711426,-0.17640209197998047,-0.18096229434013367,-0.18856042623519897,-0.18661807477474213,0.34945473074913025,0.31813669204711914,0.29675817489624023,0.10196352005004883
0.6666666666666666,0.054111603647470474,0.006199582479894161,0.0,0.6301429271697998,0.0,0.0,-0.776479184627533,0.6611253023147583,-0.28072431683540344,0.0,0.0,0.0,4.831635475158691,0.4527324140071869,0.6424347162246704,0.4199999272823334,0.6089348196983337,1.7809456039685756e-05,-4.776064452016726e-05,-0.7932201623916626,-0.039088066667318344,0.01515111606568098,-0.0014819620409980416,0.023748790845274925,0.022530538961291313,2.444575548171997,0.4486345052719116,0.6569726467132568,0.4332285523414612,-0.10614674538373947,0.21943160891532898,0.22799928486347198,0.45475709438323975,0.6339454650878906,0.42000001668930054,-0.42749929428100586,-2.999800205230713,-1.3229776620864868,-2.998194932937622,-0.1678006947040558,-0.17308467626571655,-0.1810561716556549,-0.1821514368057251,0.46516692638397217,0.448268324136734,0.45821020007133484,0.3174189329147339
0.6833333333333333,0.06680662930011749,-0.0004466819518711418,0.0,0.6413043141365051,0.0,0.0,-0.7672865986824036,0.7999997735023499,-0.4380091726779938,0.0,0.0,0.0,0.6878759860992432,0.45207569003105164,0.6426511406898499,0.42000001668930054,0.6083059310913086,2.071891231025802e-06,-1.1394168723199982e-05,-0.7937026023864746,-0.042922500520944595,0.012429975904524326,-0.0003467088972683996,0.020098552107810974,0.010548056103289127,-1.0921145677566528,0.4483346939086914,0.659686803817749,0.438393235206604,-0.009781276807188988,0.1103871539235115,0.3475276827812195,0.45475709438323975,0.6339454650878906,0.42000001668930054,-0.4774807095527649,-2.9994659423828125,-1.372963309288025,-2.9999306201934814,-0.1623259037733078,-0.16698287427425385,-0.17367370426654816,-0.1756863296031952,0.270697683095932,0.34632307291030884,0.46930602192878723,0.4765338599681854
0.7,0.08140113204717636,-0.009618847630918026,0.0,0.6287060379981995,0.0,0.0,-0.7776430249214172,0.9075043797492981,-0.606917679309845,0.0,0.0,0.0,-2.8990352153778076,0.45200690627098083,0.6426643133163452,0.42000001668930054,0.6078594923019409,6.403738552762661e-06,-6.65132256472134e-06,-0.7940446138381958,0.000734052387997508,-2.239590321551077e-05,-0.00026959110982716084,-0.009191028773784637,0.0018087414791807532,-0.002164006233215332,0.4532407522201538,0.661828339099884,0.450982928276062,0.5865405797958374,0.11940240859985352,1.2630066871643066,0.45475709438323975,0.6339454650878906,0.42000001668930054,-0.5274930000305176,-2.9999749660491943,-1.4229815006256104,-2.9999988079071045,-0.1605217307806015,-0.16367638111114502,-0.16803330183029175,-0.16941024363040924,0.029639706015586853,0.12619149684906006,0.27365320920944214,0.33191806077957153
0.7166666666666667,0.09980036318302155,-0.013630147092044353,0.0,0.5926520228385925,0.0,0.0,-0.8054586052894592,1.0379784107208252,-0.23231573402881622,0.0,0.0,0.0,-6.277065277099609,0.4520076513290405,0.6426642537117004,0.4200000464916229,0.6078589558601379,6.273688200053584e-07,-3.446163646003697e-06,-0.7940449714660645,0.00015227141557261348,-0.00027261703507974744,-9.730411693453789e-05,0.005927714519202709,-0.0008707575616426766,-0.0006180860218591988,0.473417729139328,0.6561389565467834,0.4779728651046753,1.8909118175506592,-0.5583761930465698,2.0810680389404297,0.45475709438323975,0.6339454650878906,0.42000001668930054,-0.5775046944618225,-2.9999842643737793,-1.4729998111724854,-2.9999992847442627,-0.16798628866672516,-0.16804446280002594,-0.168537899851799,-0.16743254661560059,-0.3562695384025574,-0.19489231705665588,0.015623585321009159,0.15969312191009521
0.7333333333333333,0.11391983181238174,-0.016527237370610237,0.0,0.5718184113502502,0.0,0.0,-0.8203802108764648,0.7696212530136108,-0.1756458729505539,0.0,0.0,0.0,-1.9825509786605835,0.4520076513290405,0.6426642537117004,0.4200000464916229,0.6078591346740723,4.891192588729609e-07,-3.5450591440167045e-06,-0.7940448522567749,0.0001473479496780783,-0.00027787082944996655,-9.65020153671503e-05,0.006084561347961426,-0.0009639709023758769,-0.0006112723494879901,0.5065193176269531,0.6518781185150146,0.5143246054649353,1.9921627044677734,-0.017866436392068863,2.2470703125,0.45475709438323975,0.6339454650878906,0.42000001668930054,-0.5973427295684814,0.34445738792419434,-1.5230181217193604,-2.999999761581421,-0.171011283993721,-0.16963905096054077,-0.1679576337337494,-0.16560494899749756,-0.015495482832193375,1.641456037759781e-08,0.05738890916109085,0.06789837032556534
0.75,0.12302647531032562,-0.017581773921847343,0.0,0.5775272250175476,0.0,0.0,-0.8163714408874512,0.4677318334579468,-0.015070567838847637,0.0,0.0,0.0,1.712846040725708,0.4520076513290405,0.6426642537117004,0.4200000464916229,0.607859194278717,4.6745608983655984e-07,-3.640987415565178e-06,-0.7940448522567749,0.00014874240150675178,-0.00027826213045045733,-9.679421782493591e-05,0.006086746230721474,-0.0009480348671786487,-0.0006144791259430349,0.5346612930297852,0.6533071994781494,0.5468536615371704,1.326756238937378,0.17586655914783478,1.7102742195129395,0.45475709438323975,0.6339454650878906,0.42000001668930054,-0.5700098276138306,2.707045555114746,-1.4842252731323242,3.000001907348633,-0.16963765025138855,-0.16822747886180878,-0.16589421033859253,-0.16352975368499756,0.15305688977241516,0.14690221846103668,0.17122916877269745,0.16338446736335754
0.7666666666666666,0.12816862761974335,-0.02042398974299431,0.0,0.5707299113273621,0.0,0.0,-0.8211378455162048,0.24207758903503418,-0.3284376561641693,0.0,0.0,0.0,-1.9446464776992798,0.4520076513290405,0.6426642537117004,0.4200000464916229,0.607859194278717,4.930113846057793e-07,-3.5614959870144958e-06,-0.7940447330474854,0.0001479972997913137,-0.00027781445533037186,-9.665405377745628e-05,0.006080134306102991,-0.0009552932460792363,-0.0006126338266767561,0.5485279560089111,0.6559039950370789,0.5680744647979736,0.37512141466140747,0.19401513040065765,1.0424962043762207,0.45475709438323975,0.6339454650878906,0.42000001668930054,-0.5296079516410828,2.1545376777648926,-1.4341726303100586,3.0000007152557373,-0.16805100440979004,-0.16646955907344818,-0.16358783841133118,-0.1611475795507431,0.1777099072933197,0.1803593933582306,0.19929277896881104,0.19471141695976257
0.7833333333333333,0.12988592684268951,-0.019434405490756035,0.0,0.5766901969909668,0.0,0.0,-0.8169629573822021,0.056424032896757126,0.18874788284301758,0.0,0.0,0.0,1.7494336366653442,0.4520076513290405,0.6426642537117004,0.4200000464916229,0.6078592538833618,4.7104509803830297e-07,-3.658066589196096e-06,-0.7940447330474854,0.00014874676708132029,-0.00027826117002405226,-9.679514914751053e-05,0.0060867187567055225,-0.0009479638538323343,-0.0006144894286990166,0.5489067435264587,0.658450186252594,0.5825397968292236,-0.25884026288986206,0.1921069324016571,0.7261925339698792,0.45475709438323975,0.6339454650878906,0.42000001668930054,-0.4827682375907898,3.0000009536743164,-1.4027490615844727,0.9242622256278992,-0.17043904960155487,-0.1676676869392395,-0.16351906955242157,-0.16025249660015106,-0.18462413549423218,-0.1082211434841156,-0.032821930944919586,0.019531061872839928
0.8,0.12916401028633118,-0.021049238741397858,0.0,0.5711843371391296,0.0,0.0,-0.8208218216896057,-0.08448406308889389,-0.21231667697429657,0.0,0.0,0.0,-1.692111611366272,0.4520076513290405,0.6426642537117004,0.4200000464916229,0.6078591346740723,4.34794088732815e-07,-3.571338311303407e-06,-0.7940448522567749,0.0001490446738898754,-0.0002781949588097632,-9.685545228421688e-05,0.006083580199629068,-0.0009436994441784918,-0.0006150823901407421,0.5379375219345093,0.6618372201919556,0.5884193181991577,-1.0479949712753296,0.21083727478981018,0.17577196657657623,0.45475709438323975,0.6339454650878906,0.42000001668930054,-0.45335254073143005,0.7035256028175354,-1.3537973165512085,3.0000009536743164,-0.17114081978797913,-0.16749334335327148,-0.16247163712978363,-0.15855947136878967,0.039995379745960236,0.08318983018398285,0.1251034438610077,0.1595536172389984
0.8166666666666667,0.1263498216867447,-0.01924435794353485,0.0,0.5784004926681519,0.0,0.0,-0.8157529830932617,-0.19138415157794952,0.07180804759263992,0.0,0.0,0.0,1.8247151374816895,0.4520076513290405,0.6426642537117004,0.4200000464916229,0.607859194278717,4.520136087649007e-07,-3.6702042507386068e-06,-0.7940448522567749,0.0001487883710069582,-0.0002783158852253109,-9.680469520390034e-05,0.0060877567157149315,-0.000947842956520617,-0.0006146260420791805,0.5211895108222961,0.6646488904953003,0.5919286608695984,-0.8428260087966919,0.28762805461883545,0.24064046144485474,0.45475709438323975,0.6339454650878906,0.42000001668930054,-0.4301247298717499,1.9591180086135864,-1.372763752937317,-3.0000007152557373,-0.1742480993270874,-0.1692751795053482,-0.16302260756492615,-0.15799075365066528,0.02033410221338272,0.039215926080942154,0.05758421868085861,0.0807509571313858
0.8333333333333334,0.1257348358631134,-0.020396288484334946,0.0,0.5728604793548584,0.0,0.0,-0.8196528553962708,0.0006798394024372101,-0.10814956575632095,0.0,0.0,0.0,-1.7047957181930542,0.4520076513290405,0.6426642537117004,0.4200000464916229,0.607859194278717,4.830163220503891e-07,-3.592414486774942e-06,-0.7940447330474854,0.00014802998339291662,-0.000277864804957062,-9.665777906775475e-05,0.006081186700612307,-0.0009550324757583439,-0.000612731440924108,0.5054280161857605,0.6700228452682495,0.5919210910797119,-1.032841444015503,0.3077363967895508,-0.041990507394075394,0.45475709438323975,0.6339454650878906,0.42000001668930054,-0.4295583665370941,-1.5841490030288696,-1.334395408630371,2.999999523162842,-0.1730067878961563,-0.168180912733078,-0.1620107740163803,-0.15683509409427643,0.0712616890668869,0.058939699083566666,0.05124937370419502,0.06123607978224754
0.85,0.1274767816066742,-0.023783378303050995,0.0,0.5796175599098206,0.0,0.0,-0.8148886561393738,0.15411704778671265,-0.26697203516960144,0.0,0.0,0.0,1.816916823387146,0.4520076513290405,0.6426642537117004,0.4200000464916229,0.6078589558601379,4.6096090500213904e-07,-3.4338663681410253e-06,-0.7940449714660645,0.00014726578956469893,-0.00027913314988836646,-9.638653136789799e-05,0.006115666590631008,-0.0009693484753370285,-0.0006116086733527482,0.492808997631073,0.6735215187072754,0.5931766033172607,-0.5286939740180969,0.12407656013965607,0.22152253985404968,0.45475709438323975,0.6339454650878906,0.42000001668930054,-0.4690995514392853,-3.0,-1.3536972999572754,-3.0,-0.1729297935962677,-0.16784286499023438,-0.1612977236509323,-0.1553891897201538,-0.018114760518074036,0.014906469732522964,0.05574330687522888,0.1206464171409607
0.8666666666666667,0.13165630400180817,-0.02984859049320221,0.0,0.5737813711166382,0.0,0.0,-0.8190085291862488,0.2960093319416046,-0.41441598534584045,0.0,0.0,0.0,-1.7618213891983032,0.4520076513290405,0.6426642537117004,0.4200000464916229,0.6078591346740723,4.3541538730096363e-07,-3.5255291095381835e-06,-0.7940448522567749,0.00014894106425344944,-0.0002782156225293875,-9.683379903435707e-05,0.006084625609219074,-0.0009450556826777756,-0.000614867836702615,0.48904043436050415,0.6726771593093872,0.5910047292709351,0.05725439637899399,-0.24331402778625488,-0.2601511478424072,0.45475709438323975,0.6339454650878906,0.42000001668930054,-0.519102931022644,-2.9999876022338867,-1.4037156105041504,-2.999999523162842,-0.1739542931318283,-0.16795052587985992,-0.1603105068206787,-0.15285152196884155,-0.06580840796232224,0.011886398307979107,0.10040465742349625,0.21667805314064026
0.8833333333333333,0.13868872821331024,-0.033543910831213,0.0,0.5471678972244263,0.0,0.0,-0.8370228409767151,0.4777301251888275,-0.14854377508163452,0.0,0.0,0.0,-4.752044200897217,0.4520076513290405,0.6426642537117004,0.4200000464916229,0.607859194278717,4.705020160145068e-07,-3.619889866968151e-06,-0.7940448522567749,0.00014863506658002734,-0.0002782867231871933,-9.67725645750761e-05,0.00608792481943965,-0.0009494629339314997,-0.0006142659694887698,0.4938926696777344,0.6665140390396118,0.5878833532333374,0.5101042985916138,-0.48116058111190796,0.04234902933239937,0.45475709438323975,0.6339454650878906,0.42000001668930054,-0.5525233745574951,-1.144502878189087,-1.4537339210510254,-2.9999990463256836,-0.1751343458890915,-0.16857458651065826,-0.16019442677497864,-0.15151552855968475,-0.04508724808692932,-0.03978779911994934,-0.026894140988588333,0.012150502763688564
0.9,0.14815345406532288,-0.033227432519197464,0.0,0.5365073680877686,0.0,0.0,-0.8438956141471863,0.6139189004898071,0.09253126382827759,0.0,0.0,0.0,-0.5283089280128479,0.4520076513290405,0.6426642537117004,0.4200000464916229,0.607859194278717,4.850736559092184e-07,-3.5371292597119464e-06,-0.7940447330474854,0.0001478721242165193,-0.00027783054974861443,-9.662192314863205e-05,0.006081154569983482,-0.0009569332469254732,-0.0006123649654909968,0.5011075735092163,0.6624164581298828,0.5898327827453613,0.3391408324241638,-0.11039206385612488,0.14081595838069916,0.45475709438323975,0.6339454650878906,0.42000001668930054,-0.5475229620933533,1.5096759796142578,-1.4165339469909668,3.000000238418579,-0.17475083470344543,-0.16874060034751892,-0.1608210653066635,-0.15220382809638977,0.08836924284696579,0.02593141235411167,-0.03524833917617798,-0.07614123821258545
