vladlanda/robotic-transformer/data/env_000_episode_0094.csv
sim_time_s,robot_box_x,robot_box_y,robot_box_z,robot_box_quat_w,robot_box_quat_x,robot_box_quat_y,robot_box_quat_z,robot_box_linvel_x,robot_box_linvel_y,robot_box_linvel_z,robot_box_angvel_x,robot_box_angvel_y,robot_box_angvel_z,cube_world_x,cube_world_y,cube_world_z,cube_quat_w,cube_quat_x,cube_quat_y,cube_quat_z,cube_linvel_x,cube_linvel_y,cube_linvel_z,cube_angvel_x,cube_angvel_y,cube_angvel_z,endpoint_world_x,endpoint_world_y,endpoint_world_z,endpoint_linvel_x,endpoint_linvel_y,endpoint_linvel_z,target_cube_world_x,target_cube_world_y,target_cube_world_z,gripper_actual_pos_rad_gp_leftgearjoint,gripper_actual_vel_rad_s_gp_leftgearjoint,gripper_actual_pos_rad_gp_rotatingjoint,gripper_actual_vel_rad_s_gp_rotatingjoint,motor_angle_rad_joint1,motor_angle_rad_joint2,motor_angle_rad_joint3,motor_angle_rad_joint4,motor_speed_rad_s_joint1,motor_speed_rad_s_joint2,motor_speed_rad_s_joint3,motor_speed_rad_s_joint4
0.0,0.0,0.0,0.0,1.0,0.0,0.0,0.0,0.0,0.0,0.0,0.0,0.0,0.0,-0.4622042775154114,0.6881095170974731,0.41999998688697815,1.0,0.0,0.0,0.0,0.0,0.0,0.0,0.0,0.0,0.0,3.42540442943573e-06,-0.005000244826078415,1.313499927520752,0.0,0.0,0.0,0.40775102376937866,0.774970293045044,0.42000001668930054,-1.5707999467849731,0.0,0.0,0.0,0.0,0.0,0.0,0.0,0.0,0.0,0.0,0.0
0.016666666666666666,0.0028778850100934505,0.0021806680597364902,0.0,0.9998081922531128,0.0,0.0,0.019586581736803055,0.24087215960025787,0.18240931630134583,0.0,0.0,0.0,3.1418697834014893,-0.4622043967247009,0.6881092190742493,0.41999998688697815,1.0,3.2799832752061775e-06,-8.339598593920527e-07,8.465660528145236e-08,-1.9833856640616432e-05,0.00017983021098189056,-6.132945418357849e-05,0.0009432561928406358,-0.004689492750912905,-0.0003198107879143208,-0.007110234349966049,0.003379564033821225,1.3159373998641968,-0.8143353462219238,0.9868683815002441,0.18095196783542633,0.40775102376937866,0.774970293045044,0.42000001668930054,-1.5301095247268677,3.0000011920928955,-0.04584788903594017,-2.9999992847442627,0.0008691533003002405,0.0007963840034790337,0.0007110277656465769,0.0006108740926720202,0.11094217747449875,0.09756709635257721,0.08334315568208694,0.06823883205652237
0.03333333333333333,0.008960975334048271,0.006801934447139502,0.0,0.9997960329055786,0.0,0.0,0.020196834579110146,0.40702110528945923,0.31530851125717163,0.0,0.0,0.0,-0.869131326675415,-0.4622045159339905,0.6881091594696045,0.4200000464916229,1.0,3.3908236218849197e-06,-2.1324740373529494e-06,-3.7087911408661967e-08,0.0002635786950122565,0.00026937879738397896,-0.00010509719140827656,-0.0017707741353660822,0.004130927845835686,-0.00013548358401749283,-0.027549872174859047,0.02607954852283001,1.3166146278381348,-1.5915088653564453,1.6155784130096436,-0.08283157646656036,0.40775102376937866,0.774970293045044,0.42000001668930054,-1.4800904989242554,3.0000014305114746,-0.09588771313428879,-3.0000007152557373,0.0029901363886892796,0.002652758965268731,0.0022773416712880135,0.0018608079990372062,0.16422051191329956,0.13976511359214783,0.1138249859213829,0.08630791306495667
0.05,0.017759716138243675,0.01377324853092432,0.0,0.9993746876716614,0.0,0.0,0.035358987748622894,0.5939860939979553,0.4651801586151123,0.0,0.0,0.0,2.6474802494049072,-0.46220454573631287,0.6881092190742493,0.4200000464916229,1.0,3.7651166167051997e-06,-2.2119024833955336e-06,5.637348365894468e-09,0.0002653102274052799,0.00026691530365496874,-0.0001044049859046936,-0.0017243424663320184,0.004177475813776255,-0.00012949523807037622,-0.05969126895070076,0.05415739864110947,1.3115787506103516,-2.187817335128784,1.7853877544403076,-0.4838300347328186,0.40775102376937866,0.774970293045044,0.42000001668930054,-1.4300721883773804,3.0000014305114746,-0.145926371216774,-3.000002145767212,0.005711209960281849,0.004918969701975584,0.004054608289152384,0.003113675396889448,0.19265955686569214,0.1557597517967224,0.11698570102453232,0.07624373584985733
0.06666666666666667,0.02907784841954708,0.023068252950906754,0.0,0.9994471669197083,0.0,0.0,0.03324645385146141,0.7205368280410767,0.5952897071838379,0.0,0.0,0.0,-1.2118291854858398,-0.46220454573631287,0.6881091594696045,0.4200000464916229,0.9999999403953552,3.4067338674503844e-06,-2.2856738723930903e-06,4.301002434203838e-07,0.0002670263347681612,0.0002679180761333555,-0.00010437914170324802,-0.001740648876875639,0.004211838357150555,-0.00012851078645326197,-0.09844070672988892,0.08856043219566345,1.2986769676208496,-2.467000961303711,2.230724334716797,-1.0348522663116455,0.40775102376937866,0.774970293045044,0.42000001668930054,-1.3800538778305054,3.000002861022949,-0.19596369564533234,-3.000000476837158,0.008352783508598804,0.006888268515467644,0.005312898196280003,0.0036209700629115105,0.15764980018138885,0.1080809235572815,0.05648520588874817,0.002773093758150935
0.08333333333333333,0.04244888201355934,0.03467316925525665,0.0,0.9994180202484131,0.0,0.0,0.034111250191926956,0.8412138223648071,0.7405145168304443,0.0,0.0,0.0,0.7530829906463623,-0.46220454573631287,0.6881091594696045,0.4200000464916229,1.0,3.6972542147850618e-06,-2.189012548114988e-06,-2.632233417898533e-07,0.0002638970036059618,0.00026586418971419334,-0.00010433932766318321,-0.0017081733094528317,0.004150197375565767,-0.0001299117284361273,-0.1409921795129776,0.12590137124061584,1.278141736984253,-2.6115331649780273,2.232358455657959,-1.4050503969192505,0.40775102376937866,0.774970293045044,0.42000001668930054,-1.3300355672836304,2.9999992847442627,-0.24598270654678345,-3.0,0.009822974912822247,0.007477335166186094,0.004981631878763437,0.002327927388250828,0.06204774230718613,-3.416789695620537e-08,-0.06233895942568779,-0.12756754457950592
0.1,0.049760397523641586,0.04957713559269905,0.0,0.9998605847358704,0.0,0.0,0.016697153449058533,0.30847030878067017,0.9553813934326172,0.0,0.0,0.0,-3.023257255554199,-0.46220454573631287,0.6881091594696045,0.4200000464916229,0.9999999403953552,3.620308916651993e-06,-2.2652425286651123e-06,1.7463578672050062e-07,0.00026676832931116223,0.0002674081770237535,-0.0001040799543261528,-0.0017385705141350627,0.004209125880151987,-0.0001277521369047463,-0.18054980039596558,0.16859373450279236,1.2517502307891846,-2.194613456726074,2.739666700363159,-1.6830074787139893,0.40775102376937866,0.774970293045044,0.42000001668930054,-1.2800049781799316,2.9999947547912598,-0.21195478737354279,3.0000007152557373,0.0046764458529651165,0.001548929139971733,-0.001753618591465056,-0.0052782087586820126,-0.4286564290523529,-0.4836794137954712,-0.5399019718170166,-0.5992951989173889
0.11666666666666667,0.05375104770064354,0.06536219269037247,0.0,0.9996124505996704,0.0,0.0,-0.027838774025440216,0.2191820591688156,0.9481472373008728,0.0,0.0,0.0,-6.091019630432129,-0.46220454573631287,0.6881091594696045,0.4200000464916229,1.0,3.798331817961298e-06,-2.2628737497143447e-06,-1.5019459453924355e-07,0.0002637395809870213,0.00026566043379716575,-0.00010428996756672859,-0.0017054103082045913,0.0041475603356957436,-0.0001298010174650699,-0.21678495407104492,0.2149888277053833,1.22688627243042,-2.167903423309326,2.8204894065856934,-1.416167974472046,0.40775102376937866,0.774970293045044,0.42000001668930054,-1.230014443397522,2.9999983310699463,-0.24334557354450226,-3.0,-0.000837801955640316,-0.005413868464529514,-0.010144747793674469,-0.015101642347872257,-0.2759629189968109,-0.3787577152252197,-0.4789244830608368,-0.577498733997345
0.13333333333333333,0.06138380244374275,0.08436999469995499,0.0,0.9986478090286255,0.0,0.0,-0.05198541656136513,0.541169285774231,1.1903024911880493,0.0,0.0,0.0,-1.8998847007751465,-0.46220454573631287,0.6881092190742493,0.4200000464916229,0.9999999403953552,3.5504490369930863e-06,-2.2298452222457854e-06,2.929317872713e-07,0.0002670326502993703,0.00026779386098496616,-0.00010417005978524685,-0.0017441416857764125,0.004213591571897268,-0.00012799994146917015,-0.2565578520298004,0.2602509558200836,1.2017227411270142,-2.3399479389190674,2.9087581634521484,-1.6143136024475098,0.40775102376937866,0.774970293045044,0.42000001668930054,-1.1800037622451782,2.999999523162842,-0.2715848684310913,-0.5800802111625671,-0.0018876827089115977,-0.008626298978924751,-0.015438463538885117,-0.022405076771974564,-0.054420195519924164,-0.18410316109657288,-0.30864769220352173,-0.4283502995967865
0.15,0.06778065115213394,0.1011933907866478,0.0,0.99607253074646,0.0,0.0,-0.08854123950004578,0.32478851079940796,0.9474396109580994,0.0,0.0,0.0,-5.213374137878418,-0.46220454573631287,0.6881091594696045,0.4200000464916229,0.9999999403953552,3.338018132126308e-06,-2.242906248284271e-06,-2.799748166637528e-08,0.0002667450753506273,0.00026758169406093657,-0.00010427739471197128,-0.0017367200925946236,0.004206815734505653,-0.0001283115561818704,-0.29407748579978943,0.3124798536300659,1.1734299659729004,-2.110687255859375,3.4155237674713135,-1.8231384754180908,0.40775102376937866,0.774970293045044,0.42000001668930054,-1.13124680519104,2.823512554168701,-0.2616664171218872,1.5775161981582642,-0.0044997273944318295,-0.013323597609996796,-0.022129302844405174,-0.0309988372027874,-0.24896086752414703,-0.36207491159439087,-0.4699954688549042,-0.5726120471954346
0.16666666666666666,0.07081624120473862,0.11372963339090347,0.0,0.9943132400512695,0.0,0.0,-0.10649513453245163,0.11472054570913315,0.6759968400001526,0.0,0.0,0.0,-1.0055469274520874,-0.46220454573631287,0.6881092190742493,0.4200000464916229,0.9999999403953552,3.6477504181675613e-06,-2.3073262127581984e-06,3.529927994350146e-08,0.0002672697592061013,0.00026801438070833683,-0.00010418915189802647,-0.0017472587060183287,0.004217675421386957,-0.0001279834541492164,-0.3322582244873047,0.3666943907737732,1.1355630159378052,-2.2264530658721924,3.3814144134521484,-2.665325880050659,0.40775102376937866,0.774970293045044,0.42000001668930054,-1.0992406606674194,1.1381609439849854,-0.30060750246047974,-2.9999990463256836,-0.009990776889026165,-0.020210161805152893,-0.03032611683011055,-0.040419746190309525,-0.4092157781124115,-0.46483612060546875,-0.5160688757896423,-0.5628811717033386
0.18333333333333332,0.07583576440811157,0.12639567255973816,0.0,0.9906128644943237,0.0,0.0,-0.13669739663600922,0.31244751811027527,0.7986120581626892,0.0,0.0,0.0,-4.381840229034424,-0.46220454573631287,0.6881091594696045,0.4200000464916229,0.9999999403953552,3.290481799922418e-06,-2.1939410999038955e-06,-2.792170334942057e-07,0.0002667806693352759,0.000267760653514415,-0.0001043418888002634,-0.0017390813445672393,0.004206993617117405,-0.00012845630408264697,-0.36998558044433594,0.4261699318885803,1.0843470096588135,-2.183596611022949,3.6924779415130615,-3.507305860519409,0.40775102376937866,0.774970293045044,0.42000001668930054,-1.0546950101852417,2.9999985694885254,-0.3450351357460022,-2.3480260372161865,-0.01870531588792801,-0.029311299324035645,-0.039766985923051834,-0.05015398561954498,-0.7510069012641907,-0.7287053465843201,-0.7059476971626282,-0.6828016638755798
0.2,0.07768596708774567,0.14159518480300903,0.0,0.981374204158783,0.0,0.0,-0.1921059638261795,0.059850383549928665,0.9624074697494507,0.0,0.0,0.0,-7.590212821960449,-0.46220454573631287,0.6881091594696045,0.4200000464916229,1.0,3.2807049592520343e-06,-2.2192427877598675e-06,1.5948727138948016e-07,0.00026627813349477947,0.0002674008428584784,-0.00010425341315567493,-0.001735740341246128,0.0041978247463703156,-0.00012865380267612636,-0.40411174297332764,0.49165064096450806,1.0193918943405151,-1.7663474082946777,4.1340460777282715,-4.1575422286987305,0.40775102376937866,0.774970293045044,0.42000001668930054,-1.004692554473877,3.0000016689300537,-0.3949328064918518,-3.000000476837158,-0.0328730009496212,-0.04381145164370537,-0.05454551801085472,-0.06462250649929047,-0.9051783084869385,-0.9165740609169006,-0.9257203340530396,-0.903471827507019
0.21666666666666667,0.08224326372146606,0.15402470529079437,0.0,0.9734795689582825,0.0,0.0,-0.22877398133277893,0.36198875308036804,0.6761202216148376,0.0,0.0,0.0,-3.3646042346954346,-0.46220454573631287,0.6881092190742493,0.4200000464916229,1.0,3.613112085076864e-06,-2.270147660965449e-06,2.2102811669810762e-07,0.00026712531689554453,0.00026781708584167063,-0.00010414118878543377,-0.0017444660188630223,0.004215197172015905,-0.00012786770821548998,-0.434977650642395,0.5528987646102905,0.9430409669876099,-1.5344767570495605,3.6402029991149902,-5.038661003112793,0.40775102376937866,0.774970293045044,0.42000001668930054,-0.9546895027160645,2.999770164489746,-0.44496017694473267,-2.9999823570251465,-0.047474782913923264,-0.05838300660252571,-0.06901375949382782,-0.0781184509396553,-0.9441817402839661,-0.9314286112785339,-0.9118658900260925,-0.822817862033844
0.23333333333333334,0.08304974436759949,0.16710282862186432,0.0,0.9698077440261841,0.0,0.0,-0.2438708394765854,0.006901260931044817,0.8153882622718811,0.0,0.0,0.0,-1.0561319589614868,-0.46220454573631287,0.6881091594696045,0.4200000464916229,1.0,3.3818200790847186e-06,-2.2909732706466457e-06,2.7281285497338104e-07,0.0002669145178515464,0.000267800351139158,-0.00010433257557451725,-0.0017395960167050362,0.004209770355373621,-0.00012843783770222217,-0.4605843424797058,0.6011413931846619,0.8536908626556396,-1.3457529544830322,2.6011557579040527,-5.6060333251953125,0.40775102376937866,0.774970293045044,0.42000001668930054,-0.9046788215637207,3.0000016689300537,-0.49498945474624634,-3.0000007152557373,-0.0633530393242836,-0.07429663091897964,-0.08498237282037735,-0.09415992349386215,-0.8838381767272949,-0.8913954496383667,-0.8989176750183105,-0.9075222611427307
0.25,0.08195588737726212,0.17671412229537964,0.0,0.9618644714355469,0.0,0.0,-0.2735264003276825,-0.15021219849586487,0.5300199389457703,0.0,0.0,0.0,-4.518113136291504,-0.4622045159339905,0.6881091594696045,0.4200000464916229,0.9999999403953552,3.7065428841742687e-06,-2.2230481135920854e-06,-2.255024185160437e-07,0.000264246977167204,0.0002665663487277925,-0.00010457751341164112,-0.0017169496277347207,0.0041555920615792274,-0.0001306297053815797,-0.4798828363418579,0.6424291729927063,0.7540472149848938,-0.8092319965362549,2.1972389221191406,-6.2348127365112305,0.40775102376937866,0.774970293045044,0.42000001668930054,-0.854668140411377,3.000002384185791,-0.5450193285942078,-2.9999983310699463,-0.07922567427158356,-0.090060755610466,-0.10043918341398239,-0.10935298353433609,-1.0020558834075928,-1.001063346862793,-1.0004163980484009,-1.000001072883606
0.26666666666666666,0.08384991437196732,0.1818642020225525,0.0,0.9588397145271301,0.0,0.0,-0.2839479148387909,0.14255018532276154,0.19234444200992584,0.0,0.0,0.0,-0.2521111071109772,-0.46220454573631287,0.6881091594696045,0.4200000464916229,0.9999999403953552,3.719666437973501e-06,-2.403525968475151e-06,-1.8307196114619728e-07,0.00026623360463418067,0.00026729219825938344,-0.00010425853542983532,-0.0017326456727460027,0.004196504596620798,-0.00012850768689531833,-0.49173784255981445,0.6691268682479858,0.6490220427513123,-0.40678927302360535,1.0923655033111572,-6.383816719055176,0.40775102376937866,0.774970293045044,0.42000001668930054,-0.8046587705612183,2.9999988079071045,-0.5950490832328796,-2.9999988079071045,-0.09560442715883255,-0.10633601993322372,-0.11656707525253296,-0.1253739446401596,-0.9948049783706665,-0.995222270488739,-0.9955708980560303,-0.995879590511322
0.2833333333333333,0.08118251711130142,0.1833404153585434,0.0,0.95185387134552,0.0,0.0,-0.3065521717071533,-0.265946626663208,0.0518655888736248,0.0,0.0,0.0,-3.7195839881896973,-0.46220454573631287,0.6881092190742493,0.4200000464916229,0.9999999403953552,3.584083515306702e-06,-2.3155100734584266e-06,7.405373736446563e-08,0.0002652202092576772,0.00026455355691723526,-0.00010317121632397175,-0.001702261040918529,0.004185176454484463,-0.0001249932829523459,-0.4906069040298462,0.679572343826294,0.5445575714111328,0.5630060434341431,0.2496165931224823,-5.976596832275391,0.40775102376937866,0.774970293045044,0.42000001668930054,-0.7546499967575073,2.9999988079071045,-0.6450778245925903,-3.000002861022949,-0.11371097713708878,-0.12408481538295746,-0.13404549658298492,-0.1426394283771515,-1.0115758180618286,-1.0087268352508545,-1.0065580606460571,-1.004830241203308
0.3,0.07406846433877945,0.18291030824184418,0.0,0.9502559900283813,0.0,0.0,-0.31147006154060364,-0.3228682577610016,-0.10286935418844223,0.0,0.0,0.0,0.3168143033981323,-0.46220454573631287,0.6881091594696045,0.4200000464916229,1.0,3.7243050883262185e-06,-2.2719725620845566e-06,9.636089259856817e-08,0.0002631232200656086,0.0002652576076798141,-0.00010438100434839725,-0.0016960796201601624,0.004134746268391609,-0.00013027872773818672,-0.4789910316467285,0.6818836331367493,0.4549948275089264,0.8422876596450806,0.16129052639007568,-4.986113548278809,0.40775102376937866,0.774970293045044,0.42000001668930054,-0.7046421766281128,2.9999868869781494,-0.6951044797897339,-3.000000238418579,-0.13040396571159363,-0.1407710611820221,-0.1507752239704132,-0.15943369269371033,-0.7406644821166992,-0.8028830885887146,-0.861897349357605,-0.9164137840270996
0.31666666666666665,0.06685633212327957,0.17952148616313934,0.0,0.9451518654823303,0.0,0.0,-0.32663118839263916,-0.4868415892124176,-0.25110504031181335,0.0,0.0,0.0,-3.0626165866851807,-0.46220454573631287,0.6881091594696045,0.4200000464916229,1.0,3.6662634101958247e-06,-2.392624537606025e-06,1.6800159130525572e-07,0.0002660219615790993,0.0002670693211257458,-0.00010418472811579704,-0.0017311072442680597,0.004193564876914024,-0.00012849668564740568,-0.47144344449043274,0.6866991519927979,0.4251857399940491,0.15147516131401062,-0.10574344545602798,-0.097780741751194,0.40775102376937866,0.774970293045044,0.42000001668930054,-0.6547726988792419,2.9615869522094727,-0.7457112669944763,-2.841402053833008,-0.13732333481311798,-0.14884358644485474,-0.15969356894493103,-0.16883531212806702,-0.017173079773783684,-0.10743328928947449,-0.17045548558235168,-0.20378729701042175
0.3333333333333333,0.05728689953684807,0.17370854318141937,0.0,0.944879412651062,0.0,0.0,-0.3274184763431549,-0.6109798550605774,-0.38947615027427673,0.0,0.0,0.0,0.8389707803726196,-0.46220454573631287,0.6881092190742493,0.4200000464916229,1.0,3.5338491670700023e-06,-2.218376039309078e-06,-1.310199024828762e-07,0.0002669862878974527,0.0002675936557352543,-0.00010410253889858723,-0.0017412315355613828,0.004213185515254736,-0.00012772632180713117,-0.47169190645217896,0.6916264295578003,0.4244841933250427,0.06470166146755219,0.41322144865989685,-0.1610620617866516,0.40775102376937866,0.774970293045044,0.42000001668930054,-0.604766309261322,2.999986171722412,-0.7957432866096497,-2.999997854232788,-0.13970330357551575,-0.1517922282218933,-0.16282640397548676,-0.17178237438201904,-0.2341242879629135,-0.2268700748682022,-0.20149198174476624,-0.16134846210479736
0.35,0.04552090913057327,0.16563944518566132,0.0,0.9396265745162964,0.0,0.0,-0.3422016203403473,-0.7599484324455261,-0.5240409970283508,0.0,0.0,0.0,-2.7799782752990723,-0.46016165614128113,0.6918417811393738,0.42000046372413635,0.9991299510002136,-1.0758322787296493e-05,-2.140496508218348e-05,-0.041705355048179626,0.20116308331489563,0.3477952778339386,-0.0004678096156567335,0.02702387236058712,-0.004608190152794123,-7.782426357269287,-0.4684717655181885,0.6971548795700073,0.4219483435153961,0.32573533058166504,0.39275509119033813,-0.14472730457782745,0.40775102376937866,0.774970293045044,0.42000001668930054,-0.5547613501548767,2.999985933303833,-0.8457856178283691,-2.999997138977051,-0.14514216780662537,-0.1564517617225647,-0.16641323268413544,-0.17409394681453705,-0.377066433429718,-0.29831570386886597,-0.20404714345932007,-0.10134443640708923
0.36666666666666664,0.03776753321290016,0.15481224656105042,0.0,0.939776599407196,0.0,0.0,-0.34178927540779114,-0.4580584764480591,-0.6737872362136841,0.0,0.0,0.0,0.9759007692337036,-0.4544543921947479,0.702152669429779,0.42022180557250977,0.9947165846824646,-0.005562081933021545,0.00043556338641792536,-0.10250706225633621,0.35362523794174194,0.850479781627655,0.07983440160751343,-3.9363088607788086,0.6725689768791199,-5.55513858795166,-0.4633449912071228,0.7075960636138916,0.4215366244316101,0.36755576729774475,0.7771607041358948,0.04995351284742355,0.40775102376937866,0.774970293045044,0.42000001668930054,-0.5047235488891602,2.9998631477355957,-0.8957962393760681,-2.999971866607666,-0.15117286145687103,-0.1607186198234558,-0.1686456799507141,-0.17416007816791534,-0.48964178562164307,-0.34201231598854065,-0.17929330468177795,-0.011281134560704231
0.3833333333333333,0.026353919878602028,0.14265067875385284,0.0,0.9344543218612671,0.0,0.0,-0.35608306527137756,-0.7674008011817932,-0.7555028200149536,0.0,0.0,0.0,-2.7855288982391357,-0.4464854300022125,0.7186169624328613,0.42105889320373535,0.9887983798980713,-0.026867007836699486,0.003733129473403096,-0.14677143096923828,0.6584630608558655,1.1961625814437866,0.05733887106180191,-2.881575107574463,0.726548969745636,-6.656485080718994,-0.45282483100891113,0.7222743034362793,0.42289993166923523,0.8702999353408813,1.0721324682235718,0.09183884412050247,0.40775102376937866,0.774970293045044,0.42000001668930054,-0.4546884298324585,3.000001907348633,-0.9458098411560059,-2.9999749660491943,-0.16220274567604065,-0.16844402253627777,-0.17281495034694672,-0.17469894886016846,-0.6768268942832947,-0.4600171744823456,-0.2281073033809662,0.008214598521590233
0.4,0.018198732286691666,0.12779778242111206,0.0,0.9178925156593323,0.0,0.0,-0.3968290686607361,-0.4457285702228546,-0.9347027540206909,0.0,0.0,0.0,-6.065854549407959,-0.42814919352531433,0.7419945597648621,0.4227989912033081,0.9775844216346741,-0.04046923667192459,-0.007753297220915556,-0.2064722329378128,1.7015621662139893,1.4533040523529053,0.19286994636058807,18.566911697387695,-7.996096611022949,5.877289295196533,-0.43324336409568787,0.7452031373977661,0.42466598749160767,1.472196102142334,1.5175224542617798,0.22289343178272247,0.40775102376937866,0.774970293045044,0.42000001668930054,-0.40537792444229126,2.635721445083618,-0.9958267211914062,-3.000002384185791,-0.1714952439069748,-0.17428483068943024,-0.17490416765213013,-0.17291776835918427,-0.5873466730117798,-0.3631868064403534,-0.12282317131757736,0.12216097861528397
0.4166666666666667,0.013868099078536034,0.1100715920329094,0.0,0.8881251215934753,0.0,0.0,-0.4596017003059387,-0.18662415444850922,-1.1200063228607178,0.0,0.0,0.0,-9.113121032714844,-0.39015069603919983,0.7750175595283508,0.42799508571624756,0.9654987454414368,0.016139589250087738,-0.045023348182439804,-0.2559773921966553,3.4610514640808105,2.481679677963257,0.6530101299285889,9.529489517211914,-6.359471321105957,5.069796562194824,-0.3948432207107544,0.7781425714492798,0.42979371547698975,3.0922937393188477,2.4771363735198975,0.5537819266319275,0.40775102376937866,0.774970293045044,0.42000001668930054,-0.3794555366039276,0.9870198965072632,-0.9586058855056763,3.000002861022949,-0.18277689814567566,-0.1813996583223343,-0.1776757836341858,-0.17138023674488068,-0.6995064616203308,-0.43784797191619873,-0.17080524563789368,0.08867442607879639
0.43333333333333335,0.011835205368697643,0.09728337079286575,0.0,0.8419938087463379,0.0,0.0,-0.5394871830940247,-0.08281289041042328,-0.6398664712905884,0.0,0.0,0.0,-11.82313060760498,-0.3145895004272461,0.8221415281295776,0.43799811601638794,0.9431578516960144,0.09092608094215393,-0.0802716389298439,-0.30942216515541077,6.02498722076416,2.6788737773895264,0.7678635120391846,15.282003402709961,-14.431319236755371,25.350961685180664,-0.3190859854221344,0.8258102536201477,0.43987029790878296,5.669198036193848,3.282252788543701,0.7505441904067993,0.40775102376937866,0.774970293045044,0.42000001668930054,-0.3644634783267975,0.9124497175216675,-0.9085612893104553,2.996652603149414,-0.19863027334213257,-0.19443081319332123,-0.1852513700723648,-0.17396503686904907,-0.909574568271637,-0.8709393739700317,-0.5548629760742188,-0.2762402594089508
0.45,0.005824899300932884,0.09114324301481247,0.0,0.8024241924285889,0.0,0.0,-0.5967540740966797,-0.28360795974731445,-0.4272501468658447,0.0,0.0,0.0,-6.697741985321045,-0.21830140054225922,0.8641253113746643,0.45136162638664246,0.9022042155265808,0.12910553812980652,-0.09431125968694687,-0.40058019757270813,6.178248882293701,1.8845115900039673,0.9001696705818176,-4.398727893829346,3.019896984100342,-3.1414496898651123,-0.22290106117725372,0.869820773601532,0.45296239852905273,5.978723526000977,2.4134068489074707,0.8009289503097534,0.40775102376937866,0.774970293045044,0.42000001668930054,-0.3480835258960724,1.0439088344573975,-0.9344341158866882,-2.999093770980835,-0.21363238990306854,-0.209230437874794,-0.19824948906898499,-0.18178825080394745,-0.587693989276886,-0.6278290152549744,-0.5964688658714294,-0.3862212896347046
0.4666666666666667,0.00438230624422431,0.08431074768304825,0.0,0.7842186689376831,0.0,0.0,-0.6204845309257507,-0.03858952969312668,-0.3408629596233368,0.0,0.0,0.0,-2.419705867767334,-0.11291597783565521,0.8943044543266296,0.46333062648773193,0.8334484696388245,0.13759593665599823,-0.09949841350317001,-0.5258620977401733,6.614699840545654,0.3184707462787628,0.7616222500801086,3.098616361618042,-10.007168769836426,22.59173583984375,-0.11802756786346436,0.9015264511108398,0.46476083993911743,6.679256439208984,1.3185667991638184,0.7601966261863708,0.40775102376937866,0.774970293045044,0.42000001668930054,-0.33039987087249756,0.8751158714294434,-0.9844581484794617,-3.0000040531158447,-0.22374573349952698,-0.21867620944976807,-0.20618844032287598,-0.18591561913490295,-0.6436619162559509,-0.5393162965774536,-0.40244635939598083,-0.16251090168952942
0.48333333333333334,0.0017985337181016803,0.07403095066547394,0.0,0.7574498057365417,0.0,0.0,-0.6528933644294739,-0.22060714662075043,-0.8250855207443237,0.0,0.0,0.0,-6.037171840667725,-0.002456873655319214,0.9052048921585083,0.4731777310371399,0.740541398525238,0.14014650881290436,-0.09335090219974518,-0.6505712270736694,6.861445903778076,-0.3610515594482422,0.7401553988456726,-4.1590495109558105,-14.53687858581543,3.008387565612793,-0.008150323294103146,0.9153469800949097,0.4746667742729187,6.61651611328125,0.2878428101539612,0.5400817394256592,0.40775102376937866,0.774970293045044,0.42000001668930054,-0.3189220428466797,0.4523058831691742,-1.0344810485839844,-3.000002384185791,-0.23004575073719025,-0.2234085649251938,-0.2090860903263092,-0.18577347695827484,-0.18143895268440247,-0.0873638167977333,0.006597175728529692,0.14417664706707
0.5,0.0014173423405736685,0.06566676497459412,0.0,0.7408397197723389,0.0,0.0,-0.6716818809509277,0.002261136192828417,-0.4683743417263031,0.0,0.0,0.0,-1.7107579708099365,0.10340552031993866,0.8988447189331055,0.4808327853679657,0.6745461821556091,0.13402463495731354,-0.09553112089633942,-0.7196516394615173,5.74482536315918,-1.603204607963562,0.3012869954109192,-18.377826690673828,-7.92991304397583,22.870086669921875,0.0999315083026886,0.909665584564209,0.4830060601234436,6.439455032348633,-0.8139204978942871,0.483120858669281,0.40775102376937866,0.774970293045044,0.42000001668930054,-0.31447622179985046,0.051065173000097275,-1.084503173828125,-3.000002145767212,-0.2374117225408554,-0.22786158323287964,-0.21111151576042175,-0.1853642612695694,-0.31499409675598145,-0.16507209837436676,-0.05597091093659401,0.03189970180392265
0.5166666666666666,0.0035580690018832684,0.06082331761717796,0.0,0.7182457447052002,0.0,0.0,-0.6957895159721375,0.17644102871418,-0.17570780217647552,0.0,0.0,0.0,-4.705224990844727,0.1958998441696167,0.8808878660202026,0.48148638010025024,0.613321840763092,0.12408602237701416,-0.09474790841341019,-0.7742491960525513,4.4908223152160645,-1.7929835319519043,-0.1458238661289215,-6.374090194702148,3.629457950592041,18.398710250854492,0.19364416599273682,0.8930257558822632,0.48454445600509644,5.225054740905762,-1.4079526662826538,-0.10042677819728851,0.40775102376937866,0.774970293045044,0.42000001668930054,-0.3132322430610657,0.04599922150373459,-1.1345252990722656,-2.9995899200439453,-0.23998618125915527,-0.22991353273391724,-0.21193534135818481,-0.18557055294513702,-0.021257387474179268,-0.16008760035037994,-0.08899851143360138,-0.07311791181564331
0.5333333333333333,0.008184465579688549,0.06055128201842308,0.0,0.7099850177764893,0.0,0.0,-0.7042167782783508,0.3115248680114746,0.04764170944690704,0.0,0.0,0.0,-0.39962494373321533,0.270931214094162,0.8547477126121521,0.47327476739883423,0.5350103974342346,0.059364285320043564,-0.10542408376932144,-0.8361372947692871,4.100488662719727,-1.5139119625091553,-0.6710305213928223,-1.2277170419692993,6.202639579772949,-13.710763931274414,0.2681350111961365,0.8676928281784058,0.47848328948020935,3.8988919258117676,-1.7045550346374512,-0.5738844275474548,0.40775102376937866,0.774970293045044,0.42000001668930054,-0.3070906698703766,0.8157958388328552,-1.1845474243164062,-3.000000238418579,-0.23976163566112518,-0.23179425299167633,-0.2129836231470108,-0.1868850290775299,0.09041745960712433,-0.0026387327816337347,0.009981553070247173,-0.05063256621360779
0.55,0.015185179188847542,0.05715901032090187,0.0,0.6929816603660583,0.0,0.0,-0.7209551930427551,0.4706243574619293,-0.25510215759277344,0.0,0.0,0.0,-3.661811113357544,0.32985928654670715,0.8292029500007629,0.45736491680145264,0.4890078008174896,0.03474221006035805,-0.0969383493065834,-0.8661797046661377,2.9735326766967773,-2.0418972969055176,-0.9615557193756104,-5.480972766876221,3.4077343940734863,5.1092963218688965,0.3280341625213623,0.8421194553375244,0.4631913900375366,3.2034213542938232,-1.5747735500335693,-1.15384840965271,0.40775102376937866,0.774970293045044,0.42000001668930054,-0.2861114740371704,1.3474897146224976,-1.2345695495605469,-3.0000009536743164,-0.235721156001091,-0.2293190360069275,-0.21099470555782318,-0.18666505813598633,0.23810234665870667,0.17038685083389282,0.12902794778347015,0.004689267836511135
0.5666666666666667,0.020187560468912125,0.057094503194093704,0.0,0.6888749003410339,0.0,0.0,-0.7248802185058594,0.22982332110404968,0.018154418095946312,0.0,0.0,0.0,0.257150262594223,0.37401819229125977,0.7999601364135742,0.436681866645813,0.4598393738269806,-0.0009643935482017696,-0.08388537168502808,-0.8840305209159851,2.0205907821655273,-2.4174435138702393,-0.9001553654670715,7.674219131469727,15.89522933959961,13.606400489807129,0.37311655282974243,0.812109112739563,0.44286853075027466,2.2853379249572754,-1.8162767887115479,-1.368083119392395,0.40775102376937866,0.774970293045044,0.42000001668930054,-0.2717980444431305,0.2805060148239136,-1.2845916748046875,-2.999781370162964,-0.23408466577529907,-0.22815464437007904,-0.2104363590478897,-0.18817543983459473,0.18873350322246552,0.14343753457069397,0.06568246334791183,-0.09651884436607361
0.5833333333333334,0.026129042729735374,0.05805536359548569,0.0,0.6746469736099243,0.0,0.0,-0.7381405234336853,0.37714511156082153,0.10592567920684814,0.0,0.0,0.0,-3.1969590187072754,0.40517759323120117,0.7802187204360962,0.4202560484409332,0.44978806376457214,-0.0009876731783151627,0.0016580030787736177,-0.8931331634521484,1.2068417072296143,-0.8124744892120361,-0.040394362062215805,-1.084845781326294,-2.133586883544922,6.34927225112915,0.4037801921367645,0.7893737554550171,0.422638475894928,1.097564697265625,-0.734754204750061,-0.37291425466537476,0.40775102376937866,0.774970293045044,0.42000001668930054,-0.2717595100402832,0.051456429064273834,-1.334612488746643,-2.997732162475586,-0.2272741049528122,-0.22323422133922577,-0.20811890065670013,-0.18960383534431458,0.5845091342926025,0.4242870807647705,0.21519672870635986,-0.04682145267724991
0.6,0.033755913376808167,0.05619913712143898,0.0,0.6728970408439636,0.0,0.0,-0.7397361397743225,0.4834724962711334,-0.1330711841583252,0.0,0.0,0.0,0.6455473303794861,0.4203090965747833,0.7710806131362915,0.4214812219142914,0.4776287376880646,0.01829960197210312,-0.032442692667245865,-0.87777179479599,0.5782298445701599,-0.45322901010513306,0.0006275423802435398,0.9558522701263428,-0.47124072909355164,3.3730485439300537,0.4163680970668793,0.7799257040023804,0.4243451952934265,0.42236244678497314,-0.5963776111602783,-0.0771046131849289,0.40775102376937866,0.774970293045044,0.42000001668930054,-0.28110364079475403,-1.116751790046692,-1.3034154176712036,2.9996583461761475,-0.21621397137641907,-0.21467898786067963,-0.20307093858718872,-0.18884067237377167,0.5547342300415039,0.4485035538673401,0.26631417870521545,0.0356663353741169
0.6166666666666667,0.03903600946068764,0.05732343718409538,0.0,0.6609482169151306,0.0,0.0,-0.7504315376281738,0.26709598302841187,0.10034742206335068,0.0,0.0,0.0,-2.829747438430786,0.42423292994499207,0.7655808925628662,0.4212527871131897,0.5094192624092102,0.016503872349858284,-0.027797453105449677,-0.8599110245704651,0.1313318908214569,-0.24941131472587585,-0.012435396201908588,0.3239717185497284,0.5668298006057739,3.847313165664673,0.41921648383140564,0.7752043008804321,0.4260333180427551,0.05652667209506035,-0.1531812846660614,0.1891944408416748,0.40775102376937866,0.774970293045044,0.42000001668930054,-0.31905707716941833,-3.000429630279541,-1.3226243257522583,-2.99898362159729,-0.2071794867515564,-0.20757119357585907,-0.19919061660766602,-0.18882755935192108,0.6342515349388123,0.5000497102737427,0.28552159667015076,0.040919579565525055
0.6333333333333333,0.044744256883859634,0.06100108101963997,0.0,0.661557674407959,0.0,0.0,-0.7498942613601685,0.37171295285224915,0.2686387002468109,0.0,0.0,0.0,1.0001182556152344,0.4240918755531311,0.7629957795143127,0.4207609295845032,0.5287624001502991,0.010276122018694878,-0.01645246520638466,-0.8485481142997742,-0.1513940691947937,-0.042557958513498306,0.031168485060334206,-0.7879735231399536,-1.4439808130264282,3.3821775913238525,0.4190140962600708,0.77397620677948,0.4289041757583618,-0.057742662727832794,0.04379672184586525,0.1617380976676941,0.40775102376937866,0.774970293045044,0.42000001668930054,-0.3491669297218323,-0.7914665341377258,-1.3726000785827637,-2.9992363452911377,-0.19710558652877808,-0.1997067779302597,-0.19487422704696655,-0.18844592571258545,0.6091789603233337,0.4787665903568268,0.2665303349494934,0.035205092281103134
0.65,0.05233387276530266,0.06083900108933449,0.0,0.6510335803031921,0.0,0.0,-0.7590489387512207,0.4844360649585724,-0.018398575484752655,0.0,0.0,0.0,-2.5576579570770264,0.4212888181209564,0.763289749622345,0.42048999667167664,0.5519165992736816,0.006872966885566711,-0.010286425240337849,-0.8338074684143066,-0.23574453592300415,0.10733292251825333,-0.020726602524518967,0.45288771390914917,0.9581982493400574,3.426240921020508,0.4154075086116791,0.7779133915901184,0.42852383852005005,-0.37228822708129883,0.2293897569179535,-0.033146895468235016,0.40775102376937866,0.774970293045044,0.42000001668930054,-0.391902357339859,-2.999742269515991,-1.3341747522354126,2.9997191429138184,-0.1841747909784317,-0.18929076194763184,-0.18831029534339905,-0.185956209897995,0.6122747659683228,0.5102370977401733,0.3253677785396576,0.12520413100719452
0.6666666666666666,0.062232594937086105,0.06440521776676178,0.0,0.6529410481452942,0.0,0.0,-0.7574087381362915,0.6104303598403931,0.22864872217178345,0.0,0.0,0.0,1.2110459804534912,0.4172986149787903,0.7652165293693542,0.4200008511543274,0.5680964589118958,2.251998921565246e-05,1.6477251847391017e-05,-0.8229619264602661,-0.2345895916223526,0.11843273788690567,-6.0157206462463364e-05,-0.002514253370463848,-0.0004500179784372449,2.275305986404419,0.4100736379623413,0.7817533016204834,0.43012604117393494,-0.2857130765914917,0.345018208026886,0.15106414258480072,0.40775102376937866,0.774970293045044,0.42000001668930054,-0.4419308006763458,-2.99928879737854,-1.3533942699432373,-2.999887704849243,-0.17741070687770844,-0.1838051974773407,-0.18543840944766998,-0.1859198957681656,0.4200853109359741,0.3278805911540985,0.1607287973165512,-0.01487340684980154
0.6833333333333333,0.07374363392591476,0.06395772099494934,0.0,0.6766645312309265,0.0,0.0,-0.7362914085388184,0.7286979556083679,-0.06312411278486252,0.0,0.0,0.0,4.642989158630371,0.41424861550331116,0.7667359709739685,0.4199996292591095,0.5776849389076233,2.047238558589015e-05,-4.901721695205197e-06,-0.8162598609924316,-0.1878521591424942,0.08915762603282928,-0.0003038190770894289,-0.01873534359037876,0.011433877982199192,-0.25961562991142273,0.40707719326019287,0.785559892654419,0.43351590633392334,-0.1970771849155426,0.1090705618262291,0.2575988471508026,0.40775102376937866,0.774970293045044,0.42000001668930054,-0.4919803738594055,-2.998929023742676,-1.4033688306808472,-2.9998064041137695,-0.17031830549240112,-0.17745792865753174,-0.18089531362056732,-0.1831936538219452,0.27153030037879944,0.29567092657089233,0.2640356421470642,0.234727144241333
0.7,0.08700532466173172,0.060189638286828995,0.0,0.6864503026008606,0.0,0.0,-0.7271767258644104,0.8258544206619263,-0.280251681804657,0.0,0.0,0.0,0.578774631023407,0.4120078980922699,0.7677925825119019,0.4200000464916229,0.5763359665870667,1.4535780223923211e-07,1.2275576466436178e-07,-0.8172128200531006,-0.1141481027007103,0.05418494716286659,-4.858709871768951e-06,-0.00023461457749363035,0.0001270326756639406,-0.10997549444437027,0.4066298007965088,0.7882974743843079,0.43832188844680786,0.05343581363558769,0.12730690836906433,0.29908591508865356,0.40775102376937866,0.774970293045044,0.42000001668930054,-0.5419933795928955,-3.000000238418579,-1.4533798694610596,-3.000000238418579,-0.16730372607707977,-0.17342866957187653,-0.17661507427692413,-0.17853814363479614,0.1452280580997467,0.23088616132736206,0.27823320031166077,0.3362113833427429
0.7166666666666667,0.10187353938817978,0.05322207510471344,0.0,0.6738832592964172,0.0,0.0,-0.7388378381729126,0.9230665564537048,-0.4803588390350342,0.0,0.0,0.0,-2.979857921600342,0.4110141396522522,0.768266499042511,0.4200000464916229,0.5760490298271179,1.6843610239902773e-07,2.670526839665399e-07,-0.8174150586128235,-0.04035283252596855,0.019025618210434914,-7.365480996668339e-06,-0.000356017000740394,0.00021376495715230703,-0.030233703553676605,0.41156354546546936,0.7930001020431519,0.45069408416748047,0.5231732130050659,0.3679875135421753,1.2686741352081299,0.40775102376937866,0.774970293045044,0.42000001668930054,-0.5920050740242004,-2.9999799728393555,-1.5033981800079346,-3.000000238418579,-0.1671265810728073,-0.17158813774585724,-0.17365993559360504,-0.17428219318389893,-0.06020078808069229,0.048207011073827744,0.12806184589862823,0.21897397935390472
0.7333333333333333,0.12054888904094696,0.05189337953925133,0.0,0.6386387348175049,0.0,0.0,-0.7695066928863525,1.1992207765579224,0.05452696233987808,0.0,0.0,0.0,-6.634814739227295,0.41096171736717224,0.7682913541793823,0.42000001668930054,0.5760388970375061,-7.180722150224028e-07,-6.693944669677876e-06,-0.8174222707748413,0.00020729619427584112,-0.0003474252880550921,-5.558505654335022e-05,0.0051267072558403015,-0.0068780481815338135,-0.0015444161836057901,0.42953401803970337,0.7933859825134277,0.4776594638824463,1.7063394784927368,-0.26858144998550415,2.0731072425842285,0.40775102376937866,0.774970293045044,0.42000001668930054,-0.6420157551765442,-2.99969220161438,-1.5534164905548096,-2.9999568462371826,-0.17666111886501312,-0.17765751481056213,-0.17676234245300293,-0.1743798404932022,-0.7469111680984497,-0.5027968287467957,-0.2861820459365845,-0.07038186490535736
0.75,0.13474680483341217,0.0532710887491703,0.0,0.6168410181999207,0.0,0.0,-0.7870877385139465,0.7705856561660767,-0.0005394767504185438,0.0,0.0,0.0,-2.2110981941223145,0.41096198558807373,0.7682911157608032,0.4200000464916229,0.5760385394096375,4.2531402755230374e-07,-2.9951065698696766e-06,-0.8174223899841309,9.020592551678419e-05,-0.00026860192883759737,-8.613406680524349e-05,0.006505019497126341,-0.0016315148677676916,-0.0006866055773571134,0.4557036757469177,0.7930179834365845,0.5116036534309387,1.4622418880462646,0.13229863345623016,2.001127004623413,0.40775102376937866,0.774970293045044,0.42000001668930054,-0.659255862236023,0.6194484829902649,-1.603434681892395,-2.999999761581421,-0.18394628167152405,-0.18239805102348328,-0.17931422591209412,-0.17470413446426392,-0.15157055854797363,-0.08591975271701813,-0.03650619089603424,0.018164919689297676
0.7666666666666666,0.14407995343208313,0.05503510311245918,0.0,0.6210136413574219,0.0,0.0,-0.7837997674942017,0.4840882122516632,0.15579058229923248,0.0,0.0,0.0,1.5291264057159424,0.41096198558807373,0.7682911157608032,0.4200000464916229,0.5760387182235718,4.990187107978272e-07,-3.0694372981088236e-06,-0.8174222707748413,9.393671643920243e-05,-0.000264352944213897,-8.73918179422617e-05,0.0063714198768138885,-0.0015809396281838417,-0.0006896713166497648,0.47715023159980774,0.796656608581543,0.5390371084213257,1.0022457838058472,0.256139874458313,1.3818626403808594,0.40775102376937866,0.774970293045044,0.42000001668930054,-0.6258258819580078,2.999992847442627,-1.5740301609039307,3.000000476837158,-0.18472006916999817,-0.1824311763048172,-0.17883610725402832,-0.17365215718746185,0.036993250250816345,0.06686985492706299,0.08320701122283936,0.10011224448680878
0.7833333333333333,0.14900167286396027,0.05270134285092354,0.0,0.6136382222175598,0.0,0.0,-0.7895873188972473,0.2632431983947754,-0.1922178864479065,0.0,0.0,0.0,-2.0705387592315674,0.41096198558807373,0.7682910561561584,0.4200000464916229,0.5760384798049927,3.1114376497498597e-07,-3.0861160666972864e-06,-0.8174225091934204,9.726916323415935e-05,-0.00026308352244086564,-8.809915743768215e-05,0.006321104243397713,-0.0015349778113886714,-0.0006948263035155833,0.4863002896308899,0.8018548488616943,0.5558691024780273,0.08372543752193451,0.2469053417444229,0.7832094430923462,0.40775102376937866,0.774970293045044,0.42000001668930054,-0.5875245332717896,1.6801155805587769,-1.523988962173462,2.9999992847442627,-0.18152567744255066,-0.17910164594650269,-0.17559021711349487,-0.1705220490694046,0.11787904798984528,0.14645448327064514,0.15902292728424072,0.16317187249660492
0.8,0.15064916014671326,0.05584491416811943,0.0,0.6186915636062622,0.0,0.0,-0.7856339812278748,0.04260069504380226,0.32349100708961487,0.0,0.0,0.0,1.6543104648590088,0.41096198558807373,0.7682911157608032,0.4200000464916229,0.576038658618927,4.756281839490839e-07,-3.019958512595622e-06,-0.8174223899841309,9.39438323257491e-05,-0.0002640115562826395,-8.742348290979862e-05,0.006361810490489006,-0.001580457086674869,-0.0006893009995110333,0.4832559823989868,0.8041780591011047,0.5663813948631287,-0.40761345624923706,0.15420562028884888,0.5116989612579346,0.40775102376937866,0.774970293045044,0.42000001668930054,-0.5453400611877441,3.0000009536743164,-1.5396324396133423,-2.999999761581421,-0.18481551110744476,-0.18089520931243896,-0.17625980079174042,-0.17038589715957642,-0.23108088970184326,-0.14423950016498566,-0.08027397841215134,-0.038178328424692154
0.8166666666666667,0.1500057578086853,0.05537743121385574,0.0,0.6124231219291687,0.0,0.0,-0.7905301451683044,-0.06650445610284805,-0.12079235911369324,0.0,0.0,0.0,-1.8478071689605713,0.41096198558807373,0.7682911157608032,0.4200000464916229,0.5760388374328613,4.896479026683664e-07,-3.1038287033879897e-06,-0.8174222707748413,9.407618927070871e-05,-0.000264283997239545,-8.742185309529305e-05,0.006368735339492559,-0.001579104457050562,-0.0006898848805576563,0.46988028287887573,0.8056385517120361,0.5675143599510193,-1.1830837726593018,-0.0015232786536216736,-0.17565277218818665,0.40775102376937866,0.774970293045044,0.42000001668930054,-0.5305176377296448,-0.8964820504188538,-1.5007927417755127,3.0,-0.18547621369361877,-0.18063302338123322,-0.1753614842891693,-0.16914714872837067,0.03540630638599396,0.08239813148975372,0.11464978009462357,0.13003623485565186
0.8333333333333334,0.15257416665554047,0.05862607806921005,0.0,0.6186586022377014,0.0,0.0,-0.785659909248352,0.035315025597810745,0.0980764701962471,0.0,0.0,0.0,1.4998780488967896,0.41096198558807373,0.7682911157608032,0.4200000464916229,0.576038658618927,5.032810008742672e-07,-3.1879965263215126e-06,-0.8174223899841309,9.360494004795328e-05,-0.00026434968458488584,-8.730939589440823e-05,0.006373025476932526,-0.0015846816822886467,-0.0006889178184792399,0.4544339179992676,0.8052428960800171,0.5642600655555725,-0.6345073580741882,0.28721922636032104,-0.1850285530090332,0.40775102376937866,0.774970293045044,0.42000001668930054,-0.522710382938385,1.6080408096313477,-1.5169419050216675,-2.9999947547912598,-0.18834500014781952,-0.18234460055828094,-0.17611747980117798,-0.16922299563884735,0.22002537548542023,0.17839570343494415,0.1412489414215088,0.10489754378795624
0.85,0.15449237823486328,0.05614062398672104,0.0,0.6116713285446167,0.0,0.0,-0.7911120057106018,0.17401205003261566,-0.10133365541696548,0.0,0.0,0.0,-1.7071536779403687,0.41096198558807373,0.7682911157608032,0.4200000464916229,0.5760388970375061,4.943096314491413e-07,-3.0862597668601666e-06,-0.8174222707748413,9.380160918226466e-05,-0.00026429540594108403,-8.734525181353092e-05,0.006370664574205875,-0.0015818914398550987,-0.0006892482633702457,0.4450957477092743,0.8097000122070312,0.5597130060195923,-0.529890239238739,0.08683691918849945,-0.23047271370887756,0.40775102376937866,0.774970293045044,0.42000001668930054,-0.5399013757705688,-2.999997854232788,-1.4781666994094849,3.000000238418579,-0.18247424066066742,-0.17764912545681,-0.17240925133228302,-0.16638168692588806,0.09300053864717484,0.0779803991317749,0.07294782251119614,0.07156512141227722
0.8666666666666667,0.15950097143650055,0.05498535931110382,0.0,0.6186489462852478,0.0,0.0,-0.7856675386428833,0.34624555706977844,-0.10875717550516129,0.0,0.0,0.0,1.9364129304885864,0.41096198558807373,0.7682911157608032,0.4200000464916229,0.5760384202003479,4.607906589626509e-07,-2.975538791361032e-06,-0.81742262840271,8.971311035566032e-05,-0.0002668512752279639,-8.642207831144333e-05,0.00645794253796339,-0.001641780138015747,-0.0006839598645456135,0.4403528571128845,0.8099898099899292,0.5582859516143799,-0.06953901797533035,-0.0014505796134471893,0.07826641201972961,0.40775102376937866,0.774970293045044,0.42000001668930054,-0.5863073468208313,-2.5680909156799316,-1.4947847127914429,-2.999999761581421,-0.18329204618930817,-0.1780277043581009,-0.1721523106098175,-0.16542744636535645,-0.05384647473692894,-0.01834062486886978,0.032077357172966,0.08902858197689056
0.8833333333333333,0.1662021428346634,0.050753965973854065,0.0,0.6135602593421936,0.0,0.0,-0.7896478772163391,0.43867161870002747,-0.3121216297149658,0.0,0.0,0.0,-1.6859644651412964,0.41096198558807373,0.7682911157608032,0.4200000464916229,0.5760385990142822,4.933581294608302e-07,-3.050802206416847e-06,-0.8174225091934204,9.37941949814558e-05,-0.00026438210625201464,-8.735619485378265e-05,0.006372834090143442,-0.0015826638555154204,-0.0006893931422382593,0.4428783655166626,0.8077232837677002,0.5554662942886353,0.36386287212371826,-0.2785601019859314,-0.22131294012069702,0.40775102376937866,0.774970293045044,0.42000001668930054,-0.6354513168334961,-2.9999947547912598,-1.5448030233383179,-3.000000476837158,-0.18422932922840118,-0.17819049954414368,-0.1712091714143753,-0.16320016980171204,-0.048385512083768845,0.01427765004336834,0.09817521274089813,0.19371318817138672
0.9,0.17544636130332947,0.04829954728484154,0.0,0.5874277353286743,0.0,0.0,-0.8092766404151917,0.6048532724380493,-0.059525564312934875,0.0,0.0,0.0,-4.778631210327148,0.41096198558807373,0.7682911157608032,0.4200000464916229,0.5760385990142822,4.593904918692715e-07,-3.12941688207502e-06,-0.8174223899841309,9.460074215894565e-05,-0.0002646746579557657,-8.750543929636478e-05,0.006375678349286318,-0.0015741669340059161,-0.0006915064877830446,0.4515613317489624,0.8019287586212158,0.5544568300247192,0.6783168315887451,-0.3902024030685425,0.2317976951599121,0.40775102376937866,0.774970293045044,0.42000001668930054,-0.6741976141929626,-1.7281153202056885,-1.5948213338851929,-2.999999523162842,-0.1851501315832138,-0.1786499172449112,-0.17083334922790527,-0.16176101565361023,-0.03423690423369408,-0.03151952847838402,-0.007710023317486048,0.029340943321585655
0.9166666666666666,0.18209950625896454,0.04876379296183586,0.0,0.5762947797775269,0.0,0.0,-0.817241907119751,0.3149712085723877,0.06987994909286499,0.0,0.0,0.0,-0.6336685419082642,0.41096198558807373,0.7682911157608032,0.4200000464916229,0.5760388374328613,4.987588795302145e-07,-3.027841785296914e-06,-0.8174222707748413,9.370796760777012e-05,-0.000264329748461023,-8.733058348298073e-05,0.006372005213052034,-0.0015832383651286364,-0.0006891117664054036,0.4613874554634094,0.7994611263275146,0.5591039657592773,0.4391937851905823,-0.003202902153134346,0.2992856502532959,0.40775102376937866,0.774970293045044,0.42000001668930054,-0.6727136969566345,1.6140711307525635,-1.644837737083435,-3.0,-0.1832905262708664,-0.1774436980485916,-0.16999514400959015,-0.16110970079898834,0.19901353120803833,0.1328149288892746,0.0781540721654892,0.03029930405318737
