vladlanda/robotic-transformer/data/env_000_episode_0162.csv
sim_time_s,robot_box_x,robot_box_y,robot_box_z,robot_box_quat_w,robot_box_quat_x,robot_box_quat_y,robot_box_quat_z,robot_box_linvel_x,robot_box_linvel_y,robot_box_linvel_z,robot_box_angvel_x,robot_box_angvel_y,robot_box_angvel_z,cube_world_x,cube_world_y,cube_world_z,cube_quat_w,cube_quat_x,cube_quat_y,cube_quat_z,cube_linvel_x,cube_linvel_y,cube_linvel_z,cube_angvel_x,cube_angvel_y,cube_angvel_z,endpoint_world_x,endpoint_world_y,endpoint_world_z,endpoint_linvel_x,endpoint_linvel_y,endpoint_linvel_z,target_cube_world_x,target_cube_world_y,target_cube_world_z,gripper_actual_pos_rad_gp_leftgearjoint,gripper_actual_vel_rad_s_gp_leftgearjoint,gripper_actual_pos_rad_gp_rotatingjoint,gripper_actual_vel_rad_s_gp_rotatingjoint,motor_angle_rad_joint1,motor_angle_rad_joint2,motor_angle_rad_joint3,motor_angle_rad_joint4,motor_speed_rad_s_joint1,motor_speed_rad_s_joint2,motor_speed_rad_s_joint3,motor_speed_rad_s_joint4
0.0,0.0,0.0,0.0,1.0,0.0,0.0,0.0,0.0,0.0,0.0,0.0,0.0,0.0,-0.34570884704589844,0.6488856077194214,0.41999998688697815,1.0,0.0,0.0,0.0,0.0,0.0,0.0,0.0,0.0,0.0,3.42540442943573e-06,-0.005000244826078415,1.313499927520752,0.0,0.0,0.0,0.4003579914569855,0.768017590045929,0.42000001668930054,-1.5707999467849731,0.0,0.0,0.0,0.0,0.0,0.0,0.0,0.0,0.0,0.0,0.0
0.016666666666666666,0.002906128764152527,0.00208819517865777,0.0,0.9999107122421265,0.0,0.0,0.013362952508032322,0.24167637526988983,0.17974552512168884,0.0,0.0,0.0,2.724982261657715,-0.345708966255188,0.6488853096961975,0.41999998688697815,1.0,3.2799905511637917e-06,-8.339794135281409e-07,8.465515577427141e-08,-1.9833774786093272e-05,0.00017983047291636467,-6.132945418357849e-05,0.0009432245860807598,-0.004689525347203016,-0.00031981084612198174,-0.0070845093578100204,0.003539408091455698,1.315946340560913,-0.8119609355926514,0.9925051331520081,0.18089081346988678,0.4003579914569855,0.768017590045929,0.42000001668930054,-1.5301096439361572,3.00000262260437,-0.045856643468141556,-3.0000014305114746,0.0008794518653303385,0.0008056560764089227,0.0007194119971245527,0.0006196984322741628,0.11093423515558243,0.09757288545370102,0.08335907757282257,0.06823034584522247
0.03333333333333333,0.00876417476683855,0.006632192991673946,0.0,0.9999303221702576,0.0,0.0,0.011803443543612957,0.4013599753379822,0.3101535439491272,0.0,0.0,0.0,-1.096773624420166,-0.34570908546447754,0.6488852500915527,0.4200000464916229,1.0,3.3908531804627273e-06,-2.132488134520827e-06,-3.710428941872124e-08,0.0002635785494931042,0.0002693783608265221,-0.00010509602725505829,-0.0017707846127450466,0.004130862653255463,-0.00013547409616876394,-0.02723236009478569,0.026584863662719727,1.316530466079712,-1.5652940273284912,1.6472234725952148,-0.08581996709108353,0.4003579914569855,0.768017590045929,0.42000001668930054,-1.4800903797149658,2.9999988079071045,-0.09589646011590958,-3.000000238418579,0.0029101818799972534,0.0025766449980437756,0.002205182798206806,0.0017933403141796589,0.16250824928283691,0.13799963891506195,0.11201348900794983,0.08442927896976471
0.05,0.01816379837691784,0.013672981411218643,0.0,0.999854326248169,0.0,0.0,-0.017068631947040558,0.6290823817253113,0.468713641166687,0.0,0.0,0.0,-4.293945789337158,-0.3457091152667999,0.6488853096961975,0.4200000464916229,1.0,3.7651284401363228e-06,-2.2118861124909017e-06,5.622759147172474e-09,0.00026530996547080576,0.00026691515813581645,-0.00010440382175147533,-0.00172425655182451,0.004177390597760677,-0.00012948956282343715,-0.05638382211327553,0.05794356018304825,1.311919927597046,-1.9162700176239014,2.0532965660095215,-0.4475095570087433,0.4003579914569855,0.768017590045929,0.42000001668930054,-1.4300720691680908,2.9999985694885254,-0.14592385292053223,-3.0000009536743164,0.0058922492899000645,0.005055228713899851,0.004146041814237833,0.0031606743577867746,0.2045494168996811,0.1640540510416031,0.12165746092796326,0.07725468277931213
0.06666666666666667,0.03045199066400528,0.023115945979952812,0.0,0.9996324777603149,0.0,0.0,-0.027108149603009224,0.770970344543457,0.6131957769393921,0.0,0.0,0.0,-0.2150409072637558,-0.3457091152667999,0.6488852500915527,0.4200000464916229,0.9999999403953552,3.406779342185473e-06,-2.285526988998754e-06,4.300881926155853e-07,0.00026702668401412666,0.00026791810523718596,-0.00010437914170324802,-0.0017406379338353872,0.004211799707263708,-0.00012850595521740615,-0.09320068359375,0.09116716682910919,1.3012553453445435,-2.3488504886627197,2.1099421977996826,-0.8254833817481995,0.4003579914569855,0.768017590045929,0.42000001668930054,-1.380043625831604,2.9999964237213135,-0.13663478195667267,3.000000238418579,0.008602260611951351,0.007049575448036194,0.005384897347539663,0.003602934069931507,0.15036694705486298,0.10011245310306549,0.04774484410881996,-0.006824145559221506
0.08333333333333333,0.04533183574676514,0.03035205602645874,0.0,0.9987000823020935,0.0,0.0,-0.050972018390893936,0.9574803709983826,0.37062737345695496,0.0,0.0,0.0,-3.679915189743042,-0.3457091152667999,0.6488852500915527,0.4200000464916229,1.0,3.6973510759708006e-06,-2.1889595700486097e-06,-2.632473012909031e-07,0.00026389595586806536,0.0002658632874954492,-0.0001043388620018959,-0.0017081330297514796,0.004150238819420338,-0.00012991279072593898,-0.12728561460971832,0.13080242276191711,1.287032127380371,-1.7838941812515259,2.6219210624694824,-0.8698581457138062,0.4003579914569855,0.768017590045929,0.42000001668930054,-1.3300360441207886,3.0000030994415283,-0.16851651668548584,-3.000002145767212,0.009737423621118069,0.007045986130833626,0.004199746064841747,0.0011937019880861044,0.016083640977740288,-0.07018672674894333,-0.15873786807060242,-0.2495017647743225
0.1,0.05430440232157707,0.04001418128609657,0.0,0.994502067565918,0.0,0.0,-0.10471715778112411,0.39878541231155396,0.6644762754440308,0.0,0.0,0.0,-7.441823959350586,-0.3457091152667999,0.6488852500915527,0.4200000464916229,0.9999999403953552,3.62046125701454e-06,-2.2652770894637797e-06,1.745990232393524e-07,0.0002667673397809267,0.00026740715838968754,-0.0001040794886648655,-0.0017385382670909166,0.004209098871797323,-0.0001277524424949661,-0.15872026979923248,0.1775534301996231,1.2670671939849854,-1.9324383735656738,2.981091022491455,-1.436390995979309,0.4003579914569855,0.768017590045929,0.42000001668930054,-1.2800174951553345,2.9999964237213135,-0.13489516079425812,3.000000476837158,0.0034532106947153807,-3.709528027684428e-05,-0.003735399106517434,-0.0076501197181642056,-0.4948629140853882,-0.5333043932914734,-0.5742915272712708,-0.6181190013885498
0.11666666666666667,0.0653001219034195,0.052290890365839005,0.0,0.9902803897857666,0.0,0.0,-0.13908551633358002,0.845963716506958,0.6854979395866394,0.0,0.0,0.0,-2.9725708961486816,-0.3457091152667999,0.6488852500915527,0.4200000464916229,1.0,3.7984573282301426e-06,-2.262856924062362e-06,-1.5021495869405044e-07,0.00026374036679044366,0.000265661277808249,-0.00010429229587316513,-0.001705389702692628,0.004147546831518412,-0.000129798921989277,-0.19675275683403015,0.22150251269340515,1.2409417629241943,-2.3003525733947754,2.7301454544067383,-1.6589891910552979,0.4003579914569855,0.768017590045929,0.42000001668930054,-1.2300221920013428,2.9999988079071045,-0.1667492687702179,-3.000000238418579,-0.0030447980388998985,-0.007486975286155939,-0.012150321155786514,-0.01704561710357666,-0.19757713377475739,-0.28386110067367554,-0.36848217248916626,-0.45141392946243286
0.13333333333333333,0.075721874833107,0.06080231815576553,0.0,0.9826931953430176,0.0,0.0,-0.1852405071258545,0.7079177498817444,0.49732235074043274,0.0,0.0,0.0,-6.18296480178833,-0.3457091152667999,0.6488853096961975,0.4200000464916229,0.9999999403953552,3.5505674986779923e-06,-2.2298811472865054e-06,2.928988749317796e-07,0.0002670325629878789,0.0002677947923075408,-0.00010417005978524685,-0.0017441295785829425,0.004213639069348574,-0.00012800269178114831,-0.23186704516410828,0.2717326283454895,1.2100913524627686,-1.8395874500274658,3.4382340908050537,-1.9501497745513916,0.4003579914569855,0.768017590045929,0.42000001668930054,-1.1800017356872559,2.9999990463256836,-0.13532735407352448,2.999999761581421,-0.008912748657166958,-0.014728911221027374,-0.020731592550873756,-0.02693289890885353,-0.21316345036029816,-0.3249877989292145,-0.4322899281978607,-0.5349421501159668
0.15,0.08534882217645645,0.0662914514541626,0.0,0.9778531789779663,0.0,0.0,-0.2092919796705246,0.5174183249473572,0.2607286274433136,0.0,0.0,0.0,-1.7654491662979126,-0.34570908546447754,0.6488852500915527,0.4200000464916229,1.0,3.3323158277198672e-06,-2.1020741769461893e-06,1.3129495357588894e-07,0.00026730698300525546,0.0002685973886400461,-0.00010459753684699535,-0.0017497893422842026,0.0042156679555773735,-0.00012928378419019282,-0.26653486490249634,0.32605278491973877,1.171586513519287,-1.9767060279846191,3.46169114112854,-2.677009344100952,0.4003579914569855,0.768017590045929,0.42000001668930054,-1.1312255859375,2.8285181522369385,-0.16717514395713806,-2.9999992847442627,-0.013204182498157024,-0.02058282308280468,-0.028064841404557228,-0.03566272556781769,-0.3133805990219116,-0.3875240683555603,-0.45691198110580444,-0.5216672420501709
0.16666666666666666,0.09050183743238449,0.07302305847406387,0.0,0.970274806022644,0.0,0.0,-0.24200591444969177,0.23108260333538055,0.46270135045051575,0.0,0.0,0.0,-4.770538330078125,-0.3457091152667999,0.6488852500915527,0.4200000464916229,1.0,3.7374031762738014e-06,-2.2332269509206526e-06,-1.876583866078363e-07,0.00026432963204570115,0.000266269693383947,-0.00010446016676723957,-0.0017119431868195534,0.004157555289566517,-0.00013001271872781217,-0.2992250919342041,0.38668525218963623,1.1192848682403564,-1.8001878261566162,3.816096305847168,-3.5387165546417236,0.4003579914569855,0.768017590045929,0.42000001668930054,-1.0812921524047852,2.999999761581421,-0.14476792514324188,3.000000238418579,-0.02091352269053459,-0.029177648946642876,-0.03746252506971359,-0.04578503593802452,-0.5372888445854187,-0.5728288292884827,-0.6036776304244995,-0.6301528811454773
0.18333333333333332,0.0987459197640419,0.07745983451604843,0.0,0.9540536403656006,0.0,0.0,-0.29963594675064087,0.5530855059623718,0.18472152948379517,0.0,0.0,0.0,-7.8495869636535645,-0.3457091152667999,0.6488853096961975,0.4200000464916229,0.9999999403953552,3.6603628359443974e-06,-2.302359689565492e-06,2.52847314641258e-07,0.0002669092209544033,0.00026760256150737405,-0.0001041253563016653,-0.0017412835732102394,0.004211553372442722,-0.00012787102605216205,-0.32470518350601196,0.4557155668735504,1.0516459941864014,-1.1466410160064697,4.343852996826172,-4.477190017700195,0.4003579914569855,0.768017590045929,0.42000001668930054,-1.0312851667404175,2.99999737739563,-0.17659521102905273,-2.999999523162842,-0.030730515718460083,-0.03923409432172775,-0.04770412668585777,-0.05616406351327896,-0.7197921276092529,-0.7065126895904541,-0.69158935546875,-0.675463080406189
0.2,0.10214081406593323,0.08489397168159485,0.0,0.9413883686065674,0.0,0.0,-0.33732467889785767,0.19904695451259613,0.450258731842041,0.0,0.0,0.0,-3.4360947608947754,-0.3457091152667999,0.6488852500915527,0.4200000464916229,1.0,3.5909113194065867e-06,-2.3004156446404522e-06,1.3872801218894892e-07,0.00026654769317246974,0.0002673235139809549,-0.00010424060747027397,-0.0017326237866654992,0.004203386604785919,-0.00012819955009035766,-0.34426048398017883,0.5171761512756348,0.9677830934524536,-0.821696400642395,3.5577316284179688,-5.373027801513672,0.4003579914569855,0.768017590045929,0.42000001668930054,-0.981275200843811,2.9999992847442627,-0.22662395238876343,-3.0000009536743164,-0.046230290085077286,-0.054727934300899506,-0.06320072710514069,-0.07150575518608093,-0.7157723307609558,-0.7457672357559204,-0.7775689959526062,-0.8085023760795593
0.21666666666666667,0.1100345253944397,0.08829265087842941,0.0,0.9393106698989868,0.0,0.0,-0.3430677652359009,0.4497150480747223,0.12972795963287354,0.0,0.0,0.0,0.41866829991340637,-0.3457091152667999,0.6488853096961975,0.4200000464916229,1.0,3.607003463912406e-06,-2.2610099676967366e-06,1.9621262836722053e-08,0.0002644715132191777,0.00026558490935713053,-0.00010396563448011875,-0.0017088435124605894,0.004164247307926416,-0.00012832065112888813,-0.36191385984420776,0.5650033950805664,0.8762373924255371,-0.8662947416305542,2.429006576538086,-5.71580171585083,0.4003579914569855,0.768017590045929,0.42000001668930054,-0.9312646389007568,2.999993324279785,-0.2766551673412323,-2.999999523162842,-0.05732561647891998,-0.06588345021009445,-0.07447106391191483,-0.08291953802108765,-0.905579149723053,-0.8594897389411926,-0.8187583684921265,-0.7828549146652222
0.23333333333333334,0.11262521147727966,0.09456095844507217,0.0,0.9328720569610596,0.0,0.0,-0.3602078855037689,0.13260917365550995,0.3872619867324829,0.0,0.0,0.0,-2.8765523433685303,-0.34570908546447754,0.6488852500915527,0.4200000464916229,0.9999999403953552,3.742284661711892e-06,-2.2275266928772908e-06,4.589204536387115e-07,0.00026475160848349333,0.00026671282830648124,-0.00010453304275870323,-0.00171882554423064,0.004165722988545895,-0.0001301881711697206,-0.37081223726272583,0.6003510355949402,0.7764350175857544,-0.3050636053085327,1.8145040273666382,-6.021215915679932,0.4003579914569855,0.768017590045929,0.42000001668930054,-0.8812539577484131,2.9999961853027344,-0.3266877830028534,-3.0000009536743164,-0.07403197139501572,-0.08252520114183426,-0.09109579026699066,-0.0995391383767128,-0.9436468482017517,-0.9525229930877686,-0.9627887010574341,-0.9727393388748169
0.25,0.11360496282577515,0.0961918979883194,0.0,0.9329642653465271,0.0,0.0,-0.35996904969215393,0.022163115441799164,0.013333376497030258,0.0,0.0,0.0,0.8687673807144165,-0.3457091152667999,0.6488852500915527,0.4200000464916229,1.0,3.3944668302865466e-06,-2.2821172933618072e-06,1.336286601372194e-07,0.00026679367874749005,0.0002679389144759625,-0.00010439474135637283,-0.0017417257186025381,0.004206514917314053,-0.00012883533781860024,-0.378322571516037,0.6231458187103271,0.6773937940597534,-0.3276480436325073,0.9059354066848755,-5.903340816497803,0.4003579914569855,0.768017590045929,0.42000001668930054,-0.8312442898750305,2.999985694885254,-0.37672027945518494,-3.0000016689300537,-0.08981246501207352,-0.0980386808514595,-0.10637398809194565,-0.11460638791322708,-0.9912977814674377,-0.9607758522033691,-0.9286206364631653,-0.8989492058753967
0.26666666666666666,0.11109079420566559,0.09817077964544296,0.0,0.9279616475105286,0.0,0.0,-0.37267565727233887,-0.21292923390865326,0.15190844237804413,0.0,0.0,0.0,-2.5176632404327393,-0.3457091152667999,0.6488853096961975,0.4200000464916229,1.0,3.683521072161966e-06,-2.3101358692656504e-06,2.1009377348946146e-07,0.0002647914516273886,0.0002662584010977298,-0.00010421173647046089,-0.0017169081838801503,0.004168983548879623,-0.00012909200449939817,-0.3772783577442169,0.6378555297851562,0.5789468884468079,0.4308312237262726,0.6764448881149292,-5.650180339813232,0.4003579914569855,0.768017590045929,0.42000001668930054,-0.7812354564666748,3.000000476837158,-0.42675134539604187,-3.000004529953003,-0.10732927173376083,-0.11535400152206421,-0.123539999127388,-0.13165731728076935,-1.0137985944747925,-1.010386347770691,-1.0077900886535645,-1.00572669506073
0.2833333333333333,0.10974075645208359,0.0979083925485611,0.0,0.9292423725128174,0.0,0.0,-0.3694707453250885,-0.12497072666883469,-0.04778095707297325,0.0,0.0,0.0,1.0679632425308228,-0.3457091152667999,0.6488852500915527,0.4200000464916229,1.0,3.307066890556598e-06,-2.212535264334292e-06,2.6255446528011817e-07,0.00026660817093215883,0.0002674499119166285,-0.00010424223728477955,-0.0017352099530398846,0.004204348661005497,-0.0001282771409023553,-0.3706464171409607,0.6469458937644958,0.48768317699432373,0.6106128096580505,0.16219496726989746,-5.279427528381348,0.4003579914569855,0.768017590045929,0.42000001668930054,-0.7312268614768982,3.0000007152557373,-0.47678062319755554,-3.000002861022949,-0.12403900176286697,-0.13202621042728424,-0.14014270901679993,-0.14819669723510742,-1.0618259906768799,-1.046786904335022,-1.035295844078064,-1.026094675064087
0.3,0.10493214428424835,0.09577272832393646,0.0,0.9243361353874207,0.0,0.0,-0.3815792500972748,-0.29212167859077454,-0.19567477703094482,0.0,0.0,0.0,-2.3831632137298584,-0.3457091152667999,0.6488852500915527,0.4200000464916229,1.0,3.6565252230502665e-06,-2.2969290967012057e-06,-2.4498103812220506e-07,0.0002653322007972747,0.0002659547026269138,-0.00010385178029537201,-0.001716420752927661,0.004181907512247562,-0.000127459890791215,-0.3539515733718872,0.648353099822998,0.4032847285270691,1.3639376163482666,0.09278492629528046,-5.016971588134766,0.4003579914569855,0.768017590045929,0.42000001668930054,-0.6812723875045776,2.9999914169311523,-0.5268080830574036,-2.999999523162842,-0.14093779027462006,-0.14882956445217133,-0.1568925976753235,-0.16491322219371796,-0.9179288148880005,-0.9315436482429504,-0.9435653686523438,-0.9534143209457397
0.31666666666666665,0.09856115281581879,0.0908893570303917,0.0,0.9259353280067444,0.0,0.0,-0.3776821196079254,-0.423756867647171,-0.3325449228286743,0.0,0.0,0.0,1.404241681098938,-0.34532707929611206,0.6498816013336182,0.4204161763191223,0.9997479319572449,0.00828175526112318,0.0021569859236478806,-0.02075476571917534,0.13096757233142853,0.3022778034210205,0.11370411515235901,5.686979293823242,-0.001651015947572887,-11.620797157287598,-0.35256749391555786,0.6538920402526855,0.425238698720932,0.2914960980415344,0.5119136571884155,-0.16467687487602234,0.4003579914569855,0.768017590045929,0.42000001668930054,-0.6314175128936768,3.000001907348633,-0.5774615406990051,-2.999868392944336,-0.14435727894306183,-0.15211966633796692,-0.15964119136333466,-0.16667428612709045,-0.4024142622947693,-0.36143460869789124,-0.299150675535202,-0.21486440300941467
0.3333333333333333,0.08988062292337418,0.08371247351169586,0.0,0.9216695427894592,0.0,0.0,-0.38797587156295776,-0.5660125613212585,-0.4706992208957672,0.0,0.0,0.0,-2.2449843883514404,-0.34317681193351746,0.6548119187355042,0.4209520220756531,0.9935555458068848,0.024258553981781006,-0.0026155319064855576,-0.110688716173172,0.12914003431797028,0.2955349385738373,0.008879892528057098,0.4611820578575134,-0.06205234304070473,-10.545112609863281,-0.3463951647281647,0.6604616045951843,0.42263656854629517,0.4575696289539337,0.38794559240341187,-0.1498660445213318,0.4003579914569855,0.768017590045929,0.42000001668930054,-0.5814126133918762,2.999973773956299,-0.627519428730011,-2.999866247177124,-0.15198324620723724,-0.15873771905899048,-0.16490668058395386,-0.1702500432729721,-0.4736143946647644,-0.39740172028541565,-0.30325931310653687,-0.19245103001594543
0.35,0.07896249741315842,0.07431139051914215,0.0,0.9236781001091003,0.0,0.0,-0.38316941261291504,-0.6943699717521667,-0.6030113697052002,0.0,0.0,0.0,1.5498578548431396,-0.3376117944717407,0.6637292504310608,0.4214635491371155,0.9881559014320374,0.037535712122917175,-0.005495929624885321,-0.14868955314159393,0.4258808493614197,0.6404698491096497,0.04985997825860977,2.710791826248169,-0.8234893083572388,-4.000216960906982,-0.3391110301017761,0.6685308218002319,0.42051589488983154,0.47245505452156067,0.5891842842102051,-0.08983753621578217,0.4003579914569855,0.768017590045929,0.42000001668930054,-0.5314077138900757,2.9999747276306152,-0.6775702238082886,-2.9999759197235107,-0.16034241020679474,-0.16545899212360382,-0.16968174278736115,-0.17280977964401245,-0.46438056230545044,-0.35945600271224976,-0.2362092137336731,-0.09742152690887451
0.36666666666666664,0.07139527052640915,0.06222222000360489,0.0,0.9197995066642761,0.0,0.0,-0.3923887312412262,-0.3708583414554596,-0.7730158567428589,0.0,0.0,0.0,-2.1040353775024414,-0.330152302980423,0.6746647357940674,0.42105168104171753,0.9834961891174316,0.026439618319272995,-0.004966373555362225,-0.17891773581504822,0.5328372716903687,0.7415003180503845,-0.03366207331418991,-1.887825846672058,0.5212517380714417,-4.024325847625732,-0.32980820536613464,0.6771634221076965,0.41976016759872437,0.6771546006202698,0.5580231547355652,-0.022649608552455902,0.4003579914569855,0.768017590045929,0.42000001668930054,-0.4814033508300781,2.999974250793457,-0.7276288270950317,-2.9999771118164062,-0.1677728295326233,-0.1708097904920578,-0.17259661853313446,-0.17299583554267883,-0.4040893316268921,-0.2668144106864929,-0.10801348090171814,0.0679679661989212
0.3833333333333333,0.060832198709249496,0.05019405856728554,0.0,0.9032055139541626,0.0,0.0,-0.42920827865600586,-0.7079442739486694,-0.7480413913726807,0.0,0.0,0.0,-5.781655788421631,-0.3167712986469269,0.6913397908210754,0.42087653279304504,0.9766091108322144,0.01326158456504345,-0.010142860934138298,-0.214372918009758,1.088959813117981,1.2791411876678467,0.09742503613233566,0.5176392197608948,-3.6178088188171387,-4.906205177307129,-0.3152104914188385,0.6907118558883667,0.4209935665130615,1.1143686771392822,1.1336309909820557,0.1609063446521759,0.4003579914569855,0.768017590045929,0.42000001668930054,-0.43140003085136414,2.9999754428863525,-0.7776883840560913,-2.9998228549957275,-0.17640411853790283,-0.1768537163734436,-0.1756931096315384,-0.1728697419166565,-0.4608105719089508,-0.3173042833805084,-0.15227127075195312,0.029334478080272675
0.4,0.05374385789036751,0.03519051522016525,0.0,0.8721199035644531,0.0,0.0,-0.4892922043800354,-0.3823220431804657,-0.9398317933082581,0.0,0.0,0.0,-8.80892276763916,-0.282265305519104,0.7175601720809937,0.42551764845848083,0.9624592065811157,0.017545338720083237,-0.043101999908685684,-0.26740729808807373,3.276491403579712,1.9491996765136719,0.2511332631111145,23.98857307434082,-16.10148811340332,6.504787445068359,-0.2805537283420563,0.7172385454177856,0.42538267374038696,2.950047016143799,2.000803232192993,0.5581320524215698,0.4003579914569855,0.768017590045929,0.42000001668930054,-0.3949779272079468,1.4881244897842407,-0.8277122378349304,-3.000002384185791,-0.1847623735666275,-0.18223223090171814,-0.1777753233909607,-0.1714448630809784,-0.6095684170722961,-0.389534592628479,-0.15436352789402008,0.08820639550685883
0.4166666666666667,0.04938569664955139,0.023974832147359848,0.0,0.8246803283691406,0.0,0.0,-0.5655991435050964,-0.18723733723163605,-0.6583521962165833,0.0,0.0,0.0,-11.456857681274414,-0.20750625431537628,0.7561478018760681,0.43229642510414124,0.9411539435386658,0.07069171220064163,-0.0855829194188118,-0.3192295432090759,5.879233360290527,2.282257556915283,0.4072597026824951,16.487131118774414,-17.743261337280273,18.318323135375977,-0.20563706755638123,0.7562234997749329,0.43239909410476685,5.564902305603027,2.7735037803649902,0.5332691669464111,0.4003579914569855,0.768017590045929,0.42000001668930054,-0.3739810287952423,1.0624970197677612,-0.7951322793960571,2.995312452316284,-0.19824300706386566,-0.19234175980091095,-0.18331004679203033,-0.17256489396095276,-0.6302218437194824,-0.531125009059906,-0.30365505814552307,-0.09085915982723236
0.43333333333333335,0.048661597073078156,0.01573825627565384,0.0,0.7860993146896362,0.0,0.0,-0.6181002259254456,0.009385046549141407,-0.43425416946411133,0.0,0.0,0.0,-6.671462535858154,-0.11441613733768463,0.7976267337799072,0.44246166944503784,0.9049014449119568,0.10864092409610748,-0.11767789721488953,-0.39433783292770386,5.70902681350708,1.782894492149353,0.5733397006988525,6.375828742980957,-10.510150909423828,1.7799562215805054,-0.11350967735052109,0.7986418604850769,0.4422144889831543,5.6701860427856445,2.1905405521392822,0.6666089296340942,0.4003579914569855,0.768017590045929,0.42000001668930054,-0.3541300296783447,1.3049025535583496,-0.8222644329071045,-3.0000011920928955,-0.20907460153102875,-0.20137040317058563,-0.188998743891716,-0.17527732253074646,-0.6060693860054016,-0.49540185928344727,-0.3188214898109436,-0.1676127165555954
0.45,0.04935065656900406,0.011595487594604492,0.0,0.7686022520065308,0.0,0.0,-0.639726996421814,0.13202360272407532,-0.21423542499542236,0.0,0.0,0.0,-2.138941764831543,-0.020506229251623154,0.827046811580658,0.45265892148017883,0.8423376083374023,0.12684930860996246,-0.13388386368751526,-0.5064104795455933,5.7378830909729,0.6535425186157227,0.6359884142875671,13.803912162780762,-10.642562866210938,16.957475662231445,-0.02010604739189148,0.8273822069168091,0.451977401971817,5.688798427581787,1.3346396684646606,0.6833202242851257,0.4003579914569855,0.768017590045929,0.42000001668930054,-0.3318336009979248,1.2029211521148682,-0.8722886443138123,-3.0000030994415283,-0.22023995220661163,-0.21026745438575745,-0.19491437077522278,-0.17867957055568695,-0.5839478969573975,-0.460561603307724,-0.311494380235672,-0.18876682221889496
0.4666666666666667,0.049269501119852066,0.01109503023326397,0.0,0.7448731064796448,0.0,0.0,-0.6672061681747437,-0.05928156152367592,0.040693122893571854,0.0,0.0,0.0,-5.222898006439209,0.07059647887945175,0.8401331901550293,0.4598332345485687,0.7979692220687866,0.11638904362916946,-0.14125557243824005,-0.574234664440155,5.237540245056152,-0.3404906094074249,0.40240558981895447,3.649914026260376,-9.210378646850586,18.063919067382812,0.071014903485775,0.8405792117118835,0.4596026837825775,5.392331123352051,0.28882288932800293,0.46934089064598083,0.4003579914569855,0.768017590045929,0.42000001668930054,-0.3144756257534027,0.8748089075088501,-0.922314465045929,-3.0000016689300537,-0.23010000586509705,-0.21809569001197815,-0.20041640102863312,-0.1821666657924652,-0.5674503445625305,-0.437550812959671,-0.3006363809108734,-0.17902903258800507
0.48333333333333334,0.05176094174385071,0.005866006016731262,0.0,0.732210636138916,0.0,0.0,-0.6810782551765442,0.13371045887470245,-0.29664885997772217,0.0,0.0,0.0,-1.0650300979614258,0.15437017381191254,0.8411555290222168,0.46295273303985596,0.7514528036117554,0.10282251983880997,-0.1377253383398056,-0.6370069980621338,4.527093887329102,-0.9012763500213623,0.05787369981408119,0.2477227747440338,-5.578480243682861,9.830829620361328,0.15459710359573364,0.8404260873794556,0.4630081057548523,4.7262067794799805,-0.4709041714668274,0.1226547509431839,0.4003579914569855,0.768017590045929,0.42000001668930054,-0.29839879274368286,1.0028564929962158,-0.9723387956619263,-3.0000016689300537,-0.23379263281822205,-0.2203035205602646,-0.20125974714756012,-0.1818896234035492,-0.34671103954315186,-0.21325922012329102,-0.10531154274940491,-0.020355483517050743
0.5,0.05124308168888092,0.005643478594720364,0.0,0.7114582657814026,0.0,0.0,-0.7027283310890198,-0.036353886127471924,0.0023749663960188627,0.0,0.0,0.0,-4.296835422515869,0.22564536333084106,0.82981938123703,0.4596336781978607,0.7148077487945557,0.07668007165193558,-0.14461277425289154,-0.6798948645591736,3.826734781265259,-1.3256351947784424,-0.30577895045280457,-0.30011969804763794,-7.743322372436523,15.40295696258545,0.2257678508758545,0.8295041918754578,0.46088141202926636,4.039831638336182,-0.8027112483978271,-0.27603816986083984,0.4003579914569855,0.768017590045929,0.42000001668930054,-0.27968189120292664,0.959605872631073,-1.0223619937896729,-3.0000014305114746,-0.23999334871768951,-0.2249283492565155,-0.2044937163591385,-0.18410004675388336,-0.012794265523552895,-0.19202792644500732,-0.1648922711610794,-0.15288685262203217
0.5166666666666666,0.052607350051403046,0.007844503968954086,0.0,0.7052281498908997,0.0,0.0,-0.7089804410934448,0.12392706423997879,0.17113086581230164,0.0,0.0,0.0,-0.09113934636116028,0.28542065620422363,0.8133366107940674,0.4505002200603485,0.6802879571914673,0.04538797214627266,-0.13623914122581482,-0.718739926815033,3.1270363330841064,-1.391471266746521,-0.7137391567230225,3.8622124195098877,-12.246916770935059,7.111608028411865,0.2851930260658264,0.812969446182251,0.4520585536956787,3.1519429683685303,-1.1404602527618408,-0.6801478862762451,0.4003579914569855,0.768017590045929,0.42000001668930054,-0.2658810615539551,0.751913845539093,-1.0723841190338135,-3.0000011920928955,-0.2392646074295044,-0.22713853418827057,-0.20680741965770721,-0.1867082118988037,0.11307352781295776,-0.045045413076877594,-0.08438003808259964,-0.13294947147369385
0.5333333333333333,0.056817736476659775,0.005292392801493406,0.0,0.6893362402915955,0.0,0.0,-0.7244415283203125,0.24457356333732605,-0.19088198244571686,0.0,0.0,0.0,-3.467512369155884,0.33332690596580505,0.7987629175186157,0.4338209927082062,0.66104656457901,0.013745670206844807,-0.12550674378871918,-0.7396461963653564,2.2891147136688232,-1.2246578931808472,-1.1065951585769653,-2.9757723808288574,-1.0974146127700806,13.91091251373291,0.33286428451538086,0.7978105545043945,0.435580313205719,2.5665221214294434,-0.8945119380950928,-1.10201096534729,0.4003579914569855,0.768017590045929,0.42000001668930054,-0.2539782226085663,0.6794710159301758,-1.122406244277954,-3.0000009536743164,-0.23196972906589508,-0.22334857285022736,-0.205092653632164,-0.18707643449306488,0.40483489632606506,0.22161056101322174,0.08854859322309494,-0.04650251567363739
0.55,0.06350409239530563,0.007302334997802973,0.0,0.6859884858131409,0.0,0.0,-0.7276123762130737,0.41603606939315796,0.11556341499090195,0.0,0.0,0.0,0.3624359965324402,0.36341801285743713,0.7868601083755493,0.42559829354286194,0.658230721950531,0.034245382994413376,-0.10545256733894348,-0.7446067929267883,1.3293639421463013,-0.812966525554657,0.04641927033662796,-5.7718305587768555,0.060946300625801086,9.329352378845215,0.3629569113254547,0.7851203680038452,0.4282808005809784,1.3164218664169312,-0.5347344279289246,-0.14352969825267792,0.4003579914569855,0.768017590045929,0.42000001668930054,-0.23935601115226746,0.6836515665054321,-1.1725118160247803,-3.0005271434783936,-0.22911418974399567,-0.22259178757667542,-0.20606619119644165,-0.18980541825294495,0.3114453852176666,0.15906725823879242,0.011052340269088745,-0.12948323786258698
0.5666666666666667,0.06749974936246872,0.00943691935390234,0.0,0.6726146936416626,0.0,0.0,-0.7399928569793701,0.17850421369075775,0.16477346420288086,0.0,0.0,0.0,-3.100785493850708,0.38023197650909424,0.781884491443634,0.42357659339904785,0.6560314297676086,0.023948613554239273,-0.06841938197612762,-0.7512441873550415,0.39637795090675354,-0.42803704738616943,-0.04371969401836395,3.7192177772521973,-2.4355530738830566,16.216672897338867,0.37879765033721924,0.7793930768966675,0.42571118474006653,0.7353594303131104,-0.24081040918827057,-0.14787176251411438,0.4003579914569855,0.768017590045929,0.42000001668930054,-0.22978469729423523,0.5370035171508789,-1.2225810289382935,-2.999711751937866,-0.2225671112537384,-0.21870970726013184,-0.20503947138786316,-0.19139915704727173,0.4255518317222595,0.27649205923080444,0.09936106950044632,-0.06199346482753754
0.5833333333333334,0.07178912311792374,0.009164059534668922,0.0,0.6726614832878113,0.0,0.0,-0.7399503588676453,0.28927746415138245,-0.08553722500801086,0.0,0.0,0.0,0.8887132406234741,0.3864825963973999,0.7773327827453613,0.4214496612548828,0.6584246754646301,0.02038559876382351,-0.027392009273171425,-0.7518717050552368,-0.10917087644338608,-0.6398274302482605,-0.07346092164516449,3.323498010635376,-0.12367513030767441,17.78850555419922,0.3852517008781433,0.7741682529449463,0.422993540763855,0.2153792828321457,-0.2859170436859131,-0.1564628928899765,0.4003579914569855,0.768017590045929,0.42000001668930054,-0.22224625945091248,0.38031432032585144,-1.2726235389709473,-2.9971847534179688,-0.21709506213665009,-0.21483400464057922,-0.2035159021615982,-0.19203439354896545,0.3073364496231079,0.23932990431785583,0.11240392923355103,-0.005166907794773579
0.6,0.0784132182598114,0.011802377179265022,0.0,0.6618373394012451,0.0,0.0,-0.7496474981307983,0.42487797141075134,0.16978541016578674,0.0,0.0,0.0,-2.6310670375823975,0.38661304116249084,0.7746217250823975,0.42098379135131836,0.699826180934906,-0.013424966484308243,-0.01723073050379753,-0.7139790058135986,0.013728336431086063,-0.3643121123313904,0.13364198803901672,7.582197189331055,-15.748665809631348,20.3734130859375,0.3868843615055084,0.7741507291793823,0.4235188364982605,0.04813837260007858,0.1968851089477539,0.12667526304721832,0.4003579914569855,0.768017590045929,0.42000001668930054,-0.23854224383831024,-2.440730094909668,-1.3225491046905518,-2.999926805496216,-0.2119666486978531,-0.21119002997875214,-0.2023737132549286,-0.19312620162963867,0.4513549208641052,0.3270014226436615,0.14018864929676056,-0.02464209869503975
0.6166666666666667,0.0867544487118721,0.014168462716042995,0.0,0.6635240912437439,0.0,0.0,-0.748154878616333,0.554509699344635,0.1722344011068344,0.0,0.0,0.0,1.1941020488739014,0.38559025526046753,0.7726246118545532,0.42158663272857666,0.7529427409172058,0.030743423849344254,-0.026576587930321693,-0.6568300724029541,-0.18177080154418945,-0.24033743143081665,0.0680883377790451,0.6305272579193115,-3.126967430114746,7.931623458862305,0.38692212104797363,0.776231050491333,0.4261873960494995,-0.06030631437897682,0.1064140647649765,0.19575726985931396,0.4003579914569855,0.768017590045929,0.42000001668930054,-0.28825506567955017,-2.9999969005584717,-1.372527003288269,-2.999140501022339,-0.20291607081890106,-0.2042115330696106,-0.19851848483085632,-0.19198597967624664,0.5613111853599548,0.45134949684143066,0.27629175782203674,0.12505817413330078
0.6333333333333333,0.09276605397462845,0.013312849216163158,0.0,0.6837735772132874,0.0,0.0,-0.7296942472457886,0.29590120911598206,-0.11150390654802322,0.0,0.0,0.0,4.320596694946289,0.38303083181381226,0.7690876126289368,0.42144814133644104,0.7946550250053406,0.0299854576587677,-0.022755522280931473,-0.6058929562568665,-0.16036050021648407,-0.21356084942817688,-0.011568769812583923,-0.13570620119571686,0.6125014424324036,6.974678039550781,0.38608014583587646,0.7756054401397705,0.42987096309661865,-0.06554022431373596,-0.1250872015953064,0.2525782287120819,0.4003579914569855,0.768017590045929,0.42000001668930054,-0.3382437229156494,-2.9996721744537354,-1.4225071668624878,-2.9996848106384277,-0.19547051191329956,-0.19740791618824005,-0.19341576099395752,-0.18821825087070465,0.35315120220184326,0.3688085675239563,0.32214054465293884,0.2952132225036621
0.65,0.09925527125597,0.00899630319327116,0.0,0.690746545791626,0.0,0.0,-0.7230969667434692,0.4218299090862274,-0.31418171525001526,0.0,0.0,0.0,0.12585864961147308,0.38102278113365173,0.765938937664032,0.42036595940589905,0.817017674446106,0.0003614740271586925,0.003142495173960924,-0.5766038298606873,-0.06858926266431808,-0.15324360132217407,-0.08769836276769638,-2.0942697525024414,10.804374694824219,-1.885575294494629,0.3871029019355774,0.7749922871589661,0.4345747232437134,0.14901304244995117,-0.057203978300094604,0.31277161836624146,0.4003579914569855,0.768017590045929,0.42000001668930054,-0.38825738430023193,-2.999998092651367,-1.472522258758545,-2.9999711513519287,-0.19043369591236115,-0.19172707200050354,-0.18802529573440552,-0.18275701999664307,0.2984400689601898,0.3502770960330963,0.350710928440094,0.3733435869216919
0.6666666666666666,0.10767404735088348,0.0014907271834090352,0.0,0.6766083836555481,0.0,0.0,-0.7363430857658386,0.5443156957626343,-0.5238794684410095,0.0,0.0,0.0,-3.1787660121917725,0.3804072141647339,0.7648051381111145,0.4200000464916229,0.8091009259223938,-1.0888276591458634e-07,-1.427116558261332e-07,-0.5876695513725281,-0.021075651049613953,-0.04115592688322067,-1.3673816283699125e-05,-8.305109076900408e-05,-0.0010440887417644262,-1.5532814264297485,0.3913620114326477,0.7769932746887207,0.44774168729782104,0.3701077103614807,0.23019427061080933,1.3309136629104614,0.4003579914569855,0.768017590045929,0.42000001668930054,-0.43827152252197266,-2.999985456466675,-1.52254056930542,-3.0,-0.1873607039451599,-0.18760479986667633,-0.18366265296936035,-0.1778264045715332,0.1326635479927063,0.2004256546497345,0.22215205430984497,0.26096564531326294
0.6833333333333333,0.12011968344449997,-0.00042298389598727226,0.0,0.6505810022354126,0.0,0.0,-0.759436845779419,0.8278650045394897,0.022590456530451775,0.0,0.0,0.0,-4.554373741149902,0.3803447484970093,0.764683187007904,0.41999998688697815,0.8076765537261963,6.529332949867239e-07,-8.470405191474129e-06,-0.5896257162094116,0.0003601978824008256,-0.0005754142184741795,-1.2272503226995468e-05,0.030654653906822205,0.004380460828542709,9.543191845295951e-05,0.39931535720825195,0.7796190977096558,0.4765438139438629,0.6420062780380249,0.15149885416030884,2.1787545680999756,0.4003579914569855,0.768017590045929,0.42000001668930054,-0.4882850646972656,-2.999925136566162,-1.572558879852295,-2.999995708465576,-0.19216077029705048,-0.19019123911857605,-0.18481948971748352,-0.1774156540632248,-0.3821922242641449,-0.24575138092041016,-0.1526389718055725,-0.05334904417395592
0.7,0.12941232323646545,0.0030506576877087355,0.0,0.6404526829719543,0.0,0.0,-0.7679976224899292,0.4449280798435211,0.002913164207711816,0.0,0.0,0.0,-0.47060123085975647,0.3803451359272003,0.764683723449707,0.42000001668930054,0.8076763153076172,1.0726296295615612e-06,-3.7556194456556113e-06,-0.5896260738372803,0.0002450476458761841,-0.00019087771943304688,-7.111206650733948e-05,0.002660779282450676,0.004280907101929188,0.0006766677834093571,0.4072730541229248,0.7814977169036865,0.5111681818962097,0.46543267369270325,0.2367754578590393,1.8872299194335938,0.4003579914569855,0.768017590045929,0.42000001668930054,-0.5114888548851013,-0.0221114382147789,-1.6225770711898804,-2.999999523162842,-0.19777794182300568,-0.19375577569007874,-0.18706758320331573,-0.1783573180437088,0.11883147060871124,0.12448321282863617,0.09782641381025314,0.07924483716487885
0.7166666666666667,0.13382865488529205,0.005015342030674219,0.0,0.6539721488952637,0.0,0.0,-0.7565186023712158,0.20249462127685547,0.17280235886573792,0.0,0.0,0.0,2.9530982971191406,0.3803451359272003,0.764683723449707,0.42000001668930054,0.807676374912262,1.253651248589449e-06,-4.2134442992392e-06,-0.589625895023346,0.00024850558838807046,-0.00019856162543874234,-7.191626355051994e-05,0.0027463925071060658,0.0043713306076824665,0.0006955215358175337,0.4175855219364166,0.7828725576400757,0.5350072383880615,0.620795726776123,-0.03642628714442253,1.085174322128296,0.4003579914569855,0.768017590045929,0.42000001668930054,-0.5145577192306519,-0.3217385709285736,-1.58349609375,3.0,-0.19472360610961914,-0.19070088863372803,-0.18451015651226044,-0.1762247532606125,0.2384612113237381,0.23780065774917603,0.20740382373332977,0.17622023820877075
0.7333333333333333,0.13414329290390015,0.0023610226344317198,0.0,0.6548067331314087,0.0,0.0,-0.7557963728904724,0.09194522351026535,-0.13825750350952148,0.0,0.0,0.0,-0.6970283389091492,0.3803451359272003,0.7646836638450623,0.42000001668930054,0.8076762557029724,1.130503051172127e-06,-3.93456775782397e-06,-0.5896261930465698,0.0002463137498125434,-0.00019467409583739936,-7.135444320738316e-05,0.0026940293610095978,0.004323993809521198,0.0006856683176010847,0.4240421652793884,0.783979594707489,0.5471041798591614,0.13157159090042114,-0.12287626415491104,0.4869486093521118,0.4003579914569855,0.768017590045929,0.42000001668930054,-0.5339758396148682,-1.8542402982711792,-1.5334436893463135,3.0,-0.1856439858675003,-0.18243905901908875,-0.1775125116109848,-0.17051610350608826,0.3313543498516083,0.3357100784778595,0.30808165669441223,0.2677270174026489
0.75,0.13763929903507233,0.004733104258775711,0.0,0.6669178009033203,0.0,0.0,-0.7451313138008118,0.2011224627494812,0.14741216599941254,0.0,0.0,0.0,2.5715479850769043,0.3803451657295227,0.764683723449707,0.42000001668930054,0.807676374912262,1.2103321296308422e-06,-3.924870270566316e-06,-0.5896260142326355,0.00024465800379402936,-0.00019168970175087452,-7.104361429810524e-05,0.0026433677412569523,0.0042887963354587555,0.0006783139542676508,0.42899900674819946,0.7804225087165833,0.5529050827026367,0.4831829369068146,-0.12773331999778748,0.2427670955657959,0.4003579914569855,0.768017590045929,0.42000001668930054,-0.5422747731208801,0.646733283996582,-1.548882246017456,-3.0000007152557373,-0.18243767321109772,-0.17888286709785461,-0.17408771812915802,-0.16746953129768372,0.34205344319343567,0.31914952397346497,0.2758710980415344,0.22313056886196136
0.7666666666666666,0.1381821483373642,0.003940120805054903,0.0,0.6645262837409973,0.0,0.0,-0.7472648620605469,-0.023698637261986732,-0.10157238692045212,0.0,0.0,0.0,-1.2625069618225098,0.3803451359272003,0.7646836638450623,0.42000001668930054,0.8076761960983276,1.2354586260698852e-06,-4.043594344693702e-06,-0.5896262526512146,0.0002463011769577861,-0.00019456484005786479,-7.137306965887547e-05,0.002694017719477415,0.004322050139307976,0.0006854456732980907,0.43555477261543274,0.7770477533340454,0.5546387434005737,0.31797850131988525,-0.29190370440483093,0.10043931007385254,0.4003579914569855,0.768017590045929,0.42000001668930054,-0.570253312587738,-3.0000007152557373,-1.5100208520889282,3.000000238418579,-0.1777452975511551,-0.17433471977710724,-0.16997313499450684,-0.16396471858024597,0.22132839262485504,0.22758644819259644,0.21808597445487976,0.19623541831970215
0.7833333333333333,0.14014595746994019,0.00700306985527277,0.0,0.6728724241256714,0.0,0.0,-0.7397585511207581,0.15307247638702393,0.18761911988258362,0.0,0.0,0.0,2.1026875972747803,0.3803451359272003,0.764683723449707,0.42000001668930054,0.8076763153076172,1.1945039659622125e-06,-3.9059282244124915e-06,-0.5896260142326355,0.0002448196755722165,-0.0001909633429022506,-7.11074098944664e-05,0.0026491538155823946,0.004281267058104277,0.0006767319282516837,0.4426804780960083,0.7698376774787903,0.557485818862915,0.5904421210289001,-0.4018809199333191,0.2741033732891083,0.4003579914569855,0.768017590045929,0.42000001668930054,-0.5973499417304993,-0.45128822326660156,-1.525967001914978,-2.9999992847442627,-0.1772109717130661,-0.1731419861316681,-0.16830626130104065,-0.16201414167881012,0.15063153207302094,0.15947338938713074,0.16676054894924164,0.1702602505683899
0.8,0.14389072358608246,0.005783925298601389,0.0,0.6689384579658508,0.0,0.0,-0.7433177828788757,0.2646874785423279,-0.0995960384607315,0.0,0.0,0.0,-1.5211750268936157,0.3803451359272003,0.7646836638450623,0.42000001668930054,0.8076763153076172,1.152904019363632e-06,-3.957331955461996e-06,-0.589626133441925,0.0002464325516484678,-0.0001949002908077091,-7.138075307011604e-05,0.00269704288803041,0.0043267663568258286,0.0006862326408736408,0.4527606964111328,0.764579176902771,0.5607138872146606,0.5537883639335632,-0.39772385358810425,0.23045966029167175,0.4003579914569855,0.768017590045929,0.42000001668930054,-0.6255035400390625,-2.7048213481903076,-1.5759738683700562,-3.000000238418579,-0.17263853549957275,-0.16877996921539307,-0.16409938037395477,-0.15796729922294617,0.1650373637676239,0.17924490571022034,0.1966712474822998,0.2116074115037918
0.8166666666666667,0.15007610619068146,0.008107179775834084,0.0,0.6651813983917236,0.0,0.0,-0.746681809425354,0.3891482949256897,0.15377368032932281,0.0,0.0,0.0,-0.17521554231643677,0.3803451359272003,0.7646836638450623,0.42000001668930054,0.8076760172843933,1.127999667005497e-06,-3.764320581467473e-06,-0.5896265506744385,0.0002466790610924363,-0.00019492782303132117,-7.156981155276299e-05,0.002691370900720358,0.004328944254666567,0.0006871053483337164,0.46393853425979614,0.7581598162651062,0.5657340884208679,0.814551591873169,-0.31265172362327576,0.42528069019317627,0.4003579914569855,0.768017590045929,0.42000001668930054,-0.6393304467201233,0.7564777135848999,-1.6259921789169312,-3.0,-0.17149017751216888,-0.1673578917980194,-0.16230283677577972,-0.15581433475017548,0.1704365611076355,0.15753936767578125,0.1552020162343979,0.1559598296880722
0.8333333333333334,0.15363216400146484,0.006295866332948208,0.0,0.6794298887252808,0.0,0.0,-0.7337403893470764,0.15402531623840332,-0.15872173011302948,0.0,0.0,0.0,3.060920238494873,0.3803451359272003,0.764683723449707,0.42000001668930054,0.8076761960983276,1.1439969966886565e-06,-4.016376806248445e-06,-0.5896262526512146,0.00025109146372415125,-0.00020323831995483488,-7.278053089976311e-05,0.0027909534983336926,0.004428036045283079,0.0007086924160830677,0.4749968647956848,0.752492368221283,0.5751193761825562,0.5127750635147095,-0.33771955966949463,0.7548868656158447,0.4003579914569855,0.768017590045929,0.42000001668930054,-0.6431015133857727,-1.050864338874817,-1.5869063138961792,3.000000238418579,-0.16741640865802765,-0.1635967195034027,-0.1587207168340683,-0.15240593254566193,0.1704714149236679,0.16249874234199524,0.15909713506698608,0.1522027999162674
0.85,0.15371949970722198,0.008358827792108059,0.0,0.6811285018920898,0.0,0.0,-0.7321638464927673,-0.02737543173134327,0.14819712936878204,0.0,0.0,0.0,-0.5645878911018372,0.3803451359272003,0.7646836638450623,0.42000001668930054,0.8076763153076172,1.2499692729761591e-06,-4.124484348722035e-06,-0.589626133441925,0.00025102950166910887,-0.00020278384909033775,-7.26387370377779e-05,0.002799835754558444,0.004423787351697683,0.0007071454892866313,0.48201802372932434,0.7468931674957275,0.5831489562988281,0.3747251033782959,-0.3212096691131592,0.3009470999240875,0.4003579914569855,0.768017590045929,0.42000001668930054,-0.6468297839164734,0.4745998978614807,-1.6011745929718018,-2.999999761581421,-0.16750942170619965,-0.16342151165008545,-0.1582489013671875,-0.15172326564788818,0.0783054456114769,0.07667432725429535,0.07709208875894547,0.07484189420938492
0.8666666666666667,0.15115107595920563,0.013405720703303814,0.0,0.6921719312667847,0.0,0.0,-0.7217326760292053,-0.22116266191005707,0.3523825407028198,0.0,0.0,0.0,2.553863525390625,0.3803451657295227,0.7646836638450623,0.42000001668930054,0.8076760768890381,1.1209075410079095e-06,-3.9195583667606115e-06,-0.5896263122558594,0.0002467354934196919,-0.0001955476909643039,-7.15854112058878e-05,0.0026914121117442846,0.004335296805948019,0.0006885101902298629,0.4850151538848877,0.7428715229034424,0.5885201692581177,0.014772966504096985,-0.06837628781795502,0.4011543095111847,0.4003579914569855,0.768017590045929,0.42000001668930054,-0.6157777905464172,3.000000476837158,-1.6511852741241455,-3.000000476837158,-0.16552574932575226,-0.16191931068897247,-0.15717321634292603,-0.15109917521476746,0.1931055784225464,0.13577914237976074,0.08187231421470642,0.026999428868293762
