vladlanda/robotic-transformer/data/env_000_episode_0204.csv
sim_time_s,robot_box_x,robot_box_y,robot_box_z,robot_box_quat_w,robot_box_quat_x,robot_box_quat_y,robot_box_quat_z,robot_box_linvel_x,robot_box_linvel_y,robot_box_linvel_z,robot_box_angvel_x,robot_box_angvel_y,robot_box_angvel_z,cube_world_x,cube_world_y,cube_world_z,cube_quat_w,cube_quat_x,cube_quat_y,cube_quat_z,cube_linvel_x,cube_linvel_y,cube_linvel_z,cube_angvel_x,cube_angvel_y,cube_angvel_z,endpoint_world_x,endpoint_world_y,endpoint_world_z,endpoint_linvel_x,endpoint_linvel_y,endpoint_linvel_z,target_cube_world_x,target_cube_world_y,target_cube_world_z,gripper_actual_pos_rad_gp_leftgearjoint,gripper_actual_vel_rad_s_gp_leftgearjoint,gripper_actual_pos_rad_gp_rotatingjoint,gripper_actual_vel_rad_s_gp_rotatingjoint,motor_angle_rad_joint1,motor_angle_rad_joint2,motor_angle_rad_joint3,motor_angle_rad_joint4,motor_speed_rad_s_joint1,motor_speed_rad_s_joint2,motor_speed_rad_s_joint3,motor_speed_rad_s_joint4
0.0,0.0,0.0,0.0,1.0,0.0,0.0,0.0,0.0,0.0,0.0,0.0,0.0,0.0,-0.3790295720100403,0.6656180024147034,0.41999998688697815,1.0,0.0,0.0,0.0,0.0,0.0,0.0,0.0,0.0,0.0,3.42540442943573e-06,-0.005000244826078415,1.313499927520752,0.0,0.0,0.0,0.46558165550231934,0.7715504169464111,0.42000001668930054,-1.5707999467849731,0.0,0.0,0.0,0.0,0.0,0.0,0.0,0.0,0.0,0.0,0.0
0.016666666666666666,0.0028802817687392235,0.0021778978407382965,0.0,0.9998137354850769,0.0,0.0,0.019298622384667397,0.24094311892986298,0.18230779469013214,0.0,0.0,0.0,3.1418142318725586,-0.37902969121932983,0.6656177043914795,0.41999998688697815,1.0,3.279964630564791e-06,-8.339746386809566e-07,8.465587342243452e-08,-1.9833529222523794e-05,0.00017983045836444944,-6.132945418357849e-05,0.0009432713268324733,-0.004689474124461412,-0.00031981561915017664,-0.007109101861715317,0.003386756405234337,1.3159379959106445,-0.8140835165977478,0.9871478080749512,0.18096035718917847,0.46558165550231934,0.7715504169464111,0.42000001668930054,-1.5301095247268677,3.0000033378601074,-0.04584860801696777,-2.999999761581421,0.0008700119215063751,0.0007966668345034122,0.0007112319581210613,0.0006110875401645899,0.11094667762517929,0.09758464992046356,0.08336162567138672,0.0682562068104744
0.03333333333333333,0.008963904343545437,0.006797623820602894,0.0,0.9998018145561218,0.0,0.0,0.019908899441361427,0.4070529341697693,0.3152148723602295,0.0,0.0,0.0,-0.869081974029541,-0.3790298104286194,0.6656176447868347,0.4200000464916229,1.0,3.3908354453160428e-06,-2.1324485715012997e-06,-3.710144014235084e-08,0.00026357831666246057,0.00026937946677207947,-0.00010509486310184002,-0.0017707672668620944,0.004130808170884848,-0.000135478752781637,-0.027541326358914375,0.02623886987566948,1.3165931701660156,-1.590545654296875,1.617060661315918,-0.0855068564414978,0.46558165550231934,0.7715504169464111,0.42000001668930054,-1.4800902605056763,3.0000011920928955,-0.09588843584060669,-3.000000476837158,0.002990385051816702,0.0026526653673499823,0.002277218736708164,0.0018607076490297914,0.16417749226093292,0.1397346407175064,0.1137971431016922,0.08628031611442566
0.05,0.01847168430685997,0.013893415220081806,0.0,0.999976634979248,0.0,0.0,-0.006834465079009533,0.6362017393112183,0.47211843729019165,0.0,0.0,0.0,-4.074713706970215,-0.3790298402309418,0.6656177043914795,0.4200000464916229,1.0,3.7651125239790417e-06,-2.211879063906963e-06,5.622505128144439e-09,0.000265308452071622,0.0002669153327587992,-0.00010440615005791187,-0.001724260626360774,0.004177352879196405,-0.00012949221127200872,-0.05717931315302849,0.05747966095805168,1.3118904829025269,-1.9508767127990723,2.060373067855835,-0.46041440963745117,0.46558165550231934,0.7715504169464111,0.42000001668930054,-1.4300719499588013,3.000002384185791,-0.14592711627483368,-3.0000014305114746,0.006011992692947388,0.0051728119142353535,0.004261326510459185,0.003273195121437311,0.2071232795715332,0.16677498817443848,0.1245032548904419,0.08023236691951752
0.06666666666666667,0.03077881410717964,0.023377688601613045,0.0,0.9998829364776611,0.0,0.0,-0.015300479717552662,0.7724426984786987,0.6159325838088989,0.0,0.0,0.0,-0.04007605090737343,-0.3790298402309418,0.6656176447868347,0.4200000464916229,0.9999999403953552,3.4066883927152958e-06,-2.285532218593289e-06,4.300976286231162e-07,0.0002670241810847074,0.00026791772688739,-0.00010438147000968456,-0.00174069800414145,0.00421178387477994,-0.00012850729399360716,-0.09439806640148163,0.09071414172649384,1.3008543252944946,-2.370042324066162,2.1027698516845703,-0.8526294827461243,0.46558165550231934,0.7715504169464111,0.42000001668930054,-1.3800536394119263,2.999997854232788,-0.19592705368995667,-2.999969482421875,0.008762598969042301,0.00721723772585392,0.005559423007071018,0.00378385535441339,0.1543656438589096,0.10479869693517685,0.05310077965259552,-8.265487849712372e-09
0.08333333333333333,0.045529451221227646,0.03498183563351631,0.0,0.9992802739143372,0.0,0.0,-0.03793378174304962,0.9418591260910034,0.7350592017173767,0.0,0.0,0.0,-3.5731756687164307,-0.3790298402309418,0.6656176447868347,0.4200000464916229,0.9999999403953552,3.626031229941873e-06,-2.3352447442448465e-06,3.032197639640799e-07,0.0002661392209120095,0.0002668500819709152,-0.00010405294597148895,-0.0017282416811212897,0.00419628107920289,-0.00012790791515726596,-0.13025598227977753,0.13060231506824493,1.2853838205337524,-1.9315412044525146,2.6622281074523926,-0.9936948418617249,0.46558165550231934,0.7715504169464111,0.42000001668930054,-1.3300241231918335,3.000002384185791,-0.16215641796588898,3.000000476837158,0.00990868266671896,0.007282382808625698,0.00450182193890214,0.0015717399073764682,0.018002262338995934,-0.06298048794269562,-0.14624421298503876,-0.23116528987884521
0.1,0.0547511987388134,0.04904048517346382,0.0,0.9958585500717163,0.0,0.0,-0.09091594070196152,0.40868550539016724,0.9302855730056763,0.0,0.0,0.0,-7.380928993225098,-0.3790298402309418,0.6656176447868347,0.4200000464916229,1.0,3.4220790894323727e-06,-2.3084901386027923e-06,1.7962952369998675e-07,0.00026681559393182397,0.0002680041070561856,-0.00010440824553370476,-0.001743067754432559,0.004207110498100519,-0.0001289140636799857,-0.16161996126174927,0.17578692734241486,1.2670097351074219,-1.846545934677124,2.785752773284912,-1.1589808464050293,0.46558165550231934,0.7715504169464111,0.42000001668930054,-1.2800298929214478,2.9999988079071045,-0.1938960999250412,-3.0000011920928955,0.004404942970722914,0.000828021380584687,-0.0029517030343413353,-0.006924854125827551,-0.4657227396965027,-0.5186049938201904,-0.5739391446113586,-0.6316073536872864
0.11666666666666667,0.05840659141540527,0.06554241478443146,0.0,0.9921894073486328,0.0,0.0,-0.1247405856847763,0.21989892423152924,0.9206242561340332,0.0,0.0,0.0,-2.7975847721099854,-0.3790298402309418,0.6656177043914795,0.4200000464916229,1.0,3.7115073610038962e-06,-2.3326228983933106e-06,2.57426904681779e-07,0.00026485775015316904,0.0002663534542080015,-0.00010423525236546993,-0.0017181745497509837,0.004170077387243509,-0.0001291574299102649,-0.19920320808887482,0.21756388247013092,1.2445976734161377,-2.365847587585449,2.6278457641601562,-1.4300702810287476,0.46558165550231934,0.7715504169464111,0.42000001668930054,-1.2300268411636353,3.0000014305114746,-0.24392995238304138,-3.000000476837158,-0.003965514246374369,-0.008496231399476528,-0.013240057043731213,-0.018187161535024643,-0.3658795654773712,-0.44409167766571045,-0.5205966234207153,-0.5953150391578674
0.13333333333333333,0.0713612362742424,0.07798878103494644,0.0,0.9861082434654236,0.0,0.0,-0.16610398888587952,0.8268368244171143,0.7689517736434937,0.0,0.0,0.0,-5.827531337738037,-0.3790298402309418,0.6656176447868347,0.4200000464916229,0.9999999403953552,3.4247434541612165e-06,-2.301918129887781e-06,1.559943285656118e-07,0.00026707028155215085,0.0002681135665625334,-0.00010444503277540207,-0.0017433665925636888,0.0042120604775846004,-0.00012877194967586547,-0.23487836122512817,0.2687537670135498,1.2204160690307617,-1.895758032798767,3.5382566452026367,-1.6039690971374512,0.46558165550231934,0.7715504169464111,0.42000001668930054,-1.1800074577331543,2.9999969005584717,-0.2098962515592575,2.999999761581421,-0.002635159296914935,-0.009475868195295334,-0.016441600397229195,-0.02351435087621212,-0.10105916857719421,-0.21816787123680115,-0.33127281069755554,-0.44009479880332947
0.15,0.07960574328899384,0.08814997971057892,0.0,0.981995701789856,0.0,0.0,-0.1889033168554306,0.4765269458293915,0.5306214690208435,0.0,0.0,0.0,-1.6248804330825806,-0.3790298402309418,0.6656176447868347,0.4200000464916229,1.0,3.713894102475024e-06,-2.207782927143853e-06,-1.690906259455005e-07,0.000263532972894609,0.0002653604024089873,-0.00010421779006719589,-0.0017012703465297818,0.004144108854234219,-0.00012960596359334886,-0.27074116468429565,0.3227371871471405,1.1861670017242432,-2.0840399265289307,3.4356985092163086,-2.380122423171997,0.46558165550231934,0.7715504169464111,0.42000001668930054,-1.1406323909759521,1.797742486000061,-0.24125228822231293,-3.0000009536743164,-0.01015929039567709,-0.01801048219203949,-0.02595146745443344,-0.03396747261285782,-0.4267174303531647,-0.48272770643234253,-0.5356922745704651,-0.5858569145202637
0.16666666666666666,0.08405151963233948,0.09986929595470428,0.0,0.9750008583068848,0.0,0.0,-0.22220121324062347,0.23125725984573364,0.6969704627990723,0.0,0.0,0.0,-4.7461676597595215,-0.3790298402309418,0.6656176447868347,0.4200000464916229,0.9999999403953552,3.638363523350563e-06,-2.2787546640756773e-06,2.7007297376258066e-07,0.00026682831230573356,0.0002675004070624709,-0.00010410277172923088,-0.0017399663338437676,0.004210250452160835,-0.00012781910481862724,-0.3052442967891693,0.3839203119277954,1.1385209560394287,-1.9898533821105957,3.8822715282440186,-3.2121400833129883,0.46558165550231934,0.7715504169464111,0.42000001668930054,-1.0929715633392334,3.0000009536743164,-0.21672098338603973,2.999999523162842,-0.020242217928171158,-0.028575792908668518,-0.03694888949394226,-0.04535551369190216,-0.5652714371681213,-0.5947592854499817,-0.6200543642044067,-0.6416031122207642
0.18333333333333332,0.09382499009370804,0.10748537629842758,0.0,0.9598594903945923,0.0,0.0,-0.2804814279079437,0.5723586082458496,0.423586905002594,0.0,0.0,0.0,-7.919405460357666,-0.3790298402309418,0.6656176447868347,0.4200000464916229,1.0,3.386441903785453e-06,-2.3001909994491143e-06,1.4392985292488447e-07,0.00026674664695747197,0.00026787363458424807,-0.00010437029413878918,-0.0017413290916010737,0.004206034820526838,-0.00012878714187536389,-0.3347001075744629,0.45441535115242004,1.0770130157470703,-1.445356011390686,4.496769905090332,-4.158981800079346,0.46558165550231934,0.7715504169464111,0.42000001668930054,-1.042970061302185,2.9999988079071045,-0.24805890023708344,-2.9999990463256836,-0.027833426371216774,-0.03658787161111832,-0.04531867429614067,-0.05402848497033119,-0.7186224460601807,-0.6975824236869812,-0.6753457188606262,-0.652569591999054
0.2,0.09751305729150772,0.11846814304590225,0.0,0.9477264285087585,0.0,0.0,-0.31908413767814636,0.2262611836194992,0.6498356461524963,0.0,0.0,0.0,-3.5797278881073,-0.3790298402309418,0.6656177043914795,0.4200000464916229,1.0,3.67552570423868e-06,-2.326474941583001e-06,2.211330638601794e-07,0.0002648457884788513,0.0002663124760147184,-0.00010421779006719589,-0.0017177596455439925,0.004169980529695749,-0.00012909664656035602,-0.35948529839515686,0.5194638967514038,0.9977418184280396,-1.1661057472229004,3.872103452682495,-5.1300458908081055,0.46558165550231934,0.7715504169464111,0.42000001668930054,-0.9929631948471069,3.0000014305114746,-0.2980862259864807,-3.0000011920928955,-0.04319450631737709,-0.05193085968494415,-0.06064322590827942,-0.06891946494579315,-0.7044342756271362,-0.7312784790992737,-0.7599542737007141,-0.7885667681694031
0.21666666666666667,0.10203933715820312,0.1246442049741745,0.0,0.9459922313690186,0.0,0.0,-0.3241893947124481,0.1713232696056366,0.3443629741668701,0.0,0.0,0.0,0.3286614418029785,-0.3790298402309418,0.6656176447868347,0.4200000464916229,1.0,3.3223188893316546e-06,-2.207966417699936e-06,2.742777382991335e-07,0.0002666293876245618,0.0002674947609193623,-0.00010426202788949013,-0.0017357135657221079,0.004204758442938328,-0.00012833744403906167,-0.38248756527900696,0.5723012685775757,0.9092463850975037,-1.1258715391159058,2.7883424758911133,-5.587536811828613,0.46558165550231934,0.7715504169464111,0.42000001668930054,-0.9429534077644348,2.9999988079071045,-0.3481155335903168,-3.0000014305114746,-0.05470271408557892,-0.06345861405134201,-0.07223376631736755,-0.0806114450097084,-0.9165536761283875,-0.8698636293411255,-0.8278741240501404,-0.7917600870132446
0.23333333333333334,0.1015043556690216,0.13363057374954224,0.0,0.9395084977149963,0.0,0.0,-0.3425256609916687,-0.09461627900600433,0.5317145586013794,0.0,0.0,0.0,-3.1228811740875244,-0.3790298402309418,0.6656176447868347,0.4200000464916229,1.0,3.656558874354232e-06,-2.373421239099116e-06,-4.07681653769032e-07,0.0002661168109625578,0.00026725910720415413,-0.00010423432104289532,-0.0017335852608084679,0.004194697830826044,-0.00012854808301199228,-0.3963622748851776,0.6152693033218384,0.8093454837799072,-0.5991188883781433,2.195624351501465,-6.185809135437012,0.46558165550231934,0.7715504169464111,0.42000001668930054,-0.8929427266120911,2.999997138977051,-0.39814671874046326,-2.9999983310699463,-0.0708104595541954,-0.0796046182513237,-0.08840147405862808,-0.09670431166887283,-0.8497389554977417,-0.8711593151092529,-0.8920435905456543,-0.9115229249000549
0.25,0.10570266097784042,0.13703082501888275,0.0,0.9387759566307068,0.0,0.0,-0.34452828764915466,0.20402249693870544,0.1701377034187317,0.0,0.0,0.0,0.5100066661834717,-0.3790298402309418,0.6656177043914795,0.4200000464916229,1.0,3.6305639241618337e-06,-2.242603613922256e-06,1.1206775951677628e-08,0.00026679999427869916,0.0002670604735612869,-0.00010390859097242355,-0.0017342414939776063,0.0042106076143682,-0.00012702932872343808,-0.4082982540130615,0.6435191631317139,0.7070236206054688,-0.5145460963249207,1.130841612815857,-6.186529159545898,0.46558165550231934,0.7715504169464111,0.42000001668930054,-0.842932403087616,2.9999940395355225,-0.44817838072776794,-2.9999988079071045,-0.08289612084627151,-0.09175185859203339,-0.10061708837747574,-0.10900650173425674,-0.9984556436538696,-0.9945082664489746,-0.9623242616653442,-0.9060897827148438
0.26666666666666666,0.10476268827915192,0.13818131387233734,0.0,0.9327321648597717,0.0,0.0,-0.3605699837207794,-0.14695315062999725,0.03398635610938072,0.0,0.0,0.0,-2.93387770652771,-0.3790298104286194,0.6656176447868347,0.4200000464916229,0.9999999403953552,3.740145530173322e-06,-2.2362976324075134e-06,4.499700310134358e-07,0.0002647962246555835,0.00026673031970858574,-0.00010454049333930016,-0.0017189658246934414,0.004166740458458662,-0.00013016746379435062,-0.40973353385925293,0.6564207077026367,0.6034379005432129,0.33860933780670166,0.3106845021247864,-5.954309463500977,0.46558165550231934,0.7715504169464111,0.42000001668930054,-0.7929235696792603,3.0000011920928955,-0.4982089698314667,-3.0000030994415283,-0.10071086883544922,-0.10927292704582214,-0.11791953444480896,-0.1261417716741562,-1.0120960474014282,-1.0090980529785156,-1.0068162679672241,-1.0050052404403687
0.2833333333333333,0.1005132868885994,0.13719385862350464,0.0,0.932712197303772,0.0,0.0,-0.3606216013431549,-0.23536118865013123,-0.12433434277772903,0.0,0.0,0.0,0.8268938660621643,-0.3790298402309418,0.6656176447868347,0.4200000464916229,1.0,3.3916744541784283e-06,-2.291099690410192e-06,1.245939671434826e-07,0.0002667730441316962,0.00026789261028170586,-0.0001043747179210186,-0.001741221291013062,0.00420632166787982,-0.00012878607958555222,-0.40396565198898315,0.6604915857315063,0.5128727555274963,0.42547595500946045,0.2240612655878067,-5.09793758392334,0.46558165550231934,0.7715504169464111,0.42000001668930054,-0.7429147958755493,3.0000030994415283,-0.548237681388855,-3.000000476837158,-0.11757747828960419,-0.12616658210754395,-0.13484477996826172,-0.14307692646980286,-0.9999432563781738,-1.0016515254974365,-1.0012049674987793,-1.0008658170700073
0.3,0.09472958743572235,0.1334955096244812,0.0,0.9273490905761719,0.0,0.0,-0.37419742345809937,-0.39690470695495605,-0.26478490233421326,0.0,0.0,0.0,-2.6068010330200195,-0.3790298402309418,0.6656177043914795,0.4200000464916229,1.0,3.680724148580339e-06,-2.319047325727297e-06,2.0107752618514496e-07,0.0002647917135618627,0.00026625802274793386,-0.00010421290062367916,-0.0017169015482068062,0.0041690124198794365,-0.00012909753422718495,-0.39092299342155457,0.665158748626709,0.4273560643196106,1.1063587665557861,0.24456042051315308,-4.961474418640137,0.46558165550231934,0.7715504169464111,0.42000001668930054,-0.6929076313972473,3.000002384185791,-0.5982645153999329,-3.000000238418579,-0.13501578569412231,-0.14342916011810303,-0.1519741415977478,-0.1601005494594574,-1.0102818012237549,-1.0078082084655762,-1.0059130191802979,-1.004389762878418
0.31666666666666665,0.08674328029155731,0.1275566816329956,0.0,0.9283815622329712,0.0,0.0,-0.3716284930706024,-0.5179252028465271,-0.3953860402107239,0.0,0.0,0.0,1.2510476112365723,-0.3790298402309418,0.6656176447868347,0.4200000464916229,1.0,3.3042595077859005e-06,-2.2214348973648157e-06,2.535415148940956e-07,0.00026660808362066746,0.00026745093055069447,-0.00010424340143799782,-0.0017352963332086802,0.004204468801617622,-0.0001282812445424497,-0.3913419544696808,0.6688404083251953,0.4242219924926758,0.02316572144627571,0.1935502290725708,-0.2588561177253723,0.46558165550231934,0.7715504169464111,0.42000001668930054,-0.6429035067558289,2.999981164932251,-0.6487071514129639,-3.0000007152557373,-0.145835280418396,-0.15322421491146088,-0.1604958027601242,-0.1670708954334259,-0.6569228768348694,-0.5755156874656677,-0.48066940903663635,-0.3726027309894562
0.3333333333333333,0.07644981890916824,0.11934002488851547,0.0,0.9238218069076538,0.0,0.0,-0.382822722196579,-0.6662700772285461,-0.5355162620544434,0.0,0.0,0.0,-2.2978901863098145,-0.3787977695465088,0.6660531163215637,0.42004889249801636,0.9999848008155823,-3.510638634907082e-05,0.0011854743352159858,-0.005367704667150974,0.05309419333934784,0.12073257565498352,0.03438330069184303,0.06151852756738663,1.7923533916473389,-4.2741007804870605,-0.39022982120513916,0.6708439588546753,0.42266422510147095,0.031165648251771927,0.09044133126735687,0.24487517774105072,0.46558165550231934,0.7715504169464111,0.42000001668930054,-0.5928983688354492,2.999981641769409,-0.6987612843513489,-3.0000009536743164,-0.1568593829870224,-0.16257765889167786,-0.16786547005176544,-0.17217808961868286,-0.5572577118873596,-0.4549548029899597,-0.3303118348121643,-0.18655815720558167
0.35,0.06432387232780457,0.10884885489940643,0.0,0.9256587028503418,0.0,0.0,-0.3783595561981201,-0.7932625412940979,-0.6697513461112976,0.0,0.0,0.0,1.510528802871704,-0.37666264176368713,0.671120822429657,0.42067140340805054,0.9941383600234985,0.0015480120200663805,0.016594400629401207,-0.10682236403226852,0.2531284689903259,0.4931025207042694,0.04529823362827301,0.9105993509292603,1.4384546279907227,-18.28506088256836,-0.3884739875793457,0.6780300736427307,0.42457449436187744,0.22998034954071045,0.7220973968505859,-0.03347586467862129,0.46558165550231934,0.7715504169464111,0.42000001668930054,-0.5428934097290039,2.9999899864196777,-0.7487853169441223,-2.999999523162842,-0.16685613989830017,-0.1703978180885315,-0.17311178147792816,-0.17453710734844208,-0.5579215884208679,-0.4232916533946991,-0.2636925280094147,-0.08497212827205658
0.36666666666666664,0.055184852331876755,0.09562799334526062,0.0,0.9216976165771484,0.0,0.0,-0.3879092037677765,-0.46335741877555847,-0.8409014940261841,0.0,0.0,0.0,-2.146592140197754,-0.37056538462638855,0.6838029623031616,0.42016085982322693,0.9901188611984253,0.0008215857669711113,0.0038559031672775745,-0.1401745080947876,0.47507885098457336,0.9115831255912781,-0.05890881270170212,-0.6270647048950195,-2.9147911071777344,-5.098334789276123,-0.3808785676956177,0.6898543834686279,0.42147091031074524,0.6992195844650269,0.7913297414779663,-0.3156878650188446,0.46558165550231934,0.7715504169464111,0.42000001668930054,-0.49288859963417053,2.9999897480010986,-0.7988093495368958,-3.000000238418579,-0.17575448751449585,-0.17671525478363037,-0.1764087975025177,-0.1744971126317978,-0.48948073387145996,-0.3230085074901581,-0.1312190592288971,0.07773397117853165
0.3833333333333333,0.050488077104091644,0.07967860251665115,0.0,0.9059835076332092,0.0,0.0,-0.4233129918575287,-0.21151025593280792,-1.006524920463562,0.0,0.0,0.0,-5.519979953765869,-0.35945403575897217,0.7023018598556519,0.4201653003692627,0.9840668439865112,0.0007287341868504882,-0.0030844390857964754,-0.17777034640312195,0.9249172210693359,1.3881733417510986,0.06810027360916138,0.47628292441368103,-2.4837324619293213,-5.149112701416016,-0.3673447370529175,0.7063047289848328,0.4211471676826477,1.0400224924087524,1.274233102798462,0.14497721195220947,0.46558165550231934,0.7715504169464111,0.42000001668930054,-0.44280076026916504,2.9974780082702637,-0.848806619644165,-3.000005006790161,-0.18233038485050201,-0.1807565540075302,-0.17743290960788727,-0.17216549813747406,-0.30129414796829224,-0.16252022981643677,0.004688427317887545,0.191926509141922
0.4,0.04779138043522835,0.06774971634149551,0.0,0.8758730888366699,0.0,0.0,-0.4825415313243866,-0.13131418824195862,-0.5912058353424072,0.0,0.0,0.0,-8.8377046585083,-0.3232663571834564,0.7311738729476929,0.42451804876327515,0.9679253697395325,0.011980208568274975,-0.04628525674343109,-0.24664664268493652,3.56815242767334,1.7391093969345093,0.709685742855072,29.415565490722656,1.5329411029815674,23.745296478271484,-0.33180034160614014,0.7351338267326355,0.42481178045272827,3.1832332611083984,2.372710943222046,0.3870809078216553,0.46558165550231934,0.7715504169464111,0.42000001668930054,-0.39436331391334534,2.54573917388916,-0.87803715467453,-0.6941403746604919,-0.1936834752559662,-0.18834547698497772,-0.1809569001197815,-0.17150698602199554,-0.8215470910072327,-0.5592137575149536,-0.2863500118255615,-0.014965272508561611
0.4166666666666667,0.04734509438276291,0.06280257552862167,0.0,0.8287827372550964,0.0,0.0,-0.5595704913139343,0.05372179299592972,-0.43637263774871826,0.0,0.0,0.0,-11.341607093811035,-0.24682317674160004,0.7726479768753052,0.4325994551181793,0.949221670627594,0.0737941563129425,-0.08750171214342117,-0.2930460274219513,5.572349548339844,2.7566919326782227,0.5093268156051636,3.788499593734741,-5.117650032043457,11.789512634277344,-0.254644513130188,0.7794785499572754,0.43212586641311646,5.61663818359375,3.269824981689453,0.5138962864875793,0.46558165550231934,0.7715504169464111,0.42000001668930054,-0.3705742061138153,1.1897395849227905,-0.8338888883590698,2.9991140365600586,-0.20912158489227295,-0.20168285071849823,-0.1891758292913437,-0.17492499947547913,-0.39281243085861206,-0.4912646412849426,-0.3054681420326233,-0.13312847912311554
0.43333333333333335,0.043225593864917755,0.060445718467235565,0.0,0.788466215133667,0.0,0.0,-0.6150780320167542,-0.3525879979133606,-0.045443207025527954,0.0,0.0,0.0,-7.183468341827393,-0.15029793977737427,0.817923367023468,0.44476133584976196,0.9033222794532776,0.11477666348218918,-0.11271579563617706,-0.39765599370002747,6.0752854347229,1.6841504573822021,0.9361330270767212,-8.458242416381836,0.8139652013778687,5.092533111572266,-0.1582963764667511,0.8276091814041138,0.44358474016189575,6.025736331939697,2.4902243614196777,0.7765111923217773,0.46558165550231934,0.7715504169464111,0.42000001668930054,-0.3539937436580658,0.8703290224075317,-0.8600075244903564,-3.000000238418579,-0.22181624174118042,-0.2140647917985916,-0.19768878817558289,-0.1800762563943863,-0.7977865934371948,-0.7361361384391785,-0.5164320468902588,-0.3327515423297882
0.45,0.04234691336750984,0.05278673768043518,0.0,0.7662936449050903,0.0,0.0,-0.6424905061721802,0.055195655673742294,-0.6131753921508789,0.0,0.0,0.0,-3.259291887283325,-0.04695819690823555,0.8504337668418884,0.4569491147994995,0.8393028974533081,0.11638256907463074,-0.11847209930419922,-0.5176776051521301,6.777019023895264,1.0592983961105347,0.8191177248954773,4.3598833084106445,-7.027142524719238,3.431102991104126,-0.05387742817401886,0.8623213171958923,0.4551141858100891,6.466814994812012,1.5180103778839111,0.7309510707855225,0.46558165550231934,0.7715504169464111,0.42000001668930054,-0.340791255235672,0.6578924655914307,-0.9100314974784851,-3.0000011920928955,-0.2290465086698532,-0.22018535435199738,-0.20077455043792725,-0.18063169717788696,-0.2912779748439789,-0.2012643814086914,-0.03291592001914978,0.10869459807872772
0.4666666666666667,0.046204887330532074,0.045388806611299515,0.0,0.7362267971038818,0.0,0.0,-0.6767348647117615,0.2730739116668701,-0.3913893401622772,0.0,0.0,0.0,-6.318285942077637,0.05889872461557388,0.8690073490142822,0.4666266143321991,0.7797970175743103,0.12281764298677444,-0.12518568336963654,-0.6009665727615356,6.234158039093018,-0.2670828402042389,0.42815065383911133,-7.172519683837891,-18.334510803222656,27.720491409301758,0.054151155054569244,0.881794273853302,0.4655519127845764,6.574190616607666,0.8177030086517334,0.7478489875793457,0.46558165550231934,0.7715504169464111,0.42000001668930054,-0.3321765959262848,0.33838167786598206,-0.9600555300712585,-3.0000033378601074,-0.23323994874954224,-0.22322316467761993,-0.20193232595920563,-0.180298313498497,-0.19815106689929962,-0.1406487673521042,-0.07171478122472763,-0.02478877268731594
0.48333333333333334,0.04789162427186966,0.04306553304195404,0.0,0.7211511135101318,0.0,0.0,-0.6927777528762817,0.04491064324975014,-0.028356479480862617,0.0,0.0,0.0,-1.3736215829849243,0.1594659984111786,0.8701630234718323,0.4737856984138489,0.7033165097236633,0.10529322922229767,-0.14535440504550934,-0.6878454089164734,5.260611057281494,-1.5586580038070679,0.3686544597148895,-12.91995906829834,9.958069801330566,19.278236389160156,0.15603472292423248,0.8842310905456543,0.4737822413444519,5.974713325500488,-0.4586533010005951,0.4546738862991333,0.46558165550231934,0.7715504169464111,0.42000001668930054,-0.3282846510410309,0.009531507268548012,-1.0100799798965454,-2.99977970123291,-0.23999673128128052,-0.22811728715896606,-0.20525425672531128,-0.1825079321861267,-0.00626768684014678,-0.446828156709671,-0.33472245931625366,-0.25452834367752075
0.5,0.050633158534765244,0.04490785673260689,0.0,0.6995284557342529,0.0,0.0,-0.7146047353744507,0.21182939410209656,0.17789043486118317,0.0,0.0,0.0,-4.578756809234619,0.24752134084701538,0.8562687635421753,0.4738824665546417,0.6325746774673462,0.09291557222604752,-0.13085117936134338,-0.7576897740364075,4.429642677307129,-1.8129674196243286,-0.3187151253223419,-19.650638580322266,-2.2725608348846436,22.147953033447266,0.24481843411922455,0.8719715476036072,0.47434002161026,5.076589107513428,-1.1101226806640625,-0.09106571227312088,0.46558165550231934,0.7715504169464111,0.42000001668930054,-0.33028656244277954,-0.2139146476984024,-1.0601025819778442,-3.0000033378601074,-0.2393372654914856,-0.23372848331928253,-0.20973315834999084,-0.18619631230831146,0.04259077087044716,-0.2523804008960724,-0.20447254180908203,-0.171858012676239
0.5166666666666666,0.05603475123643875,0.04339626431465149,0.0,0.6900625228881836,0.0,0.0,-0.7237497568130493,0.34079769253730774,-0.10523871332406998,0.0,0.0,0.0,-0.5463201403617859,0.3224712014198303,0.833784282207489,0.46442607045173645,0.5450377464294434,0.014906926080584526,-0.16205069422721863,-0.8224664330482483,3.9721076488494873,-1.7386640310287476,-0.7079426050186157,-10.735872268676758,-0.23130886256694794,-6.646146774291992,0.3193482756614685,0.8512569069862366,0.4676482677459717,3.997972011566162,-1.5544652938842773,-0.5890271663665771,0.46558165550231934,0.7715504169464111,0.42000001668930054,-0.32663848996162415,0.6866461038589478,-1.1101247072219849,-3.0000038146972656,-0.2361905723810196,-0.23443184792995453,-0.2102546989917755,-0.18678642809391022,0.06490600854158401,-0.0681035965681076,-0.050567008554935455,-0.05253845453262329
0.5333333333333333,0.0636277049779892,0.04551629722118378,0.0,0.671294629573822,0.0,0.0,-0.7411906123161316,0.4934031069278717,0.13725830614566803,0.0,0.0,0.0,-3.9277443885803223,0.38139912486076355,0.8106851577758789,0.4489399492740631,0.5106236338615417,-0.015865983441472054,-0.15637782216072083,-0.845315158367157,3.2263431549072266,-1.471793293952942,-0.9795041680335999,-4.431587219238281,2.144263982772827,-1.2530598640441895,0.3797174096107483,0.8273970484733582,0.45267748832702637,3.2638487815856934,-1.353135585784912,-1.0919100046157837,0.46558165550231934,0.7715504169464111,0.42000001668930054,-0.3096499741077423,1.0907697677612305,-1.1601468324661255,-3.0000009536743164,-0.23518651723861694,-0.23532915115356445,-0.21176090836524963,-0.1891097128391266,0.2265072613954544,0.10035736113786697,-0.008322036825120449,-0.12007717788219452
0.55,0.07311252504587173,0.04416292533278465,0.0,0.6652431488037109,0.0,0.0,-0.7466267943382263,0.6044765710830688,-0.12446217983961105,0.0,0.0,0.0,-0.008264281786978245,0.42740029096603394,0.7878943085670471,0.42837753891944885,0.4820055365562439,-0.050150066614151,-0.1411401927471161,-0.8632699847221375,2.1643760204315186,-2.1057145595550537,-1.11689293384552,-8.381587982177734,6.854236602783203,12.862196922302246,0.4265057444572449,0.803629457950592,0.4323643445968628,2.284738779067993,-1.453826904296875,-1.3240635395050049,0.46558165550231934,0.7715504169464111,0.42000001668930054,-0.2958298623561859,0.48809778690338135,-1.2101689577102661,-3.000000238418579,-0.23092098534107208,-0.23237301409244537,-0.2108146846294403,-0.19024023413658142,0.16576962172985077,0.14159135520458221,0.024818656966090202,-0.09847649931907654
0.5666666666666667,0.08032474666833878,0.045368991792201996,0.0,0.6490964889526367,0.0,0.0,-0.7607060670852661,0.37755998969078064,0.10034989565610886,0.0,0.0,0.0,-3.492537498474121,0.45317456126213074,0.7765737175941467,0.42184534668922424,0.48662659525871277,-0.041024383157491684,-0.022912291809916496,-0.8723454475402832,1.088071346282959,-0.712212860584259,0.08642686158418655,-6.67488431930542,6.686252117156982,3.533907413482666,0.4521103501319885,0.7896139621734619,0.42563512921333313,1.0329564809799194,-0.4469170570373535,0.06723089516162872,0.46558165550231934,0.7715504169464111,0.42000001668930054,-0.2878798246383667,0.32012155652046204,-1.2602808475494385,-3.0000102519989014,-0.2269245833158493,-0.22917819023132324,-0.2103639394044876,-0.1923813372850418,0.36706000566482544,0.29749181866645813,0.08802945166826248,-0.10300604999065399
0.5833333333333334,0.08587733656167984,0.04850846901535988,0.0,0.6458377242088318,0.0,0.0,-0.763474702835083,0.2944908142089844,0.2639416456222534,0.0,0.0,0.0,0.4292418658733368,0.46521633863449097,0.7695118188858032,0.42228537797927856,0.4998168349266052,-0.046449195593595505,-0.0073538427241146564,-0.8648534417152405,0.21687237918376923,-0.5805971622467041,0.22287830710411072,2.687074899673462,10.063475608825684,5.524714946746826,0.4634217917919159,0.7818100452423096,0.42641791701316833,0.3018832206726074,-0.3262706995010376,0.15021690726280212,0.46558165550231934,0.7715504169464111,0.42000001668930054,-0.2798697352409363,0.6469274163246155,-1.3102998733520508,-2.996986150741577,-0.22055485844612122,-0.2236827164888382,-0.20839208364486694,-0.19357112050056458,0.41084903478622437,0.36741143465042114,0.15089915692806244,-0.04096703603863716
0.6,0.09217739850282669,0.04943152517080307,0.0,0.6326229572296143,0.0,0.0,-0.774459958076477,0.41605761647224426,0.010173479095101357,0.0,0.0,0.0,-2.962390422821045,0.46740952134132385,0.7675373554229736,0.42152929306030273,0.5372354984283447,-0.02695533260703087,0.001664829207584262,-0.8429998159408569,-0.14025840163230896,-0.21346840262413025,-0.04624875262379646,7.361368179321289,0.23148319125175476,3.7936627864837646,0.46403738856315613,0.7797446250915527,0.42439764738082886,-0.16652128100395203,-0.0669933408498764,-0.3646338880062103,0.46558165550231934,0.7715504169464111,0.42000001668930054,-0.29430803656578064,-1.8857929706573486,-1.272088885307312,2.999999523162842,-0.21194708347320557,-0.2159595489501953,-0.20458073914051056,-0.1932281255722046,0.4905208945274353,0.45752042531967163,0.23404496908187866,0.03379373997449875
0.6166666666666667,0.10087926685810089,0.05313808470964432,0.0,0.632230281829834,0.0,0.0,-0.7747805714607239,0.5438926815986633,0.25022658705711365,0.0,0.0,0.0,0.8733078241348267,0.46530792117118835,0.7645642161369324,0.420183002948761,0.5536777377128601,0.0035643912851810455,0.002250030869618058,-0.8327203392982483,-0.11581480503082275,-0.13600127398967743,-0.029862405732274055,-1.061635136604309,0.7143099308013916,0.9677451848983765,0.4620867967605591,0.7791217565536499,0.42339473962783813,-0.06096849590539932,0.0874938890337944,0.1587093621492386,0.46558165550231934,0.7715504169464111,0.42000001668930054,-0.3423961400985718,-2.999994993209839,-1.2919671535491943,-2.9998018741607666,-0.2057594507932663,-0.2100857049226761,-0.2021602988243103,-0.19386065006256104,0.44427961111068726,0.40308520197868347,0.17887617647647858,-0.018232807517051697
0.6333333333333333,0.11131922900676727,0.05321028083562851,0.0,0.6545520424842834,0.0,0.0,-0.7560169696807861,0.6657187342643738,-0.022910146042704582,0.0,0.0,0.0,4.331853866577148,0.46428847312927246,0.7634063959121704,0.42000001668930054,0.5552205443382263,-6.981174465181539e-06,-2.11733595278929e-06,-0.8317031264305115,-0.05722614750266075,-0.059870027005672455,-0.0002662581391632557,0.007109601516276598,-0.007034451700747013,0.526537299156189,0.46053385734558105,0.781487226486206,0.42623013257980347,-0.11614039540290833,0.12784238159656525,0.19232437014579773,0.46558165550231934,0.7715504169464111,0.42000001668930054,-0.39243367314338684,-2.9993398189544678,-1.3419291973114014,-2.998385190963745,-0.19652266800403595,-0.20156767964363098,-0.19728116691112518,-0.1921665519475937,0.479958176612854,0.46685463190078735,0.2843133211135864,0.12479227781295776
0.65,0.11937824636697769,0.050028491765260696,0.0,0.6624186635017395,0.0,0.0,-0.749133825302124,0.36799854040145874,-0.26753348112106323,0.0,0.0,0.0,0.20071209967136383,0.4640015959739685,0.7631120681762695,0.4200000762939453,0.5564124584197998,3.58690584789656e-07,2.165368869100348e-06,-0.8309062123298645,-0.0013468704419210553,-0.001321478746831417,-9.509804658591747e-05,-0.00254531716927886,-0.0037284716963768005,0.01346503384411335,0.45906543731689453,0.7838259935379028,0.4304051995277405,-0.12761040031909943,0.13450907170772552,0.2923740744590759,0.46558165550231934,0.7715504169464111,0.42000001668930054,-0.4424496591091156,-2.9996910095214844,-1.391897201538086,-2.9997432231903076,-0.18981397151947021,-0.19427621364593506,-0.1919427514076233,-0.18835508823394775,0.3533400297164917,0.42878374457359314,0.3664253056049347,0.3297109007835388
0.6666666666666666,0.1269177794456482,0.04327936843037605,0.0,0.6482716202735901,0.0,0.0,-0.7614091634750366,0.4938679039478302,-0.47029829025268555,0.0,0.0,0.0,-3.1184260845184326,0.464001327753067,0.7631123065948486,0.4200000464916229,0.5564124584197998,-6.050719036920782e-08,-2.952036084025167e-06,-0.8309062123298645,5.822829552926123e-05,-0.0002707514795474708,-7.836520671844482e-05,0.006947395391762257,-0.0019262151326984167,-0.0007304038153961301,0.4583011269569397,0.7880634069442749,0.44160372018814087,0.05631556361913681,0.3190298080444336,1.1395134925842285,0.46558165550231934,0.7715504169464111,0.42000001668930054,-0.4924633204936981,-2.999990940093994,-1.4419153928756714,-2.9999990463256836,-0.18602290749549866,-0.18902231752872467,-0.18728674948215485,-0.18389096856117249,0.15786278247833252,0.25238296389579773,0.23602549731731415,0.24224498867988586
0.6833333333333333,0.13883236050605774,0.04221383482217789,0.0,0.6111488342285156,0.0,0.0,-0.7915156483650208,0.8010293841362,0.07239785045385361,0.0,0.0,0.0,-6.788604736328125,0.464001327753067,0.7631123661994934,0.4200000464916229,0.5564126968383789,1.290937348130683e-07,-2.828853439496015e-06,-0.830906093120575,5.654269989463501e-05,-0.0002567503252066672,-7.990491576492786e-05,0.0065476056188344955,-0.0019557508639991283,-0.0007071283762343228,0.466815710067749,0.7868355512619019,0.46683305501937866,1.1136137247085571,-0.4219508767127991,1.9806832075119019,0.46558165550231934,0.7715504169464111,0.42000001668930054,-0.5424759387969971,-2.999659299850464,-1.4919337034225464,-2.9999589920043945,-0.19213144481182098,-0.191915825009346,-0.18869507312774658,-0.18363210558891296,-0.5591806173324585,-0.33024317026138306,-0.1945399045944214,-0.05318298190832138
0.7,0.1467113345861435,0.04399730637669563,0.0,0.5884000062942505,0.0,0.0,-0.8085700273513794,0.391941636800766,0.0020720481406897306,0.0,0.0,0.0,-2.1449854373931885,0.464001327753067,0.7631123661994934,0.4200000464916229,0.5564126968383789,1.7577956157310837e-07,-2.604954261187231e-06,-0.8309059739112854,5.730809425585903e-05,-0.0002569749194663018,-8.007814176380634e-05,0.006549375597387552,-0.0019481084309518337,-0.000709278741851449,0.4834178686141968,0.7832825183868408,0.49806246161460876,0.9004683494567871,-0.07469404488801956,1.7670748233795166,0.46558165550231934,0.7715504169464111,0.42000001668930054,-0.563447117805481,0.20821861922740936,-1.5419518947601318,-3.0000007152557373,-0.19687294960021973,-0.19419340789318085,-0.1898200809955597,-0.18349802494049072,0.004907823167741299,0.0663236677646637,0.06256774812936783,0.06724771857261658
0.7166666666666667,0.14978820085525513,0.045691635459661484,0.0,0.5927495360374451,0.0,0.0,-0.8053868412971497,0.12220492959022522,0.1588866412639618,0.0,0.0,0.0,1.4608019590377808,0.464001327753067,0.7631123661994934,0.4200000464916229,0.5564128160476685,2.950658597455913e-07,-2.7046253308071755e-06,-0.8309059739112854,6.0950889746891335e-05,-0.00025403336621820927,-8.078780956566334e-05,0.006454069633036852,-0.0018902599113062024,-0.0007112660678103566,0.4989081919193268,0.7842901945114136,0.5195639133453369,0.814437747001648,0.12074591219425201,0.933936357498169,0.46558165550231934,0.7715504169464111,0.42000001668930054,-0.5391451120376587,2.4868311882019043,-1.5201534032821655,3.000000238418579,-0.1947641223669052,-0.19147315621376038,-0.18738767504692078,-0.18124763667583466,0.20249095559120178,0.22636345028877258,0.2038385421037674,0.18343625962734222
0.7333333333333333,0.15484605729579926,0.04358556866645813,0.0,0.5839744806289673,0.0,0.0,-0.8117719888687134,0.3155495524406433,-0.022215336561203003,0.0,0.0,0.0,-1.9999383687973022,0.464001327753067,0.7631123065948486,0.4200000464916229,0.5564126372337341,4.024514339562302e-07,-2.6936129415844334e-06,-0.830906093120575,6.30213544354774e-05,-0.0002523322473280132,-8.116825483739376e-05,0.006399234756827354,-0.0018565490609034896,-0.0007120571681298316,0.5062821507453918,0.7875005006790161,0.5312227010726929,-0.033709585666656494,0.10645951330661774,0.6215018630027771,0.46558165550231934,0.7715504169464111,0.42000001668930054,-0.5231838226318359,-0.3410128355026245,-1.4701122045516968,2.9999992847442627,-0.1883811056613922,-0.18542127311229706,-0.18232226371765137,-0.17718099057674408,0.10027697682380676,0.13278135657310486,0.12648728489875793,0.10815799236297607
0.75,0.15753091871738434,0.04770711064338684,0.0,0.5890907049179077,0.0,0.0,-0.8080669045448303,0.09673474729061127,0.1973673552274704,0.0,0.0,0.0,1.4592612981796265,0.464001327753067,0.7631123661994934,0.4200000464916229,0.5564126968383789,3.105219548160676e-07,-2.6606287519825855e-06,-0.8309060335159302,6.089087764848955e-05,-0.0002536118554417044,-8.078198879957199e-05,0.006442800164222717,-0.001889522885903716,-0.0007103772950358689,0.507670521736145,0.7875107526779175,0.5380405187606812,0.2572968006134033,0.09394462406635284,0.22467055916786194,0.46558165550231934,0.7715504169464111,0.42000001668930054,-0.5291356444358826,-0.36620163917541504,-1.4868614673614502,-3.000000238418579,-0.18991905450820923,-0.18579378724098206,-0.18209491670131683,-0.1766510158777237,0.1338818222284317,0.14367417991161346,0.132340207695961,0.10935448110103607
0.7666666666666666,0.16100318729877472,0.04737425968050957,0.0,0.5906577706336975,0.0,0.0,-0.806922197341919,0.20210224390029907,-0.028698747977614403,0.0,0.0,0.0,-0.3369300961494446,0.464001327753067,0.7631123661994934,0.4200000464916229,0.5564128160476685,2.9224722197795927e-07,-2.5781882868614048e-06,-0.8309059739112854,6.120706530055031e-05,-0.00025391491362825036,-8.084136061370373e-05,0.006449617445468903,-0.001886684913188219,-0.0007115902844816446,0.5099208354949951,0.788048267364502,0.5356147289276123,-0.020216088742017746,-0.07048574090003967,-0.37173134088516235,0.46558165550231934,0.7715504169464111,0.42000001668930054,-0.5531412363052368,-2.3254969120025635,-1.480609655380249,2.999999523162842,-0.18655577301979065,-0.18241830170154572,-0.17896737158298492,-0.17398756742477417,0.12017049640417099,0.14048929512500763,0.1478653848171234,0.13836850225925446
0.7833333333333333,0.16655376553535461,0.0497337281703949,0.0,0.6059468984603882,0.0,0.0,-0.7955051064491272,0.3517470061779022,0.20815204083919525,0.0,0.0,0.0,2.984988212585449,0.464001327753067,0.7631123661994934,0.4200000464916229,0.5564125776290894,1.8656567135622026e-07,-2.622744659674936e-06,-0.830906093120575,5.748014518758282e-05,-0.00025716767413541675,-8.011423051357269e-05,0.006553608924150467,-0.0019469772232696414,-0.0007100338698364794,0.5123775601387024,0.7857284545898438,0.5305922031402588,0.32260414958000183,-0.10451751947402954,-0.20239892601966858,0.46558165550231934,0.7715504169464111,0.42000001668930054,-0.6007592678070068,-2.9999990463256836,-1.4971657991409302,-3.000000238418579,-0.18589919805526733,-0.18131594359874725,-0.17743739485740662,-0.17220859229564667,0.12290085107088089,0.11963889747858047,0.12857215106487274,0.13627110421657562
0.8,0.17347021400928497,0.04936154559254646,0.0,0.6066985726356506,0.0,0.0,-0.7949320077896118,0.447356641292572,-0.05835999548435211,0.0,0.0,0.0,-0.8827465176582336,0.464001327753067,0.7631123661994934,0.4200000464916229,0.5564126968383789,3.12772385768767e-07,-2.7219475668971427e-06,-0.830906093120575,6.108005618443713e-05,-0.00025398508296348155,-8.081691339612007e-05,0.006452119443565607,-0.0018885221797972918,-0.0007114583277143538,0.5197283029556274,0.7840241193771362,0.5257235169410706,0.5235514640808105,-0.20108115673065186,-0.2466624677181244,0.46558165550231934,0.7715504169464111,0.42000001668930054,-0.6507680416107178,-2.9999969005584717,-1.5471841096878052,-3.0,-0.1823578029870987,-0.17800118029117584,-0.1740012764930725,-0.16857682168483734,0.13841941952705383,0.150025874376297,0.1861162632703781,0.22716818749904633
0.8166666666666667,0.18217912316322327,0.045814886689186096,0.0,0.5847071409225464,0.0,0.0,-0.8112444281578064,0.5631282925605774,-0.27607840299606323,0.0,0.0,0.0,-4.210169792175293,0.464001327753067,0.7631123661994934,0.4200000464916229,0.5564128160476685,3.143347555578657e-07,-2.6410007194499485e-06,-0.8309060335159302,6.05805435043294e-05,-0.00025407562498003244,-8.06956086307764e-05,0.006457192823290825,-0.0018943427130579948,-0.0007104999967850745,0.5300512909889221,0.7801834940910339,0.5270965695381165,0.7322279214859009,-0.2561834156513214,0.5158745050430298,0.46558165550231934,0.7715504169464111,0.42000001668930054,-0.7007787227630615,-2.999983310699463,-1.5972024202346802,-3.0,-0.1817353069782257,-0.177033469080925,-0.17224502563476562,-0.16594533622264862,0.005462393630295992,0.026185624301433563,0.07463639229536057,0.12852804362773895
0.8333333333333334,0.1939508467912674,0.045993585139513016,0.0,0.5762710571289062,0.0,0.0,-0.8172585964202881,0.7064298391342163,0.024025123566389084,0.0,0.0,0.0,-0.22501802444458008,0.464001327753067,0.7631123065948486,0.4200000464916229,0.5564125776290894,3.962585708450206e-07,-2.6277687084075296e-06,-0.830906093120575,6.351766205625609e-05,-0.0002522202266845852,-8.128536865115166e-05,0.006393572315573692,-0.0018505231710150838,-0.0007129543810151517,0.5392488241195679,0.7793140411376953,0.5380602478981018,0.45234230160713196,0.22281944751739502,0.7749258279800415,0.46558165550231934,0.7715504169464111,0.42000001668930054,-0.7160196900367737,0.8495892286300659,-1.647219181060791,-2.9999992847442627,-0.18378502130508423,-0.17885151505470276,-0.17347529530525208,-0.1666046530008316,0.04696197062730789,-0.005409574136137962,-0.03622621297836304,-0.066225565969944
0.85,0.20206555724143982,0.04785711318254471,0.0,0.5928686857223511,0.0,0.0,-0.8052991628646851,0.41184279322624207,0.1566179245710373,0.0,0.0,0.0,3.2952258586883545,0.464001327753067,0.7631123661994934,0.4200000464916229,0.5564125776290894,3.106960093646194e-07,-2.5968470254156273e-06,-0.8309061527252197,6.066491550882347e-05,-0.00025370082585141063,-8.073868229985237e-05,0.006446246989071369,-0.001892722793854773,-0.0007100647198967636,0.5458869934082031,0.7852915525436401,0.5479090213775635,0.27031219005584717,0.46110886335372925,0.47084468603134155,0.46558165550231934,0.7715504169464111,0.42000001668930054,-0.6891893744468689,2.2266290187835693,-1.6080747842788696,2.999999523162842,-0.18084624409675598,-0.17731402814388275,-0.17299088835716248,-0.16714973747730255,0.22716177999973297,0.1327209621667862,0.055573154240846634,-0.022591380402445793
0.8666666666666667,0.20572465658187866,0.04554807394742966,0.0,0.5954049229621887,0.0,0.0,-0.8034257888793945,0.17996518313884735,-0.19796152412891388,0.0,0.0,0.0,-0.670062243938446,0.464001327753067,0.7631123661994934,0.4200000464916229,0.5564126372337341,3.1789051035957527e-07,-2.702513029362308e-06,-0.8309060335159302,6.0865917475894094e-05,-0.00025396773708052933,-8.076196536421776e-05,0.006452780216932297,-0.0018907838966697454,-0.0007109416765160859,0.5440612435340881,0.792799711227417,0.5518746376037598,-0.4784250259399414,0.35816890001296997,0.1471412628889084,0.46558165550231934,0.7715504169464111,0.42000001668930054,-0.6863856911659241,-1.562828540802002,-1.5580183267593384,2.999999761581421,-0.17539989948272705,-0.17350231111049652,-0.17056803405284882,-0.16615156829357147,0.22747951745986938,0.16149231791496277,0.10483691841363907,0.04124674201011658
