vladlanda/robotic-transformer/data/env_000_episode_0137.csv
sim_time_s,robot_box_x,robot_box_y,robot_box_z,robot_box_quat_w,robot_box_quat_x,robot_box_quat_y,robot_box_quat_z,robot_box_linvel_x,robot_box_linvel_y,robot_box_linvel_z,robot_box_angvel_x,robot_box_angvel_y,robot_box_angvel_z,cube_world_x,cube_world_y,cube_world_z,cube_quat_w,cube_quat_x,cube_quat_y,cube_quat_z,cube_linvel_x,cube_linvel_y,cube_linvel_z,cube_angvel_x,cube_angvel_y,cube_angvel_z,endpoint_world_x,endpoint_world_y,endpoint_world_z,endpoint_linvel_x,endpoint_linvel_y,endpoint_linvel_z,target_cube_world_x,target_cube_world_y,target_cube_world_z,gripper_actual_pos_rad_gp_leftgearjoint,gripper_actual_vel_rad_s_gp_leftgearjoint,gripper_actual_pos_rad_gp_rotatingjoint,gripper_actual_vel_rad_s_gp_rotatingjoint,motor_angle_rad_joint1,motor_angle_rad_joint2,motor_angle_rad_joint3,motor_angle_rad_joint4,motor_speed_rad_s_joint1,motor_speed_rad_s_joint2,motor_speed_rad_s_joint3,motor_speed_rad_s_joint4
0.0,0.0,0.0,0.0,1.0,0.0,0.0,0.0,0.0,0.0,0.0,0.0,0.0,0.0,-0.3512216806411743,0.6839133501052856,0.41999998688697815,1.0,0.0,0.0,0.0,0.0,0.0,0.0,0.0,0.0,0.0,3.42540442943573e-06,-0.005000244826078415,1.313499927520752,0.0,0.0,0.0,0.38207268714904785,0.7277708649635315,0.42000001668930054,-1.5707999467849731,0.0,0.0,0.0,0.0,0.0,0.0,0.0,0.0,0.0,0.0,0.0
0.016666666666666666,0.0029029827564954758,0.002141656819730997,0.0,0.999862790107727,0.0,0.0,0.016566714271903038,0.24135346710681915,0.18136057257652283,0.0,0.0,0.0,3.142010450363159,-0.35122179985046387,0.6839130520820618,0.41999998688697815,1.0,3.2799905511637917e-06,-8.339794135281409e-07,8.465515577427141e-08,-1.9833774786093272e-05,0.00017983047291636467,-6.132945418357849e-05,0.0009432245860807598,-0.004689525347203016,-0.00031981084612198174,-0.007097579538822174,0.003455571597442031,1.3159451484680176,-0.8122299909591675,0.9892248511314392,0.18093037605285645,0.38207268714904785,0.7277708649635315,0.42000001668930054,-1.5301096439361572,3.0000009536743164,-0.04585389047861099,-2.999999761581421,0.0008765573147684336,0.0008027662988752127,0.0007168605807237327,0.0006173240835778415,0.11081313341856003,0.09746204316616058,0.08324964344501495,0.06812773644924164
0.03333333333333333,0.008988757617771626,0.006747066508978605,0.0,0.9998524188995361,0.0,0.0,0.017178591340780258,0.40717723965644836,0.31435564160346985,0.0,0.0,0.0,-0.8683801293373108,-0.3512219190597534,0.683912992477417,0.4200000464916229,1.0,3.3908531804627273e-06,-2.132488134520827e-06,-3.710428941872124e-08,0.0002635785494931042,0.0002693783608265221,-0.00010509602725505829,-0.0017707846127450466,0.004130862653255463,-0.00013547409616876394,-0.027420051395893097,0.026455054059624672,1.316591501235962,-1.582518219947815,1.6266529560089111,-0.0863446369767189,0.38207268714904785,0.7277708649635315,0.42000001668930054,-1.4800902605056763,3.0000016689300537,-0.09589371830224991,-3.000000238418579,0.0029896991327404976,0.002652081660926342,0.002276704180985689,0.0018609127728268504,0.16371294856071472,0.13930340111255646,0.11339878290891647,0.08589146286249161
0.05,0.018494056537747383,0.013839952647686005,0.0,0.9999498128890991,0.0,0.0,-0.010016639716923237,0.6355771422386169,0.4714054465293884,0.0,0.0,0.0,-4.073739528656006,-0.3512219488620758,0.6839130520820618,0.4200000464916229,1.0,3.7651284401363228e-06,-2.2118861124909017e-06,5.622759147172474e-09,0.00026530996547080576,0.00026691515813581645,-0.00010440382175147533,-0.00172425655182451,0.004177390597760677,-0.00012948956282343715,-0.05686646327376366,0.057956382632255554,1.3118629455566406,-1.939260482788086,2.0782477855682373,-0.4631580114364624,0.38207268714904785,0.7277708649635315,0.42000001668930054,-1.4300719499588013,3.0000016689300537,-0.1459217667579651,-2.999999761581421,0.005999417044222355,0.005160867236554623,0.004249982535839081,0.0032627545297145844,0.20617397129535675,0.1658821552991867,0.1236681342124939,0.07943686842918396
0.06666666666666667,0.0308175440877676,0.023320229724049568,0.0,0.999824047088623,0.0,0.0,-0.018757233396172523,0.7721960544586182,0.6155880689620972,0.0,0.0,0.0,-0.03296774625778198,-0.3512219488620758,0.683912992477417,0.4200000464916229,0.9999999403953552,3.406727046240121e-06,-2.285541313540307e-06,4.300959517422598e-07,0.0002670243557076901,0.00026791688287630677,-0.00010437681339681149,-0.0017406673869118094,0.004211694002151489,-0.00012850009079556912,-0.09257093071937561,0.09180660545825958,1.3014253377914429,-2.2049331665039062,2.143878936767578,-0.7783124446868896,0.38207268714904785,0.7277708649635315,0.42000001668930054,-1.3800435066223145,2.9999988079071045,-0.12648238241672516,3.0000007152557373,0.008547763340175152,0.006939257960766554,0.005217988975346088,0.003378945868462324,0.1304149627685547,0.07421975582838058,0.01586174964904785,-0.04472655430436134
0.08333333333333333,0.04507725313305855,0.03118303045630455,0.0,0.9991398453712463,0.0,0.0,-0.04146770015358925,0.9580355286598206,0.3697372376918793,0.0,0.0,0.0,-3.5170791149139404,-0.3512219488620758,0.683912992477417,0.4200000464916229,1.0,3.697249667311553e-06,-2.1888592982577393e-06,-2.632261555390869e-07,0.00026389709091745317,0.00026586506282910705,-0.00010433932766318321,-0.001708121271803975,0.004150144290179014,-0.00012991175753995776,-0.12439513206481934,0.13193055987358093,1.2881653308868408,-1.6622936725616455,2.6576433181762695,-0.7986197471618652,0.38207268714904785,0.7277708649635315,0.42000001668930054,-1.3300397396087646,3.0000033378601074,-0.15842761099338531,-3.0000040531158447,0.009056461974978447,0.00625618128105998,0.003300117328763008,0.00018349952006246895,-0.004643810447305441,-0.09414815157651901,-0.18592451512813568,-0.27988186478614807
0.1,0.054071951657533646,0.04073760658502579,0.0,0.9955787062644958,0.0,0.0,-0.09393128752708435,0.4000720679759979,0.6560593843460083,0.0,0.0,0.0,-7.272182464599609,-0.3512219488620758,0.683912992477417,0.4200000464916229,0.9999999403953552,3.6203455238137394e-06,-2.2651984181720763e-06,1.746214763898024e-07,0.0002667686785571277,0.0002674089337233454,-0.00010408065281808376,-0.001738688675686717,0.0042091673240065575,-0.0001277492119697854,-0.1533176600933075,0.1787201464176178,1.2703216075897217,-1.7670605182647705,2.956369400024414,-1.2572401762008667,0.38207268714904785,0.7277708649635315,0.42000001668930054,-1.2800233364105225,2.9999890327453613,-0.1248595118522644,3.000000476837158,0.002404845552518964,-0.001257599680684507,-0.005129455588757992,-0.009218467399477959,-0.5206950306892395,-0.5630344152450562,-0.6079651713371277,-0.6557526588439941
0.11666666666666667,0.05762945115566254,0.052384454756975174,0.0,0.9919220209121704,0.0,0.0,-0.12684914469718933,0.2085801362991333,0.6470693349838257,0.0,0.0,0.0,-2.61838698387146,-0.3512219488620758,0.683912992477417,0.4200000464916229,1.0,3.7983813854225446e-06,-2.262807811348466e-06,-1.5020366106455185e-07,0.0002637406578287482,0.0002656614233274013,-0.00010428880341351032,-0.001705422531813383,0.004147589672356844,-0.00012980026076547801,-0.18878433108329773,0.222864031791687,1.2479270696640015,-2.178607702255249,2.729921579360962,-1.378719687461853,0.38207268714904785,0.7277708649635315,0.42000001668930054,-1.230033040046692,3.0000014305114746,-0.1567760407924652,-3.0000007152557373,-0.006443564780056477,-0.01102291326969862,-0.015818819403648376,-0.020842764526605606,-0.4202231168746948,-0.4955422878265381,-0.5691372156143188,-0.641106367111206
0.13333333333333333,0.06998132169246674,0.059830907732248306,0.0,0.9855004549026489,0.0,0.0,-0.1696728765964508,0.9196239709854126,0.35675448179244995,0.0,0.0,0.0,-6.097668647766113,-0.3512219488620758,0.6839130520820618,0.4200000464916229,0.9999999403953552,3.550472456481657e-06,-2.229846586487838e-06,2.9291268788256275e-07,0.00026703288313001394,0.00026779319159686565,-0.00010417005978524685,-0.001743955654092133,0.004213616251945496,-0.00012800547119695693,-0.22071515023708344,0.27628660202026367,1.2229061126708984,-1.6297472715377808,3.6847567558288574,-1.6761019229888916,0.38207268714904785,0.7277708649635315,0.42000001668930054,-1.1800132989883423,2.999997138977051,-0.15629026293754578,2.576630115509033,-0.006253876723349094,-0.013019283302128315,-0.019913306459784508,-0.026944341138005257,0.07945840805768967,-0.058477602899074554,-0.19055265188217163,-0.3165495693683624
0.15,0.07888539135456085,0.0654774010181427,0.0,0.9814044833183289,0.0,0.0,-0.1919512301683426,0.4705658257007599,0.2728048861026764,0.0,0.0,0.0,-1.457389235496521,-0.3512219190597534,0.683912992477417,0.4200000464916229,1.0,3.3321450700896094e-06,-2.1020127860538196e-06,1.3132850540387153e-07,0.00026730686658993363,0.0002685973304323852,-0.00010459637269377708,-0.001749805873259902,0.004215680528432131,-0.00012928179057780653,-0.2536303699016571,0.33315736055374146,1.186829686164856,-1.9882707595825195,3.441345691680908,-2.500420331954956,0.38207268714904785,0.7277708649635315,0.42000001668930054,-1.145089864730835,1.3100656270980835,-0.1879885196685791,-3.000000238418579,-0.013123291544616222,-0.02091902494430542,-0.02879888378083706,-0.03677366301417351,-0.4627436697483063,-0.507474958896637,-0.5494891405105591,-0.5890200734138489
0.16666666666666666,0.08283639699220657,0.07376053184270859,0.0,0.9746000170707703,0.0,0.0,-0.2239527702331543,0.21347710490226746,0.45550963282585144,0.0,0.0,0.0,-4.512580871582031,-0.3512219488620758,0.683912992477417,0.4200000464916229,1.0,3.7372319638961926e-06,-2.233149643871002e-06,-1.8763658715670317e-07,0.0002643291081767529,0.00026626838371157646,-0.00010445783846080303,-0.0017118019750341773,0.004157478455454111,-0.0001300142175750807,-0.2858573794364929,0.39448273181915283,1.1369576454162598,-1.8305608034133911,3.932936191558838,-3.330392837524414,0.38207268714904785,0.7277708649635315,0.42000001668930054,-1.0993428230285645,2.999999523162842,-0.23763392865657806,-2.9261624813079834,-0.02456524595618248,-0.032582126557826996,-0.04064531251788139,-0.048774510622024536,-0.5982252359390259,-0.6215420365333557,-0.6407508254051208,-0.6561794281005859
0.18333333333333332,0.09189509600400925,0.082889124751091,0.0,0.9595173001289368,0.0,0.0,-0.28164979815483093,0.6566311120986938,0.5863922238349915,0.0,0.0,0.0,-8.068285942077637,-0.3512219488620758,0.6839130520820618,0.4200000464916229,0.9999999403953552,3.6602039017452626e-06,-2.3022923869575607e-06,2.5287019411734946e-07,0.00026690773665905,0.00026760328910313547,-0.00010412652045488358,-0.0017413386376574636,0.0042115263640880585,-0.00012786791194230318,-0.31439483165740967,0.46355676651000977,1.0747425556182861,-1.3802573680877686,4.348589897155762,-4.10512113571167,0.38207268714904785,0.7277708649635315,0.42000001668930054,-1.049339771270752,2.999999523162842,-0.2876604199409485,-2.999998092651367,-0.03282848373055458,-0.0413370355963707,-0.04981696233153343,-0.058293189853429794,-0.5060417652130127,-0.5255083441734314,-0.5410891771316528,-0.5530977845191956
0.2,0.09706635028123856,0.08957769721746445,0.0,0.9472324252128601,0.0,0.0,-0.32054761052131653,0.30440911650657654,0.3621285855770111,0.0,0.0,0.0,-3.6118435859680176,-0.3512219488620758,0.683912992477417,0.4200000464916229,1.0,3.590804681152804e-06,-2.3003537990007317e-06,1.387499537486292e-07,0.0002665481297299266,0.0002673249691724777,-0.00010424014180898666,-0.001732735661789775,0.004203468095511198,-0.00012820278061553836,-0.33938100934028625,0.527962327003479,0.9972621202468872,-1.1131863594055176,3.898707389831543,-5.076292991638184,0.38207268714904785,0.7277708649635315,0.42000001668930054,-0.9993329644203186,2.9999449253082275,-0.33768659830093384,-2.999999761581421,-0.04690968617796898,-0.05500194802880287,-0.06306137889623642,-0.0708419531583786,-0.7532954216003418,-0.7829720973968506,-0.8083383440971375,-0.787010133266449
0.21666666666666667,0.09886825829744339,0.09810987859964371,0.0,0.9306948781013489,0.0,0.0,-0.3657965362071991,0.036531370133161545,0.5563017129898071,0.0,0.0,0.0,-6.710068702697754,-0.3512219488620758,0.6839130520820618,0.4200000464916229,1.0,3.6069423003937118e-06,-2.26090151045355e-06,1.963344153921298e-08,0.0002644701162353158,0.00026558522949926555,-0.00010396679863333702,-0.0017088270979002118,0.004164249636232853,-0.00012832220818381757,-0.35682010650634766,0.5891239047050476,0.9051191806793213,-0.693172037601471,3.54316782951355,-5.890622615814209,0.38207268714904785,0.7277708649635315,0.42000001668930054,-0.9493229985237122,3.0000009536743164,-0.3877158761024475,-3.000002145767212,-0.06223330646753311,-0.07037197798490524,-0.07845981419086456,-0.08621744811534882,-0.9835370182991028,-0.9688217639923096,-0.9532805681228638,-0.9394549131393433
0.23333333333333334,0.10376837104558945,0.10257909446954727,0.0,0.9197235107421875,0.0,0.0,-0.3925667703151703,0.3276951313018799,0.19099342823028564,0.0,0.0,0.0,-2.2209677696228027,-0.3512219190597534,0.683912992477417,0.4200000464916229,0.9999999403953552,3.7422239529405488e-06,-2.2273945887718583e-06,4.589346929151361e-07,0.00026474997866898775,0.00026671221712604165,-0.0001045342069119215,-0.0017188844503834844,0.0041657243855297565,-0.00013019047037232667,-0.3697786033153534,0.6379374861717224,0.8032671213150024,-0.43940743803977966,2.5093817710876465,-6.372253894805908,0.38207268714904785,0.7277708649635315,0.42000001668930054,-0.8993123173713684,2.9999992847442627,-0.4377468228340149,-2.9999983310699463,-0.07758745551109314,-0.0855320617556572,-0.09336099028587341,-0.1008979007601738,-0.9889470338821411,-0.9730426669120789,-0.9575291872024536,-0.9440742135047913
0.25,0.10364723950624466,0.11125704646110535,0.0,0.9217368364334106,0.0,0.0,-0.387815922498703,-0.0013577244244515896,0.4633931815624237,0.0,0.0,0.0,1.4737682342529297,-0.3512219488620758,0.683912992477417,0.4200000464916229,1.0,3.3943786093004746e-06,-2.281922661495628e-06,1.3365452389280108e-07,0.00026679373695515096,0.00026793996221385896,-0.00010439474135637283,-0.0017417850904166698,0.0042066010646522045,-0.00012883795716334134,-0.37771496176719666,0.6619091033935547,0.6985200047492981,-0.35089924931526184,0.7468464374542236,-6.155727386474609,0.38207268714904785,0.7277708649635315,0.42000001668930054,-0.8493016362190247,2.999999761581421,-0.48777836561203003,-2.999999523162842,-0.09483077377080917,-0.10257051140069962,-0.11026785522699356,-0.11771614849567413,-0.6735430359840393,-0.7393375039100647,-0.7988701462745667,-0.8512998819351196
0.26666666666666666,0.10661233216524124,0.11433898657560349,0.0,0.9177629947662354,0.0,0.0,-0.39712849259376526,0.1906319260597229,0.1292029172182083,0.0,0.0,0.0,-1.8409103155136108,-0.3512219488620758,0.6839130520820618,0.4200000464916229,1.0,3.6834032925980864e-06,-2.3100083126337267e-06,2.1012857587265898e-07,0.00026479255757294595,0.00026625869213603437,-0.00010421290062367916,-0.0017169599886983633,0.004169076681137085,-0.00012909126235172153,-0.3807450532913208,0.6763601303100586,0.5971164107322693,0.05687929689884186,0.6714237332344055,-5.870448112487793,0.38207268714904785,0.7277708649635315,0.42000001668930054,-0.7992923259735107,3.000002145767212,-0.5378087759017944,-3.0,-0.10697564482688904,-0.11552660167217255,-0.12397751212120056,-0.1321159452199936,-1.009685754776001,-1.0072951316833496,-1.0054750442504883,-1.0040267705917358
0.2833333333333333,0.1056346744298935,0.11458421498537064,0.0,0.9207444787025452,0.0,0.0,-0.39016616344451904,-0.1340348869562149,-0.017974039539694786,0.0,0.0,0.0,1.7471956014633179,-0.3512219488620758,0.683912992477417,0.4200000464916229,1.0,3.3069266009988496e-06,-2.2123958842712454e-06,2.6259363039571326e-07,0.0002666073269210756,0.00026745061040855944,-0.00010424456559121609,-0.0017353348666802049,0.004204466938972473,-0.00012828223407268524,-0.3763465881347656,0.6837049722671509,0.5058972835540771,0.5084214210510254,0.2062007486820221,-5.139463424682617,0.38207268714904785,0.7277708649635315,0.42000001668930054,-0.7492835521697998,3.000001907348633,-0.5878374576568604,-2.999999761581421,-0.12484876811504364,-0.1331142783164978,-0.1413518637418747,-0.14932329952716827,-1.012442946434021,-1.0094146728515625,-1.0071039199829102,-1.0052552223205566
0.3,0.10219932347536087,0.11229921132326126,0.0,0.9175155758857727,0.0,0.0,-0.39769983291625977,-0.23390233516693115,-0.18902723491191864,0.0,0.0,0.0,-1.839616298675537,-0.3512219488620758,0.683912992477417,0.4200000464916229,1.0,3.6563528738042805e-06,-2.2967849417909747e-06,-2.449458236242208e-07,0.00026532975607551634,0.00026595438248477876,-0.0001038478221744299,-0.0017164659220725298,0.004181908909231424,-0.00012746590073220432,-0.3623853921890259,0.6867750287055969,0.42032209038734436,1.1348402500152588,0.11847999691963196,-5.051838397979736,0.38207268714904785,0.7277708649635315,0.42000001668930054,-0.6992760896682739,3.000001907348633,-0.6378642916679382,-3.0000014305114746,-0.14173097908496857,-0.14993394911289215,-0.158138707280159,-0.16609184443950653,-1.006535530090332,-1.0049548149108887,-1.00374174118042,-1.0027636289596558
0.31666666666666665,0.09683869779109955,0.10760010778903961,0.0,0.9207432866096497,0.0,0.0,-0.3901689052581787,-0.3650507628917694,-0.320244699716568,0.0,0.0,0.0,1.861868977546692,-0.3513221740722656,0.6843793988227844,0.4200019836425781,0.9999579787254333,-9.53421913436614e-05,-3.5810608096653596e-05,-0.009166451171040535,-0.022945348173379898,0.048478271812200546,-0.004524709656834602,0.19600190222263336,-0.120743528008461,-2.323956251144409,-0.36374151706695557,0.6897516250610352,0.42818957567214966,-0.18750497698783875,0.08158782124519348,-0.175480455160141,0.38207268714904785,0.7277708649635315,0.42000001668930054,-0.6493409872055054,2.9999256134033203,-0.6883533596992493,-2.9999141693115234,-0.14603403210639954,-0.1544991433620453,-0.16257239878177643,-0.16992756724357605,-0.3890785574913025,-0.3571075201034546,-0.30708563327789307,-0.23679913580417633
0.3333333333333333,0.08915259689092636,0.1007089912891388,0.0,0.9176449179649353,0.0,0.0,-0.3974013924598694,-0.5046303868293762,-0.4521212875843048,0.0,0.0,0.0,-1.8772382736206055,-0.3515107035636902,0.6850237846374512,0.4200003147125244,0.999843955039978,-6.601748737011803e-06,2.049505928880535e-05,-0.017666492611169815,0.005443355534225702,0.04589367285370827,-0.0007253432995639741,0.0214405320584774,-0.025469327345490456,-0.6564183235168457,-0.3633323907852173,0.6896330118179321,0.4253079295158386,0.1689830869436264,-0.03019457869231701,-0.1732429563999176,0.38207268714904785,0.7277708649635315,0.42000001668930054,-0.5993350744247437,2.9999914169311523,-0.7384047508239746,-2.999980926513672,-0.15356294810771942,-0.1609453409910202,-0.1676395833492279,-0.1733117699623108,-0.4906265437602997,-0.39610379934310913,-0.2858514189720154,-0.1608487218618393
0.35,0.0792018249630928,0.0916152149438858,0.0,0.9207013249397278,0.0,0.0,-0.3902679979801178,-0.6409189105033875,-0.5854275822639465,0.0,0.0,0.0,1.8098162412643433,-0.3493969738483429,0.6881815195083618,0.4200001060962677,0.9991074204444885,-1.3566130292019807e-05,1.5521134628215805e-05,-0.04224097728729248,0.20688611268997192,0.2867056131362915,-0.0004898242186754942,0.03124716319143772,-0.008713371120393276,-4.740851879119873,-0.35966232419013977,0.6918213963508606,0.4225238859653473,0.2872416079044342,0.2578047215938568,-0.13713215291500092,0.38207268714904785,0.7277708649635315,0.42000001668930054,-0.5493301153182983,2.9999806880950928,-0.7884461283683777,-3.0,-0.16247230768203735,-0.16787190735340118,-0.172303706407547,-0.17547500133514404,-0.512952446937561,-0.38691139221191406,-0.24339096248149872,-0.08564373105764389
0.36666666666666664,0.06698653846979141,0.0802680179476738,0.0,0.9174088835716248,0.0,0.0,-0.3979458808898926,-0.7770203948020935,-0.7204994559288025,0.0,0.0,0.0,-1.9500097036361694,-0.3453693985939026,0.6930587887763977,0.4200001060962677,0.9948333501815796,6.541190487041604e-06,-3.7126747542970406e-07,-0.10152047872543335,0.3157303035259247,0.3722118139266968,-0.00014628874487243593,-0.0009750031749717891,0.007645836099982262,-12.107389450073242,-0.35196200013160706,0.6967562437057495,0.4209972620010376,0.6553678512573242,0.4090900123119354,-0.07458221912384033,0.38207268714904785,0.7277708649635315,0.42000001668930054,-0.49932536482810974,2.9999806880950928,-0.8384918570518494,-2.999997854232788,-0.17112785577774048,-0.1741812378168106,-0.17591290175914764,-0.17610324919223785,-0.4872034788131714,-0.3368275761604309,-0.1646096259355545,0.024435140192508698
0.3833333333333333,0.057464540004730225,0.0662245824933052,0.0,0.9022244811058044,0.0,0.0,-0.4312666952610016,-0.49566635489463806,-0.8945874571800232,0.0,0.0,0.0,-5.2425971031188965,-0.33553895354270935,0.7041578888893127,0.42055198550224304,0.9772834181785583,-0.012951847165822983,0.001171695883385837,-0.21153689920902252,0.95211261510849,1.0098830461502075,0.04604661464691162,-0.2465122640132904,-3.3821239471435547,-4.890395164489746,-0.3389648199081421,0.707017183303833,0.42199355363845825,0.9875688552856445,0.8948246836662292,0.12725737690925598,0.38207268714904785,0.7277708649635315,0.42000001668930054,-0.4492765963077545,3.0000367164611816,-0.8884975910186768,-2.9999899864196777,-0.1783674955368042,-0.17894375324249268,-0.17775863409042358,-0.174686998128891,-0.35985249280929565,-0.21667276322841644,-0.04593512415885925,0.1465187519788742
0.4,0.052129633724689484,0.04913382604718208,0.0,0.8732682466506958,0.0,0.0,-0.4872397780418396,-0.2500203847885132,-1.0805808305740356,0.0,0.0,0.0,-8.36372184753418,-0.30629345774650574,0.7282938957214355,0.4230445623397827,0.9649564027786255,-0.018299497663974762,-0.026605568826198578,-0.26041585206985474,2.6727406978607178,1.6591973304748535,0.05792321637272835,30.666818618774414,-18.58464813232422,5.803601264953613,-0.3095591068267822,0.7305585145950317,0.42447978258132935,2.6457886695861816,1.9949676990509033,0.406296968460083,0.38207268714904785,0.7277708649635315,0.42000001668930054,-0.4013611078262329,2.1989963054656982,-0.9385199546813965,-3.000002145767212,-0.18546372652053833,-0.18325957655906677,-0.17888665199279785,-0.17233672738075256,-0.46496784687042236,-0.27568286657333374,-0.0666469931602478,0.1543487310409546
0.4166666666666667,0.048978157341480255,0.037076834589242935,0.0,0.8273295164108276,0.0,0.0,-0.5617169141769409,-0.14856097102165222,-0.5937082171440125,0.0,0.0,0.0,-11.30259895324707,-0.23659443855285645,0.7659141421318054,0.42842620611190796,0.9444767832756042,0.049420684576034546,-0.0694323256611824,-0.3173331022262573,5.766809463500977,2.2134358882904053,0.48802757263183594,14.787148475646973,-8.878009796142578,21.03397560119629,-0.2396327257156372,0.7686847448348999,0.43019723892211914,5.378846168518066,2.730574607849121,0.4607706665992737,0.38207268714904785,0.7277708649635315,0.42000001668930054,-0.37857675552368164,0.9795640110969543,-0.9013054966926575,2.999058246612549,-0.19989654421806335,-0.19383080303668976,-0.18473027646541595,-0.17364825308322906,-0.893828809261322,-0.7184101939201355,-0.44202566146850586,-0.1890362948179245
0.43333333333333335,0.042058639228343964,0.03242848813533783,0.0,0.7887493371963501,0.0,0.0,-0.6147149801254272,-0.536689281463623,-0.27123984694480896,0.0,0.0,0.0,-6.644343852996826,-0.14748282730579376,0.8027982711791992,0.43909862637519836,0.9032330513000488,0.08482323586940765,-0.09038428217172623,-0.4108595848083496,5.5934739112854,1.4007701873779297,0.8206191062927246,16.816774368286133,-4.296843528747559,18.40589714050293,-0.15008345246315002,0.806671679019928,0.440620481967926,5.449550628662109,1.9676669836044312,0.6909745931625366,0.38207268714904785,0.7277708649635315,0.42000001668930054,-0.36370736360549927,0.9120836853981018,-0.9274232983589172,-3.0000009536743164,-0.21383003890514374,-0.20807182788848877,-0.1964026838541031,-0.18086576461791992,-0.6306433081626892,-0.6839836239814758,-0.6554989814758301,-0.44067564606666565
0.45,0.03955564647912979,0.020553147420287132,0.0,0.7701760530471802,0.0,0.0,-0.6378313899040222,-0.01713794656097889,-0.8739820122718811,0.0,0.0,0.0,-2.5376148223876953,-0.051570720970630646,0.8289187550544739,0.4499633014202118,0.8476064801216125,0.08808509260416031,-0.08790111541748047,-0.5158271789550781,5.877807140350342,0.36781832575798035,0.34365734457969666,1.9779672622680664,-10.803101539611816,26.600011825561523,-0.05473049730062485,0.8339773416519165,0.4504224359989166,6.044171333312988,1.1955510377883911,0.7360740900039673,0.38207268714904785,0.7277708649635315,0.42000001668930054,-0.34614020586013794,1.0080593824386597,-0.9774472713470459,-3.000004291534424,-0.21779035031795502,-0.21279865503311157,-0.20083770155906677,-0.18245019018650055,-0.13557840883731842,-0.13508513569831848,-0.08994761854410172,0.07569501549005508
0.4666666666666667,0.035953231155872345,0.010613511316478252,0.0,0.743525505065918,0.0,0.0,-0.6687076091766357,-0.25786587595939636,-0.5317692756652832,0.0,0.0,0.0,-5.617007255554199,0.04585836082696915,0.8390453457832336,0.4588729441165924,0.7876672148704529,0.09421844035387039,-0.08808953315019608,-0.6024478673934937,5.648050308227539,-0.6236157417297363,0.3979528844356537,-3.5680692195892334,-13.480079650878906,28.539093017578125,0.04307268187403679,0.8456583023071289,0.4595488905906677,5.980292320251465,0.38544362783432007,0.6406034827232361,0.38207268714904785,0.7277708649635315,0.42000001668930054,-0.3307279348373413,0.7171570062637329,-1.0274702310562134,-3.000004768371582,-0.22260978817939758,-0.21707259118556976,-0.20423714816570282,-0.18360789120197296,-0.2576228380203247,-0.2253856658935547,-0.19188262522220612,-0.10609374195337296
0.48333333333333334,0.03410321846604347,0.005294341593980789,0.0,0.731523334980011,0.0,0.0,-0.6818163990974426,-0.045329950749874115,-0.2196781188249588,0.0,0.0,0.0,-0.9335141777992249,0.13692784309387207,0.8348938822746277,0.4644162356853485,0.7240655422210693,0.08776038140058517,-0.08599454909563065,-0.6786987781524658,4.929121494293213,-1.3672833442687988,0.294717937707901,16.039743423461914,-13.171823501586914,24.548330307006836,0.13475802540779114,0.8426480293273926,0.4652150273323059,5.292980194091797,-0.7186263203620911,0.20313139259815216,0.38207268714904785,0.7277708649635315,0.42000001668930054,-0.32007670402526855,0.5085278749465942,-1.077492356300354,-3.000002861022949,-0.22840666770935059,-0.2216433584690094,-0.20785407721996307,-0.18590694665908813,-0.3811064064502716,-0.2768004238605499,-0.2049160897731781,-0.13785871863365173
0.5,0.035556335002183914,0.004168676678091288,0.0,0.7129141092300415,0.0,0.0,-0.7012513279914856,0.13801072537899017,-0.006031482946127653,0.0,0.0,0.0,-4.113258361816406,0.21474476158618927,0.8197146654129028,0.4615177512168884,0.6764692664146423,0.06869430094957352,-0.08408468216657639,-0.7284230589866638,3.8773622512817383,-1.6334253549575806,-0.0667814388871193,15.889408111572266,-8.657838821411133,26.352699279785156,0.21307381987571716,0.8281135559082031,0.4632432162761688,4.404355049133301,-1.1894572973251343,-0.3633924126625061,0.38207268714904785,0.7277708649635315,0.42000001668930054,-0.3120754659175873,0.4569198489189148,-1.1275144815444946,-3.000000238418579,-0.23313967883586884,-0.22499437630176544,-0.21039342880249023,-0.18789935111999512,-0.21995311975479126,-0.13532155752182007,-0.09145323187112808,-0.07797601819038391
0.5166666666666666,0.03783299773931503,0.0014297210145741701,0.0,0.7059473395347595,0.0,0.0,-0.7082643508911133,0.11597084999084473,-0.1266435980796814,0.0,0.0,0.0,-0.26430654525756836,0.2787281572818756,0.7980419397354126,0.45147705078125,0.6330857276916504,0.01416145171970129,-0.09108668565750122,-0.7685733437538147,3.074063539505005,-1.7804958820343018,-0.757945716381073,-11.580744743347168,6.556502342224121,12.856416702270508,0.27708786725997925,0.8060623407363892,0.4548766613006592,3.474307060241699,-1.5820868015289307,-0.6367374658584595,0.38207268714904785,0.7277708649635315,0.42000001668930054,-0.30151575803756714,0.7856457233428955,-1.1775366067886353,-2.998538017272949,-0.23355311155319214,-0.2242586314678192,-0.20933279395103455,-0.18726372718811035,-0.08026418834924698,0.010224487632513046,0.04185893386602402,0.01268032193183899
0.5333333333333333,0.041651852428913116,0.0019050847040489316,0.0,0.6907133460044861,0.0,0.0,-0.7231286764144897,0.2790851891040802,0.09651976823806763,0.0,0.0,0.0,-3.434957981109619,0.33009976148605347,0.7728985548019409,0.4315691888332367,0.5604909658432007,-0.10859869420528412,-0.15596473217010498,-0.806058943271637,2.6895785331726074,-1.437248706817627,-1.3986045122146606,-21.591629028320312,6.823452949523926,-2.7972636222839355,0.32766011357307434,0.7834365367889404,0.43994757533073425,2.740800380706787,-1.3186428546905518,-1.0352566242218018,0.38207268714904785,0.7277708649635315,0.42000001668930054,-0.28472575545310974,1.1097766160964966,-1.2275587320327759,-3.0000009536743164,-0.23252122104167938,-0.2228696197271347,-0.20848673582077026,-0.1879478245973587,0.17751741409301758,0.1560320258140564,0.08067089319229126,-0.056232377886772156
0.55,0.04775754362344742,-0.0001436946913599968,0.0,0.6879408955574036,0.0,0.0,-0.7257667183876038,0.3958542048931122,-0.16276252269744873,0.0,0.0,0.0,0.48989325761795044,0.36696314811706543,0.7577359676361084,0.42134758830070496,0.5265069603919983,0.01023738831281662,-0.018978804349899292,-0.8498972654342651,1.645319938659668,-0.7091131210327148,-0.0765891745686531,1.0917158126831055,2.1875078678131104,-15.959916114807129,0.36296746134757996,0.7618212699890137,0.42307013273239136,1.3073878288269043,-0.9888752698898315,-0.23259782791137695,0.38207268714904785,0.7277708649635315,0.42000001668930054,-0.2645583748817444,1.3744444847106934,-1.277648687362671,-3.0006422996520996,-0.22875109314918518,-0.21947631239891052,-0.20641256868839264,-0.1883125901222229,0.23316985368728638,0.20616690814495087,0.12656277418136597,-0.018934402614831924
0.5666666666666667,0.051816243678331375,0.0008867591386660933,0.0,0.675510585308075,0.0,0.0,-0.7373502850532532,0.20283053815364838,0.09859037399291992,0.0,0.0,0.0,-2.922806978225708,0.3824230432510376,0.7460629343986511,0.4212546646595001,0.5698661804199219,0.019148312509059906,-0.0200337003916502,-0.8212700486183167,0.8907434344291687,-0.12108329683542252,0.04104076698422432,-1.913175344467163,-2.9397871494293213,4.497379302978516,0.3801772892475128,0.7506980299949646,0.4228888750076294,0.7468909621238708,-0.5191556215286255,0.020017510280013084,0.38207268714904785,0.7277708649635315,0.42000001668930054,-0.23717190325260162,1.7954671382904053,-1.2393572330474854,2.9992945194244385,-0.22499047219753265,-0.21664971113204956,-0.20527929067611694,-0.18987420201301575,0.352203905582428,0.2546119689941406,0.11700960993766785,-0.07499754428863525
0.5833333333333334,0.05635277181863785,-0.0011857189238071442,0.0,0.6753475666046143,0.0,0.0,-0.7374995946884155,0.30097970366477966,-0.1536431461572647,0.0,0.0,0.0,0.8606885075569153,0.3899088501930237,0.7375364899635315,0.4209379553794861,0.5771118402481079,0.015652934089303017,-0.0068481178022921085,-0.8164863586425781,0.12671615183353424,-0.8062920570373535,0.3718511164188385,4.23378324508667,19.656686782836914,10.543513298034668,0.3860023617744446,0.7415531873703003,0.4231851100921631,0.036847829818725586,-0.5284633636474609,0.0943736881017685,0.38207268714904785,0.7277708649635315,0.42000001668930054,-0.24956774711608887,-2.468508005142212,-1.2603545188903809,-2.9729886054992676,-0.21890299022197723,-0.21192991733551025,-0.20258934795856476,-0.1901334822177887,0.28403177857398987,0.22332240641117096,0.12302374094724655,-0.033084530383348465
0.6,0.06294170767068863,-0.0005580202559940517,0.0,0.6652233600616455,0.0,0.0,-0.7466443777084351,0.4348360300064087,0.07944345474243164,0.0,0.0,0.0,-2.5074057579040527,0.39079320430755615,0.7314398884773254,0.42311933636665344,0.5802221298217773,-0.026741519570350647,0.057637494057416916,-0.8119759559631348,0.09934806078672409,-0.08425555378198624,0.0819086879491806,2.359724521636963,7.054368495941162,0.7387588024139404,0.3867725133895874,0.7384374141693115,0.4252741038799286,0.11605978012084961,-0.013632096350193024,0.15108641982078552,0.38207268714904785,0.7277708649635315,0.42000001668930054,-0.2748204469680786,-0.7076941132545471,-1.3103070259094238,-2.998366117477417,-0.21246466040611267,-0.20738273859024048,-0.20036908984184265,-0.1909244954586029,0.5420628190040588,0.38545992970466614,0.21123391389846802,0.006241647060960531
0.6166666666666667,0.06739462912082672,-0.003448556177318096,0.0,0.6670528054237366,0.0,0.0,-0.7450104355812073,0.1659393012523651,-0.22887761890888214,0.0,0.0,0.0,1.0621832609176636,0.3918825685977936,0.7304071187973022,0.4233975410461426,0.5833919048309326,-0.0541372150182724,0.0759827122092247,-0.8068144917488098,0.04105735197663307,-0.05464349687099457,0.0017098700627684593,-0.9505164623260498,2.6442313194274902,0.8638802170753479,0.384957492351532,0.7354003190994263,0.42510986328125,-0.32151544094085693,-0.2706798017024994,-0.053311899304389954,0.38207268714904785,0.7277708649635315,0.42000001668930054,-0.31803733110427856,-2.9999475479125977,-1.2872016429901123,2.999859571456909,-0.20357121527194977,-0.2004915028810501,-0.1958043873310089,-0.1892307847738266,0.415130078792572,0.3388533890247345,0.2415168434381485,0.109634168446064
0.6333333333333333,0.072372667491436,-0.002396645024418831,0.0,0.6576462984085083,0.0,0.0,-0.7533268332481384,0.33269864320755005,0.06511291861534119,0.0,0.0,0.0,-2.338367223739624,0.3907017409801483,0.7295982241630554,0.42269131541252136,0.5917819738388062,-0.0430237241089344,0.05834011733531952,-0.8028320670127869,-0.024513740092515945,-0.031929414719343185,-0.056267838925123215,-1.032942533493042,-3.3077399730682373,0.2851925492286682,0.38256317377090454,0.7346190810203552,0.42668554186820984,-0.061713650822639465,0.14493857324123383,0.17224685847759247,0.38207268714904785,0.7277708649635315,0.42000001668930054,-0.3680590093135834,-2.9962072372436523,-1.306749939918518,-2.99999737739563,-0.19826960563659668,-0.1965765357017517,-0.19353289902210236,-0.18906119465827942,0.49481719732284546,0.3583683967590332,0.21417798101902008,0.05305054038763046
0.65,0.0794343501329422,-0.005109457299113274,0.0,0.6607659459114075,0.0,0.0,-0.7505919933319092,0.44893980026245117,-0.20100846886634827,0.0,0.0,0.0,1.3284982442855835,0.38948261737823486,0.7294566035270691,0.4210391044616699,0.6020340323448181,-0.015694379806518555,0.020658113062381744,-0.7980488538742065,-0.17816177010536194,-0.01575217954814434,-0.0955389216542244,-1.587010383605957,-5.1164960861206055,6.087311267852783,0.37977659702301025,0.7363510131835938,0.43000972270965576,-0.3035053312778473,5.832221359014511e-05,0.25310373306274414,0.38207268714904785,0.7277708649635315,0.42000001668930054,-0.4180736243724823,-3.0000011920928955,-1.3567687273025513,-3.000000476837158,-0.18976597487926483,-0.18995504081249237,-0.18887053430080414,-0.18657438457012177,0.3115205764770508,0.2592204511165619,0.2019623965024948,0.13094636797904968
0.6666666666666666,0.08846185356378555,-0.004763488657772541,0.0,0.6525541543960571,0.0,0.0,-0.7577421069145203,0.5686905980110168,0.06098054349422455,0.0,0.0,0.0,-2.2292797565460205,0.3866080343723297,0.7294204235076904,0.42000001668930054,0.6086961627006531,-3.3681633340165718e-06,2.3260181478690356e-06,-0.7934033870697021,-0.14842857420444489,0.007722094655036926,-0.0001228188630193472,-0.0012768799206241965,-0.0057121459394693375,-1.8583076000213623,0.37777650356292725,0.7370835542678833,0.4336370825767517,0.011905211955308914,0.07509719580411911,0.27243638038635254,0.38207268714904785,0.7277708649635315,0.42000001668930054,-0.4680832028388977,-2.9990155696868896,-1.406777262687683,-2.9999992847442627,-0.18565838038921356,-0.18660850822925568,-0.18616925179958344,-0.18453626334667206,0.2832249104976654,0.23896627128124237,0.21001657843589783,0.18951857089996338
0.6833333333333333,0.09942516684532166,-0.008045071735978127,0.0,0.6223883628845215,0.0,0.0,-0.7827085852622986,0.6982974410057068,-0.22764819860458374,0.0,0.0,0.0,-5.539351940155029,0.38511213660240173,0.7294691801071167,0.4200000464916229,0.6022502183914185,-7.62142633448093e-08,-1.007741161629383e-07,-0.7983072996139526,-0.06908033043146133,0.0010847520316019654,-8.02992144599557e-06,-0.0003058754082303494,-0.00012742420949507505,-0.7321772575378418,0.3813475966453552,0.7384332418441772,0.4458644390106201,0.4218095541000366,-0.019389428198337555,1.2971757650375366,0.38207268714904785,0.7277708649635315,0.42000001668930054,-0.5180957913398743,-2.9999947547912598,-1.456795573234558,-3.0000007152557373,-0.18121130764484406,-0.18276390433311462,-0.18265919387340546,-0.1811842918395996,0.05586053803563118,0.06829450279474258,0.09414517879486084,0.12796548008918762
0.7,0.11283774673938751,-0.007752181496471167,0.0,0.6061055064201355,0.0,0.0,-0.7953842282295227,0.8348579406738281,0.050705794245004654,0.0,0.0,0.0,-1.4116166830062866,0.3848525583744049,0.7294694185256958,0.4199998676776886,0.6012784838676453,1.013506675917597e-06,-1.1854363037855364e-05,-0.7990394830703735,0.0002862763940356672,-0.0006398448604159057,-3.341119736433029e-08,0.01101513858884573,-0.029614601284265518,-0.0030987022910267115,0.38885390758514404,0.7413266897201538,0.4716099202632904,0.48608770966529846,0.38694798946380615,1.7673296928405762,0.38207268714904785,0.7277708649635315,0.42000001668930054,-0.558527946472168,-1.9134423732757568,-1.506813883781433,-3.0,-0.18267610669136047,-0.1839718222618103,-0.18341220915317535,-0.18135865032672882,-0.007259930018335581,-0.031409602612257004,-0.042247701436281204,-0.04196726158261299
0.7166666666666667,0.12318259477615356,-0.005302872974425554,0.0,0.6152051091194153,0.0,0.0,-0.7883670926094055,0.5421038269996643,0.1896551549434662,0.0,0.0,0.0,2.2595560550689697,0.3848538398742676,0.7294690012931824,0.41999998688697815,0.6012773513793945,-2.576336100901244e-06,-4.349065420683473e-06,-0.7990403175354004,4.509430436883122e-05,-0.0003603590012062341,-0.00010320288129150867,0.008446116000413895,-0.0028419129084795713,-0.0005291810957714915,0.39983755350112915,0.7495561838150024,0.49346065521240234,0.6874551773071289,0.5432652235031128,0.939106822013855,0.38207268714904785,0.7277708649635315,0.42000001668930054,-0.564620316028595,0.9373494386672974,-1.556832194328308,-3.000000476837158,-0.1813560426235199,-0.18309712409973145,-0.18279621005058289,-0.18083688616752625,0.13731926679611206,0.11627469956874847,0.10218560695648193,0.09446699917316437
0.7333333333333333,0.12893365323543549,-0.007180044427514076,0.0,0.6118375062942505,0.0,0.0,-0.7909834980964661,0.2975830137729645,-0.1817418485879898,0.0,0.0,0.0,-1.4852491617202759,0.3848538398742676,0.7294690012931824,0.41999998688697815,0.601277232170105,-2.5557244498486398e-06,-4.524664291238878e-06,-0.7990404963493347,5.583152960753068e-05,-0.00036272549186833203,-9.985873475670815e-05,0.008553963154554367,-0.002770033199340105,-0.0005546504980884492,0.40816107392311096,0.7559809684753418,0.5027108788490295,0.31435930728912354,0.1758381426334381,0.338561475276947,0.38207268714904785,0.7277708649635315,0.42000001668930054,-0.5851704478263855,-3.0000016689300537,-1.517944097518921,3.000000238418579,-0.1771758496761322,-0.17922677099704742,-0.17920349538326263,-0.17748509347438812,0.17520318925380707,0.19117282330989838,0.20205527544021606,0.2079828530550003
0.75,0.1367863416671753,-0.003439574036747217,0.0,0.6207743287086487,0.0,0.0,-0.7839893102645874,0.4190959632396698,0.2750929594039917,0.0,0.0,0.0,2.210354804992676,0.3848538398742676,0.7294690608978271,0.41999998688697815,0.6012773513793945,-2.606383304737392e-06,-4.7578596422681585e-06,-0.7990402579307556,5.232495459495112e-05,-0.00036197129520587623,-0.00010085431858897209,0.008523614145815372,-0.0028007649816572666,-0.0005467351875267923,0.41255223751068115,0.757932186126709,0.5085572004318237,0.23478370904922485,0.2637893557548523,0.38789767026901245,0.38207268714904785,0.7277708649635315,0.42000001668930054,-0.6157833933830261,-0.8372102379798889,-1.533735990524292,-2.999999523162842,-0.18063080310821533,-0.1812225729227066,-0.17992791533470154,-0.17714832723140717,-0.09380695223808289,-0.04126068949699402,0.00325256260111928,0.03985391557216644
0.7666666666666666,0.14037825167179108,-0.0040651289746165276,0.0,0.6226067543029785,0.0,0.0,-0.7825348377227783,0.14240507781505585,-0.07755448669195175,0.0,0.0,0.0,-0.61494380235672,0.38485386967658997,0.7294690012931824,0.41999998688697815,0.6012772917747498,-2.583400828370941e-06,-4.4270277612668e-06,-0.7990403771400452,5.358817725209519e-05,-0.00036202219780534506,-0.00010044616647064686,0.008528366684913635,-0.002784599317237735,-0.0005491325864568353,0.41811132431030273,0.7594925165176392,0.5097653269767761,0.38789260387420654,-0.12455056607723236,-0.10274183005094528,0.38207268714904785,0.7277708649635315,0.42000001668930054,-0.6562942266464233,-3.0,-1.4976341724395752,3.0000009536743164,-0.17976292967796326,-0.17948628962039948,-0.1774044781923294,-0.17391210794448853,-0.06524302065372467,0.031101876869797707,0.12180931866168976,0.20622332394123077
0.7833333333333333,0.14509622752666473,-0.0033639175817370415,0.0,0.6017935276031494,0.0,0.0,-0.7986516952514648,0.29770544171333313,0.05275248736143112,0.0,0.0,0.0,-4.086863040924072,0.3848538398742676,0.7294690012931824,0.41999998688697815,0.6012771129608154,-2.688774202397326e-06,-4.570164946926525e-06,-0.7990405559539795,5.254390271147713e-05,-0.0003626405377872288,-0.00010082707740366459,0.008544842712581158,-0.002801093040034175,-0.0005475462530739605,0.4246056377887726,0.756698727607727,0.5119574069976807,0.468630313873291,-0.1287558674812317,0.4662013649940491,0.38207268714904785,0.7277708649635315,0.42000001668930054,-0.7063097357749939,-2.9999828338623047,-1.5138784646987915,-3.0,-0.18281014263629913,-0.18085727095603943,-0.1771269589662552,-0.17206048965454102,-0.09860579669475555,-0.027943136170506477,0.04690367728471756,0.12221533060073853
0.8,0.1515958160161972,-0.0005441370885819197,0.0,0.5955151915550232,0.0,0.0,-0.8033440113067627,0.42677465081214905,0.22380590438842773,0.0,0.0,0.0,0.028940323740243912,0.3848538398742676,0.7294690012931824,0.41999998688697815,0.6012774109840393,-2.6481113764020847e-06,-4.644616183213657e-06,-0.7990402579307556,5.456174767459743e-05,-0.00036232249112799764,-0.0001002743374556303,0.008536809124052525,-0.0027793918270617723,-0.0005517679383046925,0.4322466254234314,0.7587363719940186,0.5223584175109863,0.38582006096839905,0.301616370677948,0.8075530529022217,0.38207268714904785,0.7277708649635315,0.42000001668930054,-0.721271812915802,0.8793279528617859,-1.5638967752456665,-2.999999761581421,-0.18334366381168365,-0.18098510801792145,-0.176774263381958,-0.17116886377334595,0.012494551949203014,0.008704532869160175,0.006597924046218395,0.007459732703864574
0.8166666666666667,0.15540172159671783,-0.0013022895436733961,0.0,0.6122745871543884,0.0,0.0,-0.790645182132721,0.16772447526454926,-0.08713550865650177,0.0,0.0,0.0,3.1786696910858154,0.3848538398742676,0.7294690012931824,0.41999998688697815,0.6012771129608154,-2.494907448635786e-06,-4.4645744310400914e-06,-0.7990404963493347,5.6326734920730814e-05,-0.00036300785723142326,-9.977119043469429e-05,0.008562658913433552,-0.0027685631066560745,-0.0005560535355471075,0.4382377862930298,0.7642465829849243,0.5336595773696899,0.2678411900997162,0.2921699285507202,0.6083152890205383,0.38207268714904785,0.7277708649635315,0.42000001668930054,-0.711196780204773,0.3642917573451996,-1.524990439414978,3.000000476837158,-0.1813988983631134,-0.17915302515029907,-0.1750766932964325,-0.16959862411022186,0.04552774131298065,0.06057031825184822,0.06989264488220215,0.07501577585935593
0.8333333333333334,0.15571938455104828,-0.00467341486364603,0.0,0.61287921667099,0.0,0.0,-0.7901766300201416,-0.03008362278342247,-0.31283333897590637,0.0,0.0,0.0,-0.8529794812202454,0.3848538398742676,0.7294690012931824,0.41999998688697815,0.6012771129608154,-2.491161239959183e-06,-4.474657544051297e-06,-0.7990405559539795,5.6334225519094616e-05,-0.0003630483115557581,-9.978166781365871e-05,0.00856353435665369,-0.0027687251567840576,-0.000556113023776561,0.4403642416000366,0.7671850919723511,0.539900541305542,0.015189657919108868,0.11216060072183609,0.2914019823074341,0.38207268714904785,0.7277708649635315,0.42000001668930054,-0.7150546908378601,-0.7294832468032837,-1.474972128868103,3.000000238418579,-0.18192121386528015,-0.17904667556285858,-0.1744588017463684,-0.16857047379016876,-0.013180050998926163,0.028867309913039207,0.06312920898199081,0.09068503230810165
0.85,0.15345199406147003,-0.0034956964664161205,0.0,0.625234067440033,0.0,0.0,-0.7804372906684875,-0.19545294344425201,0.20271675288677216,0.0,0.0,0.0,2.766249895095825,0.3848538398742676,0.7294690012931824,0.41999998688697815,0.6012774109840393,-2.637767693158821e-06,-4.49145454695099e-06,-0.7990403175354004,5.516358942259103e-05,-0.00036241664201952517,-0.00010011927224695683,0.008540663868188858,-0.002776727080345154,-0.0005532774375751615,0.4410431385040283,0.7666367292404175,0.5459842085838318,0.05725381150841713,-0.06375394761562347,0.4627535343170166,0.38207268714904785,0.7277708649635315,0.42000001668930054,-0.7070764303207397,1.486823558807373,-1.491624355316162,-2.999999761581421,-0.1877782791852951,-0.18296827375888824,-0.17662781476974487,-0.1691839098930359,-0.4083935022354126,-0.27978208661079407,-0.16054274141788483,-0.05176662281155586
0.8666666666666667,0.1538165807723999,-0.005650931503623724,0.0,0.6248028874397278,0.0,0.0,-0.7807825207710266,0.02421770989894867,-0.11205311119556427,0.0,0.0,0.0,-0.7528668642044067,0.38485386967658997,0.7294690012931824,0.41999998688697815,0.6012771129608154,-2.5495965019217692e-06,-4.501090188568924e-06,-0.7990405559539795,5.482229244080372e-05,-0.0003627952537499368,-0.00010017072781920433,0.008553977124392986,-0.002781144343316555,-0.0005525194574147463,0.4384251534938812,0.7654100656509399,0.5506889820098877,-0.4560478925704956,-0.18172135949134827,0.26633399724960327,0.38207268714904785,0.7277708649635315,0.42000001668930054,-0.7012671828269958,-0.6142535209655762,-1.4686222076416016,2.999997854232788,-0.18981024622917175,-0.18385399878025055,-0.17646411061286926,-0.16805815696716309,-0.22171443700790405,-0.13298611342906952,-0.052300311625003815,0.020181063562631607
0.8833333333333333,0.15540939569473267,-0.004974379204213619,0.0,0.6359476447105408,0.0,0.0,-0.7717321515083313,0.13783150911331177,0.04127173498272896,0.0,0.0,0.0,2.2827844619750977,0.3848538398742676,0.7294690012931824,0.41999998688697815,0.6012774109840393,-2.6291479571227683e-06,-4.617480044544209e-06,-0.7990403175354004,5.4555432143388316e-05,-0.0003625064855441451,-0.00010033114813268185,0.008541407063603401,-0.0027826493605971336,-0.0005520505364984274,0.4344015121459961,0.7636499404907227,0.5575507879257202,-0.053971435874700546,0.05117794871330261,0.5810871124267578,0.38207268714904785,0.7277708649635315,0.42000001668930054,-0.6954420804977417,1.1537303924560547,-1.485420823097229,-2.999999523162842,-0.1926361620426178,-0.1857168823480606,-0.17734064161777496,-0.167923703789711,0.016060417518019676,0.017989618703722954,0.03175682947039604,0.058432258665561676
