vladlanda/robotic-transformer/data/env_000_episode_0061.csv
sim_time_s,robot_box_x,robot_box_y,robot_box_z,robot_box_quat_w,robot_box_quat_x,robot_box_quat_y,robot_box_quat_z,robot_box_linvel_x,robot_box_linvel_y,robot_box_linvel_z,robot_box_angvel_x,robot_box_angvel_y,robot_box_angvel_z,cube_world_x,cube_world_y,cube_world_z,cube_quat_w,cube_quat_x,cube_quat_y,cube_quat_z,cube_linvel_x,cube_linvel_y,cube_linvel_z,cube_angvel_x,cube_angvel_y,cube_angvel_z,endpoint_world_x,endpoint_world_y,endpoint_world_z,endpoint_linvel_x,endpoint_linvel_y,endpoint_linvel_z,target_cube_world_x,target_cube_world_y,target_cube_world_z,gripper_actual_pos_rad_gp_leftgearjoint,gripper_actual_vel_rad_s_gp_leftgearjoint,gripper_actual_pos_rad_gp_rotatingjoint,gripper_actual_vel_rad_s_gp_rotatingjoint,motor_angle_rad_joint1,motor_angle_rad_joint2,motor_angle_rad_joint3,motor_angle_rad_joint4,motor_speed_rad_s_joint1,motor_speed_rad_s_joint2,motor_speed_rad_s_joint3,motor_speed_rad_s_joint4
0.0,0.0,0.0,0.0,1.0,0.0,0.0,0.0,0.0,0.0,0.0,0.0,0.0,0.0,-0.3565634787082672,0.6942673325538635,0.41999998688697815,1.0,0.0,0.0,0.0,0.0,0.0,0.0,0.0,0.0,0.0,3.42540442943573e-06,-0.005000244826078415,1.313499927520752,0.0,0.0,0.0,0.34571677446365356,0.6395951509475708,0.42000001668930054,-1.5707999467849731,0.0,0.0,0.0,0.0,0.0,0.0,0.0,0.0,0.0,0.0,0.0
0.016666666666666666,0.0028849290683865547,0.002172095002606511,0.0,0.9998241662979126,0.0,0.0,0.018750961869955063,0.24106499552726746,0.1821158230304718,0.0,0.0,0.0,3.1417455673217773,-0.35656359791755676,0.6942670345306396,0.41999998688697815,1.0,3.279964630564791e-06,-8.339746386809566e-07,8.465587342243452e-08,-1.9833529222523794e-05,0.00017983045836444944,-6.132945418357849e-05,0.0009432713268324733,-0.004689474124461412,-0.00031981561915017664,-0.0071080587804317474,0.0034004051703959703,1.315938949584961,-0.8136598467826843,0.9876242876052856,0.18097126483917236,0.34571677446365356,0.6395951509475708,0.42000001668930054,-1.5301094055175781,3.000002384185791,-0.04584981128573418,-2.9999992847442627,0.0008704722276888788,0.0007972237071953714,0.0007116725319065154,0.0006115423748269677,0.11097663640975952,0.09761107712984085,0.08338973671197891,0.06828255951404572
0.03333333333333333,0.008969420567154884,0.006788945756852627,0.0,0.9998125433921814,0.0,0.0,0.019360940903425217,0.40710216760635376,0.3150416314601898,0.0,0.0,0.0,-0.8690007925033569,-0.3565637171268463,0.6942669749259949,0.4200000464916229,1.0,3.3908270324900514e-06,-2.1324347017070977e-06,-3.710694684855298e-08,0.00026357820024713874,0.00026937710936181247,-0.00010509532876312733,-0.001770618837326765,0.00413075927644968,-0.00013547429989557713,-0.027515942230820656,0.02623744308948517,1.3165993690490723,-1.5889836549758911,1.6188173294067383,-0.08471599221229553,0.34571677446365356,0.6395951509475708,0.42000001668930054,-1.4800901412963867,3.0,-0.09588965773582458,-3.000001907348633,0.002990259788930416,0.0026526558212935925,0.002277190098538995,0.0018607389647513628,0.1641254872083664,0.13968521356582642,0.11375432461500168,0.08624137192964554
0.05,0.018482064828276634,0.01389580499380827,0.0,0.9999695420265198,0.0,0.0,-0.007808241061866283,0.6361941695213318,0.47232580184936523,0.0,0.0,0.0,-4.072736740112305,-0.3565637469291687,0.6942670345306396,0.4200000464916229,1.0,3.765094106711331e-06,-2.2119131699582795e-06,5.62348079213848e-09,0.000265309150563553,0.0002669146633706987,-0.0001044049859046936,-0.0017243881011381745,0.004177483730018139,-0.00012949890515301377,-0.05711264908313751,0.05734267830848694,1.3119630813598633,-1.9501326084136963,2.0409348011016846,-0.45302867889404297,0.34571677446365356,0.6395951509475708,0.42000001668930054,-1.4300718307495117,3.0000038146972656,-0.14590193331241608,-2.9999985694885254,0.006011949852108955,0.00517279515042901,0.004261257592588663,0.0032731022220104933,0.20694012939929962,0.16662229597568512,0.12438397109508514,0.0801430195569992
0.06666666666666667,0.030810542404651642,0.02338789403438568,0.0,0.9998641014099121,0.0,0.0,-0.016485922038555145,0.7727317810058594,0.6163018345832825,0.0,0.0,0.0,-0.034276947379112244,-0.3565637469291687,0.6942669749259949,0.4200000464916229,0.9999999403953552,3.406720225029858e-06,-2.2855888346384745e-06,4.300961506942258e-07,0.00026702549075707793,0.0002679164754226804,-0.0001043803058564663,-0.0017406074330210686,0.0042117200791835785,-0.00012850081839133054,-0.09255343675613403,0.09047237038612366,1.3020379543304443,-2.1610093116760254,2.0924856662750244,-0.7270410656929016,0.34571677446365356,0.6395951509475708,0.42000001668930054,-1.3800443410873413,2.999994993209839,-0.11234460771083832,3.0000007152557373,0.008512206375598907,0.006881141569465399,0.005137098021805286,0.0032754733692854643,0.12416747957468033,0.06564898788928986,0.004955844487994909,-0.05796821042895317
0.08333333333333333,0.036980997771024704,0.030502960085868835,0.0,0.9991833567619324,0.0,0.0,-0.04040517285466194,0.23096396028995514,0.3347376585006714,0.0,0.0,0.0,-3.799975633621216,-0.3565637469291687,0.6942669749259949,0.4200000464916229,0.9999999403953552,3.626048737714882e-06,-2.335292720090365e-06,3.0322289035211725e-07,0.00026614023954607546,0.00026685107150115073,-0.00010405411012470722,-0.0017283388879150152,0.004196439869701862,-0.00012790995242539793,-0.12336516380310059,0.12937358021736145,1.2884548902511597,-1.58139967918396,2.5876753330230713,-0.8423807621002197,0.34571677446365356,0.6395951509475708,0.42000001668930054,-1.3300411701202393,2.999999523162842,-0.14437726140022278,-3.0000014305114746,0.0045288135297596455,0.002051309449598193,-0.0005929020117036998,-0.0034119468182325363,-0.37202173471450806,-0.43500736355781555,-0.5008265972137451,-0.5697011351585388
0.1,0.04648967087268829,0.04056897386908531,0.0,0.995481550693512,0.0,0.0,-0.09495532512664795,0.5684894323348999,0.5994310975074768,0.0,0.0,0.0,-7.191432952880859,-0.3565637469291687,0.6942669749259949,0.4200000464916229,1.0,3.422061809033039e-06,-2.3085794964572415e-06,1.796345259208465e-07,0.0002668151864781976,0.0002680039906408638,-0.00010440591722726822,-0.0017430012812837958,0.004207054618746042,-0.0001289131323574111,-0.15072843432426453,0.17836077511310577,1.2688512802124023,-1.785153865814209,3.166501998901367,-1.3804798126220703,0.34571677446365356,0.6395951509475708,0.42000001668930054,-1.2800222635269165,2.998229742050171,-0.11087531596422195,2.9999988079071045,0.0016994178295135498,-0.0021338979713618755,-0.006145196035504341,-0.010345025919377804,-0.29114392399787903,-0.3513518273830414,-0.41278573870658875,-0.47554969787597656
0.11666666666666667,0.05454643443226814,0.05221005156636238,0.0,0.9922513365745544,0.0,0.0,-0.1242469996213913,0.42876681685447693,0.7286524772644043,0.0,0.0,0.0,-2.316331386566162,-0.3565637469291687,0.6942670345306396,0.4200000464916229,1.0,3.71141186406021e-06,-2.3326695099967765e-06,2.574464588178671e-07,0.0002648571680765599,0.0002663552004378289,-0.00010423525236546993,-0.0017181923612952232,0.004170019645243883,-0.0001291625085286796,-0.18670184910297394,0.22668592631816864,1.2461011409759521,-2.19284725189209,2.9745051860809326,-1.4271905422210693,0.34571677446365356,0.6395951509475708,0.42000001668930054,-1.2300325632095337,3.0000007152557373,-0.1428707391023636,-2.9999990463256836,-0.0010445930529385805,-0.006377918645739555,-0.011860181577503681,-0.0175005029886961,-0.16692401468753815,-0.2617681622505188,-0.35388875007629395,-0.44316741824150085
0.13333333333333333,0.059658098965883255,0.061810772866010666,0.0,0.9865305423736572,0.0,0.0,-0.16357727348804474,0.256936252117157,0.5188457369804382,0.0,0.0,0.0,-5.613560676574707,-0.3565637469291687,0.6942669749259949,0.4200000464916229,1.0,3.3355881896568462e-06,-2.231891357951099e-06,3.1133089350987575e-07,0.0002666978689376265,0.00026759481988847256,-0.00010428577661514282,-0.0017371055437251925,0.0042058792896568775,-0.00012840155977755785,-0.21978731453418732,0.2812953591346741,1.2197822332382202,-1.7138570547103882,3.6268317699432373,-1.7242414951324463,0.34571677446365356,0.6395951509475708,0.42000001668930054,-1.1800156831741333,2.999992847442627,-0.10936390608549118,2.999999523162842,-0.004407031927257776,-0.011485128663480282,-0.018648821860551834,-0.02590525522828102,-0.2600178122520447,-0.36358052492141724,-0.46310359239578247,-0.5584856271743774
0.15,0.06202100217342377,0.07010796666145325,0.0,0.9735240936279297,0.0,0.0,-0.22858446836471558,0.06580917537212372,0.4783778786659241,0.0,0.0,0.0,-8.842443466186523,-0.3565637469291687,0.6942669749259949,0.4200000464916229,1.0,3.5188093079341343e-06,-2.283093408550485e-06,-3.625307556376356e-07,0.0002661842154338956,0.00026735730352811515,-0.00010425550863146782,-0.0017349437111988664,0.004195746965706348,-0.00012860805145464838,-0.2493322342634201,0.34366005659103394,1.1857850551605225,-1.6361157894134521,3.9896697998046875,-2.3872509002685547,0.34571677446365356,0.6395951509475708,0.42000001668930054,-1.1455031633377075,1.2627604007720947,-0.14141488075256348,-3.000000238418579,-0.00988017488270998,-0.018473811447620392,-0.027075674384832382,-0.03569282963871956,-0.4028695523738861,-0.4744114279747009,-0.5414988398551941,-0.6042265892028809
0.16666666666666666,0.06853732466697693,0.07924110442399979,0.0,0.9614502787590027,0.0,0.0,-0.2749789357185364,0.49720463156700134,0.5843779444694519,0.0,0.0,0.0,-4.698049068450928,-0.3565637469291687,0.6942669749259949,0.4200000464916229,1.0,3.6665255720436107e-06,-2.3391373815684346e-06,-3.1498893804382533e-07,0.00026595848612487316,0.0002666730433702469,-0.00010403618216514587,-0.001725348294712603,0.004192831460386515,-0.00012778460222762078,-0.28220334649086,0.408599853515625,1.138650894165039,-1.786313772201538,4.148630142211914,-3.2559666633605957,0.34571677446365356,0.6395951509475708,0.42000001668930054,-1.1008861064910889,3.0000014305114746,-0.19144408404827118,-2.9999990463256836,-0.0146574005484581,-0.0243096761405468,-0.03388766944408417,-0.04340216889977455,-0.2963132858276367,-0.34131020307540894,-0.3819236755371094,-0.41846704483032227
0.18333333333333332,0.07127848267555237,0.08555592596530914,0.0,0.9572613835334778,0.0,0.0,-0.28922417759895325,0.09885600209236145,0.3288916349411011,0.0,0.0,0.0,-0.5357454419136047,-0.3565637469291687,0.6942669749259949,0.4200000464916229,1.0,3.814272986346623e-06,-2.3994709863472963e-06,-2.7026806037611095e-07,0.0002654909039847553,0.00026611104840412736,-0.00010391208343207836,-0.0017177743138745427,0.0041847825050354,-0.00012753703049384058,-0.3158184289932251,0.47038018703460693,1.0763881206512451,-1.7763423919677734,3.774430751800537,-4.128870964050293,0.34571677446365356,0.6395951509475708,0.42000001668930054,-1.0508830547332764,2.999997615814209,-0.24147064983844757,-2.999997854232788,-0.025302255526185036,-0.03464854881167412,-0.04390367493033409,-0.0530925914645195,-0.7428091764450073,-0.7047765254974365,-0.6663645505905151,-0.6283850073814392
0.2,0.06970752030611038,0.0932043194770813,0.0,0.9496933221817017,0.0,0.0,-0.31318145990371704,-0.17134130001068115,0.4932937026023865,0.0,0.0,0.0,-3.8012051582336426,-0.3565637469291687,0.6942669749259949,0.4200000464916229,1.0,3.6000039926875615e-06,-2.2911510768608423e-06,-2.2018603829110361e-07,0.00026573045761324465,0.0002664504572749138,-0.00010398216545581818,-0.0017227233620360494,0.004188797436654568,-0.0001277319242944941,-0.3418193459510803,0.5336601734161377,1.0021188259124756,-1.3114769458770752,3.7283592224121094,-4.701881408691406,0.34571677446365356,0.6395951509475708,0.42000001668930054,-1.0008761882781982,2.9999992847442627,-0.2914975881576538,-3.0000009536743164,-0.04011238366365433,-0.04888095334172249,-0.0573284775018692,-0.06571777909994125,-0.9284461736679077,-0.8938781023025513,-0.8462759852409363,-0.7987909913063049
0.21666666666666667,0.07147970050573349,0.10228326171636581,0.0,0.9316245913505554,0.0,0.0,-0.3634221851825714,0.06310521066188812,0.6835486888885498,0.0,0.0,0.0,-7.261218070983887,-0.3565637469291687,0.6942669749259949,0.4200000464916229,0.9999999403953552,3.6395817915035877e-06,-2.261905365230632e-06,2.2247895969940146e-07,0.00026687298668548465,0.00026754423743113875,-0.00010412069968879223,-0.0017404601676389575,0.004211115650832653,-0.00012784224236384034,-0.35948461294174194,0.5979520082473755,0.9158203601837158,-0.6677737832069397,3.68827223777771,-5.5960893630981445,0.34571677446365356,0.6395951509475708,0.42000001668930054,-0.9508674144744873,3.000000476837158,-0.3415271043777466,-3.0000007152557373,-0.05478690192103386,-0.06295982003211975,-0.07063761353492737,-0.07825987786054611,-1.0019352436065674,-1.0006998777389526,-1.0000008344650269,-0.969680905342102
0.23333333333333334,0.07562289386987686,0.10818494111299515,0.0,0.9191864728927612,0.0,0.0,-0.3938226103782654,0.3177356719970703,0.2942624092102051,0.0,0.0,0.0,-2.701538324356079,-0.3565637171268463,0.6942669749259949,0.4200000464916229,1.0,3.420670054765651e-06,-2.3167888230091194e-06,2.955988804842491e-07,0.00026680095470510423,0.0002680391480680555,-0.0001044231466948986,-0.0017436776543036103,0.004206809680908918,-0.00012899655848741531,-0.3738071620464325,0.6489828824996948,0.8187160491943359,-0.5232420563697815,2.701416015625,-6.11525821685791,0.34571677446365356,0.6395951509475708,0.42000001668930054,-0.9008567333221436,2.9999992847442627,-0.39155837893486023,-2.9999990463256836,-0.07057315111160278,-0.0786767303943634,-0.08632177114486694,-0.09358275681734085,-0.9889645576477051,-0.9906052947044373,-0.991034984588623,-0.9760388135910034
0.25,0.07531864941120148,0.11798718571662903,0.0,0.9198232889175415,0.0,0.0,-0.3923329710960388,-0.008612580597400665,0.6844210624694824,0.0,0.0,0.0,1.0889029502868652,-0.3565637469291687,0.6942669749259949,0.4200000464916229,0.9999999403953552,3.3475421332695987e-06,-2.2591825654671993e-06,1.8083891006881458e-07,0.00026687674107961357,0.0002679109456948936,-0.00010439427569508553,-0.001740495441481471,0.004208193626254797,-0.00012870128557551652,-0.38410353660583496,0.6757694482803345,0.7172938585281372,-0.4009235203266144,0.890407383441925,-6.040471076965332,0.34571677446365356,0.6395951509475708,0.42000001668930054,-0.8508460521697998,2.9999706745147705,-0.44159001111984253,-3.0000007152557373,-0.08824768662452698,-0.09604797512292862,-0.10347270220518112,-0.1105683371424675,-0.8235763311386108,-0.8542235493659973,-0.884239673614502,-0.9118703007698059
0.26666666666666666,0.07907888293266296,0.12305128574371338,0.0,0.914760410785675,0.0,0.0,-0.4039967358112335,0.23715165257453918,0.2300211489200592,0.0,0.0,0.0,-2.243959665298462,-0.3565637469291687,0.6942669749259949,0.4200000464916229,0.9999999403953552,3.5355938052816782e-06,-2.3002921807346866e-06,-1.2684719763456087e-07,0.0002660185855347663,0.0002671222318895161,-0.0001041970681399107,-0.00173175148665905,0.004192911554127932,-0.0001284914033021778,-0.3882244825363159,0.6895954608917236,0.6141462326049805,0.029058285057544708,0.5085842609405518,-6.190515518188477,0.34571677446365356,0.6395951509475708,0.42000001668930054,-0.8008369207382202,2.999999523162842,-0.491621196269989,-2.999998092651367,-0.10148171335458755,-0.10970829427242279,-0.11754986643791199,-0.12489619851112366,-0.994435727596283,-0.9955673813819885,-0.9964783787727356,-0.9766827821731567
0.2833333333333333,0.07893937081098557,0.12483737617731094,0.0,0.916755735874176,0.0,0.0,-0.39944833517074585,-0.08537857234477997,0.06498529016971588,0.0,0.0,0.0,1.4317094087600708,-0.3565637469291687,0.6942670345306396,0.4200000464916229,1.0,3.593316478145425e-06,-2.262600901303813e-06,-5.652556112067941e-08,0.00026704664924182,0.0002677488373592496,-0.0001041668001562357,-0.0017431445885449648,0.004214167129248381,-0.00012789430911652744,-0.38451144099235535,0.6956720352172852,0.5186792612075806,0.483126699924469,0.19958040118217468,-5.246598720550537,0.34571677446365356,0.6395951509475708,0.42000001668930054,-0.7508281469345093,3.0000009536743164,-0.5416507720947266,-3.000001907348633,-0.11930466443300247,-0.12726818025112152,-0.13491377234458923,-0.1421087235212326,-1.0192606449127197,-1.0145500898361206,-1.0109552145004272,-1.0080835819244385
0.3,0.0764966756105423,0.12363692373037338,0.0,0.9129664301872253,0.0,0.0,-0.40803468227386475,-0.19369424879550934,-0.12061122804880142,0.0,0.0,0.0,-1.961308479309082,-0.3565637171268463,0.6942669749259949,0.4200000464916229,0.9999999403953552,3.7248960325086955e-06,-2.2359859030984808e-06,3.828864123534004e-07,0.0002647960209287703,0.00026673002867028117,-0.0001045397948473692,-0.001718881307169795,0.004166550934314728,-0.00013016446609981358,-0.3713200092315674,0.6995082497596741,0.4314154386520386,1.1173927783966064,0.10944411158561707,-5.099433898925781,0.34571677446365356,0.6395951509475708,0.42000001668930054,-0.7008206844329834,3.0000011920928955,-0.5916785001754761,-2.999999523162842,-0.13625818490982056,-0.14413917064666748,-0.1517370343208313,-0.1589023321866989,-1.0086469650268555,-1.0065603256225586,-1.00496244430542,-1.0036786794662476
0.31666666666666665,0.071794293820858,0.12001954019069672,0.0,0.9158828854560852,0.0,0.0,-0.401445597410202,-0.3268148899078369,-0.2566092610359192,0.0,0.0,0.0,1.7287945747375488,-0.3556104302406311,0.6961166262626648,0.4199984669685364,0.9996241331100464,6.302213296294212e-05,7.962417498674768e-07,-0.02741382271051407,0.04776715859770775,0.13062097132205963,-0.0002982974983751774,0.019477693364024162,-0.004762622993439436,-3.517214775085449,-0.37113144993782043,0.7032203078269958,0.42768046259880066,0.07434490323066711,0.1723722219467163,-0.27404356002807617,0.34571677446365356,0.6395951509475708,0.42000001668930054,-0.6508159041404724,2.999967098236084,-0.6421129703521729,-2.999790668487549,-0.14601539075374603,-0.15322239696979523,-0.15990124642848969,-0.16585569083690643,-0.6047985553741455,-0.5390090346336365,-0.4610273540019989,-0.3693483769893646
0.3333333333333333,0.06475570052862167,0.11415912210941315,0.0,0.9123250246047974,0.0,0.0,-0.40946677327156067,-0.46680736541748047,-0.3907085359096527,0.0,0.0,0.0,-1.9722837209701538,-0.35469046235084534,0.6982196569442749,0.41999924182891846,0.9987474083900452,6.924236367922276e-05,-2.0277693693060428e-05,-0.05003545060753822,0.05425870791077614,0.11975037306547165,-0.0012298943474888802,-0.057672321796417236,0.009668022394180298,-2.4182655811309814,-0.36786216497421265,0.7053439021110535,0.4237682819366455,0.3406693935394287,0.17403145134449005,-0.19927367568016052,0.34571677446365356,0.6395951509475708,0.42000001668930054,-0.6008105278015137,2.999969720840454,-0.6921930313110352,-2.9999330043792725,-0.15712295472621918,-0.16271136701107025,-0.16755308210849762,-0.17145168781280518,-0.6665232181549072,-0.5503962635993958,-0.4217667281627655,-0.2816765606403351
0.35,0.05546910688281059,0.10606128722429276,0.0,0.9152557849884033,0.0,0.0,-0.40287327766418457,-0.5995604395866394,-0.5253617763519287,0.0,0.0,0.0,1.7746405601501465,-0.35259437561035156,0.7022292613983154,0.420000284910202,0.9941540360450745,6.493856926681474e-05,-2.0944497009622864e-05,-0.10797103494405746,0.17977775633335114,0.3070799708366394,-0.0019445642828941345,-0.09428542852401733,0.1248229518532753,-9.300485610961914,-0.36247628927230835,0.7091166973114014,0.42133989930152893,0.24227982759475708,0.3491739332675934,0.20327772200107574,0.34571677446365356,0.6395951509475708,0.42000001668930054,-0.5508055090904236,3.0,-0.7422348260879517,-2.999986410140991,-0.1687804013490677,-0.17194560170173645,-0.17413821816444397,-0.1752062290906906,-0.6617223024368286,-0.4990321099758148,-0.3214544653892517,-0.13270798325538635
0.36666666666666664,0.04391647130250931,0.09570334106683731,0.0,0.911754846572876,0.0,0.0,-0.4107348322868347,-0.735405683517456,-0.6608415842056274,0.0,0.0,0.0,-1.9788663387298584,-0.34734445810317993,0.709682285785675,0.42000409960746765,0.9849154353141785,7.260099664563313e-06,0.0001255859388038516,-0.17303574085235596,0.45608794689178467,0.5847406983375549,-0.004216618370264769,-0.04945022985339165,-0.2007823884487152,-3.704826593399048,-0.35471078753471375,0.7155712842941284,0.4211466312408447,0.6981079578399658,0.4600566625595093,-0.20928478240966797,0.34571677446365356,0.6395951509475708,0.42000001668930054,-0.5008005499839783,3.0000016689300537,-0.7922588586807251,-2.999995708465576,-0.1795751303434372,-0.1798151135444641,-0.17878931760787964,-0.1764274388551712,-0.5945261120796204,-0.413556307554245,-0.21498747169971466,-0.004254443105310202
0.3833333333333333,0.02984694018959999,0.08310149610042572,0.0,0.8955572843551636,0.0,0.0,-0.44494619965553284,-0.8939846754074097,-0.7968872785568237,0.0,0.0,0.0,-5.441202640533447,-0.3371391296386719,0.7221071720123291,0.42003631591796875,0.9792413711547852,0.0008423297549597919,-0.000271471100859344,-0.2026953101158142,0.7700147032737732,0.903373658657074,0.0261042769998312,0.9017289280891418,-0.6183532476425171,-4.1732048988342285,-0.34098726511001587,0.725418210029602,0.4202057719230652,0.953137993812561,0.7550731897354126,0.13545775413513184,0.34571677446365356,0.6395951509475708,0.42000001668930054,-0.45072999596595764,2.9999923706054688,-0.8422566056251526,-2.9999661445617676,-0.1882045865058899,-0.1856791228055954,-0.18150395154953003,-0.1757068783044815,-0.414027601480484,-0.2614934742450714,-0.08395885676145554,0.11257072538137436
0.4,0.01812058314681053,0.06764359027147293,0.0,0.8651321530342102,0.0,0.0,-0.5015439391136169,-0.6299982070922852,-0.9819085597991943,0.0,0.0,0.0,-8.516705513000488,-0.3114822506904602,0.7426750063896179,0.4225177764892578,0.9670782685279846,-0.022580862045288086,-0.015688719227910042,-0.2529890835285187,2.4589033126831055,1.5612226724624634,0.0501251295208931,34.14031982421875,-17.158096313476562,5.598504543304443,-0.31443244218826294,0.7452564239501953,0.42288124561309814,2.3663535118103027,1.6392958164215088,0.37211593985557556,0.34571677446365356,0.6395951509475708,0.42000001668930054,-0.4026870131492615,2.2996673583984375,-0.892273485660553,-3.000001907348633,-0.19522175192832947,-0.18998980522155762,-0.18269076943397522,-0.17346936464309692,-0.4144754707813263,-0.23943869769573212,-0.04242144152522087,0.16895943880081177
0.4166666666666667,0.010396664030849934,0.04977338761091232,0.0,0.8179531693458557,0.0,0.0,-0.5752847790718079,-0.3831358551979065,-1.1678739786148071,0.0,0.0,0.0,-11.197981834411621,-0.24615338444709778,0.7768211364746094,0.4264039397239685,0.946683406829834,0.038300298154354095,-0.061215840280056,-0.3139684796333313,5.4205145835876465,1.8312965631484985,0.36397239565849304,7.566070079803467,-9.639640808105469,25.97226905822754,-0.24888873100280762,0.7793605327606201,0.42689281702041626,5.116251468658447,2.540503978729248,0.3093409538269043,0.34571677446365356,0.6395951509475708,0.42000001668930054,-0.38072219491004944,0.9569216370582581,-0.855199933052063,2.9973387718200684,-0.20504774153232574,-0.1960250437259674,-0.18487294018268585,-0.17188285291194916,-0.5806739330291748,-0.359752357006073,-0.14689207077026367,0.04974722862243652
0.43333333333333335,0.0059356712736189365,0.03717494010925293,0.0,0.779033362865448,0.0,0.0,-0.6269824504852295,-0.20647357404232025,-0.623645544052124,0.0,0.0,0.0,-6.710275650024414,-0.1612805873155594,0.8102300763130188,0.43449103832244873,0.9045109748840332,0.09170617163181305,-0.09560619294643402,-0.4053507447242737,5.418956756591797,1.2797784805297852,0.5733751654624939,12.781827926635742,-15.014385223388672,9.756152153015137,-0.16475005447864532,0.8137104511260986,0.43459874391555786,5.151027679443359,1.6149961948394775,0.5538813471794128,0.34571677446365356,0.6395951509475708,0.42000001668930054,-0.3652474582195282,0.9665223956108093,-0.8446557521820068,-1.3083477020263672,-0.21980533003807068,-0.20770949125289917,-0.19212639331817627,-0.17529170215129852,-0.8336579203605652,-0.7450002431869507,-0.48885178565979004,-0.27387577295303345
0.45,-0.0019608610309660435,0.030032649636268616,0.0,0.7601110935211182,0.0,0.0,-0.6497931480407715,-0.3969101309776306,-0.42048001289367676,0.0,0.0,0.0,-2.016625165939331,-0.07757728546857834,0.8251024484634399,0.4453189969062805,0.8735353350639343,0.08576954156160355,-0.0916881263256073,-0.4702901542186737,5.212992191314697,-0.34201544523239136,0.5444133281707764,-3.0658762454986572,-18.94331169128418,24.19131088256836,-0.07968898117542267,0.829941987991333,0.4451533257961273,5.10146427154541,0.5194745063781738,0.7640849351882935,0.34571677446365356,0.6395951509475708,0.42000001668930054,-0.34729695320129395,0.9881049394607544,-0.8928701281547546,-3.0000057220458984,-0.23580604791641235,-0.22151654958724976,-0.20101583003997803,-0.17997407913208008,-0.7057622075080872,-0.6226493716239929,-0.3879678547382355,-0.17951923608779907
0.4666666666666667,-0.010354630649089813,0.016570743173360825,0.0,0.7340811491012573,0.0,0.0,-0.679061770439148,-0.5844501256942749,-0.9490410685539246,0.0,0.0,0.0,-5.700268745422363,0.007508289068937302,0.8250953555107117,0.4525887668132782,0.8162791728973389,0.07071974128484726,-0.08966035395860672,-0.5662578344345093,5.000467300415039,-1.3511137962341309,0.33936241269111633,-12.942696571350098,-17.483327865600586,23.884361267089844,0.004285268485546112,0.8309072256088257,0.45320063829421997,5.13596248626709,-0.3847999572753906,0.48856067657470703,0.34571677446365356,0.6395951509475708,0.42000001668930054,-0.33175188302993774,0.752952516078949,-0.9428941607475281,-3.000004768371582,-0.2400549203157425,-0.22584712505340576,-0.2023351788520813,-0.17851266264915466,-0.040547095239162445,-0.1119605004787445,0.06046437472105026,0.22404034435749054
0.48333333333333334,-0.01592487283051014,0.006717477925121784,0.0,0.7183747887611389,0.0,0.0,-0.6956562995910645,-0.29360851645469666,-0.5360233783721924,0.0,0.0,0.0,-1.5149184465408325,0.09054446965456009,0.8112247586250305,0.4585990905761719,0.7581343054771423,0.053115807473659515,-0.07742936164140701,-0.6453027129173279,4.623586654663086,-1.7998040914535522,0.2560848891735077,-8.041633605957031,-5.400566101074219,19.704551696777344,0.08763658255338669,0.8174586296081543,0.45946359634399414,5.005139350891113,-0.9818153381347656,0.34759628772735596,0.34571677446365356,0.6395951509475708,0.42000001668930054,-0.31961801648139954,0.6027855277061462,-0.9929181933403015,-3.000001907348633,-0.2399412989616394,-0.2311563640832901,-0.20464473962783813,-0.1782032549381256,-4.7031790018081665e-08,-0.1317790299654007,-0.03858962655067444,0.03705255314707756
0.5,-0.01849408820271492,0.00045172820682637393,0.0,0.6965309977531433,0.0,0.0,-0.7175267338752747,-0.09696819633245468,-0.2955471873283386,0.0,0.0,0.0,-4.555738925933838,0.1638643443584442,0.7909559607505798,0.45889079570770264,0.7236465215682983,0.03260621801018715,-0.069491446018219,-0.6858887672424316,3.7615673542022705,-1.9932281970977783,-0.08561453223228455,-6.4021477699279785,-1.308005690574646,16.199176788330078,0.16187229752540588,0.7973169088363647,0.4604134261608124,4.146465301513672,-1.4836608171463013,-0.05930182337760925,0.34571677446365356,0.6395951509475708,0.42000001668930054,-0.3084818720817566,0.6645428538322449,-1.042940616607666,-3.0000016689300537,-0.23797814548015594,-0.23144829273223877,-0.20462475717067719,-0.1780255287885666,0.16390793025493622,0.055182088166475296,0.03256063535809517,2.791639417409897e-07
0.5166666666666666,-0.01783645711839199,-0.008126480504870415,0.0,0.6870664954185486,0.0,0.0,-0.7265945076942444,0.053861722350120544,-0.5092653036117554,0.0,0.0,0.0,-0.6022039651870728,0.22557516396045685,0.7639370560646057,0.4536091983318329,0.6619040369987488,-0.027494117617607117,-0.08147406578063965,-0.7446401715278625,3.084449052810669,-2.15903902053833,-0.526593029499054,-18.231107711791992,8.952583312988281,-0.14694038033485413,0.22284969687461853,0.7710342407226562,0.457336962223053,3.3008639812469482,-1.7789978981018066,-0.21141080558300018,0.34571677446365356,0.6395951509475708,0.42000001668930054,-0.2950323820114136,0.8758173584938049,-1.0929627418518066,-2.999896287918091,-0.23276549577713013,-0.2276383489370346,-0.20183905959129333,-0.17645318806171417,0.2586609125137329,0.22277450561523438,0.15389038622379303,0.06971395760774612
0.5333333333333333,-0.014464578591287136,-0.012851092964410782,0.0,0.6690372824668884,0.0,0.0,-0.7432288527488708,0.2602323889732361,-0.24072282016277313,0.0,0.0,0.0,-3.7356820106506348,0.27406567335128784,0.7344055771827698,0.44156843423843384,0.628244936466217,-0.08742047101259232,-0.09147878736257553,-0.7676571011543274,2.563541889190674,-1.7355390787124634,-0.8033186197280884,-2.286081552505493,9.576568603515625,-6.118127346038818,0.2717936336994171,0.7416502833366394,0.44773393869400024,2.6445116996765137,-1.7821725606918335,-0.7847275733947754,0.34571677446365356,0.6395951509475708,0.42000001668930054,-0.277457594871521,1.121248483657837,-1.1429848670959473,-2.9997854232788086,-0.22844934463500977,-0.2240777164697647,-0.2002081573009491,-0.17689743638038635,0.3762485682964325,0.3094736635684967,0.14136415719985962,-0.02919257991015911
0.55,-0.012616008520126343,-0.015032409690320492,0.0,0.6650437116622925,0.0,0.0,-0.746804416179657,0.04800466448068619,-0.01517898216843605,0.0,0.0,0.0,0.16103968024253845,0.3122761845588684,0.7049363851547241,0.42528286576271057,0.5667619705200195,-0.1399448961019516,-0.087528295814991,-0.8071772456169128,2.079393148422241,-2.4053075313568115,-0.42322906851768494,-7.189051628112793,26.99686050415039,21.791536331176758,0.31035059690475464,0.7115389108657837,0.4334980249404907,1.8769241571426392,-1.7886171340942383,-1.0549592971801758,0.34571677446365356,0.6395951509475708,0.42000001668930054,-0.2544807195663452,1.3175827264785767,-1.1929941177368164,-3.0000011920928955,-0.2221928834915161,-0.21877452731132507,-0.19799181818962097,-0.1777811050415039,0.35793939232826233,0.30312299728393555,0.09864946454763412,-0.10553299635648727
0.5666666666666667,-0.009793383069336414,-0.019523583352565765,0.0,0.6501922011375427,0.0,0.0,-0.7597697973251343,0.20104442536830902,-0.3024722933769226,0.0,0.0,0.0,-3.2551329135894775,0.3344164192676544,0.6865440011024475,0.423432320356369,0.58669114112854,-0.07079418003559113,-0.031357526779174805,-0.8061006665229797,1.0405975580215454,-1.454772710800171,-0.050700604915618896,4.1495842933654785,-0.46676892042160034,14.151314735412598,0.33147141337394714,0.6905618906021118,0.42919808626174927,0.8968421220779419,-1.028074026107788,-0.04423333704471588,0.34571677446365356,0.6395951509475708,0.42000001668930054,-0.24174214899539948,0.3010391592979431,-1.1550657749176025,3.0000007152557373,-0.2123737335205078,-0.2106591910123825,-0.19414739310741425,-0.17800286412239075,0.5589339733123779,0.4661518931388855,0.20876817405223846,-0.03593358024954796
0.5833333333333334,-0.008571477606892586,-0.021105332300066948,0.0,0.6484171748161316,0.0,0.0,-0.7612851858139038,0.03595779091119766,-0.05277450010180473,0.0,0.0,0.0,0.5737137198448181,0.34723469614982605,0.6688728332519531,0.4233962297439575,0.5897224545478821,-0.0643640086054802,-0.0042164865881204605,-0.8050259351730347,0.5981640815734863,-1.091149926185608,-0.011641817167401314,1.7585108280181885,0.3164885938167572,-0.5630249977111816,0.3436051309108734,0.6726852059364319,0.4288005232810974,0.6017265319824219,-1.0457319021224976,-0.1397264003753662,0.34571677446365356,0.6395951509475708,0.42000001668930054,-0.2484740912914276,-0.7050656080245972,-1.1770570278167725,-2.9999942779541016,-0.2050776481628418,-0.20437003672122955,-0.1916813999414444,-0.17916010320186615,0.460507333278656,0.3987661600112915,0.1674417406320572,-0.05049971118569374
0.6,-0.00630562799051404,-0.024734511971473694,0.0,0.6367353200912476,0.0,0.0,-0.7710824608802795,0.18275031447410583,-0.27752599120140076,0.0,0.0,0.0,-2.6819162368774414,0.35264232754707336,0.6558924317359924,0.4223542809486389,0.6009731292724609,-0.040198951959609985,0.021759120747447014,-0.7979610562324524,0.17835880815982819,-0.894112765789032,-0.1108601987361908,-3.1151673793792725,-6.04363489151001,18.36197280883789,0.3489146828651428,0.6603406667709351,0.42606955766677856,0.05744122713804245,-0.5339041948318481,-0.10340116173028946,0.34571677446365356,0.6395951509475708,0.42000001668930054,-0.25030794739723206,0.09296128153800964,-1.1392019987106323,2.9900715351104736,-0.19667252898216248,-0.19718928635120392,-0.18844279646873474,-0.17957794666290283,0.48032641410827637,0.4158059060573578,0.1929282397031784,-0.012959212996065617
0.6166666666666667,-0.0016490366542711854,-0.026007644832134247,0.0,0.6383845210075378,0.0,0.0,-0.7697176337242126,0.31872132420539856,-0.012469440698623657,0.0,0.0,0.0,1.0608537197113037,0.3538174331188202,0.6486184000968933,0.42197245359420776,0.6205350756645203,-0.033521607518196106,0.024314597249031067,-0.7830843925476074,0.049619268625974655,-0.3316483795642853,-0.041180700063705444,-0.26458802819252014,-2.0098307132720947,0.5667437314987183,0.34863704442977905,0.6530567407608032,0.42714279890060425,-0.1041543185710907,-0.3130788505077362,0.13134652376174927,0.34571677446365356,0.6395951509475708,0.42000001668930054,-0.2868248522281647,-2.9999940395355225,-1.1611981391906738,-2.9997670650482178,-0.18990319967269897,-0.19147580862045288,-0.18622379004955292,-0.1805201917886734,0.4067832827568054,0.33959633111953735,0.13544043898582458,-0.04828999564051628
0.6333333333333333,0.005424212664365768,-0.023953374475240707,0.0,0.6597915887832642,0.0,0.0,-0.7514486312866211,0.46786683797836304,0.1932145059108734,0.0,0.0,0.0,4.2683515548706055,0.3529292941093445,0.6446133255958557,0.42010679841041565,0.6156654953956604,-0.0013462716015055776,0.0011914119822904468,-0.7880055904388428,-0.08703015744686127,-0.20790819823741913,-0.13336393237113953,-0.07427213340997696,-5.780879974365234,1.8171244859695435,0.3463848829269409,0.6512237787246704,0.4295474588871002,-0.1843898594379425,0.06078149378299713,0.1605360507965088,0.34571677446365356,0.6395951509475708,0.42000001668930054,-0.33680427074432373,-2.999997854232788,-1.2111610174179077,-2.998756170272827,-0.18311342597007751,-0.18596425652503967,-0.1840139627456665,-0.181209996342659,0.4107135534286499,0.3347330093383789,0.14865054190158844,-0.013537167571485043
0.65,0.01538604311645031,-0.027155419811606407,0.0,0.6683818697929382,0.0,0.0,-0.7438183426856995,0.5625309348106384,-0.1582547426223755,0.0,0.0,0.0,0.3374841809272766,0.35072803497314453,0.6431920528411865,0.4200003147125244,0.6257209181785583,-0.00018403452122583985,6.297059007920325e-05,-0.7800469398498535,-0.13994988799095154,-0.018015533685684204,-0.0015056635020300746,0.12706027925014496,-0.3103831112384796,0.17982511222362518,0.34520283341407776,0.6541919708251953,0.4334661364555359,-0.15495865046977997,0.1463238000869751,0.28817200660705566,0.34571677446365356,0.6395951509475708,0.42000001668930054,-0.3867935538291931,-2.9998984336853027,-1.261138677597046,-2.999889373779297,-0.17066340148448944,-0.17540080845355988,-0.17683210968971252,-0.17687197029590607,0.5862498879432678,0.5360169410705566,0.4062833786010742,0.3047156035900116
0.6666666666666666,0.025572331622242928,-0.03285733237862587,0.0,0.6543314456939697,0.0,0.0,-0.7562078833580017,0.6922914981842041,-0.35899239778518677,0.0,0.0,0.0,-3.021320343017578,0.3494016230106354,0.643022894859314,0.4200000464916229,0.626579999923706,4.425893109782919e-07,3.3596535331525956e-08,-0.7793570160865784,-0.05829094722867012,-0.007463792338967323,-3.414461389183998e-07,2.788254823826719e-05,1.7791066056815907e-05,0.08979211002588272,0.3460029661655426,0.6568748354911804,0.44049936532974243,0.19257816672325134,0.030506998300552368,0.6534883975982666,0.34571677446365356,0.6395951509475708,0.42000001668930054,-0.43680739402770996,-3.0000016689300537,-1.3111573457717896,-3.0000007152557373,-0.16210578382015228,-0.1671942174434662,-0.17007075250148773,-0.17108936607837677,0.253049373626709,0.2965889871120453,0.28405529260635376,0.2950519621372223
0.6833333333333333,0.04001912474632263,-0.032952312380075455,0.0,0.6184931397438049,0.0,0.0,-0.785790205001831,0.8270038366317749,0.0026142399292439222,0.0,0.0,0.0,-6.409184455871582,0.3492293655872345,0.6430010199546814,0.4200001657009125,0.6266981363296509,2.144990321539808e-05,-1.1154756975884084e-05,-0.7792620062828064,0.002836531260982156,4.30898362537846e-05,-0.000994375441223383,-0.011639002710580826,0.020500076934695244,-0.007641696371138096,0.3570788502693176,0.6523524522781372,0.4586501717567444,1.2408580780029297,-0.37926095724105835,1.6183454990386963,0.34571677446365356,0.6395951509475708,0.42000001668930054,-0.486820250749588,-2.999969959259033,-1.3611756563186646,-2.9999990463256836,-0.1654636710882187,-0.1685062199831009,-0.17015859484672546,-0.1696900725364685,-0.16306380927562714,-0.05358535423874855,0.01893623359501362,0.10842499881982803
0.7,0.05085879564285278,-0.03175478056073189,0.0,0.5973027944564819,0.0,0.0,-0.8020158410072327,0.5792133212089539,0.07194726914167404,0.0,0.0,0.0,-2.1063311100006104,0.3492320477962494,0.6430014967918396,0.41999998688697815,0.6266958713531494,-7.09487551375787e-07,-5.527499979507411e-06,-0.7792638540267944,0.00018334860214963555,-0.00040155259193852544,-8.566398173570633e-05,0.009015862829983234,-0.0015639424091205,-0.0006143981008790433,0.37895646691322327,0.6516543626785278,0.48736464977264404,1.3240914344787598,0.21769869327545166,1.783008098602295,0.34571677446365356,0.6395951509475708,0.42000001668930054,-0.5100928544998169,-0.03210722282528877,-1.4111939668655396,-2.999999761581421,-0.16633296012878418,-0.1685286909341812,-0.16986238956451416,-0.1688697636127472,0.07372989505529404,0.0664009377360344,0.031870078295469284,0.005808163434267044
0.7166666666666667,0.05696802958846092,-0.02901577390730381,0.0,0.6019915342330933,0.0,0.0,-0.798502504825592,0.2927100658416748,0.2100154161453247,0.0,0.0,0.0,1.5570189952850342,0.349232017993927,0.6430014371871948,0.41999998688697815,0.6266958117485046,-7.065360705382773e-07,-5.730052635044558e-06,-0.779263973236084,0.00019247832824476063,-0.0004100970400031656,-8.697644807398319e-05,0.009248879738152027,-0.0015870258212089539,-0.0006421048892661929,0.39751365780830383,0.6580793857574463,0.5117011666297913,0.8399031162261963,0.4975917339324951,1.1756436824798584,0.34571677446365356,0.6395951509475708,0.42000001668930054,-0.49127402901649475,2.089897394180298,-1.3727186918258667,3.000000238418579,-0.16383421421051025,-0.16630685329437256,-0.16827617585659027,-0.16783985495567322,0.19438882172107697,0.17469695210456848,0.13679714500904083,0.09893829375505447
0.7333333333333333,0.05925958231091499,-0.030281919986009598,0.0,0.5952958464622498,0.0,0.0,-0.8035065531730652,0.09983354061841965,-0.1591009795665741,0.0,0.0,0.0,-1.912652611732483,0.349232017993927,0.6430014371871948,0.41999998688697815,0.6266956925392151,-6.445895905926591e-07,-6.022230081725866e-06,-0.779263973236084,0.00019231828628107905,-0.0004097895580343902,-8.694501593708992e-05,0.009240499697625637,-0.0015857415273785591,-0.0006415679818019271,0.40515872836112976,0.6653358936309814,0.5247896909713745,0.05244876444339752,0.3848884403705597,0.5857411026954651,0.34571677446365356,0.6395951509475708,0.42000001668930054,-0.4620652198791504,1.4453867673873901,-1.3226678371429443,3.000000238418579,-0.16027900576591492,-0.1629357486963272,-0.16535449028015137,-0.16545554995536804,0.17026032507419586,0.17789658904075623,0.1700829416513443,0.1507730484008789
0.75,0.05865662544965744,-0.027187341824173927,0.0,0.6013409495353699,0.0,0.0,-0.7989925146102905,-0.07995747029781342,0.32511740922927856,0.0,0.0,0.0,1.7877293825149536,0.349232017993927,0.6430014371871948,0.41999998688697815,0.6266959309577942,-5.989775786474638e-07,-5.7212946558138356e-06,-0.7792638540267944,0.0001930033613462001,-0.00041073228931054473,-8.703372441232204e-05,0.009266633540391922,-0.001587321748957038,-0.0006438503623940051,0.40186837315559387,0.6713011264801025,0.5313037633895874,-0.40942126512527466,0.39187201857566833,0.2202729731798172,0.34571677446365356,0.6395951509475708,0.42000001668930054,-0.4265787601470947,2.678152322769165,-1.3221672773361206,-2.4666881561279297,-0.1628934144973755,-0.16421747207641602,-0.1656171679496765,-0.16506759822368622,-0.23481781780719757,-0.1403052657842636,-0.06383191049098969,-0.01353690680116415
0.7666666666666666,0.059367310255765915,-0.02593173086643219,0.0,0.5956697463989258,0.0,0.0,-0.8032294511795044,0.06592719256877899,0.02527789957821369,0.0,0.0,0.0,-1.7391990423202515,0.3492320477962494,0.6430014371871948,0.41999998688697815,0.6266959309577942,-5.539752123695507e-07,-5.9340977713873144e-06,-0.7792637944221497,0.000194862688658759,-0.0004115385818295181,-8.715735748410225e-05,0.00929091777652502,-0.001581201795488596,-0.0006488367216661572,0.3886682391166687,0.6759942770004272,0.5288944244384766,-1.1481828689575195,0.182158425450325,-0.30134767293930054,0.34571677446365356,0.6395951509475708,0.42000001668930054,-0.41377726197242737,-0.8474456667900085,-1.2818485498428345,3.0000007152557373,-0.1657259166240692,-0.16571453213691711,-0.16598442196846008,-0.16470447182655334,-0.1997273862361908,-0.11224482953548431,-0.03411485627293587,0.019816508516669273
0.7833333333333333,0.06185334920883179,-0.027606386691331863,0.0,0.6020436882972717,0.0,0.0,-0.7984631657600403,0.2078593522310257,-0.17119200527668,0.0,0.0,0.0,1.7504773139953613,0.349232017993927,0.6430014371871948,0.41999998688697815,0.626695990562439,-6.230930011952296e-07,-5.689239060302498e-06,-0.7792637944221497,0.000194689302588813,-0.0004117169009987265,-8.719321340322495e-05,0.009294274263083935,-0.0015836096135899425,-0.0006484707701019943,0.3728470206260681,0.6784594058990479,0.523362934589386,-0.7801790237426758,0.15025052428245544,-0.3234788179397583,0.34571677446365356,0.6395951509475708,0.42000001668930054,-0.45092105865478516,-3.0,-1.3020334243774414,-3.000000238418579,-0.17004840075969696,-0.1681738942861557,-0.1666150540113449,-0.163839191198349,-0.22894540429115295,-0.11774969100952148,-0.001582302269525826,0.09995663911104202
0.8,0.06684771180152893,-0.03212450444698334,0.0,0.5960122346878052,0.0,0.0,-0.8029753565788269,0.33874252438545227,-0.3315773904323578,0.0,0.0,0.0,-1.7848100662231445,0.349232017993927,0.6430014371871948,0.41999998688697815,0.6266960501670837,-6.245166446205985e-07,-5.818480531161185e-06,-0.7792637944221497,0.00019226079166401178,-0.00041039680945686996,-8.698948659002781e-05,0.009256095625460148,-0.00158861861564219,-0.0006416669930331409,0.3635711073875427,0.6778993606567383,0.5129212141036987,-0.31725406646728516,-0.1815926730632782,-0.7105244398117065,0.34571677446365356,0.6395951509475708,0.42000001668930054,-0.5009298324584961,-2.9999887943267822,-1.3520517349243164,-2.999999761581421,-0.1748596727848053,-0.17080317437648773,-0.16685909032821655,-0.16185249388217926,-0.26802825927734375,-0.1283445656299591,0.028715860098600388,0.18080496788024902
0.8166666666666667,0.07436162233352661,-0.03975397348403931,0.0,0.5686264634132385,0.0,0.0,-0.8225958943367004,0.4934197664260864,-0.5290309190750122,0.0,0.0,0.0,-4.944666385650635,0.349232017993927,0.6430014371871948,0.41999998688697815,0.6266962289810181,-6.716152256558416e-07,-6.128414042905206e-06,-0.7792635560035706,0.00019237719243392348,-0.0004099907528143376,-8.698669262230396e-05,0.009244723245501518,-0.0015863613225519657,-0.0006420512800104916,0.3628377616405487,0.6686587333679199,0.5060629844665527,0.2739667296409607,-0.8031282424926758,0.02745543047785759,0.34571677446365356,0.6395951509475708,0.42000001668930054,-0.5509424209594727,-2.9999523162841797,-1.4020700454711914,-2.9999992847442627,-0.18125025928020477,-0.17464126646518707,-0.16783832013607025,-0.16004806756973267,-0.3858785927295685,-0.24033954739570618,-0.07530207186937332,0.08670884370803833
0.8333333333333334,0.08437879383563995,-0.04507272318005562,0.0,0.5572972297668457,0.0,0.0,-0.8303130865097046,0.6334435343742371,-0.24019300937652588,0.0,0.0,0.0,-0.603462278842926,0.3492320477962494,0.6430014371871948,0.41999998688697815,0.626695990562439,-5.737482524637016e-07,-5.803475232823985e-06,-0.7792637348175049,0.00019446293299552053,-0.00041106934077106416,-8.708424866199493e-05,0.009278840385377407,-0.0015807354357093573,-0.0006476564449258149,0.3686400055885315,0.6634740233421326,0.5119062662124634,0.395923376083374,0.01708836294710636,0.5941286683082581,0.34571677446365356,0.6395951509475708,0.42000001668930054,-0.571774423122406,0.2361297607421875,-1.4520883560180664,-3.000000476837158,-0.1859118938446045,-0.17833207547664642,-0.17023225128650665,-0.16115549206733704,-0.14659474790096283,-0.16425257921218872,-0.16418834030628204,-0.16383637487888336
0.85,0.0913771390914917,-0.047388285398483276,0.0,0.5713288187980652,0.0,0.0,-0.8207212686538696,0.34816938638687134,-0.09986581653356552,0.0,0.0,0.0,2.867036819458008,0.3492320477962494,0.6430014371871948,0.41999998688697815,0.6266957521438599,-6.680122055513493e-07,-5.680099548044382e-06,-0.779263973236084,0.000193770945770666,-0.0004106903506908566,-8.709495887160301e-05,0.009265263564884663,-0.0015821604756638408,-0.0006456208066083491,0.37878555059432983,0.6664369106292725,0.5161073803901672,0.7184577584266663,0.23314079642295837,-0.05877390131354332,0.34571677446365356,0.6395951509475708,0.42000001668930054,-0.5527289509773254,1.8886641263961792,-1.4134918451309204,2.999999523162842,-0.18562854826450348,-0.17881062626838684,-0.1711682677268982,-0.16250988841056824,0.10398117452859879,0.050317954272031784,0.012403806671500206,-0.02431921660900116
0.8666666666666667,0.09375689923763275,-0.0536360964179039,0.0,0.5719201564788818,0.0,0.0,-0.8203092813491821,0.12799809873104095,-0.3872573673725128,0.0,0.0,0.0,-0.9089652895927429,0.349232017993927,0.6430014371871948,0.41999998688697815,0.6266961097717285,-6.019650413691124e-07,-5.550677087740041e-06,-0.7792637348175049,0.0001936063199536875,-0.00041093045729212463,-8.708564564585686e-05,0.009272384457290173,-0.0015853533986955881,-0.000645436579361558,0.3892422914505005,0.667072594165802,0.5114320516586304,0.5241518020629883,-0.18273180723190308,-0.355500727891922,0.34571677446365356,0.6395951509475708,0.42000001668930054,-0.5571093559265137,-2.067837953567505,-1.3634392023086548,3.000000476837158,-0.1811652034521103,-0.1755298674106598,-0.16883127391338348,-0.1610872894525528,0.12961745262145996,0.0949908047914505,0.06921990215778351,0.04034252464771271
0.8833333333333333,0.09589706361293793,-0.0547848641872406,0.0,0.5844088196754456,0.0,0.0,-0.8114593625068665,0.10104459524154663,-0.04975052922964096,0.0,0.0,0.0,2.581817865371704,0.3492320477962494,0.6430014371871948,0.41999998688697815,0.6266957521438599,-6.572073516508681e-07,-5.824728759762365e-06,-0.779263973236084,0.0001941444497788325,-0.0004106728301849216,-8.707703091204166e-05,0.009266380220651627,-0.0015787744196131825,-0.0006465058540925384,0.3976139426231384,0.6630610227584839,0.506217360496521,0.5219056606292725,-0.22739087045192719,-0.30094000697135925,0.34571677446365356,0.6395951509475708,0.42000001668930054,-0.5934342741966248,-2.2439160346984863,-1.3822252750396729,-2.999999523162842,-0.18297439813613892,-0.17699408531188965,-0.16984927654266357,-0.16175594925880432,-0.020660817623138428,-0.015336236916482449,-6.171467248350382e-08,0.014144417829811573
