vladlanda/robotic-transformer/data/env_000_episode_0238.csv
sim_time_s,robot_box_x,robot_box_y,robot_box_z,robot_box_quat_w,robot_box_quat_x,robot_box_quat_y,robot_box_quat_z,robot_box_linvel_x,robot_box_linvel_y,robot_box_linvel_z,robot_box_angvel_x,robot_box_angvel_y,robot_box_angvel_z,cube_world_x,cube_world_y,cube_world_z,cube_quat_w,cube_quat_x,cube_quat_y,cube_quat_z,cube_linvel_x,cube_linvel_y,cube_linvel_z,cube_angvel_x,cube_angvel_y,cube_angvel_z,endpoint_world_x,endpoint_world_y,endpoint_world_z,endpoint_linvel_x,endpoint_linvel_y,endpoint_linvel_z,target_cube_world_x,target_cube_world_y,target_cube_world_z,gripper_actual_pos_rad_gp_leftgearjoint,gripper_actual_vel_rad_s_gp_leftgearjoint,gripper_actual_pos_rad_gp_rotatingjoint,gripper_actual_vel_rad_s_gp_rotatingjoint,motor_angle_rad_joint1,motor_angle_rad_joint2,motor_angle_rad_joint3,motor_angle_rad_joint4,motor_speed_rad_s_joint1,motor_speed_rad_s_joint2,motor_speed_rad_s_joint3,motor_speed_rad_s_joint4
0.0,0.0,0.0,0.0,1.0,0.0,0.0,0.0,0.0,0.0,0.0,0.0,0.0,0.0,-0.4341115951538086,0.6516497135162354,0.41999998688697815,1.0,0.0,0.0,0.0,0.0,0.0,0.0,0.0,0.0,0.0,3.42540442943573e-06,-0.005000244826078415,1.313499927520752,0.0,0.0,0.0,0.47974252700805664,0.6320769190788269,0.42000001668930054,-1.5707999467849731,0.0,0.0,0.0,0.0,0.0,0.0,0.0,0.0,0.0,0.0,0.0
0.016666666666666666,0.0028778850100934505,0.0021806680597364902,0.0,0.9998081922531128,0.0,0.0,0.019586581736803055,0.24087215960025787,0.18240931630134583,0.0,0.0,0.0,3.1418697834014893,-0.43411171436309814,0.6516494154930115,0.41999998688697815,1.0,3.279964630564791e-06,-8.339746386809566e-07,8.465587342243452e-08,-1.9833529222523794e-05,0.00017983045836444944,-6.132945418357849e-05,0.0009432713268324733,-0.004689474124461412,-0.00031981561915017664,-0.007110234349966049,0.003379564033821225,1.3159373998641968,-0.8143353462219238,0.9868683815002441,0.18095196783542633,0.47974252700805664,0.6320769190788269,0.42000001668930054,-1.5301095247268677,3.0000011920928955,-0.04584788903594017,-2.9999992847442627,0.0008691533003002405,0.0007963840034790337,0.0007110277656465769,0.0006108740926720202,0.11094217747449875,0.09756709635257721,0.08334315568208694,0.06823883205652237
0.03333333333333333,0.008960964158177376,0.006801855284720659,0.0,0.9997960329055786,0.0,0.0,0.020196840167045593,0.40701982378959656,0.3153062164783478,0.0,0.0,0.0,-0.8691296577453613,-0.4341118335723877,0.6516493558883667,0.4200000464916229,1.0,3.3908354453160428e-06,-2.1324485715012997e-06,-3.710144014235084e-08,0.00026357831666246057,0.00026937946677207947,-0.00010509486310184002,-0.0017707672668620944,0.004130808170884848,-0.000135478752781637,-0.027545148506760597,0.02590196579694748,1.3166416883468628,-1.591353178024292,1.6089978218078613,-0.07957449555397034,0.47974252700805664,0.6320769190788269,0.42000001668930054,-1.4800903797149658,3.0000038146972656,-0.09588771313428879,-3.0000011920928955,0.002990179928019643,0.002652820199728012,0.0022774185054004192,0.0018608998507261276,0.16422724723815918,0.13977310061454773,0.11383421719074249,0.08631833642721176
0.05,0.017723867669701576,0.013767287135124207,0.0,0.9993844628334045,0.0,0.0,0.0350819006562233,0.5932943224906921,0.4648817181587219,0.0,0.0,0.0,2.6520419120788574,-0.4341118633747101,0.6516494154930115,0.4200000464916229,1.0,3.765139354072744e-06,-2.2119161258160602e-06,5.630195420991413e-09,0.0002653095289133489,0.00026691411039792,-0.00010440382175147533,-0.0017242460744455457,0.004177400842308998,-0.00012949357915204018,-0.059657540172338486,0.05338698625564575,1.3117966651916504,-2.1871705055236816,1.722849726676941,-0.4621168375015259,0.47974252700805664,0.6320769190788269,0.42000001668930054,-1.4300720691680908,3.000000238418579,-0.145926371216774,-3.0000009536743164,0.005700338166207075,0.004908833187073469,0.004045198671519756,0.0031047489028424025,0.19274865090847015,0.15584582090377808,0.11706890910863876,0.07633031159639359
0.06666666666666667,0.029030833393335342,0.02305768057703972,0.0,0.9994551539421082,0.0,0.0,0.03300546854734421,0.7198582887649536,0.5950297117233276,0.0,0.0,0.0,-1.207506775856018,-0.4341118633747101,0.6516493558883667,0.4200000464916229,0.9999999403953552,3.4067529668391217e-06,-2.2856381747260457e-06,4.300985096961085e-07,0.00026702662580646574,0.00026791892014443874,-0.00010437914170324802,-0.001740677747875452,0.004211848136037588,-0.0001285130565520376,-0.09837104380130768,0.08679838478565216,1.2994682788848877,-2.4686264991760254,2.1729602813720703,-0.9913947582244873,0.47974252700805664,0.6320769190788269,0.42000001668930054,-1.3800537586212158,2.9999983310699463,-0.19592785835266113,-3.0,0.008326979354023933,0.0068587674759328365,0.0052796537056565285,0.0035835308954119682,0.15638227760791779,0.10655228793621063,0.05469293147325516,1.728767529129982e-08
0.08333333333333333,0.043411705642938614,0.034469544887542725,0.0,0.9999954104423523,0.0,0.0,0.0030294889584183693,0.9377781748771667,0.7264654636383057,0.0,0.0,0.0,-4.530628681182861,-0.4341118633747101,0.6516493558883667,0.4200000464916229,1.0,3.697281499626115e-06,-2.1890098196308827e-06,-2.632294240356714e-07,0.00026389621780253947,0.00026586363674141467,-0.00010433816350996494,-0.0017081034602597356,0.004150185268372297,-0.00012991165567655116,-0.1388402134180069,0.12721958756446838,1.2801179885864258,-2.4107789993286133,2.5459887981414795,-1.316015362739563,0.47974252700805664,0.6320769190788269,0.42000001668930054,-1.3300238847732544,2.9999945163726807,-0.16218538582324982,3.000000476837158,0.010160563513636589,0.007751896977424622,0.005191246513277292,0.002463206648826599,0.09302514046430588,0.02725951559841633,-0.04058219492435455,-0.11099383234977722
0.1,0.052128639072179794,0.049782492220401764,0.0,0.9999479651451111,0.0,0.0,-0.010202685371041298,0.3845081925392151,0.9957787990570068,0.0,0.0,0.0,-0.5803875923156738,-0.4341118633747101,0.6516493558883667,0.4200000464916229,0.9999999403953552,3.6203855415806174e-06,-2.265273224111297e-06,1.7462159007664013e-07,0.0002667683002073318,0.00026740814791992307,-0.0001040794886648655,-0.0017385776154696941,0.004209164995700121,-0.00012775571667589247,-0.1806086301803589,0.1641455441713333,1.2568669319152832,-2.4376626014709473,2.179018020629883,-1.410179615020752,0.47974252700805664,0.6320769190788269,0.42000001668930054,-1.2800226211547852,2.999999761581421,-0.1938677579164505,-3.000000238418579,0.005246875341981649,0.0020952944178134203,-0.0012597177410498261,-0.004843251314014196,-0.418121874332428,-0.46827638149261475,-0.5209884643554688,-0.5767714381217957
0.11666666666666667,0.055472977459430695,0.06376051157712936,0.0,0.9993212223052979,0.0,0.0,-0.03683844581246376,0.2022160440683365,0.7457078099250793,0.0,0.0,0.0,-3.970228433609009,-0.4341118633747101,0.6516493558883667,0.4200000464916229,1.0,3.7983813854225446e-06,-2.2628894384979503e-06,-1.5019897148249584e-07,0.00026373917353339493,0.00026566049200482666,-0.00010429113171994686,-0.0017053951742127538,0.004147559404373169,-0.00012979967868886888,-0.21908792853355408,0.20425748825073242,1.232672929763794,-2.203592538833618,2.6502041816711426,-1.4641876220703125,0.47974252700805664,0.6320769190788269,0.42000001668930054,-1.2300081253051758,3.0,-0.24387632310390472,-3.0000007152557373,-0.00249392818659544,-0.006777350790798664,-0.011277076788246632,-0.01602497324347496,-0.38956311345100403,-0.4808793365955353,-0.5710400342941284,-0.6602596044540405
0.13333333333333333,0.06388413906097412,0.07865216583013535,0.0,0.9989998936653137,0.0,0.0,-0.04471282660961151,0.5945026278495789,0.9517675638198853,0.0,0.0,0.0,0.14076700806617737,-0.4341118633747101,0.6516494154930115,0.4200000464916229,0.9999999403953552,3.55046631739242e-06,-2.229890242233523e-06,2.9291771852513193e-07,0.00026703221374191344,0.00026779237668961287,-0.00010416773147881031,-0.0017439918592572212,0.0042135524563491344,-0.00012800241529475898,-0.2595190405845642,0.24805188179016113,1.204754114151001,-2.4668173789978027,2.7194910049438477,-1.9006420373916626,0.47974252700805664,0.6320769190788269,0.42000001668930054,-1.1799919605255127,2.999992609024048,-0.20981118083000183,3.000000476837158,-0.0035093959886580706,-0.00986744835972786,-0.016366584226489067,-0.023038148880004883,-0.0469650998711586,-0.16359679400920868,-0.2754254639148712,-0.38240039348602295
0.15,0.07065431028604507,0.0914076566696167,0.0,0.9978750944137573,0.0,0.0,-0.0651557445526123,0.34342890977859497,0.7020960450172424,0.0,0.0,0.0,-3.2661075592041016,-0.4341118335723877,0.6516493558883667,0.4200000464916229,1.0,3.332185997351189e-06,-2.1020589429099346e-06,1.3131703724411636e-07,0.0002673070121090859,0.00026859756326302886,-0.00010459567420184612,-0.0017497788649052382,0.0042156740091741085,-0.00012928353680763394,-0.29800379276275635,0.2970259487628937,1.172478199005127,-2.161449432373047,3.1312246322631836,-2.014465808868408,0.47974252700805664,0.6320769190788269,0.42000001668930054,-1.1300005912780762,3.0000011920928955,-0.2412044256925583,-3.0,-0.0060979402624070644,-0.01439693197607994,-0.02274690382182598,-0.031177470460534096,-0.24452351033687592,-0.3533649444580078,-0.4569288194179535,-0.5550785660743713
0.16666666666666666,0.07402671873569489,0.10062042623758316,0.0,0.993704617023468,0.0,0.0,-0.1120317354798317,0.1431361585855484,0.49806666374206543,0.0,0.0,0.0,-6.465760707855225,-0.4341118633747101,0.6516493558883667,0.4200000464916229,1.0,3.7372556107584387e-06,-2.2332371827360475e-06,-1.8763917353226134e-07,0.00026432928279973567,0.00026626777253113687,-0.00010445783846080303,-0.0017118602991104126,0.004157558549195528,-0.00013001644401811063,-0.33294427394866943,0.35556334257125854,1.1307077407836914,-1.9640803337097168,3.7640082836151123,-2.915672779083252,0.47974252700805664,0.6320769190788269,0.42000001668930054,-1.0928277969360352,1.5523532629013062,-0.2071954905986786,3.0000016689300537,-0.012235967442393303,-0.021968835964798927,-0.031662847846746445,-0.04134754091501236,-0.4644366502761841,-0.5247107148170471,-0.580194890499115,-0.6309905648231506
0.18333333333333332,0.08004491776227951,0.11073249578475952,0.0,0.9834361672401428,0.0,0.0,-0.1812548190355301,0.3808075785636902,0.617210328578949,0.0,0.0,0.0,-9.336406707763672,-0.4341118633747101,0.6516494154930115,0.4200000464916229,0.9999999403953552,3.660216407297412e-06,-2.302346501892316e-06,2.5286328764195787e-07,0.00026690843515098095,0.00026760369655676186,-0.00010412652045488358,-0.00174131547100842,0.004211504012346268,-0.00012787082232534885,-0.3661806285381317,0.42262735962867737,1.0751656293869019,-1.7591239213943481,4.360945701599121,-3.7322916984558105,0.47974252700805664,0.6320769190788269,0.42000001668930054,-1.0472954511642456,3.0000014305114746,-0.2386026680469513,-3.000000238418579,-0.020515093579888344,-0.031009545549750328,-0.041391633450984955,-0.05169380456209183,-0.7291164398193359,-0.7315501570701599,-0.7319692969322205,-0.7306334376335144
0.2,0.08280625194311142,0.11893570423126221,0.0,0.9730694890022278,0.0,0.0,-0.2305120825767517,0.13663378357887268,0.4467753469944,0.0,0.0,0.0,-4.847041606903076,-0.4341118633747101,0.6516493558883667,0.4200000464916229,1.0,3.5907664823753294e-06,-2.3004322429187596e-06,1.387437009725545e-07,0.00026654673274606466,0.00026732226251624525,-0.00010424060747027397,-0.0017326197121292353,0.004203468095511198,-0.0001282063458347693,-0.3979755640029907,0.48625487089157104,1.0038906335830688,-1.574567437171936,3.9126574993133545,-4.741455554962158,0.47974252700805664,0.6320769190788269,0.42000001668930054,-0.9972923994064331,3.0000033378601074,-0.28863048553466797,-2.9999992847442627,-0.03578099235892296,-0.045965228229761124,-0.056105609983205795,-0.06575442105531693,-0.9416139721870422,-0.9101711511611938,-0.8855395317077637,-0.8330826759338379
0.21666666666666667,0.08209890872240067,0.1280304193496704,0.0,0.9697048664093018,0.0,0.0,-0.24427951872348785,-0.10866650938987732,0.573771059513092,0.0,0.0,0.0,-0.6375395655632019,-0.4341118633747101,0.6516494154930115,0.4200000464916229,1.0,3.6068583995074732e-06,-2.2610586256632814e-06,1.9633484171777127e-08,0.00026447203708812594,0.00026558362878859043,-0.00010396563448011875,-0.001708743628114462,0.004164293874055147,-0.0001283248420804739,-0.42775964736938477,0.5387752652168274,0.9206244945526123,-1.5669488906860352,2.8896594047546387,-5.2848663330078125,0.47974252700805664,0.6320769190788269,0.42000001668930054,-0.947282612323761,3.0000040531158447,-0.33865976333618164,-3.0,-0.051461122930049896,-0.06146490201354027,-0.07142561674118042,-0.08092521131038666,-0.9864693880081177,-0.9620650410652161,-0.9291767477989197,-0.9024395942687988
0.23333333333333334,0.08518067747354507,0.13344286382198334,0.0,0.9628096222877502,0.0,0.0,-0.27018070220947266,0.22381524741649628,0.24814251065254211,0.0,0.0,0.0,-3.8663978576660156,-0.4341118335723877,0.6516493558883667,0.4200000464916229,0.9999999403953552,3.742156877706293e-06,-2.227542609034572e-06,4.5892250000179047e-07,0.0002647509681992233,0.00026671559317037463,-0.00010453537106513977,-0.0017190451035276055,0.004165756516158581,-0.00013019356993027031,-0.4513183832168579,0.5851245522499084,0.8259103298187256,-1.107517957687378,2.5199906826019287,-5.986240386962891,0.47974252700805664,0.6320769190788269,0.42000001668930054,-0.8972719311714172,2.999998092651367,-0.38869088888168335,-2.9999985694885254,-0.06682991236448288,-0.07668334245681763,-0.08641307801008224,-0.09559271484613419,-0.9892879724502563,-0.9909005761146545,-0.9921733736991882,-0.987257719039917
0.25,0.08304624259471893,0.14165182411670685,0.0,0.960541844367981,0.0,0.0,-0.2781354784965515,-0.10649067163467407,0.4703589975833893,0.0,0.0,0.0,0.007229816168546677,-0.4341118633747101,0.6516493558883667,0.4200000464916229,1.0,3.3943140351766488e-06,-2.282112973261974e-06,1.33633321297566e-07,0.0002667937951628119,0.0002679391473066062,-0.00010439474135637283,-0.0017417421331629157,0.004206571727991104,-0.00012884227908216417,-0.4654184579849243,0.6119292378425598,0.7261644601821899,-0.547763466835022,1.113370418548584,-5.89311408996582,0.47974252700805664,0.6320769190788269,0.42000001668930054,-0.847261369228363,2.9999735355377197,-0.43872255086898804,-2.999997138977051,-0.08387202024459839,-0.09352380782365799,-0.10314185917377472,-0.11226087808609009,-0.7485530972480774,-0.7879291772842407,-0.8283019065856934,-0.8666471838951111
0.26666666666666666,0.08591394126415253,0.14517518877983093,0.0,0.9544101357460022,0.0,0.0,-0.2984984517097473,0.20533473789691925,0.14946527779102325,0.0,0.0,0.0,-3.1529324054718018,-0.4341118633747101,0.6516494154930115,0.4200000464916229,1.0,3.6832957448496018e-06,-2.3101708848116687e-06,2.1012019146837702e-07,0.00026479153893887997,0.0002662580518517643,-0.00010421173647046089,-0.0017168201738968492,0.004168934654444456,-0.00012909606448374689,-0.47210249304771423,0.6311535239219666,0.6259170174598694,-0.0700925961136818,0.9930300116539001,-5.986727714538574,0.47974252700805664,0.6320769190788269,0.42000001668930054,-0.7972524166107178,2.999994993209839,-0.48875370621681213,-2.9999985694885254,-0.09723479300737381,-0.1072876900434494,-0.11732134222984314,-0.12681542336940765,-0.9968137741088867,-0.9977853298187256,-0.9986039996147156,-0.9993084669113159
0.2833333333333333,0.08466662466526031,0.14605218172073364,0.0,0.9540343284606934,0.0,0.0,-0.29969730973243713,-0.17225812375545502,0.02211933769285679,0.0,0.0,0.0,0.7192626595497131,-0.4341118633747101,0.6516493558883667,0.4200000464916229,1.0,3.3067838103306713e-06,-2.212570507253986e-06,2.6257987428834895e-07,0.00026660895673558116,0.0002674504357855767,-0.00010424456559121609,-0.0017353360308334231,0.004204529337584972,-0.0001282836019527167,-0.4690929055213928,0.6418463587760925,0.5331122875213623,0.5190329551696777,0.4129800498485565,-5.1789469718933105,0.47974252700805664,0.6320769190788269,0.42000001668930054,-0.7472436428070068,3.000001907348633,-0.5387834310531616,-3.0000014305114746,-0.11525073647499084,-0.12498358637094498,-0.13477729260921478,-0.144083634018898,-1.013777732849121,-1.0103883743286133,-1.0078048706054688,-1.0057423114776611
0.3,0.08067575097084045,0.1444532722234726,0.0,0.9494020342826843,0.0,0.0,-0.3140634298324585,-0.2588260769844055,-0.15165598690509796,0.0,0.0,0.0,-2.6377675533294678,-0.4341118633747101,0.6516493558883667,0.4200000464916229,1.0,3.640822797024157e-06,-2.3780603441991843e-06,-4.194113500943786e-07,0.0002660947502590716,0.00026721262838691473,-0.00010421243496239185,-0.0017329666297882795,0.004194220993667841,-0.00012849632184952497,-0.45528656244277954,0.6500611305236816,0.4471386969089508,1.137869954109192,0.5461560487747192,-5.112975120544434,0.47974252700805664,0.6320769190788269,0.42000001668930054,-0.6972360014915466,2.999992847442627,-0.5888112187385559,-2.999999523162842,-0.13147853314876556,-0.141267329454422,-0.15112429857254028,-0.1604805439710617,-1.0001479387283325,-1.000087022781372,-1.0000479221343994,-1.000020146369934
0.31666666666666665,0.07476891577243805,0.14036832749843597,0.0,0.9501299262046814,0.0,0.0,-0.3118543326854706,-0.3953793942928314,-0.28380152583122253,0.0,0.0,0.0,1.1750221252441406,-0.4341118633747101,0.6516494154930115,0.4200000464916229,1.0,3.621540145104518e-06,-2.2891160824656254e-06,1.9688822305852227e-07,0.0002673401904758066,0.00026802701177075505,-0.00010420684702694416,-0.0017467169091105461,0.004218996502459049,-0.00012793648056685925,-0.44654953479766846,0.6557174324989319,0.41854339838027954,0.35574260354042053,0.29438093304634094,-0.14196711778640747,0.47974252700805664,0.6320769190788269,0.42000001668930054,-0.6473897099494934,2.9801855087280273,-0.63942551612854,-2.8003244400024414,-0.14045695960521698,-0.15051759779453278,-0.16045719385147095,-0.16965581476688385,-0.32021641731262207,-0.32013222575187683,-0.29670512676239014,-0.2457723617553711
0.3333333333333333,0.06647207587957382,0.13405469059944153,0.0,0.9460620880126953,0.0,0.0,-0.32398536801338196,-0.5473363995552063,-0.4193689823150635,0.0,0.0,0.0,-2.4259369373321533,-0.43333473801612854,0.6548033356666565,0.4207606315612793,0.9970318675041199,0.011524686589837074,0.007520448882132769,-0.07575021684169769,0.06400346010923386,0.23848214745521545,0.03400419279932976,1.2305829524993896,0.4465423822402954,-11.004728317260742,-0.4432363510131836,0.6616238355636597,0.4241310656070709,0.34453141689300537,0.41174429655075073,-0.1579166203737259,0.47974252700805664,0.6320769190788269,0.42000001668930054,-0.5973830223083496,2.9999821186065674,-0.6894987225532532,-2.9999775886535645,-0.1450267732143402,-0.1547953337430954,-0.1640191227197647,-0.1720430552959442,-0.38309577107429504,-0.3284226059913635,-0.2537436783313751,-0.15932178497314453
0.35,0.05588886886835098,0.12551350891590118,0.0,0.9472944736480713,0.0,0.0,-0.32036420702934265,-0.675810694694519,-0.5543965697288513,0.0,0.0,0.0,1.356196641921997,-0.4289478659629822,0.6642646789550781,0.4200051724910736,0.9941470623016357,0.00011908867600141093,6.461070256591483e-07,-0.10803484171628952,0.34231510758399963,0.6539245247840881,-0.005223437212407589,-0.0016268660547211766,-0.2372748702764511,-3.818333387374878,-0.436944842338562,0.6699988842010498,0.42155778408050537,0.42868292331695557,0.5981130599975586,-0.13583391904830933,0.47974252700805664,0.6320769190788269,0.42000001668930054,-0.5473780632019043,2.999678373336792,-0.7395355105400085,-2.9995830059051514,-0.1524810940027237,-0.160801500082016,-0.1682635098695755,-0.1742510348558426,-0.4564199447631836,-0.35419991612434387,-0.23401522636413574,-0.09959486871957779
0.36666666666666664,0.04306536540389061,0.11456889659166336,0.0,0.9434827566146851,0.0,0.0,-0.3314215838909149,-0.8135523200035095,-0.6962891221046448,0.0,0.0,0.0,-2.3253722190856934,-0.42267024517059326,0.675471842288971,0.4200001060962677,0.9910070896148682,-2.9389582323346986e-07,3.0483045065921033e-06,-0.1338093876838684,0.50614994764328,0.8183988928794861,-0.0001452276628697291,0.0006075170822441578,-0.006315271835774183,-3.5389745235443115,-0.42767953872680664,0.6799774169921875,0.419816255569458,0.6934058666229248,0.6711481213569641,-0.09332960098981857,0.47974252700805664,0.6320769190788269,0.42000001668930054,-0.4973732829093933,2.99997878074646,-0.7895859479904175,-2.99999737739563,-0.16043385863304138,-0.16679127514362335,-0.17193284630775452,-0.17532820999622345,-0.46050575375556946,-0.32856592535972595,-0.17555107176303864,-0.007576606702059507
0.3833333333333333,0.032779186964035034,0.10088218748569489,0.0,0.9298966526985168,0.0,0.0,-0.36782094836235046,-0.5407403111457825,-0.8751174211502075,0.0,0.0,0.0,-5.469732284545898,-0.41152286529541016,0.6921637654304504,0.42019447684288025,0.9866151213645935,-0.004796053282916546,0.0006635196041315794,-0.16299450397491455,0.8735896348953247,1.2489820718765259,0.059863802045583725,-2.9152297973632812,0.948236882686615,-5.181690216064453,-0.4144784212112427,0.6941922903060913,0.42040640115737915,0.952052116394043,1.1088461875915527,0.12433034181594849,0.47974252700805664,0.6320769190788269,0.42000001668930054,-0.4473261535167694,2.9999494552612305,-0.8396067023277283,-2.9999759197235107,-0.1677498072385788,-0.17169924080371857,-0.1740189641714096,-0.17429706454277039,-0.3814370930194855,-0.23331479728221893,-0.05939299613237381,0.13278315961360931
0.4,0.019881121814250946,0.0852937176823616,0.0,0.9031233787536621,0.0,0.0,-0.4293811023235321,-0.8682907819747925,-0.9603424072265625,0.0,0.0,0.0,-8.967148780822754,-0.38424044847488403,0.7190068960189819,0.4234042465686798,0.9761753082275391,-0.016184544190764427,-0.025868576020002365,-0.214826762676239,2.633699655532837,1.8474332094192505,0.14700715243816376,35.69424819946289,-15.066771507263184,18.50128746032715,-0.3873370885848999,0.7211894989013672,0.4231100082397461,2.3751845359802246,2.165226936340332,0.41542279720306396,0.47974252700805664,0.6320769190788269,0.42000001668930054,-0.40079984068870544,2.0448367595672607,-0.8896189332008362,-3.0000014305114746,-0.1779632270336151,-0.17849521338939667,-0.17702753841876984,-0.17330628633499146,-0.7130801677703857,-0.4722230136394501,-0.21294769644737244,0.05409640446305275
0.4166666666666667,0.010207762010395527,0.06719882786273956,0.0,0.8601585030555725,0.0,0.0,-0.510026752948761,-0.5292898416519165,-1.1189764738082886,0.0,0.0,0.0,-11.587215423583984,-0.32169052958488464,0.7625751495361328,0.42870891094207764,0.9579241275787354,0.04563715681433678,-0.06804882735013962,-0.2750779092311859,5.254735946655273,2.5554702281951904,0.46440067887306213,16.79744529724121,-13.211078643798828,21.61860466003418,-0.3243766725063324,0.765408992767334,0.42858901619911194,4.863185405731201,3.123800754547119,0.5051707625389099,0.47974252700805664,0.6320769190788269,0.42000001668930054,-0.3802291452884674,0.8562222123146057,-0.8525055050849915,2.9972310066223145,-0.19136013090610504,-0.18709062039852142,-0.1807204782962799,-0.17219777405261993,-0.8866075873374939,-0.5770778656005859,-0.27053767442703247,0.020292839035391808
0.43333333333333335,0.003333495697006583,0.054284773766994476,0.0,0.7981390357017517,0.0,0.0,-0.602473258972168,-0.33579543232917786,-0.8051263689994812,0.0,0.0,0.0,-14.068598747253418,-0.217065691947937,0.8100666403770447,0.4386107623577118,0.9198604822158813,0.12242381274700165,-0.10834890604019165,-0.35655224323272705,7.551312446594238,2.419874668121338,0.6577305793762207,14.609353065490723,-18.209684371948242,13.105544090270996,-0.22067782282829285,0.8138636946678162,0.43822866678237915,7.259880065917969,2.921635150909424,0.7103566527366638,0.47974252700805664,0.6320769190788269,0.42000001668930054,-0.36501994729042053,1.0386991500854492,-0.8024856448173523,2.9951670169830322,-0.20634861290454865,-0.20167310535907745,-0.19134333729743958,-0.17694756388664246,-0.5605151653289795,-0.639657735824585,-0.6039971113204956,-0.31038177013397217
0.45,-0.00317343114875257,0.04485899209976196,0.0,0.7421062588691711,0.0,0.0,-0.670282244682312,-0.3200531005859375,-0.5416132807731628,0.0,0.0,0.0,-9.245920181274414,-0.09900155663490295,0.8402304649353027,0.44953471422195435,0.8973917365074158,0.13645847141742706,-0.12419230490922928,-0.40080326795578003,7.32765531539917,0.6963077187538147,0.6904073357582092,1.346451759338379,-12.408491134643555,10.254805564880371,-0.10128918290138245,0.8480441570281982,0.4495280683040619,7.189065933227539,1.3533048629760742,0.7327291965484619,0.47974252700805664,0.6320769190788269,0.42000001668930054,-0.3464058041572571,1.1211870908737183,-0.8293650150299072,-3.0000014305114746,-0.22152931988239288,-0.21628691256046295,-0.20316623151302338,-0.1828681081533432,-0.7833234667778015,-0.7940101623535156,-0.6368170976638794,-0.33320939540863037
0.4666666666666667,-0.010160963982343674,0.03888937085866928,0.0,0.7089278697967529,0.0,0.0,-0.7052810192108154,-0.4698396921157837,-0.28928813338279724,0.0,0.0,0.0,-4.649533748626709,0.01864512264728546,0.8502967953681946,0.46011883020401,0.8458151817321777,0.13643185794353485,-0.11837992072105408,-0.5019652843475342,7.08206844329834,-0.923918604850769,0.6103551983833313,12.424493789672852,-10.089380264282227,22.66579818725586,0.01690519228577614,0.8593300580978394,0.4600113332271576,7.015104293823242,-0.09280507266521454,0.6591120958328247,0.47974252700805664,0.6320769190788269,0.42000001668930054,-0.3293282389640808,0.8246975541114807,-0.8793904781341553,-3.000001907348633,-0.23779809474945068,-0.23094560205936432,-0.2138470709323883,-0.18790997564792633,-0.9783583879470825,-0.8320294618606567,-0.5643173456192017,-0.23314590752124786
0.48333333333333334,-0.014501897618174553,0.027586620301008224,0.0,0.6984935402870178,0.0,0.0,-0.7156164050102234,-0.19013242423534393,-0.8061911463737488,0.0,0.0,0.0,-0.8318393230438232,0.12482179701328278,0.8403220176696777,0.4678792953491211,0.7788038849830627,0.12171252816915512,-0.10992814600467682,-0.6054471135139465,5.768184185028076,-1.9754197597503662,0.4430200159549713,6.64054536819458,-12.299674987792969,20.845335006713867,0.12416277825832367,0.8507183790206909,0.4680428206920624,5.833494186401367,-1.0757086277008057,0.4087563753128052,0.47974252700805664,0.6320769190788269,0.42000001668930054,-0.31878024339675903,0.39077410101890564,-0.9294157028198242,-3.000001907348633,-0.2387816160917282,-0.24003563821315765,-0.2196185439825058,-0.18898507952690125,0.07892768830060959,-0.03673063963651657,-0.2135225087404251,0.027695700526237488
0.5,-0.016555223613977432,0.02114713191986084,0.0,0.6800583004951477,0.0,0.0,-0.7331580519676208,-0.08300650864839554,-0.28622135519981384,0.0,0.0,0.0,-3.9402363300323486,0.213267982006073,0.8148149847984314,0.469388872385025,0.7161312699317932,0.08773645758628845,-0.12077408283948898,-0.6818150281906128,4.549707412719727,-2.9421610832214355,-0.010485515929758549,-1.9008091688156128,-12.32402229309082,34.9653205871582,0.21321141719818115,0.8260253667831421,0.47054269909858704,5.128824710845947,-1.8915637731552124,-0.026137368753552437,0.47974252700805664,0.6320769190788269,0.42000001668930054,-0.3153518736362457,-0.055089112371206284,-0.9794397354125977,-3.000002145767212,-0.2399495542049408,-0.23991164565086365,-0.22643902897834778,-0.19216462969779968,-0.026456408202648163,0.010776972398161888,-0.31603410840034485,-0.16389165818691254
0.5166666666666666,-0.015799356624484062,0.01728125289082527,0.0,0.6748823523521423,0.0,0.0,-0.7379253506660461,0.10182717442512512,-0.17581553757190704,0.0,0.0,0.0,0.1125858724117279,0.28961867094039917,0.7801821231842041,0.46506068110466003,0.6494415998458862,0.055030979216098785,-0.11053518205881119,-0.7503193020820618,4.054194450378418,-2.744957685470581,-0.5431531667709351,-9.128514289855957,-2.84355092048645,2.5526061058044434,0.289822518825531,0.7903642654418945,0.46611136198043823,4.218969821929932,-2.392899751663208,-0.3812687397003174,0.47974252700805664,0.6320769190788269,0.42000001668930054,-0.3141991198062897,0.21278205513954163,-1.0294626951217651,-3.000002145767212,-0.2388823926448822,-0.23792116343975067,-0.22908778488636017,-0.19361189007759094,0.13900314271450043,0.20001257956027985,-0.041109487414360046,-0.04200892895460129
0.5333333333333333,-0.012161209248006344,0.009877289645373821,0.0,0.6598554253578186,0.0,0.0,-0.7513925433158875,0.22590774297714233,-0.4911670982837677,0.0,0.0,0.0,-3.2415354251861572,0.3527440130710602,0.741786003112793,0.45162269473075867,0.594440221786499,0.0008229718077927828,-0.11235351860523224,-0.796251654624939,3.0544238090515137,-2.756110191345215,-1.0810620784759521,-17.908191680908203,13.551998138427734,3.2656047344207764,0.3536927103996277,0.7526060342788696,0.45423251390457153,3.4216089248657227,-2.3307929039001465,-0.8415476083755493,0.47974252700805664,0.6320769190788269,0.42000001668930054,-0.3055935502052307,0.6111958622932434,-1.0794848203659058,-2.9997966289520264,-0.23228749632835388,-0.23089000582695007,-0.22605767846107483,-0.1921900361776352,0.3869723677635193,0.43374893069267273,0.24222014844417572,0.10371331125497818
0.55,-0.0057825492694973946,0.006669654976576567,0.0,0.6574325561523438,0.0,0.0,-0.7535133957862854,0.40090319514274597,-0.16032931208610535,0.0,0.0,0.0,0.5149826407432556,0.40174686908721924,0.7006036043167114,0.4321342408657074,0.522334635257721,-0.09489800781011581,-0.12658968567848206,-0.8379354476928711,2.47200870513916,-2.5533077716827393,-1.0493388175964355,0.08209655433893204,7.0240797996521,-4.501932621002197,0.40273281931877136,0.7117350101470947,0.43733710050582886,2.5977630615234375,-2.453291177749634,-1.2050998210906982,0.47974252700805664,0.6320769190788269,0.42000001668930054,-0.2926294207572937,0.8206390738487244,-1.1295069456100464,-2.999993324279785,-0.22876396775245667,-0.22606225311756134,-0.22340995073318481,-0.19217267632484436,0.3368121087551117,0.3770042061805725,0.24191786348819733,0.022118566557765007
0.5666666666666667,0.0023220714647322893,0.006465548183768988,0.0,0.6451884508132935,0.0,0.0,-0.76402348279953,0.5288995504379272,0.06341817229986191,0.0,0.0,0.0,-2.8140928745269775,0.4379936754703522,0.6740742325782776,0.4224887788295746,0.4609571099281311,-0.03189950808882713,-0.03675683215260506,-0.8860868215560913,1.6596992015838623,-1.1846981048583984,-0.2662777900695801,15.753293991088867,-16.144859313964844,-15.693007469177246,0.4361831545829773,0.6818358302116394,0.42381781339645386,1.2999573945999146,-1.0310962200164795,0.14017881453037262,0.47974252700805664,0.6320769190788269,0.42000001668930054,-0.2750593423843384,1.6648471355438232,-1.1794350147247314,-2.996758460998535,-0.22095146775245667,-0.21875548362731934,-0.2188147008419037,-0.19230437278747559,0.5987363457679749,0.5103724002838135,0.32578736543655396,-0.009820838458836079
0.5833333333333334,0.0098108546808362,0.0023902764078229666,0.0,0.6454401612281799,0.0,0.0,-0.7638108730316162,0.3834814429283142,-0.22337496280670166,0.0,0.0,0.0,0.9006972312927246,0.4586727023124695,0.6607441306114197,0.4200562834739685,0.4668603241443634,-0.00048411174793727696,0.0013435697183012962,-0.8843299150466919,0.16310684382915497,-2.2017323970794678,-0.08779295533895493,-3.5639779567718506,-3.347181797027588,-3.953864574432373,0.4553520977497101,0.6637725234031677,0.42393726110458374,0.8173655271530151,-1.034529685974121,-0.0007410254329442978,0.47974252700805664,0.6320769190788269,0.42000001668930054,-0.2465534210205078,1.5839225053787231,-1.1416009664535522,3.000002384185791,-0.208536297082901,-0.2077731490135193,-0.21051464974880219,-0.18979163467884064,0.4837585389614105,0.46644434332847595,0.38945358991622925,0.09249572455883026
0.6,0.018130341544747353,0.0026454513426870108,0.0,0.6346695423126221,0.0,0.0,-0.772783637046814,0.5240676999092102,0.04584038257598877,0.0,0.0,0.0,-2.531060218811035,0.4669888913631439,0.646624743938446,0.41999945044517517,0.5030145645141602,-2.410870592939318e-06,-0.00010069855488836765,-0.8642778992652893,0.23482933640480042,-0.6711320877075195,-0.00203824695199728,0.22605422139167786,0.010551598854362965,5.550050258636475,0.46548140048980713,0.651843786239624,0.42404305934906006,0.47886043787002563,-0.44517242908477783,0.13158035278320312,0.47974252700805664,0.6320769190788269,0.42000001668930054,-0.2385925054550171,-0.3035909831523895,-1.1638822555541992,-2.9999938011169434,-0.2004709243774414,-0.2005886286497116,-0.20477864146232605,-0.18931126594543457,0.5750150680541992,0.4861536920070648,0.38493844866752625,0.05114343762397766
0.6166666666666667,0.02809556946158409,-0.0006634756573475897,0.0,0.6368294358253479,0.0,0.0,-0.7710047364234924,0.6439933180809021,-0.20089733600616455,0.0,0.0,0.0,1.2438700199127197,0.4729158580303192,0.6394895315170288,0.42174938321113586,0.5151468515396118,-0.020596196874976158,0.02809923142194748,-0.8563935160636902,0.3890598714351654,-0.15200482308864594,-0.04522998258471489,0.026776254177093506,8.074257850646973,13.36600112915039,0.4701078534126282,0.6450851559638977,0.42628005146980286,0.10458193719387054,-0.37320512533187866,0.14899469912052155,0.47974252700805664,0.6320769190788269,0.42000001668930054,-0.2786281108856201,-2.9125468730926514,-1.213842511177063,-3.0004634857177734,-0.18973150849342346,-0.19126608967781067,-0.1968444287776947,-0.1866975724697113,0.5211876034736633,0.46768227219581604,0.42557021975517273,0.14466573297977448
0.6333333333333333,0.0400918684899807,-0.0003345508885104209,0.0,0.6307408213615417,0.0,0.0,-0.7759935259819031,0.7474275231361389,0.06745120882987976,0.0,0.0,0.0,-2.2750093936920166,0.47550103068351746,0.6376476883888245,0.421189546585083,0.5315307378768921,-0.016370655968785286,0.025896351784467697,-0.8464846611022949,0.09388116002082825,-0.09822643548250198,-0.03578976169228554,-0.8759931921958923,-1.731958031654358,1.400266408920288,0.47191035747528076,0.6442566514015198,0.4291464686393738,0.18160445988178253,0.12588784098625183,0.20666003227233887,0.47974252700805664,0.6320769190788269,0.42000001668930054,-0.327151358127594,-2.8998332023620605,-1.2638025283813477,-2.998711585998535,-0.18095362186431885,-0.1838865429162979,-0.19038130342960358,-0.1848832368850708,0.6281344294548035,0.5123893618583679,0.4376641511917114,0.15254844725131989
0.65,0.05398154258728027,-0.002917504170909524,0.0,0.6345622539520264,0.0,0.0,-0.7728717923164368,0.8192728757858276,-0.2511928975582123,0.0,0.0,0.0,1.5029321908950806,0.4762144088745117,0.6368928551673889,0.4200117886066437,0.5570538640022278,-0.0001781309983925894,-8.869103476172313e-05,-0.8304762244224548,-0.03444545343518257,0.03845199942588806,-0.0030265324749052525,-0.11974355578422546,-0.02575826644897461,1.3231018781661987,0.4726066589355469,0.646708607673645,0.4324786067008972,-0.058668043464422226,0.15760400891304016,0.21535338461399078,0.47974252700805664,0.6320769190788269,0.42000001668930054,-0.37715578079223633,-3.0,-1.3137993812561035,-2.9995293617248535,-0.1691512167453766,-0.1739848256111145,-0.1816398799419403,-0.18063774704933167,0.6527171730995178,0.564805805683136,0.5212931036949158,0.28581228852272034
0.6666666666666666,0.06541009247303009,-0.0033191314432770014,0.0,0.6598434448242188,0.0,0.0,-0.7514030933380127,0.6271995902061462,0.004435384180396795,0.0,0.0,0.0,4.813599586486816,0.47562262415885925,0.6370794773101807,0.42000147700309753,0.5522242784500122,3.55668889824301e-05,1.6766771295806393e-05,-0.8336955904960632,-0.05909910425543785,0.009165824390947819,0.0006372079369612038,-0.09708776324987411,-0.0654262900352478,-3.0429813861846924,0.4712778925895691,0.647331714630127,0.43593865633010864,-0.0896616131067276,0.08619271218776703,0.22409650683403015,0.47974252700805664,0.6320769190788269,0.42000001668930054,-0.42714691162109375,-2.9992706775665283,-1.3637733459472656,-2.99923038482666,-0.1626676470041275,-0.16795694828033447,-0.1752898097038269,-0.17693361639976501,0.39153799414634705,0.37126848101615906,0.40057966113090515,0.26885855197906494
0.6833333333333333,0.07746418565511703,-0.006538843270391226,0.0,0.6711291670799255,0.0,0.0,-0.7413403987884521,0.7327921986579895,-0.22988638281822205,0.0,0.0,0.0,0.7386212944984436,0.4746691584587097,0.6372805833816528,0.4200001657009125,0.5425014495849609,-5.765772584709339e-06,2.7097382826468674e-06,-0.8400548100471497,-0.0583653450012207,0.010298744775354862,-0.00019479659385979176,-0.0034244288690388203,-0.01018502190709114,-1.5180617570877075,0.47071129083633423,0.6495790481567383,0.4408653676509857,-0.053247202187776566,0.07201006263494492,0.327543169260025,0.47974252700805664,0.6320769190788269,0.42000001668930054,-0.4771416485309601,-2.9996044635772705,-1.4137487411499023,-2.9999840259552,-0.15714888274669647,-0.16203247010707855,-0.1680474728345871,-0.1706966757774353,0.2424641102552414,0.31334200501441956,0.44043588638305664,0.4457375109195709
0.7,0.09080272912979126,-0.012647878378629684,0.0,0.6593426465988159,0.0,0.0,-0.7518425583839417,0.8317086100578308,-0.4322517216205597,0.0,0.0,0.0,-2.813138008117676,0.4744613766670227,0.6372963190078735,0.4200001358985901,0.5407504439353943,2.0069090169272386e-05,-1.0909100637945812e-05,-0.841183066368103,0.0019617548678070307,-0.0001882540382212028,-0.0008588023483753204,-0.011443843133747578,0.011214422062039375,-0.0054398467764258385,0.4759618043899536,0.6516084671020508,0.45217210054397583,0.62912917137146,0.12031710147857666,1.124358892440796,0.47974252700805664,0.6320769190788269,0.42000001668930054,-0.5271542072296143,-2.999983549118042,-1.4637670516967773,-3.000000238418579,-0.1555892378091812,-0.15898942947387695,-0.16259117424488068,-0.16455066204071045,0.019789667800068855,0.12041345983743668,0.2750828266143799,0.34255680441856384
0.7166666666666667,0.1072854995727539,-0.01420222595334053,0.0,0.6251196265220642,0.0,0.0,-0.7805289626121521,0.96234530210495,-0.07186666131019592,0.0,0.0,0.0,-6.2053961753845215,0.47446390986442566,0.6372961401939392,0.4200000464916229,0.5407484769821167,1.9913311177788273e-07,-2.606735279186978e-06,-0.8411842584609985,2.1205014490988106e-05,-0.00024652815773151815,-7.023382931947708e-05,0.006594616454094648,-0.0022134631872177124,-0.0006773549830541015,0.495017409324646,0.6498429775238037,0.47713956236839294,1.6865944862365723,-0.1964685320854187,1.9706730842590332,0.47974252700805664,0.6320769190788269,0.42000001668930054,-0.5771660804748535,-2.999934673309326,-1.5137853622436523,-2.999993324279785,-0.16178369522094727,-0.16246502101421356,-0.16254210472106934,-0.16223517060279846,-0.3219955563545227,-0.17582452297210693,0.01829601265490055,0.15420353412628174
0.7333333333333333,0.12039140611886978,-0.014421822503209114,0.0,0.6055189967155457,0.0,0.0,-0.7958308458328247,0.7122636437416077,0.009695465676486492,0.0,0.0,0.0,-1.923827052116394,0.47446390986442566,0.6372960805892944,0.4200000464916229,0.5407485961914062,3.419688709982438e-07,-2.6866989628615556e-06,-0.8411842584609985,3.37032979587093e-05,-0.0002481385017745197,-7.509090937674046e-05,0.006555471103638411,-0.002138243755325675,-0.0007142464746721089,0.52496337890625,0.6501994132995605,0.5134126543998718,1.8221182823181152,0.2215462327003479,2.331955909729004,0.47974252700805664,0.6320769190788269,0.42000001668930054,-0.5970051288604736,0.34246838092803955,-1.5638036727905273,-3.000000238418579,-0.16483831405639648,-0.16424942016601562,-0.16237585246562958,-0.16089431941509247,-0.06400353461503983,-0.047933291643857956,-1.1408701539039612e-08,0.01381587516516447
0.75,0.12870477139949799,-0.012545778416097164,0.0,0.611406683921814,0.0,0.0,-0.7913165092468262,0.4226865768432617,0.15832211077213287,0.0,0.0,0.0,1.7651915550231934,0.47446390986442566,0.6372960805892944,0.4200000464916229,0.5407485961914062,3.597255044951453e-07,-2.5561357688275166e-06,-0.841184139251709,3.1230472814058885e-05,-0.0002479459217283875,-7.463246583938599e-05,0.006563045550137758,-0.002167419996112585,-0.0007084375247359276,0.5494651794433594,0.6542359590530396,0.546981692314148,1.1034530401229858,0.3058542013168335,1.7576112747192383,0.47974252700805664,0.6320769190788269,0.42000001668930054,-0.569678008556366,2.707728385925293,-1.5248916149139404,3.000000476837158,-0.1644395887851715,-0.16375501453876495,-0.16135072708129883,-0.15976405143737793,0.09626629203557968,0.09240880608558655,0.10803628712892532,0.104644775390625
0.7666666666666666,0.13277776539325714,-0.01464931946247816,0.0,0.6053157448768616,0.0,0.0,-0.7959854602813721,0.20295076072216034,-0.19789879024028778,0.0,0.0,0.0,-1.853600263595581,0.47446390986442566,0.6372960805892944,0.4200000464916229,0.5407484769821167,3.8200414564926177e-07,-2.6216364403808257e-06,-0.8411842584609985,3.0419327231356874e-05,-0.0002480922848917544,-7.443036884069443e-05,0.006571326404809952,-0.002176595851778984,-0.000706935883499682,0.5605055093765259,0.6604026556015015,0.569577693939209,0.17151659727096558,0.3776860237121582,1.1335110664367676,0.47974252700805664,0.6320769190788269,0.42000001668930054,-0.539975643157959,0.9806329011917114,-1.4748351573944092,2.9999992847442627,-0.16159206628799438,-0.1610882580280304,-0.15864971280097961,-0.15725401043891907,0.12874752283096313,0.13262496888637543,0.14158010482788086,0.13934163749217987
0.7833333333333333,0.1335553377866745,-0.011619265191257,0.0,0.6116055846214294,0.0,0.0,-0.7911627888679504,-0.004453959874808788,0.31713545322418213,0.0,0.0,0.0,1.8287522792816162,0.47446390986442566,0.6372960805892944,0.4200000464916229,0.5407485365867615,3.763767608688795e-07,-2.6796776637638686e-06,-0.8411842584609985,3.0879105906933546e-05,-0.0002480077091604471,-7.455074228346348e-05,0.006566533353179693,-0.0021714847534894943,-0.0007078020717017353,0.5563721656799316,0.6650515794754028,0.5835016369819641,-0.5635755062103271,0.30100947618484497,0.5900833010673523,0.47974252700805664,0.6320769190788269,0.42000001668930054,-0.5059714913368225,2.9056851863861084,-1.4248168468475342,3.0,-0.1647254228591919,-0.16291941702365875,-0.15928494930267334,-0.15694308280944824,-0.22882325947284698,-0.14082665741443634,-0.0646355003118515,-4.109460860490799e-08
0.8,0.13227222859859467,-0.012013186700642109,0.0,0.6059257388114929,0.0,0.0,-0.7955211997032166,-0.11450521647930145,-0.12803541123867035,0.0,0.0,0.0,-1.7690715789794922,0.47446390986442566,0.6372960805892944,0.4200000464916229,0.5407485961914062,3.551034808424447e-07,-2.5466160877840593e-06,-0.8411842584609985,3.1213799957185984e-05,-0.0002479436225257814,-7.462408393621445e-05,0.0065630171447992325,-0.0021674863528460264,-0.0007083904929459095,0.5416749715805054,0.6703622341156006,0.5869313478469849,-1.233738899230957,0.3090737760066986,0.009555432945489883,0.47974252700805664,0.6320769190788269,0.42000001668930054,-0.4894314110279083,-0.629684567451477,-1.3747642040252686,2.999999761581421,-0.16572342813014984,-0.16303488612174988,-0.15870939195156097,-0.15574277937412262,0.006914034485816956,0.0487431064248085,0.0771901085972786,0.10532492399215698
0.8166666666666667,0.1326490342617035,-0.008693733252584934,0.0,0.6116218566894531,0.0,0.0,-0.7911502122879028,0.023363567888736725,0.17346404492855072,0.0,0.0,0.0,1.3456439971923828,0.47446390986442566,0.6372960805892944,0.4200000464916229,0.5407484769821167,3.704387836478418e-07,-2.6128227545996197e-06,-0.8411843776702881,3.043088872800581e-05,-0.0002480861730873585,-7.443362846970558e-05,0.006571064703166485,-0.002176438458263874,-0.0007069502025842667,0.5237477421760559,0.6751428246498108,0.5855915546417236,-0.7832289934158325,0.4360074996948242,-0.1573154330253601,0.47974252700805664,0.6320769190788269,0.42000001668930054,-0.4795246720314026,1.6184020042419434,-1.3933603763580322,-3.0000007152557373,-0.16876062750816345,-0.16514064371585846,-0.16011285781860352,-0.1563972681760788,0.03695211932063103,0.02103659324347973,1.1353404261171818e-07,-0.0067647965624928474
0.8333333333333334,0.13455505669116974,-0.009736042469739914,0.0,0.6039130687713623,0.0,0.0,-0.7970501780509949,0.14992555975914001,-0.07666850090026855,0.0,0.0,0.0,-2.149193048477173,0.47446390986442566,0.6372960805892944,0.4200000464916229,0.5407484769821167,3.648086988050636e-07,-2.670686171768466e-06,-0.8411842584609985,3.0878920370014384e-05,-0.00024800884420983493,-7.455190643668175e-05,0.006566548720002174,-0.0021715613547712564,-0.0007078081835061312,0.5116082429885864,0.6817848086357117,0.5791234374046326,-0.7263007760047913,0.27729183435440063,-0.45326367020606995,0.47974252700805664,0.6320769190788269,0.42000001668930054,-0.49792027473449707,-3.0000011920928955,-1.3549330234527588,3.0000009536743164,-0.1664598435163498,-0.16341370344161987,-0.15899065136909485,-0.15553930401802063,0.04366579279303551,0.03497667983174324,0.023103192448616028,0.03173135221004486
0.85,0.13862888514995575,-0.012727392837405205,0.0,0.6080858111381531,0.0,0.0,-0.793871283531189,0.2902282178401947,-0.24429604411125183,0.0,0.0,0.0,1.4705437421798706,0.47446390986442566,0.6372960805892944,0.4200000464916229,0.5407485365867615,3.770184946461086e-07,-2.5385872959304834e-06,-0.8411842584609985,3.110826219199225e-05,-0.00024790861061774194,-7.459847256541252e-05,0.006562761031091213,-0.0021684058010578156,-0.000708059873431921,0.5040401816368103,0.6851047277450562,0.5740714073181152,-0.1926601082086563,0.1544208526611328,-0.14164814352989197,0.47974252700805664,0.6320769190788269,0.42000001668930054,-0.5292049646377563,-0.9090325236320496,-1.3738815784454346,-3.0000007152557373,-0.1675286740064621,-0.16404880583286285,-0.1592330038547516,-0.1550344079732895,-0.09646977484226227,-0.0586133636534214,-0.02152622491121292,0.03884376585483551
0.8666666666666667,0.14499510824680328,-0.018474290147423744,0.0,0.6003617644309998,0.0,0.0,-0.799728512763977,0.4215705394744873,-0.4049076735973358,0.0,0.0,0.0,-2.057727575302124,0.47446390986442566,0.6372960805892944,0.4200000464916229,0.5407485961914062,3.761496145671117e-07,-2.602121867312235e-06,-0.8411842584609985,3.05522044072859e-05,-0.0002480690600350499,-7.448322139680386e-05,0.006569829303771257,-0.002175578149035573,-0.000707231170963496,0.5044852495193481,0.6843935251235962,0.5676800012588501,0.26448750495910645,-0.22472333908081055,-0.4201594293117523,0.47974252700805664,0.6320769190788269,0.42000001668930054,-0.5681954622268677,-3.0000009536743164,-1.33551025390625,3.000000476837158,-0.17052623629570007,-0.1659635305404663,-0.1600152552127838,-0.15425145626068115,-0.1853773295879364,-0.10181879997253418,-0.013010963797569275,0.1030496209859848
0.8833333333333333,0.154216930270195,-0.021613016724586487,0.0,0.5714151263237,0.0,0.0,-0.820661187171936,0.5960886478424072,-0.14297135174274445,0.0,0.0,0.0,-5.126525402069092,0.47446390986442566,0.6372960805892944,0.4200000464916229,0.5407484769821167,3.8659672441099246e-07,-2.663033455974073e-06,-0.8411843776702881,3.064207703573629e-05,-0.00024799007223919034,-7.447577081620693e-05,0.006567605771124363,-0.00217343564145267,-0.0007071574800647795,0.5125843286514282,0.6794811487197876,0.5628659129142761,0.695907711982727,-0.29741549491882324,-0.016190147027373314,0.47974252700805664,0.6320769190788269,0.42000001668930054,-0.5928398966789246,-0.18204273283481598,-1.354809045791626,-2.9999988079071045,-0.17451691627502441,-0.169099360704422,-0.16219346225261688,-0.15501277148723602,-0.17567205429077148,-0.16249123215675354,-0.14318861067295074,-0.09668635576963425
0.9,0.16078045964241028,-0.022519506514072418,0.0,0.5580568313598633,0.0,0.0,-0.8298027515411377,0.30853891372680664,-0.012661957181990147,0.0,0.0,0.0,-0.909796953201294,0.47446390986442566,0.6372960805892944,0.4200000464916229,0.5407484769821167,3.683068996451766e-07,-2.7176097319170367e-06,-0.8411842584609985,3.0972223612479866e-05,-0.0002479648101143539,-7.456936873495579e-05,0.0065649994648993015,-0.0021701857913285494,-0.0007078883936628699,0.522952139377594,0.6781578063964844,0.5635653138160706,0.49395906925201416,0.07105259597301483,0.04120667651295662,0.47974252700805664,0.6320769190788269,0.42000001668930054,-0.5729373097419739,2.3347177505493164,-1.3976935148239136,-2.1827266216278076,-0.17500214278697968,-0.1700046807527542,-0.16345414519309998,-0.1562245935201645,0.0632072314620018,0.009654397144913673,-0.04347950220108032,-0.07639483362436295
