vladlanda/robotic-transformer/data/env_000_episode_0049.csv
sim_time_s,robot_box_x,robot_box_y,robot_box_z,robot_box_quat_w,robot_box_quat_x,robot_box_quat_y,robot_box_quat_z,robot_box_linvel_x,robot_box_linvel_y,robot_box_linvel_z,robot_box_angvel_x,robot_box_angvel_y,robot_box_angvel_z,cube_world_x,cube_world_y,cube_world_z,cube_quat_w,cube_quat_x,cube_quat_y,cube_quat_z,cube_linvel_x,cube_linvel_y,cube_linvel_z,cube_angvel_x,cube_angvel_y,cube_angvel_z,endpoint_world_x,endpoint_world_y,endpoint_world_z,endpoint_linvel_x,endpoint_linvel_y,endpoint_linvel_z,target_cube_world_x,target_cube_world_y,target_cube_world_z,gripper_actual_pos_rad_gp_leftgearjoint,gripper_actual_vel_rad_s_gp_leftgearjoint,gripper_actual_pos_rad_gp_rotatingjoint,gripper_actual_vel_rad_s_gp_rotatingjoint,motor_angle_rad_joint1,motor_angle_rad_joint2,motor_angle_rad_joint3,motor_angle_rad_joint4,motor_speed_rad_s_joint1,motor_speed_rad_s_joint2,motor_speed_rad_s_joint3,motor_speed_rad_s_joint4
0.0,0.0,0.0,0.0,1.0,0.0,0.0,0.0,0.0,0.0,0.0,0.0,0.0,0.0,-0.3428138792514801,0.6226984262466431,0.41999998688697815,1.0,0.0,0.0,0.0,0.0,0.0,0.0,0.0,0.0,0.0,3.42540442943573e-06,-0.005000244826078415,1.313499927520752,0.0,0.0,0.0,0.39455705881118774,0.6228101849555969,0.42000001668930054,-1.5707999467849731,0.0,0.0,0.0,0.0,0.0,0.0,0.0,0.0,0.0,0.0,0.0
0.016666666666666666,0.0029041811358183622,0.0021358756348490715,0.0,0.9998683929443359,0.0,0.0,0.01622418873012066,0.24138744175434113,0.18123386800289154,0.0,0.0,0.0,3.142113447189331,-0.34281399846076965,0.6226981282234192,0.41999998688697815,1.0,3.2799914606584935e-06,-8.339814598912199e-07,8.465387679734704e-08,-1.9833554688375443e-05,0.00017983050202019513,-6.133061833679676e-05,0.0009432226070202887,-0.004689437802881002,-0.0003198152990080416,-0.007095919921994209,0.003464320907369256,1.3159456253051758,-0.8120458722114563,0.989439845085144,0.18092133104801178,0.39455705881118774,0.6228101849555969,0.42000001668930054,-1.5301096439361572,3.0000011920928955,-0.045854438096284866,-3.0000009536743164,0.0008773248409852386,0.0008034713682718575,0.0007174358470365405,0.0006180141936056316,0.11081457138061523,0.09746457636356354,0.08325514942407608,0.06812949478626251
0.03333333333333333,0.00898993294686079,0.006739246193319559,0.0,0.9998582601547241,0.0,0.0,0.016836432740092278,0.40717583894729614,0.3142419755458832,0.0,0.0,0.0,-0.8682591319084167,-0.3428141176700592,0.6226980686187744,0.4200000464916229,1.0,3.39090593115543e-06,-2.1324372028175276e-06,-3.7106541839193596e-08,0.0002635782293509692,0.0002693790593184531,-0.00010509486310184002,-0.0017707175575196743,0.004130743443965912,-0.00013547750131692737,-0.027397260069847107,0.026119491085410118,1.3166468143463135,-1.5815330743789673,1.6197593212127686,-0.07966777682304382,0.39455705881118774,0.6228101849555969,0.42000001668930054,-1.4800903797149658,3.000000476837158,-0.09589425474405289,-3.0,0.0029898888897150755,0.0026523179840296507,0.0022769346833229065,0.0018612752901390195,0.16368062794208527,0.1392781287431717,0.11338121443986893,0.0858757495880127
0.05,0.018492305651307106,0.013825884088873863,0.0,0.9999473690986633,0.0,0.0,-0.010259443894028664,0.6354140043258667,0.47109243273735046,0.0,0.0,0.0,-4.074288368225098,-0.3428141474723816,0.6226981282234192,0.4200000464916229,1.0,3.765230758290272e-06,-2.211922264905297e-06,5.6083799826467384e-09,0.0002653090050444007,0.00026691501261666417,-0.00010440615005791187,-0.00172435212880373,0.0041774665005505085,-0.0001294955873163417,-0.05709996446967125,0.05666753649711609,1.3122221231460571,-1.9678431749343872,1.9784423112869263,-0.4303661584854126,0.39455705881118774,0.6228101849555969,0.42000001668930054,-1.4300647974014282,3.000004529953003,-0.10312023758888245,1.7329508066177368,0.005993185564875603,0.005156961735337973,0.004248328506946564,0.0032633745577186346,0.20570556819438934,0.1656469851732254,0.12366300821304321,0.0796540379524231
0.06666666666666667,0.030798235908150673,0.02329893410205841,0.0,0.9998221397399902,0.0,0.0,-0.018859051167964935,0.7717166543006897,0.6151973605155945,0.0,0.0,0.0,-0.03602876886725426,-0.3428141474723816,0.6226980686187744,0.4200000464916229,0.9999999403953552,3.406835730856983e-06,-2.2856456780573353e-06,4.3008122929677484e-07,0.0002670265967026353,0.0002679176104720682,-0.0001043803058564663,-0.0017406701808795333,0.004211854189634323,-0.0001285061298403889,-0.09409056603908539,0.08737638592720032,1.3025039434432983,-2.3496010303497314,1.8967869281768799,-0.7343733906745911,0.39455705881118774,0.6228101849555969,0.42000001668930054,-1.380053162574768,3.0000007152557373,-0.1419769525527954,-3.000000476837158,0.008658482693135738,0.007099172566086054,0.005427655763924122,0.003637217916548252,0.14552463591098785,0.09405224025249481,0.0404195636510849,-0.015419680625200272
0.08333333333333333,0.04553074389696121,0.030559347942471504,0.0,0.9991371035575867,0.0,0.0,-0.041533246636390686,0.9503657817840576,0.37612250447273254,0.0,0.0,0.0,-3.5338473320007324,-0.3428141474723816,0.6226980686187744,0.4200000464916229,1.0,3.6973383430449758e-06,-2.188984808526584e-06,-2.6323331780986337e-07,0.0002638960722833872,0.0002658652374520898,-0.00010433932766318321,-0.0017081378027796745,0.00415008282288909,-0.0001299151626881212,-0.13067886233329773,0.12546080350875854,1.287793517112732,-2.0450961589813232,2.602853298187256,-0.9999045133590698,0.39455705881118774,0.6228101849555969,0.42000001668930054,-1.3300249576568604,2.999997854232788,-0.10848008096218109,3.0,0.009803551249206066,0.007190328557044268,0.004421486984938383,0.0014919161330908537,0.028715096414089203,-0.04830280318856239,-0.1275317519903183,-0.2089327573776245
0.1,0.05494250729680061,0.035008467733860016,0.0,0.9955166578292847,0.0,0.0,-0.09458640962839127,0.42401808500289917,0.18729358911514282,0.0,0.0,0.0,-7.329278945922852,-0.3428141474723816,0.6226980686187744,0.4200000464916229,0.9999999403953552,3.6204280604579253e-06,-2.265225475639454e-06,1.7461863421885937e-07,0.00026676725246943533,0.0002674070419743657,-0.00010408065281808376,-0.0017385295359417796,0.004209065344184637,-0.00012775739014614373,-0.16444116830825806,0.1701829731464386,1.2674078941345215,-2.018881320953369,2.783257007598877,-1.3772268295288086,0.39455705881118774,0.6228101849555969,0.42000001668930054,-1.2800287008285522,3.00000262260437,-0.14054471254348755,-3.0000009536743164,0.00460862647742033,0.0011434167390689254,-0.0025244043208658695,-0.006403150036931038,-0.43610426783561707,-0.4814983308315277,-0.5292710661888123,-0.579672634601593
0.11666666666666667,0.058190666139125824,0.042855873703956604,0.0,0.991622805595398,0.0,0.0,-0.12916718423366547,0.39069369435310364,0.3721083104610443,0.0,0.0,0.0,-2.4960052967071533,-0.3428141474723816,0.6226980686187744,0.4200000464916229,1.0,3.7983741094649304e-06,-2.2627561975241406e-06,-1.5019411137018324e-07,0.00026374030858278275,0.00026566023007035255,-0.00010428880341351032,-0.001705368747934699,0.004147524479776621,-0.00012980001338291913,-0.20295658707618713,0.21505755186080933,1.2370870113372803,-2.3347039222717285,2.9225893020629883,-1.890345573425293,0.39455705881118774,0.6228101849555969,0.42000001668930054,-1.230010986328125,2.9999849796295166,-0.10701517015695572,3.0000014305114746,-0.005156740080565214,-0.009240199811756611,-0.013545563444495201,-0.01808743365108967,-0.13084837794303894,-0.23538939654827118,-0.33581191301345825,-0.43206533789634705
0.13333333333333333,0.070729099214077,0.04552142322063446,0.0,0.9850809574127197,0.0,0.0,-0.17209160327911377,0.8077917098999023,0.1914251297712326,0.0,0.0,0.0,-5.908331394195557,-0.3428141474723816,0.6226981282234192,0.4200000464916229,0.9999999403953552,3.550490419002017e-06,-2.2297924715530826e-06,2.9292351655385573e-07,0.0002670329122338444,0.0002677924057934433,-0.00010416773147881031,-0.001743975793942809,0.004213578533381224,-0.0001280030410271138,-0.23856335878372192,0.2673179507255554,1.2041511535644531,-1.891197919845581,3.440795421600342,-2.1578612327575684,0.39455705881118774,0.6228101849555969,0.42000001668930054,-1.1800109148025513,2.9999990463256836,-0.13907241821289062,-2.999999761581421,-0.004405016545206308,-0.010663955472409725,-0.017054961994290352,-0.02358991838991642,-0.14088183641433716,-0.2495890110731125,-0.3543880581855774,-0.45512112975120544
0.15,0.07826607674360275,0.05111789330840111,0.0,0.9802394509315491,0.0,0.0,-0.197814479470253,0.4214833974838257,0.33749842643737793,0.0,0.0,0.0,-1.4791209697723389,-0.3428141474723816,0.6226980686187744,0.4200000464916229,0.9999999403953552,3.338063152114046e-06,-2.2428623651649104e-06,-2.8019764286568716e-08,0.00026674510445445776,0.0002675803261809051,-0.00010427739471197128,-0.0017366883112117648,0.0042068189941346645,-0.00012831240019295365,-0.2739679217338562,0.32075342535972595,1.1589844226837158,-2.090092420578003,3.3291642665863037,-3.019282817840576,0.39455705881118774,0.6228101849555969,0.42000001668930054,-1.130005955696106,3.0000009536743164,-0.10556233674287796,3.0000011920928955,-0.012887218967080116,-0.02002188190817833,-0.027251115068793297,-0.03459201008081436,-0.4211405813694,-0.4811076819896698,-0.5369837880134583,-0.5889292359352112
0.16666666666666666,0.0834631472826004,0.054191529750823975,0.0,0.9732117652893066,0.0,0.0,-0.2299104928970337,0.2634994089603424,0.12529250979423523,0.0,0.0,0.0,-4.796591758728027,-0.3428141474723816,0.6226981282234192,0.4200000464916229,0.9999999403953552,3.6477927096711937e-06,-2.3072821022651624e-06,3.5273473031338654e-08,0.00026726932264864445,0.0002680143225006759,-0.00010418728925287724,-0.001747259870171547,0.004217622336000204,-0.00012798597163055092,-0.305266797542572,0.3794429898262024,1.103996753692627,-1.5874059200286865,3.686465263366699,-3.550597667694092,0.39455705881118774,0.6228101849555969,0.42000001668930054,-1.0800005197525024,2.999998092651367,-0.13762466609477997,-2.999999761581421,-0.021019060164690018,-0.029083071276545525,-0.03716854378581047,-0.0452967993915081,-0.5533357262611389,-0.5997222661972046,-0.6420642733573914,-0.6806414723396301
0.18333333333333332,0.08458101749420166,0.05909769609570503,0.0,0.9581067562103271,0.0,0.0,-0.2864114046096802,-0.008262068033218384,0.3564104437828064,0.0,0.0,0.0,-7.792492866516113,-0.3428141474723816,0.6226980686187744,0.4200000464916229,0.9999999403953552,3.290506583653041e-06,-2.193882892242982e-06,-2.792363034131995e-07,0.000266780611127615,0.00026776042068377137,-0.0001043418888002634,-0.0017391631845384836,0.0042070988565683365,-0.00012845758465118706,-0.3291241228580475,0.44514134526252747,1.0357985496520996,-1.0930718183517456,4.087103843688965,-4.503360748291016,0.39455705881118774,0.6228101849555969,0.42000001668930054,-1.0299973487854004,2.999997615814209,-0.1876523643732071,-2.999999761581421,-0.03347010165452957,-0.04191770777106285,-0.050319112837314606,-0.058702778071165085,-0.8354660868644714,-0.8400067090988159,-0.840958833694458,-0.8387944102287292
0.2,0.08996783941984177,0.06375892460346222,0.0,0.9458115696907043,0.0,0.0,-0.3247160315513611,0.4368075728416443,0.25366687774658203,0.0,0.0,0.0,-3.8218536376953125,-0.3428141474723816,0.6226980686187744,0.4200000464916229,1.0,3.2807513434818247e-06,-2.219149109805585e-06,1.594698204598899e-07,0.0002662786573637277,0.000267401133896783,-0.00010424992069602013,-0.0017357232281938195,0.004197727423161268,-0.00012864978634752333,-0.3490907847881317,0.5058631300926208,0.9552380442619324,-0.8445833921432495,3.5274300575256348,-5.1566362380981445,0.39455705881118774,0.6228101849555969,0.42000001668930054,-0.9799904823303223,2.9999964237213135,-0.23768176138401031,-2.999999761581421,-0.04574616998434067,-0.05399709194898605,-0.062166959047317505,-0.0702953189611435,-0.7311605215072632,-0.7047322988510132,-0.6773872375488281,-0.6498029828071594
0.21666666666666667,0.09214240312576294,0.06892412155866623,0.0,0.9434406757354736,0.0,0.0,-0.33154135942459106,0.0809641182422638,0.36657410860061646,0.0,0.0,0.0,0.19102619588375092,-0.3428141474723816,0.6226981282234192,0.4200000464916229,1.0,3.613105945987627e-06,-2.2700548925058683e-06,2.2101254160133976e-07,0.0002671255497261882,0.00026781795895658433,-0.00010414235293865204,-0.0017445943085476756,0.004215254448354244,-0.000127866180264391,-0.36832165718078613,0.5519307851791382,0.8665122985839844,-1.003101110458374,2.4038310050964355,-5.482942581176758,0.39455705881118774,0.6228101849555969,0.42000001668930054,-0.9299798011779785,2.9999966621398926,-0.28771305084228516,-2.9999990463256836,-0.060928959399461746,-0.06878448277711868,-0.07652905583381653,-0.08393613249063492,-0.8185580968856812,-0.8467917442321777,-0.8719483017921448,-0.862322211265564
0.23333333333333334,0.09073837846517563,0.07236416637897491,0.0,0.9370065331459045,0.0,0.0,-0.349311888217926,-0.1491134911775589,0.15556371212005615,0.0,0.0,0.0,-3.09580135345459,-0.3428141474723816,0.6226980686187744,0.4200000464916229,1.0,3.3818123483797535e-06,-2.29084980674088e-06,2.7279790515422064e-07,0.0002669129753485322,0.00026779924519360065,-0.00010433141142129898,-0.0017395684262737632,0.004209680482745171,-0.00012843731383327395,-0.3809313476085663,0.5895833373069763,0.7684466242790222,-0.48557543754577637,1.929426908493042,-6.079465866088867,0.39455705881118774,0.6228101849555969,0.42000001668930054,-0.8799691200256348,2.9999947547912598,-0.3377453684806824,-2.999997615814209,-0.07716774940490723,-0.08503103256225586,-0.0927831307053566,-0.10011312365531921,-0.9906474351882935,-0.9924605488777161,-0.9938502907752991,-0.9931113719940186
0.25,0.09149064123630524,0.0718962550163269,0.0,0.936837375164032,0.0,0.0,-0.34976524114608765,0.121818408370018,-0.09222310036420822,0.0,0.0,0.0,0.8186041116714478,-0.3428141176700592,0.6226980686187744,0.4200000464916229,0.9999999403953552,3.7065203741804e-06,-2.2228459783946164e-06,-2.255132756090461e-07,0.00026424904353916645,0.0002665679494384676,-0.00010457634925842285,-0.0017169411294162273,0.004155544564127922,-0.00013062905054539442,-0.38962674140930176,0.6118727922439575,0.6664107441902161,-0.3665168881416321,0.8086772561073303,-6.116918563842773,0.39455705881118774,0.6228101849555969,0.42000001668930054,-0.8299597501754761,2.9999845027923584,-0.3877773582935333,-3.000000476837158,-0.09390224516391754,-0.1016959697008133,-0.10935238748788834,-0.11657608300447464,-0.9937922358512878,-0.9948215484619141,-0.9956726431846619,-0.9963979721069336
0.26666666666666666,0.08926435559988022,0.06951774656772614,0.0,0.9314323663711548,0.0,0.0,-0.36391445994377136,-0.22311852872371674,-0.16930975019931793,0.0,0.0,0.0,-2.7184531688690186,-0.3428141474723816,0.6226980686187744,0.4200000464916229,0.9999999403953552,3.7195993627392454e-06,-2.40332542489341e-06,-1.8308921312382154e-07,0.00026623232406564057,0.00026729132514446974,-0.00010425853542983532,-0.0017326984088867903,0.004196567460894585,-0.000128512445371598,-0.3872293531894684,0.6187077760696411,0.5653772354125977,0.5886551141738892,0.033202581107616425,-5.801868438720703,0.39455705881118774,0.6228101849555969,0.42000001668930054,-0.7799509763717651,3.0000007152557373,-0.43780842423439026,-3.0000014305114746,-0.11219744384288788,-0.11959287524223328,-0.12694500386714935,-0.13392750918865204,-1.0092849731445312,-1.006981372833252,-1.005224585533142,-1.003829836845398
0.2833333333333333,0.08407822996377945,0.06530680507421494,0.0,0.9319284558296204,0.0,0.0,-0.36264216899871826,-0.2939291000366211,-0.31154125928878784,0.0,0.0,0.0,1.108063817024231,-0.3428141474723816,0.6226981282234192,0.4200000464916229,0.9999999403953552,3.5840330383507535e-06,-2.31531180361344e-06,7.403321689025688e-08,0.0002652195980772376,0.0002645523054525256,-0.00010317121632397175,-0.0017020339146256447,0.004185074009001255,-0.00012500229058787227,-0.37592440843582153,0.6224777698516846,0.47645309567451477,0.8391914367675781,0.3986802101135254,-4.972099304199219,0.39455705881118774,0.6228101849555969,0.42000001668930054,-0.7299423217773438,3.0000014305114746,-0.48783764243125916,-3.0,-0.12945620715618134,-0.13674591481685638,-0.1440223902463913,-0.15094546973705292,-1.0197832584381104,-1.0149526596069336,-1.0112571716308594,-1.0082980394363403
0.3,0.07750233262777328,0.05875936150550842,0.0,0.926934003829956,0.0,0.0,-0.37522435188293457,-0.4425763189792633,-0.43067747354507446,0.0,0.0,0.0,-2.511192560195923,-0.3428141474723816,0.6226980686187744,0.4200000464916229,1.0,3.7241927657305496e-06,-2.2717581487086136e-06,9.636217157549254e-08,0.00026312493719160557,0.00026525757857598364,-0.0001043833326548338,-0.0016961178043857217,0.004134873393923044,-0.00013027516251895577,-0.3684288263320923,0.6267133951187134,0.4269227683544159,0.14081746339797974,-0.07367534935474396,-0.23955601453781128,0.39455705881118774,0.6228101849555969,0.42000001668930054,-0.6799379587173462,3.00000262260437,-0.5382580161094666,-3.0015900135040283,-0.1459345519542694,-0.15283407270908356,-0.15905901789665222,-0.16478228569030762,-0.7316775321960449,-0.7219233512878418,-0.6167692542076111,-0.48807477951049805
0.31666666666666665,0.06877423077821732,0.050218187272548676,0.0,0.9282726049423218,0.0,0.0,-0.37190043926239014,-0.5636081695556641,-0.5508216023445129,0.0,0.0,0.0,1.3644217252731323,-0.3419937193393707,0.6243178844451904,0.42004886269569397,0.9997954368591309,0.0012305609416216612,1.8835071387002245e-05,-0.02018892765045166,0.2191460132598877,0.3645518124103546,0.0160009004175663,0.800518274307251,-0.0011695831781253219,-7.438431262969971,-0.36532607674598694,0.6330736875534058,0.4243471920490265,0.3169706463813782,0.43969905376434326,-0.16472561657428741,0.39455705881118774,0.6228101849555969,0.42000001668930054,-0.629931628704071,2.9999446868896484,-0.5883249044418335,-3.0000014305114746,-0.15820050239562988,-0.16412344574928284,-0.16800250113010406,-0.17100049555301666,-0.7170478105545044,-0.6299644112586975,-0.47235074639320374,-0.29313117265701294
0.3333333333333333,0.05771563574671745,0.03943891078233719,0.0,0.9238842129707336,0.0,0.0,-0.38267219066619873,-0.7078436613082886,-0.6865953803062439,0.0,0.0,0.0,-2.3271560668945312,-0.338797926902771,0.6296895742416382,0.4200000464916229,0.9974365830421448,3.4124164471904805e-07,1.8803458488036995e-06,-0.07155508548021317,0.18031319975852966,0.3043026328086853,-2.511078491806984e-07,-8.745456398173701e-06,-9.877519914880395e-06,-5.663671016693115,-0.35957205295562744,0.6374390721321106,0.42428362369537354,0.4250367283821106,0.22552065551280975,0.14841032028198242,0.39455705881118774,0.6228101849555969,0.42000001668930054,-0.5799266695976257,2.999995470046997,-0.6383715867996216,-3.0000007152557373,-0.17039017379283905,-0.17430280148983002,-0.17514078319072723,-0.174727663397789,-0.6942731142044067,-0.5452995896339417,-0.3457821011543274,-0.12680041790008545
0.35,0.046644289046525955,0.02651876211166382,0.0,0.9255720973014832,0.0,0.0,-0.37857139110565186,-0.6492089629173279,-0.8137888312339783,0.0,0.0,0.0,1.4944392442703247,-0.33457431197166443,0.6360089778900146,0.4200006127357483,0.9911108613014221,-3.3885899028973654e-05,1.9229704776080325e-05,-0.1330382376909256,0.2858198285102844,0.41357555985450745,-0.0020511215552687645,0.10323108732700348,-0.025514783337712288,-8.149107933044434,-0.3493594527244568,0.6445268392562866,0.4241979122161865,0.8157161474227905,0.6116563081741333,-0.12700705230236053,0.39455705881118774,0.6228101849555969,0.42000001668930054,-0.5299217104911804,2.9999876022338867,-0.6883975267410278,-3.0000011920928955,-0.1827409714460373,-0.18351249396800995,-0.18055588006973267,-0.1760902851819992,-0.6865042448043823,-0.48879244923591614,-0.2611754238605499,-0.02018864080309868
0.36666666666666664,0.039510373026132584,0.011122819036245346,0.0,0.9214851260185242,0.0,0.0,-0.3884136974811554,-0.3423061668872833,-0.9705420732498169,0.0,0.0,0.0,-2.203403949737549,-0.32627278566360474,0.6466796398162842,0.4199998676776886,0.9702067375183105,3.3544190955581143e-05,-3.0155788408592343e-05,-0.2422785609960556,0.4949219524860382,0.6296300292015076,-0.00017827058036345989,-0.005868565756827593,0.01519812922924757,-5.030460357666016,-0.33323830366134644,0.652673602104187,0.41983985900878906,1.0455048084259033,0.3667048513889313,-0.013107694685459137,0.39455705881118774,0.6228101849555969,0.42000001668930054,-0.47991570830345154,2.9999794960021973,-0.7384554147720337,-2.999997615814209,-0.19284503161907196,-0.19017790257930756,-0.18337129056453705,-0.17482399940490723,-0.48574110865592957,-0.27465492486953735,-0.043888308107852936,0.20091623067855835
0.3833333333333333,0.030028218403458595,-0.005715418141335249,0.0,0.9048083424568176,0.0,0.0,-0.42581906914711,-0.6463255286216736,-1.0409029722213745,0.0,0.0,0.0,-5.858335971832275,-0.3104467988014221,0.6625235676765442,0.4205763041973114,0.9608851671218872,0.0052761295810341835,-0.008942651562392712,-0.2767522931098938,1.3026738166809082,1.204459309577942,0.06300286948680878,-1.787341833114624,-2.822721481323242,-6.050549507141113,-0.31192612648010254,0.6636792421340942,0.421392560005188,1.5884430408477783,0.9144799709320068,0.19208329916000366,0.39455705881118774,0.6228101849555969,0.42000001668930054,-0.42991185188293457,3.0000007152557373,-0.7884979844093323,-2.999999523162842,-0.20156748592853546,-0.19549451768398285,-0.18506264686584473,-0.1726870983839035,-0.45500391721725464,-0.2778255045413971,-0.09514721482992172,0.0968354344367981
0.4,0.023696277290582657,-0.025522813200950623,0.0,0.8733457326889038,0.0,0.0,-0.48710083961486816,-0.332687109708786,-1.2375646829605103,0.0,0.0,0.0,-9.020768165588379,-0.2694651782512665,0.6831576824188232,0.4258183240890503,0.9433317184448242,0.004447296727448702,-0.03910691663622856,-0.3295089602470398,3.6706230640411377,1.594636082649231,0.2741743326187134,26.895713806152344,-23.433197021484375,4.996234893798828,-0.27059972286224365,0.6851341724395752,0.42605060338974,3.38126277923584,1.5961902141571045,0.6088284254074097,0.39455705881118774,0.6228101849555969,0.42000001668930054,-0.39142411947250366,1.2813602685928345,-0.8385219573974609,-3.0000011920928955,-0.20958393812179565,-0.20012210309505463,-0.18632052838802338,-0.17049989104270935,-0.5486356616020203,-0.3121235966682434,-0.08369209617376328,0.14353220164775848
0.4166666666666667,0.019663993269205093,-0.04011668637394905,0.0,0.8247091174125671,0.0,0.0,-0.5655571222305298,-0.15964269638061523,-0.9224734306335449,0.0,0.0,0.0,-11.71057415008545,-0.186012402176857,0.7116082906723022,0.4330168068408966,0.9176802039146423,0.06270786374807358,-0.08774500340223312,-0.38240233063697815,6.399465560913086,1.7009687423706055,0.41705992817878723,4.899009704589844,-7.006988048553467,11.414284706115723,-0.18723195791244507,0.7138679027557373,0.43344640731811523,6.1262593269348145,2.083354949951172,0.5182592272758484,0.39455705881118774,0.6228101849555969,0.42000001668930054,-0.37357476353645325,1.0100234746932983,-0.8015658855438232,2.999840497970581,-0.2245139479637146,-0.21098612248897552,-0.19216488301753998,-0.17175115644931793,-0.5356647372245789,-0.46294277906417847,-0.24426183104515076,-0.05141058191657066
0.43333333333333335,0.019125593826174736,-0.05296066403388977,0.0,0.783276379108429,0.0,0.0,-0.6216736435890198,0.03111128881573677,-0.7116763591766357,0.0,0.0,0.0,-7.226189136505127,-0.08441740274429321,0.7411553263664246,0.44426292181015015,0.86143559217453,0.0975959524512291,-0.11324813961982727,-0.4853643476963043,6.133816242218018,0.8416677713394165,0.7848241925239563,14.229043006896973,-9.401494979858398,15.015172958374023,-0.08625639230012894,0.7441829442977905,0.44451308250427246,6.07945442199707,1.36020827293396,0.7227646708488464,0.39455705881118774,0.6228101849555969,0.42000001668930054,-0.35613057017326355,1.0726675987243652,-0.8280392289161682,-3.00000262260437,-0.23377639055252075,-0.218930184841156,-0.19708196818828583,-0.17419792711734772,-0.48506709933280945,-0.4092322885990143,-0.26547402143478394,-0.1578272581100464
0.45,0.01601272262632847,-0.06032557412981987,0.0,0.7625694274902344,0.0,0.0,-0.646906316280365,-0.15528744459152222,-0.40821272134780884,0.0,0.0,0.0,-2.559026002883911,0.013869598507881165,0.7522293329238892,0.4558422565460205,0.7851521968841553,0.11359481513500214,-0.129824697971344,-0.5947921276092529,5.544750213623047,-0.42479532957077026,0.6721929907798767,-9.107629776000977,2.8954975605010986,7.668349266052246,0.01040731742978096,0.7563425898551941,0.4555206000804901,5.780577182769775,0.26887479424476624,0.7129669189453125,0.39455705881118774,0.6228101849555969,0.42000001668930054,-0.3376637399196625,1.0534968376159668,-0.8780645728111267,-2.9999990463256836,-0.23996862769126892,-0.22854600846767426,-0.20392616093158722,-0.17899209260940552,-0.02649189904332161,-0.49984458088874817,-0.38525038957595825,-0.3089064061641693
0.4666666666666667,0.016068482771515846,-0.06457211077213287,0.0,0.7355903387069702,0.0,0.0,-0.6774266362190247,0.059347495436668396,-0.20360158383846283,0.0,0.0,0.0,-5.798271656036377,0.10488422214984894,0.7471977472305298,0.46250247955322266,0.7302452921867371,0.10942535847425461,-0.12283917516469955,-0.6630824208259583,5.433919906616211,-0.4685463309288025,0.19003601372241974,-4.283456802368164,-8.623601913452148,10.540328025817871,0.10136643052101135,0.7529933452606201,0.46214377880096436,5.205106735229492,-0.7193212509155273,0.3027719259262085,0.39455705881118774,0.6228101849555969,0.42000001668930054,-0.3242031931877136,0.7004173994064331,-0.92808997631073,-2.9991159439086914,-0.24004046618938446,-0.23567962646484375,-0.20945535600185394,-0.18334829807281494,0.01866699568927288,-0.2910327911376953,-0.2173352837562561,-0.16011705994606018
0.48333333333333334,0.015244722366333008,-0.06507416069507599,0.0,0.7220444679260254,0.0,0.0,-0.6918466687202454,-0.12359749525785446,0.037236105650663376,0.0,0.0,0.0,-1.2309356927871704,0.18760016560554504,0.7296939492225647,0.4647837281227112,0.6760368347167969,0.09135311096906662,-0.10727132856845856,-0.7232714295387268,4.595183372497559,-1.5304179191589355,-0.0799308493733406,-3.8793187141418457,-5.172406196594238,-4.284132480621338,0.18412816524505615,0.735916793346405,0.46429920196533203,4.65674352645874,-1.3489806652069092,0.06712739169597626,0.39455705881118774,0.6228101849555969,0.42000001668930054,-0.31189993023872375,0.9209450483322144,-0.9781140089035034,-3.0000011920928955,-0.23998470604419708,-0.23998382687568665,-0.2135520726442337,-0.18683776259422302,1.0253279469907284e-07,-0.0017969232285395265,-0.2114337682723999,-0.21509751677513123
0.5,0.016999972984194756,-0.07128584384918213,0.0,0.6987454295158386,0.0,0.0,-0.7153704166412354,0.18603166937828064,-0.5202552676200867,0.0,0.0,0.0,-5.01316499710083,0.26020848751068115,0.7061416506767273,0.4577488601207733,0.6099281907081604,0.030532924458384514,-0.13230328261852264,-0.7807375192642212,3.8424735069274902,-2.0113346576690674,-0.9440796971321106,-34.48738098144531,13.322877883911133,-1.7938525676727295,0.2565705478191376,0.7137309312820435,0.4597708582878113,4.0545759201049805,-1.4627273082733154,-0.32815122604370117,0.39455705881118774,0.6228101849555969,0.42000001668930054,-0.2946407198905945,0.8775546550750732,-1.028136968612671,-2.9999759197235107,-0.23318664729595184,-0.2339220941066742,-0.2120104730129242,-0.18683913350105286,0.5499041676521301,0.5136841535568237,0.23286889493465424,0.09979996085166931
0.5166666666666666,0.020629605278372765,-0.07568235695362091,0.0,0.6881087422370911,0.0,0.0,-0.7256075739860535,0.23328909277915955,-0.15176203846931458,0.0,0.0,0.0,-0.7246088981628418,0.3180970549583435,0.6790443062782288,0.44652166962623596,0.5715656876564026,-0.0013352662790566683,-0.10986382514238358,-0.813167154788971,2.9699010848999023,-2.239272117614746,-0.5155770182609558,0.2958632707595825,9.675493240356445,3.5304298400878906,0.3151624798774719,0.6867488026618958,0.44900381565093994,3.0167431831359863,-1.7142866849899292,-0.7902073860168457,0.39455705881118774,0.6228101849555969,0.42000001668930054,-0.28296974301338196,0.362531840801239,-1.0781590938568115,-2.997668981552124,-0.22646860778331757,-0.22704565525054932,-0.20927387475967407,-0.18638277053833008,0.35327693819999695,0.3859155476093292,0.15315771102905273,3.1245872378349304e-07
0.5333333333333333,0.02578430436551571,-0.07457253336906433,0.0,0.6689186096191406,0.0,0.0,-0.7433356642723083,0.3497685194015503,0.14576423168182373,0.0,0.0,0.0,-4.078619956970215,0.3615178167819977,0.6543570160865784,0.42849284410476685,0.5528632998466492,-0.04042552411556244,-0.08916513621807098,-0.8275007605552673,2.1669139862060547,-1.416655421257019,-1.2336432933807373,0.3711506724357605,6.405323028564453,-3.2737295627593994,0.358434796333313,0.6613665819168091,0.4313417673110962,2.1977105140686035,-1.4334073066711426,-1.2174162864685059,0.39455705881118774,0.6228101849555969,0.42000001668930054,-0.27423158288002014,0.8078994750976562,-1.1281812191009521,-2.9998953342437744,-0.22003957629203796,-0.2205430120229721,-0.2069845199584961,-0.18729855120182037,0.42636430263519287,0.4172806441783905,0.15749457478523254,-0.061960455030202866
0.55,0.03392082080245018,-0.07819011062383652,0.0,0.6617210507392883,0.0,0.0,-0.7497501373291016,0.44277384877204895,-0.1779588907957077,0.0,0.0,0.0,-0.19499076902866364,0.3857358694076538,0.6393842697143555,0.42185157537460327,0.5519806742668152,-0.04098212346434593,-0.02501548081636429,-0.8324733376502991,0.7703885436058044,-0.724701464176178,0.135149285197258,-10.435615539550781,2.388828992843628,0.8105939626693726,0.38286086916923523,0.6454231142997742,0.4239571690559387,0.7704399824142456,-0.6222023367881775,0.22022013366222382,0.39455705881118774,0.6228101849555969,0.42000001668930054,-0.2581026256084442,0.8350096940994263,-1.1543203592300415,-0.26202404499053955,-0.2083175778388977,-0.20958413183689117,-0.2006712108850479,-0.1851552277803421,0.5766187906265259,0.5644505620002747,0.3309943675994873,0.10746099799871445
0.5666666666666667,0.03947965428233147,-0.07772237807512283,0.0,0.6466289758682251,0.0,0.0,-0.7628046870231628,0.2770997881889343,0.06499981135129929,0.0,0.0,0.0,-3.238866090774536,0.39631253480911255,0.6297169327735901,0.4211472272872925,0.5732094049453735,-0.023531144484877586,-0.01443501003086567,-0.8189436793327332,0.3576917350292206,-0.7571561932563782,0.03249594569206238,-5.523982048034668,-0.31782084703445435,11.14483642578125,0.39259058237075806,0.6346040964126587,0.42325305938720703,0.3523911237716675,-0.48546236753463745,0.04852650687098503,0.39455705881118774,0.6228101849555969,0.42000001668930054,-0.24915364384651184,0.3463444411754608,-1.107632040977478,2.9957051277160645,-0.2018135040998459,-0.20306532084941864,-0.1975187212228775,-0.18542566895484924,0.4181726276874542,0.40596804022789,0.2095811367034912,3.148630867144675e-07
0.5833333333333334,0.045043788850307465,-0.07488637417554855,0.0,0.6450860500335693,0.0,0.0,-0.7641099095344543,0.3948867917060852,0.2591042220592499,0.0,0.0,0.0,0.6697858572006226,0.3985336422920227,0.6234443187713623,0.4216209053993225,0.5891285538673401,-0.026251571252942085,0.018671933561563492,-0.8073968291282654,-0.08429145812988281,-0.22942227125167847,0.12755388021469116,0.3038998246192932,5.762984275817871,2.3478126525878906,0.3944147229194641,0.6278790235519409,0.4233209490776062,-0.0868394523859024,-0.24042794108390808,0.15351925790309906,0.39455705881118774,0.6228101849555969,0.42000001668930054,-0.2516539394855499,-0.4672832787036896,-1.130366325378418,-2.9991066455841064,-0.1948060542345047,-0.1964682638645172,-0.1940569281578064,-0.185442715883255,0.41097190976142883,0.3788619935512543,0.202052041888237,-0.0017873389879241586
0.6,0.04853235185146332,-0.07489745318889618,0.0,0.6335795521736145,0.0,0.0,-0.7736775875091553,0.13476601243019104,-0.060684554278850555,0.0,0.0,0.0,-2.620058059692383,0.3970775008201599,0.6205233335494995,0.42199525237083435,0.6104103922843933,-0.0319434255361557,0.041686952114105225,-0.7903422713279724,-0.10805390775203705,-0.1766379475593567,0.010588917881250381,-0.0110442154109478,0.9231218695640564,3.0531973838806152,0.39236927032470703,0.6253751516342163,0.42250049114227295,-0.16737881302833557,-0.12438032031059265,-0.06302142143249512,0.39455705881118774,0.6228101849555969,0.42000001668930054,-0.28288736939430237,-2.999732732772827,-1.0926382541656494,2.999751329421997,-0.18690073490142822,-0.18919391930103302,-0.18952025473117828,-0.1841943860054016,0.4137882888317108,0.3931577503681183,0.26111558079719543,0.08883452415466309
0.6166666666666667,0.053313035517930984,-0.07076632976531982,0.0,0.634864091873169,0.0,0.0,-0.7726238369941711,0.29777300357818604,0.2221696823835373,0.0,0.0,0.0,1.0292490720748901,0.3953514099121094,0.6180409789085388,0.42112457752227783,0.6246717572212219,-0.017997507005929947,0.022288121283054352,-0.7803617119789124,-0.10405252128839493,-0.13922400772571564,-0.07280884683132172,-0.9374210834503174,-3.910598039627075,1.7506952285766602,0.39009201526641846,0.6246604323387146,0.4238019287586212,-0.11563028395175934,0.11981275677680969,0.13340385258197784,0.39455705881118774,0.6228101849555969,0.42000001668930054,-0.3328809440135956,-2.9954092502593994,-1.115359902381897,-2.999995708465576,-0.18392056226730347,-0.18608835339546204,-0.18789753317832947,-0.1848294585943222,0.3396539092063904,0.2928594946861267,0.16916100680828094,0.0024595593567937613
0.6333333333333333,0.05987749993801117,-0.07129815965890884,0.0,0.6579242944717407,0.0,0.0,-0.7530840635299683,0.41584935784339905,-0.061279814690351486,0.0,0.0,0.0,4.466507434844971,0.3938823640346527,0.6166173219680786,0.4200005829334259,0.6313067078590393,5.551423328142846e-06,4.0826270719662716e-07,-0.7755332589149475,-0.04605703055858612,-0.04819807782769203,-0.00031306841992773116,-0.01667526364326477,0.00923622865229845,0.8194755911827087,0.3883354067802429,0.6274241209030151,0.42640113830566406,-0.15825966000556946,0.16541443765163422,0.19634497165679932,0.39455705881118774,0.6228101849555969,0.42000001668930054,-0.3829021751880646,-2.9997284412384033,-1.1653350591659546,-2.9991602897644043,-0.17630334198474884,-0.17928768694400787,-0.18289723992347717,-0.18231101334095,0.4007914662361145,0.3791901469230652,0.31152552366256714,0.2016911804676056
0.65,0.06835165619850159,-0.07464289665222168,0.0,0.6661297082901001,0.0,0.0,-0.7458359003067017,0.5394802689552307,-0.25239595770835876,0.0,0.0,0.0,0.2832116484642029,0.39370864629745483,0.6164518594741821,0.41999974846839905,0.6330270171165466,-1.716512269922532e-05,-1.1609524335653987e-05,-0.7741296291351318,-0.0008828502031974494,-0.001510411617346108,-0.00040887854993343353,0.03344854339957237,-0.019538188353180885,-0.007754861377179623,0.3863530158996582,0.6296048164367676,0.43095603585243225,-0.14971734583377838,0.09741920232772827,0.32378822565078735,0.39455705881118774,0.6228101849555969,0.42000001668930054,-0.43292051553726196,-2.998516321182251,-1.215311884880066,-2.999985694885254,-0.17217683792114258,-0.17453306913375854,-0.17794369161128998,-0.177748441696167,0.2059779018163681,0.2803036868572235,0.34457314014434814,0.3785485327243805
0.6666666666666666,0.07859943062067032,-0.08117154985666275,0.0,0.6521393656730652,0.0,0.0,-0.7580990791320801,0.6514569520950317,-0.46057939529418945,0.0,0.0,0.0,-3.107584238052368,0.39370810985565186,0.6164512038230896,0.4200000464916229,0.6330252885818481,5.45771115412208e-07,-3.7001109376433305e-06,-0.7741310596466064,0.00019250526383984834,-0.00027595579740591347,-0.00010140100494027138,0.005504103377461433,-0.0002255812578368932,-0.0005278608878143132,0.3869721293449402,0.6320575475692749,0.4434320330619812,0.2368028163909912,0.17836424708366394,1.2716748714447021,0.39455705881118774,0.6228101849555969,0.42000001668930054,-0.4829338788986206,-2.999983072280884,-1.265330195426941,-2.999999761581421,-0.17097166180610657,-0.17192229628562927,-0.17392803728580475,-0.17279823124408722,0.010104533284902573,0.09794704616069794,0.193577378988266,0.2627652883529663
0.6833333333333333,0.0925552248954773,-0.08273953944444656,0.0,0.615654468536377,0.0,0.0,-0.7880162000656128,0.792506754398346,-0.08988042175769806,0.0,0.0,0.0,-6.463917255401611,0.39370810985565186,0.6164512038230896,0.4200000464916229,0.633025050163269,7.99263261797023e-07,-3.3955943763430696e-06,-0.774131178855896,0.00019044474174734205,-0.0002822888200171292,-0.00010289554484188557,0.0056662773713469505,-0.00032888256828300655,-0.0005273411516100168,0.40110284090042114,0.6288108825683594,0.4701501727104187,1.524221420288086,-0.33383607864379883,2.032595157623291,0.39455705881118774,0.6228101849555969,0.42000001668930054,-0.5329464673995972,-2.9999709129333496,-1.315348505973816,-2.9999985694885254,-0.17809391021728516,-0.17630088329315186,-0.17539148032665253,-0.17185334861278534,-0.32852575182914734,-0.19383959472179413,-0.03914788365364075,0.09216073900461197
0.7,0.10290627926588058,-0.0827518031001091,0.0,0.5940951704978943,0.0,0.0,-0.8043947815895081,0.5557799935340881,-0.012533819302916527,0.0,0.0,0.0,-2.1168062686920166,0.39370810985565186,0.6164512038230896,0.4200000464916229,0.6330252289772034,8.836664733280486e-07,-3.678720986499684e-06,-0.774131178855896,0.00019096603500656784,-0.0002827309654094279,-0.00010294117964804173,0.005674378946423531,-0.00032226904295384884,-0.0005282904021441936,0.42648354172706604,0.6273866891860962,0.5046581625938416,1.4681904315948486,0.11635032296180725,2.0690958499908447,0.39455705881118774,0.6228101849555969,0.42000001668930054,-0.5544655919075012,0.1601419448852539,-1.365366816520691,-3.000000476837158,-0.18155156075954437,-0.1784326136112213,-0.17585527896881104,-0.1710418313741684,-0.03657031059265137,-0.02092016115784645,0.01595521718263626,0.030910084024071693
0.7166666666666667,0.10858031362295151,-0.08125559985637665,0.0,0.5987643599510193,0.0,0.0,-0.8009252548217773,0.2653924226760864,0.13464012742042542,0.0,0.0,0.0,1.5537830591201782,0.39370810985565186,0.6164512634277344,0.4200000464916229,0.6330251097679138,6.604162194889796e-07,-3.5747777928918367e-06,-0.774131178855896,0.00018546156934462488,-0.00028385838959366083,-0.00010136701166629791,0.005728686228394508,-0.0003938511945307255,-0.0005162066081538796,0.4483577609062195,0.6310331225395203,0.5333516597747803,1.0615155696868896,0.27764588594436646,1.4248888492584229,0.39455705881118774,0.6228101849555969,0.42000001668930054,-0.5312789082527161,2.4065499305725098,-1.3379255533218384,3.000000238418579,-0.1803521364927292,-0.17725321650505066,-0.1743268072605133,-0.16950902342796326,0.15179049968719482,0.14061778783798218,0.1500730663537979,0.1385253667831421
0.7333333333333333,0.11033245921134949,-0.08336004614830017,0.0,0.5920185446739197,0.0,0.0,-0.8059243559837341,0.0740329921245575,-0.21259523928165436,0.0,0.0,0.0,-1.9068048000335693,0.39370810985565186,0.6164512038230896,0.4200000464916229,0.6330251693725586,7.282450269485707e-07,-3.35247000293748e-06,-0.7741310596466064,0.00018572162662167102,-0.0002834625483956188,-0.00010153418406844139,0.005718722473829985,-0.00039022660348564386,-0.0005168707575649023,0.45895206928253174,0.6346665024757385,0.5501483678817749,0.2025604397058487,0.1394413262605667,0.7667070031166077,0.39455705881118774,0.6228101849555969,0.42000001668930054,-0.49843931198120117,1.5785012245178223,-1.2878729104995728,2.999999761581421,-0.1766623556613922,-0.17377008497714996,-0.17075331509113312,-0.16621184349060059,0.2009909451007843,0.20261916518211365,0.21759527921676636,0.20789015293121338
0.75,0.10962226986885071,-0.08111979067325592,0.0,0.5981491804122925,0.0,0.0,-0.8013847470283508,-0.08485321700572968,0.26512864232063293,0.0,0.0,0.0,1.8019596338272095,0.39370810985565186,0.6164512634277344,0.4200000464916229,0.6330251097679138,6.936867862350482e-07,-3.552956286512199e-06,-0.774131178855896,0.00018497946439310908,-0.00028353993548080325,-0.00010128854773938656,0.005724089685827494,-0.0003989964898210019,-0.0005152428639121354,0.4602486491203308,0.6362278461456299,0.5603007078170776,-0.03170347213745117,0.12329433113336563,0.4784160852432251,0.39455705881118774,0.6228101849555969,0.42000001668930054,-0.45941445231437683,2.9532248973846436,-1.3079463243484497,-3.0,-0.1781567633152008,-0.1742280125617981,-0.17008453607559204,-0.16493837535381317,-0.13413117825984955,-0.06763740628957748,1.7113052308559418e-08,0.03883124515414238
0.7666666666666666,0.10711710155010223,-0.08105646073818207,0.0,0.5927898287773132,0.0,0.0,-0.8053572177886963,-0.2311895340681076,-0.020102983340620995,0.0,0.0,0.0,-1.57806396484375,0.39370810985565186,0.6164512038230896,0.4200000464916229,0.6330251693725586,7.524898251176637e-07,-3.3266462651226902e-06,-0.7741310596466064,0.00018557888688519597,-0.0002834121696650982,-0.00010150065645575523,0.00571826146915555,-0.0003918416041415185,-0.0005165639449842274,0.4539562463760376,0.6368833184242249,0.5624455213546753,-0.7273044586181641,-0.04553702473640442,-0.019037991762161255,0.39455705881118774,0.6228101849555969,0.42000001668930054,-0.4408217966556549,-0.44426316022872925,-1.269762396812439,2.999999761581421,-0.178823322057724,-0.17408117651939392,-0.16906870901584625,-0.16345182061195374,-0.0743216872215271,-0.016744745895266533,0.04351802542805672,0.08135492354631424
0.7833333333333333,0.10641436278820038,-0.07772285491228104,0.0,0.5998998880386353,0.0,0.0,-0.8000750541687012,0.002549644559621811,0.18433719873428345,0.0,0.0,0.0,1.7077734470367432,0.39370810985565186,0.6164512634277344,0.4200000464916229,0.6330249905586243,6.687545237582526e-07,-3.3281510241067735e-06,-0.7741312980651855,0.00018577724404167384,-0.00028392457170411944,-0.00010142405517399311,0.005729117896407843,-0.00038935153861530125,-0.0005168378702364862,0.44440197944641113,0.6361402273178101,0.5618789792060852,-0.38885754346847534,0.0442780926823616,-0.02275066077709198,0.39455705881118774,0.6228101849555969,0.42000001668930054,-0.45282238721847534,-0.941839873790741,-1.2901362180709839,-2.9999992847442627,-0.1808471977710724,-0.17522384226322174,-0.1691804677248001,-0.16276578605175018,0.06742990761995316,0.06990139186382294,0.09044232964515686,0.10923498123884201
0.8,0.1080145388841629,-0.07856199890375137,0.0,0.5944709777832031,0.0,0.0,-0.8041170835494995,0.13730140030384064,-0.05961316078901291,0.0,0.0,0.0,-1.835870385169983,0.39370810985565186,0.6164512038230896,0.4200000464916229,0.6330251693725586,6.959933216421632e-07,-3.2651876153977355e-06,-0.7741310596466064,0.0001858912146417424,-0.00028390815714374185,-0.00010148994624614716,0.005728226620703936,-0.0003885490878019482,-0.0005171828670427203,0.44076836109161377,0.6355791091918945,0.5573279857635498,-0.11447479575872421,-0.16603443026542664,-0.3487164378166199,0.39455705881118774,0.6228101849555969,0.42000001668930054,-0.49436068534851074,-3.0000007152557373,-1.3111265897750854,0.21904762089252472,-0.17763639986515045,-0.1722308099269867,-0.16603702306747437,-0.15938609838485718,0.10780974477529526,0.12509121000766754,0.16294747591018677,0.20621457695960999
0.8166666666666667,0.11218789964914322,-0.07916043698787689,0.0,0.5659765005111694,0.0,0.0,-0.8244213461875916,0.30705705285072327,-0.034130554646253586,0.0,0.0,0.0,-5.072280406951904,0.39370810985565186,0.6164512038230896,0.4200000464916229,0.6330251693725586,7.058308142404712e-07,-3.4677052553888643e-06,-0.774131178855896,0.00018541926692705601,-0.00028359948191791773,-0.00010140682570636272,0.005723204463720322,-0.0003939649905078113,-0.0005162165034562349,0.44401198625564575,0.6302177906036377,0.5537974834442139,0.5100137591362,-0.4492698609828949,0.06395481526851654,0.39455705881118774,0.6228101849555969,0.42000001668930054,-0.5443629622459412,-2.9999990463256836,-1.35215163230896,-3.0,-0.17624662816524506,-0.1707744002342224,-0.164138525724411,-0.15688034892082214,0.07664012908935547,0.07280921190977097,0.09176789224147797,0.12326087057590485
0.8333333333333334,0.11888016760349274,-0.07701347023248672,0.0,0.5533787608146667,0.0,0.0,-0.8329297304153442,0.4388850927352905,0.18973487615585327,0.0,0.0,0.0,-0.8154705762863159,0.39370810985565186,0.6164512038230896,0.4200000464916229,0.6330252885818481,6.919582915543288e-07,-3.546670768628246e-06,-0.7741310596466064,0.00018673476006370038,-0.00028389354702085257,-0.00010169856250286102,0.005722907371819019,-0.0003782729327213019,-0.0005189756047911942,0.45139193534851074,0.6267412900924683,0.556567370891571,0.3532344698905945,-0.06678410619497299,0.2304714024066925,0.39455705881118774,0.6228101849555969,0.42000001668930054,-0.5654805898666382,0.2052740901708603,-1.402169942855835,-3.0,-0.1743830442428589,-0.16953116655349731,-0.16319924592971802,-0.15605412423610687,0.16400505602359772,0.09965141117572784,0.048809751868247986,0.0068239797838032246
0.85,0.12251900136470795,-0.07804800570011139,0.0,0.565773606300354,0.0,0.0,-0.8245606422424316,0.1430138349533081,-0.14441896975040436,0.0,0.0,0.0,2.3939502239227295,0.39370810985565186,0.6164512634277344,0.4200000464916229,0.6330252289772034,6.916744723639567e-07,-3.2576533612882486e-06,-0.774131178855896,0.000185743163456209,-0.00028390076477080584,-0.0001014447771012783,0.005728120915591717,-0.000390911620343104,-0.0005168424104340374,0.45745038986206055,0.6293950080871582,0.5579044818878174,0.2972249984741211,0.24485860764980316,-0.08985041081905365,0.39455705881118774,0.6228101849555969,0.42000001668930054,-0.5443452000617981,2.1440467834472656,-1.3637175559997559,3.000000476837158,-0.16869348287582397,-0.1652590036392212,-0.16020412743091583,-0.1542304903268814,0.2763020396232605,0.20810844004154205,0.14172962307929993,0.07649030536413193
0.8666666666666667,0.12281449884176254,-0.07579788565635681,0.0,0.5626933574676514,0.0,0.0,-0.8266656994819641,-0.03825259581208229,0.14663681387901306,0.0,0.0,0.0,-1.300842046737671,0.39370810985565186,0.6164512038230896,0.4200000464916229,0.633025050163269,6.875781650705903e-07,-3.972797912865644e-06,-0.7741312384605408,0.0001928400160977617,-0.00028239499079063535,-0.00010343687608838081,0.0056581320241093636,-0.00029615010134875774,-0.0005322149372659624,0.46022430062294006,0.6301483511924744,0.5550354719161987,0.17183542251586914,0.04548599198460579,-0.10244031995534897,0.39455705881118774,0.6228101849555969,0.42000001668930054,-0.5407884120941162,-1.4100935459136963,-1.3136649131774902,3.000000476837158,-0.1689000278711319,-0.16578194499015808,-0.16106866300106049,-0.1554698497056961,0.12118437886238098,0.06627157330513,0.014131700620055199,-0.03359021246433258
