vladlanda/robotic-transformer/data/env_000_episode_0182.csv
sim_time_s,robot_box_x,robot_box_y,robot_box_z,robot_box_quat_w,robot_box_quat_x,robot_box_quat_y,robot_box_quat_z,robot_box_linvel_x,robot_box_linvel_y,robot_box_linvel_z,robot_box_angvel_x,robot_box_angvel_y,robot_box_angvel_z,cube_world_x,cube_world_y,cube_world_z,cube_quat_w,cube_quat_x,cube_quat_y,cube_quat_z,cube_linvel_x,cube_linvel_y,cube_linvel_z,cube_angvel_x,cube_angvel_y,cube_angvel_z,endpoint_world_x,endpoint_world_y,endpoint_world_z,endpoint_linvel_x,endpoint_linvel_y,endpoint_linvel_z,target_cube_world_x,target_cube_world_y,target_cube_world_z,gripper_actual_pos_rad_gp_leftgearjoint,gripper_actual_vel_rad_s_gp_leftgearjoint,gripper_actual_pos_rad_gp_rotatingjoint,gripper_actual_vel_rad_s_gp_rotatingjoint,motor_angle_rad_joint1,motor_angle_rad_joint2,motor_angle_rad_joint3,motor_angle_rad_joint4,motor_speed_rad_s_joint1,motor_speed_rad_s_joint2,motor_speed_rad_s_joint3,motor_speed_rad_s_joint4
0.0,0.0,0.0,0.0,1.0,0.0,0.0,0.0,0.0,0.0,0.0,0.0,0.0,0.0,-0.4501115083694458,0.6292057633399963,0.41999998688697815,1.0,0.0,0.0,0.0,0.0,0.0,0.0,0.0,0.0,0.0,3.42540442943573e-06,-0.005000244826078415,1.313499927520752,0.0,0.0,0.0,0.32211366295814514,0.757231593132019,0.42000001668930054,-1.5707999467849731,0.0,0.0,0.0,0.0,0.0,0.0,0.0,0.0,0.0,0.0,0.0
0.016666666666666666,0.0028778850100934505,0.0021806680597364902,0.0,0.9998081922531128,0.0,0.0,0.019586581736803055,0.24087215960025787,0.18240931630134583,0.0,0.0,0.0,3.1418697834014893,-0.45011162757873535,0.6292054653167725,0.41999998688697815,1.0,3.2799832752061775e-06,-8.339598593920527e-07,8.465660528145236e-08,-1.9833856640616432e-05,0.00017983021098189056,-6.132945418357849e-05,0.0009432561928406358,-0.004689492750912905,-0.0003198107879143208,-0.007110234349966049,0.003379564033821225,1.3159373998641968,-0.8143353462219238,0.9868683815002441,0.18095196783542633,0.32211366295814514,0.757231593132019,0.42000001668930054,-1.5301095247268677,3.0000011920928955,-0.04584788903594017,-2.9999992847442627,0.0008691533003002405,0.0007963840034790337,0.0007110277656465769,0.0006108740926720202,0.11094217747449875,0.09756709635257721,0.08334315568208694,0.06823883205652237
0.03333333333333333,0.008958513848483562,0.006802478339523077,0.0,0.9997957348823547,0.0,0.0,0.020210830494761467,0.40700891613960266,0.31529632210731506,0.0,0.0,0.0,-0.8694071173667908,-0.4501117467880249,0.6292054057121277,0.4200000464916229,1.0,3.3908236218849197e-06,-2.1324740373529494e-06,-3.7087911408661967e-08,0.0002635786950122565,0.00026937879738397896,-0.00010509719140827656,-0.0017707741353660822,0.004130927845835686,-0.00013548358401749283,-0.027535630390048027,0.025557532906532288,1.3166935443878174,-1.5905472040176392,1.586375117301941,-0.07319598644971848,0.32211366295814514,0.757231593132019,0.42000001668930054,-1.4800904989242554,3.000000238418579,-0.09588773548603058,-3.0000014305114746,0.0029892418533563614,0.0026519831735640764,0.00227668066509068,0.0018602581694722176,0.1642516702413559,0.13979817926883698,0.1138598844408989,0.08634433895349503
0.05,0.017756955698132515,0.01377343013882637,0.0,0.999374270439148,0.0,0.0,0.03537061810493469,0.5939605236053467,0.46515071392059326,0.0,0.0,0.0,2.6472039222717285,-0.4501117765903473,0.6292054653167725,0.4200000464916229,1.0,3.7651204820576822e-06,-2.2119561435829382e-06,5.640150124719412e-09,0.0002653099945746362,0.0002669153327587992,-0.0001044049859046936,-0.0017243726179003716,0.0041774604469537735,-0.0001294949179282412,-0.059659846127033234,0.05278335139155388,1.311967134475708,-2.1876349449157715,1.715616226196289,-0.4555934965610504,0.32211366295814514,0.757231593132019,0.42000001668930054,-1.4300721883773804,3.00000262260437,-0.14592640101909637,-3.0000009536743164,0.0057135396637022495,0.004921521060168743,0.004057345446199179,0.003116578795015812,0.1929531693458557,0.15605832636356354,0.11728688329458237,0.0765460953116417
0.06666666666666667,0.02907438762485981,0.02306777983903885,0.0,0.9994468688964844,0.0,0.0,0.033255670219659805,0.7204881906509399,0.595243513584137,0.0,0.0,0.0,-1.212132453918457,-0.4501117765903473,0.6292054057121277,0.4200000464916229,0.9999999403953552,3.406740233913297e-06,-2.2856668238091515e-06,4.3010706463064707e-07,0.0002670245012268424,0.00026791717391461134,-0.0001043803058564663,-0.0017406563274562359,0.00421176990494132,-0.00012850540224462748,-0.09858549386262894,0.08559225499629974,1.2998508214950562,-2.483430862426758,2.113365650177002,-0.9696952104568481,0.32211366295814514,0.757231593132019,0.42000001668930054,-1.3800538778305054,3.0000007152557373,-0.19596067070960999,-3.0000007152557373,0.008369235321879387,0.006908018607646227,0.0053358254954218864,0.0036469902843236923,0.15849807858467102,0.10905824601650238,0.05758429318666458,0.003988244105130434
0.08333333333333333,0.042679570615291595,0.03472849354147911,0.0,0.9989230036735535,0.0,0.0,0.04639890789985657,0.8711186051368713,0.7429196834564209,0.0,0.0,0.0,2.5355937480926514,-0.4501117765903473,0.6292054057121277,0.4200000464916229,0.9999999403953552,3.626007128332276e-06,-2.335401404707227e-06,3.0324841304718575e-07,0.0002661396865732968,0.00026684964541345835,-0.00010405061766505241,-0.0017283027991652489,0.004196319729089737,-0.00012790360779035836,-0.1445179283618927,0.11856679618358612,1.2793471813201904,-2.9284372329711914,1.9272804260253906,-1.4596235752105713,0.32211366295814514,0.757231593132019,0.42000001668930054,-1.3300302028656006,3.000001907348633,-0.21751810610294342,0.15370973944664001,0.01017744094133377,0.007924787700176239,0.005522321909666061,0.002962936647236347,0.10171587765216827,0.049223966896533966,-0.005251416936516762,-0.06174493208527565
0.1,0.05032013729214668,0.04333138093352318,0.0,0.9990623593330383,0.0,0.0,0.04329393804073334,0.3161257207393646,0.4082745313644409,0.0,0.0,0.0,-1.324213981628418,-0.4501117765903473,0.6292054057121277,0.4200000464916229,1.0,3.4220852285216097e-06,-2.308649982296629e-06,1.7965334109248943e-07,0.0002668154484126717,0.000268004194367677,-0.00010440708138048649,-0.0017430060543119907,0.004207085818052292,-0.00012891326332464814,-0.18899449706077576,0.1559351086616516,1.251429796218872,-2.5079121589660645,2.4023280143737793,-1.8019815683364868,0.32211366295814514,0.757231593132019,0.42000001668930054,-1.2800207138061523,3.000000476837158,-0.2580270767211914,-3.000000476837158,0.005471274256706238,0.0025793612003326416,-0.0005106764729134738,-0.003809938672930002,-0.41465842723846436,-0.4621594250202179,-0.5120832324028015,-0.5646922588348389
0.11666666666666667,0.06129038706421852,0.054915089160203934,0.0,0.9999563694000244,0.0,0.0,0.009340382181107998,0.7970389723777771,0.8069201707839966,0.0,0.0,0.0,-5.009411811828613,-0.4501117765903473,0.6292054653167725,0.4200000464916229,1.0,3.711474391820957e-06,-2.3327690996666206e-06,2.574539621491567e-07,0.00026485734269954264,0.0002663543273229152,-0.00010423525236546993,-0.001718277344480157,0.004170149099081755,-0.00012915724073536694,-0.2295655906200409,0.2021852433681488,1.2157998085021973,-2.432363748550415,2.900972366333008,-2.440000295639038,0.32211366295814514,0.757231593132019,0.42000001668930054,-1.2299941778182983,2.999995708465576,-0.22720983624458313,3.000000238418579,0.0019298790721222758,-0.002175041241571307,-0.006480185315012932,-0.010999408550560474,-0.14880959689617157,-0.22856956720352173,-0.30728569626808167,-0.3850928246974945
0.13333333333333333,0.07125823199748993,0.06698015332221985,0.0,0.9999914765357971,0.0,0.0,-0.004134535323828459,0.5167677998542786,0.7532943487167358,0.0,0.0,0.0,-0.4024657905101776,-0.4501117765903473,0.6292054057121277,0.4200000464916229,1.0,3.3357293887092965e-06,-2.232001179436338e-06,3.113242996732879e-07,0.00026669848011806607,0.0002675954601727426,-0.00010428694076836109,-0.0017371148569509387,0.004205853678286076,-0.0001284004101762548,-0.2744275629520416,0.24301749467849731,1.1788121461868286,-2.6245901584625244,2.431197166442871,-2.2009520530700684,0.32211366295814514,0.757231593132019,0.42000001668930054,-1.1800017356872559,2.999999761581421,-0.25844407081604004,-3.000000476837158,-0.0008670781389810145,-0.006640957202762365,-0.012569560669362545,-0.018664803355932236,-0.1946002095937729,-0.30263835191726685,-0.4071517288684845,-0.5079770088195801
0.15,0.07709886878728867,0.07667872309684753,0.0,0.9996085166931152,0.0,0.0,-0.02797877788543701,0.28991860151290894,0.5215621590614319,0.0,0.0,0.0,-3.663722038269043,-0.4501117765903473,0.6292054057121277,0.4200000464916229,1.0,3.518959374559927e-06,-2.2831704882264603e-06,-3.6253547364140104e-07,0.0002661850885488093,0.00026735811843536794,-0.00010425550863146782,-0.0017349324189126492,0.004195698536932468,-0.00012860653805546463,-0.3150779604911804,0.28996479511260986,1.139319896697998,-2.2428598403930664,3.086503028869629,-2.527331829071045,0.32211366295814514,0.757231593132019,0.42000001668930054,-1.1299805641174316,2.9999918937683105,-0.22434161603450775,3.000000238418579,-0.005930159706622362,-0.013522493652999401,-0.021195661276578903,-0.028959698975086212,-0.3887588679790497,-0.49196386337280273,-0.5906029939651489,-0.6845973134040833
0.16666666666666666,0.07928428053855896,0.08757658302783966,0.0,0.9969589114189148,0.0,0.0,-0.07792864739894867,0.07155048847198486,0.7079541683197021,0.0,0.0,0.0,-6.816409111022949,-0.4501117765903473,0.6292054057121277,0.4200000464916229,1.0,3.666649945444078e-06,-2.3392451566905947e-06,-3.149942244817794e-07,0.0002659584570210427,0.0002666738582774997,-0.00010403734631836414,-0.0017252413090318441,0.004192806314677,-0.00012778767268173397,-0.3508177399635315,0.34737884998321533,1.0935750007629395,-1.9317054748535156,3.729152202606201,-2.968630313873291,0.32211366295814514,0.757231593132019,0.42000001668930054,-1.0799919366836548,3.000000238418579,-0.25563323497772217,-3.0000009536743164,-0.015040872618556023,-0.024198999628424644,-0.03335178643465042,-0.04250875487923622,-0.6470998525619507,-0.7259080410003662,-0.799735963344574,-0.8686036467552185
0.18333333333333332,0.08250799775123596,0.09835642576217651,0.0,0.993990957736969,0.0,0.0,-0.10946238040924072,0.2483767569065094,0.5801976919174194,0.0,0.0,0.0,-2.7556774616241455,-0.4501117765903473,0.6292054057121277,0.4200000464916229,1.0,3.814366891674581e-06,-2.399669938313309e-06,-2.70255782197637e-07,0.00026549093308858573,0.0002661114267539233,-0.00010391161777079105,-0.0017178055131807923,0.004184804391115904,-0.00012753871851600707,-0.38563281297683716,0.40343254804611206,1.0365068912506104,-1.8981894254684448,3.42275333404541,-3.8535780906677246,0.32211366295814514,0.757231593132019,0.42000001668930054,-1.0351849794387817,2.391880989074707,-0.30566200613975525,-3.0000011920928955,-0.025746695697307587,-0.03565039113163948,-0.04548080638051033,-0.0552547313272953,-0.6590406894683838,-0.6770857572555542,-0.6919885277748108,-0.7043564915657043
0.2,0.08383800089359283,0.11001969873905182,0.0,0.9884001612663269,0.0,0.0,-0.15187214314937592,0.013670185580849648,0.7600218057632446,0.0,0.0,0.0,-5.946331977844238,-0.4501117765903473,0.6292054057121277,0.4200000464916229,1.0,3.6001085845782654e-06,-2.291430519107962e-06,-2.2017567857801623e-07,0.00026572897331789136,0.0002664485073182732,-0.00010398100130259991,-0.0017226987984031439,0.0041888500563800335,-0.00012773518392350525,-0.4170191287994385,0.4615851044654846,0.96623694896698,-1.6398382186889648,3.5728774070739746,-4.512906074523926,0.32211366295814514,0.757231593132019,0.42000001668930054,-0.9857385158538818,3.0000011920928955,-0.3556903302669525,-3.000001907348633,-0.03975725546479225,-0.04964824020862579,-0.0594150647521019,-0.06908588856458664,-0.928475022315979,-0.912381649017334,-0.8937376141548157,-0.8732006549835205
0.21666666666666667,0.09013298898935318,0.11783335357904434,0.0,0.9842811822891235,0.0,0.0,-0.17660850286483765,0.5306910872459412,0.36130645871162415,0.0,0.0,0.0,-2.0385003089904785,-0.4501117765903473,0.6292054057121277,0.4200000464916229,0.9999999403953552,3.6396925224835286e-06,-2.2622189135290682e-06,2.2248897835197567e-07,0.00026687351055443287,0.0002675443538464606,-0.00010411953553557396,-0.00174033734947443,0.004211027175188065,-0.00012784007412847131,-0.4464176893234253,0.5130043625831604,0.8869214057922363,-1.513211727142334,2.938380241394043,-5.039377689361572,0.32211366295814514,0.757231593132019,0.42000001668930054,-0.9357293844223022,3.0,-0.4057205617427826,-3.000002145767212,-0.051670242100954056,-0.06115115061402321,-0.07048514485359192,-0.07971299439668655,-0.6744256615638733,-0.6337757706642151,-0.5932790637016296,-0.5536974668502808
0.23333333333333334,0.09217413514852524,0.12782971560955048,0.0,0.977051317691803,0.0,0.0,-0.21300406754016876,0.1030607670545578,0.5440754890441895,0.0,0.0,0.0,-5.132444858551025,-0.4501117467880249,0.6292054057121277,0.4200000464916229,1.0,3.420763505346258e-06,-2.3170694021246163e-06,2.956103912765684e-07,0.00026680235168896616,0.00026803859509527683,-0.00010442384518682957,-0.001743718865327537,0.004206900950521231,-0.00012899293506052345,-0.4652740955352783,0.5585926175117493,0.7975608110427856,-0.8288898468017578,2.6158084869384766,-5.3774094581604,0.32211366295814514,0.757231593132019,0.42000001668930054,-0.8857187032699585,2.9999992847442627,-0.4557514190673828,-3.0,-0.06825815886259079,-0.07759653031826019,-0.0868321880698204,-0.09598784893751144,-0.788884162902832,-0.8285511136054993,-0.8656059503555298,-0.8990116119384766
0.25,0.09095379710197449,0.1337917596101761,0.0,0.9736163020133972,0.0,0.0,-0.22819149494171143,-0.13448302447795868,0.28518134355545044,0.0,0.0,0.0,-0.8210498094558716,-0.4501117765903473,0.6292054057121277,0.4200000464916229,0.9999999403953552,3.347635129102855e-06,-2.259430630147108e-06,1.8086375064285676e-07,0.00026687735226005316,0.0002679103927221149,-0.00010439497418701649,-0.001740406733006239,0.004208258353173733,-0.00012870482169091702,-0.4790116846561432,0.5916529893875122,0.7056499719619751,-0.5427825450897217,1.6155847311019897,-5.674933433532715,0.32211366295814514,0.757231593132019,0.42000001668930054,-0.8357081413269043,2.9999990463256836,-0.5057824850082397,-3.0000011920928955,-0.0844738557934761,-0.09382770210504532,-0.1030527874827385,-0.11217936128377914,-0.992711067199707,-0.9938639402389526,-0.9947455525398254,-0.99104243516922
0.26666666666666666,0.0864202156662941,0.13615980744361877,0.0,0.9670411348342896,0.0,0.0,-0.2546203136444092,-0.32636311650276184,0.08897460997104645,0.0,0.0,0.0,-4.114180564880371,-0.4501117765903473,0.6292054057121277,0.4200000464916229,0.9999999403953552,3.7080837955727475e-06,-2.39272708313365e-06,-1.2723842246487038e-07,0.00026603738660924137,0.0002671670517884195,-0.00010421453043818474,-0.0017321956111118197,0.004193190019577742,-0.00012855228851549327,-0.483371764421463,0.6135931015014648,0.6066843271255493,0.12182930111885071,0.9981749057769775,-6.030959129333496,0.32211366295814514,0.757231593132019,0.42000001668930054,-0.7856992483139038,2.9999988079071045,-0.5558127760887146,-3.0000007152557373,-0.10157928615808487,-0.11080308258533478,-0.11992888152599335,-0.12897750735282898,-0.9969194531440735,-0.9969833493232727,-0.9970429539680481,-0.9971053600311279
0.2833333333333333,0.08439499884843826,0.1353960484266281,0.0,0.9652839303016663,0.0,0.0,-0.261202871799469,-0.04619605094194412,-0.07909834384918213,0.0,0.0,0.0,0.12108082324266434,-0.4501117765903473,0.6292054653167725,0.4200000464916229,0.9999999403953552,3.5726909572986187e-06,-2.304265080965706e-06,1.2987557340693456e-07,0.0002652171242516488,0.0002645519271027297,-0.00010317238047719002,-0.0017021235544234514,0.004185076337307692,-0.0001250006607733667,-0.4796941876411438,0.6240109205245972,0.5093862414360046,0.4989449381828308,0.33033910393714905,-5.630375385284424,0.32211366295814514,0.757231593132019,0.42000001668930054,-0.7356904745101929,2.999999523162842,-0.6058415770530701,-3.0000016689300537,-0.11863524466753006,-0.12775634229183197,-0.13680918514728546,-0.14580439031124115,-1.0066734552383423,-1.0050276517868042,-1.0037732124328613,-1.0027741193771362
0.3,0.07873453944921494,0.13273164629936218,0.0,0.9596532583236694,0.0,0.0,-0.2811860740184784,-0.3187117576599121,-0.22339020669460297,0.0,0.0,0.0,-3.273435115814209,-0.4501117765903473,0.6292054057121277,0.4200000464916229,1.0,3.745082494788221e-06,-2.238365368611994e-06,-1.7675137087280746e-07,0.0002643623447511345,0.00026623462326824665,-0.00010443269275128841,-0.001712003257125616,0.004158800467848778,-0.00012990082905162126,-0.464114248752594,0.6265766024589539,0.4191269874572754,1.3312740325927734,0.17465424537658691,-5.145483016967773,0.32211366295814514,0.757231593132019,0.42000001668930054,-0.6856833100318909,3.000002145767212,-0.6558683514595032,-2.999603271484375,-0.1368265300989151,-0.14558477699756622,-0.15436048805713654,-0.16313469409942627,-0.8177934885025024,-0.8583643436431885,-0.8958764672279358,-0.9293136596679688
0.31666666666666665,0.07175756990909576,0.1275174468755722,0.0,0.9591163992881775,0.0,0.0,-0.28301194310188293,-0.4566749334335327,-0.3514787554740906,0.0,0.0,0.0,0.706687331199646,-0.4501117765903473,0.6292054653167725,0.4200000464916229,0.9999999403953552,3.6681617530121002e-06,-2.307525164724211e-06,2.6375352035756805e-07,0.00026690977392718196,0.00026760349282994866,-0.00010412419214844704,-0.001741289277561009,0.004211459308862686,-0.00012786692241206765,-0.46626996994018555,0.6300137639045715,0.42597031593322754,-0.18444448709487915,0.24570417404174805,-0.15139922499656677,0.32211366295814514,0.757231593132019,0.42000001668930054,-0.6357759237289429,2.999986410140991,-0.7063329815864563,-2.999999523162842,-0.1404264122247696,-0.14984776079654694,-0.1587667465209961,-0.16711892187595367,-0.27591240406036377,-0.2975781261920929,-0.294600248336792,-0.26474395394325256
0.3333333333333333,0.062357060611248016,0.12008348852396011,0.0,0.9543304443359375,0.0,0.0,-0.2987530827522278,-0.614193320274353,-0.4875122606754303,0.0,0.0,0.0,-2.8519036769866943,-0.4501117765903473,0.6292054057121277,0.4200000464916229,1.0,3.5987116007163422e-06,-2.305649104528129e-06,1.4963370631448925e-07,0.0002665477222763002,0.00026732313563115895,-0.00010424014180898666,-0.0017325958469882607,0.004203407093882561,-0.00012820908159483224,-0.46642735600471497,0.6339375972747803,0.4234503507614136,0.13237737119197845,0.2929609417915344,-0.15269239246845245,0.32211366295814514,0.757231593132019,0.42000001668930054,-0.5857705473899841,2.9999842643737793,-0.756385326385498,-2.999962568283081,-0.14604885876178741,-0.15535029768943787,-0.16375944018363953,-0.1711873561143875,-0.3872874975204468,-0.3489547073841095,-0.2906031608581543,-0.21151532232761383
0.35,0.05078359693288803,0.11037895083427429,0.0,0.9544524550437927,0.0,0.0,-0.2983630299568176,-0.7413935661315918,-0.6255865693092346,0.0,0.0,0.0,0.974439263343811,-0.44665077328681946,0.63519287109375,0.4202185571193695,0.9974681735038757,0.005457211285829544,-0.0002587790950201452,-0.07090321183204651,0.3119572699069977,0.5098477005958557,0.023103997111320496,1.2458422183990479,-0.1194043755531311,-12.298944473266602,-0.4628446102142334,0.641708493232727,0.4210927486419678,0.31785666942596436,0.6574230194091797,-0.11247934401035309,0.32211366295814514,0.757231593132019,0.42000001668930054,-0.5357655882835388,2.9999942779541016,-0.8064195513725281,-3.0000011920928955,-0.1538129448890686,-0.16181644797325134,-0.16858427226543427,-0.1740337461233139,-0.47897782921791077,-0.3800990581512451,-0.2603602409362793,-0.12065055221319199
0.36666666666666664,0.04255116358399391,0.09804107993841171,0.0,0.950194239616394,0.0,0.0,-0.31165826320648193,-0.41327720880508423,-0.7852967381477356,0.0,0.0,0.0,-2.529238700866699,-0.44036194682121277,0.6450968384742737,0.42000195384025574,0.9930875301361084,9.13196799956495e-06,-3.885245314450003e-05,-0.11737551540136337,0.4408172369003296,0.6945416927337646,-0.0036947226617485285,-0.008420484140515327,0.15111441910266876,-0.37922778725624084,-0.4557459354400635,0.6519550681114197,0.42035621404647827,0.5368481874465942,0.6660847067832947,0.08974272012710571,0.32211366295814514,0.757231593132019,0.42000001668930054,-0.485728919506073,2.999985694885254,-0.8564468026161194,-2.9999752044677734,-0.16196270287036896,-0.16777001321315765,-0.17195582389831543,-0.1744692623615265,-0.4647136926651001,-0.3112519085407257,-0.13464421033859253,0.06262799352407455
0.3833333333333333,0.031069161370396614,0.08400119841098785,0.0,0.9357890486717224,0.0,0.0,-0.35256049036979675,-0.7860278487205505,-0.8696410059928894,0.0,0.0,0.0,-6.128301620483398,-0.4275396466255188,0.6636453866958618,0.4212254285812378,0.9866808652877808,-0.02295895479619503,-0.004400085657835007,-0.16097933053970337,1.086187481880188,1.5116944313049316,0.1293756663799286,-1.87101411819458,-3.3608479499816895,-6.154143810272217,-0.4427264332771301,0.6691880226135254,0.42205291986465454,1.059741735458374,1.4762673377990723,0.11368444561958313,0.32211366295814514,0.757231593132019,0.42000001668930054,-0.43569159507751465,2.999992847442627,-0.9064602255821228,-2.999964714050293,-0.17235447466373444,-0.17509858310222626,-0.1758568435907364,-0.1746360808610916,-0.6134034395217896,-0.4290778338909149,-0.2239478975534439,1.5689101928728633e-06
0.4,0.023130742833018303,0.06718289107084274,0.0,0.9084039330482483,0.0,0.0,-0.4180936813354492,-0.45168912410736084,-1.0475233793258667,0.0,0.0,0.0,-9.207901954650879,-0.39710795879364014,0.6952300667762756,0.42589521408081055,0.9764764308929443,0.022318527102470398,-0.042421359568834305,-0.21022841334342957,2.665196418762207,2.483165740966797,0.5167726874351501,34.38090896606445,-16.337129592895508,0.5639274716377258,-0.4119817614555359,0.7029248476028442,0.42575758695602417,2.654897451400757,2.5056567192077637,0.5040313601493835,0.32211366295814514,0.757231593132019,0.42000001668930054,-0.3912912905216217,1.8145580291748047,-0.8695985078811646,2.9945523738861084,-0.18219304084777832,-0.18149949610233307,-0.178512841463089,-0.17329560220241547,-0.7041553258895874,-0.4523976445198059,-0.18682527542114258,0.08730542659759521
0.4166666666666667,0.017099101096391678,0.05496371164917946,0.0,0.8651825189590454,0.0,0.0,-0.5014570951461792,-0.26376935839653015,-0.7491308450698853,0.0,0.0,0.0,-11.914121627807617,-0.3279944360256195,0.744013249874115,0.4345322251319885,0.9524003863334656,0.10440753400325775,-0.08111622929573059,-0.27468621730804443,5.720093727111816,3.050323247909546,0.806990385055542,5.942092418670654,-10.145246505737305,-1.0156044960021973,-0.3419879674911499,0.7530510425567627,0.4341048002243042,5.231305122375488,3.587695360183716,0.5553523302078247,0.32211366295814514,0.757231593132019,0.42000001668930054,-0.37463387846946716,0.8793712854385376,-0.8195557594299316,2.9996113777160645,-0.19757243990898132,-0.19468620419502258,-0.1860920637845993,-0.17541924118995667,-0.6108670234680176,-0.6754207015037537,-0.4064581096172333,-0.14367732405662537
0.43333333333333335,0.015353241935372353,0.04517372325062752,0.0,0.8286358714103699,0.0,0.0,-0.5597879886627197,-0.04925910010933876,-0.5266188383102417,0.0,0.0,0.0,-7.101395130157471,-0.23862610757350922,0.7945716977119446,0.44537439942359924,0.9045023918151855,0.14308148622512817,-0.13783426582813263,-0.37736546993255615,5.6411919593811035,2.1545095443725586,0.762261688709259,-1.9919313192367554,-6.7165350914001465,6.3116774559021,-0.2535193860530853,0.8082839250564575,0.4455763101577759,5.606873512268066,2.958230972290039,0.7178890705108643,0.32211366295814514,0.757231593132019,0.42000001668930054,-0.3587203621864319,1.0093817710876465,-0.8281741142272949,-3.000000238418579,-0.2089378535747528,-0.20602411031723022,-0.1932101994752884,-0.17860615253448486,-0.6726837158203125,-0.6302530169487,-0.39862462878227234,-0.1909060776233673
0.45,0.016340110450983047,0.038836341351270676,0.0,0.8105223774909973,0.0,0.0,-0.5857077240943909,0.147799551486969,-0.33458271622657776,0.0,0.0,0.0,-2.6587226390838623,-0.145389586687088,0.8311387300491333,0.4568813443183899,0.8450799584388733,0.14490804076194763,-0.14107003808021545,-0.49491485953330994,6.093349933624268,1.2782762050628662,0.829150915145874,-4.561154842376709,-13.238466262817383,4.914254188537598,-0.15822070837020874,0.8488594889640808,0.4567258358001709,5.8747406005859375,1.8605947494506836,0.723608136177063,0.32211366295814514,0.757231593132019,0.42000001668930054,-0.342637836933136,0.8785004615783691,-0.8781982660293579,-3.000002861022949,-0.22096920013427734,-0.21634089946746826,-0.19955791532993317,-0.1814313381910324,-0.6757625341415405,-0.5430365800857544,-0.3206389248371124,-0.1253092736005783
0.4666666666666667,0.014706057496368885,0.037131860852241516,0.0,0.7848431468009949,0.0,0.0,-0.6196944713592529,-0.0724279135465622,-0.06202520430088043,0.0,0.0,0.0,-5.729657173156738,-0.052013952285051346,0.8490739464759827,0.46456941962242126,0.8131061792373657,0.1268107295036316,-0.14557747542858124,-0.5491670370101929,5.707451820373535,-0.4789946973323822,0.31924527883529663,-17.88251304626465,-19.436782836914062,29.721515655517578,-0.06006127595901489,0.870065450668335,0.4659345746040344,6.044064998626709,0.7912077307701111,0.543423056602478,0.32211366295814514,0.757231593132019,0.42000001668930054,-0.33057940006256104,0.5319627523422241,-0.9282227158546448,-3.000001907348633,-0.23429079353809357,-0.22653287649154663,-0.20575447380542755,-0.18405483663082123,-0.6845371723175049,-0.49609801173210144,-0.2830098569393158,-0.08743619918823242
0.48333333333333334,0.017126906663179398,0.030422627925872803,0.0,0.7705128192901611,0.0,0.0,-0.6374245285987854,0.12388063967227936,-0.4117491841316223,0.0,0.0,0.0,-1.5327417850494385,0.04164395108819008,0.8527153134346008,0.46841689944267273,0.7378475069999695,0.12081169337034225,-0.1367679387331009,-0.6498307585716248,5.014247894287109,-1.226488471031189,0.19475366175174713,-8.683645248413086,15.857094764709473,16.985998153686523,0.03565205633640289,0.8750653266906738,0.4696904420852661,5.703125,-0.2813660204410553,0.12743861973285675,0.32211366295814514,0.757231593132019,0.42000001668930054,-0.3222954273223877,0.32020947337150574,-0.9782470464706421,-2.9975998401641846,-0.23999889194965363,-0.2298142910003662,-0.20634488761425018,-0.18229976296424866,-0.002149083185940981,-0.3167989253997803,-0.13342632353305817,0.019516296684741974
0.5,0.016722507774829865,0.028773820027709007,0.0,0.7484884858131409,0.0,0.0,-0.6631477475166321,-0.04608657583594322,-0.07207614183425903,0.0,0.0,0.0,-4.7748236656188965,0.12620528042316437,0.8418397903442383,0.46618032455444336,0.6647312045097351,0.09997383505105972,-0.11334583908319473,-0.731635332107544,4.250380992889404,-1.9880385398864746,-0.3142387866973877,-22.687776565551758,-0.1202174574136734,40.80975341796875,0.12178600579500198,0.8647894263267517,0.46782881021499634,5.104982852935791,-0.8164342641830444,-0.1972782164812088,0.32211366295814514,0.757231593132019,0.42000001668930054,-0.31822633743286133,-0.03833159804344177,-1.0282703638076782,-3.0000007152557373,-0.23989325761795044,-0.2363194227218628,-0.2103852927684784,-0.1843985915184021,-0.008377446793019772,-0.22206182777881622,-0.1488145887851715,-0.10085024684667587
0.5166666666666666,0.01804274134337902,0.029718469828367233,0.0,0.7403959035873413,0.0,0.0,-0.6721710562705994,0.11960196495056152,0.11541864275932312,0.0,0.0,0.0,-0.3971269428730011,0.19813057780265808,0.8245150446891785,0.457431823015213,0.5982893705368042,0.07579271495342255,-0.11178676038980484,-0.7898158431053162,3.8774147033691406,-2.4751954078674316,-0.3347705006599426,-12.726945877075195,0.6185439825057983,13.660299301147461,0.19486498832702637,0.8462039232254028,0.46004652976989746,3.796408176422119,-1.3395743370056152,-0.6269696950912476,0.32211366295814514,0.757231593132019,0.42000001668930054,-0.32019126415252686,-0.6139436364173889,-1.0782926082611084,-3.0000014305114746,-0.23890060186386108,-0.23813992738723755,-0.2118512988090515,-0.1858626902103424,0.08106240630149841,-0.03529339283704758,-0.04878823086619377,-0.08280973881483078
0.5333333333333333,0.02236839197576046,0.02686152048408985,0.0,0.7238218188285828,0.0,0.0,-0.6899869441986084,0.30162450671195984,-0.17868706583976746,0.0,0.0,0.0,-3.634648084640503,0.25637584924697876,0.8043023347854614,0.44143587350845337,0.5584070682525635,0.04040161520242691,-0.09827148914337158,-0.8227344155311584,3.1535074710845947,-1.9967212677001953,-0.876777172088623,-11.599549293518066,6.475217342376709,12.555280685424805,0.2525027394294739,0.82491135597229,0.44426408410072327,2.9711194038391113,-1.387732982635498,-1.1641043424606323,0.32211366295814514,0.757231593132019,0.42000001668930054,-0.33478671312332153,-0.9348134398460388,-1.128314733505249,-3.0000030994415283,-0.23301833868026733,-0.23435544967651367,-0.2096378207206726,-0.18542103469371796,0.2475568801164627,0.18641728162765503,0.08896858245134354,-0.02303367666900158
0.55,0.025149451568722725,0.028287433087825775,0.0,0.719835102558136,0.0,0.0,-0.6941450834274292,0.08113203197717667,0.09107989817857742,0.0,0.0,0.0,0.23163112998008728,0.2977078855037689,0.7788834571838379,0.42357000708580017,0.5339394807815552,-0.003593740751966834,-0.06606896966695786,-0.8429297804832458,1.727944016456604,-1.1611473560333252,-0.520470380783081,14.417328834533691,13.331249237060547,1.260683536529541,0.29453474283218384,0.7987031936645508,0.42636388540267944,1.7856700420379639,-1.3174984455108643,-0.29266926646232605,0.32211366295814514,0.757231593132019,0.42000001668930054,-0.3379362225532532,0.4391605854034424,-1.1784449815750122,-2.9594686031341553,-0.23162370920181274,-0.23295962810516357,-0.20976850390434265,-0.18733294308185577,0.2268429398536682,0.21333807706832886,0.07545094192028046,-0.0642562285065651
0.5666666666666667,0.028505222871899605,0.025672974064946175,0.0,0.706870436668396,0.0,0.0,-0.7073430418968201,0.24620407819747925,-0.1909136027097702,0.0,0.0,0.0,-2.991846799850464,0.3208063840866089,0.7664903402328491,0.42077216506004333,0.533019483089447,-0.01367257721722126,-0.00037948566023260355,-0.8459923267364502,0.8277329206466675,-0.6704468131065369,0.14688323438167572,7.7923808097839355,7.461472511291504,-1.3208763599395752,0.31687116622924805,0.784751296043396,0.4234166145324707,0.8912158012390137,-0.5444369912147522,0.15476197004318237,0.32211366295814514,0.757231593132019,0.42000001668930054,-0.322531133890152,1.4293067455291748,-1.2284135818481445,-3.000035524368286,-0.22438421845436096,-0.22646507620811462,-0.20655255019664764,-0.18726110458374023,0.4453432559967041,0.40531837940216064,0.18833784759044647,-0.016736268997192383
0.5833333333333334,0.034283049404621124,0.026353003457188606,0.0,0.706378698348999,0.0,0.0,-0.7078341245651245,0.37856996059417725,0.06238725036382675,0.0,0.0,0.0,0.7977862358093262,0.3318920433521271,0.7574433088302612,0.4211982488632202,0.5477654337882996,-0.025885483250021935,-0.01602189987897873,-0.836077868938446,0.6521547436714172,-0.6880609393119812,0.20013046264648438,-10.707488059997559,4.29802942276001,16.617395401000977,0.3280508816242218,0.7744823694229126,0.42511579394340515,0.45378029346466064,-0.5285149812698364,0.00477948784828186,0.32211366295814514,0.757231593132019,0.42000001668930054,-0.3139863908290863,-0.12888139486312866,-1.2589325904846191,-0.827942430973053,-0.21870625019073486,-0.22104457020759583,-0.2046433985233307,-0.188654363155365,0.4428395628929138,0.40631964802742004,0.1648879200220108,-0.05894506350159645
0.6,0.037828266620635986,0.02332640066742897,0.0,0.695963978767395,0.0,0.0,-0.7180767059326172,0.153295636177063,-0.21764926612377167,0.0,0.0,0.0,-2.5586884021759033,0.3372848331928253,0.751456081867218,0.4213624894618988,0.5850847959518433,-0.026020994409918785,-0.02105133794248104,-0.8102811574935913,0.16621904075145721,-0.4099777936935425,0.00580130610615015,0.19489754736423492,-0.9208232760429382,3.6991448402404785,0.3319322466850281,0.7687569856643677,0.42516955733299255,0.03666294738650322,-0.3123568296432495,-0.00870854128152132,0.32211366295814514,0.757231593132019,0.42000001668930054,-0.3378279209136963,-2.4623584747314453,-1.257112979888916,0.8856239914894104,-0.2096642702817917,-0.2126891314983368,-0.20044992864131927,-0.18828916549682617,0.4692791998386383,0.4563175439834595,0.23047316074371338,0.021557355299592018
0.6166666666666667,0.042319949716329575,0.02385718747973442,0.0,0.6975257396697998,0.0,0.0,-0.7165597081184387,0.3017989695072174,0.03904816880822182,0.0,0.0,0.0,1.0532816648483276,0.3383397161960602,0.7458912134170532,0.42067044973373413,0.6019272208213806,-0.004799047019332647,-0.011473600752651691,-0.7984540462493896,-0.0011706091463565826,-0.2502519190311432,-0.05153638496994972,2.990753650665283,-1.5966169834136963,2.1011855602264404,0.3320792317390442,0.7649250030517578,0.4266548156738281,0.0319979265332222,-0.04896059259772301,0.10096463561058044,0.32211366295814514,0.757231593132019,0.42000001668930054,-0.37177562713623047,-1.65070378780365,-1.2942640781402588,-2.9998269081115723,-0.20424117147922516,-0.2072446644306183,-0.19846946001052856,-0.18949519097805023,0.4270791709423065,0.393252968788147,0.15929436683654785,-0.05367489904165268
0.6333333333333333,0.04901520162820816,0.021132759749889374,0.0,0.688033938407898,0.0,0.0,-0.7256785035133362,0.4356413781642914,-0.2444588541984558,0.0,0.0,0.0,-2.3518354892730713,0.33816781640052795,0.7430742383003235,0.4200001358985901,0.6154555678367615,-4.312999408284668e-06,-1.5507916032220237e-05,-0.7881715893745422,-0.07917968183755875,-0.08294790983200073,-0.0004928068374283612,0.04681091383099556,0.006562565453350544,2.276124954223633,0.331103652715683,0.7667732238769531,0.42906856536865234,-0.1597476303577423,0.11403155326843262,0.18061739206314087,0.32211366295814514,0.757231593132019,0.42000001668930054,-0.4183281362056732,-2.9999990463256836,-1.3442189693450928,-2.998683452606201,-0.19427548348903656,-0.1983460634946823,-0.19374316930770874,-0.18851886689662933,0.5484565496444702,0.5061060190200806,0.28657835721969604,0.08949938416481018
0.65,0.05789673700928688,0.021077970042824745,0.0,0.6909740567207336,0.0,0.0,-0.7228795886039734,0.5597054958343506,0.03538436442613602,0.0,0.0,0.0,1.3653756380081177,0.3362438678741455,0.7425140142440796,0.4202781319618225,0.6233586072921753,0.00433496106415987,-0.005480473395437002,-0.7819048762321472,-0.15228857100009918,-0.004022933542728424,0.04751474782824516,-0.5487257242202759,-2.3212904930114746,1.1575047969818115,0.3276363015174866,0.7675372958183289,0.43286871910095215,-0.22559651732444763,0.08944804966449738,0.30970585346221924,0.32211366295814514,0.757231593132019,0.42000001668930054,-0.4683430790901184,-2.9999988079071045,-1.3942371606826782,-2.999999523162842,-0.1884261667728424,-0.1926376223564148,-0.1908378154039383,-0.18802176415920258,0.3505226969718933,0.33920738101005554,0.186175137758255,0.06014229357242584
0.6666666666666666,0.06865204870700836,0.017635514959692955,0.0,0.6870403289794922,0.0,0.0,-0.7266192436218262,0.6669387221336365,-0.2244086116552353,0.0,0.0,0.0,-1.7340327501296997,0.33428192138671875,0.7424480319023132,0.4201933443546295,0.628985583782196,0.00305285956710577,-0.0037487458903342485,-0.7774018049240112,-0.10600222647190094,-0.004297136329114437,-0.02229226566851139,0.2444080263376236,1.109954833984375,0.770489513874054,0.3257310688495636,0.7701107859611511,0.4361155927181244,-0.02075337804853916,0.09350667148828506,0.28401243686676025,0.32211366295814514,0.757231593132019,0.42000001668930054,-0.5183617472648621,-2.9991066455841064,-1.4442484378814697,-2.996821403503418,-0.18137899041175842,-0.18565179407596588,-0.18592192232608795,-0.18465609848499298,0.28732335567474365,0.3307693600654602,0.2700730860233307,0.23947598040103912
0.6833333333333333,0.08122844249010086,0.011036057025194168,0.0,0.6623601913452148,0.0,0.0,-0.7491855025291443,0.7951344847679138,-0.47668978571891785,0.0,0.0,0.0,-4.867982864379883,0.33359307050704956,0.7423819899559021,0.4200001060962677,0.6309989094734192,-1.8268564190293546e-06,2.7389874048822094e-06,-0.7757836580276489,-0.01416574977338314,-0.0014187010237947106,-0.00018196902237832546,-0.0021231991704553366,-0.008840221911668777,0.10190784186124802,0.3279612064361572,0.7720033526420593,0.44781696796417236,0.3446868062019348,0.10900411009788513,1.2226879596710205,0.32211366295814514,0.757231593132019,0.42000001668930054,-0.5683741569519043,-2.9999420642852783,-1.4942667484283447,-2.999997138977051,-0.17933908104896545,-0.18247345089912415,-0.18310938775539398,-0.18177151679992676,0.02562624402344227,0.1095244511961937,0.11537180840969086,0.14369630813598633
0.7,0.09550189226865768,0.008998890407383442,0.0,0.6500735878944397,0.0,0.0,-0.759871244430542,0.8367193937301636,-0.15085187554359436,0.0,0.0,0.0,-0.8923693299293518,0.33359262347221375,0.742382287979126,0.4200000464916229,0.6309989094734192,7.383183060483134e-07,-3.7896252251812257e-06,-0.7757837176322937,0.00022122282825876027,-0.0002960656420327723,-9.770807810127735e-05,0.005941699258983135,0.0003521661274135113,-0.0005839223158545792,0.33343786001205444,0.7756298780441284,0.47388434410095215,0.4045625329017639,0.48472023010253906,1.7959380149841309,0.32211366295814514,0.757231593132019,0.42000001668930054,-0.6048488020896912,-1.479282259941101,-1.5442850589752197,-3.0000007152557373,-0.1840534210205078,-0.1852692812681198,-0.18519839644432068,-0.18296830356121063,-0.08475413918495178,-0.053647495806217194,-0.07841628044843674,-0.0875990092754364
0.7166666666666667,0.10616878420114517,0.008707721717655659,0.0,0.6614571809768677,0.0,0.0,-0.7499829530715942,0.5721717476844788,0.03430372476577759,0.0,0.0,0.0,2.6516270637512207,0.33359262347221375,0.7423822283744812,0.4200000464916229,0.6309992074966431,5.775370937044499e-07,-3.6466810797719518e-06,-0.775783360004425,0.00018343368719797581,-0.0002833814942277968,-0.0001013695728033781,0.005753435660153627,-0.00043194773024879396,-0.0005267400410957634,0.3426640033721924,0.7831841111183167,0.49622902274131775,0.5702692866325378,0.4344034492969513,0.9730199575424194,0.32211366295814514,0.757231593132019,0.42000001668930054,-0.6023298501968384,1.5164357423782349,-1.5179131031036377,3.000000476837158,-0.18502725660800934,-0.18568263947963715,-0.18580946326255798,-0.18359258770942688,-0.01277602557092905,0.023395804688334465,0.020998772233724594,0.024070413783192635
0.7333333333333333,0.11230491101741791,0.004382609389722347,0.0,0.6607269644737244,0.0,0.0,-0.7506263256072998,0.3244408965110779,-0.2821851372718811,0.0,0.0,0.0,-1.0519933700561523,0.33359262347221375,0.7423822283744812,0.4200000464916229,0.6309991478919983,5.333617991709616e-07,-3.4836173199437326e-06,-0.7757834792137146,0.00018620099581312388,-0.0002812892198562622,-0.00010235863737761974,0.005689084995537996,-0.00039350803126581013,-0.0005329907289706171,0.34964343905448914,0.787894606590271,0.5055736303329468,0.23574066162109375,-0.016571318730711937,0.29668980836868286,0.32211366295814514,0.757231593132019,0.42000001668930054,-0.6113239526748657,-2.258223533630371,-1.4678566455841064,3.0000009536743164,-0.18232278525829315,-0.1825902760028839,-0.1828588843345642,-0.18077018857002258,0.03463971987366676,0.10132422298192978,0.13807643949985504,0.16581453382968903
0.75,0.11966262757778168,0.004690245725214481,0.0,0.6710352301597595,0.0,0.0,-0.7414254546165466,0.45862501859664917,0.010523875243961811,0.0,0.0,0.0,2.379145622253418,0.33359262347221375,0.742382287979126,0.4200000464916229,0.6309987902641296,5.295543701322458e-07,-3.777332494792063e-06,-0.7757837176322937,0.00018245200044475496,-0.0002838012296706438,-0.00010105990804731846,0.005767288617789745,-0.0004460031632333994,-0.0005244203493930399,0.3550874590873718,0.7874218225479126,0.5106906890869141,0.4503134489059448,0.10946740210056305,0.34392210841178894,0.32211366295814514,0.757231593132019,0.42000001668930054,-0.6323316693305969,-0.40608879923820496,-1.4846676588058472,-3.000000476837158,-0.18479551374912262,-0.18354730308055878,-0.18265306949615479,-0.17957760393619537,0.011029066517949104,0.0547199621796608,0.09053944051265717,0.12212928384542465
0.7666666666666666,0.12398711591959,0.0012431337963789701,0.0,0.6690839529037476,0.0,0.0,-0.7431868314743042,0.18546883761882782,-0.2563944160938263,0.0,0.0,0.0,-1.1270172595977783,0.33359262347221375,0.7423822283744812,0.4200000464916229,0.6309992074966431,5.786807264485105e-07,-3.834111339529045e-06,-0.7757834792137146,0.00018389266915619373,-0.0002833909238688648,-0.00010144757106900215,0.005751606076955795,-0.00042511074570938945,-0.0005276609444990754,0.36325424909591675,0.7864830493927002,0.5120636224746704,0.5154324769973755,-0.2292267084121704,-0.02506038174033165,0.32211366295814514,0.757231593132019,0.42000001668930054,-0.6680497527122498,-2.999999761581421,-1.446905493736267,3.000000238418579,-0.18428492546081543,-0.18210634589195251,-0.18030564486980438,-0.1764117032289505,-0.029331792145967484,0.05140184238553047,0.134319469332695,0.20900234580039978
0.7833333333333333,0.12936587631702423,0.0017661700258031487,0.0,0.6462979912757874,0.0,0.0,-0.763085126876831,0.3644396960735321,0.03892319276928902,0.0,0.0,0.0,-4.405698776245117,0.33359262347221375,0.7423822283744812,0.4200000464916229,0.6309990286827087,5.61282661237783e-07,-3.7791908198414603e-06,-0.7757836580276489,0.0001886743411887437,-0.00028198346262797713,-0.00010287412442266941,0.005692901089787483,-0.00036333611933514476,-0.0005382522358559072,0.37152862548828125,0.7830368280410767,0.5158956050872803,0.5875232219696045,-0.11477439105510712,0.5634046792984009,0.32211366295814514,0.757231593132019,0.42000001668930054,-0.7115572690963745,-2.2470805644989014,-1.464173436164856,-2.999999761581421,-0.18741455674171448,-0.18386778235435486,-0.180530846118927,-0.1751900613307953,-0.07649354636669159,-0.035931240767240524,0.024627966806292534,0.08680995553731918
0.8,0.13689391314983368,0.004753241315484047,0.0,0.6382763385772705,0.0,0.0,-0.7698072791099548,0.485863596200943,0.2375958114862442,0.0,0.0,0.0,-0.2802477777004242,0.33359262347221375,0.742382287979126,0.4200000464916229,0.6309987902641296,5.148911554897495e-07,-3.7350639559008414e-06,-0.7757837176322937,0.00018219505727756768,-0.0002838686923496425,-0.00010098493658006191,0.005770140327513218,-0.0004494980676099658,-0.000523860624525696,0.3787255883216858,0.7842075228691101,0.5260390639305115,0.2547304630279541,0.22050955891609192,0.6866880059242249,0.32211366295814514,0.757231593132019,0.42000001668930054,-0.7158892750740051,1.4125407934188843,-1.514191746711731,-2.999999761581421,-0.1880359649658203,-0.18443220853805542,-0.1806994527578354,-0.1749872863292694,0.012824260629713535,-0.012515711598098278,-0.019723400473594666,-0.03271816298365593
0.8166666666666667,0.14140290021896362,0.002602128777652979,0.0,0.6538315415382385,0.0,0.0,-0.7566401362419128,0.2710202932357788,-0.17269332706928253,0.0,0.0,0.0,3.1039323806762695,0.33359262347221375,0.7423822283744812,0.4200000464916229,0.6309992074966431,5.545703061216045e-07,-3.787433797697304e-06,-0.7757834792137146,0.0001837879972299561,-0.00028343332814984024,-0.00010141544044017792,0.005753008648753166,-0.00042659827158786356,-0.0005274310824461281,0.3804227113723755,0.7893396615982056,0.5341271758079529,-0.08868280053138733,0.21651239693164825,0.3249160051345825,0.32211366295814514,0.757231593132019,0.42000001668930054,-0.6949427723884583,1.1108975410461426,-1.4754242897033691,3.000000238418579,-0.18277055025100708,-0.18024766445159912,-0.17731498181819916,-0.17251044511795044,0.18395371735095978,0.1565471738576889,0.1394375115633011,0.10814137011766434
0.8333333333333334,0.143144890666008,0.0045636314898729324,0.0,0.6553550362586975,0.0,0.0,-0.7553209662437439,0.040905892848968506,0.13357363641262054,0.0,0.0,0.0,-0.6576108932495117,0.33359262347221375,0.7423822283744812,0.4200000464916229,0.6309990286827087,5.568286951529444e-07,-3.7266577237460297e-06,-0.7757836580276489,0.00018839941185433418,-0.00028194018523208797,-0.00010280590504407883,0.005693406797945499,-0.00036659775651060045,-0.0005376490298658609,0.37515461444854736,0.7909270524978638,0.5358359813690186,-0.4137709140777588,0.10745497792959213,-0.009625338017940521,0.32211366295814514,0.757231593132019,0.42000001668930054,-0.6887414455413818,-0.2521992027759552,-1.4253733158111572,3.0000007152557373,-0.18356335163116455,-0.1808611899614334,-0.17763084173202515,-0.1728295385837555,0.058112867176532745,0.03973378986120224,0.030939364805817604,0.007927962578833103
0.85,0.14184559881687164,0.0032677866984158754,0.0,0.6662881374359131,0.0,0.0,-0.7456943988800049,-0.14878058433532715,-0.10263623297214508,0.0,0.0,0.0,2.4013493061065674,0.33359262347221375,0.742382287979126,0.4200000464916229,0.6309987902641296,5.354157224246592e-07,-3.678910388771328e-06,-0.7757837176322937,0.0001820724573917687,-0.00028387195197865367,-0.00010095280595123768,0.005770896561443806,-0.00045105800381861627,-0.0005236002034507692,0.36919736862182617,0.7920081615447998,0.5357323884963989,-0.3916667699813843,0.04352712258696556,0.04694507643580437,0.32211366295814514,0.757231593132019,0.42000001668930054,-0.6814948320388794,1.003780484199524,-1.4429993629455566,-3.0000009536743164,-0.18310928344726562,-0.18034492433071136,-0.1768970787525177,-0.17211194336414337,-0.05875825881958008,-0.03202084079384804,0.0031940138433128595,0.02419906295835972
0.8666666666666667,0.1420161873102188,-0.00019821901514660567,0.0,0.6638848185539246,0.0,0.0,-0.7478348016738892,0.06406155228614807,-0.26995062828063965,0.0,0.0,0.0,-1.2374272346496582,0.33359262347221375,0.7423822283744812,0.4200000464916229,0.6309991478919983,5.553633855015505e-07,-3.7227123357297387e-06,-0.7757834196090698,0.00018352002371102571,-0.00028338664560578763,-0.00010134954936802387,0.005753328558057547,-0.00042979969293810427,-0.0005268529057502747,0.3615807294845581,0.7922117710113525,0.5323041677474976,-0.450805127620697,-0.02957957796752453,-0.2760774791240692,0.32211366295814514,0.757231593132019,0.42000001668930054,-0.6769377589225769,-0.3420949876308441,-1.404438853263855,3.000000238418579,-0.18482492864131927,-0.18146294355392456,-0.17724837362766266,-0.17188477516174316,-0.08754554390907288,-0.04852299764752388,-3.527384251356125e-08,0.04205652326345444
0.8833333333333333,0.14575745165348053,0.0006210848223417997,0.0,0.6730474233627319,0.0,0.0,-0.739599347114563,0.20340853929519653,0.08658645302057266,0.0,0.0,0.0,2.2080390453338623,0.33359262347221375,0.742382287979126,0.4200000464916229,0.6309990286827087,4.5222304834169336e-07,-3.7658260225725826e-06,-0.7757835984230042,0.00018652966537047178,-0.0002825672272592783,-0.00010224571451544762,0.005717480555176735,-0.00039162408211268485,-0.0005334521410986781,0.3552978038787842,0.7896676063537598,0.5314779281616211,-0.3041555881500244,-0.056800927966833115,0.19095858931541443,0.32211366295814514,0.757231593132019,0.42000001668930054,-0.687534511089325,-0.8766733407974243,-1.4224854707717896,-2.999999761581421,-0.19036975502967834,-0.1856433004140854,-0.1798902153968811,-0.17308256030082703,-0.19227704405784607,-0.15115803480148315,-0.0915866568684578,-0.0277574360370636
