vladlanda/robotic-transformer/data/env_000_episode_0229.csv
sim_time_s,robot_box_x,robot_box_y,robot_box_z,robot_box_quat_w,robot_box_quat_x,robot_box_quat_y,robot_box_quat_z,robot_box_linvel_x,robot_box_linvel_y,robot_box_linvel_z,robot_box_angvel_x,robot_box_angvel_y,robot_box_angvel_z,cube_world_x,cube_world_y,cube_world_z,cube_quat_w,cube_quat_x,cube_quat_y,cube_quat_z,cube_linvel_x,cube_linvel_y,cube_linvel_z,cube_angvel_x,cube_angvel_y,cube_angvel_z,endpoint_world_x,endpoint_world_y,endpoint_world_z,endpoint_linvel_x,endpoint_linvel_y,endpoint_linvel_z,target_cube_world_x,target_cube_world_y,target_cube_world_z,gripper_actual_pos_rad_gp_leftgearjoint,gripper_actual_vel_rad_s_gp_leftgearjoint,gripper_actual_pos_rad_gp_rotatingjoint,gripper_actual_vel_rad_s_gp_rotatingjoint,motor_angle_rad_joint1,motor_angle_rad_joint2,motor_angle_rad_joint3,motor_angle_rad_joint4,motor_speed_rad_s_joint1,motor_speed_rad_s_joint2,motor_speed_rad_s_joint3,motor_speed_rad_s_joint4
0.0,0.0,0.0,0.0,1.0,0.0,0.0,0.0,0.0,0.0,0.0,0.0,0.0,0.0,-0.3755868971347809,0.7464220523834229,0.41999998688697815,1.0,0.0,0.0,0.0,0.0,0.0,0.0,0.0,0.0,0.0,3.42540442943573e-06,-0.005000244826078415,1.313499927520752,0.0,0.0,0.0,0.3626706302165985,0.7519220113754272,0.42000001668930054,-1.5707999467849731,0.0,0.0,0.0,0.0,0.0,0.0,0.0,0.0,0.0,0.0,0.0
0.016666666666666666,0.0028803080786019564,0.002177844988182187,0.0,0.9998138546943665,0.0,0.0,0.01929405890405178,0.2409442663192749,0.18230585753917694,0.0,0.0,0.0,3.1418144702911377,-0.37558701634407043,0.746421754360199,0.41999998688697815,1.0,3.279964630564791e-06,-8.339746386809566e-07,8.465587342243452e-08,-1.9833529222523794e-05,0.00017983045836444944,-6.132945418357849e-05,0.0009432713268324733,-0.004689474124461412,-0.00031981561915017664,-0.007109144702553749,0.0033869105391204357,1.3159382343292236,-0.8140800595283508,0.987152099609375,0.18096037209033966,0.3626706302165985,0.7519220113754272,0.42000001668930054,-1.5301095247268677,3.00000262260437,-0.04584862291812897,-3.000000476837158,0.0008699982427060604,0.0007966567645780742,0.0007112246239557862,0.0006110817193984985,0.1109471246600151,0.09758526086807251,0.08336218446493149,0.06825655698776245
0.03333333333333333,0.008964192122220993,0.00679771788418293,0.0,0.9998018741607666,0.0,0.0,0.01990456134080887,0.40708255767822266,0.3152245581150055,0.0,0.0,0.0,-0.8690431714057922,-0.37558713555336,0.7464216947555542,0.4200000464916229,1.0,3.3907890610862523e-06,-2.132393774445518e-06,-3.709030593768148e-08,0.0002635782875586301,0.00026937786606140435,-0.00010509765706956387,-0.0017707186052575707,0.004130848217755556,-0.00013548022252507508,-0.026779359206557274,0.026349298655986786,1.316690444946289,-1.504500389099121,1.6218554973602295,-0.07353796064853668,0.3626706302165985,0.7519220113754272,0.42000001668930054,-1.4800901412963867,3.000002384185791,-0.09588845819234848,-3.0000007152557373,0.002908000722527504,0.0025409094523638487,0.0021360814571380615,0.001690222998149693,0.1543412208557129,0.12684868276119232,0.09786047786474228,0.06729741394519806
0.05,0.018478136509656906,0.013906541280448437,0.0,0.9999740719795227,0.0,0.0,-0.007204967550933361,0.6363546848297119,0.4725172519683838,0.0,0.0,0.0,-4.072518825531006,-0.3755871653556824,0.746421754360199,0.4200000464916229,1.0,3.7651539059879724e-06,-2.2118510969448835e-06,5.617565523863277e-09,0.0002653085975907743,0.0002669144596438855,-0.00010440382175147533,-0.0017242616740986705,0.004177405033260584,-0.00012949334632139653,-0.054496340453624725,0.058065563440322876,1.312514066696167,-1.8274123668670654,2.108180046081543,-0.41734492778778076,0.3626706302165985,0.7519220113754272,0.42000001668930054,-1.4300718307495117,3.000002145767212,-0.14592714607715607,-3.000001907348633,0.005660142283886671,0.004730870947241783,0.003729282645508647,0.0026512222830206156,0.18554630875587463,0.14187128841876984,0.09627304971218109,0.04868609458208084
0.06666666666666667,0.030805742368102074,0.023400435224175453,0.0,0.9998744130134583,0.0,0.0,-0.015846310183405876,0.7728339433670044,0.6164056658744812,0.0,0.0,0.0,-0.0349799208343029,-0.3755871653556824,0.7464216947555542,0.4200000464916229,0.9999999403953552,3.4067420529027004e-06,-2.2855354018247453e-06,4.300922284983244e-07,0.0002670245012268424,0.00026791662094183266,-0.00010437797755002975,-0.0017406758852303028,0.004211791325360537,-0.00012850333587266505,-0.0883004367351532,0.09236707538366318,1.3031237125396729,-2.0967612266540527,2.169508457183838,-0.7000051736831665,0.3626706302165985,0.7519220113754272,0.42000001668930054,-1.3800458908081055,3.000002145767212,-0.1501665562391281,2.0526928901672363,0.007845278829336166,0.006108248606324196,0.00425907364115119,0.002291301963850856,0.10743390023708344,0.05004853755235672,-0.009511418640613556,-0.0712481141090393
0.08333333333333333,0.0368424728512764,0.036780767142772675,0.0,0.9992117285728455,0.0,0.0,-0.03969757258892059,0.2271147519350052,0.8762766122817993,0.0,0.0,0.0,-3.806614875793457,-0.3755871653556824,0.7464216947555542,0.4200000464916229,1.0,3.697293777804589e-06,-2.1888927221880294e-06,-2.6323124302507495e-07,0.00026389575214125216,0.0002658644807524979,-0.00010434049181640148,-0.0017081999685615301,0.0041502113454043865,-0.00012991497351322323,-0.11780999600887299,0.1325155794620514,1.289517879486084,-1.4771974086761475,2.654845714569092,-0.8588131666183472,0.3626706302165985,0.7519220113754272,0.42000001668930054,-1.3300435543060303,3.000000476837158,-0.18728135526180267,-2.999999761581421,0.0033272746950387955,0.0007817291771061718,-0.001930512604303658,-0.0048188078217208385,-0.4000011086463928,-0.4618014097213745,-0.5263786315917969,-0.593925416469574
0.1,0.04670673608779907,0.05173901095986366,0.0,0.9958400130271912,0.0,0.0,-0.09111923724412918,0.7375041842460632,0.9042757749557495,0.0,0.0,0.0,-6.9638776779174805,-0.3755871653556824,0.7464216947555542,0.4200000464916229,0.9999999403953552,3.6203691706759855e-06,-2.2651593098999e-06,1.7462396328937757e-07,0.0002667671360541135,0.000267408526269719,-0.00010407832451164722,-0.0017386116087436676,0.004209146834909916,-0.00012775430514011532,-0.14349226653575897,0.1787356287240982,1.2754411697387695,-1.6052122116088867,2.921558141708374,-0.8900661468505859,0.3626706302165985,0.7519220113754272,0.42000001668930054,-1.2800315618515015,2.999999523162842,-0.20425225794315338,0.6642571091651917,0.001085040858015418,-0.0030419030226767063,-0.00733917485922575,-0.011815544217824936,-0.046537019312381744,-0.14973586797714233,-0.25191450119018555,-0.35296493768692017
0.11666666666666667,0.0552116334438324,0.06386430561542511,0.0,0.9924228191375732,0.0,0.0,-0.1228695809841156,0.5400657057762146,0.684894859790802,0.0,0.0,0.0,-2.577151298522949,-0.3755871653556824,0.7464216947555542,0.4200000464916229,1.0,3.7983475067449035e-06,-2.262775296912878e-06,-1.5019621457668109e-07,0.0002637402212712914,0.00026565929874777794,-0.00010429113171994686,-0.0017053772462531924,0.004147558938711882,-0.00012979762686882168,-0.17437757551670074,0.2248581051826477,1.2589577436447144,-1.8291165828704834,2.972555637359619,-0.9994603991508484,0.3626706302165985,0.7519220113754272,0.42000001668930054,-1.2300406694412231,3.0,-0.24223820865154266,-3.0,-0.0019114392343908548,-0.007636649068444967,-0.013506296090781689,-0.019528349861502647,-0.08987420052289963,-0.2039339691400528,-0.3146289885044098,-0.4217618405818939
0.13333333333333333,0.06100679188966751,0.07735726982355118,0.0,0.9865259528160095,0.0,0.0,-0.16360478103160858,0.28288841247558594,0.8542383313179016,0.0,0.0,0.0,-5.690989017486572,-0.3755871653556824,0.746421754360199,0.4200000464916229,0.9999999403953552,3.550464725776692e-06,-2.2297590476227924e-06,2.9291828695932054e-07,0.00026703329058364034,0.00026779319159686565,-0.00010417005978524685,-0.0017440806841477752,0.0042136311531066895,-0.00012799835531041026,-0.20360839366912842,0.2789767384529114,1.2399706840515137,-1.596154808998108,3.6065759658813477,-1.275545597076416,0.3626706302165985,0.7519220113754272,0.42000001668930054,-1.1800258159637451,2.999992609024048,-0.2082289308309555,3.000000476837158,-0.005145249888300896,-0.012710615061223507,-0.020351344719529152,-0.028072278946638107,-0.251155823469162,-0.35573455691337585,-0.4558242857456207,-0.5512372255325317
0.15,0.06408136337995529,0.08897679299116135,0.0,0.9761369228363037,0.0,0.0,-0.21715591847896576,0.13442480564117432,0.6239331960678101,0.0,0.0,0.0,-6.874858856201172,-0.3755871653556824,0.7464216947555542,0.4200000464916229,0.9999999403953552,3.3380260902049486e-06,-2.242854861833621e-06,-2.8023800169307833e-08,0.00026674504624679685,0.0002675813448149711,-0.00010427623055875301,-0.0017367452383041382,0.004206857644021511,-0.00012831660569645464,-0.23285061120986938,0.3393479585647583,1.2140411138534546,-1.7246358394622803,3.8132781982421875,-1.8354060649871826,0.3626706302165985,0.7519220113754272,0.42000001668930054,-1.153244972229004,0.4155624210834503,-0.23962613940238953,-3.0000007152557373,-0.009765053167939186,-0.018868014216423035,-0.027962803840637207,-0.03705265372991562,-0.3283083736896515,-0.40188971161842346,-0.4707295894622803,-0.5348251461982727
0.16666666666666666,0.0693594440817833,0.10089819133281708,0.0,0.9688138365745544,0.0,0.0,-0.24778978526592255,0.31416743993759155,0.7521601915359497,0.0,0.0,0.0,-2.712210178375244,-0.3755871653556824,0.746421754360199,0.4200000464916229,0.9999999403953552,3.6477324556472013e-06,-2.3072666408552323e-06,3.5276432441833094e-08,0.0002672694972716272,0.0002680137986317277,-0.00010418682359158993,-0.0017472155159339309,0.004217604175209999,-0.0001279844727832824,-0.26861441135406494,0.40230146050453186,1.175497055053711,-2.1127238273620605,4.055694580078125,-2.7746100425720215,0.3626706302165985,0.7519220113754272,0.42000001668930054,-1.1131397485733032,3.000002384185791,-0.24344882369041443,2.0988612174987793,-0.016587257385253906,-0.02629382349550724,-0.03593512251973152,-0.045518580824136734,-0.5655501484870911,-0.5625005960464478,-0.5577709078788757,-0.5518012046813965
0.18333333333333332,0.07241375744342804,0.11084982752799988,0.0,0.9572905898094177,0.0,0.0,-0.28912749886512756,0.1333867758512497,0.5188493728637695,0.0,0.0,0.0,-5.998533248901367,-0.3755871653556824,0.7464216947555542,0.4200000464916229,0.9999999403953552,3.290510676379199e-06,-2.1939399630355183e-06,-2.7923860557166336e-07,0.00026677988353185356,0.0002677598095033318,-0.00010434072464704514,-0.0017390806460753083,0.004207015968859196,-0.00012845972378272563,-0.30052798986434937,0.47148045897483826,1.1257209777832031,-1.5591745376586914,4.346522331237793,-3.193067789077759,0.3626706302165985,0.7519220113754272,0.42000001668930054,-1.0631428956985474,2.9999983310699463,-0.2798265218734741,-2.999999761581421,-0.027757640928030014,-0.037339694797992706,-0.04683138057589531,-0.05624833703041077,-0.7421877384185791,-0.7290859818458557,-0.7149876356124878,-0.7003874182701111
0.2,0.07179150730371475,0.12112558633089066,0.0,0.9504210948944092,0.0,0.0,-0.3109658658504486,-0.12120307236909866,0.6590507626533508,0.0,0.0,0.0,-1.6803290843963623,-0.3755871653556824,0.7464216947555542,0.4200000464916229,1.0,3.280785904280492e-06,-2.2192850792635e-06,1.5945126108363183e-07,0.0002662787737790495,0.00026740043540485203,-0.00010425224900245667,-0.0017357869073748589,0.004197799134999514,-0.00012864739983342588,-0.32976508140563965,0.5405716896057129,1.0637030601501465,-1.5409624576568604,4.184398651123047,-4.188732624053955,0.3626706302165985,0.7519220113754272,0.42000001668930054,-1.0178041458129883,2.450174331665039,-0.3298526704311371,-2.999999761581421,-0.041974131017923355,-0.050857607275247574,-0.059638120234012604,-0.06834430992603302,-0.9031468033790588,-0.8434291481971741,-0.7834243178367615,-0.7239888906478882
0.21666666666666667,0.07374370843172073,0.13317857682704926,0.0,0.9386013746261597,0.0,0.0,-0.3450036346912384,0.12037172168493271,0.7795988917350769,0.0,0.0,0.0,-5.187746047973633,-0.3755871653556824,0.746421754360199,0.4200000464916229,1.0,3.6131561955699e-06,-2.2701929083268624e-06,2.2099250429619133e-07,0.00026712566614151,0.00026781755150295794,-0.00010414118878543377,-0.0017445905832573771,0.004215225111693144,-0.0001278650452150032,-0.3548928499221802,0.6095090508460999,0.986329197883606,-1.270782709121704,4.018196105957031,-5.0779829025268555,0.3626706302165985,0.7519220113754272,0.42000001668930054,-0.9682993292808533,2.9999992847442627,-0.37987858057022095,-3.0000014305114746,-0.05620951950550079,-0.06436081230640411,-0.07204238325357437,-0.07967133074998856,-0.9346511960029602,-0.9349071383476257,-0.8414113521575928,-0.7514515519142151
0.23333333333333334,0.07846648246049881,0.14110112190246582,0.0,0.9327601790428162,0.0,0.0,-0.3604975938796997,0.36952483654022217,0.38627785444259644,0.0,0.0,0.0,-0.8869955539703369,-0.3755871653556824,0.7464216947555542,0.4200000464916229,1.0,3.3819057989603607e-06,-2.2909978270035936e-06,2.727781520661665e-07,0.00026691341190598905,0.0002678005548659712,-0.00010433373972773552,-0.0017396059120073915,0.004209697246551514,-0.0001284381578443572,-0.3772541880607605,0.6679087281227112,0.8947005271911621,-1.0642582178115845,3.1897616386413574,-5.86807918548584,0.3626706302165985,0.7519220113754272,0.42000001668930054,-0.9182904958724976,3.0,-0.4299069046974182,-2.9999985694885254,-0.07168909907341003,-0.07970677316188812,-0.08641019463539124,-0.09199793636798859,-0.9411789178848267,-0.9295840263366699,-0.9132636785507202,-0.7748045325279236
0.25,0.07841064035892487,0.1533384472131729,0.0,0.9210575819015503,0.0,0.0,-0.38942641019821167,-0.1233058050274849,0.8589361310005188,0.0,0.0,0.0,-4.757229804992676,-0.37558713555336,0.7464216947555542,0.4200000464916229,0.9999999403953552,3.7065931337565416e-06,-2.2230362901609624e-06,-2.2552902123607055e-07,0.00026424863608554006,0.0002665686479303986,-0.00010457867756485939,-0.0017169653438031673,0.004155508242547512,-0.000130626474856399,-0.38982635736465454,0.7099320888519287,0.7891252040863037,-0.36592045426368713,1.9372620582580566,-6.538315773010254,0.3626706302165985,0.7519220113754272,0.42000001668930054,-0.8682804703712463,2.999999761581421,-0.4799371659755707,-3.0000014305114746,-0.08913815766572952,-0.09689583629369736,-0.10340582579374313,-0.10884425044059753,-0.9894003868103027,-0.9908957481384277,-0.9922526478767395,-0.9935001730918884
0.26666666666666666,0.08232606202363968,0.160437673330307,0.0,0.9156084656715393,0.0,0.0,-0.402071088552475,0.2546156942844391,0.32334455847740173,0.0,0.0,0.0,-0.5289661288261414,-0.3755871653556824,0.7464216947555542,0.4200000464916229,0.9999999403953552,3.719682354130782e-06,-2.40352301261737e-06,-1.831047029554611e-07,0.00026623340090736747,0.00026729138335213065,-0.00010425737127661705,-0.0017326533561572433,0.004196588881313801,-0.00012851436622440815,-0.3976616859436035,0.7345149517059326,0.6801878213882446,-0.21393516659736633,0.9498063325881958,-6.613029956817627,0.3626706302165985,0.7519220113754272,0.42000001668930054,-0.8182711601257324,2.999995708465576,-0.5299680829048157,-3.000001907348633,-0.10166914761066437,-0.10960669070482254,-0.11614511162042618,-0.1216493472456932,-0.9707381725311279,-0.926327109336853,-0.8798229694366455,-0.8408177495002747
0.2833333333333333,0.08250739425420761,0.16378682851791382,0.0,0.9216978549957275,0.0,0.0,-0.38790854811668396,-0.07009399682283401,0.1618873029947281,0.0,0.0,0.0,2.9096133708953857,-0.3755871653556824,0.746421754360199,0.4200000464916229,0.9999999403953552,3.5841080716636498e-06,-2.315531901331269e-06,7.401592228006848e-08,0.0002652209368534386,0.0002645519271027297,-0.00010317238047719002,-0.0017021773383021355,0.0041851806454360485,-0.00012499751755967736,-0.4017893970012665,0.743381679058075,0.5748029351234436,-0.10094736516475677,0.04951254278421402,-5.928567886352539,0.3626706302165985,0.7519220113754272,0.42000001668930054,-0.7682623863220215,3.0000009536743164,-0.5799978375434875,-3.0000011920928955,-0.1190418004989624,-0.1268107295036316,-0.1332315355539322,-0.1386396735906601,-1.018164873123169,-1.0137068033218384,-1.010309100151062,-1.0076006650924683
0.3,0.07975047081708908,0.1640007048845291,0.0,0.920949399471283,0.0,0.0,-0.38968217372894287,-0.19989970326423645,-0.031452517956495285,0.0,0.0,0.0,-1.134202480316162,-0.3755871653556824,0.7464216947555542,0.4200000464916229,1.0,3.7242741655063583e-06,-2.2719839307683287e-06,9.633081532456345e-08,0.0002631251991260797,0.0002652581315487623,-0.00010438100434839725,-0.0016961225774139166,0.0041347686201334,-0.00013027382374275476,-0.39673101902008057,0.7463522553443909,0.4778832197189331,0.6764164566993713,0.11680172383785248,-5.590829849243164,0.3626706302165985,0.7519220113754272,0.42000001668930054,-0.7182538509368896,3.000002384185791,-0.6300257444381714,-2.9999992847442627,-0.1362040936946869,-0.1438770592212677,-0.15024852752685547,-0.15561577677726746,-1.016090750694275,-1.0121824741363525,-1.0091972351074219,-1.0068037509918213
0.31666666666666665,0.07471898198127747,0.16170166432857513,0.0,0.9256695508956909,0.0,0.0,-0.37833303213119507,-0.3490380644798279,-0.18368931114673615,0.0,0.0,0.0,2.2964890003204346,-0.37557992339134216,0.7463902831077576,0.4200148582458496,0.9999997615814209,0.00036237339372746646,0.00033568619983270764,-0.00030920698191039264,0.04568592831492424,-0.1770208775997162,-0.019795935600996017,-0.0005794998724013567,-0.7603763937950134,-7.1985297203063965,-0.390556275844574,0.7490661144256592,0.42937490344047546,0.15891648828983307,-0.06565495580434799,-0.28022727370262146,0.3626706302165985,0.7519220113754272,0.42000001668930054,-0.6682487726211548,2.988150119781494,-0.680436372756958,-2.994135618209839,-0.14838948845863342,-0.15626059472560883,-0.16269969940185547,-0.16795077919960022,-0.38255420327186584,-0.413592666387558,-0.4284628629684448,-0.42128363251686096
0.3333333333333333,0.06735428422689438,0.15700043737888336,0.0,0.9239530563354492,0.0,0.0,-0.38250595331192017,-0.48499876260757446,-0.32149770855903625,0.0,0.0,0.0,-1.459999680519104,-0.37470829486846924,0.7445164322853088,0.42000052332878113,0.9994342923164368,3.8173711800482124e-05,-5.346765829017386e-05,-0.033628903329372406,0.19145871698856354,0.14097319543361664,-0.002630507107824087,-0.23831510543823242,0.21995194256305695,-7.8042402267456055,-0.3883148431777954,0.7525295615196228,0.4263171851634979,0.23426413536071777,0.22036412358283997,-0.17968465387821198,0.3626706302165985,0.7519220113754272,0.42000001668930054,-0.6182428598403931,2.9995434284210205,-0.7305291891098022,-2.9998512268066406,-0.15517768263816833,-0.1629813313484192,-0.1690521389245987,-0.173550084233284,-0.4302372634410858,-0.394809752702713,-0.3429032564163208,-0.2701888978481293
0.35,0.05779346078634262,0.15003518760204315,0.0,0.9281482696533203,0.0,0.0,-0.37221068143844604,-0.6161757707595825,-0.45658233761787415,0.0,0.0,0.0,2.2227671146392822,-0.36993175745010376,0.7488951086997986,0.4200000464916229,0.9934496879577637,1.3689245861314703e-06,2.53527673521603e-07,-0.11426971107721329,0.2148691713809967,0.18473461270332336,-4.821456968784332e-06,0.00020202826999593526,9.554385542287491e-06,-7.182150840759277,-0.38272935152053833,0.7568374276161194,0.4231695532798767,0.4722229540348053,0.33521953225135803,-0.16828317940235138,0.3626706302165985,0.7519220113754272,0.42000001668930054,-0.5682377219200134,2.999974012374878,-0.7805730700492859,-2.999997138977051,-0.16372163593769073,-0.17013812065124512,-0.17459183931350708,-0.1771964281797409,-0.5210516452789307,-0.4110996723175049,-0.2897750437259674,-0.15515172481536865
0.36666666666666664,0.04596741870045662,0.14077109098434448,0.0,0.9263190031051636,0.0,0.0,-0.37674009799957275,-0.7523199915885925,-0.5999082922935486,0.0,0.0,0.0,-1.4945228099822998,-0.3641665577888489,0.754670262336731,0.4200016260147095,0.9819619059562683,1.2737446922983509e-05,-5.924054676142987e-06,-0.18907855451107025,0.4707062840461731,0.48116010427474976,-0.0036075827665627003,-0.04341159760951996,-0.17466942965984344,-2.6490674018859863,-0.3735683560371399,0.7620489001274109,0.4208794832229614,0.6650553941726685,0.37323471903800964,-0.12458694726228714,0.3626706302165985,0.7519220113754272,0.42000001668930054,-0.5182328224182129,2.999979257583618,-0.8306230902671814,-2.999993324279785,-0.17248405516147614,-0.17686593532562256,-0.17907442152500153,-0.17920641601085663,-0.49280548095703125,-0.36551234126091003,-0.22610080242156982,-0.07415086776018143
0.3833333333333333,0.036754146218299866,0.12869113683700562,0.0,0.9136436581611633,0.0,0.0,-0.40651604533195496,-0.47288963198661804,-0.778239905834198,0.0,0.0,0.0,-4.713327407836914,-0.35338035225868225,0.7652813792228699,0.4200355112552643,0.9778982400894165,0.0009086478967219591,-0.00020073178166057914,-0.20907938480377197,0.8434827327728271,0.8160607814788818,0.011372996494174004,0.6222909688949585,-0.3546309769153595,-3.3517425060272217,-0.36088836193084717,0.7706865072250366,0.41982871294021606,0.9344527721405029,0.7121986746788025,-0.012441616505384445,0.3626706302165985,0.7519220113754272,0.42000001668930054,-0.4682272970676422,2.9999871253967285,-0.8806750774383545,-2.999627113342285,-0.18009962141513824,-0.18215779960155487,-0.18178993463516235,-0.1791035681962967,-0.39330732822418213,-0.24859945476055145,-0.08836467564105988,0.08621549606323242
0.4,0.025252072140574455,0.11479592323303223,0.0,0.8871999979019165,0.0,0.0,-0.461385041475296,-0.7657725214958191,-0.8605764508247375,0.0,0.0,0.0,-8.22321605682373,-0.3297654986381531,0.7852668166160583,0.4218282401561737,0.9673382043838501,-0.004102695733308792,-0.014811171218752861,-0.25302278995513916,1.992636799812317,1.5522761344909668,0.2079189568758011,-8.821672439575195,-4.987125873565674,1.4503222703933716,-0.33767151832580566,0.789405345916748,0.42153820395469666,2.090057849884033,1.6471590995788574,0.1872803270816803,0.3626706302165985,0.7519220113754272,0.42000001668930054,-0.4182191789150238,2.95270037651062,-0.9307118058204651,-2.999164342880249,-0.18886491656303406,-0.18800951540470123,-0.18449245393276215,-0.17846550047397614,-0.5590857267379761,-0.36797407269477844,-0.16570353507995605,0.04421304911375046
0.4166666666666667,0.016635892912745476,0.09788132458925247,0.0,0.8438870310783386,0.0,0.0,-0.5365208387374878,-0.46558651328086853,-1.0575705766677856,0.0,0.0,0.0,-11.10501766204834,-0.271462619304657,0.8182507753372192,0.42662352323532104,0.9491477608680725,0.035064175724983215,-0.05226124823093414,-0.3084765076637268,4.8553032875061035,2.4190666675567627,0.1617160439491272,29.52825355529785,-18.755496978759766,2.0492897033691406,-0.2784670889377594,0.824454665184021,0.42572101950645447,4.692244529724121,2.4805922508239746,0.4419426918029785,0.3626706302165985,0.7519220113754272,0.42000001668930054,-0.3871650695800781,0.9941858649253845,-0.8986945152282715,2.994288682937622,-0.20049172639846802,-0.1953732967376709,-0.1876017153263092,-0.17742875218391418,-0.7572516202926636,-0.48138952255249023,-0.2145170271396637,0.03644226863980293
0.43333333333333335,0.010856525041162968,0.08649162948131561,0.0,0.7879735827445984,0.0,0.0,-0.6157090663909912,-0.27299168705940247,-0.7257394790649414,0.0,0.0,0.0,-11.633614540100098,-0.18090525269508362,0.8544602990150452,0.43468284606933594,0.9225395321846008,0.07437130808830261,-0.0826956108212471,-0.36952826380729675,6.176490783691406,1.842508316040039,0.5632516145706177,12.052553176879883,-14.0919771194458,13.772771835327148,-0.18700140714645386,0.8629070520401001,0.4341181218624115,5.981678009033203,2.264927625656128,0.5810269713401794,0.3626706302165985,0.7519220113754272,0.42000001668930054,-0.37316080927848816,0.7015677690505981,-0.9245901703834534,-3.000000238418579,-0.21578754484653473,-0.20909331738948822,-0.19657811522483826,-0.18158306181430817,-0.5013442635536194,-0.5958812832832336,-0.4466949701309204,-0.2464883029460907
0.45,0.008412433788180351,0.07727305591106415,0.0,0.7438386678695679,0.0,0.0,-0.6683592200279236,-0.09791918843984604,-0.4844524562358856,0.0,0.0,0.0,-7.111378192901611,-0.08251042664051056,0.8814698457717896,0.4449618458747864,0.865904688835144,0.11861521750688553,-0.1011471226811409,-0.47529858350753784,5.89529275894165,0.2747865617275238,0.5200592875480652,1.9697209596633911,-19.819337844848633,26.23198127746582,-0.0892043262720108,0.8915027379989624,0.44360893964767456,5.931220054626465,1.2036093473434448,0.684951901435852,0.3626706302165985,0.7519220113754272,0.42000001668930054,-0.360482394695282,0.734369158744812,-0.921457827091217,2.8359978199005127,-0.22725120186805725,-0.22033481299877167,-0.20458360016345978,-0.18593937158584595,-0.7086551785469055,-0.6487030386924744,-0.4580773711204529,-0.25944387912750244
0.4666666666666667,0.004148847423493862,0.07287202775478363,0.0,0.7225143313407898,0.0,0.0,-0.6913559436798096,-0.24972501397132874,-0.23662303388118744,0.0,0.0,0.0,-2.469634532928467,0.013415936380624771,0.88898766040802,0.45347559452056885,0.7986000180244446,0.11979995667934418,-0.11988864094018936,-0.5775055885314941,5.499331951141357,-0.8866481781005859,0.3850870132446289,-17.01133918762207,3.7941372394561768,6.56667947769165,0.005969837307929993,0.9009368419647217,0.4524620771408081,5.702635765075684,-0.008634969592094421,0.5326875448226929,0.3626706302165985,0.7519220113754272,0.42000001668930054,-0.34839534759521484,0.6151528358459473,-0.9478921890258789,-2.9997403621673584,-0.24003775417804718,-0.232402503490448,-0.21274861693382263,-0.19024990499019623,-0.041639432311058044,-0.7497929930686951,-0.509564220905304,-0.2756776809692383
0.48333333333333334,0.0033668936230242252,0.06258004158735275,0.0,0.6923213601112366,0.0,0.0,-0.7215893268585205,-0.06778688728809357,-0.5908614993095398,0.0,0.0,0.0,-5.866504192352295,0.10335150361061096,0.8814978003501892,0.4568122625350952,0.7453590035438538,0.09673217684030533,-0.11260893940925598,-0.6499245762825012,5.492776393890381,-1.4998141527175903,0.3349851369857788,-6.687864303588867,-10.419081687927246,4.814915657043457,0.09690442681312561,0.8951632976531982,0.4564293920993805,5.169044494628906,-0.90044766664505,0.1420750916004181,0.3626706302165985,0.7519220113754272,0.42000001668930054,-0.3399794399738312,0.36127719283103943,-0.9979162216186523,-3.0000009536743164,-0.23618769645690918,-0.23844100534915924,-0.21576876938343048,-0.19030369818210602,-0.0028379757422953844,-0.3948892652988434,-0.17787064611911774,0.026003560051321983
0.5,0.004496193956583738,0.05758148804306984,0.0,0.675881028175354,0.0,0.0,-0.7370107769966125,0.1063259094953537,-0.2233460247516632,0.0,0.0,0.0,-1.595867395401001,0.18344183266162872,0.8616471290588379,0.45772844552993774,0.6940537095069885,0.07179947942495346,-0.09832374006509781,-0.7095538377761841,4.435747146606445,-1.7593690156936646,0.0020391689613461494,-3.0681371688842773,1.0932245254516602,1.9679455757141113,0.17783646285533905,0.8754798173904419,0.45748066902160645,4.465550422668457,-1.4213725328445435,0.011758998036384583,0.3626706302165985,0.7519220113754272,0.42000001668930054,-0.3346025347709656,0.44743281602859497,-1.0479384660720825,-3.0,-0.23998360335826874,-0.23997992277145386,-0.22073756158351898,-0.19232553243637085,-0.006288045551627874,-0.00375417061150074,-0.25739800930023193,-0.14531508088111877
0.5166666666666666,0.007872487418353558,0.05614383518695831,0.0,0.6757270097732544,0.0,0.0,-0.7371519207954407,0.24275991320610046,-0.036790404468774796,0.0,0.0,0.0,0.5932789444923401,0.24893352389335632,0.8371264338493347,0.45280471444129944,0.6459539532661438,0.04720044508576393,-0.08630048483610153,-0.7570123672485352,3.3849198818206787,-1.6072474718093872,-0.4015623927116394,4.695436954498291,8.3361234664917,-8.016100883483887,0.24445119500160217,0.8504440784454346,0.45355111360549927,3.515206813812256,-1.6443817615509033,-0.4045760929584503,0.3626706302165985,0.7519220113754272,0.42000001668930054,-0.3215057849884033,1.0100184679031372,-1.0979605913162231,-2.999630928039551,-0.2384602576494217,-0.23855720460414886,-0.22372378408908844,-0.19472534954547882,0.17642362415790558,0.17285197973251343,-0.0742558166384697,-0.10864824056625366
0.5333333333333333,0.012956495396792889,0.04982035979628563,0.0,0.662568211555481,0.0,0.0,-0.7490015625953674,0.30167898535728455,-0.3871167302131653,0.0,0.0,0.0,-2.8903019428253174,0.3016170561313629,0.8137014508247375,0.441462904214859,0.6136223673820496,0.020630093291401863,-0.07950206100940704,-0.7853161096572876,2.7267372608184814,-1.8961132764816284,-0.6337747573852539,-3.5102505683898926,8.575377464294434,6.035192012786865,0.2979465126991272,0.8261744976043701,0.44284963607788086,2.8284382820129395,-1.4987215995788574,-0.7920981049537659,0.3626706302165985,0.7519220113754272,0.42000001668930054,-0.3037131130695343,0.9203492403030396,-1.1479827165603638,-2.9993810653686523,-0.23005864024162292,-0.230937197804451,-0.22075842320919037,-0.19390694797039032,0.42304208874702454,0.41372764110565186,0.17704039812088013,0.027245230972766876
0.55,0.01979796402156353,0.04784264415502548,0.0,0.6621704697608948,0.0,0.0,-0.7493532299995422,0.47301799058914185,-0.07982605695724487,0.0,0.0,0.0,0.7960273623466492,0.34260809421539307,0.7877814769744873,0.42621609568595886,0.5819553732872009,-0.01570902206003666,-0.05824059620499611,-0.8109803199768066,2.115596055984497,-1.9830819368362427,-0.9596182107925415,-12.312589645385742,-0.4735063910484314,9.83286190032959,0.33929285407066345,0.799457311630249,0.4278923273086548,2.146963596343994,-1.5466196537017822,-0.9961445331573486,0.3626706302165985,0.7519220113754272,0.42000001668930054,-0.29242539405822754,0.40911054611206055,-1.1980048418045044,-3.000000238418579,-0.225671648979187,-0.22614502906799316,-0.2191549390554428,-0.19496306777000427,0.3243720233440399,0.32985469698905945,0.1371496468782425,-0.06391153484582901
0.5666666666666667,0.024692527949810028,0.04766646400094032,0.0,0.650895893573761,0.0,0.0,-0.759166955947876,0.23243509232997894,0.09866473078727722,0.0,0.0,0.0,-2.6421351432800293,0.36672213673591614,0.772042989730835,0.4214092791080475,0.5560884475708008,-0.030380118638277054,-0.02068176120519638,-0.8303101062774658,0.8814337253570557,-0.9402510523796082,-0.00868457742035389,1.624520182609558,-2.549680233001709,-3.1103084087371826,0.36160096526145935,0.7825644016265869,0.4239298701286316,0.8552137613296509,-0.7113984823226929,0.126362606883049,0.3626706302165985,0.7519220113754272,0.42000001668930054,-0.28130367398262024,1.152972936630249,-1.2479418516159058,-2.999347448348999,-0.21795527637004852,-0.21910899877548218,-0.21560712158679962,-0.19543488323688507,0.4717462658882141,0.42351076006889343,0.22710561752319336,-0.02810080721974373
0.5833333333333334,0.029875824227929115,0.04587481543421745,0.0,0.6524258255958557,0.0,0.0,-0.7578526139259338,0.34309059381484985,-0.15614239871501923,0.0,0.0,0.0,1.1298365592956543,0.37398454546928406,0.7617262601852417,0.4211235046386719,0.5869073271751404,-0.020409516990184784,-0.0011932834750041366,-0.809395968914032,0.23814620077610016,-0.9908613562583923,0.03977961093187332,3.0061888694763184,3.1191887855529785,19.05318832397461,0.3699868321418762,0.770438551902771,0.4237150549888611,0.05036080628633499,-0.6307711601257324,-0.02348439022898674,0.3626706302165985,0.7519220113754272,0.42000001668930054,-0.2625860273838043,0.916862428188324,-1.214561939239502,3.000001907348633,-0.21046893298625946,-0.21197283267974854,-0.21105264127254486,-0.19492611289024353,0.4020565450191498,0.4015454947948456,0.2812415063381195,0.05038841813802719
0.6,0.03288113325834274,0.046378277242183685,0.0,0.6433295011520386,0.0,0.0,-0.7655894160270691,0.13193261623382568,0.07591816037893295,0.0,0.0,0.0,-2.3283073902130127,0.37433528900146484,0.7549043297767639,0.42164289951324463,0.6160101890563965,-0.02308720536530018,0.026293369010090828,-0.7869605422019958,-0.0970035195350647,-0.5971445441246033,0.13439124822616577,2.930142641067505,3.4712767601013184,4.045418739318848,0.3692331314086914,0.7625283002853394,0.4239518940448761,-0.13975641131401062,-0.2682662010192871,0.14665083587169647,0.3626706302165985,0.7519220113754272,0.42000001668930054,-0.27695897221565247,-1.9177576303482056,-1.2355263233184814,-3.000007390975952,-0.20411401987075806,-0.2058526873588562,-0.20681026577949524,-0.19456280767917633,0.43240082263946533,0.4013318121433258,0.2900424003601074,0.051903050392866135
0.6166666666666667,0.036593589931726456,0.04494582116603851,0.0,0.6466110348701477,0.0,0.0,-0.7628198862075806,0.24375785887241364,-0.17837229371070862,0.0,0.0,0.0,1.3177731037139893,0.37102994322776794,0.7482172846794128,0.4222170114517212,0.6309418082237244,-0.03795216232538223,0.031478770077228546,-0.7742616534233093,-0.25892704725265503,-0.30503058433532715,0.01402813009917736,-1.3120167255401611,-0.2789798080921173,2.694324254989624,0.36583274602890015,0.7592896223068237,0.42620354890823364,-0.24501973390579224,-0.10600493848323822,0.13838104903697968,0.3626706302165985,0.7519220113754272,0.42000001668930054,-0.30575576424598694,-1.5547019243240356,-1.2854920625686646,-2.9987401962280273,-0.19781644642353058,-0.1996268630027771,-0.2017628252506256,-0.1929394155740738,0.35677438974380493,0.3648892939090729,0.3192356824874878,0.13460643589496613
0.6333333333333333,0.04232887178659439,0.045553527772426605,0.0,0.638678789138794,0.0,0.0,-0.7694734930992126,0.3805546760559082,0.08573257923126221,0.0,0.0,0.0,-2.123382091522217,0.36933574080467224,0.745682418346405,0.42238855361938477,0.6360785961151123,-0.041313286870718,0.033128682523965836,-0.7698049545288086,-0.07535006105899811,-0.1295977681875229,-0.006283329799771309,0.4999913275241852,0.07558348029851913,0.22645099461078644,0.3643512725830078,0.7597749829292297,0.4291280210018158,-0.07104337215423584,0.13162541389465332,0.21610866487026215,0.3626706302165985,0.7519220113754272,0.42000001668930054,-0.34889981150627136,-2.9991331100463867,-1.3354417085647583,-2.9989562034606934,-0.19157783687114716,-0.1937328726053238,-0.19678808748722076,-0.191065713763237,0.4668293595314026,0.4195175766944885,0.35162869095802307,0.1589302122592926
0.65,0.05006912350654602,0.04279747232794762,0.0,0.6432765126228333,0.0,0.0,-0.7656339406967163,0.49927082657814026,-0.17848879098892212,0.0,0.0,0.0,1.583327293395996,0.3681572377681732,0.7441406846046448,0.42123547196388245,0.640350341796875,-0.020230377092957497,0.02419523522257805,-0.7674350738525391,-0.12330690026283264,-0.05764210224151611,-0.07502772659063339,-0.7023575901985168,-4.0435309410095215,4.8391337394714355,0.36231979727745056,0.7627937197685242,0.4322623610496521,-0.22460618615150452,0.15326565504074097,0.17342443764209747,0.3626706302165985,0.7519220113754272,0.42000001668930054,-0.3989151120185852,-3.000002384185791,-1.385455846786499,-2.999433994293213,-0.18307548761367798,-0.18604616820812225,-0.19016171991825104,-0.18755567073822021,0.33481499552726746,0.3221262991428375,0.2971652150154114,0.1476946473121643
0.6666666666666666,0.05951919034123421,0.0429856963455677,0.0,0.6677309274673462,0.0,0.0,-0.7444027066230774,0.6204282641410828,0.05105603113770485,0.0,0.0,0.0,4.835855007171631,0.3661956191062927,0.7437801361083984,0.42031657695770264,0.6506137847900391,0.005016983952373266,-0.0060301064513623714,-0.7593681812286377,-0.13500571250915527,0.016189739108085632,0.09573837369680405,-0.6607378721237183,-4.809719562530518,-0.8989378809928894,0.3601823151111603,0.7648570537567139,0.43587714433670044,-0.10249719768762589,0.1475813090801239,0.27178579568862915,0.3626706302165985,0.7519220113754272,0.42000001668930054,-0.44891270995140076,-2.9996466636657715,-1.4354392290115356,-2.9999024868011475,-0.17936210334300995,-0.1819894164800644,-0.18569546937942505,-0.1844957023859024,0.2516849637031555,0.2787882387638092,0.323444664478302,0.2744580805301666
0.6833333333333333,0.07106322050094604,0.040085721760988235,0.0,0.6791499853134155,0.0,0.0,-0.7339995503425598,0.7191216349601746,-0.20641712844371796,0.0,0.0,0.0,0.7966628074645996,0.36446884274482727,0.7440038919448853,0.42108863592147827,0.647572934627533,0.01812249980866909,-0.02130122482776642,-0.7614900469779968,-0.08866126835346222,0.010190910659730434,0.02786858379840851,-0.23125438392162323,-1.4401382207870483,-0.24724309146404266,0.3592974841594696,0.7680250406265259,0.4411959648132324,-0.02580648474395275,0.09713894128799438,0.3513858914375305,0.3626706302165985,0.7519220113754272,0.42000001668930054,-0.49892133474349976,-2.9999985694885254,-1.485453724861145,-3.0000014305114746,-0.17457841336727142,-0.17658235132694244,-0.17922067642211914,-0.1782904714345932,0.1936604082584381,0.2639961838722229,0.3653792142868042,0.39523813128471375
0.7,0.08417776226997375,0.034282781183719635,0.0,0.6678333878517151,0.0,0.0,-0.7443107962608337,0.8182706832885742,-0.41491326689720154,0.0,0.0,0.0,-2.7489430904388428,0.3636105954647064,0.744097888469696,0.42075884342193604,0.646901547908783,0.012473982758820057,-0.014704371802508831,-0.7623295783996582,-0.03904101252555847,0.003966346848756075,-0.035536352545022964,0.30460843443870544,1.856749176979065,-0.10493484884500504,0.36354902386665344,0.7712832093238831,0.4542066752910614,0.5222026109695435,0.2447705864906311,1.2919530868530273,0.3626706302165985,0.7519220113754272,0.42000001668930054,-0.5489339232444763,-2.9999749660491943,-1.53547203540802,-3.000000476837158,-0.17336294054985046,-0.17407970130443573,-0.1748766154050827,-0.17314675450325012,0.020313961431384087,0.09846223890781403,0.21074102818965912,0.2686055898666382
0.7166666666666667,0.10017308592796326,0.032775476574897766,0.0,0.6345602869987488,0.0,0.0,-0.7728733420372009,0.9465051889419556,-0.058854375034570694,0.0,0.0,0.0,-6.110100269317627,0.36364853382110596,0.7440744638442993,0.42000144720077515,0.6468085050582886,9.06673667486757e-05,-6.516167195513844e-05,-0.7626523375511169,0.00595743115991354,0.0004522728850133717,-0.00436228234320879,-0.06781024485826492,-0.0011056531220674515,-0.020046817138791084,0.38218653202056885,0.7710253596305847,0.48146331310272217,1.7241742610931396,-0.12250903993844986,2.0702478885650635,0.3626706302165985,0.7519220113754272,0.42000001668930054,-0.5989452600479126,-2.9997527599334717,-1.5854884386062622,-2.999971389770508,-0.17886340618133545,-0.1773013174533844,-0.17529447376728058,-0.1716022789478302,-0.29495373368263245,-0.17288443446159363,-0.017184501513838768,0.09832189232110977
0.7333333333333333,0.11306270211935043,0.03270353376865387,0.0,0.6159852743148804,0.0,0.0,-0.7877576351165771,0.6984526515007019,0.03292416036128998,0.0,0.0,0.0,-1.817227840423584,0.36366063356399536,0.7440729737281799,0.42000001668930054,0.6468061804771423,-1.608112484063895e-06,-4.4225303099665325e-06,-0.7626543641090393,0.0001187815360026434,-0.0003346049343235791,-9.226519614458084e-05,0.007034995127469301,-0.0013849622337147593,-0.0002699177712202072,0.41077521443367004,0.7725671529769897,0.5163623690605164,1.5817320346832275,0.26708531379699707,2.1259994506835938,0.3626706302165985,0.7519220113754272,0.42000001668930054,-0.6178088188171387,0.43935319781303406,-1.6355029344558716,-3.0000007152557373,-0.18133410811424255,-0.1787043660879135,-0.17513301968574524,-0.17044124007225037,-0.037613123655319214,-0.019487682729959488,0.023147189989686012,0.035627882927656174
0.75,0.12121465802192688,0.034982454031705856,0.0,0.6224455237388611,0.0,0.0,-0.782663106918335,0.413968563079834,0.18340438604354858,0.0,0.0,0.0,1.8590904474258423,0.363660603761673,0.7440730333328247,0.42000001668930054,0.6468062400817871,-1.7575521269463934e-06,-4.653220003092429e-06,-0.7626543641090393,0.0001370716781821102,-0.0003698218788485974,-0.00010013068094849586,0.007813367992639542,-0.0015097265131771564,-0.00031474317074753344,0.43155187368392944,0.7775305509567261,0.5465316772460938,0.8438541293144226,0.3163888156414032,1.5526416301727295,0.3626706302165985,0.7519220113754272,0.42000001668930054,-0.5883782505989075,2.856550455093384,-1.5963891744613647,3.0,-0.1804775595664978,-0.17774233222007751,-0.17371362447738647,-0.16898880898952484,0.12120816111564636,0.12090105563402176,0.13674159348011017,0.1298385113477707
0.7666666666666666,0.1250452846288681,0.03313957154750824,0.0,0.616938591003418,0.0,0.0,-0.7870113253593445,0.1949012577533722,-0.17065536975860596,0.0,0.0,0.0,-1.7724175453186035,0.363660603761673,0.7440730333328247,0.42000001668930054,0.6468062996864319,-1.756975620992307e-06,-4.593928224494448e-06,-0.7626542448997498,0.00013695006782654673,-0.00036923273000866175,-9.997538290917873e-05,0.007800276856869459,-0.00150742894038558,-0.00031455737189389765,0.43801164627075195,0.782636821269989,0.5654857754707336,-0.07555940747261047,0.21121138334274292,0.8868778944015503,0.3626706302165985,0.7519220113754272,0.42000001668930054,-0.5574699640274048,0.9889972805976868,-1.5463327169418335,3.0000007152557373,-0.1762692630290985,-0.17376504838466644,-0.1697763055562973,-0.16541942954063416,0.19395379722118378,0.20064480602741241,0.21171213686466217,0.20220541954040527
0.7833333333333333,0.12560705840587616,0.03655588999390602,0.0,0.6236030459403992,0.0,0.0,-0.7817411422729492,-0.019821330904960632,0.3408578336238861,0.0,0.0,0.0,1.8991488218307495,0.363660603761673,0.7440730333328247,0.42000001668930054,0.6468066573143005,-1.784435653462424e-06,-4.781317329616286e-06,-0.7626540064811707,0.00013761958689428866,-0.00037065192009322345,-0.00010014674626290798,0.007834430783987045,-0.0015039168065413833,-0.00031583564123138785,0.43181878328323364,0.7845752239227295,0.5771303176879883,-0.6241429448127747,0.13345575332641602,0.5469496250152588,0.3626706302165985,0.7519220113754272,0.42000001668930054,-0.522942304611206,2.955270528793335,-1.4962915182113647,2.999999761581421,-0.17832200229167938,-0.17462341487407684,-0.16954416036605835,-0.16453693807125092,-0.1642145961523056,-0.09022636711597443,-0.027016310021281242,0.010891078040003777
0.8,0.12418065965175629,0.03653859347105026,0.0,0.6183542609214783,0.0,0.0,-0.7858994603157043,-0.12084073573350906,-0.10579413175582886,0.0,0.0,0.0,-1.7094618082046509,0.363660603761673,0.7440730333328247,0.42000001668930054,0.6468062400817871,-1.7202963817908312e-06,-4.683712177211419e-06,-0.7626543641090393,0.00013539149949792773,-0.0003691616002470255,-0.00010043755173683167,0.0077936891466379166,-0.0015269758878275752,-0.0003111512342002243,0.41634953022003174,0.7848633527755737,0.5799075365066528,-1.2384157180786133,-0.11593455076217651,-0.01994958147406578,0.3626706302165985,0.7519220113754272,0.42000001668930054,-0.5125414729118347,-1.3434178829193115,-1.44623601436615,3.0000007152557373,-0.17819979786872864,-0.17372716963291168,-0.1680147647857666,-0.1626654714345932,0.07083500921726227,0.1121368333697319,0.14455613493919373,0.16355566680431366
0.8166666666666667,0.12414578348398209,0.03857331722974777,0.0,0.6244378685951233,0.0,0.0,-0.7810744643211365,0.0012214157031849027,0.11561355739831924,0.0,0.0,0.0,1.5862724781036377,0.363660603761673,0.7440730333328247,0.42000001668930054,0.6468062996864319,-1.775090595401707e-06,-4.628488568414468e-06,-0.7626542448997498,0.00013703345030080527,-0.00036926305619999766,-9.995605796575546e-05,0.00780121423304081,-0.001506331260316074,-0.0003146481467410922,0.400806188583374,0.7853416204452515,0.5792401432991028,-0.6324949264526367,0.2546330988407135,-0.03256349265575409,0.3626706302165985,0.7519220113754272,0.42000001668930054,-0.5116287469863892,1.2294443845748901,-1.4634854793548584,-3.0,-0.17750754952430725,-0.17267274856567383,-0.16667459905147552,-0.16112776100635529,0.2262445092201233,0.18888278305530548,0.15435799956321716,0.12595900893211365
0.8333333333333334,0.12547481060028076,0.03795941546559334,0.0,0.6186137795448303,0.0,0.0,-0.7856952548027039,0.12641775608062744,-0.09088069200515747,0.0,0.0,0.0,-1.758278727531433,0.363660603761673,0.7440730333328247,0.42000001668930054,0.6468061804771423,-1.7830481056080316e-06,-4.6875220505171455e-06,-0.7626543045043945,0.00013800285523757339,-0.00036962091689929366,-9.979424066841602e-05,0.007810820359736681,-0.0014945304719731212,-0.0003167039540130645,0.39033061265945435,0.7872317433357239,0.5756292343139648,-0.5710375905036926,0.005167100578546524,-0.2029247134923935,0.3626706302165985,0.7519220113754272,0.42000001668930054,-0.5339063405990601,-3.0000009536743164,-1.4248632192611694,3.000000238418579,-0.1752733737230301,-0.17077885568141937,-0.16505594551563263,-0.15963074564933777,0.10194720327854156,0.09191903471946716,0.08571252971887589,0.09065449982881546
0.85,0.12921562790870667,0.03468245267868042,0.0,0.6247140169143677,0.0,0.0,-0.7808536291122437,0.268329918384552,-0.26667267084121704,0.0,0.0,0.0,1.772830843925476,0.363660603761673,0.7440730333328247,0.42000001668930054,0.646806538105011,-1.8569903659226838e-06,-4.768279723066371e-06,-0.7626540064811707,0.0001347918005194515,-0.0003700308734551072,-0.00010080775246024132,0.007813178934156895,-0.0015382928540930152,-0.00030983914621174335,0.3852318823337555,0.7870652079582214,0.5746529698371887,-0.0740911066532135,-0.010373074561357498,0.11222708970308304,0.3626706302165985,0.7519220113754272,0.42000001668930054,-0.5722754001617432,-1.6865320205688477,-1.442523717880249,-3.0000007152557373,-0.17520259320735931,-0.1703052520751953,-0.16409602761268616,-0.15796750783920288,-1.333683030679822e-08,0.03414979577064514,0.07519325613975525,0.13227492570877075
0.8666666666666667,0.1352357715368271,0.028627758845686913,0.0,0.6187987923622131,0.0,0.0,-0.785549521446228,0.4004160463809967,-0.4206030070781708,0.0,0.0,0.0,-1.804010272026062,0.363660603761673,0.7440730333328247,0.42000001668930054,0.6468062996864319,-1.7429708805138944e-06,-4.6421741899393965e-06,-0.7626543045043945,0.00013587628200184554,-0.0003687515272758901,-0.00010017817839980125,0.007785653695464134,-0.001518198405392468,-0.0003122019988950342,0.38769835233688354,0.7836775779724121,0.5723700523376465,0.3943122923374176,-0.3560209274291992,-0.18097354471683502,0.3626706302165985,0.7519220113754272,0.42000001668930054,-0.6141029000282288,-3.0000011920928955,-1.4103411436080933,2.999999761581421,-0.17648561298847198,-0.17057432234287262,-0.16320298612117767,-0.15561163425445557,-0.07243621349334717,0.003049723571166396,0.08852589875459671,0.19326388835906982
0.8833333333333333,0.14438804984092712,0.026220232248306274,0.0,0.5908904671669006,0.0,0.0,-0.8067517876625061,0.5759154558181763,-0.14845073223114014,0.0,0.0,0.0,-4.937406539916992,0.363660603761673,0.7440730333328247,0.42000001668930054,0.6468063592910767,-1.8399841792415828e-06,-4.618369530362543e-06,-0.7626542448997498,0.0001345813216175884,-0.000369155197404325,-0.00010066642425954342,0.007791806012392044,-0.0015382295241579413,-0.00030949985375627875,0.39686018228530884,0.7752788066864014,0.571230411529541,0.7661198377609253,-0.47951704263687134,0.1819099485874176,0.3626706302165985,0.7519220113754272,0.42000001668930054,-0.6364959478378296,0.0662703588604927,-1.4283007383346558,-3.000000476837158,-0.17990030348300934,-0.17292511463165283,-0.16437605023384094,-0.15533150732517242,-0.03896622359752655,-0.036835286766290665,-0.025999529287219048,0.00451025040820241
0.9,0.1507953554391861,0.025381648913025856,0.0,0.5790507793426514,0.0,0.0,-0.8152914643287659,0.30140331387519836,-0.004384796600788832,0.0,0.0,0.0,-0.7254618406295776,0.363660603761673,0.7440730333328247,0.42000001668930054,0.646806538105011,-1.7746594949130667e-06,-4.778327365784207e-06,-0.7626541256904602,0.00013816068531014025,-0.00037036839057691395,-9.991112165153027e-05,0.007829329930245876,-0.001494881696999073,-0.000316976715112105,0.4079222083091736,0.7717374563217163,0.5747477412223816,0.5182698965072632,-0.054626353085041046,0.200174480676651,0.3626706302165985,0.7519220113754272,0.42000001668930054,-0.6114782094955444,2.6866233348846436,-1.4024344682693481,3.0,-0.17813828587532043,-0.171854168176651,-0.16388945281505585,-0.15512846410274506,0.19744327664375305,0.12643267214298248,0.05779825523495674,0.003913362044841051
