vladlanda/robotic-transformer/data/env_000_episode_0098.csv
sim_time_s,robot_box_x,robot_box_y,robot_box_z,robot_box_quat_w,robot_box_quat_x,robot_box_quat_y,robot_box_quat_z,robot_box_linvel_x,robot_box_linvel_y,robot_box_linvel_z,robot_box_angvel_x,robot_box_angvel_y,robot_box_angvel_z,cube_world_x,cube_world_y,cube_world_z,cube_quat_w,cube_quat_x,cube_quat_y,cube_quat_z,cube_linvel_x,cube_linvel_y,cube_linvel_z,cube_angvel_x,cube_angvel_y,cube_angvel_z,endpoint_world_x,endpoint_world_y,endpoint_world_z,endpoint_linvel_x,endpoint_linvel_y,endpoint_linvel_z,target_cube_world_x,target_cube_world_y,target_cube_world_z,gripper_actual_pos_rad_gp_leftgearjoint,gripper_actual_vel_rad_s_gp_leftgearjoint,gripper_actual_pos_rad_gp_rotatingjoint,gripper_actual_vel_rad_s_gp_rotatingjoint,motor_angle_rad_joint1,motor_angle_rad_joint2,motor_angle_rad_joint3,motor_angle_rad_joint4,motor_speed_rad_s_joint1,motor_speed_rad_s_joint2,motor_speed_rad_s_joint3,motor_speed_rad_s_joint4
0.0,0.0,0.0,0.0,1.0,0.0,0.0,0.0,0.0,0.0,0.0,0.0,0.0,0.0,-0.39398622512817383,0.6601837277412415,0.41999998688697815,1.0,0.0,0.0,0.0,0.0,0.0,0.0,0.0,0.0,0.0,3.42540442943573e-06,-0.005000244826078415,1.313499927520752,0.0,0.0,0.0,0.4579299986362457,0.7185810208320618,0.42000001668930054,-1.5707999467849731,0.0,0.0,0.0,0.0,0.0,0.0,0.0,0.0,0.0,0.0,0.0
0.016666666666666666,0.0028778850100934505,0.0021806680597364902,0.0,0.9998081922531128,0.0,0.0,0.019586581736803055,0.24087215960025787,0.18240931630134583,0.0,0.0,0.0,3.1418697834014893,-0.3939863443374634,0.6601834297180176,0.41999998688697815,1.0,3.279964630564791e-06,-8.339746386809566e-07,8.465587342243452e-08,-1.9833529222523794e-05,0.00017983045836444944,-6.132945418357849e-05,0.0009432713268324733,-0.004689474124461412,-0.00031981561915017664,-0.007110234349966049,0.003379564033821225,1.3159373998641968,-0.8143353462219238,0.9868683815002441,0.18095196783542633,0.4579299986362457,0.7185810208320618,0.42000001668930054,-1.5301095247268677,3.0000011920928955,-0.04584788903594017,-2.9999992847442627,0.0008691533003002405,0.0007963840034790337,0.0007110277656465769,0.0006108740926720202,0.11094217747449875,0.09756709635257721,0.08334315568208694,0.06823883205652237
0.03333333333333333,0.008960983715951443,0.006801956333220005,0.0,0.9997960329055786,0.0,0.0,0.020196838304400444,0.4070216417312622,0.31530842185020447,0.0,0.0,0.0,-0.8691310882568359,-0.39398646354675293,0.6601833701133728,0.4200000464916229,1.0,3.3908354453160428e-06,-2.1324485715012997e-06,-3.710144014235084e-08,0.00026357831666246057,0.00026937946677207947,-0.00010509486310184002,-0.0017707672668620944,0.004130808170884848,-0.000135478752781637,-0.027551194652915,0.026129258796572685,1.3166069984436035,-1.591469168663025,1.615744709968567,-0.08367813378572464,0.4579299986362457,0.7185810208320618,0.42000001668930054,-1.4800903797149658,3.000002384185791,-0.09588772058486938,-3.0000009536743164,0.002990128006786108,0.002652745461091399,0.002277322579175234,0.001860785181634128,0.16421905159950256,0.13976320624351501,0.11382265388965607,0.08630531281232834
0.05,0.018396714702248573,0.013815672136843204,0.0,0.9999923706054688,0.0,0.0,-0.0039116558618843555,0.6354542970657349,0.4691094756126404,0.0,0.0,0.0,-4.090403079986572,-0.3939864933490753,0.6601834297180176,0.4200000464916229,1.0,3.765139354072744e-06,-2.2119161258160602e-06,5.630195420991413e-09,0.0002653095289133489,0.00026691411039792,-0.00010440382175147533,-0.0017242460744455457,0.004177400842308998,-0.00012949357915204018,-0.05739499628543854,0.05686183273792267,1.3119621276855469,-1.9567670822143555,2.023813009262085,-0.45021915435791016,0.4579299986362457,0.7185810208320618,0.42000001668930054,-1.4300720691680908,3.000000476837158,-0.14592641592025757,-2.999999523162842,0.005984028801321983,0.005148180760443211,0.004239901900291443,0.0032549728639423847,0.20754295587539673,0.16710922122001648,0.12476348131895065,0.08042380213737488
0.06666666666666667,0.030700409784913063,0.023247959092259407,0.0,0.999922513961792,0.0,0.0,-0.012446827255189419,0.7723599672317505,0.6127451658248901,0.0,0.0,0.0,-0.05407609045505524,-0.3939864933490753,0.6601833701133728,0.4200000464916229,0.9999999403953552,3.4067325032083318e-06,-2.285616346853203e-06,4.301086846680846e-07,0.0002670263056643307,0.0002679172612261027,-0.00010437914170324802,-0.0017406872939318419,0.004211808554828167,-0.0001285045873373747,-0.09509305655956268,0.08924797177314758,1.3010708093643188,-2.4077963829040527,2.0498600006103516,-0.8441868424415588,0.4579299986362457,0.7185810208320618,0.42000001668930054,-1.3800499439239502,3.000000476837158,-0.1750941425561905,-0.6815740466117859,0.008775556460022926,0.007240855135023594,0.005593732465058565,0.0038286994677037,0.15773096680641174,0.10860775411128998,0.05736059322953224,0.003921041265130043
0.08333333333333333,0.04546140134334564,0.03479594364762306,0.0,0.9993805289268494,0.0,0.0,-0.03519294038414955,0.9427441358566284,0.7319973111152649,0.0,0.0,0.0,-3.5856292247772217,-0.3939864933490753,0.6601833701133728,0.4200000464916229,0.9999999403953552,3.626018951763399e-06,-2.335360477445647e-06,3.0324326871777885e-07,0.00026613904628902674,0.00026685016928240657,-0.00010405411012470722,-0.0017283597262576222,0.004196425899863243,-0.00012790990876965225,-0.13076403737068176,0.12789250910282135,1.2863608598709106,-1.897676706314087,2.5832247734069824,-0.9191017150878906,0.4579299986362457,0.7185810208320618,0.42000001668930054,-1.33003568649292,3.000000476837158,-0.22235190868377686,-3.000000238418579,0.009936627931892872,0.007300959900021553,0.004510156810283661,0.0015583863714709878,0.015878956764936447,-0.06757790595293045,-0.15331387519836426,-0.24125394225120544
0.1,0.05434594303369522,0.05025552213191986,0.0,0.9982590079307556,0.0,0.0,-0.058982573449611664,0.3896706700325012,1.0265246629714966,0.0,0.0,0.0,-2.4002325534820557,-0.3939864933490753,0.6601833701133728,0.4200000464916229,1.0,3.422117288209847e-06,-2.3086265628080582e-06,1.7964211451726442e-07,0.0002668147499207407,0.0002680043689906597,-0.00010440591722726822,-0.0017430688021704555,0.004207088612020016,-0.0001289069332415238,-0.1656663417816162,0.1698511838912964,1.2671246528625488,-2.185239791870117,2.5547571182250977,-1.3085072040557861,0.4579299986362457,0.7185810208320618,0.42000001668930054,-1.2800160646438599,2.9999938011169434,-0.1884281039237976,3.0000011920928955,0.003947212360799313,0.00048679643077775836,-0.0031811411026865244,-0.007065254729241133,-0.4836476147174835,-0.5260685086250305,-0.5710846185684204,-0.6189354658126831
0.11666666666666667,0.05794578045606613,0.06292862445116043,0.0,0.9949596524238586,0.0,0.0,-0.10027607530355453,0.4329500198364258,0.6945056319236755,0.0,0.0,0.0,-5.238834381103516,-0.3939864933490753,0.6601834297180176,0.4200000464916229,1.0,3.711538511197432e-06,-2.332751819267287e-06,2.574376765096531e-07,0.00026485807029530406,0.0002663535997271538,-0.00010423525236546993,-0.001718185725621879,0.004170059692114592,-0.00012915738625451922,-0.20036084949970245,0.21369057893753052,1.2449477910995483,-2.0062525272369385,2.844217300415039,-1.2228097915649414,0.4579299986362457,0.7185810208320618,0.42000001668930054,-1.2300217151641846,3.000002384185791,-0.21997903287410736,-3.000000476837158,-0.0044049764983356,-0.008902476169168949,-0.013617299497127533,-0.018561579287052155,-0.10633623600006104,-0.23367644846439362,-0.3569232225418091,-0.47588786482810974
0.13333333333333333,0.06272642314434052,0.07201173156499863,0.0,0.9931501150131226,0.0,0.0,-0.11684519797563553,0.22979629039764404,0.4521126449108124,0.0,0.0,0.0,-0.9274727702140808,-0.3939864933490753,0.6601833701133728,0.4200000464916229,0.9999999403953552,3.4247223084094003e-06,-2.3020445496513275e-06,1.5600510039348592e-07,0.00026707007782533765,0.0002681128098629415,-0.0001044438686221838,-0.0017433085013180971,0.004212053492665291,-0.00012877491826657206,-0.2383938729763031,0.2605077028274536,1.2187033891677856,-2.2908639907836914,3.0115442276000977,-1.8733034133911133,0.4579299986362457,0.7185810208320618,0.42000001668930054,-1.1800096035003662,2.9999921321868896,-0.1860397607088089,2.999999523162842,-0.006856543477624655,-0.013287960551679134,-0.019853537902235985,-0.026563649997115135,-0.18340781331062317,-0.2862055003643036,-0.3838445246219635,-0.4762888550758362
0.15,0.07267475128173828,0.08172960579395294,0.0,0.9891020655632019,0.0,0.0,-0.14723142981529236,0.7247207164764404,0.6379761695861816,0.0,0.0,0.0,-4.596461296081543,-0.3939864933490753,0.6601833701133728,0.4200000464916229,1.0,3.7138524930924177e-06,-2.207856823588372e-06,-1.690766850970249e-07,0.000263533613178879,0.0002653617993928492,-0.00010421895422041416,-0.0017013129545375705,0.004144155420362949,-0.0001296056725550443,-0.27425509691238403,0.31470754742622375,1.1841171979904175,-2.003262519836426,3.475677490234375,-2.2887022495269775,0.4579299986362457,0.7185810208320618,0.42000001668930054,-1.1300153732299805,2.9999992847442627,-0.21760138869285583,-2.999999523162842,-0.007182478904724121,-0.015574462711811066,-0.02399640530347824,-0.032457686960697174,-0.027637001127004623,-0.1373067945241928,-0.24098347127437592,-0.33862558007240295
0.16666666666666666,0.07895294576883316,0.08851183205842972,0.0,0.978520393371582,0.0,0.0,-0.20614992082118988,0.3047563135623932,0.4353226125240326,0.0,0.0,0.0,-7.7969183921813965,-0.3939864933490753,0.6601833701133728,0.4200000464916229,0.9999999403953552,3.6382996313477634e-06,-2.278827423651819e-06,2.700894583540503e-07,0.00026682656607590616,0.0002674996212590486,-0.00010410207323729992,-0.001739894738420844,0.004210094455629587,-0.00012781668920069933,-0.30668407678604126,0.3771892786026001,1.1372551918029785,-1.7178244590759277,4.111037254333496,-3.225142478942871,0.4579299986362457,0.7185810208320618,0.42000001668930054,-1.0873204469680786,2.1585655212402344,-0.18372146785259247,3.0000011920928955,-0.014154753647744656,-0.023427262902259827,-0.03267288580536842,-0.0419074147939682,-0.5699751973152161,-0.5971693992614746,-0.621627926826477,-0.643721878528595
0.18333333333333332,0.08138459175825119,0.09732392430305481,0.0,0.9705749154090881,0.0,0.0,-0.2407994270324707,0.062321316450834274,0.5718757510185242,0.0,0.0,0.0,-3.0995261669158936,-0.3939864933490753,0.6601833701133728,0.4200000464916229,1.0,3.386368462088285e-06,-2.300295591339818e-06,1.4395122605037614e-07,0.00026674632681533694,0.000267872994299978,-0.00010436843149363995,-0.0017412762390449643,0.004206033889204264,-0.0001287875056732446,-0.33947694301605225,0.44054704904556274,1.076736330986023,-1.7224680185317993,3.9197371006011963,-4.040470123291016,0.4579299986362457,0.7185810208320618,0.42000001668930054,-1.0390921831130981,3.0000030994415283,-0.2152508944272995,-2.999999761581421,-0.02499556727707386,-0.03439506143331528,-0.043713849037885666,-0.05297616869211197,-0.714961588382721,-0.7035565376281738,-0.6893686652183533,-0.672982931137085
0.2,0.08594910055398941,0.10813240706920624,0.0,0.9579808115959167,0.0,0.0,-0.28683221340179443,0.30129945278167725,0.7016079425811768,0.0,0.0,0.0,-6.590609073638916,-0.3939864933490753,0.6601834297180176,0.4200000464916229,1.0,3.675464540719986e-06,-2.3265372419700725e-06,2.211534564366957e-07,0.0002648438676260412,0.00026631305809132755,-0.00010421895422041416,-0.0017176724504679441,0.004169867839664221,-0.00012910064833704382,-0.3669798970222473,0.5058380365371704,1.0012720823287964,-1.344213843345642,3.9217453002929688,-4.928590774536133,0.4579299986362457,0.7185810208320618,0.42000001668930054,-0.98908531665802,3.000000238418579,-0.26527824997901917,-3.000001907348633,-0.03828068822622299,-0.0471467562019825,-0.05590932071208954,-0.06460452824831009,-0.9294959306716919,-0.8721181154251099,-0.8149878978729248,-0.7588829398155212
0.21666666666666667,0.08840975165367126,0.11658085882663727,0.0,0.9495030641555786,0.0,0.0,-0.3137577176094055,0.09617987275123596,0.43926775455474854,0.0,0.0,0.0,-2.2717435359954834,-0.3939864933490753,0.6601833701133728,0.4200000464916229,1.0,3.322247721371241e-06,-2.207966417699936e-06,2.7429487658992e-07,0.00026662711752578616,0.0002674948482308537,-0.00010426202788949013,-0.001735763973556459,0.004204656928777695,-0.00012834012159146369,-0.3899284899234772,0.562172532081604,0.9134021997451782,-1.048873782157898,3.1516926288604736,-5.56558895111084,0.4579299986362457,0.7185810208320618,0.42000001668930054,-0.9390759468078613,2.9999985694885254,-0.3153080344200134,-2.9999990463256836,-0.05416266247630119,-0.06303050369024277,-0.0712023451924324,-0.07838063687086105,-0.9857897758483887,-0.9719802141189575,-0.9503148794174194,-0.848896861076355
0.23333333333333334,0.0866810604929924,0.12644018232822418,0.0,0.9366214871406555,0.0,0.0,-0.35034292936325073,-0.1795073002576828,0.635761022567749,0.0,0.0,0.0,-5.473869800567627,-0.3939864933490753,0.6601833701133728,0.4200000464916229,1.0,3.6564260881277733e-06,-2.373456709392485e-06,-4.076544826148165e-07,0.0002661164617165923,0.00026725901989266276,-0.00010423315688967705,-0.0017335545271635056,0.004194728098809719,-0.00012855185195803642,-0.4048852324485779,0.6100341081619263,0.8138274550437927,-0.599616289138794,2.5858912467956543,-6.2035417556762695,0.4579299986362457,0.7185810208320618,0.42000001668930054,-0.8890652656555176,2.9999966621398926,-0.36533939838409424,-2.999999523162842,-0.07011697441339493,-0.07902495563030243,-0.08725500106811523,-0.09449692815542221,-0.9897782206535339,-0.9918713569641113,-0.9934706687927246,-0.9907346963882446
0.25,0.08909019082784653,0.13178135454654694,0.0,0.9293993711471558,0.0,0.0,-0.36907559633255005,0.14189080893993378,0.26209908723831177,0.0,0.0,0.0,-1.1004796028137207,-0.3939864933490753,0.6601834297180176,0.4200000464916229,1.0,3.6304663808550686e-06,-2.242617028969107e-06,1.1234231322987398e-08,0.00026679987786337733,0.0002670600370038301,-0.00010390859097242355,-0.0017342320643365383,0.004210509359836578,-0.00012702777166850865,-0.4168708324432373,0.6437886953353882,0.7106001377105713,-0.44791483879089355,1.5019735097885132,-6.260309219360352,0.4579299986362457,0.7185810208320618,0.42000001668930054,-0.8390551805496216,2.999997615814209,-0.4153710603713989,-2.9999988079071045,-0.08474451303482056,-0.09350377321243286,-0.10159142315387726,-0.10869362950325012,-0.9918423295021057,-0.9931373000144958,-0.9941691756248474,-0.9950140714645386
0.26666666666666666,0.08727668225765228,0.1343069076538086,0.0,0.9339117407798767,0.0,0.0,-0.357503741979599,-0.1979960799217224,0.11638807505369186,0.0,0.0,0.0,2.353692054748535,-0.39398646354675293,0.6601833701133728,0.4200000464916229,0.9999999403953552,3.7400714063551277e-06,-2.2362910385709256e-06,4.4999521264799114e-07,0.000264796573901549,0.00026673043612390757,-0.00010454049333930016,-0.0017189934151247144,0.004166724160313606,-0.0001301671436522156,-0.42578673362731934,0.6554443836212158,0.6086062788963318,-0.35878196358680725,-0.025644749402999878,-5.937270641326904,0.4579299986362457,0.7185810208320618,0.42000001668930054,-0.7890463471412659,2.9999969005584717,-0.4654022455215454,-3.000002861022949,-0.1022883728146553,-0.11080500483512878,-0.11871212720870972,-0.12567508220672607,-1.0031335353851318,-1.002373456954956,-1.0017893314361572,-1.0013200044631958
0.2833333333333333,0.08877494931221008,0.13320770859718323,0.0,0.9321081638336182,0.0,0.0,-0.3621799647808075,0.12811778485774994,-0.1273626685142517,0.0,0.0,0.0,-1.2704226970672607,-0.3939864933490753,0.6601833701133728,0.4200000464916229,1.0,3.391595782886725e-06,-2.2910930965736043e-06,1.2462022880299628e-07,0.0002667723165359348,0.00026789327966980636,-0.00010437355376780033,-0.0017412476008757949,0.004206296522170305,-0.00012878577399533242,-0.42538875341415405,0.6582337617874146,0.5083352327346802,0.42187097668647766,-0.02695043385028839,-5.755663871765137,0.4579299986362457,0.7185810208320618,0.42000001668930054,-0.7390376329421997,3.0000014305114746,-0.515431821346283,-3.0000016689300537,-0.119153693318367,-0.12761470675468445,-0.13549792766571045,-0.14245766401290894,-1.0455894470214844,-1.0344440937042236,-1.0259288549423218,-1.0191231966018677
0.3,0.08676242083311081,0.1305915266275406,0.0,0.9364044070243835,0.0,0.0,-0.35092273354530334,-0.20562432706356049,-0.17560537159442902,0.0,0.0,0.0,2.3201961517333984,-0.3939864933490753,0.6601834297180176,0.4200000464916229,1.0,3.680656618598732e-06,-2.3190602860267973e-06,2.011123285683425e-07,0.00026479075313545763,0.0002662576735019684,-0.00010421290062367916,-0.0017168199410662055,0.004168981220573187,-0.00012909970246255398,-0.4148882329463959,0.6603125333786011,0.42200958728790283,0.9258684515953064,0.20582355558872223,-4.8443145751953125,0.4579299986362457,0.7185810208320618,0.42000001668930054,-0.6890546083450317,3.000001907348633,-0.5654590129852295,-2.9999990463256836,-0.13702601194381714,-0.14521101117134094,-0.15288831293582916,-0.15968702733516693,-1.0160702466964722,-1.0121991634368896,-1.009232997894287,-1.0068469047546387
0.31666666666666665,0.07989458739757538,0.12667587399482727,0.0,0.9347499012947083,0.0,0.0,-0.3553064167499542,-0.47796669602394104,-0.26692265272140503,0.0,0.0,0.0,-1.5127973556518555,-0.3939798176288605,0.660178542137146,0.4200000762939453,1.0,4.073312538821483e-06,6.346115242195083e-07,-0.00014426106645260006,-5.6125863920897245e-06,0.0002681274781934917,-9.552808478474617e-05,-0.0002896784571930766,-0.003453986020758748,-0.0005039610550738871,-0.41525936126708984,0.6610432863235474,0.42657941579818726,0.09145034104585648,-0.03855821490287781,-0.17306950688362122,0.4579299986362457,0.7185810208320618,0.42000001668930054,-0.6391302943229675,2.9999938011169434,-0.6159231066703796,-2.9998927116394043,-0.14933158457279205,-0.15582044422626495,-0.16153275966644287,-0.16607405245304108,-0.857814610004425,-0.7114877700805664,-0.5541259050369263,-0.3865485191345215
0.3333333333333333,0.07323066890239716,0.11984457820653915,0.0,0.9384992718696594,0.0,0.0,-0.3452812433242798,-0.4071543514728546,-0.4825144112110138,0.0,0.0,0.0,2.186537504196167,-0.3939800560474396,0.6601786017417908,0.4200000464916229,1.0,3.6644919418904465e-06,-2.3496750145568512e-06,-0.00014439606457017362,0.000263799651293084,0.0002695563598535955,-0.00010530208237469196,-0.0017657637363299727,0.004133716691285372,-0.0001364971831208095,-0.4120618999004364,0.6646018028259277,0.42331743240356445,0.3219675123691559,0.3455553650856018,-0.1823972761631012,0.4579299986362457,0.7185810208320618,0.42000001668930054,-0.5891249179840088,2.9999806880950928,-0.6659651398658752,-3.000000238418579,-0.1598539650440216,-0.16427306830883026,-0.1676332801580429,-0.16956713795661926,-0.5336337089538574,-0.4044587314128876,-0.25711581110954285,-0.0942435935139656
0.35,0.06459899246692657,0.11072852462530136,0.0,0.9365990161895752,0.0,0.0,-0.35040298104286194,-0.562179446220398,-0.5828912258148193,0.0,0.0,0.0,-1.6024975776672363,-0.39104118943214417,0.6652695536613464,0.420000284910202,0.9979128837585449,-5.118533863424091e-06,-7.66320081311278e-05,-0.06457370519638062,0.2851848602294922,0.4784262776374817,-0.0005809975555166602,0.027569692581892014,-0.006051505450159311,-11.675562858581543,-0.4048255383968353,0.6708626747131348,0.4211167097091675,0.5563793182373047,0.5266209244728088,-0.10711567103862762,0.4579299986362457,0.7185810208320618,0.42000001668930054,-0.5391200184822083,2.999987840652466,-0.7160157561302185,-2.999995708465576,-0.1689620167016983,-0.1712295413017273,-0.17214566469192505,-0.17140376567840576,-0.4918898344039917,-0.37236425280570984,-0.23733660578727722,-0.09089825302362442
0.36666666666666664,0.05326360464096069,0.09942227602005005,0.0,0.9246243238449097,0.0,0.0,-0.3808804452419281,-0.7496262192726135,-0.7270188927650452,0.0,0.0,0.0,-4.824450492858887,-0.3837285339832306,0.6761011481285095,0.4200212359428406,0.989458441734314,0.0005576583789661527,-7.132718019420281e-05,-0.1448153853416443,0.6669146418571472,0.9094896912574768,-0.009060876443982124,-0.28930866718292236,-0.036182865500450134,-3.339993953704834,-0.39280712604522705,0.6817187070846558,0.42009809613227844,0.8641214966773987,0.7911453247070312,-0.02408934012055397,0.4579299986362457,0.7185810208320618,0.42000001668930054,-0.4891144335269928,3.0000014305114746,-0.7660666108131409,-2.9994421005249023,-0.17665739357471466,-0.1769256293773651,-0.17551524937152863,-0.17220571637153625,-0.4066598415374756,-0.2914240062236786,-0.1541024148464203,6.494174158433452e-07
0.3833333333333333,0.04386169835925102,0.0850408673286438,0.0,0.9004791975021362,0.0,0.0,-0.43489906191825867,-0.49284598231315613,-0.9194903373718262,0.0,0.0,0.0,-7.9146599769592285,-0.36721187829971313,0.6973159313201904,0.42061901092529297,0.9843190908432007,-0.007324486039578915,-0.00616987282410264,-0.1761365681886673,1.4006998538970947,1.727907657623291,0.09007667750120163,0.09518839418888092,-3.8952934741973877,-4.839395523071289,-0.37383174896240234,0.7004896402359009,0.42182523012161255,1.5745097398757935,1.5854556560516357,0.12605072557926178,0.4579299986362457,0.7185810208320618,0.42000001668930054,-0.43905648589134216,2.9996683597564697,-0.8160728216171265,-2.999985933303833,-0.18299749493598938,-0.1812572032213211,-0.17741967737674713,-0.17136994004249573,-0.33232104778289795,-0.2090359926223755,-0.06115637347102165,0.10450881719589233
0.4,0.03725136071443558,0.07191712409257889,0.0,0.8600592017173767,0.0,0.0,-0.5101942420005798,-0.36028286814689636,-0.6861703991889954,0.0,0.0,0.0,-11.148374557495117,-0.3141433894634247,0.7343040704727173,0.42500755190849304,0.9683104753494263,0.04784051328897476,-0.04672195017337799,-0.24063073098659515,4.815847873687744,2.389059543609619,0.5082796812057495,-14.100608825683594,-4.811431884765625,17.27206039428711,-0.32171201705932617,0.7379019260406494,0.42601487040519714,4.358983993530273,2.9201157093048096,0.31978917121887207,0.4579299986362457,0.7185810208320618,0.42000001668930054,-0.39087775349617004,2.48695707321167,-0.7794556617736816,3.00000262260437,-0.19441308081150055,-0.18875345587730408,-0.18081168830394745,-0.17064139246940613,-0.8131037354469299,-0.5427992939949036,-0.27064239978790283,-0.007657020352780819
0.4166666666666667,0.03370584174990654,0.06358752399682999,0.0,0.8002527356147766,0.0,0.0,-0.5996628403663635,-0.14146311581134796,-0.510050892829895,0.0,0.0,0.0,-13.712384223937988,-0.21687540411949158,0.784746527671814,0.4310106039047241,0.9420605897903442,0.08167815953493118,-0.08006030321121216,-0.31534236669540405,7.331045627593994,3.572887659072876,0.3049272894859314,9.370931625366211,-13.919313430786133,0.9349216818809509,-0.2240217924118042,0.79117351770401,0.43177586793899536,7.046825408935547,3.494966983795166,0.44878706336021423,0.4579299986362457,0.7185810208320618,0.42000001668930054,-0.3708867132663727,0.7753956317901611,-0.8068286776542664,-2.999959707260132,-0.2075258195400238,-0.1997474879026413,-0.1871682107448578,-0.17273035645484924,-0.6200082302093506,-0.5268918871879578,-0.311781644821167,-0.12202008068561554
0.43333333333333335,0.027697470039129257,0.059406574815511703,0.0,0.7472811341285706,0.0,0.0,-0.6645079851150513,-0.34398093819618225,-0.2211924046278,0.0,0.0,0.0,-8.725279808044434,-0.09940128028392792,0.8286173939704895,0.44009625911712646,0.8920234441757202,0.14597447216510773,-0.11397577822208405,-0.4123046100139618,7.469046592712402,1.9702017307281494,0.6296210289001465,11.974575996398926,-16.67647933959961,5.1684889793396,-0.10734881460666656,0.8382788896560669,0.4402860999107361,7.014002323150635,2.191249132156372,0.5581152439117432,0.4579299986362457,0.7185810208320618,0.42000001668930054,-0.35978350043296814,0.6130029559135437,-0.7702354192733765,2.997572898864746,-0.22129355370998383,-0.21269120275974274,-0.19608689844608307,-0.17753124237060547,-0.5871899127960205,-0.6527614593505859,-0.5127106308937073,-0.3076860010623932
0.45,0.025568371638655663,0.049986548721790314,0.0,0.7148506045341492,0.0,0.0,-0.6992772221565247,-0.14371871948242188,-0.5770121216773987,0.0,0.0,0.0,-4.424072742462158,0.01636667549610138,0.8549418449401855,0.4492797255516052,0.8444076180458069,0.1539432555437088,-0.12064339965581894,-0.4987207353115082,6.879814624786377,-0.2743005156517029,0.45154985785484314,-13.894862174987793,-21.477338790893555,24.806718826293945,0.009998826310038567,0.8656991720199585,0.44970864057540894,6.993626117706299,0.8471641540527344,0.7720903158187866,0.4579299986362457,0.7185810208320618,0.42000001668930054,-0.349822461605072,0.4452749192714691,-0.7970354557037354,-3.0000033378601074,-0.22992609441280365,-0.22092321515083313,-0.20140282809734344,-0.1791985034942627,-0.7299944162368774,-0.595387876033783,-0.35847070813179016,-0.09834611415863037
0.4666666666666667,0.02550286240875721,0.04581110179424286,0.0,0.706848680973053,0.0,0.0,-0.7073647975921631,0.03399099037051201,-0.16031178832054138,0.0,0.0,0.0,-0.3457791805267334,0.12325146049261093,0.8547528982162476,0.4588862955570221,0.7564078569412231,0.159060999751091,-0.11058646440505981,-0.6247538924217224,6.172976493835449,-1.2306077480316162,0.5871967077255249,-2.4627749919891357,-6.182520866394043,1.2561779022216797,0.11671875417232513,0.8679695129394531,0.4592120051383972,5.877470970153809,-0.5083338022232056,0.5244767069816589,0.4579299986362457,0.7185810208320618,0.42000001668930054,-0.34393391013145447,0.18296408653259277,-0.8470613956451416,-3.0000014305114746,-0.24003058671951294,-0.23400448262691498,-0.20987163484096527,-0.18297527730464935,-0.029886575415730476,-0.7766081094741821,-0.5207751393318176,-0.26706284284591675
0.48333333333333334,0.02909470908343792,0.038813717663288116,0.0,0.6908159255981445,0.0,0.0,-0.7230306267738342,0.2676284909248352,-0.4571411609649658,0.0,0.0,0.0,-3.4107725620269775,0.21493180096149445,0.8396164774894714,0.4623927175998688,0.7101300954818726,0.14702056348323822,-0.11342175304889679,-0.6791432499885559,4.861081600189209,-2.2595629692077637,0.012722015380859375,-16.30594825744629,-8.254941940307617,21.807893753051758,0.21068114042282104,0.8533979654312134,0.4637752175331116,5.444894790649414,-1.423365831375122,0.2044338881969452,0.4579299986362457,0.7185810208320618,0.42000001668930054,-0.34127718210220337,0.08490584045648575,-0.8970867991447449,-3.000001907348633,-0.2396334707736969,-0.2400190234184265,-0.21574020385742188,-0.1854105442762375,-0.158578559756279,-0.02731219492852688,-0.3481453061103821,-0.1512276828289032
0.5,0.0350276418030262,0.034967683255672455,0.0,0.6882882714271545,0.0,0.0,-0.7254372835159302,0.3917052745819092,-0.16616776585578918,0.0,0.0,0.0,0.4770255386829376,0.29403987526893616,0.8107165694236755,0.4610893130302429,0.6279153227806091,0.10987942665815353,-0.11787478625774384,-0.761415958404541,3.8103294372558594,-2.3437705039978027,-0.2810485363006592,-12.740274429321289,1.2163152694702148,11.73221206665039,0.2899012565612793,0.8256595134735107,0.46348950266838074,4.359595775604248,-1.8937091827392578,-0.10457722097635269,0.4579299986362457,0.7185810208320618,0.42000001668930054,-0.33640164136886597,0.42752328515052795,-0.9471108317375183,-3.0000009536743164,-0.2398817092180252,-0.23983098566532135,-0.22145450115203857,-0.1888996958732605,0.02696981281042099,0.05239701643586159,-0.21408039331436157,-0.15782590210437775
0.5166666666666666,0.04053061828017235,0.034671589732170105,0.0,0.6766141057014465,0.0,0.0,-0.7363378405570984,0.3021256923675537,0.0397489108145237,0.0,0.0,0.0,-2.7951910495758057,0.3569898009300232,0.7812915444374084,0.452719122171402,0.5748863816261292,0.08341868966817856,-0.10746526718139648,-0.8068445324897766,3.4633982181549072,-1.7545102834701538,-0.6498918533325195,0.4197833836078644,0.8258094191551208,-11.704042434692383,0.353351891040802,0.7950175404548645,0.4555870294570923,3.3273324966430664,-1.8951199054718018,-0.6803480386734009,0.4579299986362457,0.7185810208320618,0.42000001668930054,-0.32469114661216736,0.9892887473106384,-0.9971348643302917,-3.0000009536743164,-0.23741376399993896,-0.23730678856372833,-0.22350622713565826,-0.19148369133472443,0.2552131116390228,0.25164341926574707,-0.01916496641933918,-0.12120779603719711
0.5333333333333333,0.047814980149269104,0.031083788722753525,0.0,0.677170991897583,0.0,0.0,-0.7358257174491882,0.5053118467330933,-0.3850749433040619,0.0,0.0,0.0,1.0165159702301025,0.4043501019477844,0.751148521900177,0.43930184841156006,0.5339744687080383,0.05098891630768776,-0.09124340116977692,-0.8390148878097534,2.186737298965454,-2.331831216812134,-0.6630370616912842,3.114804267883301,9.593786239624023,6.377750396728516,0.4020300805568695,0.7646075487136841,0.4426235556602478,2.4467883110046387,-1.745989203453064,-0.8760999441146851,0.4579299986362457,0.7185810208320618,0.42000001668930054,-0.306123822927475,0.967902421951294,-1.0471570491790771,-2.9998176097869873,-0.22917622327804565,-0.2295052856206894,-0.22034764289855957,-0.19127599895000458,0.6507608890533447,0.6085582375526428,0.3283790946006775,0.09089108556509018
0.55,0.056524794548749924,0.030238913372159004,0.0,0.6671779155731201,0.0,0.0,-0.7448984384536743,0.5878262519836426,-0.012274371460080147,0.0,0.0,0.0,-2.436716318130493,0.43807142972946167,0.7282591462135315,0.4227581024169922,0.5149099230766296,0.01967279240489006,-0.05595216900110245,-0.8551899790763855,1.1976629495620728,-1.3805034160614014,-0.06962986290454865,0.5537223815917969,10.061788558959961,15.704404830932617,0.436140775680542,0.7408217191696167,0.42600566148757935,1.3283765316009521,-0.87848299741745,-0.20214195549488068,0.4579299986362457,0.7185810208320618,0.42000001668930054,-0.2947578728199005,0.41806909441947937,-1.0972697734832764,-2.9663894176483154,-0.21997761726379395,-0.22114522755146027,-0.2164042890071869,-0.19182591140270233,0.6037703156471252,0.5336076021194458,0.27761346101760864,-0.015968039631843567
0.5666666666666667,0.06297406554222107,0.03203003853559494,0.0,0.6698042750358582,0.0,0.0,-0.7425376772880554,0.31802231073379517,0.1728721261024475,0.0,0.0,0.0,1.3002907037734985,0.455298513174057,0.7151184678077698,0.42000433802604675,0.506879985332489,-0.00034957347088493407,-0.0006052164826542139,-0.8620162606239319,0.7192174792289734,-0.6330797672271729,-0.0047289058566093445,0.04090246930718422,-0.8610589504241943,2.4843735694885254,0.45273828506469727,0.7255904674530029,0.42308998107910156,0.617957353591919,-0.7671708464622498,-0.0054209232330322266,0.4579299986362457,0.7185810208320618,0.42000001668930054,-0.2912035286426544,0.10703985393047333,-1.1472917795181274,-2.9977235794067383,-0.21012204885482788,-0.2122807651758194,-0.2112499326467514,-0.19158320128917694,0.5988496541976929,0.5447426438331604,0.34751036763191223,0.049502164125442505
0.5833333333333334,0.06937029212713242,0.031313445419073105,0.0,0.6615039706230164,0.0,0.0,-0.7499416470527649,0.4125480055809021,-0.09383582323789597,0.0,0.0,0.0,-2.2522525787353516,0.46176302433013916,0.7082550525665283,0.4199985861778259,0.5352973937988281,-9.583915925759356e-06,3.74906521756202e-05,-0.8446635603904724,0.19609443843364716,-0.2682536244392395,-0.00031313643557950854,-0.006846035830676556,-0.007500484120100737,5.035951137542725,0.4580810070037842,0.7189143896102905,0.4221429228782654,0.11075282096862793,-0.23955270648002625,-0.07106554508209229,0.4579299986362457,0.7185810208320618,0.42000001668930054,-0.30759117007255554,-1.9215601682662964,-1.1247807741165161,2.9996840953826904,-0.19922716915607452,-0.2024689018726349,-0.20453962683677673,-0.1899842768907547,0.6093457341194153,0.5575427412986755,0.4012051224708557,0.10512451827526093
0.6,0.07811150699853897,0.03391899913549423,0.0,0.6651002764701843,0.0,0.0,-0.7467540502548218,0.5429514646530151,0.17344091832637787,0.0,0.0,0.0,1.4554922580718994,0.46423614025115967,0.7047836184501648,0.42000454664230347,0.5561136603355408,0.00012617949687410146,4.100552177987993e-05,-0.8311062455177307,0.08927741646766663,-0.14143432676792145,-0.0038609476760029793,-0.13872124254703522,0.06463321298360825,0.05573373660445213,0.4583243727684021,0.7157632112503052,0.42355048656463623,-0.03742595389485359,-0.015646930783987045,0.14734558761119843,0.4579299986362457,0.7185810208320618,0.42000001668930054,-0.35492637753486633,-2.9981114864349365,-1.146980881690979,-2.9997928142547607,-0.1918422132730484,-0.1956087201833725,-0.19963499903678894,-0.1895550638437271,0.5101491808891296,0.45401856303215027,0.33116796612739563,0.05338914692401886
0.6166666666666667,0.08852201700210571,0.032972998917102814,0.0,0.6574764847755432,0.0,0.0,-0.7534750699996948,0.6461775302886963,-0.10892633348703384,0.0,0.0,0.0,-2.2336437702178955,0.46498629450798035,0.7035267353057861,0.4200003445148468,0.5662632584571838,1.8478260244592093e-05,-2.4918477720348164e-05,-0.8242244124412537,-0.00023515654902439564,-0.017393426969647408,-0.001019046874716878,0.04728958010673523,0.038954656571149826,5.964284420013428,0.4587821662425995,0.7198432683944702,0.42651188373565674,-0.05483812838792801,0.3298313021659851,0.20062114298343658,0.4579299986362457,0.7185810208320618,0.42000001668930054,-0.4049416184425354,-2.9999730587005615,-1.196936011314392,-2.9988913536071777,-0.1800469160079956,-0.18540166318416595,-0.19180814921855927,-0.1866428107023239,0.6392882466316223,0.5637685060501099,0.4524593949317932,0.18663445115089417
0.6333333333333333,0.10093171149492264,0.03502383455634117,0.0,0.66136634349823,0.0,0.0,-0.7500630617141724,0.7665531635284424,0.16108183562755585,0.0,0.0,0.0,1.5329713821411133,0.4639667570590973,0.7042356133460999,0.4200003147125244,0.5774025917053223,-4.769493898493238e-06,1.5629169865860604e-05,-0.8164594769477844,-0.0902097076177597,0.07400353997945786,-0.00041972100734710693,-0.008478676900267601,-0.020414454862475395,0.642957329750061,0.4570084512233734,0.7241347432136536,0.4295402765274048,-0.10951270163059235,0.29045480489730835,0.1914467215538025,0.4579299986362457,0.7185810208320618,0.42000001668930054,-0.45496097207069397,-3.0000014305114746,-1.2469398975372314,-2.9999663829803467,-0.17250782251358032,-0.1786641627550125,-0.18627308309078217,-0.18485045433044434,0.44632038474082947,0.39386633038520813,0.32849735021591187,0.11648335307836533
0.65,0.11066832393407822,0.03278394788503647,0.0,0.6861867904663086,0.0,0.0,-0.7274253964424133,0.5144731402397156,-0.17915773391723633,0.0,0.0,0.0,4.817120552062988,0.4623069167137146,0.7053355574607849,0.4202708303928375,0.5654072761535645,0.003909192513674498,-0.005533343181014061,-0.824783980846405,-0.14938637614250183,0.07510145753622055,0.05316837504506111,-0.8845894932746887,-2.5105903148651123,-4.491872310638428,0.45483267307281494,0.7270901203155518,0.43300458788871765,-0.23024210333824158,0.09937753528356552,0.22896865010261536,0.4579299986362457,0.7185810208320618,0.42000001668930054,-0.5049840807914734,-2.999999523162842,-1.2969168424606323,-2.9993653297424316,-0.16469503939151764,-0.17117249965667725,-0.17915450036525726,-0.18042245507240295,0.31379997730255127,0.34710392355918884,0.38375625014305115,0.2869921326637268
0.6666666666666666,0.12067937850952148,0.027152137830853462,0.0,0.6961316466331482,0.0,0.0,-0.7179141640663147,0.6339909434318542,-0.3829419016838074,0.0,0.0,0.0,0.6259962916374207,0.4597865343093872,0.7064229249954224,0.42036476731300354,0.5503652095794678,0.005040517542511225,-0.0076933568343520164,-0.8348733186721802,-0.12061966210603714,0.058798085898160934,-0.011517621576786041,0.2210431843996048,0.5467448830604553,-2.522918701171875,0.453571617603302,0.7299480438232422,0.43767112493515015,-0.04939824342727661,0.13779819011688232,0.31058672070503235,0.4579299986362457,0.7185810208320618,0.42000001668930054,-0.5549890995025635,-2.999682664871216,-1.3469123840332031,-2.999878168106079,-0.16108371317386627,-0.16636499762535095,-0.17288200557231903,-0.1746435910463333,0.17741692066192627,0.2762017548084259,0.3998967409133911,0.4194474220275879
0.6833333333333333,0.132496178150177,0.01870473474264145,0.0,0.6841936707496643,0.0,0.0,-0.7293003797531128,0.7429667115211487,-0.5724895596504211,0.0,0.0,0.0,-2.8693764209747314,0.4585672914981842,0.7069786190986633,0.4200000464916229,0.5409209728240967,-1.6677506664564135e-07,-4.671040887416211e-09,-0.8410733938217163,-0.04601016640663147,0.019274601712822914,-1.721549779176712e-05,-0.0007774253026582301,0.0002849264128599316,-0.6828680038452148,0.45775556564331055,0.7347792983055115,0.45022672414779663,0.5145918130874634,0.3742700517177582,1.2878835201263428,0.4579299986362457,0.7185810208320618,0.42000001668930054,-0.6050001382827759,-2.999983310699463,-1.3969306945800781,-2.999999761581421,-0.16051174700260162,-0.1639936864376068,-0.1682196855545044,-0.16922621428966522,-0.038697920739650726,0.07402024418115616,0.21906839311122894,0.28269967436790466
0.7,0.14801080524921417,0.015955042093992233,0.0,0.6501292586326599,0.0,0.0,-0.7598236203193665,1.0076346397399902,-0.027364572510123253,0.0,0.0,0.0,-6.505728244781494,0.45846953988075256,0.7070165872573853,0.42000001668930054,0.5405004620552063,-1.2093373413790687e-07,-1.1168177479703445e-05,-0.8413437008857727,0.0003546100342646241,-0.0005987879121676087,-9.613973088562489e-05,0.011493377387523651,-0.014228093437850475,-0.003144606249406934,0.4761059284210205,0.7350759506225586,0.4773920774459839,1.7312548160552979,-0.288146048784256,2.0971107482910156,0.4579299986362457,0.7185810208320618,0.42000001668930054,-0.6550108194351196,-2.9997382164001465,-1.4469490051269531,-2.9999570846557617,-0.17014840245246887,-0.1700294464826584,-0.17018942534923553,-0.16844487190246582,-0.7719587683677673,-0.5158076286315918,-0.2329292744398117,-0.021832896396517754
0.7166666666666667,0.16034036874771118,0.018243737518787384,0.0,0.6285228729248047,0.0,0.0,-0.7777911424636841,0.6332318186759949,-0.0763128474354744,0.0,0.0,0.0,-1.9723631143569946,0.45847031474113464,0.707016110420227,0.4200000464916229,0.540499210357666,7.190729434114473e-08,-2.6553304905974073e-06,-0.84134441614151,2.7085983674624003e-05,-0.00025284680305048823,-7.277750410139561e-05,0.006729988381266594,-0.0022040701005607843,-0.000708486360963434,0.502169132232666,0.7334266901016235,0.5136211514472961,1.593319296836853,0.13470368087291718,2.197305202484131,0.4579299986362457,0.7185810208320618,0.42000001668930054,-0.6717869639396667,0.6742910742759705,-1.4969673156738281,-2.999999761581421,-0.18092724680900574,-0.17751865088939667,-0.17400559782981873,-0.16965048015117645,-0.1596032679080963,-0.10633878409862518,-0.023403776809573174,0.015021606348454952
0.7333333333333333,0.1674974113702774,0.01902616024017334,0.0,0.6339293122291565,0.0,0.0,-0.7733909487724304,0.35660263895988464,0.09717252105474472,0.0,0.0,0.0,1.6975065469741821,0.45847031474113464,0.707016110420227,0.4200000464916229,0.5404993891716003,1.4122927893822634e-07,-2.523933062548167e-06,-0.84134441614151,3.2321833714377135e-05,-0.0002458991948515177,-7.474585436284542e-05,0.006505846977233887,-0.0021417071111500263,-0.0007065303507260978,0.5241501331329346,0.7359150052070618,0.5441190600395203,0.9589618444442749,0.1730857789516449,1.5438029766082764,0.4579299986362457,0.7185810208320618,0.42000001668930054,-0.6373106241226196,3.000000476837158,-1.5298062562942505,-1.080834984779358,-0.18213064968585968,-0.1781163215637207,-0.17353913187980652,-0.16873487830162048,0.020276345312595367,0.04005050286650658,0.0833275243639946,0.09559304267168045
0.75,0.17039555311203003,0.015148964710533619,0.0,0.6280462145805359,0.0,0.0,-0.7781760096549988,0.17829133570194244,-0.2769870460033417,0.0,0.0,0.0,-1.6561890840530396,0.45847028493881226,0.707016110420227,0.4200000464916229,0.5404996275901794,3.213334025531367e-07,-2.5872438982332824e-06,-0.8413442373275757,3.308279701741412e-05,-0.00024772583856247365,-7.502990774810314e-05,0.006548527628183365,-0.002144967671483755,-0.0007133306935429573,0.532135546207428,0.7411903142929077,0.5630165338516235,-0.041557200253009796,0.24083346128463745,0.8709732890129089,0.4579299986362457,0.7185810208320618,0.42000001668930054,-0.5998672246932983,1.586798071861267,-1.4847460985183716,3.0000011920928955,-0.17741069197654724,-0.1737966388463974,-0.16927163302898407,-0.16490605473518372,0.1566123217344284,0.1638881266117096,0.18409405648708344,0.18073546886444092
0.7666666666666666,0.17068713903427124,0.016831889748573303,0.0,0.6349997520446777,0.0,0.0,-0.7725123167037964,-0.019215820357203484,0.09429756551980972,0.0,0.0,0.0,1.8196048736572266,0.45847028493881226,0.707016110420227,0.4200000464916229,0.5404993295669556,1.3138874521700927e-07,-2.261405597892008e-06,-0.8413444757461548,3.054471017094329e-05,-0.0002463647397235036,-7.432722486555576e-05,0.006528201978653669,-0.002162773394957185,-0.000703697616700083,0.526138186454773,0.7435977458953857,0.5750956535339355,-0.5006738305091858,0.23694266378879547,0.593510091304779,0.4579299986362457,0.7185810208320618,0.42000001668930054,-0.5578691363334656,3.000000476837158,-1.4911991357803345,-3.000000238418579,-0.1796814203262329,-0.17503760755062103,-0.16943742334842682,-0.16444575786590576,0.045068610459566116,0.05328217148780823,0.06525889784097672,0.05959272012114525
0.7833333333333333,0.16988103091716766,0.014457197859883308,0.0,0.6291534900665283,0.0,0.0,-0.7772810459136963,-0.11277501285076141,-0.22034770250320435,0.0,0.0,0.0,-1.8188133239746094,0.45847028493881226,0.707016110420227,0.4200000464916229,0.5404996275901794,2.3476749788642337e-07,-2.558783080530702e-06,-0.8413441777229309,2.7380348910810426e-05,-0.00024834737996570766,-7.373210974037647e-05,0.006597035564482212,-0.002209675731137395,-0.0007017914322204888,0.5108608603477478,0.7478015422821045,0.5777710676193237,-1.3177375793457031,0.2155090719461441,-0.08205937594175339,0.4579299986362457,0.7185810208320618,0.42000001668930054,-0.5389467477798462,-0.4465109705924988,-1.4524973630905151,3.000000476837158,-0.17691615223884583,-0.17252938449382782,-0.1671457290649414,-0.1625669002532959,0.191476970911026,0.17579716444015503,0.1592632234096527,0.13351956009864807
0.8,0.1698673665523529,0.016906533390283585,0.0,0.6351882815361023,0.0,0.0,-0.7723573446273804,0.020129038020968437,0.10891640186309814,0.0,0.0,0.0,1.449884057044983,0.45847028493881226,0.7070160508155823,0.4200000464916229,0.5404995679855347,1.2995492681966425e-07,-2.41936663769593e-06,-0.8413442373275757,3.154991281917319e-05,-0.0002451958425808698,-7.447507232427597e-05,0.006492669228464365,-0.0021442624274641275,-0.0007031562854535878,0.4912894070148468,0.7505271434783936,0.5751996040344238,-0.8566635847091675,0.3407244086265564,-0.20704904198646545,0.4579299986362457,0.7185810208320618,0.42000001668930054,-0.5246058106422424,1.9514045715332031,-1.437085509300232,-0.8310356736183167,-0.17914420366287231,-0.1742640882730484,-0.16845254600048065,-0.16358889639377594,0.10147549957036972,0.05539719760417938,0.01398890744894743,-0.021854760125279427
0.8166666666666667,0.17180511355400085,0.01474414300173521,0.0,0.6276217699050903,0.0,0.0,-0.7785184383392334,0.14900848269462585,-0.15361204743385315,0.0,0.0,0.0,-2.0484261512756348,0.45847028493881226,0.707016110420227,0.4200000464916229,0.5404996871948242,3.1728183103041374e-07,-2.771512299659662e-06,-0.8413442373275757,3.358586036483757e-05,-0.00024723162641748786,-7.508299313485622e-05,0.006533171981573105,-0.0021355675999075174,-0.0007131331949494779,0.4774492383003235,0.7552435994148254,0.5685279369354248,-0.8351900577545166,0.12336181849241257,-0.4298591911792755,0.4579299986362457,0.7185810208320618,0.42000001668930054,-0.5371580719947815,-3.0000009536743164,-1.391506314277649,3.000000238418579,-0.17582421004772186,-0.1719646453857422,-0.1670496165752411,-0.16287662088871002,0.10419870913028717,0.07201690971851349,0.04535911977291107,0.031606756150722504
0.8333333333333334,0.17614345252513885,0.011186142452061176,0.0,0.6321993470191956,0.0,0.0,-0.7748057842254639,0.3006635010242462,-0.30839505791664124,0.0,0.0,0.0,1.5388544797897339,0.45847028493881226,0.7070160508155823,0.4200000464916229,0.5404994487762451,2.8242448024684563e-07,-2.7000257887266343e-06,-0.8413442373275757,3.5252945963293314e-05,-0.00024519942235201597,-7.526646368205547e-05,0.006472395732998848,-0.0021024923771619797,-0.0007114919135347009,0.47032034397125244,0.7559896111488342,0.5634212493896484,-0.056939445436000824,0.028020629659295082,-0.1590186506509781,0.4579299986362457,0.7185810208320618,0.42000001668930054,-0.5769797563552856,-1.8462164402008057,-1.4097964763641357,-2.999999523162842,-0.1765526384115219,-0.17247356474399567,-0.1672249585390091,-0.16246187686920166,-0.05811312794685364,-0.0326569564640522,0.00254501192830503,0.05753922834992409
0.85,0.18269184231758118,0.004401132930070162,0.0,0.6249792575836182,0.0,0.0,-0.7806413769721985,0.432914674282074,-0.4670824408531189,0.0,0.0,0.0,-2.0066840648651123,0.45847028493881226,0.707016110420227,0.4200000464916229,0.5404993295669556,4.384406508961547e-07,-2.3422276171913836e-06,-0.8413443565368652,3.452128294156864e-05,-0.0002457174414303154,-7.51593615859747e-05,0.00648860540241003,-0.00211518257856369,-0.0007110501173883677,0.473705530166626,0.7532941102981567,0.5568459033966064,0.4702838063240051,-0.33579403162002563,-0.4419060945510864,0.4579299986362457,0.7185810208320618,0.42000001668930054,-0.6224839091300964,-2.999922513961792,-1.4075746536254883,2.765136480331421,-0.17884114384651184,-0.17383331060409546,-0.16745233535766602,-0.16117875277996063,-0.14031444489955902,-0.0645052120089531,0.024722130969166756,0.13819149136543274
0.8666666666666667,0.19210854172706604,0.0005537130055017769,0.0,0.5965527296066284,0.0,0.0,-0.8025738596916199,0.6061403155326843,-0.19492806494235992,0.0,0.0,0.0,-5.115187644958496,0.45847031474113464,0.707016110420227,0.4200000464916229,0.5404992699623108,4.347141668858967e-07,-2.471756715749507e-06,-0.84134441614151,3.529935929691419e-05,-0.00024634815054014325,-7.532560266554356e-05,0.006501873955130577,-0.002108539454638958,-0.0007141571841202676,0.4839668869972229,0.7466225028038025,0.5533698797225952,0.776491105556488,-0.3715842366218567,0.14212289452552795,0.4579299986362457,0.7185810208320618,0.42000001668930054,-0.6542385220527649,-0.9613388180732727,-1.4279159307479858,-2.9999988079071045,-0.18258266150951385,-0.1767498403787613,-0.16933821141719818,-0.1616320013999939,-0.1442323923110962,-0.13898956775665283,-0.12169811874628067,-0.07923439145088196
0.8833333333333333,0.19912314414978027,-0.0009601801284588873,0.0,0.5837095975875854,0.0,0.0,-0.8119624853134155,0.34020012617111206,-0.04400443658232689,0.0,0.0,0.0,-0.8714843988418579,0.45847028493881226,0.707016110420227,0.4200000464916229,0.5404992699623108,2.0542923095945298e-07,-2.7559665340959327e-06,-0.8413444757461548,3.1041799957165495e-05,-0.00024935815599747,-7.460662163794041e-05,0.006602618843317032,-0.0021756053902208805,-0.0007123915711417794,0.49639230966567993,0.743455171585083,0.5554969310760498,0.6479846239089966,-0.07281606644392014,0.08814968168735504,0.4579299986362457,0.7185810208320618,0.42000001668930054,-0.6427995562553406,2.060905933380127,-1.4779342412948608,-3.0,-0.18311284482479095,-0.17770518362522125,-0.17057490348815918,-0.16277778148651123,0.050596270710229874,0.0015463749878108501,-0.04343649744987488,-0.06997968256473541
