vladlanda/robotic-transformer/data/env_000_episode_0228.csv
sim_time_s,robot_box_x,robot_box_y,robot_box_z,robot_box_quat_w,robot_box_quat_x,robot_box_quat_y,robot_box_quat_z,robot_box_linvel_x,robot_box_linvel_y,robot_box_linvel_z,robot_box_angvel_x,robot_box_angvel_y,robot_box_angvel_z,cube_world_x,cube_world_y,cube_world_z,cube_quat_w,cube_quat_x,cube_quat_y,cube_quat_z,cube_linvel_x,cube_linvel_y,cube_linvel_z,cube_angvel_x,cube_angvel_y,cube_angvel_z,endpoint_world_x,endpoint_world_y,endpoint_world_z,endpoint_linvel_x,endpoint_linvel_y,endpoint_linvel_z,target_cube_world_x,target_cube_world_y,target_cube_world_z,gripper_actual_pos_rad_gp_leftgearjoint,gripper_actual_vel_rad_s_gp_leftgearjoint,gripper_actual_pos_rad_gp_rotatingjoint,gripper_actual_vel_rad_s_gp_rotatingjoint,motor_angle_rad_joint1,motor_angle_rad_joint2,motor_angle_rad_joint3,motor_angle_rad_joint4,motor_speed_rad_s_joint1,motor_speed_rad_s_joint2,motor_speed_rad_s_joint3,motor_speed_rad_s_joint4
0.0,0.0,0.0,0.0,1.0,0.0,0.0,0.0,0.0,0.0,0.0,0.0,0.0,0.0,-0.42218664288520813,0.7130837440490723,0.41999998688697815,1.0,0.0,0.0,0.0,0.0,0.0,0.0,0.0,0.0,0.0,3.42540442943573e-06,-0.005000244826078415,1.313499927520752,0.0,0.0,0.0,0.4032028615474701,0.7404460906982422,0.42000001668930054,-1.5707999467849731,0.0,0.0,0.0,0.0,0.0,0.0,0.0,0.0,0.0,0.0,0.0
0.016666666666666666,0.0028778850100934505,0.0021806680597364902,0.0,0.9998081922531128,0.0,0.0,0.019586581736803055,0.24087215960025787,0.18240931630134583,0.0,0.0,0.0,3.1418697834014893,-0.4221867620944977,0.7130834460258484,0.41999998688697815,1.0,3.2799914606584935e-06,-8.339814598912199e-07,8.465387679734704e-08,-1.9833554688375443e-05,0.00017983050202019513,-6.133061833679676e-05,0.0009432226070202887,-0.004689437802881002,-0.0003198152990080416,-0.007110234349966049,0.003379564033821225,1.3159373998641968,-0.8143353462219238,0.9868683815002441,0.18095196783542633,0.4032028615474701,0.7404460906982422,0.42000001668930054,-1.5301095247268677,3.0000011920928955,-0.04584788903594017,-2.9999992847442627,0.0008691533003002405,0.0007963840034790337,0.0007110277656465769,0.0006108740926720202,0.11094217747449875,0.09756709635257721,0.08334315568208694,0.06823883205652237
0.03333333333333333,0.008960988372564316,0.006801992189139128,0.0,0.9997960329055786,0.0,0.0,0.020196838304400444,0.40702199935913086,0.31530797481536865,0.0,0.0,0.0,-0.8691326975822449,-0.42218688130378723,0.7130833864212036,0.4200000464916229,1.0,3.390914116607746e-06,-2.132455392711563e-06,-3.71076644967161e-08,0.0002635782293509692,0.00026937935035675764,-0.00010509486310184002,-0.001770757487975061,0.0041308156214654446,-0.00013547815615311265,-0.027553752064704895,0.026221465319395065,1.3165925741195679,-1.591386318206787,1.6160715818405151,-0.08553392440080643,0.4032028615474701,0.7404460906982422,0.42000001668930054,-1.4800903797149658,3.000001907348633,-0.09588772058486938,-3.000000476837158,0.002990100299939513,0.0026527084410190582,0.0022772762458771467,0.0018607309320941567,0.16421447694301605,0.1397581845521927,0.11381696909666061,0.08629909157752991
0.05,0.017593448981642723,0.01373910903930664,0.0,0.9994287490844727,0.0,0.0,0.033796411007642746,0.589309573173523,0.46390190720558167,0.0,0.0,0.0,2.676750421524048,-0.4221869111061096,0.7130834460258484,0.4200000464916229,1.0,3.7652293940482195e-06,-2.2118967990536476e-06,5.613899567435965e-09,0.000265309150563553,0.0002669153909664601,-0.0001044049859046936,-0.00172426737844944,0.004177379421889782,-0.0001294983085244894,-0.05959640070796013,0.05456259474158287,1.3114469051361084,-2.186152696609497,1.8011319637298584,-0.4903292953968048,0.4032028615474701,0.7404460906982422,0.42000001668930054,-1.4300720691680908,2.999994993209839,-0.145926371216774,-3.0000007152557373,0.005649274680763483,0.004860281012952328,0.00399921415373683,0.0030615758150815964,0.191552996635437,0.15466314554214478,0.1159077063202858,0.07519340515136719
0.06666666666666667,0.02883770316839218,0.023012463003396988,0.0,0.9994905591011047,0.0,0.0,0.03191554918885231,0.716124415397644,0.5940819382667542,0.0,0.0,0.0,-1.1839131116867065,-0.4221869111061096,0.7130833864212036,0.4200000464916229,0.9999999403953552,3.4068445984303253e-06,-2.2855729184811935e-06,4.300823945868615e-07,0.000267024093773216,0.0002679175231605768,-0.0001043803058564663,-0.0017406325787305832,0.004211729858070612,-0.00012850853090640157,-0.09650497138500214,0.08989662677049637,1.2990827560424805,-2.273167610168457,2.3182971477508545,-0.9655869007110596,0.4032028615474701,0.7404460906982422,0.42000001668930054,-1.3800537586212158,3.000000238418579,-0.19595886766910553,-3.000000476837158,0.008048616349697113,0.006511762738227844,0.004863860085606575,0.0030994017142802477,0.13093449175357819,0.0738520473241806,0.014727719128131866,-0.046517081558704376
0.08333333333333333,0.04318744316697121,0.03444289788603783,0.0,0.9999992251396179,0.0,0.0,0.0012499045114964247,0.9352396726608276,0.7268340587615967,0.0,0.0,0.0,-4.495904445648193,-0.4221869111061096,0.7130833864212036,0.4200000464916229,1.0,3.697329248097958e-06,-2.1889204617764335e-06,-2.632361599808064e-07,0.00026389621780253947,0.00026586378226056695,-0.00010433816350996494,-0.0017081365222111344,0.004150137305259705,-0.00012991174298804253,-0.13297173380851746,0.13278396427631378,1.2810478210449219,-2.146934986114502,2.6889002323150635,-1.1977393627166748,0.4032028615474701,0.7404460906982422,0.42000001668930054,-1.330026626586914,2.999993324279785,-0.16497664153575897,3.0000009536743164,0.009393887594342232,0.00679896492511034,0.004052146803587675,0.0011480849934741855,0.05787768214941025,-0.014150017872452736,-0.08829338103532791,-0.16451764106750488
0.1,0.051902998238801956,0.049705348908901215,0.0,0.9996531009674072,0.0,0.0,-0.026337208226323128,0.3854657709598541,0.9939952492713928,0.0,0.0,0.0,-2.62629771232605,-0.4221869111061096,0.7130833864212036,0.4200000464916229,0.9999999403953552,3.620433972173487e-06,-2.265166358483839e-06,1.7460881451825117e-07,0.00026676940615288913,0.00026740849716588855,-0.0001040794886648655,-0.0017386502586305141,0.0042092143557965755,-0.00012775196228176355,-0.16868853569030762,0.17526361346244812,1.2602872848510742,-2.042511224746704,2.5807228088378906,-1.2421236038208008,0.4032028615474701,0.7404460906982422,0.42000001668930054,-1.2800310850143433,3.0000011920928955,-0.1966576725244522,-3.0000011920928955,0.0038016177713871002,0.0003629396087490022,-0.003280045697465539,-0.007135327439755201,-0.4657962918281555,-0.5204660892486572,-0.5777352452278137,-0.6377906799316406
0.11666666666666667,0.055889975279569626,0.06638821214437485,0.0,0.9976639747619629,0.0,0.0,-0.06831209361553192,0.2527175545692444,0.9699559211730957,0.0,0.0,0.0,-5.753382205963135,-0.4221869111061096,0.7130833864212036,0.4200000464916229,1.0,3.7984186747053172e-06,-2.262772341055097e-06,-1.5020653165720432e-07,0.00026373984292149544,0.00026565982261672616,-0.00010428996756672859,-0.0017054551281034946,0.004147582221776247,-0.000129800770082511,-0.20168878138065338,0.22095680236816406,1.2403159141540527,-1.8901063203811646,2.9742355346679688,-1.1706392765045166,0.4032028615474701,0.7404460906982422,0.42000001668930054,-1.2300242185592651,3.000000476837158,-0.2466912567615509,-3.000000238418579,-0.0037818520795553923,-0.008518611080944538,-0.013464623130857944,-0.01862960495054722,-0.3624497056007385,-0.46263545751571655,-0.561046838760376,-0.6576687097549438
0.13333333333333333,0.05898415297269821,0.08193516731262207,0.0,0.9960907101631165,0.0,0.0,-0.08833587914705276,0.17698407173156738,0.8796516060829163,0.0,0.0,0.0,-1.291410207748413,-0.4221869111061096,0.7130834460258484,0.4200000464916229,0.9999999403953552,3.5505179312167456e-06,-2.2298092972050654e-06,2.9291240366546845e-07,0.0002670329704415053,0.0002677935699466616,-0.00010416889563202858,-0.0017439755611121655,0.004213570151478052,-0.00012800609692931175,-0.23810318112373352,0.26946431398391724,1.217332124710083,-2.1994333267211914,3.106264591217041,-1.5582585334777832,0.4032028615474701,0.7404460906982422,0.42000001668930054,-1.1834118366241455,2.5923819541931152,-0.2146826833486557,2.999999761581421,-0.008442428894340992,-0.015022506937384605,-0.02174336276948452,-0.0286132600158453,-0.2471352219581604,-0.3580636978149414,-0.4638689160346985,-0.5644364356994629
0.15,0.06580346822738647,0.0932595506310463,0.0,0.9925687909126282,0.0,0.0,-0.12168501317501068,0.5256962180137634,0.5859450697898865,0.0,0.0,0.0,-4.968143463134766,-0.4221869111061096,0.7130833864212036,0.4200000464916229,0.9999999403953552,3.3381122648279415e-06,-2.2428905595006654e-06,-2.803136034401632e-08,0.0002667456865310669,0.0002675803261809051,-0.00010427623055875301,-0.0017366986721754074,0.004206871148198843,-0.00012831554340664297,-0.2728501260280609,0.3245420455932617,1.189345121383667,-1.969435453414917,3.5243983268737793,-1.8360170125961304,0.4032028615474701,0.7404460906982422,0.42000001668930054,-1.1384806632995605,2.7458362579345703,-0.246043398976326,-3.0000011920928955,-0.010259948670864105,-0.018878940492868423,-0.02753579430282116,-0.03623667359352112,-0.1003040075302124,-0.21471558511257172,-0.3231290578842163,-0.4254467189311981
0.16666666666666666,0.07054805010557175,0.10436292737722397,0.0,0.9839261174201965,0.0,0.0,-0.17857618629932404,0.1995391547679901,0.6914032697677612,0.0,0.0,0.0,-8.06722354888916,-0.4221869111061096,0.7130834460258484,0.4200000464916229,0.9999999403953552,3.647830908448668e-06,-2.307289605596452e-06,3.526602299075421e-08,0.0002672695554792881,0.0002680134493857622,-0.0001041879877448082,-0.0017471626633778214,0.004217641893774271,-0.00012799118121620268,-0.30511361360549927,0.38723522424697876,1.1508843898773193,-1.732191562652588,4.095285892486572,-2.68172550201416,0.4032028615474701,0.7404460906982422,0.42000001668930054,-1.1022164821624756,1.667147159576416,-0.21200957894325256,3.0000014305114746,-0.016783898696303368,-0.02654099278151989,-0.03626328706741333,-0.045961882919073105,-0.5312260985374451,-0.571388304233551,-0.6081321835517883,-0.6419053077697754
0.18333333333333332,0.07165584713220596,0.11669730395078659,0.0,0.976232647895813,0.0,0.0,-0.2167252004146576,-0.013693847693502903,0.747594952583313,0.0,0.0,0.0,-3.4965360164642334,-0.4221869111061096,0.7130833864212036,0.4200000464916229,0.9999999403953552,3.290551603640779e-06,-2.1939342786936322e-06,-2.7924167511628184e-07,0.0002667796507012099,0.00026776036247611046,-0.00010434072464704514,-0.001739065395668149,0.004206969402730465,-0.00012845818127971143,-0.3400511145591736,0.4514000713825226,1.0994828939437866,-1.9644196033477783,4.061769008636475,-3.4779977798461914,0.4032028615474701,0.7404460906982422,0.42000001668930054,-1.058106541633606,2.9999992847442627,-0.24334409832954407,-3.0,-0.02655770070850849,-0.036666225641965866,-0.04667198657989502,-0.05659468099474907,-0.6257084608078003,-0.6298002004623413,-0.6299715638160706,-0.626737117767334
0.2,0.07627536356449127,0.12981320917606354,0.0,0.9637326002120972,0.0,0.0,-0.2668698728084564,0.20677000284194946,0.845178484916687,0.0,0.0,0.0,-6.975194454193115,-0.4221869111061096,0.7130833864212036,0.4200000464916229,1.0,3.2807351999508683e-06,-2.219225052613183e-06,1.594732026433121e-07,0.00026627970510162413,0.00026740136672742665,-0.0001042510848492384,-0.001735763973556459,0.004197762347757816,-0.0001286511542275548,-0.37218308448791504,0.5205041766166687,1.033983588218689,-1.6922540664672852,4.234897613525391,-4.387607574462891,0.4032028615474701,0.7404460906982422,0.42000001668930054,-1.0081069469451904,3.0000030994415283,-0.2933705151081085,-3.000000476837158,-0.03613508120179176,-0.04617368429899216,-0.05605447292327881,-0.06580647826194763,-0.8524439930915833,-0.7971662878990173,-0.7417265176773071,-0.6869134306907654
0.21666666666666667,0.07640700787305832,0.1409488469362259,0.0,0.9547839164733887,0.0,0.0,-0.2973007261753082,-0.023821085691452026,0.607794463634491,0.0,0.0,0.0,-2.6477160453796387,-0.4221869111061096,0.7130834460258484,0.4200000464916229,1.0,3.613135277191759e-06,-2.2701503894495545e-06,2.2101289687270764e-07,0.0002671263355296105,0.0002678169112186879,-0.00010414118878543377,-0.0017444867407903075,0.0042151641100645065,-0.00012786478328052908,-0.4007885456085205,0.5834671854972839,0.9522144794464111,-1.3728044033050537,3.699470043182373,-5.321691989898682,0.4032028615474701,0.7404460906982422,0.42000001668930054,-0.9581000804901123,2.9999988079071045,-0.34339866042137146,-3.000002384185791,-0.05216022953391075,-0.06189651042222977,-0.07086069881916046,-0.07887978106737137,-0.9666008353233337,-0.954983115196228,-0.9102007150650024,-0.7951977849006653
0.23333333333333334,0.0778324231505394,0.1532660722732544,0.0,0.9408142566680908,0.0,0.0,-0.3389226794242859,0.15229707956314087,0.7659218311309814,0.0,0.0,0.0,-6.1043877601623535,-0.4221869111061096,0.7130833864212036,0.4200000464916229,1.0,3.3818234896898502e-06,-2.290981683472637e-06,2.728025378928578e-07,0.0002669123059604317,0.0002677978773135692,-0.00010433210991322994,-0.0017395822796970606,0.004209768958389759,-0.00012843773583881557,-0.4213135838508606,0.6405701637268066,0.8557307124137878,-0.917149543762207,3.1712522506713867,-6.131654739379883,0.4032028615474701,0.7404460906982422,0.42000001668930054,-0.9080896377563477,3.0000030994415283,-0.39342889189720154,-2.999997615814209,-0.06828708201646805,-0.0780310407280922,-0.08698713034391403,-0.09478020668029785,-0.9935469627380371,-0.993478000164032,-0.9935378432273865,-0.9937020540237427
0.25,0.07788113504648209,0.16279400885105133,0.0,0.9324138760566711,0.0,0.0,-0.3613923192024231,-0.05632529407739639,0.4966161251068115,0.0,0.0,0.0,-1.8119450807571411,-0.42218688130378723,0.7130833864212036,0.4200000464916229,0.9999999403953552,3.706510142365005e-06,-2.2230249214771902e-06,-2.254949436064635e-07,0.00026424831594340503,0.00026656725094653666,-0.00010457634925842285,-0.001716952072456479,0.004155570175498724,-0.00013063338701613247,-0.43602150678634644,0.6820575594902039,0.7501633167266846,-0.5471068620681763,2.036142587661743,-6.526576995849609,0.4032028615474701,0.7404460906982422,0.42000001668930054,-0.8580789566040039,2.9999992847442627,-0.4434605538845062,-3.0000009536743164,-0.08490652590990067,-0.09461558610200882,-0.1035078838467598,-0.11120705306529999,-0.9915712475776672,-0.9929420351982117,-0.9939853549003601,-0.9857633113861084
0.26666666666666666,0.07478994876146317,0.16797930002212524,0.0,0.9350575804710388,0.0,0.0,-0.3544958829879761,-0.24050183594226837,0.251391738653183,0.0,0.0,0.0,1.7053914070129395,-0.4221869111061096,0.7130833864212036,0.4200000464916229,0.9999999403953552,3.7196562061581062e-06,-2.4035145997913787e-06,-1.8307397908756684e-07,0.00026623206213116646,0.00026729085948318243,-0.00010425853542983532,-0.0017326372908428311,0.004196509253233671,-0.0001285135222133249,-0.4473763704299927,0.7031890153884888,0.6417864561080933,-0.5560073852539062,0.6184324622154236,-6.500896453857422,0.4032028615474701,0.7404460906982422,0.42000001668930054,-0.8080695271492004,2.9999780654907227,-0.49349212646484375,-3.0000007152557373,-0.10169802606105804,-0.11134413629770279,-0.12019095569849014,-0.12783513963222504,-0.9940439462661743,-0.9951992630958557,-0.9961093068122864,-0.9968507885932922
0.2833333333333333,0.07504317909479141,0.16806606948375702,0.0,0.9326521158218384,0.0,0.0,-0.36077696084976196,0.06771659851074219,-0.07860616594552994,0.0,0.0,0.0,-1.5309337377548218,-0.4221869111061096,0.7130834460258484,0.4200000464916229,0.9999999403953552,3.584109208532027e-06,-2.315508709216374e-06,7.404404556154986e-08,0.0002652198018040508,0.0002645530621521175,-0.00010317005217075348,-0.001702171633951366,0.004185137338936329,-0.0001249976339749992,-0.45022091269493103,0.7117115259170532,0.5326272249221802,0.20161660015583038,0.12869390845298767,-6.361204147338867,0.4032028615474701,0.7404460906982422,0.42000001668930054,-0.7580607533454895,2.9999988079071045,-0.5435218214988708,-3.000001907348633,-0.11848007887601852,-0.1280200481414795,-0.13680508732795715,-0.14441615343093872,-1.0060054063796997,-1.0045348405838013,-1.0034128427505493,-1.002516269683838
0.3,0.0722665786743164,0.1660677045583725,0.0,0.9362041354179382,0.0,0.0,-0.35145673155784607,-0.25612887740135193,-0.14314895868301392,0.0,0.0,0.0,2.0483715534210205,-0.4221869111061096,0.7130833864212036,0.4200000464916229,1.0,3.724297130247578e-06,-2.271929133712547e-06,9.635297004706445e-08,0.0002631272072903812,0.00026525818975642323,-0.00010438100434839725,-0.0016960492357611656,0.004134910646826029,-0.00013027878594584763,-0.4421612620353699,0.7123513221740723,0.43542900681495667,0.8085025548934937,-0.07588130235671997,-5.371512413024902,0.4032028615474701,0.7404460906982422,0.42000001668930054,-0.7080528736114502,3.0,-0.5935494899749756,-3.0000014305114746,-0.13656042516231537,-0.14577598869800568,-0.154318168759346,-0.16173838078975677,-1.018679141998291,-1.0141699314117432,-1.010722041130066,-1.007949948310852
0.31666666666666665,0.06475996226072311,0.16255176067352295,0.0,0.9338341951370239,0.0,0.0,-0.35770609974861145,-0.5250968337059021,-0.24176256358623505,0.0,0.0,0.0,-1.7313814163208008,-0.4221869111061096,0.7130833864212036,0.4200000464916229,1.0,3.6662925140262814e-06,-2.392535634498927e-06,1.6798198032574874e-07,0.0002660211466718465,0.0002670691173989326,-0.00010418705642223358,-0.0017310786060988903,0.004193502478301525,-0.0001284959726035595,-0.4423392415046692,0.7148280143737793,0.4304468035697937,0.11110958456993103,0.08877858519554138,-0.23639465868473053,0.4032028615474701,0.7404460906982422,0.42000001668930054,-0.6580477356910706,3.000002145767212,-0.6439835429191589,-2.9996542930603027,-0.14816200733184814,-0.15738631784915924,-0.16485871374607086,-0.1708875298500061,-0.7500508427619934,-0.7109723091125488,-0.617434024810791,-0.509834885597229
0.3333333333333333,0.05647904425859451,0.15631981194019318,0.0,0.9369931817054749,0.0,0.0,-0.34934765100479126,-0.4973144829273224,-0.4260689616203308,0.0,0.0,0.0,1.959977388381958,-0.42205509543418884,0.713411271572113,0.42000532150268555,0.999991238117218,-5.8496945712249726e-05,-6.990815018070862e-05,-0.004187746439129114,0.06235388666391373,0.15141810476779938,-0.0061677261255681515,0.06107178330421448,0.25270846486091614,-4.103824138641357,-0.4382546544075012,0.7183369398117065,0.4261927604675293,0.37527164816856384,0.2107514590024948,-0.2376013696193695,0.4032028615474701,0.7404460906982422,0.42000001668930054,-0.6080420017242432,3.0000009536743164,-0.6940426230430603,-3.000023365020752,-0.15913385152816772,-0.1672568917274475,-0.17280128598213196,-0.17663441598415375,-0.600639283657074,-0.506638765335083,-0.3694875240325928,-0.2165447622537613
0.35,0.04658036679029465,0.14768783748149872,0.0,0.9344562888145447,0.0,0.0,-0.3560779094696045,-0.6372875571250916,-0.5561943054199219,0.0,0.0,0.0,-1.8031007051467896,-0.42028072476387024,0.7173770666122437,0.4200001060962677,0.9980204105377197,-1.8255685745316441e-06,8.832179446471855e-06,-0.06288965046405792,0.17808206379413605,0.3776472210884094,-0.00011833060852950439,0.006365777458995581,-0.0006714562186971307,-12.112524032592773,-0.43062108755111694,0.7238254547119141,0.42309239506721497,0.567548394203186,0.4899328351020813,-0.1464821696281433,0.4032028615474701,0.7404460906982422,0.42000001668930054,-0.5580371022224426,2.9999728202819824,-0.7441025972366333,-2.9997000694274902,-0.16899989545345306,-0.17541280388832092,-0.1786453276872635,-0.17991895973682404,-0.5432770252227783,-0.4381619095802307,-0.3048686981201172,-0.159005269408226
0.36666666666666664,0.03451324626803398,0.1368769407272339,0.0,0.937426745891571,0.0,0.0,-0.3481825292110443,-0.7643133997917175,-0.6865602135658264,0.0,0.0,0.0,1.9692670106887817,-0.41371822357177734,0.7285711765289307,0.4202755391597748,0.9875190258026123,0.006784744095057249,-0.0009858779376372695,-0.15735019743442535,0.5075592398643494,0.764618456363678,0.021492041647434235,1.1136986017227173,-0.3505784273147583,-5.559617519378662,-0.4201366603374481,0.7333576679229736,0.421027809381485,0.7186722755432129,0.6800723075866699,-0.09102366119623184,0.4032028615474701,0.7404460906982422,0.42000001668930054,-0.5080322623252869,2.9999818801879883,-0.7941452860832214,-2.999997854232788,-0.1782478392124176,-0.18244248628616333,-0.18307878077030182,-0.18157055974006653,-0.503442645072937,-0.36035236716270447,-0.1996951699256897,-0.028920114040374756
0.3833333333333333,0.0256038885563612,0.12353601306676865,0.0,0.9349924921989441,0.0,0.0,-0.35466745495796204,-0.4776670038700104,-0.83992999792099,0.0,0.0,0.0,-1.7467267513275146,-0.40427619218826294,0.7421046495437622,0.4200226962566376,0.9800431728363037,0.0005250736721791327,-9.351698099635541e-05,-0.19878369569778442,0.6677520275115967,0.894088625907898,0.015439135953783989,0.7941046953201294,-0.32236167788505554,-5.128329753875732,-0.4064598083496094,0.7442750930786133,0.42036765813827515,0.9788306951522827,0.7091760635375977,-0.023252341896295547,0.4032028615474701,0.7404460906982422,0.42000001668930054,-0.4580283761024475,2.9999871253967285,-0.8441976308822632,-2.999997615814209,-0.18616947531700134,-0.1876625269651413,-0.18533244729042053,-0.180671826004982,-0.4440261721611023,-0.26847273111343384,-0.08081319183111191,0.11684606224298477
0.4,0.013787785544991493,0.10873837769031525,0.0,0.9211714267730713,0.0,0.0,-0.38915708661079407,-0.6793770790100098,-0.994660496711731,0.0,0.0,0.0,-5.3796234130859375,-0.3858370780944824,0.7597156167030334,0.42096373438835144,0.9683210253715515,-0.009708372876048088,-0.010503767989575863,-0.24929840862751007,1.5728658437728882,1.2322380542755127,-0.055418938398361206,25.17890739440918,-14.277364730834961,1.4768997430801392,-0.38613468408584595,0.7607731819152832,0.42136526107788086,1.4359116554260254,1.2727059125900269,0.21605199575424194,0.4032028615474701,0.7404460906982422,0.42000001668930054,-0.4092761278152466,2.481482744216919,-0.8942359685897827,-3.0000009536743164,-0.1950398087501526,-0.1933315247297287,-0.18764831125736237,-0.17948688566684723,-0.27005288004875183,-0.13465099036693573,0.010733530856668949,0.16945774853229523
0.4166666666666667,0.005949945189058781,0.0905953198671341,0.0,0.8942171335220337,0.0,0.0,-0.44763341546058655,-0.4319465756416321,-1.131240963935852,0.0,0.0,0.0,-8.509178161621094,-0.3520298898220062,0.7868126034736633,0.42578452825546265,0.948666512966156,-0.0024044723249971867,-0.03789655491709709,-0.31399011611938477,3.1227169036865234,1.7771532535552979,0.5708456635475159,9.546968460083008,-9.210440635681152,8.156221389770508,-0.35202503204345703,0.7872467637062073,0.426074743270874,2.6621270179748535,1.9004923105239868,0.5597527027130127,0.4032028615474701,0.7404460906982422,0.42000001668930054,-0.3852086663246155,1.0596226453781128,-0.9442450404167175,-3.0000016689300537,-0.2010699212551117,-0.19672967493534088,-0.18834470212459564,-0.17734688520431519,-0.4508683979511261,-0.2637004554271698,-0.07888181507587433,0.1077585518360138
0.43333333333333335,0.00017542601563036442,0.07767399400472641,0.0,0.851333498954773,0.0,0.0,-0.5246249437332153,-0.2631526589393616,-0.771145224571228,0.0,0.0,0.0,-11.2387113571167,-0.28214532136917114,0.8233616948127747,0.43405017256736755,0.9259107708930969,0.05544687435030937,-0.07529084384441376,-0.3659864068031311,5.580486297607422,2.0735456943511963,0.5192325711250305,16.598785400390625,-15.757291793823242,20.6347599029541,-0.2821738123893738,0.823790431022644,0.43443211913108826,5.303618431091309,2.6716504096984863,0.6195685267448425,0.4032028615474701,0.7404460906982422,0.42000001668930054,-0.36713793873786926,1.1340000629425049,-0.9068821668624878,2.996324062347412,-0.21529829502105713,-0.20671315491199493,-0.19390209019184113,-0.17885275185108185,-0.6775730848312378,-0.5088586211204529,-0.28983184695243835,-0.09813009947538376
0.45,-0.001586348400451243,0.0667947381734848,0.0,0.8133965730667114,0.0,0.0,-0.5817095637321472,-0.04991226643323898,-0.5916339755058289,0.0,0.0,0.0,-6.705497741699219,-0.1905108541250229,0.8628588318824768,0.44529515504837036,0.8805832862854004,0.09316424280405045,-0.09979522973299026,-0.4538000226020813,5.781768321990967,1.4787101745605469,0.7285965085029602,13.200912475585938,-8.703069686889648,15.632428169250488,-0.19147172570228577,0.8647012710571289,0.44555962085723877,5.687670707702637,2.1026358604431152,0.7186026573181152,0.4032028615474701,0.7404460906982422,0.42000001668930054,-0.34628912806510925,1.2544022798538208,-0.9322285652160645,-3.000004291534424,-0.2262381613254547,-0.21496564149856567,-0.19900454580783844,-0.18136897683143616,-0.6165125370025635,-0.4565192759037018,-0.2871460020542145,-0.155927836894989
0.4666666666666667,-0.006995235104113817,0.0616300068795681,0.0,0.7958388924598694,0.0,0.0,-0.6055084466934204,-0.2540591359138489,-0.2858884334564209,0.0,0.0,0.0,-2.1140499114990234,-0.09547723829746246,0.8855782747268677,0.45795363187789917,0.819060742855072,0.10348512977361679,-0.09680857509374619,-0.5559300780296326,5.780187606811523,-0.04804331809282303,0.5871753096580505,-7.891693115234375,-16.964380264282227,19.869291305541992,-0.09663650393486023,0.8879591822624207,0.45751941204071045,5.8974480628967285,0.932839035987854,0.8883101344108582,0.4032028615474701,0.7404460906982422,0.42000001668930054,-0.3260449469089508,0.9820365905761719,-0.9822525382041931,-3.0000033378601074,-0.24002230167388916,-0.22565610706806183,-0.2059783935546875,-0.1853550225496292,-0.06270094960927963,-0.6522596478462219,-0.4523807168006897,-0.28723761439323425
0.48333333333333334,-0.006764068268239498,0.050445131957530975,0.0,0.7705641388893127,0.0,0.0,-0.6373624801635742,-0.03365013003349304,-0.6830637454986572,0.0,0.0,0.0,-5.5516486167907715,0.0003356337547302246,0.8934644460678101,0.46627509593963623,0.7642194032669067,0.09907431155443192,-0.10019677132368088,-0.6293755769729614,5.510700225830078,-0.8214937448501587,0.37956809997558594,-11.953644752502441,-6.672211647033691,12.976774215698242,-0.0006212703883647919,0.8957114219665527,0.4664868116378784,5.758238792419434,-0.1573472023010254,0.5413165092468262,0.4032028615474701,0.7404460906982422,0.42000001668930054,-0.3104330003261566,0.8704083561897278,-1.0322771072387695,-2.999941110610962,-0.23589542508125305,-0.2300175130367279,-0.20786547660827637,-0.1851300150156021,0.026651494204998016,-0.30756640434265137,-0.11123761534690857,0.06262755393981934
0.5,-0.005242690443992615,0.04408380389213562,0.0,0.7576660513877869,0.0,0.0,-0.6526424288749695,0.13891369104385376,-0.31691816449165344,0.0,0.0,0.0,-1.2909919023513794,0.09214244782924652,0.8840529918670654,0.4725106656551361,0.6933595538139343,0.07996267825365067,-0.09705546498298645,-0.7095341086387634,5.125837802886963,-1.2400405406951904,0.3025200664997101,-7.184819221496582,5.034817695617676,1.056218147277832,0.09054957330226898,0.8859843611717224,0.4731062650680542,5.396710395812988,-0.9171972274780273,0.38308805227279663,0.4032028615474701,0.7404460906982422,0.42000001668930054,-0.293414831161499,1.0423911809921265,-1.0822993516921997,-3.0000009536743164,-0.2388995736837387,-0.2365562915802002,-0.21131932735443115,-0.18601717054843903,-0.10970241576433182,-0.27434971928596497,-0.15251778066158295,-0.06038258597254753
0.5166666666666666,-0.005107124801725149,0.04197316616773605,0.0,0.7381988763809204,0.0,0.0,-0.6745831370353699,-0.012644665315747261,-0.0784485936164856,0.0,0.0,0.0,-4.277940273284912,0.1732904016971588,0.8657326102256775,0.472307950258255,0.6562299728393555,0.057070013135671616,-0.0937386304140091,-0.746537446975708,4.245168209075928,-1.7823033332824707,-0.21391776204109192,-3.782524824142456,-5.823407173156738,16.45847511291504,0.1724243462085724,0.8678738474845886,0.4739294648170471,4.627556800842285,-1.3556842803955078,-0.11635851114988327,0.4032028615474701,0.7404460906982422,0.42000001668930054,-0.27695024013519287,0.8142501711845398,-1.1323214769363403,-3.000000238418579,-0.23990067839622498,-0.23978793621063232,-0.21351289749145508,-0.1875177025794983,0.0248054638504982,-0.0714021623134613,-0.059315554797649384,-0.06256323307752609
0.5333333333333333,-0.0025611896999180317,0.035931721329689026,0.0,0.7305736541748047,0.0,0.0,-0.6828339099884033,0.14023804664611816,-0.36000287532806396,0.0,0.0,0.0,-0.40526631474494934,0.24126599729061127,0.8401118516921997,0.46515607833862305,0.6137635707855225,0.021100061014294624,-0.09113860130310059,-0.7839277386665344,3.260662317276001,-2.345064163208008,-0.6762487292289734,-9.963296890258789,-3.189005136489868,17.528579711914062,0.2405015528202057,0.8423558473587036,0.46767616271972656,3.6346774101257324,-1.775019645690918,-0.47072428464889526,0.4032028615474701,0.7404460906982422,0.42000001668930054,-0.2624984383583069,0.6020084023475647,-1.182343602180481,-3.0000011920928955,-0.23563741147518158,-0.23669755458831787,-0.21110309660434723,-0.18601757287979126,0.1828555017709732,0.18109221756458282,0.13836616277694702,0.07786555588245392
0.55,0.0019069884438067675,0.033885661512613297,0.0,0.7138902544975281,0.0,0.0,-0.7002575993537903,0.3338310718536377,-0.10673709213733673,0.0,0.0,0.0,-3.6681644916534424,0.2967347800731659,0.812639057636261,0.449557363986969,0.5826281309127808,-0.0306288730353117,-0.08687335252761841,-0.8075019717216492,2.883984327316284,-2.0266335010528564,-1.1780474185943604,-13.095377922058105,0.7525845766067505,13.34678840637207,0.29607802629470825,0.8150668144226074,0.45347946882247925,3.1676816940307617,-1.6004204750061035,-1.0187816619873047,0.4032028615474701,0.7404460906982422,0.42000001668930054,-0.25293925404548645,0.44400325417518616,-1.2323657274246216,-3.00000262260437,-0.2319575548171997,-0.23319248855113983,-0.20927821099758148,-0.18603597581386566,0.37012726068496704,0.33868932723999023,0.17743012309074402,0.014871329069137573
0.5666666666666667,0.008961318992078304,0.03457208350300789,0.0,0.7108030915260315,0.0,0.0,-0.7033910155296326,0.4540310204029083,0.10691553354263306,0.0,0.0,0.0,0.39849334955215454,0.3427492082118988,0.7838151454925537,0.4277072548866272,0.5408567190170288,-0.10434303432703018,-0.09600629657506943,-0.8290773034095764,2.069350242614746,-2.0775976181030273,-1.2925207614898682,-4.169512748718262,4.849259376525879,12.622710227966309,0.3421058654785156,0.7865554690361023,0.4335172474384308,2.477776527404785,-1.7615973949432373,-1.2904462814331055,0.4032028615474701,0.7404460906982422,0.42000001668930054,-0.2421821504831314,0.5923895239830017,-1.2823878526687622,-2.999859094619751,-0.2258477658033371,-0.22747161984443665,-0.20665746927261353,-0.18647632002830505,0.37821048498153687,0.36172065138816833,0.15477080643177032,-0.048353444784879684
0.5833333333333334,0.018046235665678978,0.03206730633974075,0.0,0.6978931427001953,0.0,0.0,-0.716201901435852,0.5819712281227112,-0.19450469315052032,0.0,0.0,0.0,-3.017498016357422,0.3738473057746887,0.7710162401199341,0.4224376678466797,0.5356789231300354,0.035136785358190536,-0.05486900731921196,-0.84190434217453,1.3579511642456055,-0.39505040645599365,0.03278254717588425,-0.8647441864013672,-1.8638103008270264,1.7510560750961304,0.3706093430519104,0.7707453966140747,0.424873948097229,1.2158900499343872,-0.5299878716468811,0.04422077536582947,0.4032028615474701,0.7404460906982422,0.42000001668930054,-0.23068062961101532,0.9747642278671265,-1.2444782257080078,3.0000205039978027,-0.2150592803955078,-0.21792569756507874,-0.20162555575370789,-0.18564020097255707,0.6587398052215576,0.5851677060127258,0.3055303394794464,0.0491008535027504
0.6,0.02461724914610386,0.03284264728426933,0.0,0.6972435712814331,0.0,0.0,-0.7168342471122742,0.33154091238975525,0.06706585735082626,0.0,0.0,0.0,0.7913510203361511,0.39555859565734863,0.7645794153213501,0.42165058851242065,0.5256454348564148,0.0223629679530859,-0.03645770624279976,-0.8496278524398804,1.25572669506073,-0.38142117857933044,-0.07815613597631454,1.9094105958938599,4.059296607971191,-5.3975372314453125,0.3871918320655823,0.7582387924194336,0.42439812421798706,0.8099695444107056,-0.6969201564788818,0.12418380379676819,0.4032028615474701,0.7404460906982422,0.42000001668930054,-0.24849717319011688,-2.756295680999756,-1.2652645111083984,-2.999962329864502,-0.2074471414089203,-0.21073001623153687,-0.19844433665275574,-0.18617068231105804,0.4998801350593567,0.46597984433174133,0.2156502902507782,-0.01437609363347292
0.6166666666666667,0.031902387738227844,0.03657615929841995,0.0,0.6861150860786438,0.0,0.0,-0.7274930477142334,0.450125128030777,0.2550501227378845,0.0,0.0,0.0,-2.774542808532715,0.40912848711013794,0.7606961727142334,0.4211042821407318,0.5085393190383911,-0.0019171234453096986,-0.009998047724366188,-0.8609785437583923,0.5274900197982788,-0.08777137845754623,0.04284210875630379,1.3339548110961914,4.297617435455322,2.2700042724609375,0.3983209729194641,0.7536293268203735,0.42670249938964844,0.6079577207565308,-0.054930008947849274,0.1597239226102829,0.4032028615474701,0.7404460906982422,0.42000001668930054,-0.27697691321372986,-0.8402090668678284,-1.3152273893356323,-2.9992942810058594,-0.19754202663898468,-0.20213592052459717,-0.1945684254169464,-0.18652668595314026,0.7140411734580994,0.6067941784858704,0.30424726009368896,0.0346999391913414
0.6333333333333333,0.04105271026492119,0.03535788506269455,0.0,0.6866750717163086,0.0,0.0,-0.7269644737243652,0.5357699990272522,-0.08883912116289139,0.0,0.0,0.0,0.9831072092056274,0.41479721665382385,0.7597374320030212,0.42084887623786926,0.5227987766265869,-0.014830214902758598,0.0030176646541804075,-0.8523218035697937,0.04802785441279411,-0.03763938695192337,0.004902571439743042,0.03948325663805008,0.17308355867862701,2.9116928577423096,0.4023725986480713,0.7520378232002258,0.42782044410705566,-0.1045621931552887,-0.13048431277275085,0.010390977375209332,0.4032028615474701,0.7404460906982422,0.42000001668930054,-0.3199385404586792,-2.9991614818573,-1.3142993450164795,2.620509147644043,-0.18367630243301392,-0.1898132860660553,-0.1870470941066742,-0.18332655727863312,0.6514013409614563,0.6213831305503845,0.39280349016189575,0.18421263992786407
0.65,0.05216115340590477,0.03864118456840515,0.0,0.6768552660942078,0.0,0.0,-0.7361161112785339,0.689180850982666,0.19131995737552643,0.0,0.0,0.0,-2.624699115753174,0.4151195287704468,0.7594176530838013,0.4200020432472229,0.5367667078971863,7.446252857334912e-05,-0.00013432843843474984,-0.843730628490448,-0.010268926620483398,0.031806450337171555,-0.00545523501932621,0.028511470183730125,0.2614425718784332,1.693773627281189,0.4028295874595642,0.7520828247070312,0.4302932620048523,0.053922489285469055,0.15296050906181335,0.24709279835224152,0.4032028615474701,0.7404460906982422,0.42000001668930054,-0.3699747622013092,-2.999999523162842,-1.3370164632797241,-2.9992144107818604,-0.17497552931308746,-0.18155601620674133,-0.18223652243614197,-0.18162718415260315,0.6757855415344238,0.6063574552536011,0.3772973418235779,0.17240968346595764
0.6666666666666666,0.06486143916845322,0.038203075528144836,0.0,0.678485095500946,0.0,0.0,-0.7346141934394836,0.7882343530654907,-0.0778573676943779,0.0,0.0,0.0,1.1980303525924683,0.4139569103717804,0.7597854733467102,0.42000114917755127,0.560598611831665,-1.8089829609380104e-05,8.656429599795956e-06,-0.8280876874923706,-0.15641893446445465,0.02062331512570381,-0.0016523890662938356,-0.006314306519925594,-0.06372489780187607,6.1390700340271,0.4009101688861847,0.7522444128990173,0.43446964025497437,-0.2666621506214142,-0.07620055973529816,0.27247753739356995,0.4032028615474701,0.7404460906982422,0.42000001668930054,-0.4199953079223633,-2.999983310699463,-1.3870292901992798,-2.9999427795410156,-0.1659511774778366,-0.17280083894729614,-0.17616373300552368,-0.17793810367584229,0.4031018316745758,0.4291933476924896,0.3243922293186188,0.23185789585113525
0.6833333333333333,0.07485932111740112,0.039084289222955704,0.0,0.6694233417510986,0.0,0.0,-0.7428811192512512,0.5356393456459045,0.04971545562148094,0.0,0.0,0.0,-2.4395852088928223,0.4120014011859894,0.7598206996917725,0.4200000464916229,0.5825595855712891,1.1441866263339762e-06,1.0580504294921411e-06,-0.8127878904342651,-0.09574810415506363,-0.0026992170605808496,-7.926719263195992e-06,-0.0003279894299339503,-0.00021396960073616356,2.3333218097686768,0.40084654092788696,0.7504112720489502,0.43908005952835083,0.19091308116912842,-0.11086030304431915,0.3031906485557556,0.4032028615474701,0.7404460906982422,0.42000001668930054,-0.4700033962726593,-2.999602794647217,-1.4370261430740356,-2.9999308586120605,-0.16229096055030823,-0.1680438369512558,-0.17213435471057892,-0.17441603541374207,0.2688830494880676,0.3284028172492981,0.2998034358024597,0.2881265878677368
0.7,0.08559203147888184,0.036407601088285446,0.0,0.6392285227775574,0.0,0.0,-0.7690168619155884,0.664032518863678,-0.21694159507751465,0.0,0.0,0.0,-5.644774913787842,0.41129961609840393,0.7597288489341736,0.42000001668930054,0.5887991189956665,6.865812451906095e-07,7.889963171692216e-07,-0.8082793354988098,-0.022190667688846588,-0.005216151010245085,-7.189955795183778e-06,-0.0002643282350618392,-0.0004449282423593104,0.5431067943572998,0.40664657950401306,0.7497485280036926,0.45061632990837097,0.5141905546188354,-0.01196889579296112,1.2137784957885742,0.4032028615474701,0.7404460906982422,0.42000001668930054,-0.5200150012969971,-2.9999747276306152,-1.487044334411621,-2.9999988079071045,-0.15991166234016418,-0.1644289642572403,-0.1684730499982834,-0.17044979333877563,0.01394818164408207,0.10877276211977005,0.1460944265127182,0.19623377919197083
0.7166666666666667,0.09891863167285919,0.03770291432738304,0.0,0.6222498416900635,0.0,0.0,-0.7828186750411987,0.806016206741333,0.07038207352161407,0.0,0.0,0.0,-1.531822919845581,0.41129937767982483,0.7597292065620422,0.42000001668930054,0.5887991786003113,-6.015021654093289e-07,-4.654684744309634e-06,-0.808279275894165,0.0001679680572124198,-0.000404145335778594,-8.530751802027225e-05,0.009526156820356846,-0.000368860928574577,-0.0008665563655085862,0.4156308174133301,0.7520358562469482,0.477607786655426,0.6717219948768616,0.35253649950027466,1.972325086593628,0.4032028615474701,0.7404460906982422,0.42000001668930054,-0.56983482837677,-2.9512622356414795,-1.537062644958496,-3.0,-0.16330741345882416,-0.1661500781774521,-0.16929739713668823,-0.17024964094161987,-0.06275270879268646,-0.02740275114774704,-0.023408550769090652,-0.008484791032969952
0.7333333333333333,0.1088859960436821,0.04055581986904144,0.0,0.6304751038551331,0.0,0.0,-0.7762094736099243,0.5212143659591675,0.21590380370616913,0.0,0.0,0.0,2.148421049118042,0.41129931807518005,0.759729266166687,0.41999995708465576,0.5887995362281799,-1.0476042007212527e-06,-5.737567789765308e-06,-0.8082790374755859,0.00012413410877343267,-0.0004028481780551374,-8.029816672205925e-05,0.00984448753297329,-0.002633427968248725,-0.0008584203897044063,0.4288523197174072,0.7581047415733337,0.503268837928772,0.8178955316543579,0.37709659337997437,1.1807010173797607,0.4032028615474701,0.7404460906982422,0.42000001668930054,-0.5891245603561401,0.3629416525363922,-1.587079405784607,-2.999999761581421,-0.163308247923851,-0.1656186282634735,-0.16858094930648804,-0.16921089589595795,0.05115938559174538,0.0829516351222992,0.10102708637714386,0.12333805114030838
0.75,0.11433015763759613,0.0390896201133728,0.0,0.6265478134155273,0.0,0.0,-0.7793829441070557,0.2822599709033966,-0.15025298297405243,0.0,0.0,0.0,-1.5635292530059814,0.41129931807518005,0.759729266166687,0.41999995708465576,0.5887993574142456,-1.0120641036337474e-06,-5.648537353408756e-06,-0.8082790970802307,0.00012827443424612284,-0.00040324515430256724,-8.01202841103077e-05,0.009870829991996288,-0.0026281895115971565,-0.0008688655798323452,0.43792539834976196,0.7634719610214233,0.5164427757263184,0.25812262296676636,0.1901085078716278,0.5658820867538452,0.4032028615474701,0.7404460906982422,0.42000001668930054,-0.5959991812705994,-1.0593791007995605,-1.5481048822402954,2.999999761581421,-0.16050827503204346,-0.16241934895515442,-0.16513803601264954,-0.16554388403892517,0.08003982156515121,0.13196083903312683,0.17553098499774933,0.20971442759037018
0.7666666666666666,0.11625328660011292,0.04285358265042305,0.0,0.6344448924064636,0.0,0.0,-0.7729681134223938,0.06555875390768051,0.19351480901241302,0.0,0.0,0.0,1.946953535079956,0.41129931807518005,0.759729266166687,0.41999995708465576,0.5887994766235352,-1.4129595911072101e-06,-5.802861778647639e-06,-0.8082790970802307,0.00012629185221157968,-0.00040182165685109794,-8.011749014258385e-05,0.009822498075664043,-0.0026176213286817074,-0.0008621304878033698,0.44129717350006104,0.7654477953910828,0.5246419906616211,0.2849733531475067,0.235364630818367,0.40251797437667847,0.4032028615474701,0.7404460906982422,0.42000001668930054,-0.597413182258606,0.7377148270606995,-1.5632247924804688,-3.0,-0.16476567089557648,-0.16483652591705322,-0.1658981442451477,-0.16499117016792297,-0.05194292962551117,-0.0031460896134376526,0.04241465404629707,0.07038560509681702
0.7833333333333333,0.11812587827444077,0.04281032457947731,0.0,0.6298145055770874,0.0,0.0,-0.7767455577850342,0.1375754475593567,-0.017502758651971817,0.0,0.0,0.0,-1.589821219444275,0.41129931807518005,0.759729266166687,0.41999995708465576,0.5887993574142456,-1.2894522569695255e-06,-5.963986495771678e-06,-0.8082791566848755,0.00012470906949602067,-0.0004017246828880161,-8.01056157797575e-05,0.00981702096760273,-0.0026197717525064945,-0.0008580769645050168,0.44344133138656616,0.7680363655090332,0.5242655277252197,-0.03952118009328842,0.06968735158443451,-0.252689003944397,0.4032028615474701,0.7404460906982422,0.42000001668930054,-0.6013365983963013,-1.0515140295028687,-1.524320363998413,2.999999523162842,-0.16545067727565765,-0.1647585928440094,-0.16506172716617584,-0.1637180596590042,-0.10581812262535095,-0.047122303396463394,0.012225165963172913,0.04902654141187668
0.8,0.12190697342157364,0.04046957567334175,0.0,0.6369584798812866,0.0,0.0,-0.7708981037139893,0.26707372069358826,-0.23234577476978302,0.0,0.0,0.0,1.8818422555923462,0.41129931807518005,0.759729266166687,0.41999995708465576,0.5887994766235352,-1.2970559737368603e-06,-5.947015324636595e-06,-0.8082791566848755,0.00012548686936497688,-0.00040199674549512565,-8.012470789253712e-05,0.00982640776783228,-0.0026215785183012486,-0.0008604336180724204,0.4443400502204895,0.7675495147705078,0.5208687782287598,0.14872318506240845,-0.07488634437322617,-0.11558711528778076,0.4032028615474701,0.7404460906982422,0.42000001668930054,-0.6259288787841797,-1.813364028930664,-1.539974570274353,-3.0,-0.16867241263389587,-0.1665147840976715,-0.16523754596710205,-0.16264361143112183,-0.18278458714485168,-0.09099683165550232,0.013830019161105156,0.10298928618431091
0.8166666666666667,0.12757636606693268,0.03582106530666351,0.0,0.6316142678260803,0.0,0.0,-0.7752828001976013,0.394999235868454,-0.3923766613006592,0.0,0.0,0.0,-1.6927732229232788,0.41129931807518005,0.759729266166687,0.41999995708465576,0.5887994766235352,-1.4261852356867166e-06,-5.942749339737929e-06,-0.8082790970802307,0.0001268250634893775,-0.0004020348424091935,-8.011795580387115e-05,0.00983011070638895,-0.0026175205130130053,-0.0008638686849735677,0.44903209805488586,0.7639118432998657,0.5143861174583435,0.4109233021736145,-0.33123311400413513,-0.4843621850013733,0.4032028615474701,0.7404460906982422,0.42000001668930054,-0.6622231602668762,-2.4567480087280273,-1.589992880821228,-3.0,-0.17280052602291107,-0.16882967948913574,-0.16541805863380432,-0.1608732044696808,-0.20286951959133148,-0.09202214330434799,0.04318287968635559,0.17183485627174377
0.8333333333333334,0.13676530122756958,0.03450295329093933,0.0,0.6041020154953003,0.0,0.0,-0.7969070076942444,0.5744869709014893,-0.10498933494091034,0.0,0.0,0.0,-4.877518177032471,0.41129931807518005,0.759729266166687,0.41999995708465576,0.5887993574142456,-1.4219531294656917e-06,-5.841920028615277e-06,-0.8082790970802307,0.00012661666551139206,-0.000401858938857913,-8.010421879589558e-05,0.009824692271649837,-0.002616922603920102,-0.0008631546515971422,0.4568396210670471,0.7562938332557678,0.511830747127533,0.6651269197463989,-0.40752363204956055,0.24895772337913513,0.4032028615474701,0.7404460906982422,0.42000001668930054,-0.7112870216369629,-2.9999940395355225,-1.6400083303451538,-3.0000007152557373,-0.17977295815944672,-0.1737794578075409,-0.16790272295475006,-0.16096822917461395,-0.22852276265621185,-0.17004826664924622,-0.0765504464507103,0.022512150928378105
0.85,0.14360183477401733,0.034486204385757446,0.0,0.5927003622055054,0.0,0.0,-0.8054230213165283,0.30122122168540955,0.03594920039176941,0.0,0.0,0.0,-0.6847005486488342,0.41129931807518005,0.759729266166687,0.41999995708465576,0.5887994170188904,-1.42936755764822e-06,-5.863089427293744e-06,-0.8082791566848755,0.0001261469442397356,-0.0004018461622763425,-8.011190220713615e-05,0.009822980500757694,-0.002617113757878542,-0.0008617299026809633,0.4665127694606781,0.7551825642585754,0.5207502841949463,0.4569668769836426,0.22891008853912354,0.7610983848571777,0.4032028615474701,0.7404460906982422,0.42000001668930054,-0.7261611819267273,0.8895440101623535,-1.6900228261947632,-2.999999523162842,-0.18140439689159393,-0.17544515430927277,-0.16908293962478638,-0.161589577794075,0.025295285508036613,-0.030354777351021767,-0.059365857392549515,-0.08553259819746017
0.8666666666666667,0.14556407928466797,0.03648914024233818,0.0,0.6053462624549866,0.0,0.0,-0.7959622740745544,0.0734284296631813,0.20767270028591156,0.0,0.0,0.0,2.6777260303497314,0.41129931807518005,0.759729266166687,0.41999995708465576,0.5887994170188904,-1.427328925274196e-06,-5.874936505279038e-06,-0.8082790970802307,0.00012654303282033652,-0.00040199587238021195,-8.01202841103077e-05,0.009828262962400913,-0.0026177428662776947,-0.0008631221135146916,0.47262221574783325,0.7611442804336548,0.5298910140991211,0.2223236858844757,0.423600435256958,0.38098275661468506,0.4032028615474701,0.7404460906982422,0.42000001668930054,-0.687857985496521,2.9999778270721436,-1.650756597518921,3.000000238418579,-0.17918537557125092,-0.17456096410751343,-0.16912774741649628,-0.16251707077026367,0.14847542345523834,0.06357954442501068,-0.0015302670653909445,-0.06633280217647552
0.8833333333333333,0.14455369114875793,0.03503454476594925,0.0,0.6041532158851624,0.0,0.0,-0.7968681454658508,-0.056228846311569214,-0.14616195857524872,0.0,0.0,0.0,-1.2073620557785034,0.41129931807518005,0.759729266166687,0.41999995708465576,0.5887994766235352,-1.4257484508561902e-06,-5.8866785366262775e-06,-0.8082791566848755,0.0001265435857931152,-0.0004019955522380769,-8.011911995708942e-05,0.009828105568885803,-0.0026177188847213984,-0.0008631188538856804,0.471532940864563,0.7676126956939697,0.5329152345657349,-0.35850340127944946,0.28120383620262146,0.12964925169944763,0.4032028615474701,0.7404460906982422,0.42000001668930054,-0.6646834015846252,0.020230194553732872,-1.6007001399993896,2.999999761581421,-0.17474909126758575,-0.17171916365623474,-0.1675904393196106,-0.16227705776691437,0.17438799142837524,0.10654056072235107,0.05069109424948692,-0.008595327846705914
0.9,0.14169996976852417,0.03884751349687576,0.0,0.6143254637718201,0.0,0.0,-0.7890527248382568,-0.21934202313423157,0.36540982127189636,0.0,0.0,0.0,2.428250551223755,0.41129931807518005,0.759729266166687,0.41999995708465576,0.5887994766235352,-1.4168816733217682e-06,-5.897054961678805e-06,-0.8082790970802307,0.00012665231770370156,-0.0004020464257337153,-8.01233109086752e-05,0.00982990674674511,-0.002617972670122981,-0.0008634572150185704,0.46782186627388,0.7704190611839294,0.5346583127975464,-0.09233692288398743,0.16164827346801758,0.10333052277565002,0.4032028615474701,0.7404460906982422,0.42000001668930054,-0.6500176787376404,1.5910074710845947,-1.6146290302276611,-2.999999761581421,-0.17773842811584473,-0.17446297407150269,-0.1699741929769516,-0.1644408106803894,-0.26096832752227783,-0.2240571528673172,-0.18075405061244965,-0.1448434293270111
