vladlanda/robotic-transformer/data/env_000_episode_0277.csv
sim_time_s,robot_box_x,robot_box_y,robot_box_z,robot_box_quat_w,robot_box_quat_x,robot_box_quat_y,robot_box_quat_z,robot_box_linvel_x,robot_box_linvel_y,robot_box_linvel_z,robot_box_angvel_x,robot_box_angvel_y,robot_box_angvel_z,cube_world_x,cube_world_y,cube_world_z,cube_quat_w,cube_quat_x,cube_quat_y,cube_quat_z,cube_linvel_x,cube_linvel_y,cube_linvel_z,cube_angvel_x,cube_angvel_y,cube_angvel_z,endpoint_world_x,endpoint_world_y,endpoint_world_z,endpoint_linvel_x,endpoint_linvel_y,endpoint_linvel_z,target_cube_world_x,target_cube_world_y,target_cube_world_z,gripper_actual_pos_rad_gp_leftgearjoint,gripper_actual_vel_rad_s_gp_leftgearjoint,gripper_actual_pos_rad_gp_rotatingjoint,gripper_actual_vel_rad_s_gp_rotatingjoint,motor_angle_rad_joint1,motor_angle_rad_joint2,motor_angle_rad_joint3,motor_angle_rad_joint4,motor_speed_rad_s_joint1,motor_speed_rad_s_joint2,motor_speed_rad_s_joint3,motor_speed_rad_s_joint4
0.0,0.0,0.0,0.0,1.0,0.0,0.0,0.0,0.0,0.0,0.0,0.0,0.0,0.0,-0.3487558662891388,0.6952692270278931,0.41999998688697815,1.0,0.0,0.0,0.0,0.0,0.0,0.0,0.0,0.0,0.0,3.42540442943573e-06,-0.005000244826078415,1.313499927520752,0.0,0.0,0.0,0.34731656312942505,0.6754721403121948,0.42000001668930054,-1.5707999467849731,0.0,0.0,0.0,0.0,0.0,0.0,0.0,0.0,0.0,0.0,0.0
0.016666666666666666,0.002899169223383069,0.002148674800992012,0.0,0.999855101108551,0.0,0.0,0.017021698877215385,0.24131742119789124,0.18151867389678955,0.0,0.0,0.0,3.1418850421905518,-0.34875598549842834,0.6952689290046692,0.41999998688697815,1.0,3.279964630564791e-06,-8.339746386809566e-07,8.465587342243452e-08,-1.9833529222523794e-05,0.00017983045836444944,-6.132945418357849e-05,0.0009432713268324733,-0.004689474124461412,-0.00031981561915017664,-0.007099375128746033,0.003443731227889657,1.315943717956543,-0.8124842643737793,0.9889261722564697,0.18094928562641144,0.34731656312942505,0.6754721403121948,0.42000001668930054,-1.5301097631454468,3.0000016689300537,-0.045853134244680405,-2.999999761581421,0.0008749470580369234,0.0008013539481908083,0.0007154396735131741,0.0006159173790365458,0.11083021759986877,0.09747402369976044,0.08326145261526108,0.06813883036375046
0.03333333333333333,0.008984961546957493,0.006756519433110952,0.0,0.9998445510864258,0.0,0.0,0.017632924020290375,0.4071906507015228,0.314503937959671,0.0,0.0,0.0,-0.868532121181488,-0.3487561047077179,0.6952688694000244,0.4200000464916229,1.0,3.3908270324900514e-06,-2.1324347017070977e-06,-3.710694684855298e-08,0.00026357820024713874,0.00026937710936181247,-0.00010509532876312733,-0.001770618837326765,0.00413075927644968,-0.00013547429989557713,-0.027126174420118332,0.026413260027766228,1.3166401386260986,-1.548590064048767,1.6266825199127197,-0.08021493256092072,0.34731656312942505,0.6754721403121948,0.42000001668930054,-1.4800903797149658,3.000000238418579,-0.09589296579360962,-3.0000009536743164,0.002955401549115777,0.0026058093644678593,0.002218316774815321,0.001790443784557283,0.15971627831459045,0.13404886424541473,0.10688988119363785,0.07812968641519547
0.05,0.018492264673113823,0.013852440752089024,0.0,0.9999542832374573,0.0,0.0,-0.009561141021549702,0.635733425617218,0.47159644961357117,0.0,0.0,0.0,-4.0734543800354,-0.3487561345100403,0.6952689290046692,0.4200000464916229,1.0,3.765094106711331e-06,-2.2119131699582795e-06,5.62348079213848e-09,0.000265309150563553,0.0002669146633706987,-0.0001044049859046936,-0.0017243881011381745,0.004177483730018139,-0.00012949890515301377,-0.05615720525383949,0.057761602103710175,1.3121365308761597,-1.922881841659546,2.0619125366210938,-0.4439965486526489,0.34731656312942505,0.6754721403121948,0.42000001668930054,-1.4300720691680908,2.9999990463256836,-0.1459057629108429,-3.0000007152557373,0.00589204765856266,0.005029257386922836,0.0040940479375422,0.0030825689900666475,0.20169425010681152,0.16116030514240265,0.11870697885751724,0.07423876971006393
0.06666666666666667,0.030821770429611206,0.023335415869951248,0.0,0.99983149766922,0.0,0.0,-0.01835600659251213,0.7724179625511169,0.6157580614089966,0.0,0.0,0.0,-0.032358985394239426,-0.3487561345100403,0.6952688694000244,0.4200000464916229,0.9999999403953552,3.406720225029858e-06,-2.2855888346384745e-06,4.300961506942258e-07,0.00026702549075707793,0.0002679164754226804,-0.0001043803058564663,-0.0017406074330210686,0.0042117200791835785,-0.00012850081839133054,-0.09123675525188446,0.09131968021392822,1.3023059368133545,-2.1450448036193848,2.1194140911102295,-0.7237462997436523,0.34731656312942505,0.6754721403121948,0.42000001668930054,-1.3800445795059204,2.999995470046997,-0.11281084269285202,3.0000011920928955,0.008318193256855011,0.006667028646916151,0.00490369088947773,0.0030217813327908516,0.12019732594490051,0.06227003037929535,0.0021599121391773224,-0.06016417592763901
0.08333333333333333,0.03699813410639763,0.030487079173326492,0.0,0.9991067051887512,0.0,0.0,-0.042258381843566895,0.23097160458564758,0.33538636565208435,0.0,0.0,0.0,-3.7966103553771973,-0.3487561345100403,0.6952688694000244,0.4200000464916229,1.0,3.697269676194992e-06,-2.1889511572226183e-06,-2.6322581447857374e-07,0.0002638967416714877,0.0002658639568835497,-0.00010433699935674667,-0.0017080875113606453,0.0041501629166305065,-0.00012991549738217145,-0.12189552187919617,0.13051743805408478,1.2886801958084106,-1.5783896446228027,2.597973108291626,-0.8496917486190796,0.34731656312942505,0.6754721403121948,0.42000001668930054,-1.3300416469573975,3.0000007152557373,-0.14484097063541412,-3.0000014305114746,0.004308504052460194,0.0018252129666507244,-0.0008239738526754081,-0.0036485912278294563,-0.3730206787586212,-0.43476805090904236,-0.49935388565063477,-0.5669783353805542
0.1,0.046500131487846375,0.04054675251245499,0.0,0.9953061938285828,0.0,0.0,-0.09677616506814957,0.5686414241790771,0.599944531917572,0.0,0.0,0.0,-7.1903276443481445,-0.3487561345100403,0.6952688694000244,0.4200000464916229,0.9999999403953552,3.6203141462465283e-06,-2.265253215227858e-06,1.746318503137445e-07,0.00026676879497244954,0.0002674081188160926,-0.00010407879017293453,-0.0017386438557878137,0.004209273494780064,-0.0001277548144571483,-0.1491195112466812,0.1796889305114746,1.268977403640747,-1.771996021270752,3.179922580718994,-1.3854506015777588,0.34731656312942505,0.6754721403121948,0.42000001668930054,-1.280022382736206,2.998563289642334,-0.1113366186618805,3.000000476837158,0.0014576046960428357,-0.0023639327846467495,-0.006362928077578545,-0.01055099070072174,-0.2907848358154297,-0.3503583073616028,-0.4111584424972534,-0.47326961159706116
0.11666666666666667,0.05459202453494072,0.05218057706952095,0.0,0.9920164346694946,0.0,0.0,-0.12610848248004913,0.4289739429950714,0.7285820245742798,0.0,0.0,0.0,-2.310908079147339,-0.3487561345100403,0.6952688694000244,0.4200000464916229,1.0,3.798288844336639e-06,-2.2628514670941513e-06,-1.5018666488231247e-07,0.0002637412981130183,0.0002656615397427231,-0.00010428996756672859,-0.001705456874333322,0.004147560801357031,-0.00012980263272766024,-0.1847853660583496,0.22833582758903503,1.246322512626648,-2.1680777072906494,2.994161605834961,-1.4163453578948975,0.34731656312942505,0.6754721403121948,0.42000001668930054,-1.2300328016281128,3.0000011920928955,-0.14332914352416992,-2.999999761581421,-0.0012369767064228654,-0.006563765928149223,-0.012038410641252995,-0.017670707777142525,-0.16729305684566498,-0.26244688034057617,-0.35486680269241333,-0.4444153308868408
0.13333333333333333,0.05972319841384888,0.06177671253681183,0.0,0.9862260818481445,0.0,0.0,-0.16540288925170898,0.2577776312828064,0.518543541431427,0.0,0.0,0.0,-5.610676288604736,-0.3487561345100403,0.6952689290046692,0.4200000464916229,0.9999999403953552,3.5503762774169445e-06,-2.229836809419794e-06,2.929272397977911e-07,0.0002670331741683185,0.0002677924057934433,-0.00010416889563202858,-0.0017440018709748983,0.0042136176489293575,-0.0001280039141420275,-0.2175668179988861,0.28319787979125977,1.2200746536254883,-1.7015390396118164,3.6375670433044434,-1.7272285223007202,0.34731656312942505,0.6754721403121948,0.42000001668930054,-1.1800158023834229,2.9999940395355225,-0.10982029885053635,3.000000476837158,-0.004581233486533165,-0.011649390682578087,-0.018802011385560036,-0.026046669110655785,-0.25830790400505066,-0.36121273040771484,-0.46008217334747314,-0.5548040866851807
0.15,0.06896628439426422,0.06934060901403427,0.0,0.9723682403564453,0.0,0.0,-0.23345248401165009,0.5334253311157227,0.4665272831916809,0.0,0.0,0.0,-8.90194034576416,-0.3487561345100403,0.6952688694000244,0.4200000464916229,0.9999999403953552,3.3379599244653946e-06,-2.2429301225201925e-06,-2.8005468166725223e-08,0.000266745628323406,0.000267582421656698,-0.00010427855886518955,-0.0017367260297760367,0.0042068492621183395,-0.00012831705680582672,-0.2465071678161621,0.34594929218292236,1.1859495639801025,-1.6600669622421265,4.0276408195495605,-2.412108898162842,0.34731656312942505,0.6754721403121948,0.42000001668930054,-1.144600749015808,1.3587801456451416,-0.1418720930814743,-3.0000011920928955,-0.007817234843969345,-0.016477525234222412,-0.025151757523417473,-0.033847346901893616,-0.4509010910987854,-0.5004677772521973,-0.5479418635368347,-0.5933700203895569
0.16666666666666666,0.07375228404998779,0.07943596690893173,0.0,0.9605414271354675,0.0,0.0,-0.2781370282173157,0.23613396286964417,0.6672581434249878,0.0,0.0,0.0,-4.286686897277832,-0.3487561345100403,0.6952689290046692,0.4200000464916229,0.9999999403953552,3.64772404282121e-06,-2.3072996100381715e-06,3.530257686179539e-08,0.0002672680711839348,0.0002680149918887764,-0.00010418728925287724,-0.0017472798936069012,0.0042175110429525375,-0.00012798423995263875,-0.28048717975616455,0.4104849696159363,1.1367015838623047,-1.8632824420928955,4.151798248291016,-3.4020557403564453,0.34731656312942505,0.6754721403121948,0.42000001668930054,-1.098938226699829,3.000002384185791,-0.19190135598182678,-3.0000009536743164,-0.01879633590579033,-0.027660289779305458,-0.036508798599243164,-0.04535560682415962,-0.6730305552482605,-0.6752228736877441,-0.6751418113708496,-0.673176646232605
0.18333333333333332,0.0766805112361908,0.08690904080867767,0.0,0.9439124464988708,0.0,0.0,-0.33019590377807617,0.13194049894809723,0.37334755063056946,0.0,0.0,0.0,-7.691845893859863,-0.3487561345100403,0.6952688694000244,0.4200000464916229,0.9999999403953552,3.2904365525610046e-06,-2.1938924419373507e-06,-2.792152997699304e-07,0.0002667802036739886,0.00026775983860716224,-0.0001043418888002634,-0.00173911452293396,0.004207135643810034,-0.00012845439778175205,-0.3088389039039612,0.48107820749282837,1.0732154846191406,-1.287392258644104,4.457474708557129,-4.204667091369629,0.34731656312942505,0.6754721403121948,0.42000001668930054,-1.0489317178726196,3.000004291534424,-0.24192796647548676,-2.999999761581421,-0.02970324270427227,-0.0385654978454113,-0.04736817628145218,-0.05613313615322113,-0.6903946995735168,-0.6799219250679016,-0.6672654747962952,-0.6529520153999329
0.2,0.08202426880598068,0.09588655829429626,0.0,0.9302787780761719,0.0,0.0,-0.36685341596603394,0.2903636693954468,0.5561671257019043,0.0,0.0,0.0,-3.5567586421966553,-0.3487561345100403,0.6952688694000244,0.4200000464916229,1.0,3.280598548371927e-06,-2.2192064079717966e-06,1.5949920850744093e-07,0.0002662791812326759,0.00026740069733932614,-0.00010425224900245667,-0.0017357737524434924,0.004197887144982815,-0.00012865399185102433,-0.3319203853607178,0.5486879348754883,0.9949592351913452,-1.069638729095459,3.9695680141448975,-5.134975433349609,0.34731656312942505,0.6754721403121948,0.42000001668930054,-0.9989286065101624,3.000002861022949,-0.2919549345970154,-3.0,-0.04344765096902847,-0.05178331956267357,-0.059718161821365356,-0.06760158389806747,-0.9132834076881409,-0.9194231033325195,-0.8464981317520142,-0.7674697041511536
0.21666666666666667,0.08404558151960373,0.10188063234090805,0.0,0.928466260433197,0.0,0.0,-0.37141674757003784,0.0663016065955162,0.2759697139263153,0.0,0.0,0.0,0.420479953289032,-0.3487561345100403,0.6952689290046692,0.4200000464916229,1.0,3.61302545570652e-06,-2.2700817225995706e-06,2.2103627372871415e-07,0.00026712528779171407,0.00026781600899994373,-0.00010414235293865204,-0.0017444760305806994,0.004215107765048742,-0.0001278623822145164,-0.3536984324455261,0.6032752990722656,0.904385507106781,-1.0976612567901611,2.911381244659424,-5.725290775299072,0.34731656312942505,0.6754721403121948,0.42000001668930054,-0.9489181637763977,3.000002145767212,-0.34198516607284546,-2.9999985694885254,-0.0593014694750309,-0.06763020157814026,-0.0755062848329544,-0.08187845349311829,-0.9844517111778259,-0.9799642562866211,-0.9733675122261047,-0.8912590742111206
0.23333333333333334,0.08197753131389618,0.109053835272789,0.0,0.9218083620071411,0.0,0.0,-0.3876459002494812,-0.198857381939888,0.4733383357524872,0.0,0.0,0.0,-2.890376567840576,-0.3487561345100403,0.6952688694000244,0.4200000464916229,1.0,3.381792112122639e-06,-2.290903239554609e-06,2.728141339503054e-07,0.00026691509992815554,0.00026779971085488796,-0.00010433257557451725,-0.0017395635368302464,0.004209756851196289,-0.00012843712465837598,-0.36759698390960693,0.6480904221534729,0.8029983639717102,-0.6118708848953247,2.320392370223999,-6.292119026184082,0.34731656312942505,0.6754721403121948,0.42000001668930054,-0.898907482624054,3.0000016689300537,-0.39201682806015015,-3.000000238418579,-0.07539793848991394,-0.08376622945070267,-0.09168265014886856,-0.09809968620538712,-0.9900221228599548,-0.9920445084571838,-0.9917382001876831,-0.9878411889076233
0.25,0.08370119333267212,0.11153773963451385,0.0,0.921230673789978,0.0,0.0,-0.3890167474746704,0.09964405000209808,0.1069030612707138,0.0,0.0,0.0,0.44594821333885193,-0.3487561047077179,0.6952688694000244,0.4200000464916229,0.9999999403953552,3.7064642128825653e-06,-2.2229587557376362e-06,-2.2549758682544052e-07,0.00026424782117828727,0.0002665676875039935,-0.00010457751341164112,-0.0017170109786093235,0.004155538976192474,-0.00013062516518402845,-0.3797575831413269,0.6783541440963745,0.6977086663246155,-0.5597285032272339,1.2366925477981567,-6.408390045166016,0.34731656312942505,0.6754721403121948,0.42000001668930054,-0.8488968014717102,3.0000016689300537,-0.4420486390590668,-2.9999992847442627,-0.0898985043168068,-0.09825555235147476,-0.10607035458087921,-0.11240672320127487,-0.9920850992202759,-0.9932906031608582,-0.9942464232444763,-0.9950377345085144
0.26666666666666666,0.08136220276355743,0.11203134804964066,0.0,0.9142860770225525,0.0,0.0,-0.40506911277770996,-0.22234958410263062,-0.009340600110590458,0.0,0.0,0.0,-2.9746978282928467,-0.3487561345100403,0.6952688694000244,0.4200000464916229,0.9999999403953552,3.719547294167569e-06,-2.4034043235587887e-06,-1.830695453008957e-07,0.00026623212033882737,0.00026729144155979156,-0.00010425853542983532,-0.001732683158479631,0.004196474328637123,-0.00012850860366597772,-0.3815772235393524,0.6916236877441406,0.5912772417068481,0.28980860114097595,0.2953929901123047,-6.149564266204834,0.34731656312942505,0.6754721403121948,0.42000001668930054,-0.7988875508308411,2.9999992847442627,-0.4920797646045685,-2.999999761581421,-0.10781612992286682,-0.11585845053195953,-0.12343518435955048,-0.12958452105522156,-1.0109734535217285,-1.0082560777664185,-1.0061842203140259,-1.0045381784439087
0.2833333333333333,0.07535324990749359,0.11063316464424133,0.0,0.9144416451454163,0.0,0.0,-0.40471771359443665,-0.3172791004180908,-0.16736285388469696,0.0,0.0,0.0,0.9107879400253296,-0.3487561345100403,0.6952689290046692,0.4200000464916229,0.9999999403953552,3.5839962038153317e-06,-2.315397978236433e-06,7.40485646133493e-08,0.0002652202674653381,0.00026455186889506876,-0.00010316958650946617,-0.0017021746607497334,0.004185179714113474,-0.00012499709555413574,-0.37568339705467224,0.6937147378921509,0.49895286560058594,0.4873051643371582,0.023151801899075508,-5.086890697479248,0.34731656312942505,0.6754721403121948,0.42000001668930054,-0.7488787770271301,2.9999966621398926,-0.5421087741851807,-3.0000014305114746,-0.1251276284456253,-0.13302968442440033,-0.14052094519138336,-0.14661607146263123,-0.8383682370185852,-0.8790858387947083,-0.9177500009536743,-0.9536619782447815
0.3,0.06837167590856552,0.10631001740694046,0.0,0.9085277915000916,0.0,0.0,-0.4178243577480316,-0.4660671055316925,-0.29959359765052795,0.0,0.0,0.0,-2.5955569744110107,-0.3487561345100403,0.6952688694000244,0.4200000464916229,1.0,3.7241829886625055e-06,-2.271835228384589e-06,9.636011810698619e-08,0.0002631264796946198,0.00026525804423727095,-0.00010438100434839725,-0.0016961018554866314,0.004134903661906719,-0.00013027766544837505,-0.36236572265625,0.6961931586265564,0.4138944745063782,1.1124789714813232,0.1196456179022789,-4.860647201538086,0.34731656312942505,0.6754721403121948,0.42000001668930054,-0.6988712549209595,3.000000476837158,-0.5921359062194824,-3.0000011920928955,-0.14235763251781464,-0.15014603734016418,-0.15755073726177216,-0.16357629001140594,-1.0145456790924072,-1.0110458135604858,-1.0083621740341187,-1.0062026977539062
0.31666666666666665,0.059375934302806854,0.09974943101406097,0.0,0.9097500443458557,0.0,0.0,-0.41515642404556274,-0.5776653289794922,-0.43327805399894714,0.0,0.0,0.0,1.2780557870864868,-0.3486449122428894,0.6951220631599426,0.4200003445148468,0.9999961256980896,-4.672299382946221e-06,3.249985411457601e-06,-0.0027526812627911568,-0.0014493115013465285,0.016347458586096764,-8.857366628944874e-05,0.004579423926770687,0.00032170885242521763,0.14934000372886658,-0.36202287673950195,0.6985190510749817,0.4278565049171448,-0.04953461512923241,0.02816939726471901,-0.1917528510093689,0.34731656312942505,0.6754721403121948,0.42000001668930054,-0.6489245295524597,2.999990463256836,-0.6426801681518555,-3.000002145767212,-0.14468541741371155,-0.15286709368228912,-0.16030353307724,-0.1659543365240097,-0.30447810888290405,-0.2775980234146118,-0.23684397339820862,-0.18313415348529816
0.3333333333333333,0.048199817538261414,0.09093265235424042,0.0,0.9044858813285828,0.0,0.0,-0.42650356888771057,-0.7135802507400513,-0.5688297152519226,0.0,0.0,0.0,-2.4395575523376465,-0.3486427962779999,0.6949234008789062,0.42000144720077515,0.9999876022338867,-7.087270660122158e-06,3.0946025617595296e-06,-0.004976076539605856,0.00330639211460948,-0.04551202058792114,-0.002200165530666709,0.05681629106402397,-0.006112659350037575,-1.2747230529785156,-0.3601394593715668,0.6975486278533936,0.4247902035713196,0.2388269007205963,-0.04667209833860397,-0.1755310297012329,0.34731656312942505,0.6754721403121948,0.42000001668930054,-0.5989188551902771,3.0000009536743164,-0.6927313208580017,-3.0000054836273193,-0.15118572115898132,-0.15835028886795044,-0.1645524501800537,-0.16881480813026428,-0.4403378367424011,-0.3512113392353058,-0.25130847096443176,-0.14667624235153198
0.35,0.034814558923244476,0.07978923618793488,0.0,0.9061436653137207,0.0,0.0,-0.4229700267314911,-0.8421611785888672,-0.7081469297409058,0.0,0.0,0.0,1.4066038131713867,-0.3459940254688263,0.6958999037742615,0.42000651359558105,0.9987803101539612,-4.7195884690154344e-05,0.00045146499178372324,-0.049371276050806046,0.34924793243408203,0.16613377630710602,-0.02287559024989605,0.15894344449043274,-1.1673835515975952,-12.462442398071289,-0.3557320535182953,0.6995874643325806,0.4220748841762543,0.3177095055580139,0.2507571280002594,-0.1257382035255432,0.34731656312942505,0.6754721403121948,0.42000001668930054,-0.5489139556884766,3.0000040531158447,-0.7427651286125183,-2.9998891353607178,-0.15963143110275269,-0.16486729681491852,-0.16892363131046295,-0.17096121609210968,-0.4967552721500397,-0.36751580238342285,-0.22511079907417297,-0.07908562570810318
0.36666666666666664,0.024745147675275803,0.06585463881492615,0.0,0.9013335704803467,0.0,0.0,-0.4331255555152893,-0.520833432674408,-0.8855283856391907,0.0,0.0,0.0,-2.2687196731567383,-0.34061750769615173,0.6985729932785034,0.41999951004981995,0.9911201596260071,4.265282768756151e-05,-2.7251511710346676e-05,-0.13296888768672943,0.4024962782859802,0.23664140701293945,-0.0005020421231165528,0.010089724324643612,0.008782714605331421,-10.771846771240234,-0.3482247591018677,0.7025008797645569,0.420814573764801,0.5522961616516113,0.2089327573776245,0.09004293382167816,0.34731656312942505,0.6754721403121948,0.42000001668930054,-0.4989089071750641,2.9994330406188965,-0.7928181886672974,-2.950080394744873,-0.16793327033519745,-0.1706046611070633,-0.17182202637195587,-0.17093151807785034,-0.4674333930015564,-0.2989000380039215,-0.1126677617430687,0.07926344871520996
0.3833333333333333,0.01286939438432455,0.05026573687791824,0.0,0.8826393485069275,0.0,0.0,-0.4700508713722229,-0.784207284450531,-0.9616355299949646,0.0,0.0,0.0,-5.913696765899658,-0.32845062017440796,0.7071406841278076,0.4203365445137024,0.9703719615936279,-0.00830250047147274,0.0012704787077382207,-0.2414695918560028,1.221318244934082,0.9081567525863647,0.0659198984503746,-3.0215983390808105,1.2529081106185913,-7.264260768890381,-0.33392399549484253,0.7112675309181213,0.42262399196624756,1.1384708881378174,0.8366222977638245,0.12545815110206604,0.34731656312942505,0.6754721403121948,0.42000001668930054,-0.4488711953163147,3.000037431716919,-0.8428279757499695,-2.9999890327453613,-0.17705540359020233,-0.17668092250823975,-0.1745334267616272,-0.17017191648483276,-0.4973941743373871,-0.32367539405822754,-0.1300765872001648,0.07069870084524155
0.4,0.003755086101591587,0.031864844262599945,0.0,0.8484036922454834,0.0,0.0,-0.5293497443199158,-0.48592373728752136,-1.144278645515442,0.0,0.0,0.0,-8.946770668029785,-0.2913016676902771,0.729864239692688,0.4233297109603882,0.9562721252441406,-0.009612009860575199,-0.011537397280335426,-0.29209259152412415,3.2580018043518066,1.771750807762146,0.1696387082338333,-17.583776473999023,4.487007141113281,-11.606680870056152,-0.2971777319908142,0.7326087951660156,0.42544734477996826,3.1775498390197754,1.7206459045410156,0.4494360089302063,0.34731656312942505,0.6754721403121948,0.42000001668930054,-0.4020654261112213,1.9364185333251953,-0.8928506374359131,-2.9960365295410156,-0.18614795804023743,-0.18236850202083588,-0.1765393316745758,-0.168447807431221,-0.5868135690689087,-0.3610657751560211,-0.12244657427072525,0.11485610157251358
0.4166666666666667,-0.0026182010769844055,0.019153743982315063,0.0,0.7959893941879272,0.0,0.0,-0.6053105592727661,-0.3297242522239685,-0.6321984529495239,0.0,0.0,0.0,-11.915961265563965,-0.21154843270778656,0.7609586715698242,0.4299899637699127,0.9379110336303711,0.04353930428624153,-0.054346922785043716,-0.33981385827064514,6.167164325714111,1.900882601737976,0.6249157786369324,15.56813907623291,-10.091915130615234,-16.37226104736328,-0.2173820436000824,0.7644133567810059,0.43219679594039917,6.040062427520752,2.194690227508545,0.4887198209762573,0.34731656312942505,0.6754721403121948,0.42000001668930054,-0.3799496293067932,1.0146390199661255,-0.8558049201965332,2.999722719192505,-0.2016165405511856,-0.1946769654750824,-0.18367721140384674,-0.17080049216747284,-0.8644310832023621,-0.8100072145462036,-0.5183621644973755,-0.259176105260849
0.43333333333333335,-0.005914767738431692,0.009800504893064499,0.0,0.7534213662147522,0.0,0.0,-0.6575379967689514,-0.14224883913993835,-0.5140026211738586,0.0,0.0,0.0,-6.938050270080566,-0.1148197203874588,0.789567232131958,0.44137701392173767,0.9004844427108765,0.08085732161998749,-0.07624886184930801,-0.42044731974601746,6.235618591308594,1.2247363328933716,1.100057601928711,22.273488998413086,-13.144569396972656,-33.807552337646484,-0.12034887075424194,0.7956259250640869,0.4432872533798218,5.6718878746032715,1.3445923328399658,0.7038098573684692,0.34731656312942505,0.6754721403121948,0.42000001668930054,-0.36634373664855957,0.7656105160713196,-0.8822306394577026,-3.0000009536743164,-0.21347428858280182,-0.20681296288967133,-0.19178134202957153,-0.17542986571788788,-0.6473596692085266,-0.6477958559989929,-0.44828087091445923,-0.2841392457485199
0.45,-0.01041234191507101,0.004755950532853603,0.0,0.733589768409729,0.0,0.0,-0.6795925498008728,-0.2673701047897339,-0.27434635162353516,0.0,0.0,0.0,-2.2754645347595215,-0.019578009843826294,0.8043489456176758,0.45221415162086487,0.8472670912742615,0.09049725532531738,-0.0713016614317894,-0.5185216665267944,6.122279644012451,0.012791521847248077,0.9559005498886108,23.54933738708496,-10.56383228302002,-35.469417572021484,-0.024336857721209526,0.8102865815162659,0.45450860261917114,5.588375091552734,0.3005378544330597,0.5663609504699707,0.34731656312942505,0.6754721403121948,0.42000001668930054,-0.35285723209381104,0.8585964441299438,-0.9322546720504761,-3.0000016689300537,-0.22639785706996918,-0.2184814214706421,-0.19970719516277313,-0.18019883334636688,-0.6788299679756165,-0.5890823006629944,-0.39164116978645325,-0.2241104692220688
0.4666666666666667,-0.01093930285423994,-0.006659849546849728,0.0,0.7045828700065613,0.0,0.0,-0.7096217274665833,0.050821639597415924,-0.8332142233848572,0.0,0.0,0.0,-6.052312850952148,0.07290881872177124,0.8007649183273315,0.45814210176467896,0.8197289705276489,0.07972193509340286,-0.06363692879676819,-0.5635948181152344,5.898162364959717,-1.1473491191864014,0.6743792295455933,11.244474411010742,-19.07950782775879,-36.877750396728516,0.06962552666664124,0.8090820908546448,0.4612020254135132,5.380143165588379,-0.6094470024108887,0.2096651941537857,0.34731656312942505,0.6754721403121948,0.42000001668930054,-0.33892810344696045,0.7746847867965698,-0.9822787046432495,-3.000002384185791,-0.23151026666164398,-0.22237326204776764,-0.20112688839435577,-0.17945465445518494,-0.1590534895658493,-0.06860648840665817,0.06404663622379303,0.18273891508579254
0.48333333333333334,-0.015062889084219933,-0.01471494697034359,0.0,0.6864349246025085,0.0,0.0,-0.7271912097930908,-0.3475799262523651,-0.3473491966724396,0.0,0.0,0.0,-2.0439343452453613,0.1572185605764389,0.7861122488975525,0.4624502658843994,0.7639116048812866,0.05227545648813248,-0.053770165890455246,-0.6409485936164856,5.114373683929443,-1.7865290641784668,0.68052077293396,8.956698417663574,-19.01108169555664,-38.74909210205078,0.15463608503341675,0.7943693995475769,0.46674564480781555,4.591142654418945,-1.1599832773208618,0.2874225080013275,0.34731656312942505,0.6754721403121948,0.42000001668930054,-0.3263894021511078,0.6623217463493347,-1.0323015451431274,-3.00000262260437,-0.2376784235239029,-0.22617065906524658,-0.20259332656860352,-0.17900922894477844,-0.36849114298820496,-0.2273573875427246,-0.1224592998623848,-0.04672013968229294
0.5,-0.01573612540960312,-0.016235003247857094,0.0,0.690339207649231,0.0,0.0,-0.7234858274459839,0.02304799109697342,-0.015288223512470722,0.0,0.0,0.0,1.453048586845398,0.22501379251480103,0.7650327682495117,0.4621177911758423,0.7225417494773865,0.030441870912909508,-0.04510858654975891,-0.6891819834709167,3.7157459259033203,-2.0708329677581787,0.25422030687332153,9.811674118041992,-13.746468544006348,-35.60250473022461,0.2241000384092331,0.7734173536300659,0.46782904863357544,3.388838291168213,-1.3965280055999756,-0.19790388643741608,0.34731656312942505,0.6754721403121948,0.42000001668930054,-0.3169558346271515,0.4952874183654785,-1.082323670387268,-3.0000014305114746,-0.2399173229932785,-0.2287585437297821,-0.20487117767333984,-0.18119610846042633,-0.016558106988668442,-0.0690227821469307,-0.10202483087778091,-0.14500178396701813
0.5166666666666666,-0.012727627530694008,-0.02239209972321987,0.0,0.6825168132781982,0.0,0.0,-0.7308698892593384,0.16423960030078888,-0.3487221300601959,0.0,0.0,0.0,-2.0457279682159424,0.2776637375354767,0.7438607811927795,0.4536188542842865,0.6828120946884155,-0.005040269810706377,-0.03671535477042198,-0.7296533584594727,2.8690555095672607,-1.9433283805847168,-0.42329925298690796,1.7390694618225098,-4.156517505645752,-23.393062591552734,0.27781474590301514,0.7516560554504395,0.46036505699157715,2.728085994720459,-1.4122557640075684,-0.6840686798095703,0.34731656312942505,0.6754721403121948,0.42000001668930054,-0.3074962794780731,0.6789595484733582,-1.1323457956314087,-3.0000016689300537,-0.233529195189476,-0.2242659628391266,-0.20236057043075562,-0.18065299093723297,0.2720942199230194,0.20611554384231567,0.1032944768667221,-0.003306011902168393
0.5333333333333333,-0.008152532391250134,-0.023372115567326546,0.0,0.686933159828186,0.0,0.0,-0.7267206311225891,0.3478584885597229,-0.0649409219622612,0.0,0.0,0.0,1.3911267518997192,0.317621111869812,0.7178629636764526,0.4384162724018097,0.6599085330963135,-0.051237646490335464,-0.021431362256407738,-0.7492903470993042,2.3742716312408447,-2.149454116821289,-0.7823689579963684,1.636422872543335,-8.242258071899414,-29.962047576904297,0.3190247416496277,0.7250687479972839,0.4460350275039673,2.0767621994018555,-1.5910611152648926,-1.1178110837936401,0.34731656312942505,0.6754721403121948,0.42000001668930054,-0.2944418787956238,0.8102766871452332,-1.1823679208755493,-3.0000016689300537,-0.23103757202625275,-0.22234252095222473,-0.2020241916179657,-0.18200717866420746,0.29556846618652344,0.2293837070465088,0.08870388567447662,-0.05231977999210358
0.55,-0.000851595716085285,-0.024433225393295288,0.0,0.6788824796676636,0.0,0.0,-0.7342469692230225,0.47828957438468933,-0.0276641808450222,0.0,0.0,0.0,-2.2511355876922607,0.3475361168384552,0.6984459161758423,0.4208163022994995,0.6648339629173279,-0.012812293134629726,0.026891371235251427,-0.7463969588279724,1.4464246034622192,-0.6301827430725098,-0.6047654151916504,15.087776184082031,-43.92466354370117,-3.4302310943603516,0.35008227825164795,0.7025274038314819,0.4238916039466858,0.9607937335968018,-0.7700667381286621,-0.45976701378822327,0.34731656312942505,0.6754721403121948,0.42000001668930054,-0.28283774852752686,0.708645224571228,-1.187903881072998,1.9173749685287476,-0.22256116569042206,-0.2160198986530304,-0.19919158518314362,-0.18250475823879242,0.6526309847831726,0.48915088176727295,0.24375689029693604,0.017432454973459244
0.5666666666666667,0.0040330966003239155,-0.026839131489396095,0.0,0.6819823384284973,0.0,0.0,-0.7313686013221741,0.21586056053638458,-0.23265007138252258,0.0,0.0,0.0,1.2041230201721191,0.36240726709365845,0.6914525032043457,0.42011281847953796,0.5813817381858826,0.001870455569587648,-0.0019130929140374064,-0.8136265277862549,0.7786263823509216,-0.3192262053489685,-0.0022943606600165367,-0.1624407023191452,-0.0734965056180954,-16.093721389770508,0.3578301668167114,0.692047119140625,0.4257349371910095,0.2118789553642273,-0.6558094620704651,0.1461229920387268,0.34731656312942505,0.6754721403121948,0.42000001668930054,-0.29565271735191345,-2.0201308727264404,-1.2181055545806885,-3.000042200088501,-0.21353301405906677,-0.20889434218406677,-0.1954789012670517,-0.1819482445716858,0.4602557420730591,0.377985417842865,0.19696800410747528,0.02688620425760746
0.5833333333333334,0.009450994431972504,-0.026872076094150543,0.0,0.6737807393074036,0.0,0.0,-0.7389312982559204,0.3657722771167755,0.041770271956920624,0.0,0.0,0.0,-2.1881253719329834,0.36846354603767395,0.6879498958587646,0.4210100769996643,0.5400559902191162,-0.01138167642056942,0.011607491411268711,-0.8414720296859741,0.1819121539592743,-0.10876251012086868,0.09774594008922577,0.4050574004650116,3.175278902053833,3.4940502643585205,0.3610692620277405,0.6872029900550842,0.4278631806373596,0.25457024574279785,-0.07712016999721527,0.12172681838274002,0.34731656312942505,0.6754721403121948,0.42000001668930054,-0.31264856457710266,-0.1922483593225479,-1.268060564994812,-2.997976064682007,-0.205947145819664,-0.20309901237487793,-0.19303132593631744,-0.18255680799484253,0.5329158902168274,0.40340203046798706,0.18391162157058716,-0.01447234395891428
0.6,0.01709573343396187,-0.03028239868581295,0.0,0.677621066570282,0.0,0.0,-0.7354112267494202,0.4877151846885681,-0.22058343887329102,0.0,0.0,0.0,1.4755523204803467,0.37002038955688477,0.6862644553184509,0.42130354046821594,0.5624127984046936,-0.01878834329545498,0.02783205173909664,-0.8261744379997253,-0.07948438078165054,-0.0857132226228714,0.04956807568669319,0.9298621416091919,2.6257026195526123,1.2309269905090332,0.35990965366363525,0.6842427253723145,0.4268907904624939,-0.30527907609939575,-0.23908253014087677,-0.06401638686656952,0.34731656312942505,0.6754721403121948,0.42000001668930054,-0.35135072469711304,-2.9999327659606934,-1.2308441400527954,2.9998059272766113,-0.19629840552806854,-0.1953062266111374,-0.18862193822860718,-0.1812606304883957,0.4409414231777191,0.37242329120635986,0.2107456624507904,0.058876581490039825
0.6166666666666667,0.0225770715624094,-0.030258584767580032,0.0,0.6706449389457703,0.0,0.0,-0.7417784929275513,0.25278085470199585,0.02511696331202984,0.0,0.0,0.0,-2.054842948913574,0.3678444027900696,0.6851217150688171,0.420936644077301,0.5755560994148254,-0.013801781460642815,0.019498970359563828,-0.8174132704734802,-0.10326817631721497,-0.06346704810857773,-0.04452820122241974,-0.8333936929702759,-2.2439773082733154,1.4057672023773193,0.3576575815677643,0.6829349994659424,0.42859500646591187,0.0335514210164547,-0.006736035458743572,0.16879048943519592,0.34731656312942505,0.6754721403121948,0.42000001668930054,-0.401425838470459,-3.000272512435913,-1.2512097358703613,-2.9979617595672607,-0.19024495780467987,-0.1903688609600067,-0.18619975447654724,-0.1811414510011673,0.4380663335323334,0.35401514172554016,0.19391292333602905,0.04882818087935448
0.6333333333333333,0.02798115462064743,-0.027662720531225204,0.0,0.6754204034805298,0.0,0.0,-0.7374328970909119,0.35871636867523193,0.22451525926589966,0.0,0.0,0.0,1.6472840309143066,0.36651191115379333,0.6846995949745178,0.4200012683868408,0.5809657573699951,-2.9440700018312782e-05,2.553611011535395e-05,-0.813927948474884,-0.028304671868681908,-0.012695571407675743,-0.0017670365050435066,-0.024745363742113113,-0.0802176296710968,0.8496235013008118,0.35574233531951904,0.68281090259552,0.43154603242874146,-0.23464302718639374,0.003649136982858181,0.19393131136894226,0.34731656312942505,0.6754721403121948,0.42000001668930054,-0.45143696665763855,-3.0,-1.3012142181396484,-2.999941110610962,-0.18381980061531067,-0.18522827327251434,-0.18346184492111206,-0.18053996562957764,0.35022518038749695,0.2835507392883301,0.15552812814712524,0.04181266203522682
0.65,0.035428110510110855,-0.029350964352488518,0.0,0.668770432472229,0.0,0.0,-0.7434689402580261,0.42769622802734375,-0.1486397385597229,0.0,0.0,0.0,-1.9944452047348022,0.3665042519569397,0.6846970319747925,0.4200000464916229,0.581058919429779,-1.6802340496724355e-06,-3.2779523735371185e-06,-0.8138614892959595,-0.01449563354253769,0.010427563451230526,9.532726835459471e-05,-0.26861628890037537,-0.2374408096075058,0.3738076090812683,0.3549620807170868,0.6847231388092041,0.43578681349754333,-0.055392466485500336,0.089809849858284,0.30328604578971863,0.34731656312942505,0.6754721403121948,0.42000001668930054,-0.5014752149581909,-3.0000128746032715,-1.35118567943573,-2.9994194507598877,-0.1736789494752884,-0.17661912739276886,-0.1771562546491623,-0.17617039382457733,0.5606574416160583,0.5072309374809265,0.4149445593357086,0.3436012864112854
0.6666666666666666,0.044247373938560486,-0.03345072269439697,0.0,0.660018265247345,0.0,0.0,-0.7512495517730713,0.5622597932815552,-0.30042123794555664,0.0,0.0,0.0,-1.190146803855896,0.3665039837360382,0.6846969723701477,0.4200000464916229,0.5810590982437134,1.5630839698133059e-06,-1.9369458641449455e-06,-0.8138612508773804,0.00017799845954868942,-0.0001236211392097175,-9.042373858392239e-05,0.0021978244185447693,0.0003676564956549555,-0.0006390519556589425,0.35556089878082275,0.686337947845459,0.4483991265296936,0.16094817221164703,0.19750413298606873,1.2640910148620605,0.34731656312942505,0.6754721403121948,0.42000001668930054,-0.5514879822731018,-2.999999761581421,-1.401203989982605,-2.999999761581421,-0.1692962497472763,-0.1722387969493866,-0.17333172261714935,-0.17261426150798798,0.18155644834041595,0.19388188421726227,0.17938487231731415,0.18119940161705017
0.6833333333333333,0.05678715929389,-0.032302964478731155,0.0,0.6680327653884888,0.0,0.0,-0.744131863117218,0.6948065161705017,0.07675876468420029,0.0,0.0,0.0,2.496992826461792,0.3665040135383606,0.6846970915794373,0.4200000464916229,0.5810592770576477,2.763823658824549e-07,-3.2267514598061098e-06,-0.8138612508773804,0.00010359883890487254,-0.00026580484700389206,-8.917204104363918e-05,0.006303718313574791,-0.0014760695630684495,-0.0006820626440458,0.36144769191741943,0.6883629560470581,0.47264766693115234,0.5934594869613647,0.2664070725440979,1.6647663116455078,0.34731656312942505,0.6754721403121948,0.42000001668930054,-0.6014991402626038,-2.999999523162842,-1.45122230052948,-3.000000476837158,-0.17182061076164246,-0.17355172336101532,-0.1738036423921585,-0.1720428764820099,0.013376749120652676,0.04642803221940994,0.0691678449511528,0.1103128045797348
0.7,0.06504495441913605,-0.035566747188568115,0.0,0.6661837100982666,0.0,0.0,-0.7457876801490784,0.4528939127922058,-0.2338588982820511,0.0,0.0,0.0,-1.2835787534713745,0.3665040135383606,0.6846970915794373,0.4200000464916229,0.5810590982437134,2.55530778758839e-07,-3.3707026432239218e-06,-0.8138612508773804,0.00010246749297948554,-0.00026701670140028,-8.893664926290512e-05,0.00634430069476366,-0.0014927512966096401,-0.0006807481404393911,0.37403494119644165,0.6898837089538574,0.49590176343917847,0.8416550755500793,-0.1903756558895111,1.2729700803756714,0.34731656312942505,0.6754721403121948,0.42000001668930054,-0.6515098214149475,-2.9999990463256836,-1.501240611076355,-2.9999992847442627,-0.1700606793165207,-0.1708512008190155,-0.17021465301513672,-0.1672561913728714,-0.019071394577622414,0.0947306826710701,0.20846593379974365,0.33660048246383667
0.7166666666666667,0.07468482106924057,-0.03723949193954468,0.0,0.6425721645355225,0.0,0.0,-0.7662251591682434,0.6050646901130676,-0.02369474247097969,0.0,0.0,0.0,-4.493107318878174,0.3665040135383606,0.6846970915794373,0.4200000464916229,0.5810592770576477,1.6723321039080474e-07,-3.1957893042999785e-06,-0.8138611316680908,9.886628686217591e-05,-0.0002694704453460872,-8.809869177639484e-05,0.006425575818866491,-0.0015467976918444037,-0.0006760746473446488,0.39044493436813354,0.6879479885101318,0.5225087404251099,1.1573331356048584,-0.08590181916952133,2.0385937690734863,0.34731656312942505,0.6754721403121948,0.42000001668930054,-0.701515793800354,-2.999995708465576,-1.55125892162323,-3.000000476837158,-0.17098499834537506,-0.1702224165201187,-0.1679532378911972,-0.16312307119369507,-0.020030859857797623,0.04852615296840668,0.12637890875339508,0.2190503627061844
0.7333333333333333,0.08610880374908447,-0.0350387841463089,0.0,0.633694052696228,0.0,0.0,-0.7735837697982788,0.7182490229606628,0.19666226208209991,0.0,0.0,0.0,-0.40241190791130066,0.3665040135383606,0.6846970915794373,0.4200000464916229,0.5810592174530029,3.6103850220570166e-07,-3.1028730518301018e-06,-0.8138612508773804,0.00010385551286162809,-0.00026647464255802333,-8.927355520427227e-05,0.00632281182333827,-0.0014745582593604922,-0.0006833900115452707,0.40981853008270264,0.6895458698272705,0.5581327676773071,1.1445245742797852,0.240894615650177,2.2779860496520996,0.34731656312942505,0.6754721403121948,0.42000001668930054,-0.7166553139686584,0.8604997396469116,-1.601277232170105,-2.999999761581421,-0.1707625836133957,-0.1694675087928772,-0.1665649712085724,-0.16096512973308563,0.0710194781422615,0.06980884820222855,0.07021738588809967,0.07206443697214127
0.75,0.09462374448776245,-0.037492211908102036,0.0,0.6484050154685974,0.0,0.0,-0.7612955570220947,0.4748113751411438,-0.21829044818878174,0.0,0.0,0.0,3.063359022140503,0.3665040135383606,0.6846970319747925,0.4200000464916229,0.5810592770576477,3.9343788671430957e-07,-3.25310907101084e-06,-0.8138612508773804,0.00010293953528162092,-0.00026623535086400807,-8.910195901989937e-05,0.006322088185697794,-0.0014846971025690436,-0.0006809021579101682,0.42571547627449036,0.6926979422569275,0.590257465839386,0.7320189476013184,0.07670722901821136,1.6285958290100098,0.34731656312942505,0.6754721403121948,0.42000001668930054,-0.6848453879356384,2.7653114795684814,-1.5622602701187134,2.999999523162842,-0.16577650606632233,-0.1646157056093216,-0.16189053654670715,-0.15655606985092163,0.24965675175189972,0.2703555226325989,0.28240689635276794,0.28020739555358887
0.7666666666666666,0.09954532235860825,-0.03552371263504028,0.0,0.6496896147727966,0.0,0.0,-0.7601995468139648,0.22144009172916412,0.09660375863313675,0.0,0.0,0.0,-0.7420836091041565,0.3665040135383606,0.6846970915794373,0.4200000464916229,0.5810592770576477,2.820549411808315e-07,-3.240297019146965e-06,-0.8138611316680908,0.00010429677058709785,-0.0002665163774508983,-8.93536489456892e-05,0.006320957560092211,-0.0014694955898448825,-0.0006843468290753663,0.43092209100723267,0.6933205127716064,0.613160252571106,0.08002138882875443,0.08446246385574341,1.239011287689209,0.34731656312942505,0.6754721403121948,0.42000001668930054,-0.6571850776672363,0.7103930711746216,-1.5122038125991821,2.9999985694885254,-0.16598062217235565,-0.1639380007982254,-0.16056904196739197,-0.1549641340970993,0.16431009769439697,0.16754567623138428,0.15910868346691132,0.1304352581501007
0.7833333333333333,0.10081575065851212,-0.03741738200187683,0.0,0.6603508591651917,0.0,0.0,-0.750957190990448,0.005337541922926903,-0.15730635821819305,0.0,0.0,0.0,2.376793622970581,0.3665039837360382,0.6846970915794373,0.4200000464916229,0.5810592770576477,2.89877078785139e-07,-3.3879989587148884e-06,-0.8138611316680908,0.0001011487256619148,-0.0002667183871380985,-8.86586494743824e-05,0.006344285327941179,-0.001507012639194727,-0.0006774948560632765,0.4296422004699707,0.6928733587265015,0.6289829015731812,-0.24487203359603882,-0.051143892109394073,0.7273674011230469,0.34731656312942505,0.6754721403121948,0.42000001668930054,-0.6307205557823181,2.302614688873291,-1.4621473550796509,3.000000238418579,-0.16338135302066803,-0.16091446578502655,-0.15737533569335938,-0.1520226150751114,0.12384543567895889,0.16103476285934448,0.18064925074577332,0.17167465388774872
0.8,0.09903767704963684,-0.034867607057094574,0.0,0.6581290364265442,0.0,0.0,-0.7529051303863525,-0.11199120432138443,0.19373296201229095,0.0,0.0,0.0,-1.1508418321609497,0.3665040135383606,0.6846970915794373,0.4200000464916229,0.5810593962669373,3.671210890843213e-07,-3.1169431622402044e-06,-0.813861072063446,0.00010366101196268573,-0.00026634332607500255,-8.919439278542995e-05,0.006321026012301445,-0.001475031254813075,-0.0006826695171184838,0.42296522855758667,0.6913050413131714,0.6363920569419861,-0.45288655161857605,-0.10408720374107361,0.3125510513782501,0.34731656312942505,0.6754721403121948,0.42000001668930054,-0.6073904037475586,0.624661922454834,-1.4120908975601196,3.000000238418579,-0.16481995582580566,-0.16144104301929474,-0.15726685523986816,-0.15175363421440125,-0.005387405399233103,0.01933358609676361,0.03233461081981659,0.022086264565587044
0.8166666666666667,0.09742914885282516,-0.03636252135038376,0.0,0.6672964096069336,0.0,0.0,-0.7447922229766846,-0.056058719754219055,-0.10662678629159927,0.0,0.0,0.0,2.100198268890381,0.3665040135383606,0.6846970915794373,0.4200000464916229,0.5810589790344238,2.6604024583321007e-07,-3.390274287085049e-06,-0.8138613700866699,0.00010267329344060272,-0.00026755884755402803,-8.900323882699013e-05,0.006356573197990656,-0.001493691699579358,-0.000681816425640136,0.41613852977752686,0.6907274723052979,0.6409516334533691,-0.4185413718223572,-0.0070059653371572495,0.23097911477088928,0.34731656312942505,0.6754721403121948,0.42000001668930054,-0.5763537287712097,2.878361225128174,-1.3620364665985107,3.0000007152557373,-0.1614125370979309,-0.15822304785251617,-0.15440350770950317,-0.14958569407463074,0.13113754987716675,0.12393054366111755,0.10613413155078888,0.06741102039813995
0.8333333333333334,0.09475548565387726,-0.037720102816820145,0.0,0.6628865599632263,0.0,0.0,-0.7487198114395142,-0.20339985191822052,-0.11722303181886673,0.0,0.0,0.0,-1.5996637344360352,0.3665040135383606,0.6846970915794373,0.4200000464916229,0.5810591578483582,1.6526929869087326e-07,-3.02463604384684e-06,-0.8138612508773804,9.812825010158122e-05,-0.000269605458015576,-8.792011067271233e-05,0.006433043163269758,-0.0015557908918708563,-0.0006745911086909473,0.4105062186717987,0.6893121004104614,0.6417796015739441,-0.2609962522983551,-0.16281752288341522,0.0354752391576767,0.34731656312942505,0.6754721403121948,0.42000001668930054,-0.5642191767692566,-1.0887415409088135,-1.3119838237762451,3.0000007152557373,-0.16161777079105377,-0.1582670509815216,-0.1544116884469986,-0.14985409379005432,-0.03655346855521202,-0.022995630279183388,-0.01404578611254692,-0.01945522055029869
0.85,0.09445815533399582,-0.03657514601945877,0.0,0.6685558557510376,0.0,0.0,-0.7436618804931641,0.0361814983189106,0.12922880053520203,0.0,0.0,0.0,1.664886713027954,0.3665040135383606,0.6846970915794373,0.4200000464916229,0.5810590386390686,2.9676604640371806e-07,-3.291298071417259e-06,-0.8138613104820251,0.00010085247049573809,-0.0002674077113624662,-8.859275840222836e-05,0.006363280117511749,-0.0015138438902795315,-0.0006775899673812091,0.4116622805595398,0.6871432065963745,0.6402782201766968,0.35560232400894165,-0.10240571200847626,-0.14335863292217255,0.34731656312942505,0.6754721403121948,0.42000001668930054,-0.5577763319015503,1.6214326620101929,-1.3316458463668823,-3.0,-0.16185033321380615,-0.15853247046470642,-0.15466883778572083,-0.15021303296089172,0.028233995661139488,0.017326684668660164,0.012547120451927185,0.005239562597125769
0.8666666666666667,0.09685637056827545,-0.03902090713381767,0.0,0.6624627113342285,0.0,0.0,-0.7490949034690857,0.16549737751483917,-0.18332991003990173,0.0,0.0,0.0,-1.83647882938385,0.3665040135383606,0.6846970915794373,0.4200000464916229,0.5810592770576477,2.6350954840381746e-07,-3.433743586356286e-06,-0.8138611912727356,0.00010266121535096318,-0.0002669743844307959,-8.897366933524609e-05,0.006342354696244001,-0.0014899425441399217,-0.000681090634316206,0.418549507856369,0.6877999305725098,0.6343202590942383,0.39706361293792725,0.042329538613557816,-0.42074108123779297,0.34731656312942505,0.6754721403121948,0.42000001668930054,-0.5489969849586487,-0.40077120065689087,-1.2933961153030396,3.000000238418579,-0.15832670032978058,-0.15597888827323914,-0.15294219553470612,-0.1492820382118225,0.15353886783123016,0.10395470261573792,0.06025902181863785,0.016598520800471306
