vladlanda/robotic-transformer/data/env_000_episode_0075.csv
sim_time_s,robot_box_x,robot_box_y,robot_box_z,robot_box_quat_w,robot_box_quat_x,robot_box_quat_y,robot_box_quat_z,robot_box_linvel_x,robot_box_linvel_y,robot_box_linvel_z,robot_box_angvel_x,robot_box_angvel_y,robot_box_angvel_z,cube_world_x,cube_world_y,cube_world_z,cube_quat_w,cube_quat_x,cube_quat_y,cube_quat_z,cube_linvel_x,cube_linvel_y,cube_linvel_z,cube_angvel_x,cube_angvel_y,cube_angvel_z,endpoint_world_x,endpoint_world_y,endpoint_world_z,endpoint_linvel_x,endpoint_linvel_y,endpoint_linvel_z,target_cube_world_x,target_cube_world_y,target_cube_world_z,gripper_actual_pos_rad_gp_leftgearjoint,gripper_actual_vel_rad_s_gp_leftgearjoint,gripper_actual_pos_rad_gp_rotatingjoint,gripper_actual_vel_rad_s_gp_rotatingjoint,motor_angle_rad_joint1,motor_angle_rad_joint2,motor_angle_rad_joint3,motor_angle_rad_joint4,motor_speed_rad_s_joint1,motor_speed_rad_s_joint2,motor_speed_rad_s_joint3,motor_speed_rad_s_joint4
0.0,0.0,0.0,0.0,1.0,0.0,0.0,0.0,0.0,0.0,0.0,0.0,0.0,0.0,-0.39513036608695984,0.770351767539978,0.41999998688697815,1.0,0.0,0.0,0.0,0.0,0.0,0.0,0.0,0.0,0.0,3.42540442943573e-06,-0.005000244826078415,1.313499927520752,0.0,0.0,0.0,0.3619954288005829,0.700320839881897,0.42000001668930054,-1.5707999467849731,0.0,0.0,0.0,0.0,0.0,0.0,0.0,0.0,0.0,0.0,0.0
0.016666666666666666,0.0028778850100934505,0.0021806680597364902,0.0,0.9998081922531128,0.0,0.0,0.019586581736803055,0.24087215960025787,0.18240931630134583,0.0,0.0,0.0,3.1418697834014893,-0.3951304852962494,0.7703514695167542,0.41999998688697815,1.0,3.279964630564791e-06,-8.339746386809566e-07,8.465587342243452e-08,-1.9833529222523794e-05,0.00017983045836444944,-6.132945418357849e-05,0.0009432713268324733,-0.004689474124461412,-0.00031981561915017664,-0.007110234349966049,0.003379564033821225,1.3159373998641968,-0.8143353462219238,0.9868683815002441,0.18095196783542633,0.3619954288005829,0.700320839881897,0.42000001668930054,-1.5301095247268677,3.0000011920928955,-0.04584788903594017,-2.9999992847442627,0.0008691533003002405,0.0007963840034790337,0.0007110277656465769,0.0006108740926720202,0.11094217747449875,0.09756709635257721,0.08334315568208694,0.06823883205652237
0.03333333333333333,0.008961120620369911,0.006802099756896496,0.0,0.9997960329055786,0.0,0.0,0.02019689232110977,0.4070442318916321,0.31531572341918945,0.0,0.0,0.0,-0.869105875492096,-0.39513060450553894,0.7703514099121094,0.4200000464916229,1.0,3.3907890610862523e-06,-2.132393774445518e-06,-3.709030593768148e-08,0.0002635782875586301,0.00026937786606140435,-0.00010509765706956387,-0.0017707186052575707,0.004130848217755556,-0.00013548022252507508,-0.026959499344229698,0.02632223442196846,1.316666603088379,-1.5241892337799072,1.6198948621749878,-0.07642999291419983,0.3619954288005829,0.700320839881897,0.42000001668930054,-1.4800903797149658,3.0000009536743164,-0.09588771313428879,-3.0000007152557373,0.0029246951453387737,0.0025643908884376287,0.0021660425700247288,0.001726609538309276,0.15635226666927338,0.1295185089111328,0.10119965672492981,0.07130730152130127
0.05,0.01847098208963871,0.013902160339057446,0.0,0.9999781250953674,0.0,0.0,-0.006614066194742918,0.6363239884376526,0.4723210334777832,0.0,0.0,0.0,-4.074037075042725,-0.39513063430786133,0.7703514695167542,0.4200000464916229,1.0,3.7651125239790417e-06,-2.211909304605797e-06,5.615670151115637e-09,0.00026530897594057024,0.0002669153909664601,-0.00010440615005791187,-0.0017242893809452653,0.00417743856087327,-0.0001294967223657295,-0.054783713072538376,0.057855620980262756,1.312491774559021,-1.8221354484558105,2.0909361839294434,-0.413127601146698,0.3619954288005829,0.700320839881897,0.42000001668930054,-1.4300720691680908,3.000002384185791,-0.14592640101909637,-3.0000007152557373,0.005689144134521484,0.004765673540532589,0.0037697087973356247,0.0026972272899001837,0.18536236882209778,0.14109566807746887,0.09491177648305893,0.046739306300878525
0.06666666666666667,0.030400853604078293,0.02342222072184086,0.0,0.9998873472213745,0.0,0.0,-0.015008313581347466,0.7772924900054932,0.6143695116043091,0.0,0.0,0.0,-0.025710679590702057,-0.39513063430786133,0.7703514099121094,0.4200000464916229,0.9999999403953552,3.4067415981553495e-06,-2.285610207763966e-06,4.300852367578045e-07,0.0002670248504728079,0.00026791688287630677,-0.00010437914170324802,-0.0017406237311661243,0.004211748018860817,-0.00012850160419475287,-0.08848816156387329,0.09163966774940491,1.3032052516937256,-2.09049654006958,2.1328606605529785,-0.6766284704208374,0.3619954288005829,0.700320839881897,0.42000001668930054,-1.3800468444824219,2.999999523162842,-0.15640416741371155,1.3683578968048096,0.007722833193838596,0.005990434437990189,0.004145462531596422,0.0021830948535352945,0.11118049174547195,0.05261828377842903,-0.008085264824330807,-0.07096976041793823
0.08333333333333333,0.03650975227355957,0.03677026182413101,0.0,0.9992474317550659,0.0,0.0,-0.03878927230834961,0.23128348588943481,0.8744001388549805,0.0,0.0,0.0,-3.798260450363159,-0.39513063430786133,0.7703514099121094,0.4200000464916229,1.0,3.6972521684219828e-06,-2.1889734398428118e-06,-2.6323630208935356e-07,0.0002638957812450826,0.0002658642188180238,-0.00010433932766318321,-0.0017081927508115768,0.004150208085775375,-0.00012991396943107247,-0.11766527593135834,0.13166451454162598,1.2899523973464966,-1.4448046684265137,2.6720175743103027,-0.8391367197036743,0.3619954288005829,0.700320839881897,0.42000001668930054,-1.330044150352478,2.999999761581421,-0.1967793107032776,-3.000000238418579,0.003230220638215542,0.0006643797969445586,-0.002068147761747241,-0.004975656978785992,-0.4007871150970459,-0.46428152918815613,-0.5305315852165222,-0.5997612476348877
0.1,0.046386007219552994,0.0516873374581337,0.0,0.9959293603897095,0.0,0.0,-0.0901368111371994,0.7413819432258606,0.9029141068458557,0.0,0.0,0.0,-6.955342769622803,-0.39513063430786133,0.7703514099121094,0.4200000464916229,0.9999999403953552,3.6203418858349323e-06,-2.26525662583299e-06,1.7461363199799962e-07,0.00026676771813072264,0.000267407187493518,-0.0001040794886648655,-0.0017384879756718874,0.0042090388014912605,-0.00012775236973538995,-0.1423805058002472,0.178150475025177,1.2764681577682495,-1.526172399520874,2.9362425804138184,-0.8409013748168945,0.3619954288005829,0.700320839881897,0.42000001668930054,-1.2800266742706299,2.999998092651367,-0.18578696250915527,3.000002145767212,0.0010001679183915257,-0.0032020111102610826,-0.007573144510388374,-0.012121324427425861,-0.056291501969099045,-0.16221584379673004,-0.2671317458152771,-0.3709476590156555
0.11666666666666667,0.05470934510231018,0.06461243331432343,0.0,0.9925392270088196,0.0,0.0,-0.12192583829164505,0.5446473360061646,0.6820948123931885,0.0,0.0,0.0,-2.5777432918548584,-0.39513063430786133,0.7703514099121094,0.4200000464916229,1.0,3.7983406855346402e-06,-2.2628419173997827e-06,-1.5020927435216436e-07,0.0002637402212712914,0.00026566023007035255,-0.00010428996756672859,-0.001705443486571312,0.004147546365857124,-0.0001297972776228562,-0.17165619134902954,0.2242470383644104,1.261144995689392,-1.7175729274749756,2.966156005859375,-0.904384195804596,0.3619954288005829,0.700320839881897,0.42000001668930054,-1.2300424575805664,2.9996092319488525,-0.2173091620206833,-3.000000238418579,-0.002565814880654216,-0.008371653966605663,-0.014322902075946331,-0.02042732760310173,-0.10168516635894775,-0.21918581426143646,-0.3332523703575134,-0.4436882436275482
0.13333333333333333,0.060637615621089935,0.07806327939033508,0.0,0.9867196679115295,0.0,0.0,-0.16243253648281097,0.28406450152397156,0.8544870018959045,0.0,0.0,0.0,-5.694389343261719,-0.39513063430786133,0.7703514695167542,0.4200000464916229,0.9999999403953552,3.5504526749718934e-06,-2.229838401035522e-06,2.92903592935545e-07,0.0002670336689334363,0.00026779345353133976,-0.00010417122393846512,-0.0017440557712689042,0.004213644191622734,-0.0001280014985240996,-0.1998087465763092,0.27797582745552063,1.2438453435897827,-1.5574710369110107,3.574982166290283,-1.197768211364746,0.3619954288005829,0.700320839881897,0.42000001668930054,-1.1800274848937988,2.9999897480010986,-0.183430016040802,3.0,-0.0058316681534051895,-0.013518025167286396,-0.021278204396367073,-0.029116706922650337,-0.2694110572338104,-0.3717600405216217,-0.46965837478637695,-0.562943160533905
0.15,0.06253962963819504,0.09336226433515549,0.0,0.9826274514198303,0.0,0.0,-0.18558891117572784,0.030269183218479156,0.9761542677879333,0.0,0.0,0.0,-1.4074785709381104,-0.39513063430786133,0.7703514099121094,0.4200000464916229,0.9999999403953552,3.3380681543349056e-06,-2.242904201921192e-06,-2.80383520845362e-08,0.00026674623950384557,0.000267581082880497,-0.00010427739471197128,-0.0017367617692798376,0.004206853918731213,-0.00012831280764658004,-0.23185250163078308,0.33524447679519653,1.2191355228424072,-2.0109076499938965,3.531318187713623,-1.7522974014282227,0.3619954288005829,0.700320839881897,0.42000001668930054,-1.1533050537109375,0.41115573048591614,-0.21497350931167603,-3.0000009536743164,-0.011402945034205914,-0.020517535507678986,-0.029620220884680748,-0.03871357440948486,-0.39939171075820923,-0.46522051095962524,-0.5260715484619141,-0.5819027423858643
0.16666666666666666,0.06928274780511856,0.105659618973732,0.0,0.9755101203918457,0.0,0.0,-0.21995462477207184,0.4822988510131836,0.70343416929245,0.0,0.0,0.0,-4.930227279663086,-0.39513063430786133,0.7703514695167542,0.4200000464916229,0.9999999403953552,3.6478249967331067e-06,-2.3072980184224434e-06,3.525462588527262e-08,0.0002672682167030871,0.0002680141478776932,-0.00010418612509965897,-0.0017472227336838841,0.00421749847009778,-0.0001279825810343027,-0.26382166147232056,0.4006311297416687,1.185457468032837,-1.7569823265075684,4.328432083129883,-2.395146369934082,0.3619954288005829,0.700320839881897,0.42000001668930054,-1.113193392753601,3.000001907348633,-0.2649776041507721,-3.0000007152557373,-0.014739405363798141,-0.02503945678472519,-0.03523946553468704,-0.04534194618463516,-0.35185739398002625,-0.38713762164115906,-0.4191094636917114,-0.4478663206100464
0.18333333333333332,0.07097138464450836,0.12031777948141098,0.0,0.9614275097846985,0.0,0.0,-0.275058388710022,0.07943296432495117,0.8695152401924133,0.0,0.0,0.0,-7.587005615234375,-0.39513063430786133,0.7703514099121094,0.4200000464916229,0.9999999403953552,3.2905484204093227e-06,-2.19394087253022e-06,-2.7926759571528237e-07,0.00026677915593609214,0.00026775928563438356,-0.00010433956049382687,-0.0017390865832567215,0.004206973593682051,-0.00012845573655795306,-0.2942664623260498,0.4715957045555115,1.1376187801361084,-1.663844347000122,4.49868106842041,-3.157031536102295,0.3619954288005829,0.700320839881897,0.42000001668930054,-1.0781892538070679,1.3139182329177856,-0.3149925768375397,-2.999999761581421,-0.027309013530611992,-0.03770921006798744,-0.04755587875843048,-0.05723681300878525,-0.6754042506217957,-0.720099925994873,-0.7111712694168091,-0.6920661330223083
0.2,0.0772409737110138,0.13045020401477814,0.0,0.9505844712257385,0.0,0.0,-0.31046608090400696,0.4017331898212433,0.5085926651954651,0.0,0.0,0.0,-3.2159066200256348,-0.39513063430786133,0.7703514099121094,0.4200000464916229,1.0,3.2807649859023513e-06,-2.219233238065499e-06,1.594273868477103e-07,0.00026627976330928504,0.000267400115262717,-0.0001042510848492384,-0.0017358354525640607,0.004197914153337479,-0.00012865106691606343,-0.32557910680770874,0.5440839529037476,1.0761055946350098,-1.6104153394699097,4.5444207191467285,-4.230178356170654,0.3619954288005829,0.700320839881897,0.42000001668930054,-1.0331165790557861,2.999999761581421,-0.36501893401145935,-2.999999761581421,-0.03778209164738655,-0.04832473397254944,-0.0576041005551815,-0.06660258769989014,-0.7797738313674927,-0.7427772879600525,-0.6737878918647766,-0.601451575756073
0.21666666666666667,0.07778797298669815,0.14356167614459991,0.0,0.9345801472663879,0.0,0.0,-0.3557526171207428,0.0362854041159153,0.7616267800331116,0.0,0.0,0.0,-6.700877666473389,-0.39513063430786133,0.7703514695167542,0.4200000464916229,1.0,3.613171202232479e-06,-2.2701251509715803e-06,2.2096426732787222e-07,0.0002671248512342572,0.00026781641645357013,-0.00010414118878543377,-0.0017444950062781572,0.0042151533998548985,-0.0001278652489418164,-0.34942564368247986,0.6139135956764221,0.9974634647369385,-1.0925143957138062,4.189868927001953,-4.941333770751953,0.3619954288005829,0.700320839881897,0.42000001668930054,-0.9831093549728394,3.0000016689300537,-0.4150443971157074,-3.0000016689300537,-0.053481172770261765,-0.06408954411745071,-0.07337922602891922,-0.08190275728702545,-0.6430967450141907,-0.7031353116035461,-0.7599452137947083,-0.8115427494049072
0.23333333333333334,0.07743791490793228,0.1516089290380478,0.0,0.9238353967666626,0.0,0.0,-0.3827899396419525,-0.0747060626745224,0.38685351610183716,0.0,0.0,0.0,-2.394979476928711,-0.39513063430786133,0.7703514099121094,0.4200000464916229,1.0,3.381893066034536e-06,-2.290935526616522e-06,2.72741203843907e-07,0.00026691603125073016,0.0002678006130736321,-0.00010433257557451725,-0.001739594736136496,0.004209807142615318,-0.00012843935110140592,-0.36961933970451355,0.6762005090713501,0.9087472558021545,-0.8987566232681274,3.5191006660461426,-5.706418037414551,0.3619954288005829,0.700320839881897,0.42000001668930054,-0.9331063032150269,2.9999988079071045,-0.4650721848011017,-3.0000011920928955,-0.06422337889671326,-0.07516583800315857,-0.08480557799339294,-0.09365354478359222,-0.6992119550704956,-0.6869246959686279,-0.6791569590568542,-0.6728417873382568
0.25,0.07325468212366104,0.16248223185539246,0.0,0.9251799583435059,0.0,0.0,-0.3795287311077118,-0.31875738501548767,0.7586541175842285,0.0,0.0,0.0,1.395359992980957,-0.39513060450553894,0.7703514099121094,0.4200000464916229,0.9999999403953552,3.7065622109366814e-06,-2.222981265731505e-06,-2.2555772716259526e-07,0.00026424723910167813,0.000266568356892094,-0.00010457751341164112,-0.001717002596706152,0.0041555180214345455,-0.00013063121878076345,-0.3875286281108856,0.7220856547355652,0.8093999624252319,-0.9997525811195374,2.1499686241149902,-6.181987762451172,0.3619954288005829,0.700320839881897,0.42000001668930054,-0.8830958604812622,2.999979257583618,-0.515101969242096,-3.000000238418579,-0.08043497055768967,-0.0907779335975647,-0.09987211972475052,-0.10804890096187592,-0.98924320936203,-0.9802608489990234,-0.9711633324623108,-0.9527584910392761
0.26666666666666666,0.07251397520303726,0.1690962165594101,0.0,0.9214656352996826,0.0,0.0,-0.3884599208831787,-0.040898825973272324,0.33635175228118896,0.0,0.0,0.0,-1.6492327451705933,-0.39513063430786133,0.7703514099121094,0.4200000464916229,0.9999999403953552,3.7196462017163867e-06,-2.403447979304474e-06,-1.8313724581275892e-07,0.0002662329061422497,0.0002672921400517225,-0.00010425853542983532,-0.0017327220411971211,0.004196553491055965,-0.0001285112666664645,-0.4022386372089386,0.7542964220046997,0.7016779184341431,-0.6643311977386475,1.4362274408340454,-6.647112846374512,0.3619954288005829,0.700320839881897,0.42000001668930054,-0.8330857157707214,2.9999983310699463,-0.5651317238807678,-3.000002384185791,-0.09497776627540588,-0.10521957278251648,-0.11422400921583176,-0.12220470607280731,-0.9921153783798218,-0.9933228492736816,-0.9922245144844055,-0.9828510880470276
0.2833333333333333,0.06870842725038528,0.1725689023733139,0.0,0.9249604344367981,0.0,0.0,-0.3800634741783142,-0.3135911524295807,0.17325502634048462,0.0,0.0,0.0,1.9233168363571167,-0.39513063430786133,0.7703514695167542,0.4200000464916229,0.9999999403953552,3.5840309919876745e-06,-2.3154766495281365e-06,7.399254542406197e-08,0.00026522090774960816,0.0002645533240865916,-0.00010317121632397175,-0.0017020802479237318,0.004185076337307692,-0.00012500105367507786,-0.41078081727027893,0.768913984298706,0.5936236381530762,-0.2923837900161743,0.3104415535926819,-6.219006538391113,0.3619954288005829,0.700320839881897,0.42000001668930054,-0.7830768823623657,3.0000014305114746,-0.6151614785194397,-2.999999523162842,-0.11227158457040787,-0.12234212458133698,-0.13122348487377167,-0.13911288976669312,-1.0122164487838745,-1.0092108249664307,-1.0069234371185303,-1.0051014423370361
0.3,0.061352282762527466,0.1737717241048813,0.0,0.9221459031105042,0.0,0.0,-0.3868423104286194,-0.42168480157852173,0.0008730655536055565,0.0,0.0,0.0,-1.7356573343276978,-0.39513063430786133,0.7703514099121094,0.4200000464916229,1.0,3.724227326529217e-06,-2.271912762807915e-06,9.629899011542875e-08,0.00026312650879845023,0.000265258364379406,-0.00010438216850161552,-0.0016960541252046824,0.004134918563067913,-0.00013028219109401107,-0.4096923768520355,0.7700570821762085,0.4938511252403259,0.3679988980293274,-0.13790319859981537,-5.690549850463867,0.3619954288005829,0.700320839881897,0.42000001668930054,-0.7330681085586548,2.9999988079071045,-0.6651894450187683,-2.9999992847442627,-0.12972038984298706,-0.13960230350494385,-0.1483553647994995,-0.15615114569664001,-0.8746562004089355,-0.9028480648994446,-0.9293444752693176,-0.9532725214958191
0.31666666666666665,0.052914634346961975,0.17194102704524994,0.0,0.9254243969917297,0.0,0.0,-0.37893226742744446,-0.5484258532524109,-0.15218807756900787,0.0,0.0,0.0,1.8750413656234741,-0.39513063430786133,0.7703514099121094,0.4200000464916229,1.0,3.6661540434579365e-06,-2.3925497316668043e-06,1.6793948987015028e-07,0.00026602172874845564,0.0002670693211257458,-0.00010418705642223358,-0.0017310414696112275,0.004193533677607775,-0.0001284974568989128,-0.4014091491699219,0.7677147388458252,0.40223705768585205,0.7054874897003174,-0.2767750024795532,-5.226304531097412,0.3619954288005829,0.700320839881897,0.42000001668930054,-0.6830611228942871,3.0000011920928955,-0.7152156233787537,-3.000000476837158,-0.14679653942584991,-0.15659210085868835,-0.16528360545635223,-0.17303159832954407,-1.0117355585098267,-1.00892174243927,-1.006767749786377,-1.005030870437622
0.3333333333333333,0.042473167181015015,0.16761785745620728,0.0,0.9224987626075745,0.0,0.0,-0.3860000967979431,-0.6695307493209839,-0.299834668636322,0.0,0.0,0.0,-1.8289893865585327,-0.3956197500228882,0.7692304253578186,0.420261025428772,0.9999085068702698,0.005444427020847797,-0.001163401990197599,-0.012324693612754345,0.004748551174998283,0.009072870947420597,-0.01352103240787983,-0.0423007607460022,0.6227512359619141,0.44822782278060913,-0.40511536598205566,0.7702439427375793,0.4264826774597168,0.03625721484422684,0.3180283308029175,-0.12283062189817429,0.3619954288005829,0.700320839881897,0.42000001668930054,-0.6331380605697632,3.0000011920928955,-0.765755295753479,-2.9929919242858887,-0.14394520223140717,-0.15561513602733612,-0.165696918964386,-0.1742219477891922,-0.09254246950149536,-0.13785403966903687,-0.16315586864948273,-0.16248482465744019
0.35,0.029916705563664436,0.1608888804912567,0.0,0.9256201386451721,0.0,0.0,-0.37845396995544434,-0.7972091436386108,-0.44959568977355957,0.0,0.0,0.0,1.808375358581543,-0.39467301964759827,0.7711640000343323,0.42000001668930054,0.9992672204971313,5.146148396306671e-06,3.157224000460701e-06,-0.038275156170129776,0.14262928068637848,0.2719215750694275,-3.22013656841591e-05,-0.001765285269357264,0.0027894703671336174,-8.251555442810059,-0.40262746810913086,0.7757666707038879,0.4240700304508209,0.2011824995279312,0.2993718385696411,-0.14938302338123322,0.3619954288005829,0.700320839881897,0.42000001668930054,-0.5831326246261597,2.999980926513672,-0.815782368183136,-2.9999945163726807,-0.14820034801959991,-0.1595524400472641,-0.16905534267425537,-0.17667189240455627,-0.3308461606502533,-0.27516427636146545,-0.2067742496728897,-0.12266672402620316
0.36666666666666664,0.020627733319997787,0.1511315554380417,0.0,0.922598123550415,0.0,0.0,-0.385762482881546,-0.4508659839630127,-0.6375605463981628,0.0,0.0,0.0,-1.8208928108215332,-0.39197126030921936,0.775948703289032,0.420000284910202,0.9947445392608643,-7.769203875795938e-06,9.552218216413166e-06,-0.10238809138536453,0.189432293176651,0.28410619497299194,-0.0004140397650189698,0.015821266919374466,-0.006502845790237188,-6.179657936096191,-0.3987582325935364,0.779110312461853,0.421944260597229,0.3500104546546936,0.23401185870170593,-0.12001374363899231,0.3619954288005829,0.700320839881897,0.42000001668930054,-0.5331276655197144,2.999990701675415,-0.8658270239830017,-2.999997854232788,-0.15454202890396118,-0.16435810923576355,-0.17212353646755219,-0.17777112126350403,-0.405105859041214,-0.28369560837745667,-0.15282776951789856,-0.011585830710828304
0.3833333333333333,0.009438475593924522,0.13969841599464417,0.0,0.9102587699890137,0.0,0.0,-0.41403985023498535,-0.7577595710754395,-0.7092936038970947,0.0,0.0,0.0,-4.684492588043213,-0.3856404423713684,0.7832244634628296,0.4200725555419922,0.9838963150978088,0.001771778566762805,-0.00017062183178495616,-0.17873120307922363,0.5708454847335815,0.5955647826194763,0.03425808995962143,1.748473882675171,-0.5512281060218811,-13.478887557983398,-0.3904394507408142,0.7861942052841187,0.4209912419319153,0.6700138449668884,0.6714321374893188,0.009832065552473068,0.3619954288005829,0.700320839881897,0.42000001668930054,-0.4831230342388153,2.999985694885254,-0.9158748984336853,-2.9999959468841553,-0.16398201882839203,-0.1710750311613083,-0.17597931623458862,-0.1786353439092636,-0.5727196335792542,-0.3996458947658539,-0.21878871321678162,-0.031051378697156906
0.4,0.0011518971296027303,0.12524953484535217,0.0,0.8841462135314941,0.0,0.0,-0.4672103524208069,-0.45884352922439575,-0.9114012122154236,0.0,0.0,0.0,-7.879154205322266,-0.368620902299881,0.8003645539283752,0.4209184944629669,0.9688835144042969,0.0033400061074644327,-0.01249734591692686,-0.24717846512794495,1.6876407861709595,1.4718595743179321,0.1262681633234024,-1.621898889541626,-3.065775156021118,-5.3764872550964355,-0.37209805846214294,0.8025368452072144,0.422372967004776,1.7502849102020264,1.3321802616119385,0.12299340963363647,0.3619954288005829,0.700320839881897,0.42000001668930054,-0.43311741948127747,3.0000011920928955,-0.9659177660942078,-2.9989356994628906,-0.17232537269592285,-0.17630520462989807,-0.17791293561458588,-0.17711980640888214,-0.568442165851593,-0.339913547039032,-0.10164165496826172,0.14289569854736328
0.4166666666666667,-0.003769706003367901,0.10779079049825668,0.0,0.8426748514175415,0.0,0.0,-0.5384227633476257,-0.219721257686615,-1.110939383506775,0.0,0.0,0.0,-10.630396842956543,-0.3158329129219055,0.8311164379119873,0.4259955585002899,0.9572476744651794,0.03948870301246643,-0.045130323618650436,-0.28298529982566833,3.79302978515625,2.0943305492401123,1.1302815675735474,21.518028259277344,-12.223641395568848,1.661253809928894,-0.3204614818096161,0.8328145742416382,0.42741629481315613,4.005407333374023,2.211333751678467,0.8659088611602783,0.3619954288005829,0.700320839881897,0.42000001668930054,-0.39561450481414795,1.465732455253601,-0.9286551475524902,3.000084638595581,-0.18503892421722412,-0.18403086066246033,-0.1806468814611435,-0.1749633401632309,-0.7868152260780334,-0.47534653544425964,-0.16836251318454742,0.1270039975643158
0.43333333333333335,-0.012600559741258621,0.09676045179367065,0.0,0.7814988493919373,0.0,0.0,-0.623906672000885,-0.6271747946739197,-0.5114694833755493,0.0,0.0,0.0,-13.545670509338379,-0.22706365585327148,0.8668593764305115,0.4432661831378937,0.9345689415931702,0.07875470817089081,-0.05546481907367706,-0.34249410033226013,6.958029747009277,2.1345608234405518,1.1576509475708008,2.332026958465576,3.145352363586426,-24.867902755737305,-0.23133273422718048,0.8692373037338257,0.444812536239624,6.515771865844727,2.2627711296081543,1.1680667400360107,0.3619954288005829,0.700320839881897,0.42000001668930054,-0.37531232833862305,1.168328046798706,-0.954523503780365,-2.9986681938171387,-0.20107348263263702,-0.19880501925945282,-0.1905146837234497,-0.17878887057304382,-0.8892955183982849,-0.8897745609283447,-0.7215738296508789,-0.37816715240478516
0.45,-0.018803181126713753,0.08553281426429749,0.0,0.7261181473731995,0.0,0.0,-0.6875699758529663,-0.19405414164066315,-0.797673225402832,0.0,0.0,0.0,-9.051876068115234,-0.11819855868816376,0.8912851810455322,0.46111735701560974,0.9091088771820068,0.12207841873168945,-0.07222537696361542,-0.3916647434234619,7.20644474029541,0.7036292552947998,1.2279937267303467,28.568784713745117,-17.135507583618164,-37.61100769042969,-0.12151837348937988,0.8962266445159912,0.4628327488899231,6.541012287139893,0.8704409599304199,0.9990240335464478,0.3619954288005829,0.700320839881897,0.42000001668930054,-0.35842737555503845,0.8906905055046082,-0.9244092702865601,2.9974544048309326,-0.21616913378238678,-0.21257245540618896,-0.20003430545330048,-0.18203170597553253,-0.8397118449211121,-0.7005569338798523,-0.43172281980514526,-0.07419070601463318
0.4666666666666667,-0.02525446191430092,0.0758342444896698,0.0,0.6955500841140747,0.0,0.0,-0.7184776067733765,-0.4301016926765442,-0.5515161752700806,0.0,0.0,0.0,-3.8908517360687256,-0.010697916150093079,0.8988289833068848,0.4764403700828552,0.8557717204093933,0.13765446841716766,-0.06760906428098679,-0.4941002428531647,6.616988658905029,-0.3095390200614929,1.0484135150909424,20.315811157226562,-5.389492511749268,-29.425907135009766,-0.013948380015790462,0.903287410736084,0.47810739278793335,6.108945369720459,-0.17302310466766357,0.729982852935791,0.3619954288005829,0.700320839881897,0.42000001668930054,-0.3441181778907776,0.8848657011985779,-0.9495016932487488,-3.000002384185791,-0.2275145947933197,-0.22450467944145203,-0.2100192755460739,-0.18603099882602692,-0.5640298128128052,-0.5685518980026245,-0.4781745374202728,-0.1857493668794632
0.48333333333333334,-0.02915225736796856,0.07060402631759644,0.0,0.6909321546554565,0.0,0.0,-0.7229195833206177,-0.15323644876480103,-0.18984952569007874,0.0,0.0,0.0,0.13378942012786865,0.08141092211008072,0.8894982933998108,0.48579490184783936,0.8189375996589661,0.11494241654872894,-0.05830861255526543,-0.5592221617698669,5.344062805175781,-1.4024173021316528,0.7723334431648254,13.838542938232422,-6.17305850982666,-36.01866149902344,0.07969291508197784,0.8949477672576904,0.488256573677063,4.8238677978515625,-1.0089080333709717,0.4028034210205078,0.3619954288005829,0.700320839881897,0.42000001668930054,-0.32958143949508667,0.8455312848091125,-0.9995257258415222,-3.000002145767212,-0.23784814774990082,-0.23382017016410828,-0.21727178990840912,-0.18869614601135254,-0.5567704439163208,-0.46174156665802,-0.33301660418510437,-0.09698022156953812
0.5,-0.028573907911777496,0.06099327281117439,0.0,0.6753934025764465,0.0,0.0,-0.7374576330184937,0.044380150735378265,-0.5544154047966003,0.0,0.0,0.0,-3.363301992416382,0.1572667807340622,0.8710136413574219,0.48921290040016174,0.7714552283287048,0.08341503143310547,-0.045156996697187424,-0.6291736960411072,4.4168477058410645,-2.1203999519348145,0.4337114095687866,9.745548248291016,-7.415580749511719,-30.834678649902344,0.15575243532657623,0.8757405281066895,0.49215319752693176,3.9902195930480957,-1.580942988395691,0.01568671315908432,0.3619954288005829,0.700320839881897,0.42000001668930054,-0.31626787781715393,0.7618067264556885,-1.0495479106903076,-3.0,-0.23825782537460327,-0.23505666851997375,-0.21739183366298676,-0.1865456998348236,-0.03682101517915726,-0.10781435668468475,-0.005185175687074661,0.11839134991168976
0.5166666666666666,-0.026986505836248398,0.05673326179385185,0.0,0.6730427742004395,0.0,0.0,-0.739603579044342,0.15103211998939514,-0.16800399124622345,0.0,0.0,0.0,0.5320899486541748,0.21809062361717224,0.8414090275764465,0.48768654465675354,0.7440891265869141,0.04443934187293053,-0.022520210593938828,-0.6662200689315796,3.544351100921631,-2.3879034519195557,0.0166592076420784,6.866684913635254,-1.7543518543243408,-27.12069320678711,0.21762682497501373,0.8456249833106995,0.4908221364021301,3.1600382328033447,-1.9379851818084717,-0.27137646079063416,0.3619954288005829,0.700320839881897,0.42000001668930054,-0.3033844828605652,0.7682012915611267,-1.0995700359344482,-2.99999737739563,-0.2399524301290512,-0.237244114279747,-0.21785512566566467,-0.18561464548110962,-0.0045551457442343235,-0.0123567134141922,0.05164121836423874,0.0668124333024025
0.5333333333333333,-0.02228708378970623,0.047811709344387054,0.0,0.6595039963722229,0.0,0.0,-0.7517010569572449,0.3133714199066162,-0.5338620543479919,0.0,0.0,0.0,-2.9902122020721436,0.26674285531044006,0.8117707967758179,0.4776642322540283,0.7172467708587646,-0.024910032749176025,-0.01326068863272667,-0.6962475180625916,2.6715314388275146,-2.34689998626709,-0.5883182287216187,2.603029489517212,9.028936386108398,-23.63381576538086,0.2667331099510193,0.8155125975608826,0.48283669352531433,2.3805761337280273,-1.8056039810180664,-0.6649711728096008,0.3619954288005829,0.700320839881897,0.42000001668930054,-0.2899174392223358,0.8304763436317444,-1.1495921611785889,-2.999042272567749,-0.2325049191713333,-0.2309180200099945,-0.21217630803585052,-0.1816144436597824,0.41137275099754333,0.3822014331817627,0.3345356583595276,0.2017170488834381
0.55,-0.019199447706341743,0.042769938707351685,0.0,0.6592085957527161,0.0,0.0,-0.7519601583480835,0.12352491915225983,-0.24204598367214203,0.0,0.0,0.0,0.7673587203025818,0.3026829957962036,0.779732882976532,0.46397069096565247,0.697300136089325,-0.07523708790540695,0.01987847127020359,-0.7125424146652222,2.0353758335113525,-2.4943323135375977,-0.7610563635826111,-2.5284204483032227,-2.30471134185791,-26.87522315979004,0.30351728200912476,0.7828853130340576,0.46931949257850647,1.7432072162628174,-1.8829281330108643,-0.9217109680175781,0.3619954288005829,0.700320839881897,0.42000001668930054,-0.2760971188545227,0.77046138048172,-1.1996142864227295,-3.000000476837158,-0.22670318186283112,-0.22521278262138367,-0.20746639370918274,-0.17955397069454193,0.42797714471817017,0.41397881507873535,0.31773027777671814,0.11403945088386536
0.5666666666666667,-0.015431639738380909,0.03644184395670891,0.0,0.6479911804199219,0.0,0.0,-0.7616478800773621,0.26993268728256226,-0.45710664987564087,0.0,0.0,0.0,-2.6427226066589355,0.3283068537712097,0.7504518032073975,0.44352173805236816,0.6838115453720093,-0.13006624579429626,0.04748721420764923,-0.7164002656936646,1.4662801027297974,-2.2188615798950195,-1.0861247777938843,1.2266134023666382,-1.8224149942398071,-23.775875091552734,0.3300735652446747,0.7530909776687622,0.4493533670902252,1.1678200960159302,-1.6476666927337646,-1.383277416229248,0.3619954288005829,0.700320839881897,0.42000001668930054,-0.2656654417514801,0.5077897906303406,-1.249617338180542,-2.999967098236084,-0.21811145544052124,-0.21720461547374725,-0.2017580270767212,-0.17797724902629852,0.5332474112510681,0.4964841604232788,0.337510347366333,0.06469105184078217
0.5833333333333334,-0.00936700589954853,0.032696682959795,0.0,0.6494920253753662,0.0,0.0,-0.7603684067726135,0.3995932936668396,-0.156206876039505,0.0,0.0,0.0,1.0563608407974243,0.3439284563064575,0.7264578938484192,0.42634889483451843,0.6809368133544922,-0.12588636577129364,0.07321427762508392,-0.7177166938781738,0.594534695148468,-1.3722738027572632,-0.015880078077316284,-7.805917263031006,-8.51082992553711,-14.808019638061523,0.34596842527389526,0.7285137176513672,0.43092936277389526,0.3091309368610382,-0.9041903018951416,-0.09768509864807129,0.3619954288005829,0.700320839881897,0.42000001668930054,-0.2556857466697693,0.7488096356391907,-1.2344411611557007,2.997328042984009,-0.21009132266044617,-0.21002544462680817,-0.19757047295570374,-0.17858977615833282,0.5092121958732605,0.43876826763153076,0.23865750432014465,-0.06024589389562607
0.6,-0.005983355920761824,0.028530452400445938,0.0,0.6392902731895447,0.0,0.0,-0.7689655423164368,0.14013203978538513,-0.26960742473602295,0.0,0.0,0.0,-2.5555055141448975,0.34832093119621277,0.7170408368110657,0.4265262484550476,0.7040165662765503,-0.13584914803504944,0.08794371783733368,-0.6914994120597839,0.33159899711608887,-0.8583117127418518,0.12145867943763733,-7.778618812561035,-0.4263961911201477,-13.23339557647705,0.35063880681991577,0.7183212041854858,0.4314643144607544,0.07801857590675354,-0.39426398277282715,0.10654526203870773,0.3619954288005829,0.700320839881897,0.42000001668930054,-0.2474532127380371,0.2547188699245453,-1.2448070049285889,-2.9988839626312256,-0.1981745958328247,-0.19998671114444733,-0.19152384996414185,-0.17798270285129547,0.7464081645011902,0.6346304416656494,0.3943835496902466,0.07218673080205917
0.6166666666666667,-0.0010655419901013374,0.027737978845834732,0.0,0.6412705779075623,0.0,0.0,-0.7673148512840271,0.30411165952682495,0.0011695717694237828,0.0,0.0,0.0,1.14118230342865,0.35091811418533325,0.7103986144065857,0.4255414605140686,0.7152681946754456,-0.11608390510082245,0.0887644961476326,-0.6834008097648621,0.35319867730140686,-0.6581898331642151,-0.019206134602427483,-5.180958271026611,-9.314576148986816,-15.806367874145508,0.3529980182647705,0.7114830017089844,0.4301180839538574,0.00543525256216526,-0.2023201435804367,-0.10189086198806763,0.3619954288005829,0.700320839881897,0.42000001668930054,-0.2419569343328476,0.33044490218162537,-1.2067848443984985,2.998628854751587,-0.1880544126033783,-0.19140471518039703,-0.18659426271915436,-0.1779865175485611,0.6329712867736816,0.5325828790664673,0.3100337088108063,0.018532024696469307
0.6333333333333333,0.00517129385843873,0.02394060604274273,0.0,0.631669819355011,0.0,0.0,-0.775237500667572,0.4311307668685913,-0.2335231453180313,0.0,0.0,0.0,-2.347921848297119,0.353763222694397,0.7061395645141602,0.42560479044914246,0.6923924684524536,-0.11124911904335022,0.07096914947032928,-0.7093514800071716,0.017993446439504623,-0.8983497023582458,0.18463648855686188,-2.270526647567749,6.714710235595703,-11.561060905456543,0.35397210717201233,0.7105127573013306,0.43062353134155273,-0.014507342129945755,-0.01022980734705925,0.142076313495636,0.3619954288005829,0.700320839881897,0.42000001668930054,-0.2618573009967804,-2.8148193359375,-1.2125673294067383,-2.989868402481079,-0.1756575107574463,-0.18095144629478455,-0.17998889088630676,-0.17621436715126038,0.5843173265457153,0.5077956318855286,0.3201618790626526,0.07604749500751495
0.65,0.013946052640676498,0.02381317876279354,0.0,0.6349532008171082,0.0,0.0,-0.7725505828857422,0.548835813999176,0.040739089250564575,0.0,0.0,0.0,1.3889539241790771,0.3532486855983734,0.7004100680351257,0.4272792637348175,0.6610056757926941,-0.14461465179920197,0.06602104753255844,-0.7333479523658752,0.02599630132317543,-0.3886483609676361,0.09119953960180283,-4.815279006958008,0.570939302444458,-9.162562370300293,0.3537907600402832,0.7106568813323975,0.43322861194610596,-0.07273006439208984,0.08833707123994827,0.17361831665039062,0.3619954288005829,0.700320839881897,0.42000001668930054,-0.31178078055381775,-2.9989845752716064,-1.2625517845153809,-2.9994285106658936,-0.1680183857679367,-0.1742611825466156,-0.17595084011554718,-0.17565082013607025,0.4740147888660431,0.41406944394111633,0.2604944407939911,0.0648757591843605
0.6666666666666666,0.02005043812096119,0.01932077296078205,0.0,0.6595532894134521,0.0,0.0,-0.7516578435897827,0.31087034940719604,-0.29933619499206543,0.0,0.0,0.0,4.619091987609863,0.3531527817249298,0.6949623823165894,0.4274565279483795,0.6005419492721558,-0.1439272165298462,0.03515743836760521,-0.7857468128204346,-0.05260547250509262,-0.2925598919391632,-0.019731292501091957,-5.532299995422363,-5.934322357177734,-9.147284507751465,0.35223138332366943,0.7125606536865234,0.4362587332725525,-0.18407879769802094,0.1051192432641983,0.1877170354127884,0.3619954288005829,0.700320839881897,0.42000001668930054,-0.36174026131629944,-2.999969720840454,-1.3125300407409668,-2.9990012645721436,-0.158487930893898,-0.16550444066524506,-0.16939255595207214,-0.17189981043338776,0.4009215533733368,0.4054771661758423,0.33008822798728943,0.21978792548179626
0.6833333333333333,0.02706572599709034,0.01247958280146122,0.0,0.6685734987258911,0.0,0.0,-0.7436460256576538,0.45613816380500793,-0.469563364982605,0.0,0.0,0.0,0.4016841650009155,0.3515380620956421,0.6909937262535095,0.4255581498146057,0.5474292635917664,-0.11660973727703094,-0.03817206248641014,-0.8278080821037292,-0.130921870470047,-0.2017027735710144,-0.13611897826194763,-7.016048431396484,-10.079889297485352,-1.8127870559692383,0.34985601902008057,0.7136379480361938,0.4403674900531769,-0.16097426414489746,-0.048508308827877045,0.29088252782821655,0.3619954288005829,0.700320839881897,0.42000001668930054,-0.41173040866851807,-2.999940872192383,-1.36250901222229,-2.9999587535858154,-0.15431737899780273,-0.16025826334953308,-0.1641344279050827,-0.16702358424663544,0.18601644039154053,0.29361793398857117,0.34996452927589417,0.39101672172546387
0.7,0.036115966737270355,0.0027023295406252146,0.0,0.6551839709281921,0.0,0.0,-0.7554693818092346,0.5806623101234436,-0.6474063396453857,0.0,0.0,0.0,-3.025977849960327,0.34866005182266235,0.6882173418998718,0.42305535078048706,0.548810601234436,-0.05790596455335617,-0.04585786163806915,-0.8326769471168518,-0.11586467176675797,-0.1552027463912964,-0.143402561545372,8.814436912536621,-3.6378085613250732,-1.2529572248458862,0.35099858045578003,0.7138010263442993,0.45216816663742065,0.27922433614730835,0.050839610397815704,1.2309309244155884,0.3619954288005829,0.700320839881897,0.42000001668930054,-0.46174386143684387,-2.99997878074646,-1.4125272035598755,-2.9999990463256836,-0.15385138988494873,-0.1577410250902176,-0.1602715402841568,-0.16198928654193878,-0.04441499337553978,0.08579956740140915,0.18124422430992126,0.27020859718322754
0.7166666666666667,0.04940831661224365,-0.0013050681445747614,0.0,0.6189454793930054,0.0,0.0,-0.7854339480400085,0.8797966837882996,-0.10706374794244766,0.0,0.0,0.0,-6.685572624206543,0.3472593426704407,0.685536801815033,0.42005228996276855,0.5481674671173096,-0.0004508408601395786,0.0008687452645972371,-0.8363679647445679,-0.048539187759160995,-0.05553170293569565,-0.040450260043144226,-0.5330938100814819,-2.222973346710205,-1.2750965356826782,0.36640357971191406,0.708146333694458,0.47870028018951416,1.601962685585022,-0.6209137439727783,2.0714664459228516,0.3619954288005829,0.700320839881897,0.42000001668930054,-0.511756420135498,-2.9997718334198,-1.4625455141067505,-2.999967575073242,-0.1634504497051239,-0.16357499361038208,-0.16289213299751282,-0.16157874464988708,-0.7414745688438416,-0.48798948526382446,-0.2626435160636902,-0.04731651768088341
0.7333333333333333,0.05868162587285042,-0.0025627831928431988,0.0,0.5975110530853271,0.0,0.0,-0.8018606305122375,0.48108333349227905,-0.16961245238780975,0.0,0.0,0.0,-1.9455623626708984,0.347106009721756,0.6854377388954163,0.4200000464916229,0.5470283627510071,1.8385493604000658e-05,1.0132073839486111e-05,-0.8371139764785767,0.0007921939250081778,0.0010779846925288439,-0.0007444808725267649,0.00018296073540113866,0.003773199627175927,-0.004105840809643269,0.3923429548740387,0.7041307687759399,0.5146473050117493,1.5309982299804688,-0.008260969072580338,2.1856040954589844,0.3619954288005829,0.700320839881897,0.42000001668930054,-0.5340254902839661,0.07388919591903687,-1.5125638246536255,-3.0000007152557373,-0.1699281483888626,-0.1676868200302124,-0.16496215760707855,-0.1616578847169876,-0.07613534480333328,-0.03579118475317955,-0.007488724309951067,0.023912547156214714
0.75,0.06337760388851166,-0.0032500047236680984,0.0,0.6030207872390747,0.0,0.0,-0.7977254390716553,0.2156495302915573,0.00731740752235055,0.0,0.0,0.0,1.6499053239822388,0.34710693359375,0.6854398250579834,0.4200000464916229,0.5470269322395325,2.370678799934467e-07,-2.4180967557185795e-06,-0.8371150493621826,4.507578705670312e-05,-0.0002489430771674961,-7.570418529212475e-05,0.006497927941381931,-0.001971988705918193,-0.0007067849510349333,0.4143829941749573,0.7054945826530457,0.5454748868942261,1.006149411201477,0.12418125569820404,1.5784153938293457,0.3619954288005829,0.700320839881897,0.42000001668930054,-0.5128310918807983,2.260758399963379,-1.4737989902496338,2.999997854232788,-0.1697198748588562,-0.16711680591106415,-0.16417363286018372,-0.16058962047100067,0.08511456102132797,0.09414035081863403,0.09572096168994904,0.09973615407943726
0.7666666666666666,0.06374239176511765,-0.003777765901759267,0.0,0.5962187051773071,0.0,0.0,-0.8028220534324646,0.026521870866417885,0.08453740924596786,0.0,0.0,0.0,-1.873590111732483,0.34710693359375,0.6854398250579834,0.4200000464916229,0.5470266938209534,4.1678312356907554e-08,-2.5952169835363748e-06,-0.8371150493621826,4.253150473232381e-05,-0.00025122283841483295,-7.703760638833046e-05,0.006547373719513416,-0.0020705831702798605,-0.0007122928509488702,0.423246294260025,0.7090473175048828,0.5655075907707214,0.017064623534679413,0.161921426653862,0.9857860803604126,0.3619954288005829,0.700320839881897,0.42000001668930054,-0.4731276333332062,2.4542484283447266,-1.4237463474273682,3.000000238418579,-0.16588185727596283,-0.1636938750743866,-0.16122925281524658,-0.15805684030056,0.06203661859035492,0.07137438654899597,0.0738394632935524,0.07416348159313202
0.7833333333333333,0.06278903782367706,-0.005537158343940973,0.0,0.6019899249076843,0.0,0.0,-0.7985036373138428,-0.09773138910531998,-0.2371712028980255,0.0,0.0,0.0,1.6878445148468018,0.34710693359375,0.6854398250579834,0.4200000464916229,0.5470266938209534,1.2556425588172715e-07,-2.404693077551201e-06,-0.8371151089668274,4.2222127376589924e-05,-0.0002512620121706277,-7.693702355027199e-05,0.006550499703735113,-0.0020732476841658354,-0.0007115897024050355,0.417909175157547,0.7119371891021729,0.5799660682678223,-0.6505541801452637,0.2227238118648529,0.7794879674911499,0.3619954288005829,0.700320839881897,0.42000001668930054,-0.43192464113235474,2.4553372859954834,-1.3736975193023682,3.000000476837158,-0.16425968706607819,-0.16179406642913818,-0.15916843712329865,-0.15591096878051758,0.17136038839817047,0.17861777544021606,0.1798688769340515,0.17606326937675476
0.8,0.05939771234989166,-0.003201891668140888,0.0,0.5949447751045227,0.0,0.0,-0.8037665486335754,-0.22557759284973145,0.1286095827817917,0.0,0.0,0.0,-1.9577836990356445,0.34710693359375,0.6854398250579834,0.4200000464916229,0.547026515007019,2.2367409258094995e-07,-2.6192205950792413e-06,-0.8371152281761169,4.370510214357637e-05,-0.0002496587694622576,-7.717031985521317e-05,0.0065011451952159405,-0.002046681474894285,-0.0007108732243068516,0.40173155069351196,0.7135887145996094,0.5886716842651367,-1.095272421836853,0.12879671156406403,0.4152716398239136,0.3619954288005829,0.700320839881897,0.42000001668930054,-0.40446436405181885,0.951564371585846,-1.3236448764801025,2.9999990463256836,-0.16666539013385773,-0.16324633359909058,-0.1597868800163269,-0.15582479536533356,0.01970542222261429,0.032896146178245544,0.04599710553884506,0.05884594842791557
0.8166666666666667,0.05821537971496582,-0.003695369465276599,0.0,0.5993430614471436,0.0,0.0,-0.8004922866821289,-0.06509142369031906,-0.07669258117675781,0.0,0.0,0.0,1.1082954406738281,0.34710693359375,0.6854398250579834,0.4200000464916229,0.547026515007019,2.3453844733012374e-07,-2.6418481411383254e-06,-0.8371152281761169,4.388294473756105e-05,-0.0002496077795512974,-7.722224108874798e-05,0.006498860195279121,-0.002044680528342724,-0.0007111750892363489,0.3835136294364929,0.7161460518836975,0.595127284526825,-1.1173899173736572,0.2215912640094757,0.3509225845336914,0.3619954288005829,0.700320839881897,0.42000001668930054,-0.39493095874786377,0.24510625004768372,-1.2736083269119263,2.999999761581421,-0.16599221527576447,-0.16238710284233093,-0.15873023867607117,-0.1545853316783905,0.0720953494310379,0.06241010129451752,0.05769358202815056,0.055216290056705475
0.8333333333333334,0.059229470789432526,-0.006628486793488264,0.0,0.5921639204025269,0.0,0.0,-0.8058175444602966,0.10461071878671646,-0.2663014829158783,0.0,0.0,0.0,-2.074847936630249,0.34710693359375,0.6854398250579834,0.4200000464916229,0.547026515007019,2.1866964061700855e-07,-2.6632660592440516e-06,-0.8371152281761169,4.3975302105536684e-05,-0.00024964657495729625,-7.724110037088394e-05,0.0064992234110832214,-0.0020439045038074255,-0.0007114755571819842,0.3699401617050171,0.7174891233444214,0.5973177552223206,-0.5224636793136597,-0.04874937981367111,0.08894184976816177,0.3619954288005829,0.700320839881897,0.42000001668930054,-0.42290377616882324,-2.99999737739563,-1.2235556840896606,3.000000476837158,-0.16621731221675873,-0.1624288707971573,-0.15839481353759766,-0.153761088848114,-0.045579299330711365,-0.014230906032025814,0.03224336728453636,0.08738645166158676
0.85,0.06262098252773285,-0.007531987503170967,0.0,0.5964468717575073,0.0,0.0,-0.8026525378227234,0.24986785650253296,0.013010181486606598,0.0,0.0,0.0,1.4824445247650146,0.34710693359375,0.6854398250579834,0.4200000464916229,0.547026515007019,2.169649775396465e-07,-2.683268803593819e-06,-0.8371152281761169,4.408926179166883e-05,-0.000249600678216666,-7.726461626589298e-05,0.006497494410723448,-0.0020423538517206907,-0.0007116199703887105,0.3660447299480438,0.7171003818511963,0.5996042490005493,-0.009001273661851883,-0.027608416974544525,0.20609787106513977,0.3619954288005829,0.700320839881897,0.42000001668930054,-0.4524745047092438,-0.7224404215812683,-1.244659185409546,-3.000000238418579,-0.16726656258106232,-0.1630244106054306,-0.1582076996564865,-0.15258586406707764,-0.029808450490236282,-0.006974068470299244,0.03704255446791649,0.09479328244924545
0.8666666666666667,0.06800411641597748,-0.011964038014411926,0.0,0.5886090397834778,0.0,0.0,-0.8084178566932678,0.3381660282611847,-0.2942085862159729,0.0,0.0,0.0,-2.0393903255462646,0.34710693359375,0.6854398250579834,0.4200000464916229,0.547026515007019,2.2239331087803293e-07,-2.7025621420762036e-06,-0.8371152281761169,4.4215197704033926e-05,-0.0002495492226444185,-7.729372009634972e-05,0.006495530717074871,-0.0020407154224812984,-0.0007117865025065839,0.3699668049812317,0.7146759033203125,0.5995759963989258,0.4120531678199768,-0.3213335871696472,-0.018439777195453644,0.3619954288005829,0.700320839881897,0.42000001668930054,-0.49167776107788086,-2.999999523162842,-1.2066510915756226,2.999999523162842,-0.16453883051872253,-0.16034893691539764,-0.155167818069458,-0.1488809734582901,0.0969826951622963,0.1235773116350174,0.17271462082862854,0.23697340488433838
0.8833333333333333,0.07588525861501694,-0.012296883389353752,0.0,0.5911752581596375,0.0,0.0,-0.8065431118011475,0.4946872889995575,0.002730338368564844,0.0,0.0,0.0,1.6414626836776733,0.34710693359375,0.6854398250579834,0.4200000464916229,0.5470267534255981,2.2921189213320758e-07,-2.861735538317589e-06,-0.8371151089668274,4.3653519242070615e-05,-0.00025101201026700437,-7.725181058049202e-05,0.006535661406815052,-0.002056341152638197,-0.0007141805253922939,0.37910377979278564,0.7104295492172241,0.6036344170570374,0.7055449485778809,-0.13297608494758606,0.5135599970817566,0.3619954288005829,0.700320839881897,0.42000001668930054,-0.5146616697311401,0.001794926356524229,-1.22803795337677,-3.000000238418579,-0.16461534798145294,-0.1601022332906723,-0.15428830683231354,-0.14717747271060944,0.11830459535121918,0.09374095499515533,0.08721168339252472,0.0927751362323761
0.9,0.0807490348815918,-0.01722569949924946,0.0,0.6158614158630371,0.0,0.0,-0.7878544926643372,0.23843055963516235,-0.33025869727134705,0.0,0.0,0.0,4.80311393737793,0.34710693359375,0.6854398250579834,0.4200000464916229,0.5470266938209534,1.1782076825284094e-07,-2.474321718182182e-06,-0.8371150493621826,4.2719173507066444e-05,-0.0002511833736207336,-7.707695476710796e-05,0.006545582786202431,-0.002068029250949621,-0.0007125849951989949,0.3905293345451355,0.7073898911476135,0.6104997396469116,0.6105397939682007,-0.31555163860321045,0.3563956618309021,0.3619954288005829,0.700320839881897,0.42000001668930054,-0.5324147343635559,-1.95004403591156,-1.1900763511657715,2.999999523162842,-0.16021603345870972,-0.15607333183288574,-0.15039099752902985,-0.1432633250951767,0.1605125069618225,0.17463502287864685,0.1971723735332489,0.22250498831272125
