vladlanda/robotic-transformer/data/env_000_episode_0221.csv
sim_time_s,robot_box_x,robot_box_y,robot_box_z,robot_box_quat_w,robot_box_quat_x,robot_box_quat_y,robot_box_quat_z,robot_box_linvel_x,robot_box_linvel_y,robot_box_linvel_z,robot_box_angvel_x,robot_box_angvel_y,robot_box_angvel_z,cube_world_x,cube_world_y,cube_world_z,cube_quat_w,cube_quat_x,cube_quat_y,cube_quat_z,cube_linvel_x,cube_linvel_y,cube_linvel_z,cube_angvel_x,cube_angvel_y,cube_angvel_z,endpoint_world_x,endpoint_world_y,endpoint_world_z,endpoint_linvel_x,endpoint_linvel_y,endpoint_linvel_z,target_cube_world_x,target_cube_world_y,target_cube_world_z,gripper_actual_pos_rad_gp_leftgearjoint,gripper_actual_vel_rad_s_gp_leftgearjoint,gripper_actual_pos_rad_gp_rotatingjoint,gripper_actual_vel_rad_s_gp_rotatingjoint,motor_angle_rad_joint1,motor_angle_rad_joint2,motor_angle_rad_joint3,motor_angle_rad_joint4,motor_speed_rad_s_joint1,motor_speed_rad_s_joint2,motor_speed_rad_s_joint3,motor_speed_rad_s_joint4
0.0,0.0,0.0,0.0,1.0,0.0,0.0,0.0,0.0,0.0,0.0,0.0,0.0,0.0,-0.39286521077156067,0.7330684065818787,0.41999998688697815,1.0,0.0,0.0,0.0,0.0,0.0,0.0,0.0,0.0,0.0,3.42540442943573e-06,-0.005000244826078415,1.313499927520752,0.0,0.0,0.0,0.4452422261238098,0.631136417388916,0.42000001668930054,-1.5707999467849731,0.0,0.0,0.0,0.0,0.0,0.0,0.0,0.0,0.0,0.0,0.0
0.016666666666666666,0.0028781311120837927,0.002180393785238266,0.0,0.9998087882995605,0.0,0.0,0.01955549046397209,0.24088001251220703,0.18239860236644745,0.0,0.0,0.0,3.1418616771698,-0.3928653299808502,0.7330681085586548,0.41999998688697815,1.0,3.279964630564791e-06,-8.339746386809566e-07,8.465587342243452e-08,-1.9833529222523794e-05,0.00017983045836444944,-6.132945418357849e-05,0.0009432713268324733,-0.004689474124461412,-0.00031981561915017664,-0.007110044360160828,0.003380410373210907,1.3159375190734863,-0.8143081665039062,0.9868988394737244,0.18095283210277557,0.4452422261238098,0.631136417388916,0.42000001668930054,-1.5301095247268677,3.000002145767212,-0.04584797844290733,-3.0000009536743164,0.0008697544108144939,0.0007963162497617304,0.0007109705475158989,0.0006108232773840427,0.11093135923147202,0.09757208824157715,0.08334779739379883,0.06824272125959396
0.03333333333333333,0.00896124541759491,0.006801577750593424,0.0,0.9997966289520264,0.0,0.0,0.020165620371699333,0.40702635049819946,0.3152984082698822,0.0,0.0,0.0,-0.8691383600234985,-0.39286544919013977,0.73306804895401,0.4200000464916229,1.0,3.3908179375430336e-06,-2.132458348569344e-06,-3.7097745320124886e-08,0.00026357852038927376,0.00026937833172269166,-0.00010509369894862175,-0.0017707126680761576,0.004130884539335966,-0.0001354814594378695,-0.027554601430892944,0.02628435008227825,1.3165831565856934,-1.5912246704101562,1.6163893938064575,-0.08671604841947556,0.4452422261238098,0.631136417388916,0.42000001668930054,-1.4800902605056763,3.000000238418579,-0.09588780999183655,-3.000000238418579,0.002990403911098838,0.0026525906287133694,0.002277167746797204,0.0018606175435706973,0.16420035064220428,0.139756977558136,0.1138150542974472,0.08629581332206726
0.05,0.01847155950963497,0.01390315406024456,0.0,0.9999774694442749,0.0,0.0,-0.006709839217364788,0.6362946629524231,0.4723665416240692,0.0,0.0,0.0,-4.07395076751709,-0.39286547899246216,0.7330681085586548,0.4200000464916229,1.0,3.7651293496310245e-06,-2.2119379536889028e-06,5.6273887771851605e-09,0.0002653067058417946,0.00026691422681324184,-0.00010440615005791187,-0.0017243530601263046,0.00417736079543829,-0.00012949267693329602,-0.05695798248052597,0.05766140669584274,1.3119041919708252,-1.9302200078964233,2.074909210205078,-0.4578298032283783,0.4452422261238098,0.631136417388916,0.42000001668930054,-1.4300719499588013,2.9999983310699463,-0.14592649042606354,-2.999999523162842,0.005982617381960154,0.005133451893925667,0.004212034400552511,0.0032139455433934927,0.2038433700799942,0.16270175576210022,0.11963266879320145,0.07456691563129425
0.06666666666666667,0.030791975557804108,0.023393118754029274,0.0,0.9998831152915955,0.0,0.0,-0.015288599766790867,0.7727108597755432,0.6162066459655762,0.0,0.0,0.0,-0.0374554879963398,-0.39286547899246216,0.73306804895401,0.4200000464916229,0.9999999403953552,3.406754103707499e-06,-2.2856077066535363e-06,4.300980265270482e-07,0.0002670255198609084,0.0002679179306142032,-0.0001043803058564663,-0.001740670995786786,0.004211848136037588,-0.00012850687198806554,-0.09189067780971527,0.09143522381782532,1.3018852472305298,-2.1295504570007324,2.1427040100097656,-0.7341976165771484,0.4452422261238098,0.631136417388916,0.42000001668930054,-1.380043625831604,3.000001907348633,-0.1362839639186859,2.999999523162842,0.008420386351644993,0.006766091100871563,0.004998970776796341,0.0031136167235672474,0.11970216780900955,0.06050220876932144,5.314359441399574e-08,-0.06447527557611465
0.08333333333333333,0.03682728484272957,0.03676466643810272,0.0,0.9992330074310303,0.0,0.0,-0.03915907070040703,0.22701270878314972,0.8756567239761353,0.0,0.0,0.0,-3.8087375164031982,-0.39286547899246216,0.73306804895401,0.4200000464916229,0.9999999403953552,3.6260603337723296e-06,-2.3353738924924983e-06,3.0322857469400333e-07,0.00026613770751282573,0.00026685066404752433,-0.00010405178181827068,-0.0017283547203987837,0.004196325317025185,-0.000127911422168836,-0.12176059186458588,0.1313142478466034,1.288008213043213,-1.4900131225585938,2.646817207336426,-0.862092137336731,0.4452422261238098,0.631136417388916,0.42000001668930054,-1.3300429582595825,2.9999983310699463,-0.16817116737365723,-2.9999992847442627,0.004073727875947952,0.0015696720220148563,-0.0010896878084167838,-0.003949733916670084,-0.3913768529891968,-0.4561444818973541,-0.523103654384613,-0.5942698121070862
0.1,0.046685222536325455,0.05171981453895569,0.0,0.9958869218826294,0.0,0.0,-0.09060487151145935,0.7374039888381958,0.9040941596031189,0.0,0.0,0.0,-6.966465950012207,-0.39286547899246216,0.73306804895401,0.4200000464916229,1.0,3.4220743145851884e-06,-2.30867885875341e-06,1.7964234189093986e-07,0.0002668164379429072,0.0002680036413948983,-0.00010440708138048649,-0.0017430284060537815,0.004207152873277664,-0.00012891023652628064,-0.14818322658538818,0.1774974912405014,1.273457407951355,-1.6761466264724731,2.920958995819092,-0.9396636486053467,0.4452422261238098,0.631136417388916,0.42000001668930054,-1.2800278663635254,3.000000476837158,-0.16916687786579132,2.416372299194336,0.001979400170966983,-0.002128747059032321,-0.006388484500348568,-0.010868656449019909,-0.03611750528216362,-0.1395556777715683,-0.24164403975009918,-0.343380331993103
0.11666666666666667,0.055197425186634064,0.06379836797714233,0.0,0.9924851059913635,0.0,0.0,-0.12236545234918594,0.5392992496490479,0.6853509545326233,0.0,0.0,0.0,-2.5788111686706543,-0.39286547899246216,0.7330681085586548,0.4200000464916229,1.0,3.711451881827088e-06,-2.3327925191551913e-06,2.574467430349614e-07,0.0002648566151037812,0.0002663534542080015,-0.00010423408821225166,-0.0017182299634441733,0.004170136991888285,-0.0001291574299102649,-0.17968055605888367,0.22358165681362152,1.2562663555145264,-1.8431148529052734,2.9762165546417236,-1.036494493484497,0.4452422261238098,0.631136417388916,0.42000001668930054,-1.2300410270690918,3.0000007152557373,-0.2041894495487213,-3.000000476837158,-0.000859404040966183,-0.006593715399503708,-0.012449800036847591,-0.01850869692862034,-0.08417899906635284,-0.20059147477149963,-0.31352949142456055,-0.4232942461967468
0.13333333333333333,0.06098862737417221,0.07724539935588837,0.0,0.986603319644928,0.0,0.0,-0.1631374955177307,0.2824704945087433,0.8544434905052185,0.0,0.0,0.0,-5.691481590270996,-0.39286547899246216,0.73306804895401,0.4200000464916229,1.0,3.335707106089103e-06,-2.2319818526739255e-06,3.1131835953601694e-07,0.00026669749058783054,0.00026759348111227155,-0.00010428577661514282,-0.0017370672430843115,0.004205907229334116,-0.00012840131239499897,-0.20974861085414886,0.27776455879211426,1.236228346824646,-1.680433988571167,3.605821371078491,-1.3593175411224365,0.4452422261238098,0.631136417388916,0.42000001668930054,-1.180027723312378,2.9992220401763916,-0.17037558555603027,3.000001907348633,-0.00396864814683795,-0.011547022499144077,-0.019177880138158798,-0.026943406090140343,-0.24095867574214935,-0.34434691071510315,-0.44329333305358887,-0.5376583337783813
0.15,0.06391425430774689,0.08833938091993332,0.0,0.9826632142066956,0.0,0.0,-0.1853996366262436,0.12880152463912964,0.5721721649169922,0.0,0.0,0.0,-1.4508202075958252,-0.39286547899246216,0.73306804895401,0.4200000464916229,1.0,3.518956873449497e-06,-2.2831925434729783e-06,-3.625542035479157e-07,0.0002661838079802692,0.0002673559356480837,-0.00010425667278468609,-0.0017348496476188302,0.004195802379399538,-0.00012861037976108491,-0.24348384141921997,0.33428317308425903,1.2081907987594604,-2.085721015930176,3.448150634765625,-1.973486065864563,0.4452422261238098,0.631136417388916,0.42000001668930054,-1.1526880264282227,0.47913146018981934,-0.20200657844543457,-3.0,-0.008090845309197903,-0.017167840152978897,-0.0262135062366724,-0.03530611842870712,-0.2803187668323517,-0.3524375259876251,-0.4197668433189392,-0.4820137321949005
0.16666666666666666,0.06927750259637833,0.09981554746627808,0.0,0.975665807723999,0.0,0.0,-0.21926307678222656,0.3340529501438141,0.7066580653190613,0.0,0.0,0.0,-4.988414764404297,-0.39286547899246216,0.73306804895401,0.4200000464916229,1.0,3.6666233427240513e-06,-2.3392092316498747e-06,-3.150152849684673e-07,0.0002659587189555168,0.00026667414931580424,-0.00010403618216514587,-0.0017253721598535776,0.0041928282007575035,-0.00012778467498719692,-0.2773584723472595,0.3983474373817444,1.1681971549987793,-1.90558660030365,4.192116737365723,-2.804640054702759,0.4452422261238098,0.631136417388916,0.42000001668930054,-1.1120747327804565,3.0000014305114746,-0.17053104937076569,3.000000476837158,-0.014221164397895336,-0.024019045755267143,-0.03372864052653313,-0.043424975126981735,-0.5125045776367188,-0.5234783291816711,-0.5325701236724854,-0.5396039485931396
0.18333333333333332,0.0720149353146553,0.11128377169370651,0.0,0.9656611084938049,0.0,0.0,-0.2598050534725189,0.1312902718782425,0.6474452614784241,0.0,0.0,0.0,-4.994752407073975,-0.39286547899246216,0.73306804895401,0.4200000464916229,1.0,3.814353021880379e-06,-2.3995974061108427e-06,-2.7029872740058636e-07,0.00026549032190814614,0.0002661117759998888,-0.00010391208343207836,-0.0017177986446768045,0.004184774123132229,-0.0001275356044061482,-0.3096308410167694,0.46670275926589966,1.1158781051635742,-1.6890223026275635,4.260293006896973,-3.4398703575134277,0.4452422261238098,0.631136417388916,0.42000001668930054,-1.0662492513656616,2.503371238708496,-0.20218239724636078,-2.999999761581421,-0.02515055239200592,-0.03481793403625488,-0.04437270388007164,-0.05388898774981499,-0.6727694869041443,-0.6605855226516724,-0.6469206213951111,-0.6316583156585693
0.2,0.07118711620569229,0.12350794672966003,0.0,0.9613326191902161,0.0,0.0,-0.2753899097442627,-0.11946273595094681,0.7732632756233215,0.0,0.0,0.0,-0.8355228304862976,-0.39286547899246216,0.73306804895401,0.4200000464916229,1.0,3.6000251384393778e-06,-2.2912661279406166e-06,-2.202114615101891e-07,0.0002657297009136528,0.00026644894387573004,-0.00010398100130259991,-0.0017226373311132193,0.004188735969364643,-0.0001277304399991408,-0.34167471528053284,0.5325900912284851,1.0509390830993652,-1.7404370307922363,3.919734239578247,-4.318210601806641,0.4452422261238098,0.631136417388916,0.42000001668930054,-1.017081379890442,3.0000014305114746,-0.25220832228660583,-3.000000238418579,-0.03801850974559784,-0.047077927738428116,-0.056002914905548096,-0.06486920267343521,-0.8184418082237244,-0.7657656073570251,-0.7123851776123047,-0.658449649810791
0.21666666666666667,0.073684923350811,0.133437842130661,0.0,0.952938437461853,0.0,0.0,-0.3031637966632843,0.18684108555316925,0.5054177045822144,0.0,0.0,0.0,-4.170650482177734,-0.39286547899246216,0.73306804895401,0.4200000464916229,0.9999999403953552,3.639628175733378e-06,-2.2620024537900463e-06,2.2244368835799833e-07,0.00026687400531955063,0.00026754438295029104,-0.00010411953553557396,-0.0017404285026714206,0.004211097024381161,-0.00012783633428625762,-0.3682354688644409,0.5974034070968628,0.9723924398422241,-1.3503563404083252,3.7821907997131348,-5.066678047180176,0.4452422261238098,0.631136417388916,0.42000001668930054,-0.9670745134353638,2.9999988079071045,-0.302235871553421,-2.9999990463256836,-0.05130991339683533,-0.059355009347200394,-0.06727814674377441,-0.07515803724527359,-0.9322966933250427,-0.8482667803764343,-0.7666893005371094,-0.687773585319519
0.23333333333333334,0.07172077149152756,0.14548517763614655,0.0,0.949580729007721,0.0,0.0,-0.31352266669273376,-0.12661200761795044,0.7117412090301514,0.0,0.0,0.0,-0.261377215385437,-0.39286544919013977,0.73306804895401,0.4200000464916229,1.0,3.4207625958515564e-06,-2.3168413463281468e-06,2.955432591988938e-07,0.0002668008382897824,0.0002680383331608027,-0.00010442384518682957,-0.0017436932539567351,0.004206873942166567,-0.00012899334251414984,-0.3905162513256073,0.6492087841033936,0.8811079263687134,-1.160593032836914,2.770148754119873,-5.703940391540527,0.4452422261238098,0.631136417388916,0.42000001668930054,-0.9170650839805603,2.999993324279785,-0.3522661030292511,-3.000000238418579,-0.06650564074516296,-0.07471559196710587,-0.08277157694101334,-0.0906897485256195,-0.7729920744895935,-0.8051024675369263,-0.8309697508811951,-0.8552563786506653
0.25,0.07448090612888336,0.15266674757003784,0.0,0.9418871402740479,0.0,0.0,-0.3359295427799225,0.18212872743606567,0.3690260052680969,0.0,0.0,0.0,-3.495591878890991,-0.39286547899246216,0.73306804895401,0.4200000464916229,0.9999999403953552,3.3476451335445745e-06,-2.259213715660735e-06,1.8079042263252632e-07,0.00026687688659876585,0.00026791199343279004,-0.00010439311154186726,-0.0017404770478606224,0.004208194557577372,-0.0001287040940951556,-0.4075758457183838,0.692627489566803,0.7801928520202637,-0.7587336897850037,2.247581958770752,-6.308947563171387,0.4452422261238098,0.631136417388916,0.42000001668930054,-0.8670544624328613,2.99999737739563,-0.4022977650165558,-3.000000476837158,-0.07964212447404861,-0.0879649668931961,-0.09602247923612595,-0.10395655781030655,-0.9893732070922852,-0.9682724475860596,-0.9235814809799194,-0.8827014565467834
0.26666666666666666,0.07313854992389679,0.15682785212993622,0.0,0.9404700994491577,0.0,0.0,-0.3398763835430145,-0.15339556336402893,0.17816606163978577,0.0,0.0,0.0,0.4247771203517914,-0.39286547899246216,0.73306804895401,0.4200000464916229,0.9999999403953552,3.535712721713935e-06,-2.300341748195933e-06,-1.2691427286881662e-07,0.00026601803256198764,0.00026712071849033237,-0.00010419590398669243,-0.0017315904842689633,0.004192848224192858,-0.00012849242193624377,-0.4184802174568176,0.7174413204193115,0.6751760244369507,-0.3917390704154968,0.8948790431022644,-6.218026638031006,0.4452422261238098,0.631136417388916,0.42000001668930054,-0.8170449733734131,2.9999990463256836,-0.4523294270038605,-2.9999985694885254,-0.09673652052879333,-0.10492051392793655,-0.11288229376077652,-0.12074912339448929,-1.002215027809143,-1.0016615390777588,-1.0012403726577759,-1.0009046792984009
0.2833333333333333,0.06776370853185654,0.15784822404384613,0.0,0.9345131516456604,0.0,0.0,-0.35592854022979736,-0.30725356936454773,-0.010500452481210232,0.0,0.0,0.0,-2.852745771408081,-0.39286547899246216,0.7330681085586548,0.4200000464916229,1.0,3.5934726838604547e-06,-2.2626072677667253e-06,-5.6595279573912194e-08,0.00026704673655331135,0.00026774933212436736,-0.00010416633449494839,-0.0017431472660973668,0.0042141880840063095,-0.00012789324682671577,-0.41857945919036865,0.7262482643127441,0.5727969408035278,0.30593398213386536,0.27360594272613525,-5.99862003326416,0.4452422261238098,0.631136417388916,0.42000001668930054,-0.7670361995697021,2.999993085861206,-0.5023603439331055,-3.000004291534424,-0.11366721242666245,-0.12172330915927887,-0.12962156534194946,-0.1374562382698059,-0.8946903944015503,-0.911442756652832,-0.9285923838615417,-0.9442715644836426
0.3,0.06112368777394295,0.15599635243415833,0.0,0.9348347783088684,0.0,0.0,-0.35508301854133606,-0.4343896806240082,-0.15227781236171722,0.0,0.0,0.0,1.0008454322814941,-0.39286544919013977,0.73306804895401,0.4200000464916229,0.9999999403953552,3.7250313198455842e-06,-2.2360607090377016e-06,3.828210992651293e-07,0.00026479887310415506,0.00026673005777411163,-0.00010453932918608189,-0.0017189555801451206,0.004166737664490938,-0.00013016702723689377,-0.41200536489486694,0.7324352860450745,0.47881582379341125,0.6072622537612915,0.3236720561981201,-5.220587730407715,0.4452422261238098,0.631136417388916,0.42000001668930054,-0.7170279026031494,3.0000009536743164,-0.5523890256881714,-3.0000009536743164,-0.13075710833072662,-0.13874392211437225,-0.14659279584884644,-0.15439167618751526,-1.0200917720794678,-1.0151855945587158,-1.0114367008209229,-1.008437991142273
0.31666666666666665,0.052279990166425705,0.1518610566854477,0.0,0.9298097491264343,0.0,0.0,-0.3680405020713806,-0.5804425477981567,-0.28995683789253235,0.0,0.0,0.0,-2.525315046310425,-0.39286547899246216,0.73306804895401,0.4200000464916229,0.9999999403953552,3.557747731974814e-06,-2.2788008209317923e-06,2.2828703549748752e-07,0.00026598561089485884,0.00026658433489501476,-0.00010398984886705875,-0.0017240943852812052,0.00419356394559145,-0.00012769577733706683,-0.40652406215667725,0.7359498739242554,0.42979201674461365,0.1046207994222641,-0.014924820512533188,-0.23010648787021637,0.4452422261238098,0.631136417388916,0.42000001668930054,-0.6670231819152832,2.999979257583618,-0.6028088331222534,-3.0000853538513184,-0.1444503366947174,-0.15264637768268585,-0.1602313369512558,-0.16753187775611877,-0.5008030533790588,-0.5396317839622498,-0.5145022869110107,-0.4567301869392395
0.3333333333333333,0.041263218969106674,0.14533960819244385,0.0,0.930937647819519,0.0,0.0,-0.3651781976222992,-0.698555588722229,-0.432025283575058,0.0,0.0,0.0,1.2957810163497925,-0.3928995430469513,0.7342121601104736,0.419999897480011,0.9997938275337219,1.1297232049400918e-05,-1.6527076240890892e-06,-0.020305030047893524,-0.001183582004159689,0.10483335703611374,-0.00012985942885279655,-0.006651573348790407,0.0049297683872282505,-3.2672231197357178,-0.4051968455314636,0.7402287721633911,0.42668163776397705,0.20019114017486572,0.24030767381191254,-0.21492600440979004,0.4452422261238098,0.631136417388916,0.42000001668930054,-0.6170171499252319,2.999974250793457,-0.6528759002685547,-3.0000011920928955,-0.15365539491176605,-0.16156473755836487,-0.16794143617153168,-0.17355042695999146,-0.5652138590812683,-0.5120499134063721,-0.4125002920627594,-0.28795865178108215
0.35,0.02805023267865181,0.13654224574565887,0.0,0.926356852054596,0.0,0.0,-0.376647025346756,-0.8370428085327148,-0.5670191645622253,0.0,0.0,0.0,-2.4105260372161865,-0.39087751507759094,0.7384576201438904,0.42013564705848694,0.9974454641342163,0.0033849584870040417,-0.00034345584572292864,-0.07134966552257538,0.09342970699071884,0.22928164899349213,-0.033591367304325104,-1.655361533164978,0.10795590281486511,-5.330432891845703,-0.4007498621940613,0.742469310760498,0.423392117023468,0.4027296006679535,0.15610507130622864,-0.18364009261131287,0.4452422261238098,0.631136417388916,0.42000001668930054,-0.5670121312141418,2.999981164932251,-0.7029407620429993,-2.999964714050293,-0.16385714709758759,-0.17026938498020172,-0.1744775027036667,-0.17753052711486816,-0.6059378385543823,-0.49022331833839417,-0.3413764238357544,-0.17237205803394318
0.36666666666666664,0.012749687768518925,0.12546406686306,0.0,0.9278366565704346,0.0,0.0,-0.372986763715744,-0.9566401839256287,-0.7044353485107422,0.0,0.0,0.0,1.4155793190002441,-0.38720703125,0.744224488735199,0.42000022530555725,0.9912849068641663,-3.4106599287042627e-06,6.828236109868158e-06,-0.13173508644104004,0.3605569303035736,0.4820169508457184,0.012969080358743668,0.5830571055412292,-0.05515725538134575,-10.840036392211914,-0.39280396699905396,0.7470510005950928,0.42087915539741516,0.537898063659668,0.49428144097328186,-0.039725761860609055,0.4452422261238098,0.631136417388916,0.42000001668930054,-0.5170072317123413,2.999600410461426,-0.7529891729354858,-2.9810214042663574,-0.17417500913143158,-0.17818334698677063,-0.1795174777507782,-0.17938783764839172,-0.5698469877243042,-0.4130690097808838,-0.23267261683940887,-0.03505618870258331
0.3833333333333333,0.00027048515039496124,0.11177749931812286,0.0,0.923678994178772,0.0,0.0,-0.3831671476364136,-0.6644948720932007,-0.8699101805686951,0.0,0.0,0.0,-2.221935272216797,-0.3809869587421417,0.7522874474525452,0.4200004041194916,0.9752539992332458,-5.549309662455926e-06,1.0791416571009904e-05,-0.22108714282512665,0.4025147259235382,0.5037042498588562,-0.00046863179886713624,0.006794092245399952,-0.01452926266938448,-11.939725875854492,-0.38182538747787476,0.7541563510894775,0.42014676332473755,0.8159134387969971,0.39715147018432617,-0.04335853084921837,0.4452422261238098,0.631136417388916,0.42000001668930054,-0.4670030474662781,2.9999771118164062,-0.8030422329902649,-2.9999966621398926,-0.18396683037281036,-0.18481415510177612,-0.18260982632637024,-0.17864437401294708,-0.5059508085250854,-0.3068471848964691,-0.08765419572591782,0.14901643991470337
0.4,-0.014110764488577843,0.09635930508375168,0.0,0.9072388410568237,0.0,0.0,-0.4206157922744751,-0.8776496052742004,-0.9797137379646301,0.0,0.0,0.0,-5.814969539642334,-0.36532142758369446,0.7645180821418762,0.42129838466644287,0.9636455178260803,-0.005574755370616913,-0.011125528253614902,-0.2668941617012024,0.9876782894134521,1.231441855430603,-0.24168352782726288,10.01630687713623,-16.356021881103516,-14.335336685180664,-0.36457887291908264,0.7647184729576111,0.42115500569343567,1.3699103593826294,0.9075397849082947,0.1521138846874237,0.4452422261238098,0.631136417388916,0.42000001668930054,-0.417106032371521,2.9164276123046875,-0.8530853390693665,-2.994776487350464,-0.19301828742027283,-0.19042587280273438,-0.18446727097034454,-0.17645034193992615,-0.3762255609035492,-0.20664142072200775,-0.019139962270855904,0.18783582746982574
0.4166666666666667,-0.025220096111297607,0.07782905548810959,0.0,0.8765501379966736,0.0,0.0,-0.48131054639816284,-0.613915741443634,-1.1589549779891968,0.0,0.0,0.0,-8.958183288574219,-0.3309324383735657,0.7850843667984009,0.42516443133354187,0.9436606168746948,-0.00811536330729723,-0.042692605406045914,-0.3280489444732666,3.2663590908050537,1.5030497312545776,0.27355584502220154,13.50862979888916,-13.160677909851074,7.404451847076416,-0.3296905755996704,0.785024106502533,0.425018846988678,2.892322540283203,1.543489694595337,0.5248181819915771,0.4452422261238098,0.631136417388916,0.42000001668930054,-0.3850092887878418,1.1824389696121216,-0.9031084179878235,-2.999999761581421,-0.2007269561290741,-0.19482649862766266,-0.18536636233329773,-0.17362794280052185,-0.5246223211288452,-0.29778966307640076,-0.06584262102842331,0.172822505235672
0.43333333333333335,-0.03352298215031624,0.06421925872564316,0.0,0.8290455341339111,0.0,0.0,-0.5591811537742615,-0.41110554337501526,-0.8139639496803284,0.0,0.0,0.0,-11.584173202514648,-0.25644952058792114,0.8141509890556335,0.4313356578350067,0.9226087927818298,0.037844739854335785,-0.08582008630037308,-0.37415987253189087,5.955323219299316,1.7266029119491577,0.3673677146434784,17.57466697692871,-16.434005737304688,17.055322647094727,-0.255087673664093,0.8145110607147217,0.43152111768722534,5.54396915435791,2.1499128341674805,0.4760492444038391,0.4452422261238098,0.631136417388916,0.42000001668930054,-0.36849910020828247,0.9807104468345642,-0.865883469581604,2.996476411819458,-0.21443137526512146,-0.20477434992790222,-0.1904207319021225,-0.17406372725963593,-0.5586332082748413,-0.4785315692424774,-0.24704629182815552,-0.036451853811740875
0.45,-0.03766584396362305,0.05342346057295799,0.0,0.7887317538261414,0.0,0.0,-0.6147375106811523,-0.19478727877140045,-0.5846628546714783,0.0,0.0,0.0,-6.797831058502197,-0.16089114546775818,0.8467308878898621,0.44080567359924316,0.8712791800498962,0.07033742964267731,-0.1157434955239296,-0.4717292785644531,5.947937965393066,1.1535874605178833,0.6036733984947205,-0.15869970619678497,-12.313669204711914,11.087569236755371,-0.16133342683315277,0.848305344581604,0.44093868136405945,5.8785786628723145,1.745197057723999,0.6730525493621826,0.4452422261238098,0.631136417388916,0.42000001668930054,-0.3482300937175751,1.27485191822052,-0.8923403024673462,-3.0000016689300537,-0.22339919209480286,-0.21247036755084991,-0.1950640082359314,-0.17611266672611237,-0.4914000332355499,-0.4148920178413391,-0.2648206055164337,-0.14639678597450256
0.4666666666666667,-0.041633423417806625,0.03927803784608841,0.0,0.7691869735717773,0.0,0.0,-0.6390238404273987,-0.17664040625095367,-0.7851054668426514,0.0,0.0,0.0,-2.443373441696167,-0.0636042058467865,0.864540159702301,0.452374130487442,0.8215214610099792,0.0661650076508522,-0.11289164423942566,-0.5549595355987549,6.022030353546143,-0.5624058842658997,0.619626522064209,-9.742424011230469,-19.677297592163086,17.49336051940918,-0.06341676414012909,0.8663147687911987,0.4522060453891754,6.0512237548828125,0.3543763756752014,0.8954737782478333,0.4452422261238098,0.631136417388916,0.42000001668930054,-0.3275910019874573,1.0323666334152222,-0.9423642754554749,-3.0000052452087402,-0.23085139691829681,-0.21765801310539246,-0.19722333550453186,-0.1758098602294922,-0.706785261631012,-0.4742656350135803,-0.22176143527030945,-0.008987896144390106
0.48333333333333334,-0.04750638082623482,0.03209703415632248,0.0,0.7416301369667053,0.0,0.0,-0.6708090305328369,-0.31978219747543335,-0.39235422015190125,0.0,0.0,0.0,-5.818202495574951,0.0344417579472065,0.855299174785614,0.46264365315437317,0.7417200803756714,0.06758299469947815,-0.11950704455375671,-0.6565073132514954,5.507261276245117,-1.810289978981018,0.44986411929130554,-18.20798683166504,7.918962001800537,8.244379997253418,0.032873839139938354,0.8589129447937012,0.46298474073410034,5.835742473602295,-1.0434625148773193,0.6484410166740417,0.4452422261238098,0.631136417388916,0.42000001668930054,-0.3124963343143463,0.6829072833061218,-0.9923883080482483,-2.999962329864502,-0.24004624783992767,-0.22962096333503723,-0.2044134885072708,-0.17868861556053162,-0.035758279263973236,-0.6559603214263916,-0.4111976623535156,-0.16675965487957
0.5,-0.05035301670432091,0.020426450297236443,0.0,0.727015495300293,0.0,0.0,-0.6866210699081421,-0.1359325349330902,-0.6969085931777954,0.0,0.0,0.0,-1.4996620416641235,0.1256844848394394,0.8310579657554626,0.46793875098228455,0.6588997840881348,0.023094361647963524,-0.1262301355600357,-0.7412040829658508,4.909030914306641,-2.286273717880249,0.18000660836696625,-9.828925132751465,-1.9926832914352417,6.5506134033203125,0.12348067760467529,0.8354499340057373,0.46950042247772217,5.2283525466918945,-1.9231094121932983,0.29878443479537964,0.4452422261238098,0.631136417388916,0.42000001668930054,-0.29983335733413696,0.7956721782684326,-1.0424107313156128,-3.000000238418579,-0.23749949038028717,-0.23555319011211395,-0.20738215744495392,-0.17879211902618408,0.05746142193675041,-0.30489444732666016,-0.14847087860107422,-0.008353309705853462
0.5166666666666666,-0.05025974661111832,0.012109153904020786,0.0,0.7048404216766357,0.0,0.0,-0.7093659043312073,0.07302320748567581,-0.4456135034561157,0.0,0.0,0.0,-4.643138885498047,0.20729108154773712,0.7950060367584229,0.46520811319351196,0.5748099088668823,-0.028570136055350304,-0.13648594915866852,-0.8063181042671204,4.33757209777832,-2.717329740524292,-0.48935315012931824,-20.27596092224121,15.011260032653809,-0.21866081655025482,0.2044895887374878,0.8019598722457886,0.4690711796283722,4.690457344055176,-2.2669758796691895,-0.16797931492328644,0.4452422261238098,0.631136417388916,0.42000001668930054,-0.2861819267272949,0.7366040945053101,-1.0924328565597534,-2.999342441558838,-0.23589284718036652,-0.23880895972251892,-0.20918086171150208,-0.1793108582496643,0.17993806302547455,-0.04677671194076538,-0.019041389226913452,-1.6635615907034662e-07
0.5333333333333333,-0.04708220064640045,0.007638422306627035,0.0,0.696708083152771,0.0,0.0,-0.7173547744750977,0.22071142494678497,-0.19642509520053864,0.0,0.0,0.0,-0.3667633831501007,0.2772364914417267,0.7532598376274109,0.45724672079086304,0.5114325284957886,-0.0704813301563263,-0.11854556947946548,-0.8481839299201965,3.696831464767456,-3.040766954421997,-0.4409502446651459,-0.5674355626106262,5.805891513824463,0.4914454221725464,0.2754683494567871,0.7606619000434875,0.46173614263534546,3.873896598815918,-2.6653366088867188,-0.6011505126953125,0.4452422261238098,0.631136417388916,0.42000001668930054,-0.27263349294662476,0.749812662601471,-1.142454981803894,-3.0000011920928955,-0.2328796088695526,-0.2384020984172821,-0.20907102525234222,-0.17965282499790192,0.2296019345521927,0.12525399029254913,0.05908582732081413,-0.01684913970530033
0.55,-0.040667299181222916,-0.0007727525662630796,0.0,0.6783952116966248,0.0,0.0,-0.734697163105011,0.3696573078632355,-0.5590784549713135,0.0,0.0,0.0,-3.8248302936553955,0.3380478620529175,0.712324321269989,0.4420381784439087,0.462291955947876,-0.10730811208486557,-0.10469745844602585,-0.8739619255065918,3.270482063293457,-2.5539350509643555,-0.988277018070221,-1.378073811531067,3.447263479232788,-4.803426265716553,0.33702969551086426,0.719388484954834,0.4471830725669861,3.322014331817627,-2.4805855751037598,-1.051550030708313,0.4452422261238098,0.631136417388916,0.42000001668930054,-0.25845417380332947,0.9265172481536865,-1.1924771070480347,-3.0000011920928955,-0.2230711579322815,-0.23076686263084412,-0.2042979896068573,-0.17775322496891022,0.5370907187461853,0.46521368622779846,0.2763797342777252,0.0830492451786995
0.5666666666666667,-0.032797858119010925,-0.004999128635972738,0.0,0.6732076406478882,0.0,0.0,-0.7394534945487976,0.5205168128013611,-0.2226318120956421,0.0,0.0,0.0,0.094175323843956,0.3869604170322418,0.6720407605171204,0.4254711866378784,0.4289572238922119,-0.10883299261331558,-0.07286526262760162,-0.893779456615448,2.4878742694854736,-2.159052610397339,-0.9882993698120117,30.864953994750977,2.2782206535339355,-5.827317714691162,0.3861485719680786,0.6779947280883789,0.4298492670059204,2.438059091567993,-2.1164650917053223,-0.36462730169296265,0.4452422261238098,0.631136417388916,0.42000001668930054,-0.24324442446231842,0.7889597415924072,-1.1586931943893433,2.9924228191375732,-0.21719084680080414,-0.2251715213060379,-0.20195552706718445,-0.17879055440425873,0.47331634163856506,0.4357876777648926,0.1837051659822464,-0.06499683111906052
0.5833333333333334,-0.026717007160186768,-0.006350321229547262,0.0,0.6589447259902954,0.0,0.0,-0.7521913647651672,0.2992643117904663,-0.02592151239514351,0.0,0.0,0.0,-3.181260824203491,0.4194842278957367,0.6468452215194702,0.42480388283729553,0.4136064052581787,-0.10066736489534378,-0.04155834764242172,-0.9039185047149658,1.4411935806274414,-1.4733905792236328,0.08112098276615143,2.324474811553955,8.191389083862305,4.91572380065918,0.4178178310394287,0.6522213220596313,0.42919060587882996,1.5489985942840576,-1.3000214099884033,0.05583902820944786,0.4452422261238098,0.631136417388916,0.42000001668930054,-0.23674233257770538,0.21568243205547333,-1.181379795074463,-2.999762535095215,-0.20831340551376343,-0.2171240895986557,-0.19872355461120605,-0.18015234172344208,0.5603008270263672,0.5180586576461792,0.21206320822238922,-0.0788188949227333
0.6,-0.02033272571861744,-0.004470609128475189,0.0,0.6581618785858154,0.0,0.0,-0.7528764605522156,0.41427648067474365,0.1823452115058899,0.0,0.0,0.0,0.7771061658859253,0.4393996298313141,0.6266486644744873,0.4230840802192688,0.41983526945114136,-0.07624927908182144,-0.03437931463122368,-0.9037379622459412,0.8710050582885742,-0.9879751801490784,-0.05700676515698433,-0.9142264127731323,-2.2107818126678467,2.534771203994751,0.43728113174438477,0.6313763856887817,0.4272370934486389,0.8113045692443848,-1.0543663501739502,-0.09950591623783112,0.4452422261238098,0.631136417388916,0.42000001668930054,-0.22904421389102936,0.6893134713172913,-1.1435561180114746,3.0000007152557373,-0.19916720688343048,-0.20859090983867645,-0.19541220366954803,-0.1817740648984909,0.5757878422737122,0.5376899242401123,0.2150268405675888,-0.08875147253274918
0.6166666666666667,-0.010976548306643963,-0.007965738885104656,0.0,0.6455540060997009,0.0,0.0,-0.763714611530304,0.6180250644683838,-0.34254997968673706,0.0,0.0,0.0,-3.03065824508667,0.45057550072669983,0.6181639432907104,0.42211729288101196,0.447992205619812,-0.050272464752197266,-0.024939998984336853,-0.8922743201255798,0.4851178228855133,-0.22533854842185974,-0.028996728360652924,-0.37808942794799805,-1.6152698993682861,10.05797004699707,0.447795569896698,0.6224337220191956,0.42554935812950134,0.36753350496292114,-0.23546427488327026,-0.05974441021680832,0.4452422261238098,0.631136417388916,0.42000001668930054,-0.23398064076900482,-1.014668583869934,-1.0935301780700684,3.000000476837158,-0.1841234564781189,-0.19467175006866455,-0.1878390908241272,-0.1801093965768814,0.9552517533302307,0.9215275645256042,0.5380314588546753,0.1800422966480255
0.6333333333333333,-0.000555094622541219,-0.00745832733809948,0.0,0.6449429392814636,0.0,0.0,-0.7642307281494141,0.6384389996528625,0.17665952444076538,0.0,0.0,0.0,0.8452436923980713,0.45498934388160706,0.61541348695755,0.42054855823516846,0.4834580421447754,-0.011332125402987003,-0.006771556101739407,-0.8752679228782654,0.14091940224170685,-0.12311743199825287,-0.09379826486110687,4.2244086265563965,-2.861851453781128,3.703533172607422,0.45077812671661377,0.6195334196090698,0.4248430132865906,0.06789710372686386,-0.07379060238599777,0.14087943732738495,0.4452422261238098,0.631136417388916,0.42000001668930054,-0.26327067613601685,-2.355808734893799,-1.1164796352386475,-2.9999518394470215,-0.17300909757614136,-0.1834622025489807,-0.1820344626903534,-0.17938122153282166,0.5957276225090027,0.6008952856063843,0.29858723282814026,0.013963447883725166
0.65,0.01200082991272211,-0.009024464525282383,0.0,0.6657278537750244,0.0,0.0,-0.7461946606636047,0.8001006841659546,-0.12554429471492767,0.0,0.0,0.0,4.176609039306641,0.4558435380458832,0.6141955256462097,0.4199995994567871,0.49649250507354736,2.2121635993244126e-05,-2.3397227778332308e-05,-0.868040919303894,-0.08355724811553955,-0.030584299936890602,-0.0008287730743177235,-0.004105976317077875,0.04641277343034744,0.7870222330093384,0.4500054121017456,0.6191329956054688,0.42722803354263306,-0.1635615974664688,0.011330360546708107,0.13434554636478424,0.4452422261238098,0.631136417388916,0.42000001668930054,-0.3125898241996765,-2.9999947547912598,-1.1664577722549438,-2.9989428520202637,-0.16194117069244385,-0.17244413495063782,-0.1757287085056305,-0.17751473188400269,0.4659920930862427,0.497690886259079,0.2741587162017822,0.06208566948771477
0.6666666666666666,0.02204195037484169,-0.008729451335966587,0.0,0.6727256178855896,0.0,0.0,-0.7398920655250549,0.5252867937088013,0.07908887416124344,0.0,0.0,0.0,0.0981646180152893,0.4553534984588623,0.6140308380126953,0.4200001060962677,0.5007017254829407,-4.658806176394137e-07,-5.278327080304734e-06,-0.8656198978424072,-0.009885293431580067,-0.003296402981504798,-0.00017275719437748194,0.005859913304448128,0.0060799866914749146,0.39341050386428833,0.44970232248306274,0.6212559342384338,0.43001121282577515,-0.0017083212733268738,0.2002028524875641,0.20017540454864502,0.4452422261238098,0.631136417388916,0.42000001668930054,-0.3626067638397217,-3.0,-1.216421365737915,-2.9991674423217773,-0.15395978093147278,-0.16429291665554047,-0.1710858941078186,-0.17612479627132416,0.488329142332077,0.4919068217277527,0.3028704524040222,0.12853102385997772
0.6833333333333333,0.03216824680566788,-0.011106355115771294,0.0,0.6891747713088989,0.0,0.0,-0.7245951294898987,0.6431344151496887,-0.20458169281482697,0.0,0.0,0.0,3.506953477859497,0.4539611339569092,0.6142438650131226,0.4200197160243988,0.502379298210144,0.00023629714269191027,-0.00042226407094858587,-0.8646472096443176,-0.20153385400772095,0.02616475708782673,0.004605427384376526,-0.10792028158903122,-0.22158408164978027,-0.4507807493209839,0.4469156861305237,0.6219984292984009,0.43397483229637146,-0.2931859493255615,-0.06420651078224182,0.3017752170562744,0.4452422261238098,0.631136417388916,0.42000001668930054,-0.4126271605491638,-2.9999988079071045,-1.2664283514022827,-2.999938726425171,-0.14753274619579315,-0.15683935582637787,-0.16529856622219086,-0.17176306247711182,0.26264122128486633,0.3756570518016815,0.354243665933609,0.3458910584449768
0.7,0.044068433344364166,-0.016755346208810806,0.0,0.692558765411377,0.0,0.0,-0.7213614583015442,0.7457612156867981,-0.38766995072364807,0.0,0.0,0.0,-0.43852564692497253,0.45156171917915344,0.6145496964454651,0.4199998676776886,0.49997732043266296,5.3832941375731025e-06,-8.365209396288265e-06,-0.8660383820533752,-0.12291063368320465,0.0156633872538805,-0.00010425853542983532,0.0018406856106594205,0.004391350317746401,-0.3087176978588104,0.4470474123954773,0.6215008497238159,0.4398648142814636,0.1568349301815033,-0.07939059287309647,0.3871825337409973,0.4452422261238098,0.631136417388916,0.42000001668930054,-0.46264126896858215,-2.999999523162842,-1.3164397478103638,-2.9999988079071045,-0.14508651196956635,-0.15199688076972961,-0.15981966257095337,-0.16541089117527008,0.09891558438539505,0.2609466016292572,0.3416195809841156,0.43621906638145447
0.7166666666666667,0.05777363106608391,-0.02540341205894947,0.0,0.674819827079773,0.0,0.0,-0.7379825115203857,0.8557785153388977,-0.606224000453949,0.0,0.0,0.0,-3.7777953147888184,0.4505051076412201,0.6146835684776306,0.4200000464916229,0.4987385869026184,-1.9698914854870964e-07,-1.0524145110935024e-08,-0.8667523860931396,-0.04189598560333252,0.005155518651008606,-1.8496939446777105e-06,-2.6960691684507765e-05,-7.162248948588967e-05,-0.13966552913188934,0.4566572606563568,0.6216845512390137,0.45456796884536743,0.9214714169502258,0.053315382450819016,1.4640815258026123,0.4452422261238098,0.631136417388916,0.42000001668930054,-0.5126538276672363,-2.999990701675415,-1.3664580583572388,-3.000000238418579,-0.14634910225868225,-0.15037532150745392,-0.1563178300857544,-0.15983489155769348,-0.15461856126785278,0.021925650537014008,0.15626400709152222,0.2998347878456116
0.7333333333333333,0.0753738060593605,-0.02874634601175785,0.0,0.6346127390861511,0.0,0.0,-0.7728303074836731,1.135409951210022,-0.06835217028856277,0.0,0.0,0.0,-7.438477993011475,0.4504603147506714,0.6146891713142395,0.41999995708465576,0.49864858388900757,-2.6476782295503654e-06,-4.580705990520073e-06,-0.8668042421340942,-0.00011408471618779004,-0.00017233438848052174,-3.101862967014313e-05,0.0026163014117628336,-0.0051415348425507545,-0.0006485056364908814,0.48103630542755127,0.616327702999115,0.4840810298919678,2.076103448867798,-0.6876179575920105,2.2277188301086426,0.4452422261238098,0.631136417388916,0.42000001668930054,-0.5626626014709473,-2.999748945236206,-1.4164763689041138,-2.99995756149292,-0.15791058540344238,-0.15747390687465668,-0.15947318077087402,-0.1590586006641388,-0.8804750442504883,-0.5783758759498596,-0.29543834924697876,-0.018269825726747513
0.75,0.0887896865606308,-0.029371118173003197,0.0,0.6081807613372803,0.0,0.0,-0.793798565864563,0.7358806133270264,-0.11815168708562851,0.0,0.0,0.0,-2.824836015701294,0.450460284948349,0.6146892309188843,0.41999995708465576,0.49864861369132996,-1.7301410935033346e-06,-4.917079422739334e-06,-0.8668041825294495,-9.259934813599102e-06,-0.00033546501072123647,-6.165402010083199e-05,0.009416877292096615,-0.003646049415692687,-0.000992906978353858,0.5137208700180054,0.6110286712646484,0.52405846118927,1.8719804286956787,-0.12241268157958984,2.5268654823303223,0.4452422261238098,0.631136417388916,0.42000001668930054,-0.5830426216125488,0.27982085943222046,-1.4664946794509888,-2.9999990463256836,-0.16588397324085236,-0.16322559118270874,-0.16236673295497894,-0.15916575491428375,-0.18612885475158691,-0.15814918279647827,-0.08595703542232513,-0.016568247228860855
0.7666666666666666,0.09751422703266144,-0.029396357014775276,0.0,0.6087117195129395,0.0,0.0,-0.7933914661407471,0.44379299879074097,0.04860701411962509,0.0,0.0,0.0,0.9834871292114258,0.450460284948349,0.6146891713142395,0.41999995708465576,0.4986485242843628,-1.9192139006918296e-06,-5.080220034869853e-06,-0.8668041825294495,-8.830932529235724e-06,-0.00033510441426187754,-6.150035187602043e-05,0.009409565478563309,-0.0036399809177964926,-0.0009921956807374954,0.5390891432762146,0.6106806993484497,0.5605539083480835,1.1192299127578735,0.08290491253137589,1.9162352085113525,0.4452422261238098,0.631136417388916,0.42000001668930054,-0.5571450591087341,2.6041479110717773,-1.4577785730361938,2.999997854232788,-0.1670154631137848,-0.1642274707555771,-0.16251154243946075,-0.15854257345199585,0.0394885390996933,0.0267978273332119,0.055436454713344574,0.07573523372411728
0.7833333333333333,0.10163110494613647,-0.02704278752207756,0.0,0.6020961403846741,0.0,0.0,-0.7984235882759094,0.19087497889995575,0.21606673300266266,0.0,0.0,0.0,-2.088775634765625,0.4504602551460266,0.6146891713142395,0.41999995708465576,0.49864843487739563,-1.917532017614576e-06,-5.167669769434724e-06,-0.8668042421340942,-1.1171496225870214e-05,-0.00033530924702063203,-6.162282079458237e-05,0.009413445368409157,-0.003637092188000679,-0.000988127663731575,0.5507611036300659,0.6151065230369568,0.5864801406860352,0.2275223731994629,0.40281736850738525,1.3308982849121094,0.4452422261238098,0.631136417388916,0.42000001668930054,-0.5091721415519714,2.9999935626983643,-1.4077259302139282,2.9999988079071045,-0.1647358536720276,-0.16270652413368225,-0.1610657423734665,-0.1573026031255722,0.16859784722328186,0.11228717118501663,0.09341306984424591,0.06432948261499405
0.8,0.10213562846183777,-0.02824084274470806,0.0,0.6072585582733154,0.0,0.0,-0.7945042252540588,0.002166546881198883,-0.15554934740066528,0.0,0.0,0.0,1.6010311841964722,0.4504602551460266,0.6146891713142395,0.41999995708465576,0.49864837527275085,-1.8648579498403706e-06,-4.866613835474709e-06,-0.8668043613433838,-7.541992999904323e-06,-0.0003349311009515077,-6.141327321529388e-05,0.00940607488155365,-0.0036453388165682554,-0.0009944293415173888,0.5462549924850464,0.6224230527877808,0.6049177646636963,-0.7601081132888794,0.5095111727714539,0.9059646129608154,0.4452422261238098,0.631136417388916,0.42000001668930054,-0.45923492312431335,2.9767208099365234,-1.3576732873916626,2.999999523162842,-0.16039356589317322,-0.15911027789115906,-0.1577042192220688,-0.1544281244277954,0.24990758299827576,0.21742551028728485,0.20948158204555511,0.18240247666835785
0.8166666666666667,0.1002129316329956,-0.024611366912722588,0.0,0.5996920466423035,0.0,0.0,-0.800230860710144,-0.16736437380313873,0.3558824956417084,0.0,0.0,0.0,-2.140991687774658,0.450460284948349,0.6146892309188843,0.41999995708465576,0.4986487329006195,-1.7641209524299484e-06,-4.872241333941929e-06,-0.8668041229248047,-1.0642213965184055e-05,-0.00033553270623087883,-6.172363646328449e-05,0.00941755622625351,-0.003636319423094392,-0.0009897274430841208,0.5270090103149414,0.6306461095809937,0.6134523153305054,-1.4583923816680908,0.4998849630355835,0.29842081665992737,0.4452422261238098,0.631136417388916,0.42000001668930054,-0.42889171838760376,0.8269253373146057,-1.307620644569397,3.000000476837158,-0.16130831837654114,-0.15971332788467407,-0.15768451988697052,-0.15416865050792694,-0.11825454980134964,-0.08652383089065552,-0.03936285153031349,-0.015498711727559566
0.8333333333333334,0.10117896646261215,-0.02414962276816368,0.0,0.6045933365821838,0.0,0.0,-0.7965342998504639,0.14207527041435242,-0.08871869742870331,0.0,0.0,0.0,1.6892704963684082,0.450460284948349,0.6146891713142395,0.41999995708465576,0.4986484944820404,-1.8361416778134299e-06,-4.753327630169224e-06,-0.8668041825294495,-6.6013917603413574e-06,-0.00033505301689729095,-6.139441393315792e-05,0.009410340338945389,-0.003650654572993517,-0.0009966668440029025,0.5037107467651367,0.6388264894485474,0.6171548962593079,-1.3728899955749512,0.5200663208961487,0.16726097464561462,0.4452422261238098,0.631136417388916,0.42000001668930054,-0.4135124683380127,0.9904271960258484,-1.2576175928115845,3.000000238418579,-0.15980224311351776,-0.15822510421276093,-0.15600888431072235,-0.15266962349414825,0.1837567687034607,0.16206079721450806,0.14962345361709595,0.11640670150518417
0.85,0.10079994797706604,-0.02431333437561989,0.0,0.5995643138885498,0.0,0.0,-0.8003265857696533,-0.052179787307977676,-0.07724616676568985,0.0,0.0,0.0,-1.5381170511245728,0.450460284948349,0.6146892309188843,0.41999995708465576,0.49864858388900757,-1.7275694972340716e-06,-4.816419732378563e-06,-0.8668041825294495,-1.0873189239646308e-05,-0.0003358147805556655,-6.179208867251873e-05,0.009424962103366852,-0.0036406952422112226,-0.000990536529570818,0.4830893874168396,0.6459255218505859,0.6134194135665894,-1.0542755126953125,0.3455289304256439,-0.3988322913646698,0.4452422261238098,0.631136417388916,0.42000001668930054,-0.4326245188713074,-2.9263951778411865,-1.2075682878494263,3.0,-0.1615368276834488,-0.15945006906986237,-0.15658284723758698,-0.15291562676429749,-0.13366922736167908,-0.09269483387470245,-0.042697496712207794,-0.008450821042060852
0.8666666666666667,0.10184091329574585,-0.027317224070429802,0.0,0.6060276627540588,0.0,0.0,-0.795443594455719,0.09055490791797638,-0.28302517533302307,0.0,0.0,0.0,1.8598260879516602,0.450460284948349,0.6146891713142395,0.41999995708465576,0.4986484944820404,-1.7496965938335052e-06,-5.093599156680284e-06,-0.8668041825294495,-9.024656719702762e-06,-0.0003351485065650195,-6.153108552098274e-05,0.009410236962139606,-0.0036390137393027544,-0.0009919885778799653,0.47085249423980713,0.6499267816543579,0.6070548892021179,-0.412776917219162,0.1751859188079834,-0.3206869065761566,0.4452422261238098,0.631136417388916,0.42000001668930054,-0.46646320819854736,-1.2505085468292236,-1.2289270162582397,-3.0,-0.16496573388576508,-0.16154420375823975,-0.15717357397079468,-0.1522081047296524,-0.14015920460224152,-0.05829931050539017,0.03687746450304985,0.126140296459198
0.8833333333333333,0.10498220473527908,-0.03365970402956009,0.0,0.6005691289901733,0.0,0.0,-0.7995728254318237,0.23261378705501556,-0.43244418501853943,0.0,0.0,0.0,-1.7216777801513672,0.450460284948349,0.6146891713142395,0.41999995708465576,0.4986482560634613,-1.9417736893956317e-06,-5.1443130359984934e-06,-0.866804301738739,-9.262599633075297e-06,-0.0003352685016579926,-6.153993308544159e-05,0.009414095431566238,-0.0036451935302466154,-0.0009921398013830185,0.47022539377212524,0.6500148177146912,0.5981320142745972,0.2960526645183563,-0.17441287636756897,-0.5258587598800659,0.4452422261238098,0.631136417388916,0.42000001668930054,-0.5107713937759399,-2.9999823570251465,-1.1923902034759521,3.000000476837158,-0.16812698543071747,-0.16319623589515686,-0.15704436600208282,-0.15030109882354736,-0.19991561770439148,-0.09643134474754333,0.023467525839805603,0.14584869146347046
0.9,0.11095259338617325,-0.037573739886283875,0.0,0.5745619535446167,0.0,0.0,-0.8184610605239868,0.41211745142936707,-0.16273055970668793,0.0,0.0,0.0,-4.733853340148926,0.4504602551460266,0.6146891713142395,0.41999995708465576,0.4986485242843628,-1.9167925984220346e-06,-5.222872459853534e-06,-0.8668041825294495,-1.0906197530857753e-05,-0.00033527699997648597,-6.159860640764236e-05,0.009413041174411774,-0.0036384526174515486,-0.0009885436156764627,0.4792923927307129,0.645092248916626,0.5910878777503967,0.744157075881958,-0.40294671058654785,-0.16853564977645874,0.4452422261238098,0.631136417388916,0.42000001668930054,-0.5402100682258606,-0.7076001167297363,-1.2139863967895508,-2.9999990463256836,-0.17181308567523956,-0.1658523827791214,-0.15839149057865143,-0.15023964643478394,-0.20290197432041168,-0.1677909642457962,-0.11925619840621948,-0.06493186205625534
0.9166666666666666,0.1195702850818634,-0.037420906126499176,0.0,0.5645608305931091,0.0,0.0,-0.8253914713859558,0.5519852638244629,0.08002043515443802,0.0,0.0,0.0,-0.465070515871048,0.450460284948349,0.6146891713142395,0.41999995708465576,0.49864843487739563,-1.9146214071952272e-06,-5.196206529944902e-06,-0.8668043613433838,-1.0432720046082977e-05,-0.00033500930294394493,-6.151152774691582e-05,0.009406624361872673,-0.0036362234968692064,-0.0009884994942694902,0.4912733733654022,0.6417331099510193,0.5900040864944458,0.665605902671814,-0.07607502490282059,-0.01287725381553173,0.4452422261238098,0.631136417388916,0.42000001668930054,-0.5295795798301697,1.7602466344833374,-1.2640085220336914,-3.000000476837158,-0.17395547032356262,-0.16810965538024902,-0.1605832874774933,-0.15226511657238007,-0.05361786112189293,-0.09439291059970856,-0.12873008847236633,-0.1584623008966446
