vladlanda/robotic-transformer/data/env_000_episode_0279.csv
sim_time_s,robot_box_x,robot_box_y,robot_box_z,robot_box_quat_w,robot_box_quat_x,robot_box_quat_y,robot_box_quat_z,robot_box_linvel_x,robot_box_linvel_y,robot_box_linvel_z,robot_box_angvel_x,robot_box_angvel_y,robot_box_angvel_z,cube_world_x,cube_world_y,cube_world_z,cube_quat_w,cube_quat_x,cube_quat_y,cube_quat_z,cube_linvel_x,cube_linvel_y,cube_linvel_z,cube_angvel_x,cube_angvel_y,cube_angvel_z,endpoint_world_x,endpoint_world_y,endpoint_world_z,endpoint_linvel_x,endpoint_linvel_y,endpoint_linvel_z,target_cube_world_x,target_cube_world_y,target_cube_world_z,gripper_actual_pos_rad_gp_leftgearjoint,gripper_actual_vel_rad_s_gp_leftgearjoint,gripper_actual_pos_rad_gp_rotatingjoint,gripper_actual_vel_rad_s_gp_rotatingjoint,motor_angle_rad_joint1,motor_angle_rad_joint2,motor_angle_rad_joint3,motor_angle_rad_joint4,motor_speed_rad_s_joint1,motor_speed_rad_s_joint2,motor_speed_rad_s_joint3,motor_speed_rad_s_joint4
0.0,0.0,0.0,0.0,1.0,0.0,0.0,0.0,0.0,0.0,0.0,0.0,0.0,0.0,-0.413794606924057,0.6437719464302063,0.41999998688697815,1.0,0.0,0.0,0.0,0.0,0.0,0.0,0.0,0.0,0.0,3.42540442943573e-06,-0.005000244826078415,1.313499927520752,0.0,0.0,0.0,0.3483835756778717,0.7106767296791077,0.42000001668930054,-1.5707999467849731,0.0,0.0,0.0,0.0,0.0,0.0,0.0,0.0,0.0,0.0,0.0
0.016666666666666666,0.0028778850100934505,0.0021806680597364902,0.0,0.9998081922531128,0.0,0.0,0.019586581736803055,0.24087215960025787,0.18240931630134583,0.0,0.0,0.0,3.1418697834014893,-0.41379472613334656,0.6437716484069824,0.41999998688697815,1.0,3.2799914606584935e-06,-8.339814598912199e-07,8.465387679734704e-08,-1.9833554688375443e-05,0.00017983050202019513,-6.133061833679676e-05,0.0009432226070202887,-0.004689437802881002,-0.0003198152990080416,-0.007110234349966049,0.003379564033821225,1.3159373998641968,-0.8143353462219238,0.9868683815002441,0.18095196783542633,0.3483835756778717,0.7106767296791077,0.42000001668930054,-1.5301095247268677,3.0000011920928955,-0.04584788903594017,-2.9999992847442627,0.0008691533003002405,0.0007963840034790337,0.0007110277656465769,0.0006108740926720202,0.11094217747449875,0.09756709635257721,0.08334315568208694,0.06823883205652237
0.03333333333333333,0.008960952050983906,0.006801812443882227,0.0,0.9997960329055786,0.0,0.0,0.02019682712852955,0.4070183336734772,0.3153040111064911,0.0,0.0,0.0,-0.8691299557685852,-0.4137948453426361,0.6437715888023376,0.4200000464916229,1.0,3.390914116607746e-06,-2.132455392711563e-06,-3.71076644967161e-08,0.0002635782293509692,0.00026937935035675764,-0.00010509486310184002,-0.001770757487975061,0.0041308156214654446,-0.00013547815615311265,-0.02754182368516922,0.025788988918066025,1.3166592121124268,-1.5911412239074707,1.602609395980835,-0.07751671224832535,0.3483835756778717,0.7106767296791077,0.42000001668930054,-1.4800903797149658,3.0000016689300537,-0.09588771313428879,-3.0,0.0029902029782533646,0.002652853261679411,0.002277460414916277,0.0018609504913911223,0.16423042118549347,0.139777272939682,0.11383923143148422,0.08632420003414154
0.05,0.017723219469189644,0.013766933232545853,0.0,0.9993847012519836,0.0,0.0,0.03507425636053085,0.5932769775390625,0.46487125754356384,0.0,0.0,0.0,2.652168035507202,-0.4137948751449585,0.6437716484069824,0.4200000464916229,1.0,3.7652293940482195e-06,-2.2118967990536476e-06,5.613899567435965e-09,0.000265309150563553,0.0002669153909664601,-0.0001044049859046936,-0.00172426737844944,0.004177379421889782,-0.0001294983085244894,-0.059652552008628845,0.05322052538394928,1.311842918395996,-2.1872055530548096,1.7221935987472534,-0.46060848236083984,0.3483835756778717,0.7106767296791077,0.42000001668930054,-1.4300720691680908,3.000001907348633,-0.1459263563156128,-3.000001907348633,0.005700557492673397,0.0049090879037976265,0.004045481327921152,0.0031050776597112417,0.19277751445770264,0.15587463974952698,0.11709737032651901,0.07635795325040817
0.06666666666666667,0.02902981825172901,0.023057058453559875,0.0,0.9994553923606873,0.0,0.0,0.03299899771809578,0.7198411226272583,0.5950127840042114,0.0,0.0,0.0,-1.2073442935943604,-0.4137948751449585,0.6437715888023376,0.4200000464916229,0.9999999403953552,3.4068445984303253e-06,-2.2855729184811935e-06,4.300823945868615e-07,0.000267024093773216,0.0002679175231605768,-0.0001043803058564663,-0.0017406325787305832,0.004211729858070612,-0.00012850853090640157,-0.09829513728618622,0.08661478757858276,1.2995984554290771,-2.463360071182251,2.1714067459106445,-0.9836127161979675,0.3483835756778717,0.7106767296791077,0.42000001668930054,-1.3800500631332397,2.999997854232788,-0.18453969061374664,-1.7091747522354126,0.008305756375193596,0.0068321991711854935,0.005247292574495077,0.0035466861445456743,0.15409156680107117,0.10383449494838715,0.05155517905950546,-0.0028615181799978018
0.08333333333333333,0.04355061799287796,0.03447091951966286,0.0,0.9999962449073792,0.0,0.0,0.0027425973676145077,0.9373050332069397,0.7269608974456787,0.0,0.0,0.0,-4.529430389404297,-0.4137948751449585,0.6437715888023376,0.4200000464916229,0.9999999403953552,3.6261940294934902e-06,-2.335324097657576e-06,3.032077131592814e-07,0.00026613869704306126,0.00026684990734793246,-0.00010405178181827068,-0.0017283851047977805,0.004196336027234793,-0.00012790512118954211,-0.1387125551700592,0.12663888931274414,1.2805569171905518,-2.4269070625305176,2.504319429397583,-1.299499273300171,0.3483835756778717,0.7106767296791077,0.42000001668930054,-1.3300279378890991,2.9999985694885254,-0.19366346299648285,0.43870651721954346,0.010181167162954807,0.007766274735331535,0.005198716185986996,0.0024763515684753656,0.09277872741222382,0.028007563203573227,-0.03882540389895439,-0.10780467092990875
0.1,0.05280342698097229,0.04649849608540535,0.0,0.9999411106109619,0.0,0.0,-0.010855087079107761,0.4272327423095703,0.713979959487915,0.0,0.0,0.0,-0.6387677192687988,-0.4137948751449585,0.6437715888023376,0.4200000464916229,1.0,3.4221902751596645e-06,-2.308589955646312e-06,1.7962148035621794e-07,0.0002668164379429072,0.00026800547493621707,-0.00010440824553370476,-0.0017430244479328394,0.0042070322670042515,-0.00012891182268504053,-0.18093520402908325,0.16364717483520508,1.2566437721252441,-2.4737915992736816,2.2222609519958496,-1.4992034435272217,0.3483835756778717,0.7106767296791077,0.42000001668930054,-1.280020833015442,3.0000014305114746,-0.23768837749958038,-2.999999523162842,0.006055343430489302,0.0028507395181804895,-0.0005508239264599979,-0.004156193230301142,-0.3554856479167938,-0.4084162414073944,-0.4634011685848236,-0.5207518339157104
0.11666666666666667,0.05673615261912346,0.059947382658720016,0.0,0.9992944598197937,0.0,0.0,-0.037557296454906464,0.42227813601493835,0.8400641083717346,0.0,0.0,0.0,-3.5122125148773193,-0.4137948751449585,0.6437716484069824,0.4200000464916229,1.0,3.7115696613909677e-06,-2.3326665541389957e-06,2.5742116349647404e-07,0.00026485652779228985,0.0002663531631696969,-0.00010423525236546993,-0.0017182076117023826,0.004170072730630636,-0.00012915638217236847,-0.2198043167591095,0.20637519657611847,1.2288295030593872,-2.231166362762451,2.9118270874023438,-1.6535080671310425,0.3483835756778717,0.7106767296791077,0.42000001668930054,-1.2299925088882446,2.9999966621398926,-0.20369938015937805,3.000000476837158,-0.0009676837944425642,-0.005317960865795612,-0.009869623929262161,-0.014634470455348492,-0.05775688961148262,-0.18900297582149506,-0.31619080901145935,-0.43923071026802063
0.13333333333333333,0.061332687735557556,0.07170505821704865,0.0,0.9962455034255981,0.0,0.0,-0.08657275140285492,0.2207651138305664,0.6471461653709412,0.0,0.0,0.0,-6.716226100921631,-0.4137948751449585,0.6437715888023376,0.4200000464916229,1.0,3.33580555889057e-06,-2.2318915853247745e-06,3.1130230127018876e-07,0.0002666967629920691,0.00026759342290461063,-0.00010428694076836109,-0.0017371419817209244,0.004205943085253239,-0.0001284025638597086,-0.2567247152328491,0.2572173774242401,1.199993371963501,-2.1467885971069336,3.226317882537842,-1.8833829164505005,0.3483835756778717,0.7106767296791077,0.42000001668930054,-1.1814552545547485,2.8013923168182373,-0.23513518273830414,-3.0000007152557373,-0.002992667956277728,-0.009525302797555923,-0.01617598533630371,-0.02295517735183239,-0.1825084239244461,-0.30481070280075073,-0.42193692922592163,-0.5338318347930908
0.15,0.07127781212329865,0.07878844439983368,0.0,0.9931097030639648,0.0,0.0,-0.11718836426734924,0.6008083820343018,0.43281540274620056,0.0,0.0,0.0,-2.3736650943756104,-0.4137948751449585,0.6437715888023376,0.4200000464916229,1.0,3.5190355447412003e-06,-2.283108187839389e-06,-3.6255448776501e-07,0.000266183604253456,0.0002673582639545202,-0.00010425667278468609,-0.0017349626868963242,0.004195743706077337,-0.00012861307186540216,-0.29675784707069397,0.3082807660102844,1.1618783473968506,-2.3358335494995117,3.297300338745117,-2.7294118404388428,0.3483835756778717,0.7106767296791077,0.42000001668930054,-1.1337581872940063,2.8760628700256348,-0.20112304389476776,3.0000009536743164,-0.003035718807950616,-0.011579298414289951,-0.02014140784740448,-0.028732439503073692,-0.24162691831588745,-0.31361448764801025,-0.38198065757751465,-0.4468425512313843
0.16666666666666666,0.07589490711688995,0.08844106644392014,0.0,0.9873409271240234,0.0,0.0,-0.15861234068870544,0.2613237500190735,0.5874513983726501,0.0,0.0,0.0,-5.612476825714111,-0.4137948751449585,0.6437715888023376,0.4200000464916229,1.0,3.666726797746378e-06,-2.339156480957172e-06,-3.150096574700001e-07,0.00026595761300995946,0.0002666733635123819,-0.0001040350180119276,-0.0017252563266083598,0.004192715510725975,-0.00012778647942468524,-0.332213819026947,0.3664056658744812,1.1123859882354736,-1.9002676010131836,3.747868299484253,-3.0400280952453613,0.3483835756778717,0.7106767296791077,0.42000001668930054,-1.0837892293930054,3.0000009536743164,-0.23257631063461304,-3.0000014305114746,-0.013245029374957085,-0.02243424393236637,-0.031604066491127014,-0.040772322565317154,-0.569739580154419,-0.6256711483001709,-0.6778201460838318,-0.726337730884552
0.18333333333333332,0.07844474911689758,0.09556996077299118,0.0,0.9836891293525696,0.0,0.0,-0.17987704277038574,0.11033111065626144,0.3328333795070648,0.0,0.0,0.0,-1.2466669082641602,-0.4137948751449585,0.6437715888023376,0.4200000464916229,1.0,3.814431011051056e-06,-2.3995532956178067e-06,-2.702744552607328e-07,0.0002654912241268903,0.000266111281234771,-0.00010391324758529663,-0.001717864186502993,0.00418497622013092,-0.00012754154158756137,-0.3661571145057678,0.4243513345718384,1.0541114807128906,-1.8442637920379639,3.5009756088256836,-3.9031894207000732,0.3483835756778717,0.7106767296791077,0.42000001668930054,-1.0355144739151,2.77148175239563,-0.2826046347618103,-2.9999988079071045,-0.023752091452479362,-0.033368900418281555,-0.04290914162993431,-0.05239860713481903,-0.6699255108833313,-0.6718926429748535,-0.6711235046386719,-0.6682315468788147
0.2,0.07726576924324036,0.10333605110645294,0.0,0.9777107238769531,0.0,0.0,-0.20995667576789856,-0.13630996644496918,0.5059335231781006,0.0,0.0,0.0,-4.503021240234375,-0.4137948751449585,0.6437715888023376,0.4200000464916229,1.0,3.6001690659759333e-06,-2.291307964696898e-06,-2.2020600454197847e-07,0.0002657303411979228,0.0002664489147718996,-0.00010397983714938164,-0.0017226878553628922,0.004188837017863989,-0.0001277351111639291,-0.3953407406806946,0.4833231568336487,0.9819693565368652,-1.5249016284942627,3.5162038803100586,-4.661137104034424,0.3483835756778717,0.7106767296791077,0.42000001668930054,-0.9855804443359375,2.9999990463256836,-0.3326321244239807,-2.999999761581421,-0.03804560750722885,-0.04732194170355797,-0.056482430547475815,-0.06556552648544312,-0.9269643425941467,-0.893875777721405,-0.858834445476532,-0.8225600123405457
0.21666666666666667,0.08052422851324081,0.11302617192268372,0.0,0.9634189605712891,0.0,0.0,-0.2679998576641083,0.26638591289520264,0.6357768774032593,0.0,0.0,0.0,-8.074481010437012,-0.4137948751449585,0.6437715888023376,0.4200000464916229,0.9999999403953552,3.6397284475242486e-06,-2.2620708932663547e-06,2.2246081243793014e-07,0.0002668728702701628,0.0002675432479009032,-0.00010411837138235569,-0.001740393927320838,0.004211096093058586,-0.00012783710553776473,-0.41761893033981323,0.5448421239852905,0.895988941192627,-0.9769687652587891,3.668445348739624,-5.501861572265625,0.3483835756778717,0.7106767296791077,0.42000001668930054,-0.9355697631835938,3.000002145767212,-0.3826620280742645,-2.999999523162842,-0.05237212032079697,-0.061146803200244904,-0.06977483630180359,-0.07830483466386795,-0.9386544823646545,-0.8899953365325928,-0.840867280960083,-0.7918649315834045
0.23333333333333334,0.07973384112119675,0.12039957195520401,0.0,0.9515708088874817,0.0,0.0,-0.30742964148521423,-0.08060257881879807,0.4160879850387573,0.0,0.0,0.0,-3.658068895339966,-0.4137948453426361,0.6437715888023376,0.4200000464916229,1.0,3.420801476750057e-06,-2.3169377527665347e-06,2.955712261609733e-07,0.0002668015076778829,0.00026803911896422505,-0.00010442547500133514,-0.0017436784692108631,0.004206907004117966,-0.00012899722787551582,-0.4344596862792969,0.5924574136734009,0.7999832630157471,-0.5581009984016418,2.5193698406219482,-6.011980056762695,0.3483835756778717,0.7106767296791077,0.42000001668930054,-0.88555908203125,2.9999940395355225,-0.4326930642127991,-3.0000016689300537,-0.06873996555805206,-0.07746554166078568,-0.08605089783668518,-0.09414302557706833,-0.8359276056289673,-0.8571693897247314,-0.8778468370437622,-0.8972291350364685
0.25,0.08139244467020035,0.12322791665792465,0.0,0.9503599405288696,0.0,0.0,-0.31115269660949707,0.15372374653816223,0.07978971302509308,0.0,0.0,0.0,0.3896620273590088,-0.4137948751449585,0.6437715888023376,0.4200000464916229,0.9999999403953552,3.347705842315918e-06,-2.2592498680751305e-06,1.8081014729887102e-07,0.0002668780798558146,0.00026791164418682456,-0.00010439660400152206,-0.0017404821701347828,0.004208279773592949,-0.00012870303180534393,-0.4476099908351898,0.6219443082809448,0.7001833319664001,-0.6054278612136841,1.266842246055603,-6.053443908691406,0.3483835756778717,0.7106767296791077,0.42000001668930054,-0.8355487585067749,2.9999945163726807,-0.4827243387699127,-2.9999969005584717,-0.08507741242647171,-0.09361730515956879,-0.10199221223592758,-0.10988182574510574,-0.9918525815010071,-0.9932368993759155,-0.9944698810577393,-0.9814320802688599
0.26666666666666666,0.07931603491306305,0.12314775586128235,0.0,0.9445229768753052,0.0,0.0,-0.32844534516334534,-0.22236333787441254,-0.040349870920181274,0.0,0.0,0.0,-3.073560953140259,-0.4137948751449585,0.6437715888023376,0.4200000464916229,0.9999999403953552,3.535732730597374e-06,-2.300363803442451e-06,-1.2688023787177372e-07,0.0002660173049662262,0.0002671217080205679,-0.00010419590398669243,-0.0017316966550424695,0.004192880820482969,-0.00012849396443925798,-0.44966089725494385,0.6346292495727539,0.5986615419387817,0.32663553953170776,0.2653051018714905,-5.92106819152832,0.3483835756778717,0.7106767296791077,0.42000001668930054,-0.7855399250984192,3.0000033378601074,-0.5327544212341309,-3.000000238418579,-0.10317108780145645,-0.11134643107652664,-0.11944418400526047,-0.1271161437034607,-1.0061674118041992,-1.0046336650848389,-1.003466248512268,-1.0025385618209839
0.2833333333333333,0.07408846914768219,0.1208627000451088,0.0,0.9443506598472595,0.0,0.0,-0.3289405107498169,-0.29135218262672424,-0.19647559523582458,0.0,0.0,0.0,0.8544164896011353,-0.4137948751449585,0.6437716484069824,0.4200000464916229,1.0,3.5934951938543236e-06,-2.2627673388342373e-06,-5.6559382954901594e-08,0.000267045950749889,0.0002677501179277897,-0.00010416517034173012,-0.0017431960441172123,0.004214114975184202,-0.00012789200991392136,-0.44370752573013306,0.6396640539169312,0.5085367560386658,0.4566212296485901,0.3898787498474121,-5.039316177368164,0.3483835756778717,0.7106767296791077,0.42000001668930054,-0.7355311512947083,3.0000011920928955,-0.5827831625938416,-3.0000009536743164,-0.11993703991174698,-0.12816451489925385,-0.13630858063697815,-0.14401179552078247,-1.0136877298355103,-1.010330319404602,-1.0077694654464722,-1.0057255029678345
0.3,0.06744246184825897,0.11605671793222427,0.0,0.939357578754425,0.0,0.0,-0.3429393470287323,-0.4495573043823242,-0.3298990726470947,0.0,0.0,0.0,-2.6456332206726074,-0.4137948453426361,0.6437715888023376,0.4200000464916229,0.9999999403953552,3.7250451896397863e-06,-2.236193722637836e-06,3.828650392279087e-07,0.00026479706866666675,0.0002667299413587898,-0.0001045397948473692,-0.0017188811907544732,0.004166614264249802,-0.0001301660668104887,-0.429716020822525,0.6464109420776367,0.4235689640045166,1.2149301767349243,0.3501131534576416,-4.994414329528809,0.3483835756778717,0.7106767296791077,0.42000001668930054,-0.6855241656303406,2.999999761581421,-0.6328099370002747,-3.000000476837158,-0.13729390501976013,-0.1453528255224228,-0.15336854755878448,-0.1609698086977005,-1.0058828592300415,-1.004461407661438,-1.0033714771270752,-1.0024957656860352
0.31666666666666665,0.05857306718826294,0.10904563218355179,0.0,0.9401791095733643,0.0,0.0,-0.3406805992126465,-0.5709739327430725,-0.4595383405685425,0.0,0.0,0.0,1.2149614095687866,-0.4137948751449585,0.6437715888023376,0.4200000464916229,0.9999999403953552,3.5578473216446582e-06,-2.279046384501271e-06,2.2830596435596817e-07,0.00026598377735354006,0.000266583840129897,-0.00010399054735898972,-0.0017240652814507484,0.0041935318149626255,-0.0001276985858567059,-0.4309388995170593,0.6489512920379639,0.42504292726516724,-0.057182274758815765,0.07197146862745285,-0.21789957582950592,0.3483835756778717,0.7106767296791077,0.42000001668930054,-0.6356008648872375,2.999985456466675,-0.683277428150177,-3.000000476837158,-0.14455339312553406,-0.15211087465286255,-0.15928323566913605,-0.1656530648469925,-0.4701634347438812,-0.41529327630996704,-0.3438897728919983,-0.2549494504928589
0.3333333333333333,0.04743363335728645,0.09983249008655548,0.0,0.9356908202171326,0.0,0.0,-0.35282102227211,-0.7135119438171387,-0.5921192765235901,0.0,0.0,0.0,-2.4740002155303955,-0.4133840501308441,0.6444087624549866,0.42000243067741394,0.9999868273735046,-7.241442744998494e-06,8.863837865646929e-05,-0.0051266285590827465,0.11932709068059921,0.17776614427566528,-0.0026957711670547724,0.01375504955649376,-0.13455581665039062,-2.82675838470459,-0.42892152070999146,0.6501957178115845,0.42172902822494507,0.24926504492759705,0.1354486346244812,-0.17852437496185303,0.3483835756778717,0.7106767296791077,0.42000001668930054,-0.5855957865715027,3.0000014305114746,-0.7333327531814575,-2.999990940093994,-0.15313372015953064,-0.15941070020198822,-0.16500656306743622,-0.16951391100883484,-0.5299010276794434,-0.4340314269065857,-0.3212261199951172,-0.19335775077342987
0.35,0.036482714116573334,0.08832230418920517,0.0,0.9369679093360901,0.0,0.0,-0.3494154214859009,-0.6307088732719421,-0.7306810021400452,0.0,0.0,0.0,1.3713818788528442,-0.4107362926006317,0.64902263879776,0.42000001668930054,0.9979389309883118,-3.777318124775775e-05,2.9918137443019077e-05,-0.06416990607976913,0.2327542006969452,0.41918814182281494,-0.001099679502658546,0.06575119495391846,-0.015049631707370281,-12.423203468322754,-0.42397212982177734,0.6552040576934814,0.4194276034832001,0.3244973421096802,0.5202773213386536,0.037453047931194305,0.3483835756778717,0.7106767296791077,0.42000001668930054,-0.5355892777442932,2.9999513626098633,-0.7833660840988159,-2.9995903968811035,-0.1635199636220932,-0.16754768788814545,-0.1705959290266037,-0.1723209172487259,-0.6110360622406006,-0.4589361548423767,-0.2882407307624817,-0.10377917438745499
0.36666666666666664,0.024379262700676918,0.07467915862798691,0.0,0.9327664375305176,0.0,0.0,-0.36048126220703125,-0.7793110013008118,-0.8579145073890686,0.0,0.0,0.0,-2.3627712726593018,-0.4051770865917206,0.6578162908554077,0.4201587736606598,0.9871990084648132,-0.003956350963562727,0.0003599855990614742,-0.1594434231519699,0.492239385843277,0.7005026340484619,0.0538921020925045,-2.616180181503296,0.6452610492706299,-5.030058860778809,-0.4155418872833252,0.6640918254852295,0.42056524753570557,0.6719167828559875,0.5821610689163208,0.10384930670261383,0.3483835756778717,0.7106767296791077,0.42000001668930054,-0.48553889989852905,2.999898672103882,-0.8333730101585388,-2.9999799728393555,-0.17349644005298615,-0.1747574508190155,-0.17464880645275116,-0.17292824387550354,-0.5316466093063354,-0.36093854904174805,-0.16479980945587158,0.05005504563450813
0.3833333333333333,0.014807387255132198,0.058444008231163025,0.0,0.9175751805305481,0.0,0.0,-0.3975623846054077,-0.49852848052978516,-1.0247759819030762,0.0,0.0,0.0,-5.657299041748047,-0.3918333947658539,0.6746172308921814,0.4214778244495392,0.9774802327156067,-0.0360865592956543,0.005837996024638414,-0.20783667266368866,1.1212077140808105,1.3237775564193726,0.06825307756662369,-1.319353699684143,-3.0401055812835693,-6.24233865737915,-0.4004482924938202,0.6791672706604004,0.42264628410339355,1.2066327333450317,1.221353530883789,0.14155763387680054,0.3483835756778717,0.7106767296791077,0.42000001668930054,-0.4354937970638275,2.992316246032715,-0.8833845257759094,-3.000034809112549,-0.181077241897583,-0.1796114444732666,-0.176289901137352,-0.1709921807050705,-0.3750550448894501,-0.21932314336299896,-0.03471875935792923,0.17132478952407837
0.4,0.009413695894181728,0.03923706337809563,0.0,0.8890393376350403,0.0,0.0,-0.4578307867050171,-0.25457990169525146,-1.2087804079055786,0.0,0.0,0.0,-8.823713302612305,-0.3584883213043213,0.7008954882621765,0.425578236579895,0.9680383801460266,0.007086756639182568,-0.03667666018009186,-0.24800434708595276,2.9046969413757324,2.1105763912200928,0.4396764636039734,4.5896124839782715,-6.631161689758301,-1.8218992948532104,-0.36687588691711426,0.7065750956535339,0.4259231388568878,2.8588263988494873,2.1298279762268066,0.4285937547683716,0.3483835756778717,0.7106767296791077,0.42000001668930054,-0.39247071743011475,1.6853471994400024,-0.846584677696228,3.000002145767212,-0.18919822573661804,-0.18456502258777618,-0.17770197987556458,-0.16863533854484558,-0.5145960450172424,-0.30631542205810547,-0.08168558031320572,0.14991849660873413
0.4166666666666667,0.0060921236872673035,0.024979960173368454,0.0,0.8439019322395325,0.0,0.0,-0.5364974141120911,-0.16127143800258636,-0.7273268699645996,0.0,0.0,0.0,-11.653144836425781,-0.28502124547958374,0.7414725422859192,0.4323071539402008,0.9456024169921875,0.07626594603061676,-0.08278382569551468,-0.30523160099983215,6.0310378074646,2.2649316787719727,0.5169249176979065,12.2407865524292,-13.579534530639648,25.136964797973633,-0.29292458295822144,0.7478600740432739,0.4325856566429138,5.636731147766113,2.9236254692077637,0.5023432970046997,0.3483835756778717,0.7106767296791077,0.42000001668930054,-0.3747018575668335,0.774325430393219,-0.7965552806854248,2.9967596530914307,-0.204131081700325,-0.19579777121543884,-0.1838226020336151,-0.16991610825061798,-0.8977553844451904,-0.7612342834472656,-0.45974424481391907,-0.18572592735290527
0.43333333333333335,0.005625047720968723,0.01694641448557377,0.0,0.8063180446624756,0.0,0.0,-0.5914822220802307,0.01885160803794861,-0.5349732041358948,0.0,0.0,0.0,-6.654867649078369,-0.19228681921958923,0.7804677486419678,0.44276174902915955,0.9007388949394226,0.11313972622156143,-0.11132574826478958,-0.40432077646255493,5.850767612457275,1.4602959156036377,0.8052810430526733,16.52750015258789,-6.660897731781006,24.2113037109375,-0.1991831362247467,0.7889947891235352,0.4427882432937622,5.695123672485352,2.1637730598449707,0.6564358472824097,0.3483835756778717,0.7106767296791077,0.42000001668930054,-0.36323070526123047,0.6935223937034607,-0.8237578868865967,-3.000001907348633,-0.21732479333877563,-0.20956674218177795,-0.19399531185626984,-0.17574861645698547,-0.5235806107521057,-0.6057373285293579,-0.4910123646259308,-0.3038087487220764
0.45,0.0011782299261540174,0.013169159181416035,0.0,0.7883556485176086,0.0,0.0,-0.61521977186203,-0.36182254552841187,-0.1422230750322342,0.0,0.0,0.0,-2.5418167114257812,-0.09518036991357803,0.8042123913764954,0.4544927775859833,0.8302439451217651,0.11774586141109467,-0.13761405646800995,-0.5271558165550232,5.798041820526123,0.2567639946937561,0.7909052968025208,-11.695448875427246,1.6138075590133667,1.9258270263671875,-0.10300269722938538,0.8145491480827332,0.4541260600090027,5.973045825958252,1.0502254962921143,0.8023107647895813,0.3483835756778717,0.7106767296791077,0.42000001668930054,-0.3497893512248993,0.7694793343544006,-0.8737819194793701,-2.9994406700134277,-0.23102538287639618,-0.22261086106300354,-0.2040591686964035,-0.18210746347904205,-0.8225765228271484,-0.742331326007843,-0.5661675333976746,-0.3636534810066223
0.4666666666666667,0.0023394529707729816,0.002741897711530328,0.0,0.7617730498313904,0.0,0.0,-0.6478440165519714,0.1867876648902893,-0.7844432592391968,0.0,0.0,0.0,-6.076802730560303,0.002356402575969696,0.8116194605827332,0.46272221207618713,0.7647334933280945,0.10929057002067566,-0.12827308475971222,-0.6219198107719421,6.101889133453369,-0.7523272633552551,0.617207407951355,-3.0949392318725586,-0.847011148929596,4.994049549102783,-0.004734494723379612,0.8247187733650208,0.4627838730812073,5.808265686035156,-0.007867902517318726,0.46003448963165283,0.3483835756778717,0.7106767296791077,0.42000001668930054,-0.33848899602890015,0.4639240503311157,-0.9238067865371704,-3.000001907348633,-0.2354908138513565,-0.22657616436481476,-0.20628860592842102,-0.1821037232875824,-0.1256670504808426,-0.06339555978775024,0.04414539784193039,0.17272114753723145
0.48333333333333334,0.0015029687201604247,-0.00566997192800045,0.0,0.7466664910316467,0.0,0.0,-0.665198564529419,-0.07994615286588669,-0.4158896803855896,0.0,0.0,0.0,-1.5235480070114136,0.09269727766513824,0.8068544268608093,0.4702819883823395,0.7141779661178589,0.10032420605421066,-0.1253499686717987,-0.6813018321990967,4.786804676055908,-1.1688634157180786,0.5621747970581055,-6.684646129608154,9.828142166137695,14.094595909118652,0.08744904398918152,0.8199794888496399,0.47131577134132385,5.41034460067749,-0.5629295110702515,0.5861673951148987,0.3483835756778717,0.7106767296791077,0.42000001668930054,-0.3307596445083618,0.4391704499721527,-0.973831057548523,-2.9990878105163574,-0.23946015536785126,-0.22918474674224854,-0.20741218328475952,-0.1817087084054947,-0.17425206303596497,-0.11355271190404892,-0.07398253679275513,-0.04378579184412956
0.5,0.0024183541536331177,-0.009801670908927917,0.0,0.7251966595649719,0.0,0.0,-0.6885417699813843,0.1104671061038971,-0.1803603172302246,0.0,0.0,0.0,-4.684054851531982,0.17184728384017944,0.7933452129364014,0.47319334745407104,0.6593177914619446,0.09663037210702896,-0.11948609352111816,-0.7359929084777832,3.8134496212005615,-1.6926606893539429,-8.192146196961403e-05,-4.48972225189209,10.755898475646973,24.92352867126465,0.16732749342918396,0.807579755783081,0.47529250383377075,4.604305267333984,-1.0358476638793945,0.07624927908182144,0.3483835756778717,0.7106767296791077,0.42000001668930054,-0.32207581400871277,0.48821789026260376,-1.023854374885559,-2.998689651489258,-0.2397228330373764,-0.23005223274230957,-0.20829366147518158,-0.18280187249183655,0.04366942495107651,0.010647567920386791,-0.009874234907329082,-0.04904773458838463
0.5166666666666666,0.0058500501327216625,-0.010262858122587204,0.0,0.7172116041183472,0.0,0.0,-0.6968554258346558,0.23801396787166595,0.03354156017303467,0.0,0.0,0.0,-0.34994110465049744,0.23727461695671082,0.7739359736442566,0.46958988904953003,0.6041952967643738,0.07565580308437347,-0.09806828200817108,-0.7871510982513428,3.5194382667541504,-1.2572516202926636,-0.2523234486579895,-2.811312437057495,3.6129448413848877,-10.174105644226074,0.233241468667984,0.787612795829773,0.4720500111579895,3.5022716522216797,-1.4062082767486572,-0.3970310688018799,0.3483835756778717,0.7106767296791077,0.42000001668930054,-0.31322917342185974,0.6245641708374023,-1.0738765001296997,-3.0000011920928955,-0.2381463199853897,-0.22899378836154938,-0.2080031931400299,-0.18367546796798706,0.17831674218177795,0.14262038469314575,0.06733378022909164,-0.03642980009317398
0.5333333333333333,0.012297834269702435,-0.013510026969015598,0.0,0.6997096538543701,0.0,0.0,-0.7144273519515991,0.37236157059669495,-0.20489919185638428,0.0,0.0,0.0,-3.7624709606170654,0.28952085971832275,0.7555102109909058,0.45754024386405945,0.5728631019592285,0.04675323888659477,-0.08254549652338028,-0.8141425848007202,2.663541555404663,-1.3380980491638184,-0.8117030262947083,-2.7507264614105225,4.30789852142334,-0.7424373626708984,0.28590917587280273,0.7680894732475281,0.46035236120224,2.7108874320983887,-1.1964952945709229,-0.904738187789917,0.3483835756778717,0.7106767296791077,0.42000001668930054,-0.2974125146865845,1.081273078918457,-1.1238986253738403,-3.0000011920928955,-0.2302001416683197,-0.22257032990455627,-0.2040081024169922,-0.18252351880073547,0.408346563577652,0.34478437900543213,0.20666176080703735,0.036370664834976196
0.55,0.016426080837845802,-0.013027370907366276,0.0,0.6956560611724854,0.0,0.0,-0.718375027179718,0.17031042277812958,0.06253527104854584,0.0,0.0,0.0,0.2977752089500427,0.3271888196468353,0.7327209711074829,0.4400797486305237,0.5459162592887878,0.012099037878215313,-0.06284695118665695,-0.8353917002677917,1.8062738180160522,-2.069336175918579,-0.9810340404510498,-6.20207405090332,13.133752822875977,7.8961052894592285,0.3241851329803467,0.7445659041404724,0.4432963728904724,1.8937283754348755,-1.441136360168457,-1.140901803970337,0.3483835756778717,0.7106767296791077,0.42000001668930054,-0.2826801836490631,0.5335668921470642,-1.173920750617981,-2.9999258518218994,-0.22616614401340485,-0.2189757525920868,-0.2023409754037857,-0.18341299891471863,0.27610138058662415,0.2389843910932541,0.1051294356584549,-0.06550327688455582
0.5666666666666667,0.020887382328510284,-0.015291854739189148,0.0,0.6826949715614319,0.0,0.0,-0.7307034730911255,0.31249526143074036,-0.2104155421257019,0.0,0.0,0.0,-2.9719486236572266,0.35251128673553467,0.7146949768066406,0.4189925491809845,0.5416833758354187,-0.0008197093848139048,0.04991761967539787,-0.8390986919403076,1.1397721767425537,-0.6317305564880371,-0.6362916231155396,27.517555236816406,-25.825084686279297,-2.8792331218719482,0.3499505817890167,0.7237459421157837,0.4208192825317383,0.6938620805740356,-0.8334019184112549,-0.7142701148986816,0.3483835756778717,0.7106767296791077,0.42000001668930054,-0.27568259835243225,0.5267874002456665,-1.2239259481430054,-2.996969699859619,-0.21965950727462769,-0.2136877179145813,-0.19991055130958557,-0.1843697428703308,0.4742443561553955,0.37809836864471436,0.18654727935791016,-0.029571207240223885
0.5833333333333334,0.027883226051926613,-0.014598950743675232,0.0,0.6822726130485535,0.0,0.0,-0.7310978174209595,0.4441850781440735,0.06668122857809067,0.0,0.0,0.0,0.8248246908187866,0.360805481672287,0.7098883986473083,0.41999974846839905,0.5510044693946838,-0.00017810123972594738,-3.3427731978008524e-05,-0.8345022797584534,0.27886390686035156,-0.3538408875465393,-0.002125154947862029,0.2352920025587082,0.15737612545490265,3.0347867012023926,0.3568546175956726,0.7167350649833679,0.42372190952301025,0.29057377576828003,-0.33526700735092163,-0.11857672035694122,0.3483835756778717,0.7106767296791077,0.42000001668930054,-0.2657184600830078,0.5667990446090698,-1.197916030883789,2.996460437774658,-0.21273167431354523,-0.20840202271938324,-0.19772252440452576,-0.18554216623306274,0.4723140001296997,0.35511624813079834,0.15206106007099152,-0.06408974528312683
0.6,0.03237425535917282,-0.01785440929234028,0.0,0.671438992023468,0.0,0.0,-0.7410598397254944,0.2065437138080597,-0.23382660746574402,0.0,0.0,0.0,-2.556558847427368,0.363701194524765,0.7058433890342712,0.42000049352645874,0.5801531672477722,-1.6556652553845197e-05,2.1598903003905434e-06,-0.8145074248313904,0.1350930631160736,-0.18502071499824524,-0.0005267299711704254,0.00020345092343632132,-0.01997002772986889,3.210472822189331,0.3586640954017639,0.7145065069198608,0.42465487122535706,0.002075761556625366,-0.11724922806024551,0.12829484045505524,0.3483835756778717,0.7106767296791077,0.42000001668930054,-0.2958984673023224,-3.0000030994415283,-1.2189221382141113,-2.9992120265960693,-0.20291247963905334,-0.20071394741535187,-0.1935047209262848,-0.18493740260601044,0.4564281404018402,0.3695262670516968,0.20260509848594666,0.024347329512238503
0.6166666666666667,0.037926316261291504,-0.017169833183288574,0.0,0.6731243133544922,0.0,0.0,-0.7395293116569519,0.35675498843193054,0.043325189501047134,0.0,0.0,0.0,1.085546851158142,0.36430585384368896,0.7036010026931763,0.4200000464916229,0.5914162397384644,-5.308589834385202e-07,2.2437465929669997e-07,-0.8063664436340332,-0.0025055306032299995,-0.10626218467950821,-1.3574159311247058e-05,-0.0003066228237003088,-0.0005773042794317007,1.00606369972229,0.35794928669929504,0.7128983736038208,0.42663705348968506,0.028611311689019203,0.04649621993303299,0.11499419808387756,0.3483835756778717,0.7106767296791077,0.42000001668930054,-0.3354562819004059,-1.825927972793579,-1.2688968181610107,-2.9991488456726074,-0.19824498891830444,-0.1970127671957016,-0.19203180074691772,-0.1858820617198944,0.3886396884918213,0.3013528287410736,0.14730238914489746,-0.011926863342523575
0.6333333333333333,0.045284174382686615,-0.016129732131958008,0.0,0.6634135842323303,0.0,0.0,-0.7482528686523438,0.4778779447078705,0.12185575813055038,0.0,0.0,0.0,-2.5461535453796387,0.36426740884780884,0.7028400897979736,0.4199993908405304,0.5944126844406128,-3.896741327480413e-05,-8.68667266331613e-05,-0.8041600584983826,-0.030078765004873276,-0.0048308647237718105,-0.0021207958925515413,0.21503551304340363,0.028179453685879707,3.203964948654175,0.3577079474925995,0.7161856889724731,0.42924803495407104,-0.09427250176668167,0.2534034848213196,0.19350674748420715,0.3483835756778717,0.7106767296791077,0.42000001668930054,-0.38365820050239563,-2.9999985694885254,-1.3188611268997192,-2.9988505840301514,-0.18898822367191315,-0.18995152413845062,-0.18807415664196014,-0.18496540188789368,0.587111234664917,0.45224669575691223,0.26925933361053467,0.09212765097618103
0.65,0.05458775907754898,-0.018162023276090622,0.0,0.6654037237167358,0.0,0.0,-0.7464836835861206,0.581218421459198,-0.12718640267848969,0.0,0.0,0.0,1.2220196723937988,0.362161248922348,0.7035658955574036,0.42048266530036926,0.6125491857528687,0.007307601626962423,-0.009597373194992542,-0.7903403043746948,-0.2718808650970459,0.06773701310157776,0.08090066909790039,-1.0984106063842773,-3.907170534133911,2.866682291030884,0.3541662096977234,0.7192544937133789,0.4338653087615967,-0.3660740852355957,0.07722212374210358,0.4044528305530548,0.3483835756778717,0.7106767296791077,0.42000001668930054,-0.43367257714271545,-2.999997138977051,-1.3688796758651733,-3.0000009536743164,-0.17997319996356964,-0.18250152468681335,-0.1828744262456894,-0.18190446496009827,0.3195500373840332,0.29052063822746277,0.22463136911392212,0.1630537360906601
0.6666666666666666,0.06601038575172424,-0.01927133835852146,0.0,0.6574957966804504,0.0,0.0,-0.7534582018852234,0.7078025341033936,-0.10723695158958435,0.0,0.0,0.0,-2.4361138343811035,0.35810405015945435,0.7045282125473022,0.42098379135131836,0.6277529001235962,0.015825016424059868,-0.01965007185935974,-0.7780036926269531,-0.227324441075325,0.05482511594891548,0.012694686651229858,-0.15191157162189484,-0.6478175520896912,2.0534303188323975,0.35067373514175415,0.720642626285553,0.43898671865463257,-0.01191614754498005,0.09505423903465271,0.3360707759857178,0.3483835756778717,0.7106767296791077,0.42000001668930054,-0.48368585109710693,-2.999997615814209,-1.4188979864120483,-2.999999523162842,-0.1765793412923813,-0.1790996640920639,-0.1799081563949585,-0.17922979593276978,0.23414815962314606,0.23724378645420074,0.22421830892562866,0.22553037106990814
0.6833333333333333,0.07916036993265152,-0.024080049246549606,0.0,0.6274620294570923,0.0,0.0,-0.7786471843719482,0.8285909295082092,-0.3609485328197479,0.0,0.0,0.0,-5.594809055328369,0.35490676760673523,0.7052892446517944,0.42038604617118835,0.6384643912315369,0.006191634107381105,-0.007350716274231672,-0.7695913910865784,-0.18000826239585876,0.04275215044617653,-0.052180323749780655,0.5370542407035828,2.672144889831543,1.5111868381500244,0.35411226749420166,0.7208175659179688,0.4523008465766907,0.49059951305389404,-0.06507821381092072,1.3656878471374512,0.3483835756778717,0.7106767296791077,0.42000001668930054,-0.5336984395980835,-2.999936103820801,-1.4689162969589233,-2.999995708465576,-0.17580388486385345,-0.17763586342334747,-0.1779690980911255,-0.17661873996257782,-0.0583682656288147,0.005800525192171335,0.05978010222315788,0.12348026782274246
0.7,0.09003902226686478,-0.02643009088933468,0.0,0.6113020777702332,0.0,0.0,-0.7913973331451416,0.5773230791091919,-0.12181595712900162,0.0,0.0,0.0,-1.4106677770614624,0.3531229794025421,0.7057121396064758,0.41999998688697815,0.6436831951141357,5.35435390247585e-07,-2.259339908050606e-06,-0.7652919888496399,-0.07599230110645294,0.01743357628583908,-2.3682834580540657e-05,0.0028561996296048164,0.0009046696941368282,0.48360371589660645,0.363692045211792,0.7241816520690918,0.4788309335708618,0.6379796862602234,0.469609797000885,1.7421640157699585,0.3483835756778717,0.7106767296791077,0.42000001668930054,-0.5551372766494751,0.1676192581653595,-1.5189346075057983,-3.0,-0.17850330471992493,-0.1794590950012207,-0.17910988628864288,-0.17700457572937012,-0.04788126423954964,-0.049001142382621765,-0.05968340486288071,-0.0661056861281395
0.7166666666666667,0.09646007418632507,-0.02616170421242714,0.0,0.6199339032173157,0.0,0.0,-0.7846540212631226,0.31795915961265564,0.06534913182258606,0.0,0.0,0.0,2.1489603519439697,0.35280710458755493,0.7057831883430481,0.4200000464916229,0.6442824006080627,-2.292633553224732e-06,-1.2460861853469396e-06,-0.7647876739501953,0.0015357618685811758,-0.0006264739786274731,-0.00013582156680058688,0.0033223205246031284,0.017646465450525284,-0.009230077266693115,0.37485945224761963,0.7317113876342773,0.5009152293205261,0.5962246060371399,0.4241220951080322,0.9798809289932251,0.3483835756778717,0.7106767296791077,0.42000001668930054,-0.535973072052002,1.9582314491271973,-1.480150818824768,3.0000009536743164,-0.179160937666893,-0.17995896935462952,-0.17958475649356842,-0.17742685973644257,2.6775524020195007e-09,0.01429287064820528,0.022068731486797333,0.028041375800967216
0.7333333333333333,0.09900908172130585,-0.02947361394762993,0.0,0.6160398721694946,0.0,0.0,-0.787714958190918,0.10460709780454636,-0.29671287536621094,0.0,0.0,0.0,-1.4973292350769043,0.3528072237968445,0.7057831883430481,0.42000001668930054,0.6442806720733643,-2.1724295038438868e-06,-5.136882464285009e-06,-0.7647891044616699,0.0001206801098305732,-0.00038049728027544916,-0.00010853796266019344,0.008023769594728947,-0.0018500654259696603,-0.00030365734710358083,0.380038321018219,0.7357524633407593,0.5100181102752686,0.018035244196653366,0.09052196890115738,0.29655203223228455,0.3483835756778717,0.7106767296791077,0.42000001668930054,-0.5243275761604309,-0.3692254424095154,-1.4300981760025024,2.9999988079071045,-0.17843623459339142,-0.17878375947475433,-0.17809036374092102,-0.17571257054805756,0.06499441713094711,0.10567575693130493,0.13627301156520844,0.15623201429843903
0.75,0.09845361858606339,-0.02795226499438286,0.0,0.6239573359489441,0.0,0.0,-0.7814584374427795,-0.08387582749128342,0.22683487832546234,0.0,0.0,0.0,2.0938096046447754,0.3528071939945221,0.7057831883430481,0.42000001668930054,0.6442804932594299,-1.6079457054729573e-06,-4.899882696918212e-06,-0.7647892832756042,0.0001325495250057429,-0.0003712069010362029,-0.00010058330371975899,0.0078951520845294,-0.001598816248588264,-0.0003278733929619193,0.38122498989105225,0.735087513923645,0.5137510299682617,0.11132334172725677,-0.06059839576482773,0.18283036351203918,0.3483835756778717,0.7106767296791077,0.42000001668930054,-0.533553957939148,-0.7023115158081055,-1.447641134262085,-3.0,-0.18308992683887482,-0.18154197931289673,-0.17918194830417633,-0.17543895542621613,-0.33544063568115234,-0.21266169846057892,-0.10259631276130676,-0.011238185688853264
0.7666666666666666,0.09928777813911438,-0.02866673842072487,0.0,0.6200866103172302,0.0,0.0,-0.7845333218574524,0.0664697140455246,-0.1370445191860199,0.0,0.0,0.0,-1.3840858936309814,0.3528071939945221,0.7057831883430481,0.42000001668930054,0.6442806124687195,-1.8072946659231093e-06,-4.663332219934091e-06,-0.7647891640663147,0.00013015946024097502,-0.00036899218684993684,-0.00010070484131574631,0.00783838052302599,-0.0016209944151341915,-0.0003230143047403544,0.38234972953796387,0.7319543361663818,0.5103741884231567,0.022182658314704895,-0.31599149107933044,-0.4021202027797699,0.3483835756778717,0.7106767296791077,0.42000001668930054,-0.5628050565719604,-2.6176071166992188,-1.49765944480896,-3.0,-0.18604770302772522,-0.18287578225135803,-0.17898201942443848,-0.17391160130500793,-0.11159994453191757,-0.01991068199276924,0.07079798728227615,0.1525859832763672
0.7833333333333333,0.10240774601697922,-0.032961223274469376,0.0,0.5958395600318909,0.0,0.0,-0.803103506565094,0.23466846346855164,-0.33876776695251465,0.0,0.0,0.0,-4.5632524490356445,0.3528071939945221,0.7057831883430481,0.42000001668930054,0.6442804336547852,-1.5554564924968872e-06,-4.719540356745711e-06,-0.7647892236709595,0.00013268398470245302,-0.00037149296258576214,-0.00010055839084088802,0.007904008962213993,-0.0015974672278389335,-0.0003282116667833179,0.3859335780143738,0.7257004976272583,0.5067992210388184,0.4498637318611145,-0.4269483685493469,0.09708794951438904,0.3483835756778717,0.7106767296791077,0.42000001668930054,-0.6124688982963562,-2.999966621398926,-1.547677755355835,-2.999999523162842,-0.1888209730386734,-0.1841888427734375,-0.17876273393630981,-0.17223399877548218,-0.1769033819437027,-0.09312686324119568,-0.001839698408730328,0.08785519748926163
0.8,0.10823605954647064,-0.03498568385839462,0.0,0.5872443318367004,0.0,0.0,-0.8094096779823303,0.3836137354373932,-0.045817192643880844,0.0,0.0,0.0,-0.2593787908554077,0.3528072237968445,0.7057831883430481,0.42000001668930054,0.6442807912826538,-1.5008364471214009e-06,-4.8500219236302655e-06,-0.7647889852523804,0.00013094716996420175,-0.0003689178847707808,-0.00010045990347862244,0.007838358171284199,-0.0016100003849714994,-0.00032473375904373825,0.3909032344818115,0.7228311896324158,0.511530876159668,0.1344955712556839,0.02748221531510353,0.46459197998046875,0.3483835756778717,0.7106767296791077,0.42000001668930054,-0.6310594081878662,0.481944739818573,-1.59769606590271,-3.000000476837158,-0.19180625677108765,-0.1865357756614685,-0.18035955727100372,-0.17310908436775208,-0.11656531691551208,-0.12270692735910416,-0.12431889772415161,-0.12851645052433014
0.8166666666666667,0.1116442084312439,-0.03414178639650345,0.0,0.6025233864784241,0.0,0.0,-0.7981012463569641,0.14293405413627625,0.09575486928224564,0.0,0.0,0.0,3.102799415588379,0.3528071939945221,0.7057831883430481,0.42000001668930054,0.6442805528640747,-1.6896850638659089e-06,-4.509207428782247e-06,-0.7647891640663147,0.00013240272528491914,-0.0003717155195772648,-0.00010072765871882439,0.007907732389867306,-0.0016029474791139364,-0.00032761655165813863,0.3965514302253723,0.7241441011428833,0.5149575471878052,0.44122785329818726,0.09661560505628586,0.029721546918153763,0.3483835756778717,0.7106767296791077,0.42000001668930054,-0.6212085485458374,0.6724903583526611,-1.558688759803772,3.000000238418579,-0.19187302887439728,-0.187031090259552,-0.18112829327583313,-0.1741108000278473,0.05734686926007271,0.0280547384172678,0.00945365708321333,-0.005174608901143074
0.8333333333333334,0.1110871434211731,-0.037515487521886826,0.0,0.6047409772872925,0.0,0.0,-0.7964221835136414,-0.0010980757651850581,-0.22193962335586548,0.0,0.0,0.0,-0.5912829637527466,0.3528071939945221,0.7057831883430481,0.42000001668930054,0.6442809104919434,-1.7024368617057917e-06,-4.6530963118129876e-06,-0.7647888660430908,0.0001301888405578211,-0.0003686389827635139,-0.00010062078945338726,0.00782938115298748,-0.0016177499201148748,-0.00032306203502230346,0.40084853768348694,0.7250242829322815,0.5130685567855835,0.081922248005867,-0.1106661707162857,-0.14368394017219543,0.3483835756778717,0.7106767296791077,0.42000001668930054,-0.6433014869689941,-2.9853944778442383,-1.5086475610733032,3.000000476837158,-0.18736296892166138,-0.18351490795612335,-0.17842848598957062,-0.17213773727416992,0.14354830980300903,0.1173362135887146,0.09694214165210724,0.07674906402826309
0.85,0.11335228383541107,-0.03587234020233154,0.0,0.6179008483886719,0.0,0.0,-0.7862560153007507,0.15040500462055206,0.09674875438213348,0.0,0.0,0.0,2.6293301582336426,0.3528071939945221,0.7057831883430481,0.42000001668930054,0.6442807912826538,-1.5530956716247601e-06,-4.712558620667551e-06,-0.7647890448570251,0.0001326203637290746,-0.0003715184866450727,-0.0001005867961794138,0.007904156111180782,-0.0015980578027665615,-0.00032804071088321507,0.4035423994064331,0.7234059572219849,0.5125889778137207,0.27588048577308655,0.0556466169655323,0.08412028849124908,0.3483835756778717,0.7106767296791077,0.42000001668930054,-0.6740413904190063,-0.8617580533027649,-1.524630069732666,-3.000000238418579,-0.18860088288784027,-0.1845962256193161,-0.1792098730802536,-0.1725834757089615,0.07411985844373703,0.04467674717307091,0.032285481691360474,0.03147709369659424
0.8666666666666667,0.1132163554430008,-0.0380774587392807,0.0,0.6161194443702698,0.0,0.0,-0.7876527309417725,-0.06188840791583061,-0.17375187575817108,0.0,0.0,0.0,-1.2067139148712158,0.3528072237968445,0.7057831883430481,0.42000001668930054,0.6442806124687195,-1.6003273231035564e-06,-4.774909939442296e-06,-0.7647891640663147,0.00013352437235880643,-0.0003719654050655663,-0.00010043964721262455,0.007917170412838459,-0.0015895756660029292,-0.0003300264070276171,0.4088791012763977,0.7227805852890015,0.512891411781311,0.34392210841178894,-0.1399267613887787,0.09019501507282257,0.3483835756778717,0.7106767296791077,0.42000001668930054,-0.7140331268310547,-2.9999961853027344,-1.574648380279541,-3.000000476837158,-0.18685245513916016,-0.18318887054920197,-0.1778412163257599,-0.1710388958454132,0.03383367508649826,0.04042808338999748,0.06366948038339615,0.09816490858793259
0.8833333333333333,0.11507752537727356,-0.038608092814683914,0.0,0.5913246870040894,0.0,0.0,-0.8064335584640503,0.12689732015132904,-0.04922189190983772,0.0,0.0,0.0,-4.651366710662842,0.3528071939945221,0.7057831883430481,0.42000001668930054,0.6442806124687195,-1.8776532897391007e-06,-4.436361450643744e-06,-0.7647891640663147,0.00012981193140149117,-0.0003679821966215968,-0.00010060402564704418,0.0078119453974068165,-0.0016204339917749166,-0.00032224488677456975,0.41584402322769165,0.7198911309242249,0.5184436440467834,0.5811068415641785,-0.09171765297651291,0.6719425916671753,0.3483835756778717,0.7106767296791077,0.42000001668930054,-0.7608311176300049,-2.6104776859283447,-1.624666690826416,-3.0,-0.18919888138771057,-0.18508215248584747,-0.17902475595474243,-0.17134425044059753,-0.015562551096081734,-0.02437974326312542,-0.014188732020556927,0.011192860081791878
