vladlanda/robotic-transformer/data/env_000_episode_0241.csv
sim_time_s,robot_box_x,robot_box_y,robot_box_z,robot_box_quat_w,robot_box_quat_x,robot_box_quat_y,robot_box_quat_z,robot_box_linvel_x,robot_box_linvel_y,robot_box_linvel_z,robot_box_angvel_x,robot_box_angvel_y,robot_box_angvel_z,cube_world_x,cube_world_y,cube_world_z,cube_quat_w,cube_quat_x,cube_quat_y,cube_quat_z,cube_linvel_x,cube_linvel_y,cube_linvel_z,cube_angvel_x,cube_angvel_y,cube_angvel_z,endpoint_world_x,endpoint_world_y,endpoint_world_z,endpoint_linvel_x,endpoint_linvel_y,endpoint_linvel_z,target_cube_world_x,target_cube_world_y,target_cube_world_z,gripper_actual_pos_rad_gp_leftgearjoint,gripper_actual_vel_rad_s_gp_leftgearjoint,gripper_actual_pos_rad_gp_rotatingjoint,gripper_actual_vel_rad_s_gp_rotatingjoint,motor_angle_rad_joint1,motor_angle_rad_joint2,motor_angle_rad_joint3,motor_angle_rad_joint4,motor_speed_rad_s_joint1,motor_speed_rad_s_joint2,motor_speed_rad_s_joint3,motor_speed_rad_s_joint4
0.0,0.0,0.0,0.0,1.0,0.0,0.0,0.0,0.0,0.0,0.0,0.0,0.0,0.0,-0.38943788409233093,0.679565966129303,0.41999998688697815,1.0,0.0,0.0,0.0,0.0,0.0,0.0,0.0,0.0,0.0,3.42540442943573e-06,-0.005000244826078415,1.313499927520752,0.0,0.0,0.0,0.3209969997406006,0.7516137361526489,0.42000001668930054,-1.5707999467849731,0.0,0.0,0.0,0.0,0.0,0.0,0.0,0.0,0.0,0.0,0.0
0.016666666666666666,0.0028778850100934505,0.0021806680597364902,0.0,0.9998081922531128,0.0,0.0,0.019586581736803055,0.24087215960025787,0.18240931630134583,0.0,0.0,0.0,3.1418697834014893,-0.3894380033016205,0.6795656681060791,0.41999998688697815,1.0,3.279964630564791e-06,-8.339746386809566e-07,8.465587342243452e-08,-1.9833529222523794e-05,0.00017983045836444944,-6.132945418357849e-05,0.0009432713268324733,-0.004689474124461412,-0.00031981561915017664,-0.007110234349966049,0.003379564033821225,1.3159373998641968,-0.8143353462219238,0.9868683815002441,0.18095196783542633,0.3209969997406006,0.7516137361526489,0.42000001668930054,-1.5301095247268677,3.0000011920928955,-0.04584788903594017,-2.9999992847442627,0.0008691533003002405,0.0007963840034790337,0.0007110277656465769,0.0006108740926720202,0.11094217747449875,0.09756709635257721,0.08334315568208694,0.06823883205652237
0.03333333333333333,0.00896097905933857,0.006801947019994259,0.0,0.9997960329055786,0.0,0.0,0.020196838304400444,0.40702158212661743,0.3153085708618164,0.0,0.0,0.0,-0.8691306114196777,-0.38943812251091003,0.6795656085014343,0.4200000464916229,1.0,3.3908179375430336e-06,-2.132458348569344e-06,-3.7097745320124886e-08,0.00026357852038927376,0.00026937833172269166,-0.00010509369894862175,-0.0017707126680761576,0.004130884539335966,-0.0001354814594378695,-0.027550440281629562,0.026105880737304688,1.316610336303711,-1.5914891958236694,1.6156667470932007,-0.08327312767505646,0.3209969997406006,0.7516137361526489,0.42000001668930054,-1.4800904989242554,3.000000476837158,-0.09588771313428879,-3.0000009536743164,0.0029901328962296247,0.0026527531445026398,0.002277332590892911,0.0018607968231663108,0.1642199009656906,0.13976430892944336,0.11382382363080978,0.0863066092133522
0.05,0.018128300085663795,0.01364890020340681,0.0,0.9999944567680359,0.0,0.0,0.003339834278449416,0.6215741634368896,0.45508813858032227,0.0,0.0,0.0,-2.6378111839294434,-0.3894381523132324,0.6795656681060791,0.4200000464916229,1.0,3.7651293496310245e-06,-2.2119379536889028e-06,5.6273887771851605e-09,0.0002653067058417946,0.00026691422681324184,-0.00010440615005791187,-0.0017243530601263046,0.00417736079543829,-0.00012949267693329602,-0.05783569812774658,0.056275490671396255,1.3118512630462646,-1.9969282150268555,1.9819308519363403,-0.45709288120269775,0.3209969997406006,0.7516137361526489,0.42000001668930054,-1.4300721883773804,3.000002145767212,-0.14592638611793518,-3.0000014305114746,0.005874675698578358,0.005050379782915115,0.004153766669332981,0.003180511062964797,0.20251303911209106,0.1628512591123581,0.12129180878400803,0.07774785906076431
0.06666666666666667,0.029827062040567398,0.022924203425645828,0.0,0.9999855756759644,0.0,0.0,0.005375105421990156,0.7419335246086121,0.601360559463501,0.0,0.0,0.0,1.2346041202545166,-0.3894381523132324,0.6795656085014343,0.4200000464916229,0.9999999403953552,3.406754103707499e-06,-2.2856077066535363e-06,4.300980265270482e-07,0.0002670255198609084,0.0002679179306142032,-0.0001043803058564663,-0.001740670995786786,0.004211848136037588,-0.00012850687198806554,-0.09576362371444702,0.08811405301094055,1.3006800413131714,-2.4146480560302734,2.0095221996307373,-0.8620978593826294,0.3209969997406006,0.7516137361526489,0.42000001668930054,-1.3800538778305054,2.9999983310699463,-0.19564345479011536,-2.938528537750244,0.00839611329138279,0.006868893746286631,0.005229921545833349,0.0034738590475171804,0.1429932862520218,0.09237559884786606,0.039675552397966385,-0.015187415294349194
0.08333333333333333,0.043748799711465836,0.03429313749074936,0.0,0.9999699592590332,0.0,0.0,-0.007754981517791748,0.8870539665222168,0.7216809391975403,0.0,0.0,0.0,-2.4794695377349854,-0.3894381523132324,0.6795656085014343,0.4200000464916229,0.9999999403953552,3.6260603337723296e-06,-2.3353738924924983e-06,3.0322857469400333e-07,0.00026613770751282573,0.00026685066404752433,-0.00010405178181827068,-0.0017283547203987837,0.004196325317025185,-0.000127911422168836,-0.13307631015777588,0.1271369457244873,1.2842092514038086,-2.0866944789886475,2.5883731842041016,-1.095630407333374,0.3209969997406006,0.7516137361526489,0.42000001668930054,-1.3300244808197021,2.999997615814209,-0.16154570877552032,3.0000011920928955,0.009367542341351509,0.006791727617383003,0.004062010906636715,0.0011739408364519477,0.013679591938853264,-0.06375326961278915,-0.14330880343914032,-0.2249932885169983
0.1,0.05226293206214905,0.04714879021048546,0.0,0.9986301064491272,0.0,0.0,-0.052325375378131866,0.38696059584617615,0.8202276825904846,0.0,0.0,0.0,-6.3396220207214355,-0.3894381523132324,0.6795656085014343,0.4200000464916229,1.0,3.4220743145851884e-06,-2.30867885875341e-06,1.7964234189093986e-07,0.0002668164379429072,0.0002680036413948983,-0.00010440708138048649,-0.0017430284060537815,0.004207152873277664,-0.00012891023652628064,-0.16564692556858063,0.17239025235176086,1.263969898223877,-1.8805880546569824,2.7938880920410156,-1.2808537483215332,0.3209969997406006,0.7516137361526489,0.42000001668930054,-1.280030608177185,3.0000014305114746,-0.19328829646110535,-2.9999990463256836,0.004083297681063414,0.0005505881272256374,-0.00318017415702343,-0.007117101922631264,-0.4224739670753479,-0.48066699504852295,-0.5408301949501038,-0.6032297611236572
0.11666666666666667,0.05636178329586983,0.06172601133584976,0.0,0.997022271156311,0.0,0.0,-0.07711441814899445,0.3699697256088257,0.8697746992111206,0.0,0.0,0.0,-1.589355230331421,-0.3894381523132324,0.6795656681060791,0.4200000464916229,1.0,3.7114557471795706e-06,-2.332793883397244e-06,2.5744137133187905e-07,0.0002648575755301863,0.00026635421090759337,-0.00010423525236546993,-0.001718215993605554,0.004170078784227371,-0.00012915751722175628,-0.2035665214061737,0.2147204577922821,1.2405164241790771,-2.394547939300537,2.6898999214172363,-1.44243323802948,0.3209969997406006,0.7516137361526489,0.42000001668930054,-1.2300275564193726,2.9999964237213135,-0.24329115450382233,-2.999997854232788,-0.0021603822242468596,-0.006900889798998833,-0.011832054704427719,-0.01696500927209854,-0.07803289592266083,-0.19181941449642181,-0.3015868365764618,-0.40722596645355225
0.13333333333333333,0.06819921731948853,0.07306324690580368,0.0,0.9936579465866089,0.0,0.0,-0.11244475841522217,0.7607612609863281,0.6792048215866089,0.0,0.0,0.0,-4.962657451629639,-0.3894381523132324,0.6795656085014343,0.4200000464916229,1.0,3.335647988933488e-06,-2.2320116386254085e-06,3.113250670594425e-07,0.00026669682119973004,0.000267594848992303,-0.00010428694076836109,-0.0017371177673339844,0.004205875098705292,-0.00012840732233598828,-0.23920133709907532,0.266230046749115,1.2148398160934448,-1.9078443050384521,3.5058798789978027,-1.684678077697754,0.3209969997406006,0.7516137361526489,0.42000001668930054,-1.1800076961517334,2.9999935626983643,-0.20927149057388306,2.999999761581421,-0.0012444622116163373,-0.008235643617808819,-0.015334582887589931,-0.022548535838723183,-0.11235374212265015,-0.22911210358142853,-0.3421301245689392,-0.4511679708957672
0.15,0.07544494420289993,0.08181250840425491,0.0,0.9845802783966064,0.0,0.0,-0.17493321001529694,0.4183727502822876,0.47961947321891785,0.0,0.0,0.0,-8.40653133392334,-0.3894381523132324,0.6795656085014343,0.4200000464916229,1.0,3.518864104989916e-06,-2.283212324982742e-06,-3.625428917075624e-07,0.00026618369156494737,0.00026735756546258926,-0.00010425550863146782,-0.0017349214758723974,0.004195664543658495,-0.00012860912829637527,-0.27039599418640137,0.3260626196861267,1.181028962135315,-1.709606647491455,3.8743014335632324,-2.2976036071777344,0.3209969997406006,0.7516137361526489,0.42000001668930054,-1.1431770324707031,1.5159939527511597,-0.24067892134189606,-3.0000007152557373,-0.009220319800078869,-0.017373481765389442,-0.025599369779229164,-0.03390747681260109,-0.4872114062309265,-0.5524321794509888,-0.6147443652153015,-0.6742838025093079
0.16666666666666666,0.07959135621786118,0.09171213209629059,0.0,0.9767202138900757,0.0,0.0,-0.21451710164546967,0.18615663051605225,0.6241233944892883,0.0,0.0,0.0,-3.6285488605499268,-0.3894381523132324,0.6795656085014343,0.4200000464916229,1.0,3.666546717795427e-06,-2.3392813091049902e-06,-3.150027225728991e-07,0.0002659583115018904,0.00026667400379665196,-0.00010403734631836414,-0.001725324080325663,0.004192811902612448,-0.00012778834206983447,-0.30580058693885803,0.387066125869751,1.1354131698608398,-2.021367311477661,3.9011168479919434,-3.1607112884521484,0.3209969997406006,0.7516137361526489,0.42000001668930054,-1.09891939163208,3.000000476837158,-0.29068484902381897,-3.0000007152557373,-0.01868482306599617,-0.027579722926020622,-0.03648371994495392,-0.04541049897670746,-0.6086350083351135,-0.6347436308860779,-0.6570113897323608,-0.6757574677467346
0.18333333333333332,0.08180904388427734,0.09965052455663681,0.0,0.9643878936767578,0.0,0.0,-0.2644919157028198,0.06326115131378174,0.37261998653411865,0.0,0.0,0.0,-7.006901264190674,-0.3894381523132324,0.6795656085014343,0.4200000464916229,1.0,3.8142911762406584e-06,-2.3995992251002463e-06,-2.7027797955270216e-07,0.00026548971072770655,0.000266111281234771,-0.00010391324758529663,-0.0017178148264065385,0.004184778779745102,-0.00012754148337990046,-0.33733928203582764,0.4544750154018402,1.075114130973816,-1.5775022506713867,4.266059875488281,-4.0172224044799805,0.3209969997406006,0.7516137361526489,0.42000001668930054,-1.0489163398742676,2.999997138977051,-0.34071221947669983,-3.000001907348633,-0.02955896407365799,-0.038660600781440735,-0.04771075025200844,-0.05673132464289665,-0.6932898759841919,-0.692272424697876,-0.6880166530609131,-0.6810491681098938
0.2,0.08670814335346222,0.10757535696029663,0.0,0.9551507234573364,0.0,0.0,-0.2961199879646301,0.2570701539516449,0.5051149129867554,0.0,0.0,0.0,-2.8387773036956787,-0.3894381523132324,0.6795656085014343,0.4200000464916229,1.0,3.5999869396619033e-06,-2.2913013708603103e-06,-2.201937832069234e-07,0.00026573010836727917,0.0002664492931216955,-0.00010398332960903645,-0.0017227825010195374,0.004188841208815575,-0.00012773113849107176,-0.36540189385414124,0.5193455219268799,1.0005669593811035,-1.3974125385284424,3.8054988384246826,-4.906105995178223,0.3209969997406006,0.7516137361526489,0.42000001668930054,-0.9989132881164551,3.000002145767212,-0.3907381594181061,-2.9999990463256836,-0.04186641052365303,-0.05043462663888931,-0.05892926827073097,-0.06738622486591339,-0.9402020573616028,-0.8669651746749878,-0.7950096726417542,-0.7253628969192505
0.21666666666666667,0.08731965720653534,0.11815578490495682,0.0,0.9412358403205872,0.0,0.0,-0.337750107049942,0.0014039218658581376,0.6843647956848145,0.0,0.0,0.0,-6.0475263595581055,-0.3894381523132324,0.6795656085014343,0.4200000464916229,0.9999999403953552,3.639563374235877e-06,-2.2620122308580903e-06,2.2247465381042275e-07,0.00026687391800805926,0.0002675444120541215,-0.00010411837138235569,-0.001740379841066897,0.004211025312542915,-0.00012783984129782766,-0.3867951035499573,0.5798379778862,0.9113402962684631,-0.9614453315734863,3.5344738960266113,-5.64462947845459,0.3209969997406006,0.7516137361526489,0.42000001668930054,-0.9489030838012695,3.0000007152557373,-0.44076651334762573,-2.9999988079071045,-0.05740094184875488,-0.0660395622253418,-0.07460856437683105,-0.08308802545070648,-0.9557456374168396,-0.9521138072013855,-0.9475427865982056,-0.9425876140594482
0.23333333333333334,0.09198448807001114,0.12450354546308517,0.0,0.9326840043067932,0.0,0.0,-0.36069461703300476,0.2942657470703125,0.29955536127090454,0.0,0.0,0.0,-1.736365795135498,-0.38943812251091003,0.6795656085014343,0.4200000464916229,1.0,3.420630036998773e-06,-2.3168879579316126e-06,2.955902687062917e-07,0.0002668013039510697,0.0002680388279259205,-0.00010442384518682957,-0.0017437251517549157,0.004206957295536995,-0.00012900005094707012,-0.4041007161140442,0.6293867826461792,0.8137626051902771,-0.7233542203903198,2.60371732711792,-6.114062309265137,0.3209969997406006,0.7516137361526489,0.42000001668930054,-0.8988924026489258,3.0000007152557373,-0.4907967448234558,-2.999997854232788,-0.07229306548833847,-0.0807911828160286,-0.08918292075395584,-0.09717147797346115,-0.9888488054275513,-0.9904916882514954,-0.9878402352333069,-0.9315871000289917
0.25,0.09098396450281143,0.13476920127868652,0.0,0.9355378150939941,0.0,0.0,-0.3532266318798065,-0.04188597574830055,0.5652071833610535,0.0,0.0,0.0,1.9535613059997559,-0.3894381523132324,0.6795656085014343,0.4200000464916229,0.9999999403953552,3.347485289850738e-06,-2.2592903405893594e-06,1.8084206487856136e-07,0.0002668781380634755,0.00026791184791363776,-0.0001043954398483038,-0.001740514999255538,0.004208283498883247,-0.000128701634821482,-0.41595274209976196,0.6544493436813354,0.7115094661712646,-0.5760095715522766,0.7948051691055298,-6.075118064880371,0.3209969997406006,0.7516137361526489,0.42000001668930054,-0.848881721496582,2.999969959259033,-0.5408267974853516,-3.0000011920928955,-0.0894831046462059,-0.09777083247900009,-0.10602529346942902,-0.11392313241958618,-0.6642876863479614,-0.7269696593284607,-0.7849176526069641,-0.8367136120796204
0.26666666666666666,0.09491806477308273,0.13901792466640472,0.0,0.933421790599823,0.0,0.0,-0.3587808907032013,0.2387930452823639,0.1875724196434021,0.0,0.0,0.0,-1.417701244354248,-0.3894381523132324,0.6795656085014343,0.4200000464916229,0.9999999403953552,3.707919859152753e-06,-2.392595661149244e-06,-1.2726982845379098e-07,0.00026603692094795406,0.00026716693537309766,-0.00010421336628496647,-0.0017321702325716615,0.004193120636045933,-0.00012854926171712577,-0.42239266633987427,0.6695802211761475,0.6104095578193665,-0.1211119294166565,0.7302555441856384,-5.933654308319092,0.3209969997406006,0.7516137361526489,0.42000001668930054,-0.7988724708557129,2.9999969005584717,-0.5908565521240234,-2.999997854232788,-0.10099686682224274,-0.11005444079637527,-0.11903426796197891,-0.1276058852672577,-0.957211971282959,-0.9583158493041992,-0.9594876766204834,-0.9615419507026672
0.2833333333333333,0.09440989792346954,0.14031033217906952,0.0,0.9371063113212585,0.0,0.0,-0.3490440547466278,-0.11979228258132935,0.043238308280706406,0.0,0.0,0.0,2.0767526626586914,-0.3894381523132324,0.6795656681060791,0.4200000464916229,0.9999999403953552,3.5725404359254753e-06,-2.304164354427485e-06,1.2984229158519156e-07,0.0002652165130712092,0.00026455134502612054,-0.00010317238047719002,-0.0017021878156811,0.004185077268630266,-0.00012500181037466973,-0.4201808571815491,0.67832350730896,0.5173653364181519,0.4212508797645569,0.3059845268726349,-5.204184532165527,0.3209969997406006,0.7516137361526489,0.42000001668930054,-0.7488637566566467,3.000002384185791,-0.6408845782279968,-3.000000238418579,-0.11890360713005066,-0.12767142057418823,-0.13643480837345123,-0.14483749866485596,-1.0148921012878418,-1.0112507343292236,-1.0084749460220337,-1.0062553882598877
0.3,0.09035182744264603,0.13929429650306702,0.0,0.9350832104682922,0.0,0.0,-0.354428231716156,-0.22351056337356567,-0.13279971480369568,0.0,0.0,0.0,-1.4947630167007446,-0.3894381523132324,0.6795656085014343,0.4200000464916229,1.0,3.744931063920376e-06,-2.238220076833386e-06,-1.7679303709883243e-07,0.00026436246116645634,0.00026623631129041314,-0.00010443315841257572,-0.0017120876582339406,0.004158840514719486,-0.0001299011637456715,-0.4064739942550659,0.6825825572013855,0.4325128197669983,1.1435233354568481,0.24970275163650513,-4.958654403686523,0.3209969997406006,0.7516137361526489,0.42000001668930054,-0.6988561749458313,2.999994993209839,-0.6909112334251404,-3.000000476837158,-0.13563264906406403,-0.1443452686071396,-0.15309996902942657,-0.1615135371685028,-0.8847057819366455,-0.9055585861206055,-0.9255638718605042,-0.9435823559761047
0.31666666666666665,0.085036501288414,0.13542544841766357,0.0,0.9386765360832214,0.0,0.0,-0.34479907155036926,-0.3656896948814392,-0.2743600904941559,0.0,0.0,0.0,2.076047897338867,-0.3894381523132324,0.6795656681060791,0.4200000464916229,0.9999999403953552,3.6680191897175973e-06,-2.3073625925462693e-06,2.637042086917063e-07,0.00026690878439694643,0.00026760288164950907,-0.0001041253563016653,-0.0017413778696209192,0.0042116218246519566,-0.00012786732986569405,-0.4066358506679535,0.686621904373169,0.42534011602401733,0.07846508175134659,0.2835387587547302,-0.25491800904273987,0.3209969997406006,0.7516137361526489,0.42000001668930054,-0.6488511562347412,2.999988555908203,-0.7413305044174194,-3.0000009536743164,-0.1446024626493454,-0.15381914377212524,-0.16210578382015228,-0.1695689558982849,-0.48685768246650696,-0.5026178359985352,-0.4654292166233063,-0.4024752080440521
0.3333333333333333,0.07731547206640244,0.12930335104465485,0.0,0.9365297555923462,0.0,0.0,-0.3505880534648895,-0.5079307556152344,-0.405339777469635,0.0,0.0,0.0,-1.6619848012924194,-0.3876536786556244,0.6824575066566467,0.4200000762939453,0.9996331334114075,-7.772247954562772e-06,1.0639195352268871e-05,-0.02708307094871998,0.1585095226764679,0.240680530667305,-0.0003039667790289968,0.019519325345754623,-0.004814324900507927,-4.341762065887451,-0.4033779799938202,0.6894786357879639,0.4214898943901062,0.35725072026252747,0.20892713963985443,-0.20009998977184296,0.3209969997406006,0.7516137361526489,0.42000001668930054,-0.5988457202911377,2.9999771118164062,-0.7913994789123535,-2.9999496936798096,-0.15418918430805206,-0.16277208924293518,-0.16961489617824554,-0.17521126568317413,-0.6077582836151123,-0.5276448726654053,-0.4046754240989685,-0.2583204507827759
0.35,0.06737539917230606,0.12098831683397293,0.0,0.9398738741874695,0.0,0.0,-0.3415217399597168,-0.6377311944961548,-0.5371297001838684,0.0,0.0,0.0,2.063019275665283,-0.38357505202293396,0.6884506344795227,0.42001038789749146,0.995836079120636,1.2897249689558521e-05,0.00026139835244975984,-0.09116104245185852,0.30159053206443787,0.46015092730522156,0.012401926331222057,0.006482413504272699,0.5905352830886841,-11.932765007019043,-0.3977774977684021,0.6957745552062988,0.4213612377643585,0.35166943073272705,0.549659252166748,0.15215420722961426,0.3209969997406006,0.7516137361526489,0.42000001668930054,-0.5488384962081909,2.9999799728393555,-0.8414333462715149,-2.9998221397399902,-0.16479165852069855,-0.17145559191703796,-0.17575521767139435,-0.1784522831439972,-0.5980358123779297,-0.4661368131637573,-0.30219584703445435,-0.11882814019918442
0.36666666666666664,0.05526389926671982,0.11050456762313843,0.0,0.9376498460769653,0.0,0.0,-0.34758129715919495,-0.7829717397689819,-0.6772864460945129,0.0,0.0,0.0,-1.6318535804748535,-0.37621602416038513,0.698606014251709,0.4201442003250122,0.9864674210548401,-0.0035723592154681683,0.0005045933648943901,-0.16391754150390625,0.6085663437843323,0.7868220806121826,0.014421617612242699,-0.6860834360122681,0.20341311395168304,-4.694915294647217,-0.3882520794868469,0.706080973148346,0.4216311275959015,0.7444457411766052,0.681706964969635,-0.09848076105117798,0.3209969997406006,0.7516137361526489,0.42000001668930054,-0.498833566904068,2.999147891998291,-0.8914570212364197,-2.9999823570251465,-0.174764484167099,-0.17881089448928833,-0.18000291287899017,-0.17926953732967377,-0.5617772936820984,-0.39527812600135803,-0.20138093829154968,0.012310437858104706
0.3833333333333333,0.04565729573369026,0.09721945226192474,0.0,0.9254648089408875,0.0,0.0,-0.3788335919380188,-0.5013886094093323,-0.8488526940345764,0.0,0.0,0.0,-4.846027374267578,-0.36346134543418884,0.7142343521118164,0.4200495481491089,0.9799312353134155,-0.0002270123950438574,-0.0011739649344235659,-0.19933204352855682,0.9600898027420044,1.1455377340316772,0.029636409133672714,-0.4842635691165924,-1.5729913711547852,-5.325969696044922,-0.3734867572784424,0.7206587195396423,0.4216606020927429,1.0576808452606201,1.0612856149673462,0.13321472704410553,0.3209969997406006,0.7516137361526489,0.42000001668930054,-0.44876325130462646,2.9999773502349854,-0.9414611458778381,-2.999974250793457,-0.1830635964870453,-0.18422162532806396,-0.18206876516342163,-0.1776273101568222,-0.40392473340034485,-0.23017841577529907,-0.03120613656938076,0.18946987390518188
0.4,0.04016058146953583,0.08089268952608109,0.0,0.9010980129241943,0.0,0.0,-0.43361544609069824,-0.2620624601840973,-1.0337493419647217,0.0,0.0,0.0,-8.03106689453125,-0.3372555375099182,0.7394662499427795,0.42376333475112915,0.9693293571472168,0.0005772934528067708,-0.03053537756204605,-0.2438601553440094,2.1691596508026123,1.8646230697631836,0.5954771637916565,2.44885516166687,-3.8383235931396484,-4.500019073486328,-0.34754401445388794,0.7460290193557739,0.42467254400253296,2.168638229370117,1.952369213104248,0.35147514939308167,0.3209969997406006,0.7516137361526489,0.42000001668930054,-0.4008257985115051,2.3017101287841797,-0.9914669990539551,-2.999783992767334,-0.19001121819019318,-0.18820136785507202,-0.18273809552192688,-0.17468275129795074,-0.42121702432632446,-0.23631983995437622,-0.03802736476063728,0.17283889651298523
0.4166666666666667,0.03665759041905403,0.06917232275009155,0.0,0.8610787987709045,0.0,0.0,-0.5084715485572815,-0.1745324730873108,-0.5830011963844299,0.0,0.0,0.0,-10.970854759216309,-0.2764766216278076,0.7775765061378479,0.43009182810783386,0.9497095346450806,0.04566967487335205,-0.06799019128084183,-0.3022305965423584,5.263654708862305,2.4237594604492188,0.36199310421943665,29.621662139892578,-22.2425537109375,16.23105239868164,-0.28567928075790405,0.785281777381897,0.4305594563484192,4.90616512298584,2.8433618545532227,0.46557188034057617,0.3209969997406006,0.7516137361526489,0.42000001668930054,-0.3797003924846649,0.5431949496269226,-0.9540733098983765,2.9947996139526367,-0.20419494807720184,-0.19804508984088898,-0.18775680661201477,-0.175090953707695,-0.9035215973854065,-0.6765658855438232,-0.38250574469566345,-0.11487547308206558
0.43333333333333335,0.035569626837968826,0.06359854340553284,0.0,0.8278098702430725,0.0,0.0,-0.5610086917877197,0.02066962607204914,-0.40595296025276184,0.0,0.0,0.0,-6.0301923751831055,-0.1949845254421234,0.8184452056884766,0.4395463466644287,0.9107768535614014,0.09553048759698868,-0.10075517743825912,-0.38885459303855896,5.071254730224609,1.8037326335906982,0.5632332563400269,15.344345092773438,-15.771553993225098,9.52790641784668,-0.20309455692768097,0.8279901742935181,0.4397556781768799,5.0585479736328125,2.427126884460449,0.6317382454872131,0.3209969997406006,0.7516137361526489,0.42000001668930054,-0.37174251675605774,0.540347695350647,-0.9383283853530884,-0.727668285369873,-0.2174823135137558,-0.2114994078874588,-0.19664764404296875,-0.17992062866687775,-0.4735858142375946,-0.5690328478813171,-0.3945068120956421,-0.23378902673721313
0.45,0.030974384397268295,0.06141088902950287,0.0,0.8137410283088684,0.0,0.0,-0.5812276005744934,-0.3806185722351074,-0.02146022394299507,0.0,0.0,0.0,-1.8858565092086792,-0.11071500927209854,0.8466449975967407,0.4513098895549774,0.8743806481361389,0.0864780992269516,-0.09722768515348434,-0.46746841073036194,5.265926837921143,0.522916853427887,0.7026087045669556,-0.2690315842628479,-10.157177925109863,10.267288208007812,-0.11708614230155945,0.8577369451522827,0.450844943523407,5.280329704284668,1.268795132637024,0.8455991744995117,0.3209969997406006,0.7516137361526489,0.42000001668930054,-0.3598633110523224,0.8080940842628479,-0.9847712516784668,-3.000000238418579,-0.23030321300029755,-0.2238077074289322,-0.20511017739772797,-0.18494458496570587,-0.8095121383666992,-0.7214072942733765,-0.4883873462677002,-0.2818034589290619
0.4666666666666667,0.031629886478185654,0.053467750549316406,0.0,0.7913159728050232,0.0,0.0,-0.6114073991775513,0.18756991624832153,-0.6390217542648315,0.0,0.0,0.0,-5.488491535186768,-0.02390917018055916,0.859777569770813,0.4592059552669525,0.8147401213645935,0.06314051151275635,-0.10254435986280441,-0.5671829581260681,5.027115821838379,-0.34611082077026367,0.4706568121910095,20.266868591308594,-23.841951370239258,15.78322982788086,-0.030265657231211662,0.8727388978004456,0.4597912132740021,5.313092231750488,0.42401450872421265,0.48486313223838806,0.3209969997406006,0.7516137361526489,0.42000001668930054,-0.34470421075820923,0.8565808534622192,-1.0347939729690552,-3.0000033378601074,-0.2343139350414276,-0.22720177471637726,-0.20605427026748657,-0.18360117077827454,-0.06442930549383163,5.895271897315979e-07,0.13409341871738434,0.26348552107810974
0.48333333333333334,0.03073718771338463,0.047563109546899796,0.0,0.7801891565322876,0.0,0.0,-0.6255436539649963,-0.08513782173395157,-0.25915756821632385,0.0,0.0,0.0,-0.901658296585083,0.05668256804347038,0.8623836636543274,0.4704890847206116,0.7562390565872192,0.11472304165363312,-0.008127924986183643,-0.6441078186035156,4.539157390594482,-1.125439167022705,0.2487844079732895,-34.151885986328125,2.4675323963165283,9.377092361450195,0.05268971621990204,0.8746596574783325,0.4675963521003723,4.8430986404418945,-0.03661087155342102,0.7507486343383789,0.3209969997406006,0.7516137361526489,0.42000001668930054,-0.3326590359210968,0.47468215227127075,-1.0848160982131958,-3.000001907348633,-0.23727993667125702,-0.22884704172611237,-0.2060127556324005,-0.18208834528923035,-0.12582257390022278,-0.06631310284137726,-0.020986506715416908,0.00977527629584074
0.5,0.028130395337939262,0.04004232585430145,0.0,0.7623295187950134,0.0,0.0,-0.6471890807151794,-0.24738842248916626,-0.40001973509788513,0.0,0.0,0.0,-3.9602010250091553,0.13108666241168976,0.8544785380363464,0.4742323160171509,0.6844952702522278,0.0784926638007164,-0.02122943475842476,-0.7244682312011719,3.730883836746216,-1.5406279563903809,0.11145688593387604,-11.136504173278809,-8.742006301879883,23.324663162231445,0.1263095587491989,0.8676899075508118,0.4736401438713074,4.295781135559082,-0.9170709848403931,0.2323782593011856,0.3209969997406006,0.7516137361526489,0.42000001668930054,-0.32574009895324707,0.31817466020584106,-1.1348382234573364,-3.000002145767212,-0.2374531775712967,-0.22786153852939606,-0.20454682409763336,-0.18036191165447235,-0.23020577430725098,-0.08504756540060043,-0.008653920143842697,0.047321856021881104
0.5166666666666666,0.026403523981571198,0.03757201135158539,0.0,0.757505476474762,0.0,0.0,-0.6528288125991821,-0.023850733414292336,-0.06846879422664642,0.0,0.0,0.0,0.04369136691093445,0.19144731760025024,0.83390212059021,0.47153931856155396,0.6193464994430542,0.010955983772873878,-0.046444498002529144,-0.7836662530899048,3.1963388919830322,-1.8006000518798828,-0.05727062374353409,-11.760458946228027,6.3905816078186035,0.32093101739883423,0.18718042969703674,0.8483334183692932,0.4743160009384155,3.201516628265381,-1.324204921722412,-0.18617019057273865,0.3209969997406006,0.7516137361526489,0.42000001668930054,-0.3165712058544159,0.6467624306678772,-1.184860348701477,-3.0000016689300537,-0.23992173373699188,-0.2292625457048416,-0.20520050823688507,-0.1806258261203766,-0.015466425567865372,0.046028610318899155,0.029669884592294693,-0.00429571745917201
0.5333333333333333,0.02865908294916153,0.03185035288333893,0.0,0.743842601776123,0.0,0.0,-0.6683548092842102,0.18780949711799622,-0.3656710684299469,0.0,0.0,0.0,-3.243929624557495,0.239561066031456,0.8147763609886169,0.46238258481025696,0.5904562473297119,-0.023904642090201378,-0.0331416092813015,-0.806034505367279,2.554388999938965,-1.6451839208602905,-0.6786104440689087,-8.92437744140625,3.355341672897339,6.320977687835693,0.23622621595859528,0.8285496830940247,0.46550554037094116,2.5973246097564697,-1.253013253211975,-0.7376610040664673,0.3209969997406006,0.7516137361526489,0.42000001668930054,-0.30462533235549927,0.7412804961204529,-1.2348824739456177,-3.0000007152557373,-0.23509454727172852,-0.22445783019065857,-0.20194177329540253,-0.17910334467887878,0.28723180294036865,0.28741341829299927,0.1799604594707489,0.0589703693985939
0.55,0.033333420753479004,0.03020515665411949,0.0,0.7418921589851379,0.0,0.0,-0.670519232749939,0.3198438286781311,-0.09972456842660904,0.0,0.0,0.0,0.5154945850372314,0.2761254906654358,0.7917414307594299,0.447267085313797,0.5605109333992004,-0.057890988886356354,-0.025232424959540367,-0.8257356882095337,1.7976938486099243,-1.7961008548736572,-0.8333107829093933,3.5952794551849365,15.134346008300781,1.4912760257720947,0.27339714765548706,0.8047492504119873,0.4507584571838379,1.9322283267974854,-1.4109584093093872,-1.0435919761657715,0.3209969997406006,0.7516137361526489,0.42000001668930054,-0.2919265031814575,0.6756922006607056,-1.284903645515442,-2.9991018772125244,-0.2317734658718109,-0.2210184782743454,-0.20036715269088745,-0.179652139544487,0.375129371881485,0.3296681046485901,0.16363097727298737,-0.011433490552008152
0.5666666666666667,0.03827040642499924,0.025199702009558678,0.0,0.730599582195282,0.0,0.0,-0.6828061938285828,0.27542951703071594,-0.362754225730896,0.0,0.0,0.0,-2.7631096839904785,0.30483928322792053,0.7732788324356079,0.4247305393218994,0.5201541781425476,-0.09549138695001602,-0.05718699470162392,-0.8467884659767151,1.2562191486358643,-1.2259503602981567,-1.1987416744232178,-3.1567044258117676,-4.920283317565918,-6.743035316467285,0.3002871870994568,0.7845100164413452,0.42975154519081116,1.347521424293518,-1.1569597721099854,-1.4263997077941895,0.3209969997406006,0.7516137361526489,0.42000001668930054,-0.2737554609775543,1.629871129989624,-1.2467931509017944,2.998950719833374,-0.22315344214439392,-0.21394090354442596,-0.19683648645877838,-0.17973928153514862,0.4898373782634735,0.38982969522476196,0.1674395352602005,-0.05973929539322853
0.5833333333333334,0.04440353065729141,0.022922979667782784,0.0,0.7310493588447571,0.0,0.0,-0.6823245882987976,0.4014270305633545,-0.09566705673933029,0.0,0.0,0.0,0.9121174812316895,0.3139161765575409,0.766181468963623,0.4231392443180084,0.5646906495094299,-0.05964772030711174,-0.003183962544426322,-0.8231381773948669,0.34873783588409424,-1.034006118774414,0.4399469792842865,0.030633317306637764,18.050037384033203,11.766032218933105,0.3109776973724365,0.7734688520431519,0.427260160446167,0.27625012397766113,-0.4240027070045471,0.035553913563489914,0.3209969997406006,0.7516137361526489,0.42000001668930054,-0.2483874261379242,1.0389801263809204,-1.2662644386291504,-2.9930148124694824,-0.21602778136730194,-0.20883207023143768,-0.19559700787067413,-0.1823008805513382,0.46470949053764343,0.31283342838287354,0.05583618953824043,-0.1931491196155548
0.6,0.048420995473861694,0.017963338643312454,0.0,0.7212141156196594,0.0,0.0,-0.6927122473716736,0.20521752536296844,-0.36486098170280457,0.0,0.0,0.0,-2.580892562866211,0.3164427578449249,0.7612438201904297,0.42136260867118835,0.5940147638320923,-0.02425123006105423,-0.0017811147263273597,-0.804086446762085,-0.038245949894189835,-1.2680716514587402,0.2110828161239624,-13.68027400970459,3.7878146171569824,24.026386260986328,0.31268754601478577,0.7674814462661743,0.4252559542655945,-0.23698392510414124,-0.22472980618476868,0.08302564918994904,0.3209969997406006,0.7516137361526489,0.42000001668930054,-0.24250371754169464,-0.7667600512504578,-1.2281752824783325,3.0000088214874268,-0.206766277551651,-0.20225800573825836,-0.19332438707351685,-0.18414399027824402,0.4523332715034485,0.3271479904651642,0.1105785071849823,-0.09628061205148697
0.6166666666666667,0.04911184310913086,0.01595177687704563,0.0,0.722766101360321,0.0,0.0,-0.6910927295684814,-0.01446545496582985,-0.06246050447225571,0.0,0.0,0.0,1.0319336652755737,0.31424185633659363,0.7535016536712646,0.4203873574733734,0.6183475255966187,-0.0071646785363554955,-0.0021343620028346777,-0.7858691215515137,-0.17528574168682098,-0.42726051807403564,-0.054380860179662704,1.3409764766693115,-1.4955427646636963,0.7101878523826599,0.3088124692440033,0.7607846260070801,0.4255589246749878,-0.25600114464759827,-0.30684709548950195,0.09982267767190933,0.3209969997406006,0.7516137361526489,0.42000001668930054,-0.27806639671325684,-2.816079616546631,-1.2490990161895752,-2.999100923538208,-0.2013162076473236,-0.19854161143302917,-0.1927032619714737,-0.18643775582313538,0.353946715593338,0.24350574612617493,0.062277477234601974,-0.10455048084259033
0.6333333333333333,0.050829507410526276,0.017225878313183784,0.0,0.7151607871055603,0.0,0.0,-0.6989599466323853,0.1521540731191635,0.1348380297422409,0.0,0.0,0.0,-2.1663312911987305,0.3132352828979492,0.7501994967460632,0.4204164445400238,0.6208719611167908,-0.006618560757488012,0.0067724548280239105,-0.7838547229766846,0.04774349555373192,0.07350149750709534,0.08184930682182312,-0.4863652288913727,3.117633581161499,0.8922191858291626,0.3078659772872925,0.7614920735359192,0.4274234473705292,0.06898389756679535,0.1910809427499771,0.13837113976478577,0.3209969997406006,0.7516137361526489,0.42000001668930054,-0.30898240208625793,-1.016592025756836,-1.2990370988845825,-2.9980666637420654,-0.19362099468708038,-0.19336840510368347,-0.19095151126384735,-0.1877133995294571,0.5447507500648499,0.3781205117702484,0.16734066605567932,-0.017259635031223297
0.65,0.05569859594106674,0.013612792827188969,0.0,0.7188506126403809,0.0,0.0,-0.6951645612716675,0.2636435925960541,-0.2567066252231598,0.0,0.0,0.0,1.3861255645751953,0.31404709815979004,0.7513620257377625,0.4206003248691559,0.6243090629577637,-0.009835299104452133,0.008493995293974876,-0.781069278717041,0.036095134913921356,0.05024955794215202,-0.028137758374214172,0.7578563690185547,-0.722905695438385,0.7416370511054993,0.308992862701416,0.7637047171592712,0.42987316846847534,-0.042533308267593384,0.10412248969078064,0.16485953330993652,0.3209969997406006,0.7516137361526489,0.42000001668930054,-0.35368669033050537,-2.999887466430664,-1.349040150642395,-2.9999382495880127,-0.18191146850585938,-0.18447618186473846,-0.18552258610725403,-0.1853521764278412,0.5716996788978577,0.4494870603084564,0.29026374220848083,0.14763541519641876
0.6666666666666666,0.06238636374473572,0.01429006364196539,0.0,0.7118767499923706,0.0,0.0,-0.7023044228553772,0.45094072818756104,0.026516005396842957,0.0,0.0,0.0,-2.0312888622283936,0.314096063375473,0.7517175674438477,0.41999998688697815,0.6268308162689209,-3.726613431354053e-05,-2.3880098524386995e-05,-0.7791553735733032,-0.003709979122504592,-0.00047396952868439257,-0.001508811954408884,-0.017423046752810478,-0.06514488160610199,0.00936095230281353,0.3087969124317169,0.7655831575393677,0.4338260889053345,0.08174130320549011,0.15798883140087128,0.30271345376968384,0.3209969997406006,0.7516137361526489,0.42000001668930054,-0.403648316860199,-2.9980978965759277,-1.399026870727539,-2.9999985694885254,-0.17564795911312103,-0.17935249209403992,-0.18189790844917297,-0.1828523874282837,0.473573237657547,0.4055326282978058,0.3319966793060303,0.28965574502944946
0.6833333333333333,0.0715785101056099,0.011168797500431538,0.0,0.6864568591117859,0.0,0.0,-0.7271705269813538,0.5944903492927551,-0.2518443465232849,0.0,0.0,0.0,-5.084146499633789,0.31409481167793274,0.7517144680023193,0.42000001668930054,0.6268348097801208,-1.0728463166742586e-06,-4.0364179767493624e-06,-0.7791520953178406,0.0001416644372511655,-0.00033769005676731467,-7.480941712856293e-05,0.007704225834459066,-0.0013534176396206021,-0.0004900209023617208,0.3122110366821289,0.7686903476715088,0.4464039206504822,0.356227308511734,0.18327726423740387,1.3216091394424438,0.3209969997406006,0.7516137361526489,0.42000001668930054,-0.4536620080471039,-2.9999659061431885,-1.4490453004837036,-2.999999761581421,-0.1708662509918213,-0.17497700452804565,-0.17795592546463013,-0.1788940280675888,0.1277768462896347,0.14266444742679596,0.15819022059440613,0.19597883522510529
0.7,0.08344843983650208,0.011893799528479576,0.0,0.6738552451133728,0.0,0.0,-0.7388634085655212,0.7320252060890198,0.04263880103826523,0.0,0.0,0.0,-0.9920036196708679,0.31409481167793274,0.7517145276069641,0.42000001668930054,0.6268348693847656,-2.2483220618596533e-06,-4.4323155634629074e-06,-0.7791520357131958,9.754104394232854e-05,-0.0003682876704260707,-0.00010172254405915737,0.008164596743881702,-0.002173667075112462,-0.0004124744446016848,0.3186836540699005,0.7732285857200623,0.4744883179664612,0.5093476176261902,0.4609304666519165,2.0235073566436768,0.3209969997406006,0.7516137361526489,0.42000001668930054,-0.5036678910255432,-3.0000007152557373,-1.4990636110305786,-2.999999761581421,-0.1727960705757141,-0.1761903464794159,-0.17842939496040344,-0.1783524751663208,-0.0017464340198785067,-0.003879051422700286,0.001674809493124485,0.026226799935102463
0.7166666666666667,0.09245970845222473,0.014700646512210369,0.0,0.6844894886016846,0.0,0.0,-0.7290226817131042,0.47161900997161865,0.22098781168460846,0.0,0.0,0.0,2.597604274749756,0.3140948414802551,0.7517145276069641,0.42000001668930054,0.6268349885940552,-2.1247597032925114e-06,-4.502374849835178e-06,-0.7791520357131958,9.924526239046827e-05,-0.0003683259419631213,-0.0001011707354336977,0.00817078072577715,-0.0021516878623515368,-0.0004161009273957461,0.3304241895675659,0.7794348001480103,0.5016518235206604,0.7946949005126953,0.31769803166389465,1.3357834815979004,0.3209969997406006,0.7516137361526489,0.42000001668930054,-0.537003755569458,-1.137377142906189,-1.5490819215774536,-2.999999761581421,-0.1727598011493683,-0.17581959068775177,-0.17754711210727692,-0.17668655514717102,0.038844577968120575,0.07548055797815323,0.12316320091485977,0.18325574696063995
0.7333333333333333,0.09705828875303268,0.013068265281617641,0.0,0.6836535930633545,0.0,0.0,-0.729806661605835,0.23276075720787048,-0.13547131419181824,0.0,0.0,0.0,-1.0160614252090454,0.31409481167793274,0.7517145276069641,0.42000001668930054,0.6268348693847656,-2.237833768958808e-06,-4.303618879930582e-06,-0.7791520357131958,9.823563596000895e-05,-0.00036840527900494635,-0.00010149693116545677,0.008170624263584614,-0.002165918704122305,-0.00041399686597287655,0.34122568368911743,0.7831474542617798,0.5169565081596375,0.4853088855743408,-0.0057497210800647736,0.6459462642669678,0.3209969997406006,0.7516137361526489,0.42000001668930054,-0.5766236186027527,-2.999999761581421,-1.5104154348373413,3.000000238418579,-0.16885243356227875,-0.1715337634086609,-0.172758549451828,-0.17129668593406677,0.1161101907491684,0.18135523796081543,0.24667437374591827,0.3066105246543884
0.75,0.1027005985379219,0.0163246002048254,0.0,0.6936458349227905,0.0,0.0,-0.7203161716461182,0.31924957036972046,0.24303889274597168,0.0,0.0,0.0,2.5534167289733887,0.31409481167793274,0.7517145276069641,0.42000001668930054,0.6268349885940552,-2.1147893676243257e-06,-4.559362423606217e-06,-0.779151976108551,9.84857979346998e-05,-0.0003683559480123222,-0.00010139215737581253,0.008170188404619694,-0.0021613005083054304,-0.00041443633381277323,0.34864991903305054,0.7825177907943726,0.5297749042510986,0.44307470321655273,0.07657897472381592,0.9074732661247253,0.3209969997406006,0.7516137361526489,0.42000001668930054,-0.6084112524986267,-0.9652906656265259,-1.5263690948486328,-2.999999523162842,-0.17115262150764465,-0.17213761806488037,-0.17174001038074493,-0.16887417435646057,-0.05851636454463005,0.012822182849049568,0.08100668340921402,0.13620306551456451
0.7666666666666666,0.10535402595996857,0.015085088089108467,0.0,0.6919670104980469,0.0,0.0,-0.721929132938385,0.12002228945493698,-0.12882626056671143,0.0,0.0,0.0,-1.167556643486023,0.3140948414802551,0.7517145276069641,0.42000001668930054,0.6268351078033447,-2.1466889847943094e-06,-4.6199966163840145e-06,-0.779151976108551,9.848465560935438e-05,-0.000367783970432356,-0.00010126200504601002,0.008155548945069313,-0.002157058799639344,-0.0004142277757637203,0.3571394085884094,0.7816225290298462,0.538933515548706,0.5122061371803284,-0.28064948320388794,0.3690977096557617,0.3209969997406006,0.7516137361526489,0.42000001668930054,-0.6438112258911133,-3.0000014305114746,-1.4882946014404297,3.0,-0.16990438103675842,-0.1697646975517273,-0.16823798418045044,-0.1644265353679657,0.005171843338757753,0.10817784070968628,0.20992590487003326,0.29727309942245483
0.7833333333333333,0.10914009809494019,0.017127476632595062,0.0,0.6713429689407349,0.0,0.0,-0.7411468029022217,0.2632937729358673,0.1329108476638794,0.0,0.0,0.0,-4.4290995597839355,0.31409481167793274,0.7517145276069641,0.42000001668930054,0.6268349885940552,-2.258924268971896e-06,-4.420765890245093e-06,-0.779151976108551,9.865558240562677e-05,-0.00036850146716460586,-0.00010138587094843388,0.008174365386366844,-0.002162167802453041,-0.00041498031350784004,0.3674851059913635,0.7792649269104004,0.5468568205833435,0.8010437488555908,-0.006995435804128647,0.6761280298233032,0.3209969997406006,0.7516137361526489,0.42000001668930054,-0.6680459380149841,-0.1336517632007599,-1.5047193765640259,-2.999999761581421,-0.17129744589328766,-0.16971731185913086,-0.16671869158744812,-0.1616297960281372,0.02517135813832283,0.07211373001337051,0.12500880658626556,0.17079801857471466
0.8,0.11066176742315292,0.01661403849720955,0.0,0.6636946797370911,0.0,0.0,-0.7480035424232483,0.012325637973845005,-0.10316558182239532,0.0,0.0,0.0,-0.21062901616096497,0.31409481167793274,0.7517145276069641,0.42000001668930054,0.6268349289894104,-2.264826889586402e-06,-4.1856801544781774e-06,-0.7791520953178406,9.77532472461462e-05,-0.0003680171794258058,-0.00010153604671359062,0.008159860968589783,-0.002167926635593176,-0.0004127227875869721,0.3768143653869629,0.7799760699272156,0.5593487024307251,0.31868845224380493,0.11623317003250122,0.8165972232818604,0.3209969997406006,0.7516137361526489,0.42000001668930054,-0.6446621417999268,2.67533540725708,-1.5547376871109009,-2.999999523162842,-0.17079366743564606,-0.16839346289634705,-0.16460174322128296,-0.15896223485469818,0.01648249477148056,0.05954241752624512,0.09526608139276505,0.11128386110067368
0.8166666666666667,0.108876071870327,0.018406514078378677,0.0,0.6783017516136169,0.0,0.0,-0.7347834706306458,-0.13388440012931824,0.189144566655159,0.0,0.0,0.0,3.1184139251708984,0.31409481167793274,0.7517145276069641,0.42000001668930054,0.6268348097801208,-2.157266635549604e-06,-4.410159817780368e-06,-0.7791520953178406,0.00010034939623437822,-0.00036842390545643866,-0.00010088481940329075,0.008175421506166458,-0.002140220021829009,-0.00041853662696667016,0.37734001874923706,0.7802339792251587,0.5726189613342285,-0.18794891238212585,0.021674230694770813,0.8098705410957336,0.3209969997406006,0.7516137361526489,0.42000001668930054,-0.6056733131408691,2.026291847229004,-1.5158579349517822,2.999999761581421,-0.1720024198293686,-0.16867974400520325,-0.16409450769424438,-0.1579972207546234,-0.017884142696857452,0.017287317663431168,0.046859052032232285,0.059338439255952835
0.8333333333333334,0.10453073680400848,0.018038757145404816,0.0,0.6792175769805908,0.0,0.0,-0.7339369654655457,-0.29345494508743286,-0.0626177117228508,0.0,0.0,0.0,-0.8053359389305115,0.31409481167793274,0.7517145276069641,0.42000001668930054,0.6268349289894104,-2.15162685890391e-06,-4.468756742426194e-06,-0.7791520953178406,0.00010046448005596176,-0.00036850557080470026,-0.00010086945258080959,0.008177773095667362,-0.002139581833034754,-0.0004188253660686314,0.3682171106338501,0.7809178829193115,0.5821280479431152,-0.8777302503585815,-0.015095807611942291,0.47130000591278076,0.3209969997406006,0.7516137361526489,0.42000001668930054,-0.5905276536941528,-0.04130333662033081,-1.465801477432251,3.0,-0.17137271165847778,-0.16768638789653778,-0.16283293068408966,-0.156737819314003,0.00946524553000927,0.0359916090965271,0.054754968732595444,0.05600377544760704
0.85,0.10248585790395737,0.020592594519257545,0.0,0.6897317171096802,0.0,0.0,-0.7240650653839111,-0.062368378043174744,0.21939221024513245,0.0,0.0,0.0,2.4444265365600586,0.31409481167793274,0.7517145276069641,0.42000001668930054,0.6268348097801208,-2.2421529592975276e-06,-4.241821443429217e-06,-0.7791520953178406,9.787431918084621e-05,-0.0003681459929794073,-0.00010153185576200485,0.008163262158632278,-0.0021667887922376394,-0.0004130138549953699,0.3590569496154785,0.780990719795227,0.5905383825302124,-0.23136833310127258,0.08194226026535034,0.5934423208236694,0.3209969997406006,0.7516137361526489,0.42000001668930054,-0.5689285397529602,2.402944803237915,-1.4157907962799072,3.000000238418579,-0.17181779444217682,-0.1678113341331482,-0.1626395732164383,-0.15638227760791779,0.040904413908720016,0.03831331804394722,0.04240936040878296,0.04488559067249298
0.8666666666666667,0.09957902878522873,0.019862452521920204,0.0,0.6879920959472656,0.0,0.0,-0.7257182002067566,-0.2223205715417862,-0.054088395088911057,0.0,0.0,0.0,-1.1242183446884155,0.31409481167793274,0.7517145276069641,0.42000001668930054,0.6268349289894104,-2.2427402655011974e-06,-4.180714313406497e-06,-0.7791520953178406,9.765379218151793e-05,-0.00036798813380301,-0.00010155467316508293,0.008158795535564423,-0.0021679734345525503,-0.0004124511615373194,0.35419246554374695,0.7819463014602661,0.5993213057518005,-0.39796820282936096,-0.09820886701345444,0.5737600326538086,0.3209969997406006,0.7516137361526489,0.42000001668930054,-0.5728703737258911,-2.4508180618286133,-1.3657362461090088,3.000000238418579,-0.1691787987947464,-0.16558407247066498,-0.16071705520153046,-0.15476904809474945,0.03532857075333595,0.035953570157289505,0.03898199647665024,0.03819582238793373
0.8833333333333333,0.09863048046827316,0.0197535902261734,0.0,0.6971687078475952,0.0,0.0,-0.7169070839881897,-0.007343648467212915,-0.043176569044589996,0.0,0.0,0.0,2.3569884300231934,0.31409481167793274,0.7517145276069641,0.42000001668930054,0.6268348097801208,-2.135026988980826e-06,-4.407964752317639e-06,-0.7791520953178406,0.00010027606185758486,-0.00036843266570940614,-0.00010090810246765614,0.008175328373908997,-0.0021407532040029764,-0.00041835277806967497,0.35252809524536133,0.7784960269927979,0.6062954664230347,0.18536147475242615,-0.2224453091621399,0.34560373425483704,0.3209969997406006,0.7516137361526489,0.42000001668930054,-0.5850235223770142,0.7266481518745422,-1.3844685554504395,-2.9999990463256836,-0.17064498364925385,-0.16625256836414337,-0.16054685413837433,-0.1538373976945877,-0.053425949066877365,0.004741109907627106,0.06737982481718063,0.12746290862560272
