vladlanda/robotic-transformer/data/env_000_episode_0181.csv
sim_time_s,robot_box_x,robot_box_y,robot_box_z,robot_box_quat_w,robot_box_quat_x,robot_box_quat_y,robot_box_quat_z,robot_box_linvel_x,robot_box_linvel_y,robot_box_linvel_z,robot_box_angvel_x,robot_box_angvel_y,robot_box_angvel_z,cube_world_x,cube_world_y,cube_world_z,cube_quat_w,cube_quat_x,cube_quat_y,cube_quat_z,cube_linvel_x,cube_linvel_y,cube_linvel_z,cube_angvel_x,cube_angvel_y,cube_angvel_z,endpoint_world_x,endpoint_world_y,endpoint_world_z,endpoint_linvel_x,endpoint_linvel_y,endpoint_linvel_z,target_cube_world_x,target_cube_world_y,target_cube_world_z,gripper_actual_pos_rad_gp_leftgearjoint,gripper_actual_vel_rad_s_gp_leftgearjoint,gripper_actual_pos_rad_gp_rotatingjoint,gripper_actual_vel_rad_s_gp_rotatingjoint,motor_angle_rad_joint1,motor_angle_rad_joint2,motor_angle_rad_joint3,motor_angle_rad_joint4,motor_speed_rad_s_joint1,motor_speed_rad_s_joint2,motor_speed_rad_s_joint3,motor_speed_rad_s_joint4
0.0,0.0,0.0,0.0,1.0,0.0,0.0,0.0,0.0,0.0,0.0,0.0,0.0,0.0,-0.32182517647743225,0.6376131176948547,0.41999998688697815,1.0,0.0,0.0,0.0,0.0,0.0,0.0,0.0,0.0,0.0,3.42540442943573e-06,-0.005000244826078415,1.313499927520752,0.0,0.0,0.0,0.39597204327583313,0.7175595164299011,0.42000001668930054,-1.5707999467849731,0.0,0.0,0.0,0.0,0.0,0.0,0.0,0.0,0.0,0.0,0.0
0.016666666666666666,0.0028708456084132195,0.0021549658849835396,0.0,0.9998274445533752,0.0,0.0,-0.018576255068182945,0.23916521668434143,0.18010927736759186,0.0,0.0,0.0,-3.1459462642669678,-0.3218252956867218,0.6376128196716309,0.41999998688697815,1.0,3.2799914606584935e-06,-8.339814598912199e-07,8.465387679734704e-08,-1.9833554688375443e-05,0.00017983050202019513,-6.133061833679676e-05,0.0009432226070202887,-0.004689437802881002,-0.0003198152990080416,-0.00698193721473217,0.004098881967365742,1.3159265518188477,-0.7936253547668457,1.044884204864502,0.1792171746492386,0.39597204327583313,0.7175595164299011,0.42000001668930054,-1.5301092863082886,3.00000262260437,-0.045870501548051834,-3.000000238418579,0.000864341389387846,0.0007910337299108505,0.0007056007743813097,0.0006059386651031673,0.11036273837089539,0.09692703187465668,0.08263018727302551,0.06743524968624115
0.03333333333333333,0.008870476856827736,0.006733796093612909,0.0,0.999813437461853,0.0,0.0,-0.019314341247081757,0.4024999439716339,0.3139004707336426,0.0,0.0,0.0,0.8620584607124329,-0.32182541489601135,0.6376127600669861,0.4200000464916229,1.0,3.39090593115543e-06,-2.1324372028175276e-06,-3.7106541839193596e-08,0.0002635782293509692,0.0002693790593184531,-0.00010509486310184002,-0.0017707175575196743,0.004130743443965912,-0.00013547750131692737,-0.026445556432008743,0.0250129122287035,1.316879153251648,-1.4756006002426147,1.5010795593261719,-0.042886555194854736,0.39597204327583313,0.7175595164299011,0.42000001668930054,-1.4800901412963867,3.0,-0.09591025859117508,-2.999999523162842,0.0029180787969380617,0.002575246151536703,0.0021946728229522705,0.0017728093080222607,0.1587567925453186,0.13410484790802002,0.10796637088060379,0.08025144040584564
0.05,0.017521657049655914,0.013532653450965881,0.0,0.9994083642959595,0.0,0.0,-0.03439317271113396,0.581413745880127,0.4505394697189331,0.0,0.0,0.0,-2.640977144241333,-0.32182544469833374,0.6376128196716309,0.4200000464916229,1.0,3.765230758290272e-06,-2.211922264905297e-06,5.6083799826467384e-09,0.0002653090050444007,0.00026691501261666417,-0.00010440615005791187,-0.00172435212880373,0.0041774665005505085,-0.0001294955873163417,-0.05407807230949402,0.055759966373443604,1.3127821683883667,-1.8080819845199585,2.146916389465332,-0.42110776901245117,0.39597204327583313,0.7175595164299011,0.42000001668930054,-1.430068016052246,2.9999990463256836,-0.12812384963035583,-1.007222294807434,0.005364895332604647,0.004499340429902077,0.0035619919653981924,0.0025479616597294807,0.16576255857944489,0.1225702166557312,0.07751863449811935,0.03051837347447872
0.06666666666666667,0.02969248592853546,0.022800659760832787,0.0,0.9971693754196167,0.0,0.0,-0.0751880407333374,0.7901789546012878,0.6011441946029663,0.0,0.0,0.0,-5.867154598236084,-0.32182544469833374,0.6376127600669861,0.4200000464916229,0.9999999403953552,3.406835730856983e-06,-2.2856456780573353e-06,4.3008122929677484e-07,0.0002670265967026353,0.0002679176104720682,-0.0001043803058564663,-0.0017406701808795333,0.004211854189634323,-0.0001285061298403889,-0.08545307070016861,0.09460057318210602,1.3027832508087158,-1.9406027793884277,2.4949588775634766,-0.7666482925415039,0.39597204327583313,0.7175595164299011,0.42000001668930054,-1.3800537586212158,2.9999983310699463,-0.16783902049064636,-3.000000238418579,0.007832870818674564,0.00617928896099329,0.004415485076606274,0.0025344970636069775,0.14888711273670197,0.0939001590013504,0.03684855252504349,-0.022286785766482353
0.08333333333333333,0.044944219291210175,0.03258076310157776,0.0,0.995280921459198,0.0,0.0,-0.09703560173511505,0.9527655839920044,0.5950376391410828,0.0,0.0,0.0,-1.6383782625198364,-0.32182544469833374,0.6376127600669861,0.4200000464916229,0.9999999403953552,3.6261644709156826e-06,-2.3353672986559104e-06,3.032186555174121e-07,0.00026613904628902674,0.0002668514207471162,-0.00010405178181827068,-0.0017283462220802903,0.004196255002170801,-0.00012790478649549186,-0.12166917324066162,0.13414356112480164,1.2880245447158813,-2.1657023429870605,2.499344825744629,-1.0015544891357422,0.39597204327583313,0.7175595164299011,0.42000001668930054,-1.3300285339355469,2.9999966621398926,-0.1341664344072342,3.0000009536743164,0.009187078103423119,0.006551873870193958,0.0037651746533811092,0.0008208922226913273,0.04038148373365402,-0.02596200257539749,-0.0944303348660469,-0.1649731993675232
0.1,0.05432133004069328,0.039669547230005264,0.0,0.9910604953765869,0.0,0.0,-0.13341334462165833,0.43387120962142944,0.3669276535511017,0.0,0.0,0.0,-5.330750465393066,-0.32182544469833374,0.6376127600669861,0.4200000464916229,1.0,3.4222073281853227e-06,-2.308677721885033e-06,1.7962315723707434e-07,0.00026681547751650214,0.0002680041070561856,-0.00010440708138048649,-0.0017430889420211315,0.004207076504826546,-0.00012890899961348623,-0.1539578139781952,0.17814293503761292,1.269711971282959,-1.6956578493118286,2.8692684173583984,-1.1453073024749756,0.39597204327583313,0.7175595164299011,0.42000001668930054,-1.2800253629684448,3.000000238418579,-0.16606497764587402,-3.000000476837158,0.003892007749527693,0.0003986117662861943,-0.003297616960480809,-0.007204583380371332,-0.4416007101535797,-0.5000283718109131,-0.5610030889511108,-0.62465500831604
0.11666666666666667,0.06688372790813446,0.04984888806939125,0.0,0.9880748391151428,0.0,0.0,-0.1539742797613144,0.8920971155166626,0.695398211479187,0.0,0.0,0.0,-1.4003432989120483,-0.32182544469833374,0.6376128196716309,0.4200000464916229,1.0,3.711526687766309e-06,-2.332793883397244e-06,2.5743705123204563e-07,0.0002648560330271721,0.0002663539198692888,-0.00010423408821225166,-0.0017182118026539683,0.004170038737356663,-0.00012915795377921313,-0.18779772520065308,0.22509069740772247,1.2435333728790283,-2.133296251296997,2.977865695953369,-1.9162886142730713,0.39597204327583313,0.7175595164299011,0.42000001668930054,-1.2300114631652832,2.999992609024048,-0.13240930438041687,3.0000007152557373,-0.001132172648794949,-0.005707531701773405,-0.01049490924924612,-0.01550489105284214,-0.24317747354507446,-0.3069952428340912,-0.370182067155838,-0.43292513489723206
0.13333333333333333,0.07768706977367401,0.05700840428471565,0.0,0.9831675291061401,0.0,0.0,-0.1827063113451004,0.6586546897888184,0.3276308476924896,0.0,0.0,0.0,-4.143761157989502,-0.32182544469833374,0.6376127600669861,0.4200000464916229,1.0,3.335698920636787e-06,-2.231972302979557e-06,3.1132941558098537e-07,0.0002666980435606092,0.0002675938594620675,-0.00010428414680063725,-0.001737142214551568,0.004205951001495123,-0.00012840627459809184,-0.22210636734962463,0.2763940691947937,1.2109317779541016,-1.8925915956497192,3.2458486557006836,-2.004910469055176,0.39597204327583313,0.7175595164299011,0.42000001668930054,-1.1800122261047363,2.999999761581421,-0.16432011127471924,-3.0,-0.007101426832377911,-0.012853809632360935,-0.01879235729575157,-0.024928132072091103,-0.27637505531311035,-0.3686627745628357,-0.4576353430747986,-0.543178379535675
0.15,0.08634970337152481,0.06023942306637764,0.0,0.9717347621917725,0.0,0.0,-0.23607537150382996,0.46643295884132385,0.1278529316186905,0.0,0.0,0.0,-7.404855728149414,-0.32182544469833374,0.6376127600669861,0.4200000464916229,1.0,3.518880475894548e-06,-2.283154344695504e-06,-3.6252620816412673e-07,0.00026618526317179203,0.00026735776918940246,-0.00010425550863146782,-0.0017349221743643284,0.004195718094706535,-0.00012860927381552756,-0.2518913149833679,0.3377434015274048,1.1692357063293457,-1.5979174375534058,4.002193450927734,-2.9341747760772705,0.39597204327583313,0.7175595164299011,0.42000001668930054,-1.130002498626709,3.0000016689300537,-0.13070593774318695,2.999999761581421,-0.013053768314421177,-0.020093578845262527,-0.027254905551671982,-0.034549370408058167,-0.42124271392822266,-0.4803381562232971,-0.5356695652008057,-0.5873808264732361
0.16666666666666666,0.09078643471002579,0.06484412401914597,0.0,0.96366286277771,0.0,0.0,-0.26712146401405334,0.18484042584896088,0.3343939781188965,0.0,0.0,0.0,-2.6427788734436035,-0.32182544469833374,0.6376127600669861,0.4200000464916229,1.0,3.666600605356507e-06,-2.339188768019085e-06,-3.1499530450673774e-07,0.00026595924282446504,0.00026667435304261744,-0.00010403618216514587,-0.0017253292025998235,0.0041928282007575035,-0.00012778396194335073,-0.2824626564979553,0.39986592531204224,1.1127309799194336,-1.594492793083191,3.8337020874023438,-3.804793357849121,0.39597204327583313,0.7175595164299011,0.42000001668930054,-1.0800009965896606,3.0,-0.16257676482200623,-3.000000238418579,-0.022148139774799347,-0.029817428439855576,-0.03753836452960968,-0.04532807320356369,-0.6101712584495544,-0.6310446262359619,-0.6479607820510864,-0.6613412499427795
0.18333333333333332,0.09885260462760925,0.07140760123729706,0.0,0.9509730935096741,0.0,0.0,-0.30927368998527527,0.47282445430755615,0.4827355146408081,0.0,0.0,0.0,-6.058640003204346,-0.32182544469833374,0.6376127600669861,0.4200000464916229,1.0,3.814370074906037e-06,-2.399574896116974e-06,-2.702666961340583e-07,0.0002654897980391979,0.00026611099019646645,-0.00010391091927886009,-0.0017177591798827052,0.0041848174296319485,-0.00012754288036376238,-0.30703479051589966,0.4650638699531555,1.0419549942016602,-1.1774592399597168,3.9206204414367676,-4.660709381103516,0.39597204327583313,0.7175595164299011,0.42000001668930054,-1.0299919843673706,2.9999537467956543,-0.21260370314121246,-2.999992609024048,-0.031232662498950958,-0.0392511822283268,-0.04725457355380058,-0.05526763200759888,-0.7457761764526367,-0.7318607568740845,-0.7160500288009644,-0.6989285349845886
0.2,0.10366832464933395,0.07589582353830338,0.0,0.9430660605430603,0.0,0.0,-0.3326055705547333,0.25943484902381897,0.23252949118614197,0.0,0.0,0.0,-1.6925426721572876,-0.32182544469833374,0.6376127600669861,0.4200000464916229,1.0,3.600122226998792e-06,-2.291252030772739e-06,-2.2019608536538726e-07,0.00026572865317575634,0.0002664501662366092,-0.00010398216545581818,-0.001722778775729239,0.0041887820698320866,-0.0001277332048630342,-0.3279721736907959,0.5219883918762207,0.958351194858551,-0.9404489398002625,3.217594623565674,-5.323001861572266,0.39597204327583313,0.7175595164299011,0.42000001668930054,-0.9799816012382507,3.000002861022949,-0.26263272762298584,-3.0000011920928955,-0.04567814618349075,-0.05305903032422066,-0.06025325506925583,-0.06747782975435257,-0.9213796257972717,-0.8790785074234009,-0.8173559904098511,-0.7574996948242188
0.21666666666666667,0.10477571934461594,0.08293163031339645,0.0,0.9312680959701538,0.0,0.0,-0.3643345832824707,0.0023928950540721416,0.44661909341812134,0.0,0.0,0.0,-4.825779914855957,-0.32182544469833374,0.6376127600669861,0.4200000464916229,0.9999999403953552,3.6396777431946248e-06,-2.2619990431849146e-06,2.224727353450362e-07,0.0002668732777237892,0.00026754505233839154,-0.00010411837138235569,-0.001740398583933711,0.004211041145026684,-0.00012783650890924037,-0.34111082553863525,0.5725212693214417,0.8629246950149536,-0.538445770740509,2.76576828956604,-5.950068473815918,0.39597204327583313,0.7175595164299011,0.42000001668930054,-0.929970920085907,3.0000011920928955,-0.3126639127731323,-3.0000007152557373,-0.06158621981739998,-0.06908977031707764,-0.07636258751153946,-0.08356308192014694,-0.9857102632522583,-0.9875897169113159,-0.9842243790626526,-0.9784034490585327
0.23333333333333334,0.11001580208539963,0.08500044047832489,0.0,0.9254840016365051,0.0,0.0,-0.37878677248954773,0.27472445368766785,0.08014857023954391,0.0,0.0,0.0,-0.759417712688446,-0.32182541489601135,0.6376127600669861,0.4200000464916229,1.0,3.420725533942459e-06,-2.3168145162344445e-06,2.955925424430461e-07,0.0002668009256012738,0.0002680391480680555,-0.00010442500934004784,-0.0017438052454963326,0.004206889308989048,-0.00012899514695163816,-0.35272473096847534,0.6097257137298584,0.7634322047233582,-0.4773521423339844,1.7191269397735596,-6.069566249847412,0.39597204327583313,0.7175595164299011,0.42000001668930054,-0.8799602389335632,2.9999959468841553,-0.3626960217952728,-2.999998092651367,-0.07569248229265213,-0.0831371545791626,-0.09030973166227341,-0.0974077582359314,-0.9892171025276184,-0.9911795854568481,-0.9927465915679932,-0.9937494397163391
0.25,0.10930772125720978,0.09104591608047485,0.0,0.9141508936882019,0.0,0.0,-0.405374139547348,-0.0528128407895565,0.34739112854003906,0.0,0.0,0.0,-4.143613815307617,-0.32182544469833374,0.6376127600669861,0.4200000464916229,0.9999999403953552,3.347619667692925e-06,-2.2591293600271456e-06,1.8083206043684186e-07,0.00026687842910178006,0.00026791240088641644,-0.00010439497418701649,-0.0017405577236786485,0.004208357073366642,-0.00012870198406744748,-0.35308364033699036,0.6263810396194458,0.660692572593689,0.3126547634601593,0.4821130633354187,-5.9838128089904785,0.39597204327583313,0.7175595164299011,0.42000001668930054,-0.8299500942230225,2.999995231628418,-0.4127277433872223,-2.9999969005584717,-0.09315070509910583,-0.10032574832439423,-0.10733931511640549,-0.114339180290699,-0.7494714856147766,-0.795367956161499,-0.841951847076416,-0.8853893876075745
0.26666666666666666,0.11234704405069351,0.09188684076070786,0.0,0.9100896716117859,0.0,0.0,-0.414411336183548,0.17178748548030853,0.0019447633530944586,0.0,0.0,0.0,-0.16416700184345245,-0.32182544469833374,0.6376127600669861,0.4200000464916229,0.9999999403953552,3.535691575962119e-06,-2.300224196005729e-06,-1.2685821104696515e-07,0.000266017101239413,0.0002671221154741943,-0.00010419590398669243,-0.0017316547455266118,0.004192805383354425,-0.00012849456106778234,-0.3514329195022583,0.6311449408531189,0.5658595561981201,0.20858615636825562,-0.02674098312854767,-5.4318952560424805,0.39597204327583313,0.7175595164299011,0.42000001668930054,-0.7799413204193115,2.999992847442627,-0.46275797486305237,-3.0000007152557373,-0.10581380873918533,-0.11333204060792923,-0.12074530124664307,-0.12814754247665405,-0.9926660060882568,-0.9726361632347107,-0.9561705589294434,-0.9429520964622498
0.2833333333333333,0.11150214821100235,0.09084849059581757,0.0,0.9177714586257935,0.0,0.0,-0.3971089720726013,-0.12620747089385986,-0.10065172612667084,0.0,0.0,0.0,3.184256076812744,-0.32182544469833374,0.6376128196716309,0.4200000464916229,1.0,3.593470182750025e-06,-2.262564521515742e-06,-5.654738899352196e-08,0.0002670473768375814,0.00026775008882395923,-0.00010416633449494839,-0.0017430743901059031,0.00421402882784605,-0.0001278889540117234,-0.349257230758667,0.6313331723213196,0.4801044464111328,0.22159618139266968,-0.061240531504154205,-4.753467082977295,0.39597204327583313,0.7175595164299011,0.42000001668930054,-0.7299330234527588,3.00000262260437,-0.5127862095832825,-3.0,-0.12353377789258957,-0.1308225393295288,-0.1380666047334671,-0.14533792436122894,-1.0172425508499146,-1.0130572319030762,-1.009852409362793,-1.007286548614502
0.3,0.10740278661251068,0.08776329457759857,0.0,0.918414831161499,0.0,0.0,-0.3956187665462494,-0.23207128047943115,-0.24659426510334015,0.0,0.0,0.0,-0.7424534559249878,-0.3220022916793823,0.6324025392532349,0.4200005531311035,0.9996380805969238,0.00016316752589773387,4.008274481748231e-05,0.026897748932242393,-0.018509307876229286,-0.6471219062805176,-0.006693853065371513,-0.3262391984462738,0.010352065786719322,6.611447334289551,-0.3368139863014221,0.6319958567619324,0.40114760398864746,1.1476562023162842,0.16723403334617615,-4.656155586242676,0.39597204327583313,0.7175595164299011,0.42000001668930054,-0.6799262762069702,2.9997196197509766,-0.5628129839897156,-2.999920606613159,-0.14047552645206451,-0.14760346710681915,-0.15473856031894684,-0.16192668676376343,-0.9696512222290039,-0.9631809592247009,-0.9582838416099548,-0.9533219337463379
0.31666666666666665,0.10183998197317123,0.08210538327693939,0.0,0.9247602224349976,0.0,0.0,-0.3805503249168396,-0.379224568605423,-0.37843456864356995,0.0,0.0,0.0,2.8166370391845703,-0.3215022385120392,0.6271620392799377,0.42194101214408875,0.9986264705657959,0.034016262739896774,0.016272790729999542,-0.03637581318616867,0.12479196488857269,-0.05230604112148285,0.16872011125087738,11.368766784667969,-1.5506616830825806,-16.476694107055664,-0.3361372947692871,0.6368939280509949,0.42214488983154297,0.22693213820457458,0.36436307430267334,-0.18283148109912872,0.39597204327583313,0.7175595164299011,0.42000001668930054,-0.6300852298736572,3.0000016689300537,-0.6132058501243591,-2.999812364578247,-0.14273352921009064,-0.14992935955524445,-0.1567823439836502,-0.16328462958335876,-0.249918594956398,-0.24097588658332825,-0.2143242359161377,-0.16721555590629578
0.3333333333333333,0.09389492869377136,0.0742870345711708,0.0,0.9245215058326721,0.0,0.0,-0.3811299204826355,-0.517640233039856,-0.5081258416175842,0.0,0.0,0.0,-1.0367255210876465,-0.31676626205444336,0.6302998065948486,0.42346465587615967,0.990289568901062,0.08340804278850555,0.0017283593770116568,-0.11120472103357315,0.3281639516353607,0.2574458718299866,0.058066628873348236,2.792372465133667,-0.0426672026515007,2.878171682357788,-0.3298671245574951,0.6407861709594727,0.41939008235931396,0.4738301634788513,0.20261000096797943,0.0007402747869491577,0.39597204327583313,0.7175595164299011,0.42000001668930054,-0.5800690054893494,2.9983346462249756,-0.6632285714149475,-2.9825551509857178,-0.14864657819271088,-0.15508246421813965,-0.16087600588798523,-0.16599193215370178,-0.401565283536911,-0.3291202783584595,-0.23948979377746582,-0.13179270923137665
0.35,0.08362310379743576,0.06427116692066193,0.0,0.9298756718635559,0.0,0.0,-0.36787402629852295,-0.6596466302871704,-0.6396056413650513,0.0,0.0,0.0,2.6091103553771973,-0.30858492851257324,0.6387203931808472,0.42473602294921875,0.9836822152137756,0.09249552339315414,0.007092359475791454,-0.1541537493467331,0.6175394058227539,0.6322597861289978,0.09187386184930801,0.5702415108680725,0.581558883190155,-5.4983344078063965,-0.32141077518463135,0.6476097106933594,0.4195472300052643,0.6037636995315552,0.5854062438011169,0.024894505739212036,0.39597204327583313,0.7175595164299011,0.42000001668930054,-0.5300430655479431,2.999816417694092,-0.713243842124939,-3.000002384185791,-0.1560671180486679,-0.1609659343957901,-0.16489262878894806,-0.1678135246038437,-0.4329342544078827,-0.3293287456035614,-0.20544473826885223,-0.061819158494472504
0.36666666666666664,0.07662389427423477,0.05165795609354973,0.0,0.9290544390678406,0.0,0.0,-0.36994311213493347,-0.33347952365875244,-0.8027887344360352,0.0,0.0,0.0,-1.205257773399353,-0.29804107546806335,0.6492370367050171,0.42434391379356384,0.9787969589233398,0.08417578786611557,0.005646928213536739,-0.1866517812013626,0.6701881885528564,0.595161497592926,-0.04129356890916824,-6.696927070617676,0.07983845472335815,0.40914103388786316,-0.3087213933467865,0.6562657952308655,0.42081546783447266,0.9474868774414062,0.5493983626365662,0.08191978186368942,0.39597204327583313,0.7175595164299011,0.42000001668930054,-0.4799920916557312,3.0000014305114746,-0.7632530331611633,-2.999987840652466,-0.16352707147598267,-0.16620096564292908,-0.16751618683338165,-0.16746798157691956,-0.4249989092350006,-0.2719213664531708,-0.09562385827302933,0.10141188651323318
0.3833333333333333,0.06717831641435623,0.037545885890722275,0.0,0.9164305329322815,0.0,0.0,-0.40019381046295166,-0.6498236060142517,-0.8720383644104004,0.0,0.0,0.0,-4.877793788909912,-0.2777238190174103,0.6624802947044373,0.423566073179245,0.9647499918937683,-0.04148142412304878,0.002473244210705161,-0.25986623764038086,1.5096101760864258,1.0116899013519287,-0.04251447319984436,-20.17074966430664,-3.838423252105713,-9.011445045471191,-0.288948118686676,0.6689910888671875,0.4225769340991974,1.4702839851379395,1.0184460878372192,0.13638705015182495,0.39597204327583313,0.7175595164299011,0.42000001668930054,-0.429928719997406,2.999680280685425,-0.8132631182670593,-3.0000174045562744,-0.17271295189857483,-0.1723354309797287,-0.17020566761493683,-0.16637985408306122,-0.5139788389205933,-0.330616295337677,-0.12368173897266388,0.10285121947526932
0.4,0.06091974675655365,0.02055532857775688,0.0,0.8902266621589661,0.0,0.0,-0.45551782846450806,-0.3343794047832489,-1.0640712976455688,0.0,0.0,0.0,-8.130548477172852,-0.2435319423675537,0.6835247874259949,0.4277869760990143,0.9492089748382568,-0.036574169993400574,-0.03326581045985222,-0.31073784828186035,2.795074224472046,1.5218781232833862,0.5445318222045898,1.5430231094360352,-4.915063858032227,-1.577135682106018,-0.2538241147994995,0.6918163299560547,0.42553654313087463,2.695552110671997,1.6431466341018677,0.3959033489227295,0.39597204327583313,0.7175595164299011,0.42000001668930054,-0.39357662200927734,1.3658225536346436,-0.8632862567901611,-2.9999516010284424,-0.18051588535308838,-0.17715227603912354,-0.1716623455286026,-0.16417722404003143,-0.5205208659172058,-0.32692214846611023,-0.11471002548933029,0.11103504151105881
0.4166666666666667,0.05669386312365532,0.00840982235968113,0.0,0.8477864861488342,0.0,0.0,-0.5303376913070679,-0.20818474888801575,-0.6114708185195923,0.0,0.0,0.0,-11.107881546020508,-0.17313054203987122,0.7136825323104858,0.4327888488769531,0.9263581037521362,0.009369589388370514,-0.08129454404115677,-0.36764657497406006,5.70124626159668,1.6161664724349976,0.272708922624588,18.420936584472656,-15.707225799560547,17.37346649169922,-0.18192914128303528,0.7232028245925903,0.4299146831035614,5.554194450378418,2.2430405616760254,0.31580355763435364,0.39597204327583313,0.7175595164299011,0.42000001668930054,-0.3750084340572357,0.9353874921798706,-0.8263964653015137,2.9964942932128906,-0.19558480381965637,-0.1887277513742447,-0.17801429331302643,-0.16547001898288727,-0.8953740000724792,-0.7842113971710205,-0.46333053708076477,-0.16448530554771423
0.43333333333333335,0.056011881679296494,-0.0009523866465315223,0.0,0.81354159116745,0.0,0.0,-0.5815067291259766,0.0242778267711401,-0.5177024006843567,0.0,0.0,0.0,-6.234653472900391,-0.08312919735908508,0.7474470734596252,0.4399428367614746,0.8824807405471802,0.03856612741947174,-0.12181022018194199,-0.45266181230545044,5.454154014587402,1.1367604732513428,0.6636242866516113,13.348769187927246,-8.300603866577148,13.749283790588379,-0.09042160958051682,0.7598898410797119,0.4368605315685272,5.621929168701172,1.9028531312942505,0.4903959333896637,0.39597204327583313,0.7175595164299011,0.42000001668930054,-0.3614647686481476,0.7357199788093567,-0.8530981540679932,-2.9991872310638428,-0.2058255672454834,-0.19861477613449097,-0.18427692353725433,-0.16845813393592834,-0.5351091027259827,-0.5104789137840271,-0.3359028100967407,-0.18563419580459595
0.45,0.0586375929415226,-0.007008357904851437,0.0,0.7991578578948975,0.0,0.0,-0.601121187210083,0.21305710077285767,-0.3088366985321045,0.0,0.0,0.0,-1.8066648244857788,0.005460143089294434,0.7693977952003479,0.44988369941711426,0.8296505212783813,0.06449927389621735,-0.09121900796890259,-0.546990692615509,5.130967617034912,0.5055038332939148,0.5559719800949097,-4.590019226074219,5.896509170532227,0.7918204665184021,0.00037407130002975464,0.7838137745857239,0.4438031017780304,5.477649211883545,1.0095173120498657,0.5247884392738342,0.39597204327583313,0.7175595164299011,0.42000001668930054,-0.3493577241897583,0.5925658941268921,-0.903122067451477,-2.9988443851470947,-0.21437250077724457,-0.20638561248779297,-0.18951182067394257,-0.1716153919696808,-0.4504473805427551,-0.39666926860809326,-0.274760365486145,-0.18182559311389923
0.4666666666666667,0.059326257556676865,-0.008616060949862003,0.0,0.7781729102134705,0.0,0.0,-0.6280500888824463,0.034913450479507446,-0.05556705221533775,0.0,0.0,0.0,-4.817625522613525,0.0900656133890152,0.7780054211616516,0.45591190457344055,0.7784785628318787,0.07745075970888138,-0.08146461099386215,-0.6175239682197571,4.9176836013793945,-0.5892788171768188,0.34796571731567383,22.489391326904297,-20.095523834228516,28.634065628051758,0.08727364242076874,0.7940677404403687,0.44937941431999207,5.167641639709473,0.2594282329082489,0.37994691729545593,0.39597204327583313,0.7175595164299011,0.42000001668930054,-0.34130048751831055,0.37292706966400146,-0.9531461000442505,-3.0000054836273193,-0.22244028747081757,-0.21358130872249603,-0.19512882828712463,-0.17603537440299988,-0.410261869430542,-0.3660813271999359,-0.30260270833969116,-0.25700393319129944
0.48333333333333334,0.062206536531448364,-0.00910258013755083,0.0,0.7694277763366699,0.0,0.0,-0.6387338042259216,0.20692946016788483,0.05189771577715874,0.0,0.0,0.0,-0.5614587068557739,0.1669384241104126,0.7767425775527954,0.4580917954444885,0.731628954410553,0.070244699716568,-0.07600422948598862,-0.6738012433052063,3.9391396045684814,-1.5956158638000488,0.08598938584327698,-0.2633393108844757,-14.881904602050781,38.29424285888672,0.16655099391937256,0.7920109033584595,0.4523821175098419,4.561872482299805,-0.46945756673812866,0.16269585490226746,0.39597204327583313,0.7175595164299011,0.42000001668930054,-0.3368024528026581,0.09838301688432693,-1.0031700134277344,-3.000005006790161,-0.22730901837348938,-0.21773739159107208,-0.19863951206207275,-0.17917130887508392,-0.29180729389190674,-0.23281198740005493,-0.19884797930717468,-0.1814042031764984
0.5,0.06337810307741165,-0.014263837598264217,0.0,0.7520676255226135,0.0,0.0,-0.6590859889984131,0.01387092936784029,-0.45943915843963623,0.0,0.0,0.0,-4.202537536621094,0.23561863601207733,0.7686593532562256,0.45287609100341797,0.6762796640396118,0.03838900849223137,-0.08658542484045029,-0.7305306196212769,3.4653446674346924,-1.3350965976715088,-0.4016202688217163,-3.1892173290252686,-9.752582550048828,24.200515747070312,0.2351943701505661,0.7832334041595459,0.44870930910110474,3.9370102882385254,-0.6986968517303467,-0.35687315464019775,0.39597204327583313,0.7175595164299011,0.42000001668930054,-0.3356545567512512,0.019592758268117905,-1.053192138671875,-3.000002384185791,-0.22484706342220306,-0.21553093194961548,-0.1972537338733673,-0.1786956489086151,0.28858059644699097,0.2665928602218628,0.1973869651556015,0.12443212419748306
0.5166666666666666,0.06718484312295914,-0.016320006921887398,0.0,0.7451663017272949,0.0,0.0,-0.6668786406517029,0.19106563925743103,-0.13812945783138275,0.0,0.0,0.0,-0.18578895926475525,0.29328468441963196,0.7526146769523621,0.4432748556137085,0.622286856174469,-0.0009540946921333671,-0.10343495011329651,-0.7759247422218323,2.778825044631958,-0.8999630212783813,-0.7020864486694336,-10.82647705078125,10.300665855407715,20.801321029663086,0.29269570112228394,0.766592264175415,0.4412029981613159,3.2739992141723633,-1.0623122453689575,-0.582386314868927,0.39597204327583313,0.7175595164299011,0.42000001668930054,-0.3303539454936981,0.5795803666114807,-1.1032142639160156,-3.0000007152557373,-0.22400730848312378,-0.2143222838640213,-0.19678303599357605,-0.17916543781757355,0.25221705436706543,0.2158624529838562,0.10985694080591202,-4.446127604751382e-06
0.5333333333333333,0.07188768684864044,-0.015304168686270714,0.0,0.7319554686546326,0.0,0.0,-0.681352436542511,0.32033953070640564,0.14437633752822876,0.0,0.0,0.0,-3.155489206314087,0.3387916088104248,0.7381700277328491,0.4264584183692932,0.5501836538314819,-0.08946159482002258,-0.15774321556091309,-0.815114438533783,2.3182787895202637,-0.6560483574867249,-1.037397861480713,-34.502445220947266,3.4481379985809326,-24.683433532714844,0.3371207118034363,0.7534118294715881,0.4283141493797302,1.7993991374969482,-0.4455801248550415,-0.16941748559474945,0.39597204327583313,0.7175595164299011,0.42000001668930054,-0.3155451714992523,1.1216440200805664,-1.1533105373382568,-2.9985625743865967,-0.22021406888961792,-0.21169322729110718,-0.19647569954395294,-0.18114018440246582,0.29838424921035767,0.1978989690542221,0.031068073585629463,-0.1259472668170929
0.55,0.0743572935461998,-0.01635737530887127,0.0,0.7306125164031982,0.0,0.0,-0.6827923059463501,0.08641190081834793,-0.13411271572113037,0.0,0.0,0.0,0.5342224836349487,0.3632730543613434,0.7316970229148865,0.42483067512512207,0.5232985019683838,-0.08617978543043137,-0.07751943171024323,-0.8442288637161255,1.0793861150741577,-0.40543892979621887,-0.12752991914749146,5.538465976715088,1.0955193042755127,0.5231093764305115,0.36027127504348755,0.7424366474151611,0.4250801205635071,1.0527698993682861,-0.7130837440490723,-0.2147718220949173,0.39597204327583313,0.7175595164299011,0.42000001668930054,-0.2902933657169342,1.9104859828948975,-1.203351378440857,-2.999936103820801,-0.21658268570899963,-0.2089967578649521,-0.19591939449310303,-0.18265461921691895,0.21937991678714752,0.17404361069202423,0.05411602929234505,-0.06357589364051819
0.5666666666666667,0.07774517685174942,-0.01781398616731167,0.0,0.7189856767654419,0.0,0.0,-0.695024847984314,0.2520740330219269,-0.09370402246713638,0.0,0.0,0.0,-2.9565272331237793,0.37377262115478516,0.7273321151733398,0.42477768659591675,0.5351178050041199,-0.06964999437332153,-0.07945277541875839,-0.8381438255310059,0.46896007657051086,-0.9122951030731201,0.2409912645816803,-9.996185302734375,-6.673877716064453,23.57976722717285,0.3708978295326233,0.737088143825531,0.42523884773254395,0.3534010052680969,-0.10844746232032776,0.067799873650074,0.39597204327583313,0.7175595164299011,0.42000001668930054,-0.26385247707366943,0.9005526304244995,-1.1678446531295776,2.9944770336151123,-0.2129724770784378,-0.20639100670814514,-0.1954658031463623,-0.18424443900585175,0.24971142411231995,0.17767685651779175,0.03964518383145332,-0.09041955322027206
0.5833333333333334,0.0796661451458931,-0.016733193770051003,0.0,0.7192368507385254,0.0,0.0,-0.6947649717330933,0.039165422320365906,0.09155063331127167,0.0,0.0,0.0,0.8906500339508057,0.37988296151161194,0.7196028828620911,0.42381811141967773,0.5538241863250732,-0.08789406716823578,-0.058326151221990585,-0.8259246349334717,0.3048010468482971,-0.5814380049705505,-0.06149507313966751,3.040882110595703,-1.6658008098602295,1.2347503900527954,0.3759790062904358,0.7299107313156128,0.42373740673065186,0.21478453278541565,-0.4698517322540283,-0.17615659534931183,0.39597204327583313,0.7175595164299011,0.42000001668930054,-0.2970009744167328,-2.9984755516052246,-1.1898554563522339,-2.9989163875579834,-0.20951341092586517,-0.20401282608509064,-0.1951739341020584,-0.1858857274055481,0.2685052156448364,0.1924818903207779,0.06229083612561226,-0.05629090219736099
0.6,0.08202869445085526,-0.0131663354113698,0.0,0.7104018926620483,0.0,0.0,-0.7037962079048157,0.18610849976539612,0.2825310528278351,0.0,0.0,0.0,-2.37109375,0.381801575422287,0.7142238616943359,0.4221837520599365,0.5640963315963745,-0.0454108901321888,-0.025614434853196144,-0.8240612149238586,0.1893966794013977,0.046341557055711746,0.08570840954780579,3.232152223587036,4.503759384155273,3.8516452312469482,0.37853002548217773,0.7299957871437073,0.4245281517505646,0.1863020360469818,0.19277134537696838,0.17063671350479126,0.39597204327583313,0.7175595164299011,0.42000001668930054,-0.32698068022727966,-0.8186342120170593,-1.2397847175598145,-2.9985644817352295,-0.20231524109840393,-0.19905732572078705,-0.1931167095899582,-0.18634888529777527,0.5511265993118286,0.38590285181999207,0.18876948952674866,0.017871176823973656
0.6166666666666667,0.08699452131986618,-0.013588334433734417,0.0,0.7130577564239502,0.0,0.0,-0.7011052966117859,0.31604722142219543,-0.03432246297597885,0.0,0.0,0.0,1.2504017353057861,0.38452816009521484,0.7149038314819336,0.42217421531677246,0.5785585641860962,-0.03937279433012009,-0.006176648195832968,-0.8146665692329407,0.13362914323806763,0.04233893007040024,-0.030367130413651466,1.075320839881897,-1.2564949989318848,-0.5132867097854614,0.3802841305732727,0.7317025661468506,0.4271300435066223,-0.037347618490457535,0.0068963803350925446,0.15525075793266296,0.39597204327583313,0.7175595164299011,0.42000001668930054,-0.3704661726951599,-2.998790979385376,-1.289790153503418,-2.999999761581421,-0.19149616360664368,-0.19089952111244202,-0.18815307319164276,-0.18422859907150269,0.4437161982059479,0.338853657245636,0.19915032386779785,0.07107037305831909
0.6333333333333333,0.09394964575767517,-0.010459496639668941,0.0,0.7047790288925171,0.0,0.0,-0.7094268798828125,0.44450071454048157,0.22624094784259796,0.0,0.0,0.0,-2.3079445362091064,0.3864325284957886,0.715437650680542,0.4203503429889679,0.5748550891876221,-0.00687381299212575,-0.004838535096496344,-0.8182120323181152,0.0954509824514389,0.015131296589970589,-0.09966582804918289,4.926842212677002,-1.6962133646011353,-0.5513274669647217,0.38030779361724854,0.7334319353103638,0.4308739900588989,0.1023922711610794,0.15670877695083618,0.2848634123802185,0.39597204327583313,0.7175595164299011,0.42000001668930054,-0.42044758796691895,-2.9956698417663574,-1.3397585153579712,-2.9987308979034424,-0.18568772077560425,-0.18630260229110718,-0.18512310087680817,-0.1824607253074646,0.446959525346756,0.36997610330581665,0.2856355607509613,0.2281666398048401
0.65,0.10298988223075867,-0.011114181950688362,0.0,0.67714923620224,0.0,0.0,-0.7358457446098328,0.5774381756782532,-0.0942118689417839,0.0,0.0,0.0,-5.550648212432861,0.3867480754852295,0.7152301073074341,0.41999924182891846,0.5729943513870239,-4.276695108273998e-05,2.0727144146803766e-05,-0.8195593357086182,-0.0036505390889942646,0.0009976490400731564,-0.0011592680821195245,-0.00935912411659956,-0.011806132271885872,0.010104484856128693,0.38392651081085205,0.73766028881073,0.4420071840286255,0.3319225311279297,0.22423826158046722,1.1638214588165283,0.39597204327583313,0.7175595164299011,0.42000001668930054,-0.4704611897468567,-2.9999663829803467,-1.3897769451141357,-2.999999523162842,-0.17895913124084473,-0.1805027425289154,-0.18030409514904022,-0.17819705605506897,0.2215288281440735,0.21551702916622162,0.20739975571632385,0.21998660266399384
0.6666666666666666,0.1145554780960083,-0.008079692721366882,0.0,0.6615094542503357,0.0,0.0,-0.7499368190765381,0.7142038345336914,0.17989012598991394,0.0,0.0,0.0,-1.4608149528503418,0.3867437541484833,0.7152305841445923,0.41999995708465576,0.5729978680610657,-2.401431402176968e-06,-2.3625286758033326e-06,-0.8195567727088928,-0.00013737571134697646,-7.420365727739409e-05,-3.428524360060692e-05,-0.0009816783713176847,-0.00488684419542551,-0.00015555284335277975,0.38943856954574585,0.7430614829063416,0.46776247024536133,0.4348832964897156,0.5095427632331848,1.9047927856445312,0.39597204327583313,0.7175595164299011,0.42000001668930054,-0.5204647779464722,-2.9999961853027344,-1.4397952556610107,-2.999999761581421,-0.17899155616760254,-0.18029364943504333,-0.1799067109823227,-0.17736712098121643,0.10370218008756638,0.07203728705644608,0.04158339649438858,0.027543263509869576
0.6833333333333333,0.12316643446683884,-0.0069437879137694836,0.0,0.6697948575019836,0.0,0.0,-0.7425462007522583,0.46044421195983887,0.06901106238365173,0.0,0.0,0.0,2.2050857543945312,0.3867436945438385,0.7152307033538818,0.41999998688697815,0.5729973912239075,-3.1266442874766653e-06,-4.298387466405984e-06,-0.8195571303367615,5.536538992600981e-06,-0.00034548461553640664,-9.667687118053436e-05,0.008642703294754028,-0.0032675748225301504,-0.0006748191663064063,0.3990609049797058,0.749907374382019,0.4927831292152405,0.6132874488830566,0.2845061123371124,1.1839953660964966,0.39597204327583313,0.7175595164299011,0.42000001668930054,-0.5443008542060852,-0.09499002248048782,-1.4898135662078857,-2.9999992847442627,-0.17670412361621857,-0.17799367010593414,-0.17758266627788544,-0.17483240365982056,0.047678202390670776,0.09588893502950668,0.14181484282016754,0.1915103793144226
0.7,0.1276451200246811,-0.009338879026472569,0.0,0.6667652130126953,0.0,0.0,-0.7452678680419922,0.18342481553554535,-0.2101588398218155,0.0,0.0,0.0,-1.2834064960479736,0.3867436945438385,0.7152307033538818,0.41999998688697815,0.5729976296424866,-3.0162648272380466e-06,-4.049457857036032e-06,-0.8195569515228271,5.249893547443207e-06,-0.0003466813650447875,-9.74640715867281e-05,0.008660596795380116,-0.003270635148510337,-0.0006770636537112296,0.40657949447631836,0.7520697712898254,0.5062400102615356,0.2876851260662079,-0.014111662283539772,0.6034598350524902,0.39597204327583313,0.7175595164299011,0.42000001668930054,-0.573235034942627,-3.0000007152557373,-1.4511183500289917,2.9999990463256836,-0.17614609003067017,-0.17639252543449402,-0.1750500351190567,-0.1714348942041397,0.019091006368398666,0.0937865823507309,0.15734639763832092,0.20974723994731903
0.7166666666666667,0.13321392238140106,-0.007490075659006834,0.0,0.6754904389381409,0.0,0.0,-0.7373687624931335,0.32937106490135193,0.14806616306304932,0.0,0.0,0.0,2.2434887886047363,0.3867436945438385,0.7152307033538818,0.41999998688697815,0.5729974508285522,-3.1908957680570893e-06,-3.9874726098787505e-06,-0.8195570111274719,5.4611332416243386e-06,-0.0003469456860329956,-9.721936658024788e-05,0.008675185963511467,-0.0032726810313761234,-0.000677219417411834,0.41121187806129456,0.7508608102798462,0.5181832313537598,0.30235549807548523,0.03664548695087433,0.8468278050422668,0.39597204327583313,0.7175595164299011,0.42000001668930054,-0.6041260957717896,-0.8675264716148376,-1.4682796001434326,-3.0,-0.179586261510849,-0.17805291712284088,-0.17513929307460785,-0.17021320760250092,-0.0952666774392128,-0.024487486109137535,0.038112565875053406,0.08849020302295685
0.7333333333333333,0.13589991629123688,-0.010263733565807343,0.0,0.6724603176116943,0.0,0.0,-0.7401331663131714,0.1323300004005432,-0.21888794004917145,0.0,0.0,0.0,-1.3818254470825195,0.3867436945438385,0.7152307033538818,0.41999998688697815,0.5729976296424866,-3.096028876825585e-06,-4.298882686271099e-06,-0.8195569515228271,9.241957741323858e-06,-0.00034740837872959673,-9.601912461221218e-05,0.008699347265064716,-0.0032483080867677927,-0.0006856032414361835,0.4189794063568115,0.7492344379425049,0.5265589952468872,0.5482977032661438,-0.3376712203025818,0.33618712425231934,0.39597204327583313,0.7175595164299011,0.42000001668930054,-0.6394410729408264,-3.0000009536743164,-1.4404951333999634,2.9999988079071045,-0.17824268341064453,-0.1757635474205017,-0.1719471514225006,-0.16625143587589264,0.015895145013928413,0.10586199164390564,0.19314101338386536,0.27025002241134644
0.75,0.1399994045495987,-0.009429934434592724,0.0,0.648604691028595,0.0,0.0,-0.7611254453659058,0.28420180082321167,0.06554093211889267,0.0,0.0,0.0,-4.596366882324219,0.3867436945438385,0.7152307033538818,0.41999998688697815,0.5729974508285522,-2.9519496820284985e-06,-4.018399067717837e-06,-0.8195571303367615,3.625113095040433e-06,-0.0003466310154180974,-9.805825538933277e-05,0.008652934804558754,-0.003282516961917281,-0.0006735484348610044,0.43024778366088867,0.7456830739974976,0.5352740287780762,0.8749748468399048,-0.08578009158372879,0.810280442237854,0.39597204327583313,0.7175595164299011,0.42000001668930054,-0.6721866130828857,-1.0670851469039917,-1.4578827619552612,-3.000000238418579,-0.17970044910907745,-0.17603641748428345,-0.17101535201072693,-0.16423209011554718,0.02140848897397518,0.04878566041588783,0.08233198523521423,0.11406049132347107
0.7666666666666666,0.14620089530944824,-0.006127569358795881,0.0,0.6394935250282288,0.0,0.0,-0.768796443939209,0.4079342186450958,0.2575998604297638,0.0,0.0,0.0,-0.4400143027305603,0.3867436945438385,0.7152307033538818,0.41999998688697815,0.5729977488517761,-3.0429109756369144e-06,-4.3687668949132785e-06,-0.8195568323135376,7.310221917578019e-06,-0.0003471063100732863,-9.65555664151907e-05,0.008686922490596771,-0.003259361255913973,-0.0006812909850850701,0.4424300491809845,0.7465765476226807,0.5486124753952026,0.5856484174728394,0.17468562722206116,0.8223923444747925,0.39597204327583313,0.7175595164299011,0.42000001668930054,-0.6615976095199585,2.057615041732788,-1.5079010725021362,-2.999999523162842,-0.17859899997711182,-0.1749803125858307,-0.16993093490600586,-0.1631762981414795,0.11348137259483337,0.08694642037153244,0.061297472566366196,0.0294013861566782
0.7833333333333333,0.14990371465682983,-0.007363036274909973,0.0,0.6534649729728699,0.0,0.0,-0.7569567561149597,0.20527414977550507,-0.1322598159313202,0.0,0.0,0.0,2.906470537185669,0.3867436945438385,0.7152307033538818,0.41999998688697815,0.5729977488517761,-2.85223291029979e-06,-4.204888227832271e-06,-0.8195568919181824,7.432525308104232e-06,-0.0003470795345492661,-9.685521945357323e-05,0.00867636688053608,-0.0032589933834969997,-0.0006820414564572275,0.4484784007072449,0.7497410178184509,0.5603284239768982,0.12241094559431076,0.13017554581165314,0.6155540943145752,0.39597204327583313,0.7175595164299011,0.42000001668930054,-0.643929660320282,0.208455890417099,-1.4691505432128906,2.999999523162842,-0.17307148873806,-0.17031674087047577,-0.16616623103618622,-0.16044819355010986,0.2584627866744995,0.22550824284553528,0.18489408493041992,0.13040971755981445
0.8,0.15057767927646637,-0.004077506251633167,0.0,0.653772234916687,0.0,0.0,-0.7566913962364197,-0.008951626718044281,0.19357213377952576,0.0,0.0,0.0,-0.778781533241272,0.3867436945438385,0.7152307033538818,0.41999998688697815,0.5729977488517761,-3.088845915044658e-06,-4.352775704319356e-06,-0.8195569515228271,8.834940672386438e-06,-0.0003473099786788225,-9.614881128072739e-05,0.00869505200535059,-0.0032502268441021442,-0.0006846564938314259,0.44709551334381104,0.7506957054138184,0.565117597579956,-0.14409568905830383,0.09459897130727768,0.08325284719467163,0.39597204327583313,0.7175595164299011,0.42000001668930054,-0.6387395858764648,0.3952074646949768,-1.4190940856933594,2.999999761581421,-0.17321476340293884,-0.17030158638954163,-0.16617807745933533,-0.1607867181301117,0.12481839209794998,0.09995754063129425,0.06764057278633118,0.02202710695564747
0.8166666666666667,0.14834485948085785,-0.003683872055262327,0.0,0.6637880206108093,0.0,0.0,-0.7479207515716553,-0.1823340803384781,-0.037354372441768646,0.0,0.0,0.0,2.330209732055664,0.3867436945438385,0.7152307033538818,0.41999998688697815,0.5729976892471313,-2.964771510960418e-06,-3.9275932977034245e-06,-0.8195568919181824,5.230588612903375e-06,-0.00034673555637709796,-9.747548028826714e-05,0.008662218227982521,-0.0032705802004784346,-0.0006770662730559707,0.44241079688072205,0.7512302398681641,0.5663290023803711,-0.40552136301994324,0.024254541844129562,0.10645175725221634,0.39597204327583313,0.7175595164299011,0.42000001668930054,-0.6263666749000549,1.0241196155548096,-1.4323228597640991,-3.0,-0.17229892313480377,-0.16942845284938812,-0.16550666093826294,-0.16057853400707245,0.026016315445303917,0.029157429933547974,0.021689362823963165,-0.0017935374053195119
0.8333333333333334,0.14800222218036652,-0.005353445652872324,0.0,0.6604192852973938,0.0,0.0,-0.7508970499038696,0.03471297398209572,-0.22414155304431915,0.0,0.0,0.0,-1.345613956451416,0.3867436945438385,0.7152307033538818,0.41999998688697815,0.5729978680610657,-3.0428639092860976e-06,-4.2807623685803264e-06,-0.8195568323135376,6.964351086935494e-06,-0.0003469973453320563,-9.665661491453648e-05,0.008682710118591785,-0.0032597510144114494,-0.0006803690339438617,0.43506091833114624,0.7520673274993896,0.5617755651473999,-0.42656081914901733,0.042387574911117554,-0.45500701665878296,0.39597204327583313,0.7175595164299011,0.42000001668930054,-0.6148654222488403,0.40161246061325073,-1.3937910795211792,2.999999523162842,-0.17280948162078857,-0.16976016759872437,-0.16577260196208954,-0.16097867488861084,0.004141141660511494,0.015242457389831543,0.022691400721669197,0.02172974869608879
0.85,0.15033240616321564,-0.004909767769277096,0.0,0.6684008836746216,0.0,0.0,-0.7438011765480042,0.20777614414691925,0.055875882506370544,0.0,0.0,0.0,1.9793388843536377,0.3867436945438385,0.7152307033538818,0.41999998688697815,0.5729973316192627,-3.182983846272691e-06,-4.029997853649547e-06,-0.8195571303367615,5.444389444164699e-06,-0.0003469347138889134,-9.721959941089153e-05,0.008675014600157738,-0.0032720642630010843,-0.0006771228509023786,0.42945247888565063,0.7518907189369202,0.5577147006988525,-0.21914170682430267,0.06430251151323318,-0.025824781507253647,0.39597204327583313,0.7175595164299011,0.42000001668930054,-0.612380862236023,-0.06558050960302353,-1.4120384454727173,-2.999999523162842,-0.17483864724636078,-0.17142660915851593,-0.16706642508506775,-0.1619691252708435,-0.04097610339522362,-0.0492989718914032,-0.050257258117198944,-0.04761238396167755
