vladlanda/robotic-transformer/data/env_000_episode_0077.csv
sim_time_s,robot_box_x,robot_box_y,robot_box_z,robot_box_quat_w,robot_box_quat_x,robot_box_quat_y,robot_box_quat_z,robot_box_linvel_x,robot_box_linvel_y,robot_box_linvel_z,robot_box_angvel_x,robot_box_angvel_y,robot_box_angvel_z,cube_world_x,cube_world_y,cube_world_z,cube_quat_w,cube_quat_x,cube_quat_y,cube_quat_z,cube_linvel_x,cube_linvel_y,cube_linvel_z,cube_angvel_x,cube_angvel_y,cube_angvel_z,endpoint_world_x,endpoint_world_y,endpoint_world_z,endpoint_linvel_x,endpoint_linvel_y,endpoint_linvel_z,target_cube_world_x,target_cube_world_y,target_cube_world_z,gripper_actual_pos_rad_gp_leftgearjoint,gripper_actual_vel_rad_s_gp_leftgearjoint,gripper_actual_pos_rad_gp_rotatingjoint,gripper_actual_vel_rad_s_gp_rotatingjoint,motor_angle_rad_joint1,motor_angle_rad_joint2,motor_angle_rad_joint3,motor_angle_rad_joint4,motor_speed_rad_s_joint1,motor_speed_rad_s_joint2,motor_speed_rad_s_joint3,motor_speed_rad_s_joint4
0.0,0.0,0.0,0.0,1.0,0.0,0.0,0.0,0.0,0.0,0.0,0.0,0.0,0.0,-0.36105695366859436,0.6269891858100891,0.41999998688697815,1.0,0.0,0.0,0.0,0.0,0.0,0.0,0.0,0.0,0.0,3.42540442943573e-06,-0.005000244826078415,1.313499927520752,0.0,0.0,0.0,0.4414077401161194,0.6339994072914124,0.42000001668930054,-1.5707999467849731,0.0,0.0,0.0,0.0,0.0,0.0,0.0,0.0,0.0,0.0,0.0
0.016666666666666666,0.002883129520341754,0.0021743078250437975,0.0,0.9998205900192261,0.0,0.0,0.018943218514323235,0.24102070927619934,0.18218420445919037,0.0,0.0,0.0,3.141775131225586,-0.3610570728778839,0.6269888877868652,0.41999998688697815,1.0,3.279964630564791e-06,-8.339746386809566e-07,8.465587342243452e-08,-1.9833529222523794e-05,0.00017983045836444944,-6.132945418357849e-05,0.0009432713268324733,-0.004689474124461412,-0.00031981561915017664,-0.007107874378561974,0.0033957611303776503,1.3159384727478027,-0.8138200044631958,0.987446665763855,0.18096674978733063,0.4414077401161194,0.6339994072914124,0.42000001668930054,-1.5301094055175781,3.000002384185791,-0.045849379152059555,-3.000002145767212,0.0008704370120540261,0.0007970919832587242,0.0007116510532796383,0.0006115067517384887,0.11096303164958954,0.09760023653507233,0.08337666839361191,0.06826993077993393
0.03333333333333333,0.00896733533591032,0.006792041938751936,0.0,0.9998087882995605,0.0,0.0,0.01955348253250122,0.40708333253860474,0.3151026666164398,0.0,0.0,0.0,-0.8690155744552612,-0.36105719208717346,0.6269888281822205,0.4200000464916229,1.0,3.3908179375430336e-06,-2.132458348569344e-06,-3.7097745320124886e-08,0.00026357852038927376,0.00026937833172269166,-0.00010509369894862175,-0.0017707126680761576,0.004130884539335966,-0.0001354814594378695,-0.02751772850751877,0.02597743459045887,1.316637635231018,-1.5895154476165771,1.612568974494934,-0.08021640032529831,0.4414077401161194,0.6339994072914124,0.42000001668930054,-1.4800900220870972,3.0000011920928955,-0.09588922560214996,-3.0,0.0029904558323323727,0.002652797382324934,0.002277408028021455,0.0018609456019476056,0.16415181756019592,0.1397136002779007,0.11378057301044464,0.08626794070005417
0.05,0.0184759683907032,0.013889358378946781,0.0,0.9999731183052063,0.0,0.0,-0.007331878412514925,0.6361329555511475,0.47206413745880127,0.0,0.0,0.0,-4.074249267578125,-0.36105722188949585,0.6269888877868652,0.4200000464916229,1.0,3.7651902857760433e-06,-2.2119197637948673e-06,5.609367637049445e-09,0.00026530938339419663,0.00026691678795032203,-0.00010440615005791187,-0.0017243892652913928,0.004177466034889221,-0.00012949809024576098,-0.05720813199877739,0.05629999190568924,1.3122408390045166,-1.9584494829177856,1.9610929489135742,-0.42661184072494507,0.4414077401161194,0.6339994072914124,0.42000001668930054,-1.4300717115402222,2.999997138977051,-0.14589279890060425,-2.999999761581421,0.006010232027620077,0.005171861033886671,0.004261147230863571,0.0032737504225224257,0.20694409310817719,0.166683167219162,0.12449449300765991,0.08030406385660172
0.06666666666666667,0.030779363587498665,0.02337266504764557,0.0,0.999875545501709,0.0,0.0,-0.015777885913848877,0.7722771763801575,0.6158820986747742,0.0,0.0,0.0,-0.03954693302512169,-0.36105722188949585,0.6269888281822205,0.4200000464916229,0.9999999403953552,3.406832092878176e-06,-2.28558906201215e-06,4.300801492718165e-07,0.0002670248504728079,0.0002679176686797291,-0.0001043803058564663,-0.00174071139190346,0.00421183044090867,-0.00012850876373704523,-0.09518744796514511,0.08777057379484177,1.3018200397491455,-2.4314932823181152,1.9841413497924805,-0.8109923601150513,0.4414077401161194,0.6339994072914124,0.42000001668930054,-1.3800444602966309,2.9999985694885254,-0.11233638226985931,3.0000014305114746,0.008778693154454231,0.007247623521834612,0.005603970494121313,0.003842483274638653,0.15658687055110931,0.10789251327514648,0.057061754167079926,0.004025448113679886
0.08333333333333333,0.04545605555176735,0.030651243403553963,0.0,0.9992582201957703,0.0,0.0,-0.03851023688912392,0.9502913951873779,0.3773777186870575,0.0,0.0,0.0,-3.5381603240966797,-0.36105722188949585,0.6269888281822205,0.4200000464916229,0.9999999403953552,3.626166289905086e-06,-2.3353043161478126e-06,3.032100153177453e-07,0.00026614085072651505,0.0002668516826815903,-0.00010405341163277626,-0.001728349830955267,0.004196455702185631,-0.0001279077841900289,-0.13059502840042114,0.1255936622619629,1.287759780883789,-1.8672908544540405,2.5207695960998535,-0.855603814125061,0.4414077401161194,0.6339994072914124,0.42000001668930054,-1.3300365209579468,3.000002145767212,-0.1443648636341095,-3.000000476837158,0.009885605424642563,0.007237556390464306,0.004434729460626841,0.0014709929237142205,0.015852857381105423,-0.06993908435106277,-0.15804597735404968,-0.24836298823356628
0.1,0.05433124676346779,0.04030018672347069,0.0,0.9959178566932678,0.0,0.0,-0.09026440232992172,0.393001526594162,0.6605445146560669,0.0,0.0,0.0,-7.289937496185303,-0.36105722188949585,0.6269888281822205,0.4200000464916229,1.0,3.4222334761579987e-06,-2.3086047349352157e-06,1.796183539681806e-07,0.0002668157103471458,0.00026800340856425464,-0.00010440708138048649,-0.0017429988365620375,0.004207124002277851,-0.00012891183723695576,-0.1638864129781723,0.17049747705459595,1.2678072452545166,-2.062256336212158,2.8645739555358887,-1.447270154953003,0.4414077401161194,0.6339994072914124,0.42000001668930054,-1.2800184488296509,2.9999959468841553,-0.11086613684892654,3.000002384185791,0.0036483907606452703,0.0002130679931724444,-0.0034304934088140726,-0.007291240617632866,-0.490862101316452,-0.5284741520881653,-0.5686413049697876,-0.6116265654563904
0.11666666666666667,0.058035675436258316,0.05212302505970001,0.0,0.9924344420433044,0.0,0.0,-0.12277553230524063,0.20400255918502808,0.6500875353813171,0.0,0.0,0.0,-2.6384313106536865,-0.36105722188949585,0.6269888877868652,0.4200000464916229,1.0,3.711570343511994e-06,-2.332746134925401e-06,2.5742929210537113e-07,0.0002648576919455081,0.0002663539198692888,-0.00010423408821225166,-0.0017182708252221346,0.004170178435742855,-0.0001291575754294172,-0.20410192012786865,0.21171079576015472,1.2412121295928955,-2.438981771469116,2.578767776489258,-1.7017686367034912,0.4414077401161194,0.6339994072914124,0.42000001668930054,-1.2300218343734741,2.9999988079071045,-0.1428646296262741,-3.0,-0.0045978776179254055,-0.008880993351340294,-0.013379998505115509,-0.018107691779732704,-0.37994295358657837,-0.4523959159851074,-0.5231515169143677,-0.5923241972923279
0.13333333333333333,0.07027546316385269,0.05946897715330124,0.0,0.9861533641815186,0.0,0.0,-0.16583596169948578,0.8338469862937927,0.4681551456451416,0.0,0.0,0.0,-5.86167049407959,-0.36105722188949585,0.6269888281822205,0.4200000464916229,1.0,3.335774863444385e-06,-2.2319691197481006e-06,3.1131583000387764e-07,0.0002666965883690864,0.0002675943251233548,-0.00010428344830870628,-0.0017370636342093349,0.004205815959721804,-0.0001284035388380289,-0.24139997363090515,0.26172754168510437,1.2107079029083252,-2.014082908630371,3.436696767807007,-2.038438558578491,0.4414077401161194,0.6339994072914124,0.42000001668930054,-1.1800026893615723,2.9999372959136963,-0.11841294914484024,3.0000009536743164,-0.003742459462955594,-0.010174849070608616,-0.016735859215259552,-0.023435676470398903,-0.04634369909763336,-0.16232767701148987,-0.2738271951675415,-0.3806515336036682
0.15,0.07910030335187912,0.06537920236587524,0.0,0.9822971820831299,0.0,0.0,-0.1873292177915573,0.47109729051589966,0.2874237895011902,0.0,0.0,0.0,-1.473287582397461,-0.36105722188949585,0.6269888281822205,0.4200000464916229,1.0,3.51896619577019e-06,-2.2831691239844076e-06,-3.625396516326873e-07,0.00026618328411132097,0.00026735622668638825,-0.00010425481013953686,-0.0017348447581753135,0.004195693414658308,-0.0001286104234168306,-0.2782374322414398,0.3147141933441162,1.1699776649475098,-2.079599142074585,3.3359715938568115,-2.7612686157226562,0.4414077401161194,0.6339994072914124,0.42000001668930054,-1.1304354667663574,2.917548418045044,-0.1503649204969406,-2.999999761581421,-0.009938381612300873,-0.017484458163380623,-0.025112446397542953,-0.03283455967903137,-0.4151201546192169,-0.469623327255249,-0.5211572647094727,-0.5699188113212585
0.16666666666666666,0.08318697661161423,0.07332613319158554,0.0,0.9755696058273315,0.0,0.0,-0.21969054639339447,0.21388088166713715,0.4701556861400604,0.0,0.0,0.0,-4.523290634155273,-0.36105722188949585,0.6269888281822205,0.4200000464916229,1.0,3.6666901905846316e-06,-2.339151933483663e-06,-3.150083500713663e-07,0.00026595874805934727,0.0002666740329004824,-0.00010403385385870934,-0.001725255511701107,0.004192718770354986,-0.0001277866685995832,-0.31131887435913086,0.3734681308269501,1.1149463653564453,-1.8903557062149048,3.668931245803833,-3.6301393508911133,0.4414077401161194,0.6339994072914124,0.42000001668930054,-1.0804331302642822,2.999997854232788,-0.13150450587272644,3.0000016689300537,-0.020771540701389313,-0.0286861602216959,-0.03664196655154228,-0.04465950280427933,-0.5728559494018555,-0.6054027676582336,-0.6336925625801086,-0.6580163836479187
0.18333333333333332,0.09251384437084198,0.07711644470691681,0.0,0.9605603218078613,0.0,0.0,-0.27807173132896423,0.6662653088569641,0.2398962378501892,0.0,0.0,0.0,-7.945952415466309,-0.36105722188949585,0.6269888281822205,0.4200000464916229,1.0,3.814420779235661e-06,-2.399499635430402e-06,-2.7027235205423494e-07,0.00026548944879323244,0.0002661115431692451,-0.00010391324758529663,-0.0017178029520437121,0.004184751771390438,-0.00012753890769090503,-0.3380690813064575,0.440654456615448,1.0467604398727417,-1.1837273836135864,4.26651668548584,-4.508401870727539,0.4414077401161194,0.6339994072914124,0.42000001668930054,-1.03042471408844,2.999998092651367,-0.163412407040596,-3.0000009536743164,-0.02855733409523964,-0.037009064108133316,-0.04543609544634819,-0.0538642480969429,-0.6210700869560242,-0.6211574673652649,-0.6192560195922852,-0.6157861948013306
0.2,0.09643924981355667,0.0842498242855072,0.0,0.9490801692008972,0.0,0.0,-0.3150345981121063,0.21729740500450134,0.4380781054496765,0.0,0.0,0.0,-3.2851197719573975,-0.36105722188949585,0.6269888281822205,0.4200000464916229,1.0,3.600188847485697e-06,-2.291208829774405e-06,-2.2020329026872787e-07,0.00026573031209409237,0.0002664495841600001,-0.00010398100130259991,-0.0017226987984031439,0.004188769496977329,-0.00012773128401022404,-0.3597734868526459,0.5002171993255615,0.9632346630096436,-0.9967381954193115,3.4550397396087646,-5.320272445678711,0.4414077401161194,0.6339994072914124,0.42000001668930054,-0.9804152846336365,2.999997138977051,-0.21344156563282013,-3.000000238418579,-0.044340766966342926,-0.05280361324548721,-0.061213862150907516,-0.06946652382612228,-0.8237069845199585,-0.8459843397140503,-0.8656342625617981,-0.8772035837173462
0.21666666666666667,0.09899132698774338,0.08761700242757797,0.0,0.9428996443748474,0.0,0.0,-0.33307692408561707,0.11828401684761047,0.10637027025222778,0.0,0.0,0.0,-1.833954930305481,-0.36105722188949585,0.6269888281822205,0.4200000464916229,0.9999999403953552,3.6397420899447752e-06,-2.2619685751124052e-06,2.2246368303058262e-07,0.00026687313220463693,0.00026754301507025957,-0.00010411837138235569,-0.0017404037062078714,0.004211082123219967,-0.00012783679994754493,-0.37828299403190613,0.5492576956748962,0.8716513514518738,-0.8663528561592102,2.615027904510498,-5.689740180969238,0.4414077401161194,0.6339994072914124,0.42000001668930054,-0.9304046034812927,2.999997615814209,-0.2634730935096741,-3.000002861022949,-0.058220166712999344,-0.06671341508626938,-0.07512552291154861,-0.08328518271446228,-0.8628508448600769,-0.8473201990127563,-0.8310161828994751,-0.8110966682434082
0.23333333333333334,0.09736522287130356,0.09401999413967133,0.0,0.9302619099617004,0.0,0.0,-0.3668961226940155,-0.16607186198234558,0.3936781883239746,0.0,0.0,0.0,-5.022899150848389,-0.36105719208717346,0.6269888281822205,0.4200000464916229,1.0,3.4208560464321636e-06,-2.3167735889728647e-06,2.955749494049087e-07,0.00026680153678171337,0.000268039497314021,-0.0001044231466948986,-0.001743743778206408,0.004206785000860691,-0.00012899443390779197,-0.3867468237876892,0.5886588096618652,0.7701104283332825,-0.17508724331855774,1.955770492553711,-6.217624187469482,0.4414077401161194,0.6339994072914124,0.42000001668930054,-0.880393922328949,2.999994993209839,-0.31350570917129517,-2.999999523162842,-0.0747762992978096,-0.08320587873458862,-0.09157480299472809,-0.09969010949134827,-0.8768028020858765,-0.8917664289474487,-0.9082503318786621,-0.924290120601654
0.25,0.09988168627023697,0.09534093737602234,0.0,0.9241569638252258,0.0,0.0,-0.3820130228996277,0.12111721932888031,0.06566246598958969,0.0,0.0,0.0,-0.5555015802383423,-0.36105722188949585,0.6269888281822205,0.4200000464916229,0.9999999403953552,3.3476892440376105e-06,-2.2591661945625674e-06,1.8082083386161685e-07,0.00026687668287195265,0.0002679106837604195,-0.00010439427569508553,-0.0017404770478606224,0.004208184313029051,-0.00012870125647168607,-0.3924541473388672,0.6129984259605408,0.6683834791183472,-0.1226189061999321,0.9239883422851562,-6.0631208419799805,0.4414077401161194,0.6339994072914124,0.42000001668930054,-0.8303843140602112,2.99999737739563,-0.3635381758213043,-3.000000476837158,-0.0878574401140213,-0.09634566307067871,-0.1048072874546051,-0.1129961684346199,-0.9926749467849731,-0.9938446283340454,-0.9947890043258667,-0.9924439787864685
0.26666666666666666,0.09778499603271484,0.09545354545116425,0.0,0.9201964735984802,0.0,0.0,-0.39145684242248535,-0.2003798633813858,-0.04077129811048508,0.0,0.0,0.0,-1.6227258443832397,-0.36105722188949585,0.6269888281822205,0.4200000464916229,0.9999999403953552,3.5357459182705497e-06,-2.3003199203230906e-06,-1.268702192191995e-07,0.0002660168393049389,0.00026712208637036383,-0.00010419590398669243,-0.0017316138837486506,0.004192820750176907,-0.00012849303311668336,-0.39071258902549744,0.6216436624526978,0.5708020925521851,0.4324260354042053,0.10939215868711472,-5.493624210357666,0.4414077401161194,0.6339994072914124,0.42000001668930054,-0.7803754806518555,3.000002145767212,-0.41356927156448364,-2.999999761581421,-0.10574714839458466,-0.11393652111291885,-0.12217296659946442,-0.1301855891942978,-1.0131278038024902,-1.009894609451294,-1.007429838180542,-1.0054696798324585
0.2833333333333333,0.09272720664739609,0.09317038953304291,0.0,0.9237647652626038,0.0,0.0,-0.38296034932136536,-0.29455459117889404,-0.20522931218147278,0.0,0.0,0.0,1.8890025615692139,-0.36105722188949585,0.6269888877868652,0.4200000464916229,1.0,3.5934981497121044e-06,-2.2626372810918838e-06,-5.6559525063448746e-08,0.00026704746414907277,0.00026775026344694197,-0.00010416866280138493,-0.0017432172317057848,0.004214204382151365,-0.00012789266475010663,-0.3850705623626709,0.6231145858764648,0.48689785599708557,0.36141395568847656,0.04047596454620361,-4.7149505615234375,0.4414077401161194,0.6339994072914124,0.42000001668930054,-0.730367124080658,2.9999935626983643,-0.463598370552063,-3.000001907348633,-0.12234514951705933,-0.130568265914917,-0.13888166844844818,-0.14698556065559387,-0.8922260999679565,-0.9257974624633789,-0.9589141607284546,-0.9897019267082214
0.3,0.08621365576982498,0.08817616105079651,0.0,0.9208776354789734,0.0,0.0,-0.38985177874565125,-0.435281366109848,-0.3377620279788971,0.0,0.0,0.0,-1.8041572570800781,-0.36105719208717346,0.6269888281822205,0.4200000464916229,0.9999999403953552,3.7250597415550146e-06,-2.236036380054429e-06,3.8286003700704896e-07,0.00026479727239347994,0.00026673031970858574,-0.00010454049333930016,-0.001718925777822733,0.0041666231118142605,-0.00013016141019761562,-0.3720112442970276,0.6251903772354126,0.40525299310684204,1.156287670135498,0.10973143577575684,-4.820006370544434,0.4414077401161194,0.6339994072914124,0.42000001668930054,-0.6803601980209351,3.0000011920928955,-0.513625979423523,-3.0000009536743164,-0.13957583904266357,-0.14766639471054077,-0.1558777391910553,-0.1638994663953781,-1.006581425666809,-1.005005121231079,-1.0037959814071655,-1.0028196573257446
0.31666666666666665,0.07754891365766525,0.08102110773324966,0.0,0.9242540597915649,0.0,0.0,-0.38177794218063354,-0.5610530376434326,-0.46754956245422363,0.0,0.0,0.0,1.9549064636230469,-0.36105722188949585,0.6269888281822205,0.4200000464916229,0.9999999403953552,3.5578370898292633e-06,-2.278898136864882e-06,2.2831329715700122e-07,0.0002659840392880142,0.0002665840438567102,-0.00010398821905255318,-0.0017240153392776847,0.004193446598947048,-0.00012769739259965718,-0.3716992139816284,0.6304827928543091,0.42318832874298096,0.175471693277359,0.4774315655231476,-0.17526483535766602,0.4414077401161194,0.6339994072914124,0.42000001668930054,-0.630483090877533,2.999979019165039,-0.5642159581184387,-2.9998812675476074,-0.14442294836044312,-0.15185870230197906,-0.15909098088741302,-0.1657687872648239,-0.5029549598693848,-0.41549625992774963,-0.310622900724411,-0.18790392577648163
0.3333333333333333,0.06661418080329895,0.07160855084657669,0.0,0.9215032458305359,0.0,0.0,-0.38837066292762756,-0.6991979479789734,-0.6075789332389832,0.0,0.0,0.0,-1.7950811386108398,-0.3586066663265228,0.6307194828987122,0.4200945198535919,0.9993914365768433,0.002320567611604929,-8.998966950457543e-05,-0.03480366989970207,0.1890479326248169,0.29291942715644836,-0.003823024220764637,-0.330675333738327,0.14890563488006592,-5.963879585266113,-0.36808645725250244,0.6350823044776917,0.4232759177684784,0.26594001054763794,0.2552907168865204,0.17691662907600403,0.4414077401161194,0.6339994072914124,0.42000001668930054,-0.5804779529571533,2.999985933303833,-0.6142549514770508,-3.000000476837158,-0.1536514312028885,-0.15921719372272491,-0.1642576903104782,-0.16844245791435242,-0.5542662143707275,-0.42501676082611084,-0.27670279145240784,-0.11177600175142288
0.35,0.0534689724445343,0.05994565412402153,0.0,0.9248710870742798,0.0,0.0,-0.3802807331085205,-0.828974187374115,-0.7385650277137756,0.0,0.0,0.0,1.9753743410110474,-0.3540551960468292,0.637823224067688,0.42017754912376404,0.9924134016036987,-0.00048100363346748054,0.003605176694691181,-0.12289143353700638,0.3772442638874054,0.576671302318573,0.026972074061632156,-0.3710797429084778,0.9189205765724182,-16.083511352539062,-0.3620004951953888,0.6437216997146606,0.42441368103027344,0.4947893023490906,0.6965245008468628,-0.05404213070869446,0.4414077401161194,0.6339994072914124,0.42000001668930054,-0.530472993850708,2.9999916553497314,-0.664280891418457,-2.999999761581421,-0.16337290406227112,-0.16642077267169952,-0.1686011403799057,-0.16964741051197052,-0.5502060651779175,-0.3935493230819702,-0.21595071256160736,-0.021903110668063164
0.36666666666666664,0.04375375434756279,0.04558141529560089,0.0,0.9222093224525452,0.0,0.0,-0.3866910934448242,-0.49611184000968933,-0.9100592732429504,0.0,0.0,0.0,-1.7610360383987427,-0.3454485237598419,0.6500589847564697,0.4200001358985901,0.9806053638458252,-2.152994966309052e-05,1.5673416783101857e-05,-0.1959925889968872,0.6391571164131165,0.864323616027832,-0.0008479408570565283,0.04146655648946762,-0.017855634912848473,-5.816412448883057,-0.3495103120803833,0.6544442772865295,0.4205504059791565,0.9931226372718811,0.638007640838623,-0.3964691758155823,0.4414077401161194,0.6339994072914124,0.42000001668930054,-0.4804684817790985,2.999995470046997,-0.7143053412437439,-3.0000016689300537,-0.17228014767169952,-0.17236822843551636,-0.17121386528015137,-0.16864819824695587,-0.4845139682292938,-0.2976311147212982,-0.08911079913377762,0.13448363542556763
0.3833333333333333,0.031796470284461975,0.029655806720256805,0.0,0.9071323275566101,0.0,0.0,-0.4208454489707947,-0.7981774210929871,-0.9808957576751709,0.0,0.0,0.0,-5.427253246307373,-0.33166876435279846,0.6668170690536499,0.4203459620475769,0.9701837301254272,-0.008611384779214859,0.0016528964042663574,-0.24221207201480865,1.3890035152435303,1.0183861255645752,0.28021278977394104,-12.790026664733887,5.88640022277832,-7.227266788482666,-0.3312239646911621,0.6670429706573486,0.42176955938339233,1.3511154651641846,0.9695942997932434,0.147688090801239,0.4414077401161194,0.6339994072914124,0.42000001668930054,-0.4303887188434601,2.981654644012451,-0.7643040418624878,-2.9994139671325684,-0.18139830231666565,-0.17815881967544556,-0.17328287661075592,-0.16672733426094055,-0.5142314434051514,-0.3239264190196991,-0.11161430180072784,0.11511597782373428
0.4,0.02286926656961441,0.010827545076608658,0.0,0.8775720000267029,0.0,0.0,-0.4794448912143707,-0.4912481904029846,-1.173943042755127,0.0,0.0,0.0,-8.669617652893066,-0.2961748540401459,0.6887076497077942,0.4247623383998871,0.9547498822212219,-0.005334810819476843,-0.03432092070579529,-0.2953745424747467,3.0844008922576904,1.4808881282806396,0.3229338824748993,13.380409240722656,-12.398639678955078,3.454063892364502,-0.29569122195243835,0.6894106864929199,0.4257681369781494,2.9105448722839355,1.6991608142852783,0.5259730815887451,0.4414077401161194,0.6339994072914124,0.42000001668930054,-0.39344847202301025,1.5140602588653564,-0.8143280148506165,-3.0000014305114746,-0.18965975940227509,-0.1831270009279251,-0.17461957037448883,-0.16423305869102478,-0.554557740688324,-0.333175390958786,-0.09539409726858139,0.14955563843250275
0.4166666666666667,0.016182327643036842,-0.0027626866940408945,0.0,0.8307023644447327,0.0,0.0,-0.5567167401313782,-0.35256680846214294,-0.691905677318573,0.0,0.0,0.0,-11.654772758483887,-0.21996945142745972,0.7202855944633484,0.4307664930820465,0.9334405064582825,0.04877537116408348,-0.08346862345933914,-0.34546002745628357,6.000296592712402,1.8029340505599976,0.3313977122306824,8.704205513000488,-15.637635231018066,12.02278995513916,-0.21975815296173096,0.7211556434631348,0.43200525641441345,5.826000690460205,2.2606523036956787,0.4725703001022339,0.4414077401161194,0.6339994072914124,0.42000001668930054,-0.37147384881973267,1.1412992477416992,-0.7775786519050598,2.9980287551879883,-0.20487003028392792,-0.19473782181739807,-0.18089236319065094,-0.1654425412416458,-0.8713696599006653,-0.7662761211395264,-0.4561592936515808,-0.17361436784267426
0.43333333333333335,0.01304171234369278,-0.013266189023852348,0.0,0.7920086979866028,0.0,0.0,-0.6105098128318787,-0.1266639232635498,-0.5909967422485352,0.0,0.0,0.0,-6.774759292602539,-0.12258383631706238,0.7542982697486877,0.44032490253448486,0.8942460417747498,0.08142706006765366,-0.11694037169218063,-0.42428603768348694,6.059791564941406,1.4701300859451294,0.47966116666793823,-4.787088394165039,-10.378629684448242,-1.0894899368286133,-0.12303315103054047,0.7569718360900879,0.4412037134170532,5.9541425704956055,1.8052232265472412,0.6667278409004211,0.4414077401161194,0.6339994072914124,0.42000001668930054,-0.3541492819786072,1.092855453491211,-0.8047378659248352,-3.0,-0.21452580392360687,-0.20520372688770294,-0.18762849271297455,-0.16890041530132294,-0.4782370328903198,-0.5193524360656738,-0.34485602378845215,-0.19871042668819427
0.45,0.013181833550333977,-0.020311856642365456,0.0,0.7741013169288635,0.0,0.0,-0.6330617070198059,0.06377242505550385,-0.3667319715023041,0.0,0.0,0.0,-2.3400845527648926,-0.02451023831963539,0.7752638459205627,0.4502538740634918,0.8505351543426514,0.08234063535928726,-0.125490203499794,-0.5040456652641296,6.002906799316406,0.25631654262542725,0.5779843926429749,-4.421769142150879,-5.582524299621582,3.066922903060913,-0.024084998294711113,0.778335690498352,0.45104262232780457,5.994102954864502,0.7796804308891296,0.7380841374397278,0.4414077401161194,0.6339994072914124,0.42000001668930054,-0.33369866013526917,1.2342456579208374,-0.8547620177268982,-3.0000014305114746,-0.22342494130134583,-0.21382972598075867,-0.19333426654338837,-0.17219281196594238,-0.4917580485343933,-0.4507818818092346,-0.29818597435951233,-0.17487968504428864
0.4666666666666667,0.01194004900753498,-0.023242872208356857,0.0,0.7491114139556885,0.0,0.0,-0.662443995475769,-0.08544939756393433,-0.12519927322864532,0.0,0.0,0.0,-5.375302791595459,0.07290186733007431,0.7766513228416443,0.4576836824417114,0.7854214906692505,0.06282451003789902,-0.15280647575855255,-0.5965034365653992,5.797207832336426,-0.7450932264328003,0.5290104746818542,2.0246682167053223,4.940542697906494,-12.144936561584473,0.07251085340976715,0.7815887331962585,0.45961013436317444,5.687772750854492,-0.3925817310810089,0.45695409178733826,0.4414077401161194,0.6339994072914124,0.42000001668930054,-0.315237432718277,0.8121328353881836,-0.9047873616218567,-2.9993984699249268,-0.2323022037744522,-0.2215186506509781,-0.19856317341327667,-0.1753249168395996,-0.4530494809150696,-0.37011393904685974,-0.2420918047428131,-0.1290694773197174
0.48333333333333334,0.014302154071629047,-0.031990956515073776,0.0,0.7354120016098022,0.0,0.0,-0.6776202321052551,0.218414768576622,-0.6635138988494873,0.0,0.0,0.0,-1.4927952289581299,0.16348512470722198,0.7651805281639099,0.4623097777366638,0.7176042795181274,0.039488401263952255,-0.15195971727371216,-0.678522527217865,4.908649444580078,-1.7627300024032593,0.40048500895500183,9.638772010803223,-5.2231221199035645,23.470165252685547,0.16269473731517792,0.7706454992294312,0.46462011337280273,5.216857433319092,-1.056185007095337,0.1829293668270111,0.4414077401161194,0.6339994072914124,0.42000001668930054,-0.3061645030975342,0.32801833748817444,-0.9548113942146301,-3.000000476837158,-0.23342733085155487,-0.22183740139007568,-0.19793610274791718,-0.17399591207504272,0.08606553822755814,0.12865497171878815,0.14646220207214355,0.14730596542358398
0.5,0.013126907870173454,-0.03732353076338768,0.0,0.7117465138435364,0.0,0.0,-0.7024364471435547,-0.05842679366469383,-0.2982638478279114,0.0,0.0,0.0,-4.797300338745117,0.24193061888217926,0.7454066276550293,0.46095043420791626,0.6837902665138245,0.01934461109340191,-0.13804487884044647,-0.7162402868270874,4.356142997741699,-1.627634048461914,-0.1452374905347824,2.9024627208709717,-1.0823267698287964,8.8242826461792,0.2416270673274994,0.7502855062484741,0.4637627899646759,4.52231502532959,-1.4456862211227417,-0.259428471326828,0.4414077401161194,0.6339994072914124,0.42000001668930054,-0.298968642950058,0.6608871817588806,-1.0048352479934692,-3.0000009536743164,-0.23422427475452423,-0.22164440155029297,-0.19762472808361053,-0.17389275133609772,0.11186226457357407,0.12438488006591797,0.07015188783407211,0.0033227948006242514
0.5166666666666666,0.013982600532472134,-0.039339665323495865,0.0,0.7033695578575134,0.0,0.0,-0.7108243107795715,0.08340581506490707,-0.05435553938150406,0.0,0.0,0.0,-0.3688928484916687,0.30921608209609985,0.718527615070343,0.452291339635849,0.6184564828872681,-0.042728621512651443,-0.14949975907802582,-0.7702828049659729,3.462053060531616,-2.0998263359069824,-0.7417500019073486,-15.471572875976562,1.0450935363769531,2.6611239910125732,0.3087925314903259,0.723885178565979,0.4572242498397827,3.6436538696289062,-1.7423796653747559,-0.46984225511550903,0.4414077401161194,0.6339994072914124,0.42000001668930054,-0.28388965129852295,1.0107591152191162,-1.0548573732376099,-3.0000014305114746,-0.23224711418151855,-0.2195875346660614,-0.1968262940645218,-0.17452317476272583,0.17621244490146637,0.16561488807201385,0.06300186365842819,-0.04809732735157013
0.5333333333333333,0.017483847215771675,-0.040976352989673615,0.0,0.6866636872291565,0.0,0.0,-0.7269752025604248,0.26079118251800537,-0.0708204060792923,0.0,0.0,0.0,-3.5693554878234863,0.36323729157447815,0.691322386264801,0.4366762340068817,0.5771005749702454,-0.08669504523277283,-0.13981470465660095,-0.7999317049980164,2.3446292877197266,-2.3051130771636963,-0.8973259329795837,-3.5295932292938232,6.368868827819824,28.504697799682617,0.3636118769645691,0.6969543695449829,0.4427585005760193,3.013814926147461,-1.6795458793640137,-1.0469655990600586,0.4414077401161194,0.6339994072914124,0.42000001668930054,-0.2674640715122223,0.68571537733078,-1.1048794984817505,-2.9997143745422363,-0.22738701105117798,-0.21558839082717896,-0.19529837369918823,-0.17551903426647186,0.2269681841135025,0.1819898784160614,0.03277641162276268,-0.12085828185081482
0.55,0.023346060886979103,-0.03967500478029251,0.0,0.6840957403182983,0.0,0.0,-0.7293922305107117,0.3843913674354553,0.13851045072078705,0.0,0.0,0.0,0.4912998378276825,0.4026191532611847,0.6686565279960632,0.4237324595451355,0.5520861744880676,-0.03587162494659424,-0.041721541434526443,-0.8319695591926575,1.4681065082550049,-1.1417757272720337,0.024984542280435562,0.7789740562438965,-7.598383903503418,19.349552154541016,0.4021942615509033,0.6704003810882568,0.42640891671180725,1.5430526733398438,-1.1871384382247925,-0.22310948371887207,0.4414077401161194,0.6339994072914124,0.42000001668930054,-0.258649080991745,0.5490854978561401,-1.154951572418213,-3.000154972076416,-0.22245146334171295,-0.21192015707492828,-0.19456936419010162,-0.1776876598596573,0.3657896816730499,0.2689782977104187,0.07844053953886032,-0.10183126479387283
0.5666666666666667,0.030222978442907333,-0.04152088984847069,0.0,0.6713208556175232,0.0,0.0,-0.741166889667511,0.45680665969848633,-0.16342775523662567,0.0,0.0,0.0,-2.943838119506836,0.42178893089294434,0.657111644744873,0.42255935072898865,0.5909366011619568,0.02198990061879158,-0.05043400451540947,-0.8048394918441772,0.29241108894348145,-1.3252911567687988,0.2281874716281891,-11.482633590698242,0.78024822473526,24.80435562133789,0.4213913083076477,0.6588523983955383,0.4256671071052551,0.9169455170631409,-0.5195682048797607,0.0081399604678154,0.4414077401161194,0.6339994072914124,0.42000001668930054,-0.24567702412605286,0.44398462772369385,-1.1187611818313599,2.998602867126465,-0.21360544860363007,-0.20523914694786072,-0.1914958506822586,-0.17794492840766907,0.4770868718624115,0.36105480790138245,0.15979589521884918,-0.0263011883944273
0.5833333333333334,0.03483453392982483,-0.040475886315107346,0.0,0.6710946559906006,0.0,0.0,-0.7413716912269592,0.21248936653137207,0.07583341002464294,0.0,0.0,0.0,0.8402935862541199,0.43188366293907166,0.6447605490684509,0.420991450548172,0.6048281192779541,0.013193345628678799,-0.01903311349451542,-0.7960191965103149,0.29898059368133545,-0.7975181341171265,-0.05474444851279259,-0.15617121756076813,5.277774333953857,6.880009174346924,0.4307830333709717,0.6471201777458191,0.4241555333137512,0.4132921099662781,-0.5824286937713623,0.132056325674057,0.4414077401161194,0.6339994072914124,0.42000001668930054,-0.26781386137008667,-2.4978063106536865,-1.1414142847061157,-2.9962854385375977,-0.20742252469062805,-0.20065154135227203,-0.18987376987934113,-0.17907272279262543,0.4413074553012848,0.3280867040157318,0.1405116617679596,-0.030826233327388763
0.6,0.04040460288524628,-0.03637547791004181,0.0,0.6600983142852783,0.0,0.0,-0.7511792182922363,0.3443230986595154,0.2797785699367523,0.0,0.0,0.0,-2.665764093399048,0.4357205331325531,0.6381237506866455,0.4210783839225769,0.61929851770401,-0.020192036405205727,-0.009276052005589008,-0.7848411202430725,0.26757630705833435,-0.03097299300134182,0.13613545894622803,-2.847830057144165,3.856706380844116,-0.2751583456993103,0.43562614917755127,0.6440161466598511,0.4265347719192505,0.26190218329429626,0.0337318554520607,0.1660643219947815,0.4414077401161194,0.6339994072914124,0.42000001668930054,-0.2917606830596924,-0.5680175423622131,-1.1913706064224243,-2.998560905456543,-0.1985507756471634,-0.19451406598091125,-0.18746967613697052,-0.1799846738576889,0.6881324052810669,0.48280802369117737,0.22758421301841736,0.002355556935071945
0.6166666666666667,0.04755916818976402,-0.03699399530887604,0.0,0.6612978577613831,0.0,0.0,-0.7501233816146851,0.4437275826931,-0.03677300736308098,0.0,0.0,0.0,1.0166887044906616,0.4394799470901489,0.6379852890968323,0.4219759404659271,0.6087124943733215,-0.037634674459695816,-0.010551704093813896,-0.7924274802207947,0.1838706135749817,0.00897158868610859,0.025198617950081825,-1.3057141304016113,0.3264654576778412,-4.099180221557617,0.43712276220321655,0.6440913081169128,0.42950576543807983,-0.05032597854733467,-0.08705300837755203,0.1973847895860672,0.4414077401161194,0.6339994072914124,0.42000001668930054,-0.33381322026252747,-2.999682664871216,-1.2413476705551147,-2.9994683265686035,-0.18438343703746796,-0.18381381034851074,-0.1809944212436676,-0.17727507650852203,0.642684280872345,0.49405211210250854,0.30007198452949524,0.12529563903808594
0.6333333333333333,0.057219672948122025,-0.03300999850034714,0.0,0.6833762526512146,0.0,0.0,-0.7300663590431213,0.6028212904930115,0.22947801649570465,0.0,0.0,0.0,4.487022399902344,0.44166645407676697,0.6383747458457947,0.421285480260849,0.56610506772995,-0.026972249150276184,-0.01870330423116684,-0.8236793279647827,0.07383541762828827,0.06288344413042068,0.0015104981139302254,0.2669944167137146,-0.571479082107544,-7.347802639007568,0.4352725148200989,0.6427353024482727,0.43248921632766724,-0.11031360924243927,0.0597163550555706,0.1979660540819168,0.4414077401161194,0.6339994072914124,0.42000001668930054,-0.3838054835796356,-2.9989795684814453,-1.2913167476654053,-2.999018430709839,-0.1768856793642044,-0.17815257608890533,-0.17784515023231506,-0.17637968063354492,0.5486611723899841,0.41950687766075134,0.25854259729385376,0.11530721932649612
0.65,0.06853587925434113,-0.033438827842473984,0.0,0.692694902420044,0.0,0.0,-0.7212307453155518,0.6992742419242859,-0.052588775753974915,0.0,0.0,0.0,0.4819355309009552,0.4426385164260864,0.6393443942070007,0.42032042145729065,0.5351598262786865,-0.006724951788783073,-0.003962111193686724,-0.8447147011756897,0.012933943420648575,0.08920404314994812,-0.06275543570518494,2.9846889972686768,-1.2930947542190552,0.48042070865631104,0.43455934524536133,0.6459884643554688,0.4368574619293213,-0.02576158568263054,0.1244727149605751,0.28236836194992065,0.4414077401161194,0.6339994072914124,0.42000001668930054,-0.4338306188583374,-3.0000007152557373,-1.3412867784500122,-2.999498128890991,-0.16601504385471344,-0.16931939125061035,-0.17142623662948608,-0.17204581201076508,0.5303559899330139,0.45672139525413513,0.3643634021282196,0.28805556893348694
0.6666666666666666,0.0812307819724083,-0.03706952556967735,0.0,0.6798166632652283,0.0,0.0,-0.7333821058273315,0.79278165102005,-0.2908458113670349,0.0,0.0,0.0,-3.0331554412841797,0.4426431655883789,0.6396592259407043,0.4200000762939453,0.5361396670341492,2.8975377972528804e-06,-6.561809641425498e-06,-0.844129204750061,0.0006158599280752242,-0.0007364986813627183,-0.0002495481166988611,0.01899936981499195,0.0021631065756082535,-0.003823183011263609,0.43765610456466675,0.6478720903396606,0.44310328364372253,0.34865081310272217,0.05793087184429169,0.5909650325775146,0.4414077401161194,0.6339994072914124,0.42000001668930054,-0.483843594789505,-2.999995708465576,-1.3913052082061768,-2.9999988079071045,-0.15978915989398956,-0.1635081022977829,-0.16620707511901855,-0.16714194416999817,0.2787421941757202,0.29445880651474,0.30530881881713867,0.33213910460472107
0.6833333333333333,0.09715911746025085,-0.03622095659375191,0.0,0.6447619199752808,0.0,0.0,-0.7643834948539734,0.9249720573425293,0.06495791673660278,0.0,0.0,0.0,-6.465061664581299,0.4426437020301819,0.63965904712677,0.4200000464916229,0.5361390709877014,1.480285192201336e-07,-2.8364268018776784e-06,-0.8441296815872192,1.9452769265626557e-05,-0.00024667999241501093,-7.181498222053051e-05,0.006626708433032036,-0.0022706124000251293,-0.0006976130534894764,0.4506548047065735,0.6461937427520752,0.46046411991119385,1.29343581199646,-0.11787905544042587,1.5731827020645142,0.4414077401161194,0.6339994072914124,0.42000001668930054,-0.5338561534881592,-2.999990463256836,-1.4413235187530518,-3.0,-0.16265489161014557,-0.16479350626468658,-0.16598184406757355,-0.16524700820446014,-0.13323746621608734,-0.049617964774370193,0.03665279597043991,0.1348876655101776
0.7,0.11120174825191498,-0.03299826383590698,0.0,0.6232826113700867,0.0,0.0,-0.7819966673851013,0.7926236987113953,0.19127565622329712,0.0,0.0,0.0,-2.2587478160858154,0.4426437020301819,0.63965904712677,0.4200000464916229,0.5361387729644775,1.4478048626642703e-07,-2.6900877401203616e-06,-0.8441298007965088,2.468979437253438e-05,-0.0002453916531521827,-7.31081236153841e-05,0.006559056229889393,-0.0022133737802505493,-0.0007069007842801511,0.4739866256713867,0.6488033533096313,0.4906122088432312,1.50970458984375,0.3911805748939514,1.9866392612457275,0.4414077401161194,0.6339994072914124,0.42000001668930054,-0.5553602576255798,0.16293248534202576,-1.4913418292999268,-2.999999523162842,-0.1642637550830841,-0.16585920751094818,-0.16648435592651367,-0.1650637984275818,0.020646823570132256,-0.007725879549980164,-0.03540918976068497,-0.05831286683678627
0.7166666666666667,0.12084433436393738,-0.028914861381053925,0.0,0.6271602511405945,0.0,0.0,-0.7788902521133423,0.506547212600708,0.32406672835350037,0.0,0.0,0.0,1.4884930849075317,0.4426437020301819,0.63965904712677,0.4200000464916229,0.5361389517784119,1.324378047229402e-07,-2.6837076347874245e-06,-0.8441296815872192,2.4752480385359377e-05,-0.000245365547016263,-7.313094101846218e-05,0.006557839922606945,-0.0022128073032945395,-0.0007070093415677547,0.49547916650772095,0.6559398770332336,0.5178784132003784,1.0310240983963013,0.4656703472137451,1.326995611190796,0.4414077401161194,0.6339994072914124,0.42000001668930054,-0.532066285610199,2.416548490524292,-1.452638030052185,3.000000238418579,-0.16239115595817566,-0.16455025970935822,-0.16571567952632904,-0.16479893028736115,0.13443230092525482,0.10329420864582062,0.07257264107465744,0.04035133495926857
0.7333333333333333,0.12616458535194397,-0.028821604326367378,0.0,0.6200160384178162,0.0,0.0,-0.7845891714096069,0.3040141761302948,-0.041336528956890106,0.0,0.0,0.0,-1.9095309972763062,0.4426437020301819,0.63965904712677,0.4200000464916229,0.5361390709877014,1.2696429507741414e-07,-2.5453869056946132e-06,-0.8441296815872192,2.44921502599027e-05,-0.0002453848428558558,-7.306551560759544e-05,0.006559711415320635,-0.0022157272323966026,-0.0007067501428537071,0.5062124729156494,0.6648176312446594,0.534000813961029,0.19024330377578735,0.4591171443462372,0.7598265409469604,0.4414077401161194,0.6339994072914124,0.42000001668930054,-0.5086184144020081,0.5407277941703796,-1.4025853872299194,2.9999990463256836,-0.15758687257766724,-0.16051150858402252,-0.16244693100452423,-0.1623649150133133,0.1476823091506958,0.14028674364089966,0.12828244268894196,0.10541243851184845
0.75,0.12849000096321106,-0.023458877578377724,0.0,0.6259632706642151,0.0,0.0,-0.779852569103241,0.08308517932891846,0.41938793659210205,0.0,0.0,0.0,1.7621808052062988,0.4426437318325043,0.63965904712677,0.4200000464916229,0.5361390709877014,1.2821143968722026e-07,-2.729667130552116e-06,-0.8441296815872192,2.6996944143320434e-05,-0.0002451683103572577,-7.35986977815628e-05,0.006540396250784397,-0.0021864688023924828,-0.0007116737542673945,0.5037621259689331,0.6709896326065063,0.5421535968780518,-0.37978658080101013,0.4002183675765991,0.24820972979068756,0.4414077401161194,0.6339994072914124,0.42000001668930054,-0.4824998676776886,2.411553144454956,-1.4206364154815674,-2.9999446868896484,-0.1606319546699524,-0.16236867010593414,-0.16330568492412567,-0.16257244348526,-0.18975596129894257,-0.11483120918273926,-0.05191304162144661,-0.011466871947050095
0.7666666666666666,0.12796254456043243,-0.02211042493581772,0.0,0.6204848885536194,0.0,0.0,-0.7842183709144592,-0.09854210168123245,0.05587630718946457,0.0,0.0,0.0,-1.6030826568603516,0.4426437020301819,0.63965904712677,0.4200000464916229,0.5361389517784119,1.5741814252123731e-07,-2.590490339571261e-06,-0.8441296815872192,2.3935715944389813e-05,-0.00024507706984877586,-7.301825098693371e-05,0.006554246414452791,-0.002222430193796754,-0.0007047297549434006,0.49126046895980835,0.6770544052124023,0.5398834943771362,-1.158395767211914,0.319214403629303,-0.3205313980579376,0.4414077401161194,0.6339994072914124,0.42000001668930054,-0.4786236584186554,-1.6036677360534668,-1.3821334838867188,3.000000476837158,-0.16216786205768585,-0.1629703938961029,-0.16314710676670074,-0.16200590133666992,-0.1463278830051422,-0.0796080082654953,-0.024447103962302208,0.0077078151516616344
0.7833333333333333,0.1286587119102478,-0.022896436974406242,0.0,0.6261767745018005,0.0,0.0,-0.7796810865402222,0.08794130384922028,-0.14503423869609833,0.0,0.0,0.0,1.6108039617538452,0.4426437020301819,0.63965904712677,0.4200000464916229,0.5361389517784119,1.357169878701825e-07,-2.5896590614138404e-06,-0.8441296815872192,2.3663986212341115e-05,-0.0002451139152981341,-7.291021756827831e-05,0.006557116750627756,-0.002224298659712076,-0.0007040810887701809,0.4757779836654663,0.6820484399795532,0.5330764055252075,-0.7046574354171753,0.3211703300476074,-0.44564300775527954,0.4414077401161194,0.6339994072914124,0.42000001668930054,-0.48826006054878235,0.2913610637187958,-1.4005944728851318,-3.000000476837158,-0.16566911339759827,-0.16504435241222382,-0.1639241725206375,-0.16181819140911102,-0.17789816856384277,-0.09640663117170334,-0.01848050020635128,0.04392492398619652
0.8,0.13182315230369568,-0.02694154717028141,0.0,0.6196016669273376,0.0,0.0,-0.7849164009094238,0.23432676494121552,-0.30338022112846375,0.0,0.0,0.0,-1.8737901449203491,0.4426437020301819,0.63965904712677,0.4200000464916229,0.5361388921737671,1.716944240115481e-07,-2.640021193656139e-06,-0.8441298007965088,2.147711165889632e-05,-0.00024517159909009933,-7.242755964398384e-05,0.006570746656507254,-0.0022486920934170485,-0.000699137628544122,0.4674910008907318,0.6843920946121216,0.5223379731178284,-0.2664632797241211,-0.007773189339786768,-0.6440032720565796,0.4414077401161194,0.6339994072914124,0.42000001668930054,-0.5212734937667847,-3.0000007152557373,-1.3621479272842407,3.0,-0.16993297636508942,-0.16760839521884918,-0.16473188996315002,-0.16102327406406403,-0.25797292590141296,-0.14342205226421356,-0.020634006708860397,0.09809260070323944
0.8166666666666667,0.13825123012065887,-0.027583792805671692,0.0,0.5912270545959473,0.0,0.0,-0.8065052032470703,0.41576653718948364,-0.03399750590324402,0.0,0.0,0.0,-4.988755702972412,0.4426437020301819,0.63965904712677,0.4200000464916229,0.5361389517784119,1.255976798120173e-07,-2.6804646040545776e-06,-0.8441296815872192,2.5078828912228346e-05,-0.0002451951149851084,-7.318868301808834e-05,0.0065516335889697075,-0.0022080743219703436,-0.000707560742739588,0.46777981519699097,0.6805691719055176,0.5162427425384521,0.3834688067436218,-0.3124459981918335,0.03328078240156174,0.4414077401161194,0.6339994072914124,0.42000001668930054,-0.5712866187095642,-2.999999761581421,-1.380994200706482,-3.000000476837158,-0.1772388368844986,-0.17286285758018494,-0.1677362322807312,-0.16179075837135315,-0.3174530565738678,-0.23766086995601654,-0.1389017403125763,-0.03307361900806427
0.8333333333333334,0.14678873121738434,-0.025557465851306915,0.0,0.5792784094810486,0.0,0.0,-0.8151297569274902,0.5468426942825317,0.18542933464050293,0.0,0.0,0.0,-0.7667270302772522,0.4426437020301819,0.63965904712677,0.4200000464916229,0.5361390709877014,1.1961900270307524e-07,-2.542635002100724e-06,-0.8441296815872192,2.461390249663964e-05,-0.0002454142377246171,-7.309624925255775e-05,0.006559773348271847,-0.0022145553957670927,-0.0007071108557283878,0.47566652297973633,0.6805012226104736,0.5200471878051758,0.5180110335350037,0.21057569980621338,0.3817906379699707,0.4414077401161194,0.6339994072914124,0.42000001668930054,-0.5913312435150146,0.3228761851787567,-1.431012511253357,-3.0,-0.1812296211719513,-0.1764891892671585,-0.17071391642093658,-0.1640005260705948,-0.15502506494522095,-0.18101215362548828,-0.19370011985301971,-0.2007107138633728
0.85,0.15148569643497467,-0.028778862208127975,0.0,0.5930337309837341,0.0,0.0,-0.805177628993988,0.29120302200317383,-0.2515454888343811,0.0,0.0,0.0,2.6850011348724365,0.4426437020301819,0.63965904712677,0.4200000464916229,0.5361387729644775,1.3915318675117305e-07,-2.598245828266954e-06,-0.8441298007965088,2.5071622076211497e-05,-0.0002453126653563231,-7.321219891309738e-05,0.006554576568305492,-0.0022093835286796093,-0.0007076296024024487,0.4847552180290222,0.68585604429245,0.5216325521469116,0.5052669644355774,0.2120005190372467,-0.21435832977294922,0.4414077401161194,0.6339994072914124,0.42000001668930054,-0.5849217772483826,0.4326728582382202,-1.392476201057434,3.0,-0.17754672467708588,-0.17387643456459045,-0.16898132860660553,-0.16304881870746613,0.08759544044733047,0.0689905509352684,0.05483236163854599,0.0394895076751709
0.8666666666666667,0.15383240580558777,-0.029752817004919052,0.0,0.5920968651771545,0.0,0.0,-0.8058667778968811,0.08767174929380417,0.0693885013461113,0.0,0.0,0.0,-1.107086181640625,0.4426437020301819,0.63965904712677,0.4200000464916229,0.5361388921737671,1.2927952752761485e-07,-2.4539203877793625e-06,-0.8441298007965088,2.527195101720281e-05,-0.0002452201151754707,-7.324619218707085e-05,0.0065511902794241905,-0.0022064968943595886,-0.0007078105700202286,0.49088984727859497,0.6858091354370117,0.5140480995178223,0.26576361060142517,-0.13112597167491913,-0.5251369476318359,0.4414077401161194,0.6339994072914124,0.42000001668930054,-0.6041433215141296,-2.4718568325042725,-1.3424464464187622,3.0,-0.17994233965873718,-0.17583797872066498,-0.17051133513450623,-0.16424614191055298,-0.22840380668640137,-0.18534530699253082,-0.14527395367622375,-0.11339844763278961
