vladlanda/robotic-transformer/data/env_000_episode_0280.csv
sim_time_s,robot_box_x,robot_box_y,robot_box_z,robot_box_quat_w,robot_box_quat_x,robot_box_quat_y,robot_box_quat_z,robot_box_linvel_x,robot_box_linvel_y,robot_box_linvel_z,robot_box_angvel_x,robot_box_angvel_y,robot_box_angvel_z,cube_world_x,cube_world_y,cube_world_z,cube_quat_w,cube_quat_x,cube_quat_y,cube_quat_z,cube_linvel_x,cube_linvel_y,cube_linvel_z,cube_angvel_x,cube_angvel_y,cube_angvel_z,endpoint_world_x,endpoint_world_y,endpoint_world_z,endpoint_linvel_x,endpoint_linvel_y,endpoint_linvel_z,target_cube_world_x,target_cube_world_y,target_cube_world_z,gripper_actual_pos_rad_gp_leftgearjoint,gripper_actual_vel_rad_s_gp_leftgearjoint,gripper_actual_pos_rad_gp_rotatingjoint,gripper_actual_vel_rad_s_gp_rotatingjoint,motor_angle_rad_joint1,motor_angle_rad_joint2,motor_angle_rad_joint3,motor_angle_rad_joint4,motor_speed_rad_s_joint1,motor_speed_rad_s_joint2,motor_speed_rad_s_joint3,motor_speed_rad_s_joint4
0.0,0.0,0.0,0.0,1.0,0.0,0.0,0.0,0.0,0.0,0.0,0.0,0.0,0.0,-0.3524501919746399,0.7761210203170776,0.41999998688697815,1.0,0.0,0.0,0.0,0.0,0.0,0.0,0.0,0.0,0.0,3.42540442943573e-06,-0.005000244826078415,1.313499927520752,0.0,0.0,0.0,0.45888251066207886,0.6518593430519104,0.42000001668930054,-1.5707999467849731,0.0,0.0,0.0,0.0,0.0,0.0,0.0,0.0,0.0,0.0,0.0
0.016666666666666666,0.00289379945024848,0.0020800959318876266,0.0,0.9999078512191772,0.0,0.0,-0.01357651874423027,0.2401805818080902,0.1781911551952362,0.0,0.0,0.0,-2.782435894012451,-0.35245031118392944,0.7761207222938538,0.41999998688697815,1.0,3.2799905511637917e-06,-8.339794135281409e-07,8.465515577427141e-08,-1.9833774786093272e-05,0.00017983047291636467,-6.132945418357849e-05,0.0009432245860807598,-0.004689525347203016,-0.00031981084612198174,-0.0070073772221803665,0.004012685269117355,1.3159358501434326,-0.7954628467559814,1.0414608716964722,0.1795160323381424,0.45888251066207886,0.6518593430519104,0.42000001668930054,-1.5301095247268677,3.0000035762786865,-0.04586387053132057,-2.999999761581421,0.0008751899586059153,0.000800998997874558,0.0007152223843149841,0.000614523480180651,0.11072556674480438,0.09727395325899124,0.0829467922449112,0.06773948669433594
0.03333333333333333,0.008728859946131706,0.006596798077225685,0.0,0.9999209046363831,0.0,0.0,-0.01257599052041769,0.3985559046268463,0.3095207214355469,0.0,0.0,0.0,1.07334566116333,-0.352450430393219,0.776120662689209,0.4200000464916229,1.0,3.390828396732104e-06,-2.1325054149201605e-06,-3.7090654103622e-08,0.00026357785100117326,0.00026937801158055663,-0.00010509602725505829,-0.0017707275692373514,0.004130777902901173,-0.0001354761334368959,-0.024606123566627502,0.026027407497167587,1.3169305324554443,-1.2598989009857178,1.6192892789840698,-0.032830432057380676,0.45888251066207886,0.6518593430519104,0.42000001668930054,-1.4800901412963867,2.9999983310699463,-0.09590363502502441,-3.0000007152557373,0.0026563366409391165,0.0022395525593310595,0.0017853437457233667,0.0012899176217615604,0.13237977027893066,0.0996890589594841,0.06550536304712296,0.029768608510494232
0.05,0.01723388582468033,0.01333849411457777,0.0,0.9996575117111206,0.0,0.0,-0.02617001160979271,0.5731349587440491,0.44649794697761536,0.0,0.0,0.0,-2.464266300201416,-0.3524504601955414,0.7761207222938538,0.4200000464916229,1.0,3.7651443562936038e-06,-2.2119581899460172e-06,5.627543320230188e-09,0.0002653093251865357,0.00026691475068219006,-0.00010440428741276264,-0.0017243032343685627,0.004177392926067114,-0.00012949187657795846,-0.046425219625234604,0.058293916285037994,1.3138351440429688,-1.3510470390319824,2.2038066387176514,-0.3137126564979553,0.45888251066207886,0.6518593430519104,0.42000001668930054,-1.4300718307495117,3.0000014305114746,-0.1459423452615738,-3.000000238418579,0.004329358693212271,0.0032026830594986677,0.0020038189832121134,0.0007303483434952796,0.10179357975721359,0.04537093639373779,-0.012907137162983418,-0.073093481361866
0.06666666666666667,0.029309215024113655,0.02255464717745781,0.0,0.997779369354248,0.0,0.0,-0.06660572439432144,0.785337507724762,0.5978238582611084,0.0,0.0,0.0,-5.683463096618652,-0.3524504601955414,0.776120662689209,0.4200000464916229,0.9999999403953552,3.4067529668391217e-06,-2.285721393491258e-06,4.3009984551645175e-07,0.0002670250250957906,0.00026791688287630677,-0.00010437914170324802,-0.0017406133702024817,0.004211768973618746,-0.00012850586790591478,-0.06962580233812332,0.09812985360622406,1.306897759437561,-1.4292001724243164,2.542945384979248,-0.5220668315887451,0.45888251066207886,0.6518593430519104,0.42000001668930054,-1.3800512552261353,2.9999964237213135,-0.11340755224227905,3.000000476837158,0.005530244205147028,0.0034188656136393547,0.0011971637140959501,-0.0011378055205568671,0.06024764105677605,-0.004382315091788769,-0.07104907929897308,-0.1397465169429779
0.08333333333333333,0.03556797280907631,0.036391738802194595,0.0,0.9958695769309998,0.0,0.0,-0.09079555422067642,0.29928767681121826,0.8806769847869873,0.0,0.0,0.0,-1.689079761505127,-0.3524504601955414,0.776120662689209,0.4200000464916229,1.0,3.6972694488213165e-06,-2.1890614334552083e-06,-2.6321944801566133e-07,0.00026389656704850495,0.0002658626181073487,-0.00010433699935674667,-0.0017080738907679915,0.004150205757468939,-0.00012991091352887452,-0.09614959359169006,0.1379370391368866,1.2959082126617432,-1.5658440589904785,2.439225196838379,-0.6843531727790833,0.45888251066207886,0.6518593430519104,0.42000001668930054,-1.33005690574646,2.999976634979248,-0.14539404213428497,-3.000000476837158,0.00032856236794032156,-0.0024556955322623253,-0.005402811337262392,-0.008519157767295837,-0.3229075074195862,-0.3787103593349457,-0.4363059103488922,-0.49589529633522034
0.1,0.04648733139038086,0.05062025040388107,0.0,0.9921380281448364,0.0,0.0,-0.12514834105968475,0.7272869944572449,0.8860448598861694,0.0,0.0,0.0,-4.994268417358398,-0.3524504601955414,0.776120662689209,0.4200000464916229,0.9999999403953552,3.62037144441274e-06,-2.2653671294392552e-06,1.746331435015236e-07,0.0002667691733222455,0.00026740916655398905,-0.0001040799543261528,-0.0017386609688401222,0.0042091780342161655,-0.00012775177310686558,-0.11863560974597931,0.1817319542169571,1.2856132984161377,-1.140123724937439,2.905937671661377,-0.656963050365448,0.45888251066207886,0.6518593430519104,0.42000001668930054,-1.2800498008728027,3.000000476837158,-0.19539594650268555,-3.0000009536743164,-0.0006936517311260104,-0.005199919454753399,-0.009855090640485287,-0.01466469094157219,-0.11086106300354004,-0.2182110995054245,-0.32450029253959656,-0.429644376039505
0.11666666666666667,0.05522875487804413,0.06629068404436111,0.0,0.983653724193573,0.0,0.0,-0.18007056415081024,0.5149393677711487,0.99542236328125,0.0,0.0,0.0,-7.5169196128845215,-0.3524504601955414,0.776120662689209,0.4200000464916229,1.0,3.798384796027676e-06,-2.2629228624282405e-06,-1.5019122656667605e-07,0.0002637415600474924,0.0002656604629009962,-0.00010429113171994686,-0.0017054404597729445,0.004147603642195463,-0.00012979608436580747,-0.13976480066776276,0.23183351755142212,1.2732946872711182,-1.2705399990081787,3.2341418266296387,-0.7734154462814331,0.45888251066207886,0.6518593430519104,0.42000001668930054,-1.238808512687683,1.999847412109375,-0.16163189709186554,2.9999992847442627,-0.0038957830984145403,-0.010093430057168007,-0.01640571840107441,-0.02283698320388794,-0.1514681875705719,-0.2574206292629242,-0.35999923944473267,-0.4590507745742798
0.13333333333333333,0.06203523278236389,0.07965859025716782,0.0,0.9766392707824707,0.0,0.0,-0.21488547325134277,0.3602745234966278,0.7251798510551453,0.0,0.0,0.0,-3.180006504058838,-0.3524504601955414,0.7761207222938538,0.4200000464916229,0.9999999403953552,3.550478595570894e-06,-2.2299534521152964e-06,2.9292567660377244e-07,0.00026703334879130125,0.0002677931042853743,-0.00010417122393846512,-0.0017441001255065203,0.0042136781848967075,-0.00012799941760022193,-0.16744473576545715,0.2847806215286255,1.2575398683547974,-1.7095855474472046,3.429563522338867,-1.1026089191436768,0.45888251066207886,0.6518593430519104,0.42000001668930054,-1.2000706195831299,2.5707175731658936,-0.19331961870193481,-3.0,-0.006280224304646254,-0.014163682237267494,-0.02208850346505642,-0.030056271702051163,-0.17831112444400787,-0.26699697971343994,-0.3512473404407501,-0.4309369623661041
0.15,0.06484800577163696,0.09382703900337219,0.0,0.9655096530914307,0.0,0.0,-0.2603672742843628,0.09847451746463776,0.8968135118484497,0.0,0.0,0.0,-6.42140531539917,-0.352450430393219,0.776120662689209,0.4200000464916229,1.0,3.332230562591576e-06,-2.102105781887076e-06,1.3131402454291674e-07,0.000267306953901425,0.00026859514764510095,-0.00010459683835506439,-0.001749753369949758,0.004215744789689779,-0.00012928422074764967,-0.19492480158805847,0.34715092182159424,1.2349790334701538,-1.4557253122329712,4.140105724334717,-1.574176549911499,0.45888251066207886,0.6518593430519104,0.42000001668930054,-1.151551365852356,2.999993324279785,-0.1595611423254013,3.0000014305114746,-0.011195420287549496,-0.02035750262439251,-0.029481876641511917,-0.038568880409002304,-0.3514499366283417,-0.41764208674430847,-0.4790966510772705,-0.5357529520988464
0.16666666666666666,0.07107425481081009,0.10445650666952133,0.0,0.9579541683197021,0.0,0.0,-0.28692126274108887,0.4127902686595917,0.5310120582580566,0.0,0.0,0.0,-2.1670284271240234,-0.3524504601955414,0.776120662689209,0.4200000464916229,1.0,3.737366569112055e-06,-2.2332269509206526e-06,-1.8764616527278122e-07,0.0002643280604388565,0.000266268034465611,-0.00010445830412209034,-0.0017117897514253855,0.004157491028308868,-0.00013001321349292994,-0.22616329789161682,0.41413500905036926,1.2015868425369263,-1.8995513916015625,4.211228370666504,-2.4062633514404297,0.45888251066207886,0.6518593430519104,0.42000001668930054,-1.1221426725387573,0.705086350440979,-0.19126808643341064,-3.0000007152557373,-0.01607239618897438,-0.02599843591451645,-0.03581997752189636,-0.045536987483501434,-0.4054206907749176,-0.4182654619216919,-0.42868131399154663,-0.43671715259552
0.18333333333333332,0.07177691161632538,0.11772620677947998,0.0,0.9453173279762268,0.0,0.0,-0.3261520266532898,0.04924264922738075,0.7738258242607117,0.0,0.0,0.0,-5.669840335845947,-0.3524504601955414,0.7761207222938538,0.4200000464916229,0.9999999403953552,3.6603353237296687e-06,-2.3023574158287374e-06,2.528651918964897e-07,0.0002669081150088459,0.0002676031435839832,-0.00010412605479359627,-0.0017413959139958024,0.004211583640426397,-0.00012787024024873972,-0.25612929463386536,0.4862707555294037,1.1524312496185303,-1.5731432437896729,4.611654281616211,-3.2448902130126953,0.45888251066207886,0.6518593430519104,0.42000001668930054,-1.0801867246627808,2.9999983310699463,-0.24129875004291534,-2.9999992847442627,-0.029057150706648827,-0.03883614018559456,-0.04845783859491348,-0.057459816336631775,-0.579721212387085,-0.63746178150177,-0.6883133053779602,-0.6683569550514221
0.2,0.07723713666200638,0.12903670966625214,0.0,0.9377344250679016,0.0,0.0,-0.34735310077667236,0.32256388664245605,0.638443112373352,0.0,0.0,0.0,-1.667048454284668,-0.3524504601955414,0.776120662689209,0.4200000464916229,1.0,3.590912001527613e-06,-2.300507276231656e-06,1.3872974591322418e-07,0.00026654728571884334,0.00026732083642855287,-0.0001042389776557684,-0.0017326046945527196,0.0042034476064145565,-0.0001282024895772338,-0.28554174304008484,0.5592458248138428,1.0894839763641357,-1.5670671463012695,4.392308235168457,-4.270720958709717,0.45888251066207886,0.6518593430519104,0.42000001668930054,-1.030187726020813,2.9995577335357666,-0.2913271486759186,-3.000000476837158,-0.037391118705272675,-0.04766814410686493,-0.057706568390131,-0.06617912650108337,-0.625667929649353,-0.6139266490936279,-0.6000309586524963,-0.542812705039978
0.21666666666666667,0.0790233463048935,0.14220060408115387,0.0,0.9248046875,0.0,0.0,-0.38044217228889465,0.0449712909758091,0.8520779013633728,0.0,0.0,0.0,-5.053674697875977,-0.3524504601955414,0.7761207222938538,0.4200000464916229,1.0,3.607073722378118e-06,-2.2611013719142647e-06,1.9610348900300778e-08,0.0002644701162353158,0.00026558470563031733,-0.00010396679863333702,-0.001708785304799676,0.004164168611168861,-0.00012832332868129015,-0.30890578031539917,0.6306813955307007,1.0116831064224243,-1.1383416652679443,4.205549240112305,-4.932633876800537,0.45888251066207886,0.6518593430519104,0.42000001668930054,-0.9801778197288513,3.0000014305114746,-0.3413535952568054,-2.999999761581421,-0.051485396921634674,-0.06107919663190842,-0.0704270526766777,-0.07768762111663818,-0.8621135354042053,-0.823077380657196,-0.7831475138664246,-0.7201219797134399
0.23333333333333334,0.08340242505073547,0.1513710618019104,0.0,0.9187718629837036,0.0,0.0,-0.3947888910770416,0.32670897245407104,0.43790292739868164,0.0,0.0,0.0,-0.7925735116004944,-0.352450430393219,0.776120662689209,0.4200000464916229,0.9999999403953552,3.742358558156411e-06,-2.227593995485222e-06,4.5890342903476267e-07,0.00026475111371837556,0.0002667141379788518,-0.0001045342069119215,-0.0017189329955726862,0.0041657378897070885,-0.00013019039761275053,-0.329693466424942,0.6931859850883484,0.9226351380348206,-1.0321835279464722,3.425464153289795,-5.707962989807129,0.45888251066207886,0.6518593430519104,0.42000001668930054,-0.9301690459251404,3.00000262260437,-0.39138156175613403,-2.9999988079071045,-0.06621681898832321,-0.07474029064178467,-0.08282674103975296,-0.0886358767747879,-0.9377582669258118,-0.8610730767250061,-0.7629138827323914,-0.662340521812439
0.25,0.08280108869075775,0.16465377807617188,0.0,0.9063599109649658,0.0,0.0,-0.4225064218044281,-0.037454865872859955,0.8591188788414001,0.0,0.0,0.0,-4.490181922912598,-0.3524504601955414,0.776120662689209,0.4200000464916229,1.0,3.3945489121833816e-06,-2.2821363927505445e-06,1.3361223238916864e-07,0.0002667929802555591,0.0002679398166947067,-0.00010439357720315456,-0.0017418378265574574,0.004206616431474686,-0.00012883949966635555,-0.34311750531196594,0.7397410273551941,0.8190897703170776,-0.5203922986984253,2.342081069946289,-6.4315996170043945,0.45888251066207886,0.6518593430519104,0.42000001668930054,-0.8801593780517578,2.9999771118164062,-0.4414117932319641,-2.999997138977051,-0.08327078819274902,-0.09161490201950073,-0.0995570495724678,-0.1051691398024559,-0.7861016988754272,-0.8268520832061768,-0.8634664416313171,-0.8964583873748779
0.26666666666666666,0.08636961877346039,0.17190706729888916,0.0,0.9011526107788086,0.0,0.0,-0.4335020184516907,0.2390330582857132,0.332912415266037,0.0,0.0,0.0,-0.3762863874435425,-0.3524504601955414,0.7761207222938538,0.4200000464916229,1.0,3.6835583614447387e-06,-2.3101970327843446e-06,2.1009461192988965e-07,0.0002647911023814231,0.00026625843020156026,-0.00010421290062367916,-0.0017168071353808045,0.0041689747013151646,-0.0001290980726480484,-0.3551909923553467,0.7691669464111328,0.7111591696739197,-0.5564549565315247,1.180302619934082,-6.589870929718018,0.45888251066207886,0.6518593430519104,0.42000001668930054,-0.8301496505737305,2.999997615814209,-0.49144288897514343,-3.0000009536743164,-0.09423808753490448,-0.10290513187646866,-0.11114733666181564,-0.11712035536766052,-0.902329683303833,-0.8624694347381592,-0.8252441883087158,-0.7998962998390198
0.2833333333333333,0.08572039753198624,0.1815718710422516,0.0,0.9094571471214294,0.0,0.0,-0.415797621011734,-0.08189547806978226,0.6659442782402039,0.0,0.0,0.0,3.094674587249756,-0.3524504601955414,0.776120662689209,0.4200000464916229,1.0,3.3070803056034492e-06,-2.2126073417894077e-06,2.6256668661517324e-07,0.00026660776347853243,0.00026745034847408533,-0.00010424107313156128,-0.0017351560527458787,0.004204331897199154,-0.0001282802695641294,-0.36768877506256104,0.7772632837295532,0.607547402381897,-0.7675713300704956,-0.06522753834724426,-5.830942153930664,0.45888251066207886,0.6518593430519104,0.42000001668930054,-0.7801408171653748,2.9999494552612305,-0.5414732694625854,-2.9999985694885254,-0.11132141202688217,-0.11990182101726532,-0.1280856877565384,-0.1339796632528305,-0.9752825498580933,-0.9821484684944153,-0.989296555519104,-0.9958993196487427
0.3,0.08317641168832779,0.1871509850025177,0.0,0.9101043939590454,0.0,0.0,-0.4143790006637573,-0.22689291834831238,0.3110290765762329,0.0,0.0,0.0,-0.6956937909126282,-0.3524504601955414,0.776120662689209,0.4200000464916229,1.0,3.656529997897451e-06,-2.2970577902015066e-06,-2.449744442856172e-07,0.0002653293195180595,0.0002659517340362072,-0.00010384945198893547,-0.001716389786452055,0.00418188888579607,-0.00012745719868689775,-0.3761020302772522,0.7779409885406494,0.5080938935279846,-0.10677866637706757,-0.2184123396873474,-5.823184013366699,0.45888251066207886,0.6518593430519104,0.42000001668930054,-0.7301320433616638,3.0000014305114746,-0.5915021300315857,-2.9999985694885254,-0.1270035058259964,-0.13572576642036438,-0.14407259225845337,-0.15015031397342682,-1.0505908727645874,-1.0382652282714844,-1.0288593769073486,-1.0213289260864258
0.31666666666666665,0.0774451196193695,0.18966743350028992,0.0,0.9163645505905151,0.0,0.0,-0.4003449082374573,-0.3951718211174011,0.10342905670404434,0.0,0.0,0.0,2.664713144302368,-0.3524504601955414,0.7761207222938538,0.4200000464916229,0.9999999403953552,3.650907274277415e-06,-2.3046711703500478e-06,1.9767523440350487e-07,0.00026691643870435655,0.0002675972646102309,-0.00010412209667265415,-0.0017412601737305522,0.004211750812828541,-0.00012784849968738854,-0.3728843927383423,0.776496171951294,0.4168623685836792,0.5360273122787476,-0.09598143398761749,-5.341860771179199,0.45888251066207886,0.6518593430519104,0.42000001668930054,-0.6801562905311584,3.0000038146972656,-0.6415286660194397,-2.9999992847442627,-0.14412061870098114,-0.1527250111103058,-0.16098655760288239,-0.16700002551078796,-1.0053507089614868,-1.0040663480758667,-1.0030839443206787,-1.0022915601730347
0.3333333333333333,0.06946773827075958,0.18947641551494598,0.0,0.9156292080879211,0.0,0.0,-0.4020238518714905,-0.5197254419326782,-0.055357638746500015,0.0,0.0,0.0,-1.1334401369094849,-0.3527142107486725,0.7740868330001831,0.42087695002555847,0.9993723034858704,0.022344162687659264,-0.0005774896708317101,-0.027483899146318436,0.02615436352789402,-0.014507314190268517,0.0184819083660841,1.0534892082214355,-0.1576986312866211,-0.13974235951900482,-0.3730241060256958,0.7788184881210327,0.42688828706741333,0.08042878657579422,0.0405585840344429,-0.20854663848876953,0.45888251066207886,0.6518593430519104,0.42000001668930054,-0.6301866173744202,2.9999923706054688,-0.692028284072876,-3.0000016689300537,-0.14391593635082245,-0.15372732281684875,-0.16276490688323975,-0.16908621788024902,-0.10856113582849503,-0.13234473764896393,-0.1371838003396988,-0.1261524260044098
0.35,0.05927165225148201,0.18658119440078735,0.0,0.9206713438034058,0.0,0.0,-0.39033862948417664,-0.6580057740211487,-0.21839383244514465,0.0,0.0,0.0,2.3636605739593506,-0.3521275818347931,0.7752953767776489,0.42047351598739624,0.9989614486694336,0.011905943974852562,-0.0005280797486193478,-0.04397667199373245,0.1272796243429184,0.27405548095703125,-0.012212589383125305,-0.5733729004859924,-0.005976831074804068,-8.780759811401367,-0.3698863387107849,0.7830150127410889,0.42317789793014526,0.25263628363609314,0.372563898563385,-0.20731796324253082,0.45888251066207886,0.6518593430519104,0.42000001668930054,-0.5801813006401062,2.9999775886535645,-0.7420594096183777,-3.0000016689300537,-0.14788658916950226,-0.15741679072380066,-0.1659201979637146,-0.1715819537639618,-0.2830279767513275,-0.24482648074626923,-0.19509701430797577,-0.14474423229694366
0.36666666666666664,0.04696723073720932,0.18107444047927856,0.0,0.9191000461578369,0.0,0.0,-0.39402422308921814,-0.782820999622345,-0.37315642833709717,0.0,0.0,0.0,-1.4145394563674927,-0.34983643889427185,0.7801204919815063,0.4200000464916229,0.9935452938079834,-1.73826970240043e-06,5.047609647590434e-06,-0.11343518644571304,0.16980651021003723,0.33445993065834045,-1.6867619706317782e-05,0.000770488113630563,-0.0004711765795946121,-9.678397178649902,-0.3632924258708954,0.7881066203117371,0.4201573133468628,0.5521180033683777,0.3446453809738159,-0.1793271154165268,0.45888251066207886,0.6518593430519104,0.42000001668930054,-0.5301764607429504,2.9999818801879883,-0.7921043038368225,-2.999997138977051,-0.15429486334323883,-0.16255107522010803,-0.169576957821846,-0.17379020154476166,-0.42093342542648315,-0.3193534016609192,-0.20673328638076782,-0.09914997965097427
0.3833333333333333,0.033322300761938095,0.17313607037067413,0.0,0.9229750037193298,0.0,0.0,-0.38485997915267944,-0.8838343024253845,-0.5169113874435425,0.0,0.0,0.0,2.291825771331787,-0.34393054246902466,0.7884953022003174,0.4202045500278473,0.979106605052948,-0.005066649988293648,0.0007227597525343299,-0.20328280329704285,0.544124186038971,0.6790968179702759,0.05663080886006355,-2.6748268604278564,0.9282563328742981,-6.014205455780029,-0.35363397002220154,0.7954120635986328,0.4198863208293915,0.6681742668151855,0.5744648575782776,0.04206228256225586,0.45888251066207886,0.6518593430519104,0.42000001668930054,-0.4801374077796936,2.999918222427368,-0.842113733291626,-2.9999730587005615,-0.16271649301052094,-0.16859622299671173,-0.17304140329360962,-0.1747732311487198,-0.47441086173057556,-0.32323139905929565,-0.158616840839386,-4.390722097014077e-08
0.4,0.02298448607325554,0.1622176170349121,0.0,0.9212451577186584,0.0,0.0,-0.3889824151992798,-0.5310139656066895,-0.7045192718505859,0.0,0.0,0.0,-1.4478026628494263,-0.33372795581817627,0.8002702593803406,0.42085081338882446,0.9707162380218506,-0.02147834002971649,0.004807406570762396,-0.23921866714954376,1.0265429019927979,0.518566906452179,0.2834155261516571,-13.272358894348145,6.412062644958496,-5.416122913360596,-0.3407166004180908,0.8048034310340881,0.42137497663497925,0.8905683755874634,0.6024205684661865,0.08858375996351242,0.45888251066207886,0.6518593430519104,0.42000001668930054,-0.4300813674926758,2.9812629222869873,-0.8921221494674683,-2.9996209144592285,-0.17008967697620392,-0.17318670451641083,-0.17456629872322083,-0.17328721284866333,-0.4045198857784271,-0.22531454265117645,-0.02873198688030243,0.1647232621908188
0.4166666666666667,0.0104784881696105,0.14964421093463898,0.0,0.9072917103767395,0.0,0.0,-0.4205017685890198,-0.8346769213676453,-0.7783138155937195,0.0,0.0,0.0,-5.070752143859863,-0.314447820186615,0.8140163421630859,0.4240299165248871,0.949870228767395,-0.07309063524007797,-0.01924348622560501,-0.30337095260620117,1.771378993988037,0.9233540296554565,-0.14781811833381653,8.612257957458496,-9.706528663635254,-6.605774879455566,-0.3204527497291565,0.8196865320205688,0.4244843125343323,1.5530531406402588,1.0866416692733765,0.2180006355047226,0.45888251066207886,0.6518593430519104,0.42000001668930054,-0.3886917233467102,1.4643642902374268,-0.9421445727348328,-2.9978818893432617,-0.17833703756332397,-0.17807887494564056,-0.17579294741153717,-0.17088522017002106,-0.49016839265823364,-0.28601086139678955,-0.06471654027700424,0.15335746109485626
0.43333333333333335,0.0009807187598198652,0.13417543470859528,0.0,0.8794832825660706,0.0,0.0,-0.47592979669570923,-0.5303053855895996,-0.97160404920578,0.0,0.0,0.0,-8.230494499206543,-0.2799898087978363,0.8340886235237122,0.4273865818977356,0.9273738861083984,-0.0845378190279007,-0.045786287635564804,-0.3615724742412567,2.805185079574585,0.8218722343444824,0.3705630302429199,13.435861587524414,-11.114090919494629,8.985682487487793,-0.28545892238616943,0.8399716019630432,0.4272175431251526,2.583858013153076,1.3646330833435059,0.3912593424320221,0.45888251066207886,0.6518593430519104,0.42000001668930054,-0.3719915449619293,0.9185543060302734,-0.9921666383743286,-3.0000011920928955,-0.18593554198741913,-0.18223008513450623,-0.1762377768754959,-0.1676926463842392,-0.5201548933982849,-0.2894020676612854,-0.04625190421938896,0.18954850733280182
0.45,-0.005069057457149029,0.11560269445180893,0.0,0.8354282975196838,0.0,0.0,-0.5495994091033936,-0.2983579933643341,-1.1704387664794922,0.0,0.0,0.0,-11.052104949951172,-0.212832972407341,0.8601604700088501,0.4311451315879822,0.9045329689979553,-0.045154232531785965,-0.08752559125423431,-0.41487380862236023,5.473905563354492,1.1526612043380737,0.34962689876556396,16.37417221069336,-15.30992603302002,29.02859115600586,-0.2176852524280548,0.8665262460708618,0.43068838119506836,5.321211814880371,1.944169044494629,0.2443259358406067,0.45888251066207886,0.6518593430519104,0.42000001668930054,-0.35596656799316406,0.9395505785942078,-0.954898476600647,2.9951131343841553,-0.19761443138122559,-0.18901167809963226,-0.17819707095623016,-0.16523993015289307,-0.746257483959198,-0.4404124915599823,-0.15138791501522064,0.1019204780459404
0.4666666666666667,-0.00881113763898611,0.10278823226690292,0.0,0.7712708115577698,0.0,0.0,-0.6365071535110474,-0.17775849997997284,-0.6293762922286987,0.0,0.0,0.0,-13.913175582885742,-0.10434457659721375,0.8843895792961121,0.43776339292526245,0.8685801029205322,-0.01030221488326788,-0.10687978565692902,-0.48377591371536255,7.661649227142334,0.443360298871994,0.609735369682312,1.1408532857894897,-20.769760131835938,33.54261779785156,-0.10920514166355133,0.8922327756881714,0.4372733235359192,7.678039073944092,1.4059112071990967,0.6271417140960693,0.45888251066207886,0.6518593430519104,0.42000001668930054,-0.3415925204753876,0.7588422894477844,-0.9676520824432373,-3.000004768371582,-0.21380586922168732,-0.20325921475887299,-0.18751898407936096,-0.16917555034160614,-0.9413503408432007,-0.9302772879600525,-0.7187861800193787,-0.4043046832084656
0.48333333333333334,-0.015163769014179707,0.09793945401906967,0.0,0.711273729801178,0.0,0.0,-0.7029150724411011,-0.5382629632949829,-0.32137465476989746,0.0,0.0,0.0,-9.423559188842773,0.013377577066421509,0.8873505592346191,0.4470524489879608,0.8201165199279785,0.016922619193792343,-0.1153588593006134,-0.5601916313171387,6.704611778259277,-0.4610215127468109,0.7584654688835144,11.833385467529297,-5.1929192543029785,2.1955013275146484,0.009621081873774529,0.8980430364608765,0.4475996494293213,6.7779340744018555,-0.3515407145023346,0.5472351908683777,0.45888251066207886,0.6518593430519104,0.42000001668930054,-0.3296867609024048,0.6464771628379822,-0.980046808719635,1.1141330003738403,-0.22917334735393524,-0.21862564980983734,-0.20295350253582,-0.1803889125585556,-0.5998907685279846,-0.6660369038581848,-0.7357355356216431,-0.6296107172966003
0.5,-0.018739940598607063,0.0851937010884285,0.0,0.6729483008384705,0.0,0.0,-0.7396895289421082,-0.07827496528625488,-0.9474865794181824,0.0,0.0,0.0,-5.292628765106201,0.12270745635032654,0.8762075304985046,0.4557916820049286,0.784479558467865,0.02474226802587509,-0.09951397776603699,-0.6116178631782532,6.186093807220459,-1.9884129762649536,0.6184268593788147,7.274172306060791,-3.5870649814605713,22.822328567504883,0.12027163058519363,0.8871269226074219,0.4570178985595703,6.469964027404785,-1.2498395442962646,0.5425035357475281,0.45888251066207886,0.6518593430519104,0.42000001668930054,-0.31852349638938904,0.6134277582168579,-1.0178440809249878,-3.0000016689300537,-0.2354576736688614,-0.22510288655757904,-0.209834024310112,-0.18551161885261536,-0.268127977848053,-0.24093663692474365,-0.231724813580513,-0.13116075098514557
0.5166666666666666,-0.023087264969944954,0.07389004528522491,0.0,0.6601215600967407,0.0,0.0,-0.7511588335037231,-0.2685450315475464,-0.5484163761138916,0.0,0.0,0.0,-0.9131070375442505,0.21762067079544067,0.8505105972290039,0.4609726369380951,0.720541775226593,0.007988004013895988,-0.087345652282238,-0.6878417730331421,4.830291748046875,-2.6372158527374268,0.2494792491197586,-0.9460510015487671,-6.919366359710693,22.063232421875,0.21598371863365173,0.8620091676712036,0.4636349081993103,5.1744232177734375,-1.8568031787872314,0.25165072083473206,0.45888251066207886,0.6518593430519104,0.42000001668930054,-0.3081223964691162,0.4491172432899475,-1.0678662061691284,-3.000001907348633,-0.23999759554862976,-0.23038792610168457,-0.21447336673736572,-0.18865928053855896,-0.004579111468046904,-0.3514414131641388,-0.30839914083480835,-0.2458673119544983
0.5333333333333333,-0.02498171664774418,0.06731869280338287,0.0,0.6402593851089478,0.0,0.0,-0.7681587934494019,-0.05286295339465141,-0.27840620279312134,0.0,0.0,0.0,-3.97163462638855,0.29596513509750366,0.813892126083374,0.45509153604507446,0.622647762298584,-0.1123218759894371,-0.1770196110010147,-0.7538948655128479,3.8388266563415527,-2.9949464797973633,-0.30847790837287903,-13.154155731201172,6.240321159362793,16.9207763671875,0.2931685745716095,0.827778697013855,0.4646456241607666,4.37954568862915,-2.4014177322387695,-0.1203467920422554,0.45888251066207886,0.6518593430519104,0.42000001668930054,-0.30334314703941345,0.1095704436302185,-1.117888331413269,-2.999277114868164,-0.23997241258621216,-0.23555876314640045,-0.21884536743164062,-0.19223251938819885,-0.02218286320567131,-0.2270345687866211,-0.17640580236911774,-0.14507955312728882
0.55,-0.023788299411535263,0.062329649925231934,0.0,0.6344431042671204,0.0,0.0,-0.7729695439338684,0.12286737561225891,-0.29135093092918396,0.0,0.0,0.0,0.04796307533979416,0.35866156220436096,0.7745896577835083,0.44916656613349915,0.5665831565856934,-0.11262129992246628,-0.12270036339759827,-0.8069971799850464,3.3206305503845215,-2.400474786758423,-0.3625427186489105,11.087868690490723,-1.9420281648635864,-13.94256591796875,0.3567372262477875,0.7867403030395508,0.45823603868484497,3.297023296356201,-2.5722999572753906,-0.565030574798584,0.45888251066207886,0.6518593430519104,0.42000001668930054,-0.2961045205593109,0.9514557719230652,-1.1679104566574097,-3.0000011920928955,-0.23880106210708618,-0.23706504702568054,-0.21994973719120026,-0.19361047446727753,0.15043947100639343,0.023383939638733864,0.018829692155122757,-0.0432361364364624
0.5666666666666667,-0.02003614604473114,0.05553562566637993,0.0,0.6193904280662537,0.0,0.0,-0.7850831151008606,0.2727130353450775,-0.4812939167022705,0.0,0.0,0.0,-3.2318472862243652,0.4066683351993561,0.7366025447845459,0.4386098384857178,0.5228047966957092,-0.05161946639418602,-0.037392508238554,-0.850066065788269,2.396643877029419,-2.272308588027954,-0.9561854004859924,13.550116539001465,-6.20587158203125,-2.54675030708313,0.40488892793655396,0.7462918758392334,0.44317489862442017,2.4858908653259277,-2.3686938285827637,-1.040700912475586,0.45888251066207886,0.6518593430519104,0.42000001668930054,-0.2725500464439392,1.7621073722839355,-1.2179325819015503,-3.0000009536743164,-0.2361435443162918,-0.23595361411571503,-0.2192559838294983,-0.19449661672115326,0.23008592426776886,0.15710760653018951,0.1046353429555893,-0.02648598700761795
0.5833333333333334,-0.013865478336811066,0.05125502496957779,0.0,0.6179923415184021,0.0,0.0,-0.7861841320991516,0.4048009216785431,-0.179563969373703,0.0,0.0,0.0,0.6418898701667786,0.44034093618392944,0.7015422582626343,0.42268455028533936,0.4957324266433716,-0.04242466017603874,0.036982860416173935,-0.8666497468948364,1.4475234746932983,-2.106290340423584,-0.621099054813385,3.2981739044189453,-25.719738006591797,8.265168190002441,0.4389666020870209,0.7083725929260254,0.4256018400192261,1.2753098011016846,-1.7771785259246826,-0.2378562092781067,0.45888251066207886,0.6518593430519104,0.42000001668930054,-0.2547716200351715,0.43610531091690063,-1.2679526805877686,-3.000002384185791,-0.23304109275341034,-0.23388376832008362,-0.2184850126504898,-0.19637008011341095,0.27228957414627075,0.20009997487068176,0.08654680848121643,-0.10253126174211502
0.6,-0.005600803066045046,0.04815945029258728,0.0,0.6052060127258301,0.0,0.0,-0.7960689067840576,0.5431278944015503,-0.164361372590065,0.0,0.0,0.0,-2.8796801567077637,0.4558040499687195,0.6812534928321838,0.42044422030448914,0.5105792880058289,0.009180579334497452,0.005516425706446171,-0.8597638607025146,0.30545559525489807,-2.0084166526794434,0.10748609155416489,3.025710344314575,-10.070411682128906,16.42460823059082,0.45380955934524536,0.6882601380348206,0.42548036575317383,0.49206626415252686,-0.8157778382301331,0.1278393566608429,0.45888251066207886,0.6518593430519104,0.42000001668930054,-0.2441851645708084,-0.03712353855371475,-1.2296807765960693,3.0000038146972656,-0.2247769981622696,-0.22758224606513977,-0.21511392295360565,-0.19699622690677643,0.5605421662330627,0.4485721290111542,0.2577267587184906,0.0049896929413080215
0.6166666666666667,2.1021829525125213e-05,0.047406814992427826,0.0,0.6054641604423523,0.0,0.0,-0.7958725690841675,0.2585560381412506,0.000284036883385852,0.0,0.0,0.0,0.9021286368370056,0.4616308808326721,0.6668541431427002,0.4213942885398865,0.5307047367095947,-0.010245361365377903,0.027090737596154213,-0.8470616936683655,0.06750104576349258,-1.0281639099121094,-0.34702780842781067,-6.332991123199463,-12.362513542175293,-0.8540349006652832,0.4581105709075928,0.6736169457435608,0.4267174005508423,0.06792180985212326,-0.7974870800971985,-0.059716686606407166,0.45888251066207886,0.6518593430519104,0.42000001668930054,-0.26881927251815796,-2.26020884513855,-1.250596284866333,-2.999833583831787,-0.21483761072158813,-0.21932291984558105,-0.21011993288993835,-0.19625890254974365,0.6227781176567078,0.5347688794136047,0.3364187180995941,0.0790613442659378
0.6333333333333333,0.006773410364985466,0.0437275730073452,0.0,0.5932818651199341,0.0,0.0,-0.8049947619438171,0.4290394186973572,-0.31810900568962097,0.0,0.0,0.0,-2.7966208457946777,0.4617930054664612,0.659888505935669,0.42001262307167053,0.5588328242301941,-8.391464507440105e-05,0.0003867376653943211,-0.8292802572250366,-0.048743538558483124,-0.040911175310611725,-0.023815440014004707,-1.322206735610962,-0.9866068363189697,9.036742210388184,0.4583500623703003,0.6678149700164795,0.42634689807891846,-0.11824486404657364,-0.055688466876745224,0.006035307422280312,0.45888251066207886,0.6518593430519104,0.42000001668930054,-0.29054883122444153,-0.5503497123718262,-1.2369320392608643,2.9996297359466553,-0.20045512914657593,-0.20701870322227478,-0.20190715789794922,-0.19293881952762604,0.8822107315063477,0.8059075474739075,0.5603830218315125,0.2695344090461731
0.65,0.014854381792247295,0.04340917617082596,0.0,0.5940046310424805,0.0,0.0,-0.8044615983963013,0.526048481464386,0.01223044190555811,0.0,0.0,0.0,0.9855029582977295,0.460750937461853,0.6594003438949585,0.42000025510787964,0.5791152119636536,-8.719986908545252e-06,-8.427555258094799e-06,-0.8152456879615784,-0.03692950680851936,-0.018577856943011284,-0.0003337719535920769,0.018722210079431534,-0.003808126784861088,1.4203161001205444,0.4567645788192749,0.6669994592666626,0.42788952589035034,0.009650491178035736,-0.00752399954944849,0.17240600287914276,0.45888251066207886,0.6518593430519104,0.42000001668930054,-0.33072802424430847,-2.999873638153076,-1.257582426071167,-2.9996602535247803,-0.18949654698371887,-0.1967790126800537,-0.19513088464736938,-0.19036653637886047,0.6497708559036255,0.597403347492218,0.3881150782108307,0.13903819024562836
0.6666666666666666,0.02509872429072857,0.0419139638543129,0.0,0.6176207065582275,0.0,0.0,-0.7864760756492615,0.6462278366088867,-0.1990746557712555,0.0,0.0,0.0,4.355406284332275,0.4606599807739258,0.659355878829956,0.4200000762939453,0.5805519223213196,1.1568535228434484e-05,3.215259539501858e-06,-0.8142231106758118,0.0005487832822836936,0.00042464249418117106,-0.00044848909601569176,-0.0028315617237240076,-0.00012580922339111567,-0.001733077922835946,0.4555267095565796,0.6679359674453735,0.4308736324310303,-0.11324489116668701,0.1125112995505333,0.1966184377670288,0.45888251066207886,0.6518593430519104,0.42000001668930054,-0.3807489573955536,-2.9918692111968994,-1.3075443506240845,-2.9998586177825928,-0.1803300529718399,-0.18795110285282135,-0.1891118735074997,-0.18778938055038452,0.5344917178153992,0.5281742215156555,0.3820711672306061,0.19995202124118805
0.6833333333333333,0.037210628390312195,0.036691632121801376,0.0,0.6264140605926514,0.0,0.0,-0.7794904708862305,0.7555928826332092,-0.37758249044418335,0.0,0.0,0.0,0.3047427833080292,0.46066081523895264,0.659356951713562,0.4200000464916229,0.5805513262748718,5.559732585425081e-08,-3.359290758453426e-06,-0.81422358751297,8.011798490770161e-05,-0.0003294179914519191,-8.533777145203203e-05,0.008110098540782928,-0.002054582117125392,-0.0004651714116334915,0.4551028609275818,0.6703931093215942,0.4352869391441345,-0.003940830007195473,0.15264353156089783,0.31310582160949707,0.45888251066207886,0.6518593430519104,0.42000001668930054,-0.4307490289211273,-2.999704599380493,-1.3575091361999512,-2.999772071838379,-0.1721760332584381,-0.17945201694965363,-0.18231207132339478,-0.18315236270427704,0.491756796836853,0.5302014350891113,0.46020984649658203,0.36834198236465454
0.7,0.051133088767528534,0.028538892045617104,0.0,0.6113885045051575,0.0,0.0,-0.7913305759429932,0.8665045499801636,-0.5588404536247253,0.0,0.0,0.0,-3.2258808612823486,0.46066078543663025,0.659356951713562,0.4200000464916229,0.5805511474609375,3.2074947853288904e-07,-3.1890353966446128e-06,-0.8142236471176147,0.00010179193486692384,-0.00026425495161674917,-8.902582339942455e-05,0.0062766307964921,-0.0014968522591516376,-0.0006796996458433568,0.45761099457740784,0.6724604368209839,0.44319072365760803,0.29973188042640686,0.06850416213274002,0.7575346231460571,0.45888251066207886,0.6518593430519104,0.42000001668930054,-0.4807620942592621,-2.9999897480010986,-1.4075273275375366,-3.0,-0.16670013964176178,-0.17278851568698883,-0.1760040521621704,-0.1774640828371048,0.24124354124069214,0.3356480002403259,0.35119614005088806,0.35566720366477966
0.7166666666666667,0.06791482865810394,0.023691451177001,0.0,0.5738275647163391,0.0,0.0,-0.818976104259491,1.0294827222824097,-0.2841741144657135,0.0,0.0,0.0,-6.432458877563477,0.46066078543663025,0.659356951713562,0.4200000464916229,0.5805512070655823,3.8192729334696196e-07,-3.1921465506457025e-06,-0.8142236471176147,0.00010213222412858158,-0.0002665319771040231,-8.887774311006069e-05,0.006339117884635925,-0.001493822317570448,-0.0006825188756920397,0.47110018134117126,0.6671457886695862,0.463034987449646,1.3132771253585815,-0.5293155312538147,1.7106499671936035,0.45888251066207886,0.6518593430519104,0.42000001668930054,-0.5307746529579163,-2.9998741149902344,-1.4575456380844116,-2.9999897480010986,-0.16844768822193146,-0.17204944789409637,-0.17389528453350067,-0.17415036261081696,-0.1159839779138565,0.02017827518284321,0.10343101620674133,0.18284055590629578
0.7333333333333333,0.08154065161943436,0.020486287772655487,0.0,0.5513020753860474,0.0,0.0,-0.8343057036399841,0.7330040335655212,-0.14631986618041992,0.0,0.0,0.0,-2.240588903427124,0.46066078543663025,0.659356951713562,0.4200000464916229,0.5805514454841614,3.6620943433263164e-07,-3.1928354928822955e-06,-0.8142235279083252,0.00010273895895807073,-0.0002665173669811338,-8.903909474611282e-05,0.006335048004984856,-0.00148746685590595,-0.0006841500289738178,0.49494925141334534,0.6642007827758789,0.49278172850608826,1.447540283203125,0.08445821702480316,1.8538322448730469,0.45888251066207886,0.6518593430519104,0.42000001668930054,-0.5523071885108948,0.15351204574108124,-1.5075639486312866,-2.9999985694885254,-0.16887851059436798,-0.1712173968553543,-0.17257408797740936,-0.17241358757019043,0.05421733483672142,0.07669700682163239,0.057793986052274704,0.03354325890541077
0.75,0.09008607268333435,0.02004312351346016,0.0,0.5553932189941406,0.0,0.0,-0.8315878510475159,0.45842722058296204,0.06347332894802094,0.0,0.0,0.0,1.4511710405349731,0.46066078543663025,0.659356951713562,0.4200000464916229,0.5805513262748718,3.8982244632279617e-07,-3.1945580758474534e-06,-0.8142236471176147,0.00010233031207462773,-0.00026658247224986553,-8.895155042409897e-05,0.0063390606082975864,-0.0014925349969416857,-0.0006830926286056638,0.5157814621925354,0.6681277751922607,0.5182642936706543,0.9558119773864746,0.3226909637451172,1.2429372072219849,0.45888251066207886,0.6518593430519104,0.42000001668930054,-0.5292919874191284,2.3938469886779785,-1.4688150882720947,2.9999985694885254,-0.16737809777259827,-0.16935373842716217,-0.17091906070709229,-0.17106646299362183,0.03097028285264969,0.06956362724304199,0.07754142582416534,0.07627032697200775
0.7666666666666666,0.09452717006206512,0.016156237572431564,0.0,0.5471851229667664,0.0,0.0,-0.8370116353034973,0.2016669064760208,-0.3341206908226013,0.0,0.0,0.0,-2.1613519191741943,0.46066078543663025,0.659356951713562,0.4200000464916229,0.5805512070655823,3.796938869982114e-07,-3.195286353729898e-06,-0.8142237663269043,0.00010232042404823005,-0.00026657909620553255,-8.894526399672031e-05,0.006338941399008036,-0.0014926418662071228,-0.000683067599311471,0.5250058770179749,0.6738226413726807,0.5320546627044678,0.12910062074661255,0.37424397468566895,0.6148867011070251,0.45888251066207886,0.6518593430519104,0.42000001668930054,-0.4911842942237854,2.1660187244415283,-1.418762445449829,3.0000009536743164,-0.16550342738628387,-0.16696545481681824,-0.16844043135643005,-0.16866399347782135,0.13808013498783112,0.17163942754268646,0.18283255398273468,0.1817968189716339
0.7833333333333333,0.0957893505692482,0.016893751919269562,0.0,0.551940381526947,0.0,0.0,-0.8338835835456848,0.03408990800380707,0.1732667237520218,0.0,0.0,0.0,1.5565543174743652,0.46066078543663025,0.659356951713562,0.4200000464916229,0.580551028251648,3.695913903811743e-07,-3.196008492523106e-06,-0.8142237663269043,0.00010239374387310818,-0.0002666258078534156,-8.896412327885628e-05,0.006339725106954575,-0.0014921079855412245,-0.0006833074148744345,0.5237816572189331,0.6802099347114563,0.5405847430229187,-0.23688161373138428,0.4551943838596344,0.4288736581802368,0.45888251066207886,0.6518593430519104,0.42000001668930054,-0.44465959072113037,3.0000011920928955,-1.4365261793136597,-3.000000476837158,-0.16885894536972046,-0.1686801165342331,-0.16890974342823029,-0.16822190582752228,-0.26232287287712097,-0.16164281964302063,-0.08173763751983643,-0.0229900311678648
0.8,0.09462390840053558,0.014717096462845802,0.0,0.5452623963356018,0.0,0.0,-0.8382654190063477,-0.14771750569343567,-0.13784390687942505,0.0,0.0,0.0,-1.6677285432815552,0.46066078543663025,0.659356951713562,0.4200000464916229,0.580551266670227,3.875197762681637e-07,-3.197838850610424e-06,-0.8142236471176147,0.0001022991054924205,-0.00026659495779313147,-8.893804624676704e-05,0.006339644081890583,-0.0014928181190043688,-0.0006830230704508722,0.5138804912567139,0.6867538690567017,0.5412329435348511,-1.007656455039978,0.3333625793457031,-0.14321455359458923,0.45888251066207886,0.6518593430519104,0.42000001668930054,-0.42477843165397644,-0.3447857201099396,-1.3979755640029907,3.000000238418579,-0.17085649073123932,-0.16936646401882172,-0.16850776970386505,-0.16701099276542664,-0.1962583363056183,-0.09646332263946533,-0.006768856197595596,0.06570817530155182
0.8166666666666667,0.09638086706399918,0.01775532215833664,0.0,0.5532128214836121,0.0,0.0,-0.8330399394035339,0.03063357248902321,0.27153220772743225,0.0,0.0,0.0,1.7570786476135254,0.46066078543663025,0.659356951713562,0.4200000464916229,0.5805511474609375,3.77396901285465e-07,-3.198565309503465e-06,-0.8142237663269043,0.0001023225486278534,-0.00026657854323275387,-8.894759230315685e-05,0.0063389381393790245,-0.0014926184667274356,-0.0006830706843174994,0.49792584776878357,0.6903672814369202,0.5392029881477356,-0.8574374914169312,0.31400740146636963,-0.0533001683652401,0.45888251066207886,0.6518593430519104,0.42000001668930054,-0.4449734687805176,-1.9244115352630615,-1.4161505699157715,-3.000000476837158,-0.17867176234722137,-0.17474670708179474,-0.171555295586586,-0.16800720989704132,-0.2595711648464203,-0.17594443261623383,-0.08507656306028366,1.3562384992837906e-07
0.8333333333333334,0.09820237755775452,0.016317928209900856,0.0,0.5473058819770813,0.0,0.0,-0.8369326591491699,0.1661868840456009,-0.1059991642832756,0.0,0.0,0.0,-1.6576870679855347,0.46066078543663025,0.659356951713562,0.4200000464916229,0.5805512070655823,3.713863918619609e-07,-3.19778564517037e-06,-0.8142237663269043,0.00010219452815363184,-0.00026658838032744825,-8.889497257769108e-05,0.006340219173580408,-0.0014934996142983437,-0.0006827410543337464,0.4888228178024292,0.6938267946243286,0.5339672565460205,-0.39117369055747986,0.010756514966487885,-0.3862825632095337,0.45888251066207886,0.6518593430519104,0.42000001668930054,-0.4931824803352356,-3.0000011920928955,-1.4661688804626465,-3.000000238418579,-0.17808689177036285,-0.17361168563365936,-0.16950897872447968,-0.16491393744945526,-0.0770685151219368,-0.0035673798993229866,0.09512238949537277,0.20354147255420685
0.85,0.10293609648942947,0.012295837514102459,0.0,0.5198781490325928,0.0,0.0,-0.8542404174804688,0.3312626779079437,-0.29930737614631653,0.0,0.0,0.0,-4.846619606018066,0.46066078543663025,0.659356951713562,0.4200000464916229,0.5805512070655823,3.3232259966098354e-07,-3.194994405930629e-06,-0.8142236471176147,0.00010398321319371462,-0.0002667730732355267,-8.929707109928131e-05,0.006334566045552492,-0.001473809010349214,-0.0006871705409139395,0.4878244698047638,0.6897363066673279,0.5315581560134888,0.3135603964328766,-0.44598954916000366,0.24429282546043396,0.45888251066207886,0.6518593430519104,0.42000001668930054,-0.5431950688362122,-2.9999232292175293,-1.5161871910095215,-2.999997854232788,-0.18097347021102905,-0.17522437870502472,-0.16939760744571686,-0.16289500892162323,-0.18897190690040588,-0.11979218572378159,-0.02265278995037079,0.08660973608493805
0.8666666666666667,0.11034788936376572,0.010537908412516117,0.0,0.509089469909668,0.0,0.0,-0.8607136011123657,0.48427629470825195,-0.024213572964072227,0.0,0.0,0.0,-0.5013486742973328,0.46066078543663025,0.659356951713562,0.4200000464916229,0.5805514454841614,3.837570261566725e-07,-3.1980193853087258e-06,-0.8142235279083252,0.0001026887766784057,-0.00026647490449249744,-8.90316441655159e-05,0.006334406323730946,-0.00148784217890352,-0.0006839759298600256,0.49520885944366455,0.6874468326568604,0.5389230251312256,0.5038610696792603,0.05558164417743683,0.5951106548309326,0.45888251066207886,0.6518593430519104,0.42000001668930054,-0.5642755627632141,0.20724354684352875,-1.5662055015563965,-3.000000238418579,-0.18330414593219757,-0.17733491957187653,-0.17084957659244537,-0.16349256038665771,-0.06690006703138351,-0.09989388287067413,-0.11047694087028503,-0.11143361777067184
0.8833333333333333,0.11419802159070969,0.004718496929854155,0.0,0.5242847800254822,0.0,0.0,-0.8515430092811584,0.1715790182352066,-0.3901088237762451,0.0,0.0,0.0,2.685136079788208,0.46066078543663025,0.659356951713562,0.4200000464916229,0.5805513262748718,3.733440792075271e-07,-3.1991964988264954e-06,-0.8142236471176147,0.00010232314525637776,-0.0002665794745553285,-8.89478251338005e-05,0.0063390289433300495,-0.0014926146250218153,-0.0006830684724263847,0.5055025815963745,0.6899005770683289,0.5444049835205078,0.5929313898086548,0.08179668337106705,0.056711021810770035,0.45888251066207886,0.6518593430519104,0.42000001668930054,-0.5614763498306274,0.13108773529529572,-1.5272877216339111,3.0,-0.1799405962228775,-0.17486572265625,-0.16893884539604187,-0.16199493408203125,0.09253906458616257,0.07900167256593704,0.07957935333251953,0.08260054886341095
0.9,0.1151835173368454,0.0032969529274851084,0.0,0.5231447219848633,0.0,0.0,-0.8522438406944275,0.019134966656565666,0.06657429039478302,0.0,0.0,0.0,-1.1469802856445312,0.46066078543663025,0.659356951713562,0.4200000464916229,0.5805512070655823,3.6321441143627453e-07,-3.1999261409509927e-06,-0.8142237663269043,0.00010239393304800615,-0.0002666290965862572,-8.896482177078724e-05,0.006339868996292353,-0.0014921020483598113,-0.0006833120714873075,0.5137389302253723,0.6864550113677979,0.5426698327064514,0.45637696981430054,-0.37599611282348633,-0.10888318717479706,0.45888251066207886,0.6518593430519104,0.42000001668930054,-0.587628960609436,-2.977815866470337,-1.4772350788116455,3.000000476837158,-0.18310990929603577,-0.17732204496860504,-0.17052218317985535,-0.16274720430374146,-0.27124345302581787,-0.21092282235622406,-0.143021821975708,-0.07901328057050705
