vladlanda/robotic-transformer/data/env_000_episode_0239.csv
sim_time_s,robot_box_x,robot_box_y,robot_box_z,robot_box_quat_w,robot_box_quat_x,robot_box_quat_y,robot_box_quat_z,robot_box_linvel_x,robot_box_linvel_y,robot_box_linvel_z,robot_box_angvel_x,robot_box_angvel_y,robot_box_angvel_z,cube_world_x,cube_world_y,cube_world_z,cube_quat_w,cube_quat_x,cube_quat_y,cube_quat_z,cube_linvel_x,cube_linvel_y,cube_linvel_z,cube_angvel_x,cube_angvel_y,cube_angvel_z,endpoint_world_x,endpoint_world_y,endpoint_world_z,endpoint_linvel_x,endpoint_linvel_y,endpoint_linvel_z,target_cube_world_x,target_cube_world_y,target_cube_world_z,gripper_actual_pos_rad_gp_leftgearjoint,gripper_actual_vel_rad_s_gp_leftgearjoint,gripper_actual_pos_rad_gp_rotatingjoint,gripper_actual_vel_rad_s_gp_rotatingjoint,motor_angle_rad_joint1,motor_angle_rad_joint2,motor_angle_rad_joint3,motor_angle_rad_joint4,motor_speed_rad_s_joint1,motor_speed_rad_s_joint2,motor_speed_rad_s_joint3,motor_speed_rad_s_joint4
0.0,0.0,0.0,0.0,1.0,0.0,0.0,0.0,0.0,0.0,0.0,0.0,0.0,0.0,-0.4098237156867981,0.6746857762336731,0.41999998688697815,1.0,0.0,0.0,0.0,0.0,0.0,0.0,0.0,0.0,0.0,3.42540442943573e-06,-0.005000244826078415,1.313499927520752,0.0,0.0,0.0,0.38848093152046204,0.7274884581565857,0.42000001668930054,-1.5707999467849731,0.0,0.0,0.0,0.0,0.0,0.0,0.0,0.0,0.0,0.0,0.0
0.016666666666666666,0.0028778850100934505,0.0021806680597364902,0.0,0.9998081922531128,0.0,0.0,0.019586581736803055,0.24087215960025787,0.18240931630134583,0.0,0.0,0.0,3.1418697834014893,-0.40982383489608765,0.6746854782104492,0.41999998688697815,1.0,3.279964630564791e-06,-8.339746386809566e-07,8.465587342243452e-08,-1.9833529222523794e-05,0.00017983045836444944,-6.132945418357849e-05,0.0009432713268324733,-0.004689474124461412,-0.00031981561915017664,-0.007110234349966049,0.003379564033821225,1.3159373998641968,-0.8143353462219238,0.9868683815002441,0.18095196783542633,0.38848093152046204,0.7274884581565857,0.42000001668930054,-1.5301095247268677,3.0000011920928955,-0.04584788903594017,-2.9999992847442627,0.0008691533003002405,0.0007963840034790337,0.0007110277656465769,0.0006108740926720202,0.11094217747449875,0.09756709635257721,0.08334315568208694,0.06823883205652237
0.03333333333333333,0.008960975334048271,0.006801940035074949,0.0,0.9997960329055786,0.0,0.0,0.020196838304400444,0.4070214033126831,0.3153086006641388,0.0,0.0,0.0,-0.8691303730010986,-0.4098239541053772,0.6746854186058044,0.4200000464916229,1.0,3.3908354453160428e-06,-2.1324485715012997e-06,-3.710144014235084e-08,0.00026357831666246057,0.00026937946677207947,-0.00010509486310184002,-0.0017707672668620944,0.004130808170884848,-0.000135478752781637,-0.027550112456083298,0.026086200028657913,1.3166134357452393,-1.5915032625198364,1.6156010627746582,-0.08294466882944107,0.38848093152046204,0.7274884581565857,0.42000001668930054,-1.4800904989242554,3.0000007152557373,-0.09588770568370819,-3.000000238418579,0.0029901363886892796,0.0026527580339461565,0.0022773398086428642,0.0018608056707307696,0.16422046720981598,0.13976499438285828,0.113824762403965,0.08630760759115219
0.05,0.017560364678502083,0.013731734827160835,0.0,0.9994417428970337,0.0,0.0,0.03340872749686241,0.5880568027496338,0.4635029435157776,0.0,0.0,0.0,2.684583902359009,-0.4098239839076996,0.6746854782104492,0.4200000464916229,1.0,3.765139354072744e-06,-2.2119161258160602e-06,5.630195420991413e-09,0.0002653095289133489,0.00026691411039792,-0.00010440382175147533,-0.0017242460744455457,0.004177400842308998,-0.00012949357915204018,-0.05956306681036949,0.054080650210380554,1.3115875720977783,-2.185676336288452,1.759645938873291,-0.47615569829940796,0.38848093152046204,0.7274884581565857,0.42000001668930054,-1.4300721883773804,3.000002384185791,-0.145926371216774,-3.0000007152557373,0.005637758877128363,0.004849480465054512,0.003989129327237606,0.0030521817971020937,0.19132015109062195,0.1544472873210907,0.11570967733860016,0.07501276582479477
0.06666666666666667,0.028784815222024918,0.022997921332716942,0.0,0.9995009303092957,0.0,0.0,0.03158893436193466,0.714938223361969,0.593671441078186,0.0,0.0,0.0,-1.1766523122787476,-0.4098239839076996,0.6746854186058044,0.4200000464916229,0.9999999403953552,3.4067325032083318e-06,-2.285616346853203e-06,4.301086846680846e-07,0.0002670263056643307,0.0002679172612261027,-0.00010437914170324802,-0.0017406872939318419,0.004211808554828167,-0.0001285045873373747,-0.09736423194408417,0.08848828077316284,1.2992405891418457,-2.374464511871338,2.2477540969848633,-0.9794658422470093,0.38848093152046204,0.7274884581565857,0.42000001668930054,-1.3800538778305054,3.000004291534424,-0.1959339827299118,-3.0000011920928955,0.008129346184432507,0.00662893196567893,0.0050177499651908875,0.003290042979642749,0.1422329545021057,0.08886133879423141,0.033460333943367004,-0.024049662053585052
0.08333333333333333,0.04325757920742035,0.034414246678352356,0.0,0.999999463558197,0.0,0.0,0.0010253309737890959,0.932815670967102,0.7264772057533264,0.0,0.0,0.0,-4.493645191192627,-0.4098239839076996,0.6746854186058044,0.4200000464916229,0.9999999403953552,3.626018951763399e-06,-2.335360477445647e-06,3.0324326871777885e-07,0.00026613904628902674,0.00026685016928240657,-0.00010405411012470722,-0.0017283597262576222,0.004196425899863243,-0.00012790990876965225,-0.13627101480960846,0.13019974529743195,1.2803068161010742,-2.3272368907928467,2.613381862640381,-1.2899311780929565,0.38848093152046204,0.7274884581565857,0.42000001668930054,-1.3300267457962036,2.999995470046997,-0.16216859221458435,3.0,0.009802314452826977,0.007318714167922735,0.004682418890297413,0.0018898277776315808,0.07870720326900482,0.011977104470133781,-0.05681305006146431,-0.12768884003162384
0.1,0.05193055793642998,0.04966900125145912,0.0,0.9999104142189026,0.0,0.0,-0.013383591547608376,0.37999019026756287,0.9978896379470825,0.0,0.0,0.0,-0.5390889048576355,-0.4098239839076996,0.6746854186058044,0.4200000464916229,1.0,3.422117288209847e-06,-2.3086265628080582e-06,1.7964211451726442e-07,0.0002668147499207407,0.0002680043689906597,-0.00010440591722726822,-0.0017430688021704555,0.004207088612020016,-0.0001289069332415238,-0.17636041343212128,0.1692505180835724,1.2574403285980225,-2.3356375694274902,2.326765537261963,-1.3891242742538452,0.38848093152046204,0.7274884581565857,0.42000001668930054,-1.280029535293579,3.0000011920928955,-0.19385311007499695,-2.999999761581421,0.0046668280847370625,0.0014236783608794212,-0.002023151610046625,-0.005680889822542667,-0.43515315651893616,-0.4854561686515808,-0.5383074283599854,-0.5939492583274841
0.11666666666666667,0.05529944226145744,0.06240447983145714,0.0,0.9992188215255737,0.0,0.0,-0.03951920568943024,0.3880980908870697,0.7214868068695068,0.0,0.0,0.0,-3.487553596496582,-0.4098239839076996,0.6746854782104492,0.4200000464916229,1.0,3.711538511197432e-06,-2.332751819267287e-06,2.574376765096531e-07,0.00026485807029530406,0.0002663535997271538,-0.00010423525236546993,-0.001718185725621879,0.004170059692114592,-0.00012915738625451922,-0.21290706098079681,0.21230873465538025,1.2333574295043945,-2.087747573852539,2.9251179695129395,-1.429842472076416,0.38848093152046204,0.7274884581565857,0.42000001668930054,-1.2300188541412354,3.0000011920928955,-0.24386629462242126,-2.999999523162842,-0.0031949433032423258,-0.00757823558524251,-0.012176156975328922,-0.016999611631035805,-0.12120379507541656,-0.2490466684103012,-0.37322619557380676,-0.49361652135849
0.13333333333333333,0.059247780591249466,0.07368313521146774,0.0,0.9960951209068298,0.0,0.0,-0.08828675001859665,0.1846649944782257,0.6291279196739197,0.0,0.0,0.0,-6.686761379241943,-0.4098239839076996,0.6746854186058044,0.4200000464916229,0.9999999403953552,3.4247223084094003e-06,-2.3020445496513275e-06,1.5600510039348592e-07,0.00026707007782533765,0.0002681128098629415,-0.0001044438686221838,-0.0017433085013180971,0.004212053492665291,-0.00012877491826657206,-0.24752411246299744,0.2655695378780365,1.2060866355895996,-2.0217206478118896,3.4142606258392334,-1.854061484336853,0.38848093152046204,0.7274884581565857,0.42000001668930054,-1.1827877759933472,2.655693531036377,-0.20984874665737152,3.0,-0.0062596434727311134,-0.012716843746602535,-0.0193097572773695,-0.026047827675938606,-0.23630982637405396,-0.35010361671447754,-0.45889541506767273,-0.562644898891449
0.15,0.06864016503095627,0.0863167867064476,0.0,0.9928321242332458,0.0,0.0,-0.11951728910207748,0.6922650337219238,0.8079816699028015,0.0,0.0,0.0,-2.662095546722412,-0.4098239839076996,0.6746854186058044,0.4200000464916229,1.0,3.7138524930924177e-06,-2.207856823588372e-06,-1.690766850970249e-07,0.000263533613178879,0.0002653617993928492,-0.00010421895422041416,-0.0017013129545375705,0.004144155420362949,-0.0001296056725550443,-0.2850632965564728,0.31832394003868103,1.172367811203003,-2.1636786460876465,3.326277732849121,-2.2160401344299316,0.38848093152046204,0.7274884581565857,0.42000001668930054,-1.135738492012024,2.9288644790649414,-0.24120157957077026,-3.000000476837158,-0.0071461135521531105,-0.015673803165555,-0.024233151227235794,-0.032833147794008255,-0.04936406388878822,-0.16384121775627136,-0.2723076045513153,-0.37471890449523926
0.16666666666666666,0.07489334046840668,0.0958758145570755,0.0,0.9864019155502319,0.0,0.0,-0.16435103118419647,0.39599084854125977,0.5467092394828796,0.0,0.0,0.0,-6.1065473556518555,-0.4098239839076996,0.6746854186058044,0.4200000464916229,0.9999999403953552,3.6382996313477634e-06,-2.278827423651819e-06,2.700894583540503e-07,0.00026682656607590616,0.0002674996212590486,-0.00010410207323729992,-0.001739894738420844,0.004210094455629587,-0.00012781668920069933,-0.3196321129798889,0.37699922919273376,1.129589319229126,-1.8634918928146362,3.8508052825927734,-2.804816246032715,0.38848093152046204,0.7274884581565857,0.42000001668930054,-1.088384747505188,2.727609872817993,-0.20719940960407257,3.000000238418579,-0.013810420408844948,-0.023454874753952026,-0.033067867159843445,-0.042664576321840286,-0.377360999584198,-0.4460665285587311,-0.5100967288017273,-0.5696719884872437
0.18333333333333332,0.07877320796251297,0.10277185589075089,0.0,0.9807646870613098,0.0,0.0,-0.19519370794296265,0.10971681773662567,0.32971811294555664,0.0,0.0,0.0,-2.517716646194458,-0.4098239839076996,0.6746854186058044,0.4200000464916229,1.0,3.386368462088285e-06,-2.300295591339818e-06,1.4395122605037614e-07,0.00026674632681533694,0.000267872994299978,-0.00010436843149363995,-0.0017412762390449643,0.004206033889204264,-0.0001287875056732446,-0.3523358702659607,0.4387284815311432,1.0755693912506104,-1.773905634880066,3.80825138092041,-3.6567776203155518,0.38848093152046204,0.7274884581565857,0.42000001668930054,-1.0437908172607422,2.597727060317993,-0.23857462406158447,-3.0000007152557373,-0.022578874602913857,-0.032772138714790344,-0.042869891971349716,-0.05289531126618385,-0.7403936982154846,-0.7293058037757874,-0.7163879871368408,-0.7022870182991028
0.2,0.07764112949371338,0.11017497628927231,0.0,0.9720929861068726,0.0,0.0,-0.23459599912166595,-0.1400488317012787,0.49456652998924255,0.0,0.0,0.0,-5.657587051391602,-0.4098239839076996,0.6746854782104492,0.4200000464916229,1.0,3.675464540719986e-06,-2.3265372419700725e-06,2.211534564366957e-07,0.0002648438676260412,0.00026631305809132755,-0.00010421895422041416,-0.0017176724504679441,0.004169867839664221,-0.00012910064833704382,-0.3813161849975586,0.5029405355453491,1.0068237781524658,-1.5023279190063477,3.884871482849121,-4.519835472106934,0.38848093152046204,0.7274884581565857,0.42000001668930054,-0.9941421747207642,2.9999990463256836,-0.2886018753051758,-3.0,-0.037469424307346344,-0.04715836048126221,-0.05671996995806694,-0.06619016081094742,-0.9706512689590454,-0.9239064455032349,-0.875763475894928,-0.8269906640052795
0.21666666666666667,0.07967892289161682,0.11961165070533752,0.0,0.9666650295257568,0.0,0.0,-0.2560444474220276,0.12997053563594818,0.5943446159362793,0.0,0.0,0.0,-1.5534204244613647,-0.4098239839076996,0.6746854186058044,0.4200000464916229,1.0,3.322247721371241e-06,-2.207966417699936e-06,2.7429487658992e-07,0.00026662711752578616,0.0002674948482308537,-0.00010426202788949013,-0.001735763973556459,0.004204656928777695,-0.00012834012159146369,-0.40846794843673706,0.5597688555717468,0.9257375001907349,-1.385624885559082,3.173874616622925,-5.213510036468506,0.38848093152046204,0.7274884581565857,0.42000001668930054,-0.9441348910331726,2.9999992847442627,-0.33863115310668945,-3.0000009536743164,-0.05267347767949104,-0.0617496632039547,-0.07017285376787186,-0.07852252572774887,-0.9857873320579529,-0.9881645441055298,-0.8900976777076721,-0.7942755222320557
0.23333333333333334,0.07875269651412964,0.1266680508852005,0.0,0.9572207927703857,0.0,0.0,-0.28935861587524414,-0.09027612209320068,0.3633502125740051,0.0,0.0,0.0,-4.92698335647583,-0.4098239839076996,0.6746854186058044,0.4200000464916229,1.0,3.6564260881277733e-06,-2.373456709392485e-06,-4.076544826148165e-07,0.0002661164617165923,0.00026725901989266276,-0.00010423315688967705,-0.0017335545271635056,0.004194728098809719,-0.00012855185195803642,-0.42852550745010376,0.6089656949043274,0.8310977220535278,-0.879727840423584,2.7425646781921387,-5.973089218139648,0.38848093152046204,0.7274884581565857,0.42000001668930054,-0.8941242098808289,2.999997615814209,-0.38866233825683594,-3.000002145767212,-0.0688500925898552,-0.07787007838487625,-0.08621532469987869,-0.09448783844709396,-0.988871693611145,-0.9906530380249023,-0.977335512638092,-0.9649645090103149
0.25,0.08068498969078064,0.12991854548454285,0.0,0.9533359408378601,0.0,0.0,-0.3019116520881653,0.17237402498722076,0.051674600690603256,0.0,0.0,0.0,-0.4061654806137085,-0.4098239839076996,0.6746854782104492,0.4200000464916229,1.0,3.6304663808550686e-06,-2.242617028969107e-06,1.1234231322987398e-08,0.00026679987786337733,0.0002670600370038301,-0.00010390859097242355,-0.0017342320643365383,0.004210509359836578,-0.00012702777166850865,-0.44310569763183594,0.6435725092887878,0.7288045883178711,-0.6095219850540161,1.5905438661575317,-6.278228282928467,0.38848093152046204,0.7274884581565857,0.42000001668930054,-0.8441137075424194,2.9999959468841553,-0.4386940002441406,-2.9999992847442627,-0.0852593258023262,-0.09418085217475891,-0.10244147479534149,-0.11066289991140366,-0.9903742671012878,-0.9872781038284302,-0.9741036891937256,-0.9617956876754761
0.26666666666666666,0.07745542377233505,0.13550965487957,0.0,0.9449284076690674,0.0,0.0,-0.32727712392807007,-0.29826149344444275,0.33281248807907104,0.0,0.0,0.0,-3.9705398082733154,-0.4098239541053772,0.6746854186058044,0.4200000464916229,0.9999999403953552,3.7400714063551277e-06,-2.2362910385709256e-06,4.4999521264799114e-07,0.000264796573901549,0.00026673043612390757,-0.00010454049333930016,-0.0017189934151247144,0.004166724160313606,-0.0001301671436522156,-0.445016086101532,0.6590182185173035,0.6249878406524658,0.28011777997016907,0.44494855403900146,-5.959178924560547,0.38848093152046204,0.7274884581565857,0.42000001668930054,-0.7941046953201294,2.9999942779541016,-0.4887251853942871,-3.00000262260437,-0.1034606397151947,-0.11198651045560837,-0.1199614480137825,-0.12796533107757568,-0.8538451790809631,-0.8851177096366882,-0.9151021242141724,-0.941901683807373
0.2833333333333333,0.07846350967884064,0.13673952221870422,0.0,0.9423317909240723,0.0,0.0,-0.3346802294254303,0.03640727326273918,0.02866552770137787,0.0,0.0,0.0,0.012238151393830776,-0.4098239839076996,0.6746854186058044,0.4200000464916229,1.0,3.391595782886725e-06,-2.2910930965736043e-06,1.2462022880299628e-07,0.0002667723165359348,0.00026789327966980636,-0.00010437355376780033,-0.0017412476008757949,0.004206296522170305,-0.00012878577399533242,-0.44101637601852417,0.6672208905220032,0.530179500579834,0.4697156548500061,0.34292829036712646,-5.449546813964844,0.38848093152046204,0.7274884581565857,0.42000001668930054,-0.7440959215164185,2.999997854232788,-0.5387551784515381,-3.0000016689300537,-0.11643276363611221,-0.12535351514816284,-0.13373517990112305,-0.14205415546894073,-0.9948751330375671,-0.9968826174736023,-0.9987018704414368,-0.9846630096435547
0.3,0.07505404204130173,0.13579799234867096,0.0,0.9351120591163635,0.0,0.0,-0.35435211658477783,-0.20791174471378326,-0.12410926073789597,0.0,0.0,0.0,-3.319995641708374,-0.4098239839076996,0.6746854782104492,0.4200000464916229,1.0,3.680656618598732e-06,-2.3190602860267973e-06,2.011123285683425e-07,0.00026479075313545763,0.0002662576735019684,-0.00010421290062367916,-0.0017168199410662055,0.004168981220573187,-0.00012909970246255398,-0.4253395199775696,0.6719002723693848,0.4403107762336731,1.3337962627410889,0.30292823910713196,-5.187238693237305,0.38848093152046204,0.7274884581565857,0.42000001668930054,-0.6940882802009583,2.9999940395355225,-0.5887829661369324,-3.0000014305114746,-0.13406601548194885,-0.14274758100509644,-0.15095826983451843,-0.1591479331254959,-0.8747696876525879,-0.9021115303039551,-0.9274720549583435,-0.9498031139373779
0.31666666666666665,0.06984589248895645,0.13211944699287415,0.0,0.9343811273574829,0.0,0.0,-0.3562749922275543,-0.34886398911476135,-0.2605341970920563,0.0,0.0,0.0,0.6873746514320374,-0.4098239839076996,0.6746854186058044,0.4200000464916229,1.0,3.3041308142855996e-06,-2.2214408090803772e-06,2.5357840627293626e-07,0.00026660741423256695,0.0002674513671081513,-0.00010424340143799782,-0.0017353476723656058,0.0042044599540531635,-0.00012828414037358016,-0.41600799560546875,0.6764748096466064,0.41426151990890503,0.4219277501106262,0.4814971387386322,-0.022280633449554443,0.38848093152046204,0.7274884581565857,0.42000001668930054,-0.6444323062896729,2.923189401626587,-0.639187753200531,-2.7950665950775146,-0.141246497631073,-0.15048372745513916,-0.15907040238380432,-0.16742491722106934,-0.17245009541511536,-0.22383864223957062,-0.25082844495773315,-0.2476985901594162
0.3333333333333333,0.062421638518571854,0.12620484828948975,0.0,0.9298457503318787,0.0,0.0,-0.36794957518577576,-0.5069159269332886,-0.4030863344669342,0.0,0.0,0.0,-2.799624443054199,-0.40808263421058655,0.6796308755874634,0.42255181074142456,0.992327094078064,0.0099116126075387,0.060127824544906616,-0.10757878422737122,0.15036943554878235,0.3823312819004059,0.17077119648456573,1.5028570890426636,8.073241233825684,-15.606022834777832,-0.4117608964443207,0.6842473149299622,0.4248075485229492,0.44669848680496216,0.5807557702064514,-0.12615947425365448,0.38848093152046204,0.7274884581565857,0.42000001668930054,-0.5944274663925171,2.999967575073242,-0.6892660856246948,-2.9994916915893555,-0.1431063413619995,-0.1529318243265152,-0.16169919073581696,-0.16972792148590088,-0.24919624626636505,-0.24856336414813995,-0.23003754019737244,-0.18828698992729187
0.35,0.05252566561102867,0.11795695126056671,0.0,0.9302254319190979,0.0,0.0,-0.36698856949806213,-0.6327222585678101,-0.5335044264793396,0.0,0.0,0.0,1.0590496063232422,-0.4045853018760681,0.6916801333427429,0.4243677258491516,0.987147867679596,0.03747851029038429,0.0857420340180397,-0.12954768538475037,0.46855852007865906,0.7752078771591187,0.16197329759597778,7.868799209594727,-3.2506017684936523,-2.000999689102173,-0.4038357138633728,0.6958681344985962,0.4228183329105377,0.5250939130783081,0.805450439453125,-0.0941709652543068,0.38848093152046204,0.7274884581565857,0.42000001668930054,-0.5444225668907166,2.9999945163726807,-0.7393070459365845,-2.9999887943267822,-0.14868289232254028,-0.15785951912403107,-0.16570650041103363,-0.1724666804075241,-0.3649114668369293,-0.30068814754486084,-0.22228825092315674,-0.12544548511505127
0.36666666666666664,0.04038622975349426,0.1074550673365593,0.0,0.9249659776687622,0.0,0.0,-0.3800499141216278,-0.7726467251777649,-0.6695373058319092,0.0,0.0,0.0,-2.6131958961486816,-0.3955764174461365,0.7058745622634888,0.42597201466560364,0.983302652835846,0.09802111238241196,0.06115802004933357,-0.1405963897705078,0.6415591239929199,0.9657690525054932,0.10578323900699615,7.211522579193115,-4.161557674407959,-2.2060866355895996,-0.3930807113647461,0.7087550759315491,0.4218280613422394,0.7855225801467896,0.8275810480117798,-0.04215054214000702,0.38848093152046204,0.7274884581565857,0.42000001668930054,-0.49441784620285034,2.9999582767486572,-0.789359450340271,-2.9999959468841553,-0.15541374683380127,-0.16311952471733093,-0.16922229528427124,-0.1739044040441513,-0.4050614535808563,-0.29710644483566284,-0.17334555089473724,-0.030603673309087753
0.3833333333333333,0.030779395252466202,0.09417738020420074,0.0,0.908454179763794,0.0,0.0,-0.41798439621925354,-0.5034011006355286,-0.8503129482269287,0.0,0.0,0.0,-5.7915849685668945,-0.3815985321998596,0.7241900563240051,0.427478164434433,0.9785612225532532,0.1141817718744278,0.0350358672440052,-0.1677882969379425,1.0668392181396484,1.1254254579544067,0.0768594816327095,6.880895614624023,-6.213825702667236,-0.809724748134613,-0.377555787563324,0.7253207564353943,0.4223857820034027,1.1726982593536377,1.2609527111053467,0.10602006316184998,0.38848093152046204,0.7274884581565857,0.42000001668930054,-0.44444888830184937,2.8865513801574707,-0.8394145369529724,-2.9999160766601562,-0.1621624380350113,-0.16773748397827148,-0.17139111459255219,-0.17326602339744568,-0.3746984302997589,-0.23388414084911346,-0.07331416755914688,0.10889318585395813
0.4,0.02513495646417141,0.07774481922388077,0.0,0.8781906366348267,0.0,0.0,-0.47831082344055176,-0.2647017240524292,-1.0446834564208984,0.0,0.0,0.0,-8.912901878356934,-0.3489910662174225,0.7537876963615417,0.4308870732784271,0.9690372347831726,0.10621094703674316,0.004939560778439045,-0.22284890711307526,3.037067174911499,2.0575289726257324,0.15547555685043335,20.154550552368164,-13.420964241027832,-0.13020648062229156,-0.34515658020973206,0.7537200450897217,0.42524653673171997,2.893903970718384,2.306095600128174,0.38489365577697754,0.38848093152046204,0.7274884581565857,0.42000001668930054,-0.4027727544307709,2.0547990798950195,-0.8894421458244324,-3.0000016689300537,-0.17042969167232513,-0.17293602228164673,-0.17324358224868774,-0.17149268090724945,-0.5798179507255554,-0.35830333828926086,-0.12470650672912598,0.11976146697998047
0.4166666666666667,0.021722661331295967,0.06628864258527756,0.0,0.8308785557746887,0.0,0.0,-0.5564537644386292,-0.16506220400333405,-0.5580825805664062,0.0,0.0,0.0,-11.753119468688965,-0.27592307329177856,0.7963252663612366,0.43577703833580017,0.9460372924804688,0.1648799628019333,-0.04069171100854874,-0.2759929299354553,5.878735542297363,2.530073404312134,0.12883809208869934,26.202163696289062,-24.297550201416016,14.48302173614502,-0.2713548243045807,0.7970240116119385,0.43103063106536865,5.628155708312988,3.032806873321533,0.5615598559379578,0.38848093152046204,0.7274884581565857,0.42000001668930054,-0.37834686040878296,0.8489722609519958,-0.8523067831993103,2.991236686706543,-0.18599531054496765,-0.18553125858306885,-0.18051278591156006,-0.173630952835083,-0.9123518466949463,-0.86480712890625,-0.5438066124916077,-0.24532568454742432
0.43333333333333335,0.014493102207779884,0.062168706208467484,0.0,0.7898581027984619,0.0,0.0,-0.6132895946502686,-0.5523136854171753,-0.24280968308448792,0.0,0.0,0.0,-7.190271854400635,-0.18202926218509674,0.8364635109901428,0.4467909634113312,0.9071003794670105,0.1905478984117508,-0.07113797962665558,-0.3685101270675659,5.6878662109375,1.8202037811279297,0.690662145614624,0.9543772339820862,-10.181079864501953,-4.085864543914795,-0.17732873558998108,0.8371636867523193,0.44135433435440063,5.728321552276611,2.017164468765259,0.7216924428939819,0.38848093152046204,0.7274884581565857,0.42000001668930054,-0.36646124720573425,0.8665310144424438,-0.8787763714790344,-3.0000030994415283,-0.20029181241989136,-0.20012417435646057,-0.19452767074108124,-0.18266303837299347,-0.6409874558448792,-0.6929606199264526,-0.7485345005989075,-0.5513968467712402
0.45,0.011649088002741337,0.05076603591442108,0.0,0.7683286666870117,0.0,0.0,-0.6400554776191711,-0.03448910638689995,-0.8465069532394409,0.0,0.0,0.0,-3.0949840545654297,-0.08037351071834564,0.8646301031112671,0.45742297172546387,0.8508172631263733,0.19090481102466583,-0.09133605659008026,-0.4809604585170746,5.916749954223633,0.9620546102523804,0.433451384305954,-6.9349212646484375,-11.01496696472168,8.857650756835938,-0.07822896540164948,0.8645294308662415,0.4512878656387329,6.310866355895996,1.1127921342849731,0.6441203355789185,0.38848093152046204,0.7274884581565857,0.42000001668930054,-0.3432918190956116,1.718064308166504,-0.9288003444671631,-3.0000061988830566,-0.20569968223571777,-0.20574693381786346,-0.20046211779117584,-0.18551771342754364,-0.22777417302131653,-0.1842968612909317,-0.14994540810585022,0.042311299592256546
0.4666666666666667,0.007778885308653116,0.041277240961790085,0.0,0.738401472568512,0.0,0.0,-0.6743613481521606,-0.2768099904060364,-0.5099102854728699,0.0,0.0,0.0,-6.183632850646973,0.023095596581697464,0.8726212382316589,0.46785587072372437,0.7910652160644531,0.1754496693611145,-0.03488583862781525,-0.5849923491477966,6.000485420227051,-0.51136314868927,0.2834356129169464,-8.462185859680176,-30.857603073120117,17.85569190979004,0.023686787113547325,0.8758301138877869,0.46132904291152954,6.2286834716796875,0.3670179843902588,0.8055528402328491,0.38848093152046204,0.7274884581565857,0.42000001668930054,-0.31667864322662354,1.1742559671401978,-0.9788243770599365,-3.0000059604644775,-0.21313434839248657,-0.21156780421733856,-0.20501185953617096,-0.18703000247478485,-0.40373319387435913,-0.308602511882782,-0.2388753443956375,-0.10210949182510376
0.48333333333333334,0.005544452462345362,0.036473553627729416,0.0,0.7234225273132324,0.0,0.0,-0.6904056072235107,-0.07040845602750778,-0.20343835651874542,0.0,0.0,0.0,-1.4485279321670532,0.11872273683547974,0.8683128356933594,0.4758140742778778,0.7380232810974121,0.16907177865505219,-0.032139718532562256,-0.6524593830108643,5.177436828613281,-1.5649701356887817,0.005651364102959633,-11.418624877929688,-20.61153221130371,21.508663177490234,0.1200253814458847,0.8713719844818115,0.4691846966743469,5.580534934997559,-0.8101979494094849,0.4967288672924042,0.38848093152046204,0.7274884581565857,0.42000001668930054,-0.30444344878196716,0.284049391746521,-1.0288478136062622,-3.0000057220458984,-0.2222648710012436,-0.21814170479774475,-0.20958921313285828,-0.1891973614692688,-0.5629265308380127,-0.3782825767993927,-0.23322917520999908,-0.09763534367084503
0.5,0.006535177584737539,0.03465202450752258,0.0,0.701174795627594,0.0,0.0,-0.7129894495010376,0.11843251436948776,0.01867016777396202,0.0,0.0,0.0,-4.607492446899414,0.1997908651828766,0.8474211692810059,0.4746902585029602,0.7240427732467651,0.17991182208061218,-0.05557107552886009,-0.6635552048683167,4.245423316955566,-2.2325427532196045,-0.240385502576828,-0.49436402320861816,-15.969910621643066,29.199831008911133,0.20246344804763794,0.8549075126647949,0.47084248065948486,4.515588760375977,-1.292394995689392,-0.03374320641160011,0.38848093152046204,0.7274884581565857,0.42000001668930054,-0.2939257323741913,0.4944179952144623,-1.0788699388504028,-3.000004768371582,-0.22962450981140137,-0.22275589406490326,-0.21205569803714752,-0.1900118887424469,-0.4089433252811432,-0.24108809232711792,-0.10841754823923111,-0.025601522997021675
0.5166666666666666,0.006607410032302141,0.03092828579246998,0.0,0.6921426057815552,0.0,0.0,-0.7217607498168945,-0.03953573852777481,-0.22592492401599884,0.0,0.0,0.0,-0.445090115070343,0.26764318346977234,0.8226991295814514,0.4694560468196869,0.673349142074585,0.14117541909217834,-0.04037785530090332,-0.7245963215827942,3.116410732269287,-2.7289042472839355,-0.5031798481941223,-2.6216542720794678,-16.65978240966797,32.09678268432617,0.26917794346809387,0.8288192749023438,0.46580880880355835,3.6225202083587646,-1.8241970539093018,-0.37063902616500854,0.38848093152046204,0.7274884581565857,0.42000001668930054,-0.28971755504608154,-0.07626119256019592,-1.1288920640945435,-3.0000038146972656,-0.23381762206554413,-0.22421523928642273,-0.21148402988910675,-0.18863049149513245,-0.30307620763778687,-0.11522438377141953,0.023261375725269318,0.06685823202133179
0.5333333333333333,0.008123096078634262,0.030985098332166672,0.0,0.6748029589653015,0.0,0.0,-0.7379979491233826,0.13748618960380554,0.035118505358695984,0.0,0.0,0.0,-3.6554555892944336,0.32115480303764343,0.7942667007446289,0.45724523067474365,0.6309796571731567,0.11501631140708923,-0.008748588152229786,-0.7671762704849243,2.6335837841033936,-1.868434190750122,-1.0189342498779297,-5.469873905181885,10.284802436828613,5.743490695953369,0.3210206627845764,0.7995373010635376,0.4528157711029053,2.822885274887085,-1.7260651588439941,-0.9682844877243042,0.38848093152046204,0.7274884581565857,0.42000001668930054,-0.2910383939743042,0.06606443226337433,-1.178914189338684,-2.9998319149017334,-0.23687605559825897,-0.22522535920143127,-0.21116295456886292,-0.18860290944576263,0.016408853232860565,0.07574763894081116,0.09778906404972076,0.021591845899820328
0.55,0.01234186440706253,0.029138265177607536,0.0,0.6706052422523499,0.0,0.0,-0.7418144345283508,0.2626197040081024,-0.1390100121498108,0.0,0.0,0.0,0.23949699103832245,0.3609524071216583,0.7669689059257507,0.43757686018943787,0.6016364097595215,0.05576879158616066,-0.006266770884394646,-0.7967960834503174,1.9592416286468506,-1.5463300943374634,-1.28134286403656,-3.9408445358276367,3.9983348846435547,-6.410717487335205,0.35994699597358704,0.7712625861167908,0.4342808127403259,1.8455231189727783,-1.687079668045044,-1.191054105758667,0.38848093152046204,0.7274884581565857,0.42000001668930054,-0.28117606043815613,1.0175870656967163,-1.2289363145828247,-3.0000011920928955,-0.2337915450334549,-0.22174003720283508,-0.2078903317451477,-0.18724019825458527,0.23453155159950256,0.24136517941951752,0.21062681078910828,0.07443099468946457
0.5666666666666667,0.018696438521146774,0.02943742647767067,0.0,0.6574094891548157,0.0,0.0,-0.7535334825515747,0.42536160349845886,0.0758669450879097,0.0,0.0,0.0,-2.9956772327423096,0.38640356063842773,0.748188316822052,0.42004096508026123,0.5266371369361877,-0.0019623027183115482,-0.001364022376947105,-0.8500868082046509,1.087630033493042,-0.39041441679000854,-0.01160359475761652,1.026630163192749,0.2645784616470337,-9.857007026672363,0.383359432220459,0.7544267177581787,0.4262014627456665,0.8767753839492798,-0.4833473861217499,0.11896341294050217,0.38848093152046204,0.7274884581565857,0.42000001668930054,-0.25616908073425293,1.9337681531906128,-1.2788211107254028,-2.995426654815674,-0.22661802172660828,-0.21621528267860413,-0.204332634806633,-0.18708620965480804,0.6172860264778137,0.4427185654640198,0.2599024772644043,0.003640106413513422
0.5833333333333334,0.02259417437016964,0.026994846761226654,0.0,0.6568411588668823,0.0,0.0,-0.7540289163589478,0.1409219652414322,-0.20799334347248077,0.0,0.0,0.0,0.7675660848617554,0.39724159240722656,0.7380192279815674,0.42039254307746887,0.5429573655128479,0.008793395943939686,0.004592892713844776,-0.8397015929222107,0.556126058101654,-0.6410626769065857,-0.083616241812706,-4.666899681091309,-1.3811969757080078,12.898768424987793,0.3935459554195404,0.7439485788345337,0.42690855264663696,0.30928948521614075,-0.6603121161460876,0.0037260912358760834,0.38848093152046204,0.7274884581565857,0.42000001668930054,-0.2654774785041809,-2.3248238563537598,-1.2406772375106812,3.0000016689300537,-0.21754303574562073,-0.2093379944562912,-0.19985251128673553,-0.18628624081611633,0.5140929222106934,0.3991912305355072,0.27082517743110657,0.06588280946016312
0.6,0.02732984349131584,0.028625523671507835,0.0,0.6451783776283264,0.0,0.0,-0.7640320062637329,0.3185715973377228,0.09224320948123932,0.0,0.0,0.0,-2.6345391273498535,0.4006175994873047,0.7304539680480957,0.4200000762939453,0.5670244693756104,-4.540324880508706e-06,-2.4273253984574694e-06,-0.8237008452415466,0.0925602987408638,-0.3439183533191681,-4.841068584937602e-05,0.009603840298950672,0.0058371941559016705,3.537893056869507,0.3969042897224426,0.7378947734832764,0.42617660760879517,0.22957921028137207,-0.06349346041679382,0.12323781847953796,0.38848093152046204,0.7274884581565857,0.42000001668930054,-0.2881598174571991,-0.5478044152259827,-1.2612515687942505,-2.998119831085205,-0.21076564490795135,-0.20455758273601532,-0.1972077637910843,-0.18690960109233856,0.5629053115844727,0.39787527918815613,0.23332372307777405,0.014532946981489658
0.6166666666666667,0.0340302400290966,0.025825506076216698,0.0,0.6466827988624573,0.0,0.0,-0.7627590298652649,0.4384344816207886,-0.164204940199852,0.0,0.0,0.0,1.1258600950241089,0.4011839032173157,0.7276044487953186,0.4200010299682617,0.5824093222618103,-3.105466748820618e-05,-3.857199408230372e-05,-0.812895655632019,-0.10441525280475616,-0.10935892164707184,-0.001278130104765296,0.06452686339616776,-0.03189390152692795,1.5652754306793213,0.39705660939216614,0.736966609954834,0.4285064935684204,-0.20357872545719147,-0.10268373787403107,0.15616533160209656,0.38848093152046204,0.7274884581565857,0.42000001668930054,-0.3277857303619385,-2.9998767375946045,-1.3112351894378662,-2.9994916915893555,-0.20007562637329102,-0.1964554637670517,-0.19169580936431885,-0.18482305109500885,0.47218894958496094,0.3671477437019348,0.25812873244285583,0.09853412955999374
0.6333333333333333,0.043319396674633026,0.02644561231136322,0.0,0.6678550839424133,0.0,0.0,-0.744291365146637,0.5950992703437805,0.06690024584531784,0.0,0.0,0.0,4.360767841339111,0.3996557295322418,0.726432204246521,0.42000025510787964,0.58112633228302,-2.483494972693734e-05,-1.6873573258635588e-05,-0.813813328742981,-0.10068109631538391,-0.03759491816163063,-0.001118467072956264,0.03059438057243824,-0.02598929964005947,-2.1840739250183105,0.39431074261665344,0.736467182636261,0.43113499879837036,-0.1507340520620346,0.08733758330345154,0.1702907830476761,0.38848093152046204,0.7274884581565857,0.42000001668930054,-0.3778057098388672,-3.0000007152557373,-1.3611993789672852,-2.9989356994628906,-0.19339001178741455,-0.19142842292785645,-0.18832407891750336,-0.18380111455917358,0.4601464867591858,0.3484894037246704,0.24015748500823975,0.09869027882814407
0.65,0.05429266020655632,0.023598020896315575,0.0,0.6766420602798462,0.0,0.0,-0.7363121509552002,0.6979820728302002,-0.18921901285648346,0.0,0.0,0.0,0.36709654331207275,0.39804109930992126,0.7264816164970398,0.4200001060962677,0.5777786374092102,6.216043402673677e-06,2.66524608605323e-07,-0.8161934018135071,-0.09214524179697037,0.0009632687433622777,-0.00021678187476936728,-0.007920428179204464,0.017887337133288383,-0.005618141498416662,0.39252525568008423,0.739596426486969,0.43484222888946533,-0.11992491781711578,0.12643076479434967,0.2508024573326111,0.38848093152046204,0.7274884581565857,0.42000001668930054,-0.4278438687324524,-2.9999990463256836,-1.4111692905426025,-2.999181032180786,-0.18362973630428314,-0.1835755705833435,-0.18223515152931213,-0.17985042929649353,0.4966193735599518,0.42128828167915344,0.35473859310150146,0.269758015871048
0.6666666666666666,0.06706669181585312,0.017962751910090446,0.0,0.6629610657691956,0.0,0.0,-0.7486538887023926,0.7998223900794983,-0.4082190692424774,0.0,0.0,0.0,-3.109436273574829,0.39720770716667175,0.7265329957008362,0.42000001668930054,0.581770658493042,9.196439236802689e-07,2.9835788950549613e-07,-0.8133528828620911,-0.03014666959643364,0.00042673537973314524,-2.3044442059472203e-05,-0.0011745031224563718,0.0010447686072438955,0.33558541536331177,0.3914763331413269,0.7417842149734497,0.44114717841148376,-0.004463141784071922,0.09309082478284836,0.630833625793457,0.38848093152046204,0.7274884581565857,0.42000001668930054,-0.47785770893096924,-2.9999873638153076,-1.4611876010894775,-3.000000476837158,-0.17763203382492065,-0.17817755043506622,-0.17723391950130463,-0.17543409764766693,0.28213515877723694,0.2780472934246063,0.28781306743621826,0.29170867800712585
0.6833333333333333,0.08273743093013763,0.016518259420990944,0.0,0.6272960305213928,0.0,0.0,-0.7787808775901794,0.9314661622047424,-0.049732472747564316,0.0,0.0,0.0,-6.468553066253662,0.39720723032951355,0.7265332341194153,0.42000001668930054,0.5817709565162659,2.3855054678278975e-06,-4.469374744076049e-06,-0.813352644443512,0.00037808509659953415,-0.00026679199072532356,-0.00016337516717612743,0.004831629805266857,0.0014655228005722165,-0.001303954399190843,0.39892008900642395,0.7390510439872742,0.45930713415145874,0.9443615674972534,-0.27306458353996277,1.6021983623504639,0.38848093152046204,0.7274884581565857,0.42000001668930054,-0.5278702974319458,-2.9998950958251953,-1.5112059116363525,-2.9999916553497314,-0.1795186549425125,-0.17893086373806,-0.1766703575849533,-0.17365898191928864,-0.13013389706611633,-0.06277058273553848,0.017523955553770065,0.09724920243024826
0.7,0.09545760601758957,0.016353992745280266,0.0,0.6063075065612793,0.0,0.0,-0.7952302694320679,0.6870241761207581,0.0316847562789917,0.0,0.0,0.0,-2.159100294113159,0.39720746874809265,0.7265332341194153,0.4200000464916229,0.5817709565162659,2.7930178703172714e-07,-3.4615736694831867e-06,-0.8133527040481567,0.00010490116983419284,-0.00026655220426619053,-8.941278792917728e-05,0.006311316508799791,-0.0014619649155065417,-0.0006810488412156701,0.41696488857269287,0.7392693758010864,0.48814108967781067,1.0816965103149414,0.24953415989875793,1.8267195224761963,0.38848093152046204,0.7274884581565857,0.42000001668930054,-0.5495150685310364,0.14117087423801422,-1.5612242221832275,-2.9999990463256836,-0.17952892184257507,-0.17885784804821014,-0.17634530365467072,-0.17304983735084534,0.08269888907670975,0.04130055382847786,0.005349714308977127,-0.028864290565252304
0.7166666666666667,0.10335111618041992,0.018528668209910393,0.0,0.6107726693153381,0.0,0.0,-0.7918059825897217,0.39672502875328064,0.1754271686077118,0.0,0.0,0.0,1.555024266242981,0.39720746874809265,0.7265332341194153,0.4200000464916229,0.5817709565162659,1.8248910294005327e-07,-3.2416714930150192e-06,-0.813352644443512,0.00010043111979030073,-0.000269653886789456,-8.842651732265949e-05,0.0064144497737288475,-0.0015298331854864955,-0.0006752758636139333,0.43215444684028625,0.7447494268417358,0.5124738216400146,0.6644506454467773,0.37749916315078735,1.14309823513031,0.38848093152046204,0.7274884581565857,0.42000001668930054,-0.5267451405525208,2.3764591217041016,-1.5223222970962524,3.0000009536743164,-0.17698347568511963,-0.1770559549331665,-0.1752219945192337,-0.17255838215351105,0.20184239745140076,0.1587153673171997,0.11621426790952682,0.07574149966239929
0.7333333333333333,0.10703468322753906,0.016648568212985992,0.0,0.6036683917045593,0.0,0.0,-0.7972355484962463,0.1838708519935608,-0.1833392232656479,0.0,0.0,0.0,-1.9873520135879517,0.39720743894577026,0.7265332341194153,0.4200000464916229,0.5817710161209106,3.118263123269571e-07,-3.152337285428075e-06,-0.813352644443512,0.00010367018694523722,-0.00026666285702958703,-8.920696564018726e-05,0.0063221994787454605,-0.0014775375602766871,-0.0006785402074456215,0.43684810400009155,0.7496991157531738,0.5247704386711121,-0.11714625358581543,0.17504055798053741,0.49675023555755615,0.38848093152046204,0.7274884581565857,0.42000001668930054,-0.508666455745697,-0.015076467767357826,-1.4722696542739868,3.0,-0.17249669134616852,-0.17316685616970062,-0.1719830334186554,-0.16996629536151886,0.20003755390644073,0.1942429542541504,0.1797826886177063,0.1611020416021347
0.75,0.107513427734375,0.01980779692530632,0.0,0.6092799305915833,0.0,0.0,-0.7929551601409912,-0.021791860461235046,0.3254101276397705,0.0,0.0,0.0,1.7292604446411133,0.39720746874809265,0.7265332341194153,0.4200000464916229,0.5817708373069763,2.5717690732562914e-07,-3.42644830197969e-06,-0.813352644443512,0.00010417995508760214,-0.0002668952802196145,-8.9248176664114e-05,0.006325436756014824,-0.001470789429731667,-0.0006797636742703617,0.4346514940261841,0.7515562176704407,0.5297213196754456,-0.1418318748474121,0.14722736179828644,0.12655247747898102,0.38848093152046204,0.7274884581565857,0.42000001668930054,-0.4975880980491638,1.2275561094284058,-1.4889848232269287,-3.000000476837158,-0.17475534975528717,-0.1743442416191101,-0.1723630577325821,-0.16976593434810638,-0.19517402350902557,-0.12225794792175293,-0.06944594532251358,-0.031532324850559235
0.7666666666666666,0.11021566390991211,0.020433280616998672,0.0,0.6029433012008667,0.0,0.0,-0.7977840304374695,0.16096146404743195,0.056388843804597855,0.0,0.0,0.0,-1.6421407461166382,0.39720746874809265,0.7265332341194153,0.4200000464916229,0.5817707180976868,3.1199945738080714e-07,-2.8603537884919206e-06,-0.8133527636528015,9.948647493729368e-05,-0.0002706690866034478,-8.818833157420158e-05,0.0064451671205461025,-0.00154544273391366,-0.0006743243429809809,0.4290234446525574,0.75226229429245,0.5244334936141968,-0.599990963935852,-0.11057376116514206,-0.5451730489730835,0.38848093152046204,0.7274884581565857,0.42000001668930054,-0.5102124810218811,-2.418660879135132,-1.4502880573272705,2.9999992847442627,-0.17521417140960693,-0.1740775853395462,-0.17167073488235474,-0.16883622109889984,-0.14717437326908112,-0.07437299937009811,-0.021436555311083794,0.01811954937875271
0.7833333333333333,0.11422981321811676,0.019028661772608757,0.0,0.6096649169921875,0.0,0.0,-0.7926592826843262,0.26589375734329224,-0.2050986886024475,0.0,0.0,0.0,1.7388546466827393,0.39720746874809265,0.7265332341194153,0.4200000464916229,0.5817708969116211,2.539422894187737e-07,-3.3066191917896504e-06,-0.813352644443512,0.00010412202391307801,-0.0002670557878445834,-8.928030729293823e-05,0.006329368334263563,-0.0014737327583134174,-0.0006799731636419892,0.42254993319511414,0.7499733567237854,0.5167801976203918,-0.21096545457839966,-0.12331981956958771,-0.3349844217300415,0.38848093152046204,0.7274884581565857,0.42000001668930054,-0.5583577752113342,-2.99999737739563,-1.4674668312072754,-3.0000011920928955,-0.17835339903831482,-0.17574343085289001,-0.17206507921218872,-0.1680622398853302,-0.13976626098155975,-0.05711141973733902,0.020815065130591393,0.09999904036521912
0.8,0.12008048593997955,0.013801303692162037,0.0,0.6035079956054688,0.0,0.0,-0.7973569631576538,0.39274895191192627,-0.3710021674633026,0.0,0.0,0.0,-1.8271334171295166,0.39720746874809265,0.7265332341194153,0.4200000464916229,0.5817709565162659,2.45347592908729e-07,-3.219202426407719e-06,-0.8133525848388672,0.00010815213317982852,-0.00026729778619483113,-9.016506373882294e-05,0.006313027814030647,-0.0014274707064032555,-0.0006893313257023692,0.4236377477645874,0.7466617822647095,0.5088257789611816,0.33602288365364075,-0.27316251397132874,-0.43484264612197876,0.38848093152046204,0.7274884581565857,0.42000001668930054,-0.6083669662475586,-2.999997138977051,-1.5174851417541504,-3.0000007152557373,-0.1812121868133545,-0.1771669089794159,-0.17202216386795044,-0.16643135249614716,-0.1614031344652176,-0.07219763845205307,0.022894669324159622,0.1289733201265335
0.8166666666666667,0.12864252924919128,0.010654257610440254,0.0,0.5765705704689026,0.0,0.0,-0.8170473575592041,0.5650644302368164,-0.11533664166927338,0.0,0.0,0.0,-4.883538722991943,0.39720743894577026,0.7265332341194153,0.4200000464916229,0.5817710161209106,2.949709596578032e-07,-3.506011580611812e-06,-0.8133525848388672,0.00010359578300267458,-0.0002666674554347992,-8.919229730963707e-05,0.0063225869089365005,-0.0014786147512495518,-0.0006783981225453317,0.4308524429798126,0.7406268119812012,0.5070648193359375,0.5431183576583862,-0.4182901978492737,0.340945839881897,0.38848093152046204,0.7274884581565857,0.42000001668930054,-0.6583757400512695,-2.9999701976776123,-1.5675034523010254,-2.999999761581421,-0.18446917831897736,-0.17942219972610474,-0.17306211590766907,-0.16596181690692902,-0.1886909008026123,-0.14670051634311676,-0.0890745222568512,-0.011000987142324448
0.8333333333333334,0.13942119479179382,0.011443362571299076,0.0,0.5649728775024414,0.0,0.0,-0.8251094818115234,0.6925004124641418,0.11966640502214432,0.0,0.0,0.0,-0.7014048099517822,0.39720746874809265,0.7265331745147705,0.4200000464916229,0.5817711353302002,2.9412279900498106e-07,-3.3757814890122972e-06,-0.8133525252342224,0.00010528945131227374,-0.00026668960344977677,-8.95187258720398e-05,0.006313902325928211,-0.0014575454406440258,-0.0006822495488449931,0.4385770261287689,0.7395864725112915,0.5158817768096924,0.33746105432510376,0.18506479263305664,0.6877707242965698,0.38848093152046204,0.7274884581565857,0.42000001668930054,-0.6752148866653442,0.6741890907287598,-1.6175191402435303,-3.0,-0.1864851713180542,-0.1816377490758896,-0.17525558173656464,-0.16781924664974213,-0.0519232451915741,-0.10599323362112045,-0.1509920358657837,-0.1804349273443222
0.85,0.1464780569076538,0.010420138947665691,0.0,0.5793607234954834,0.0,0.0,-0.8150712847709656,0.3307320475578308,-0.12389049679040909,0.0,0.0,0.0,3.011319875717163,0.39720746874809265,0.7265332341194153,0.4200000464916229,0.5817709565162659,2.85995014337459e-07,-3.1571871659252793e-06,-0.813352644443512,0.00010339120490243658,-0.0002669532550498843,-8.91098752617836e-05,0.00632970267906785,-0.0014825051184743643,-0.0006785165169276297,0.44577884674072266,0.7462757229804993,0.5230695009231567,0.43403691053390503,0.4988853931427002,0.2149721086025238,0.38848093152046204,0.7274884581565857,0.42000001668930054,-0.6536799073219299,1.794191598892212,-1.5784560441970825,3.0000007152557373,-0.1819925159215927,-0.1788519024848938,-0.17403998970985413,-0.16791369020938873,0.37746191024780273,0.26719364523887634,0.1609877496957779,0.066358283162117
0.8666666666666667,0.14960353076457977,0.004896233789622784,0.0,0.5798221230506897,0.0,0.0,-0.8147430419921875,0.14987121522426605,-0.37102845311164856,0.0,0.0,0.0,-0.9856756329536438,0.39720746874809265,0.7265331745147705,0.4200000464916229,0.5817710161209106,3.267930992478796e-07,-3.2585239750915207e-06,-0.8133525848388672,0.00010418330202810466,-0.0002665662323124707,-8.93354881554842e-05,0.006316740531474352,-0.001471386756747961,-0.0006795880035497248,0.45178377628326416,0.7510244846343994,0.523503303527832,0.2653849422931671,0.10567362606525421,0.005635663866996765,0.38848093152046204,0.7274884581565857,0.42000001668930054,-0.6635630130767822,-2.5926809310913086,-1.5283995866775513,2.999999761581421,-0.17726242542266846,-0.17537131905555725,-0.17178533971309662,-0.1667611300945282,0.1586751788854599,0.1212528720498085,0.08169015496969223,0.0446934811770916
0.8833333333333333,0.15018020570278168,0.0049219815991818905,0.0,0.5912613868713379,0.0,0.0,-0.8064799904823303,-0.016527332365512848,0.13583967089653015,0.0,0.0,0.0,2.5587687492370605,0.39720746874809265,0.7265332341194153,0.4200000464916229,0.581771194934845,3.2452638265567657e-07,-3.2123941764439223e-06,-0.8133524656295776,0.00010492392902961001,-0.00026648378116078675,-8.948217146098614e-05,0.006309880875051022,-0.0014624724863097072,-0.0006813008221797645,0.45652449131011963,0.7518260478973389,0.5223441123962402,0.28459054231643677,0.06080295890569687,-0.11667463183403015,0.38848093152046204,0.7274884581565857,0.42000001668930054,-0.6743971109390259,0.9906277060508728,-1.5439496040344238,-2.999999761581421,-0.18051552772521973,-0.17782104015350342,-0.17355263233184814,-0.16793225705623627,-0.27898892760276794,-0.20505401492118835,-0.13888202607631683,-0.07943513989448547
