vladlanda/robotic-transformer/data/env_000_episode_0132.csv
sim_time_s,robot_box_x,robot_box_y,robot_box_z,robot_box_quat_w,robot_box_quat_x,robot_box_quat_y,robot_box_quat_z,robot_box_linvel_x,robot_box_linvel_y,robot_box_linvel_z,robot_box_angvel_x,robot_box_angvel_y,robot_box_angvel_z,cube_world_x,cube_world_y,cube_world_z,cube_quat_w,cube_quat_x,cube_quat_y,cube_quat_z,cube_linvel_x,cube_linvel_y,cube_linvel_z,cube_angvel_x,cube_angvel_y,cube_angvel_z,endpoint_world_x,endpoint_world_y,endpoint_world_z,endpoint_linvel_x,endpoint_linvel_y,endpoint_linvel_z,target_cube_world_x,target_cube_world_y,target_cube_world_z,gripper_actual_pos_rad_gp_leftgearjoint,gripper_actual_vel_rad_s_gp_leftgearjoint,gripper_actual_pos_rad_gp_rotatingjoint,gripper_actual_vel_rad_s_gp_rotatingjoint,motor_angle_rad_joint1,motor_angle_rad_joint2,motor_angle_rad_joint3,motor_angle_rad_joint4,motor_speed_rad_s_joint1,motor_speed_rad_s_joint2,motor_speed_rad_s_joint3,motor_speed_rad_s_joint4
0.0,0.0,0.0,0.0,1.0,0.0,0.0,0.0,0.0,0.0,0.0,0.0,0.0,0.0,-0.3667239248752594,0.7123465538024902,0.41999998688697815,1.0,0.0,0.0,0.0,0.0,0.0,0.0,0.0,0.0,0.0,3.42540442943573e-06,-0.005000244826078415,1.313499927520752,0.0,0.0,0.0,0.4432046413421631,0.7527682781219482,0.42000001668930054,-1.5707999467849731,0.0,0.0,0.0,0.0,0.0,0.0,0.0,0.0,0.0,0.0,0.0
0.016666666666666666,0.0028889686800539494,0.0021670330315828323,0.0,0.9998324513435364,0.0,0.0,0.018303651362657547,0.24115459620952606,0.18195870518684387,0.0,0.0,0.0,3.1417152881622314,-0.36672404408454895,0.7123462557792664,0.41999998688697815,1.0,3.279964630564791e-06,-8.339746386809566e-07,8.465587342243452e-08,-1.9833529222523794e-05,0.00017983045836444944,-6.132945418357849e-05,0.0009432713268324733,-0.004689474124461412,-0.00031981561915017664,-0.007105844095349312,0.003411137266084552,1.3159401416778564,-0.8133426308631897,0.9879840612411499,0.18097633123397827,0.4432046413421631,0.7527682781219482,0.42000001668930054,-1.5301094055175781,3.0000016689300537,-0.04585074633359909,-3.0000014305114746,0.0008707864908501506,0.0007975884946063161,0.0007121367962099612,0.0006125879008322954,0.11099784821271896,0.09763064235448837,0.0834059864282608,0.06828365474939346
0.03333333333333333,0.008974133059382439,0.006781561300158501,0.0,0.999821126461029,0.0,0.0,0.018913976848125458,0.407144159078598,0.31490185856819153,0.0,0.0,0.0,-0.8688974976539612,-0.3667241632938385,0.7123461961746216,0.4200000464916229,1.0,3.3908179375430336e-06,-2.132458348569344e-06,-3.7097745320124886e-08,0.00026357852038927376,0.00026937833172269166,-0.00010509369894862175,-0.0017707126680761576,0.004130884539335966,-0.0001354814594378695,-0.027382738888263702,0.02639411948621273,1.3165977001190186,-1.5743582248687744,1.6214691400527954,-0.08511935919523239,0.4432046413421631,0.7527682781219482,0.42000001668930054,-1.4800901412963867,3.000000476837158,-0.0958905816078186,-3.0000009536743164,0.0029772017151117325,0.0026351758278906345,0.0022553117014467716,0.001834764494560659,0.1625571846961975,0.1376502811908722,0.11125162988901138,0.0832616537809372
0.05,0.01848604902625084,0.01388639211654663,0.0,0.9999657273292542,0.0,0.0,-0.008277407847344875,0.636115312576294,0.47218212485313416,0.0,0.0,0.0,-4.072856903076172,-0.3667241930961609,0.7123462557792664,0.4200000464916229,1.0,3.7651902857760433e-06,-2.2119197637948673e-06,5.609367637049445e-09,0.00026530938339419663,0.00026691678795032203,-0.00010440615005791187,-0.0017243892652913928,0.004177466034889221,-0.00012949809024576098,-0.056486826390028,0.05824895203113556,1.311875820159912,-1.914111852645874,2.1219000816345215,-0.4661415219306946,0.4432046413421631,0.7527682781219482,0.42000001668930054,-1.4300718307495117,3.0000009536743164,-0.1459292620420456,-3.000000238418579,0.005936766508966684,0.005078217945992947,0.004147306550294161,0.0031399729195982218,0.201646089553833,0.16039472818374634,0.1172238364815712,0.07204660773277283
0.06666666666666667,0.0308267492800951,0.023377956822514534,0.0,0.9998531937599182,0.0,0.0,-0.017132962122559547,0.7729377746582031,0.6162779927253723,0.0,0.0,0.0,-0.03194013237953186,-0.3667241930961609,0.7123461961746216,0.4200000464916229,0.9999999403953552,3.406832092878176e-06,-2.28558906201215e-06,4.300801492718165e-07,0.0002670248504728079,0.0002679176686797291,-0.0001043803058564663,-0.00174071139190346,0.00421183044090867,-0.00012850876373704523,-0.09131170064210892,0.09288932383060455,1.3014839887619019,-2.1357715129852295,2.195910692214966,-0.7699031829833984,0.4432046413421631,0.7527682781219482,0.42000001668930054,-1.3800472021102905,2.9999992847442627,-0.1653791069984436,0.38448455929756165,0.008386165834963322,0.006734523922204971,0.004969347734004259,0.0030883965082466602,0.12228470295667648,0.06454581022262573,0.004657933954149485,-0.05749455839395523
0.08333333333333333,0.044732339680194855,0.03507940098643303,0.0,0.999206006526947,0.0,0.0,-0.03984201326966286,0.9508562088012695,0.7341226935386658,0.0,0.0,0.0,-3.5343234539031982,-0.3667241930961609,0.7123461961746216,0.4200000464916229,1.0,3.6973397072870284e-06,-2.18897503145854e-06,-2.6324283908252255e-07,0.00026389575214125216,0.000265863083768636,-0.00010433816350996494,-0.001708182506263256,0.004150256514549255,-0.00012991153926122934,-0.1224406436085701,0.1332641839981079,1.288472056388855,-1.6358435153961182,2.6565890312194824,-0.7745404243469238,0.4432046413421631,0.7527682781219482,0.42000001668930054,-1.3300390243530273,3.0000007152557373,-0.20968657732009888,-3.0000007152557373,0.00859138648957014,0.005756099242717028,0.002764308825135231,-0.00038658740231767297,-0.015614180825650692,-0.10430382937192917,-0.1952085942029953,-0.2883032560348511
0.1,0.0536419078707695,0.050663676112890244,0.0,0.9957156777381897,0.0,0.0,-0.09246788173913956,0.3959796726703644,1.0187870264053345,0.0,0.0,0.0,-7.287306785583496,-0.3667241930961609,0.7123461961746216,0.4200000464916229,0.9999999403953552,3.6204189655109076e-06,-2.2651970539300237e-06,1.7461321988321288e-07,0.00026676736888475716,0.0002674079150892794,-0.0001040794886648655,-0.001738528604619205,0.004209060221910477,-0.00012775698269251734,-0.14942806959152222,0.17975080013275146,1.2730817794799805,-1.5777450799942017,2.929704189300537,-1.0042107105255127,0.4432046413421631,0.7527682781219482,0.42000001668930054,-1.2800220251083374,2.9999899864196777,-0.17585483193397522,3.0,0.0017892422620207071,-0.0019876135047525167,-0.005974339321255684,-0.01017706748098135,-0.535368800163269,-0.5864977836608887,-0.6402263045310974,-0.6968255639076233
0.11666666666666667,0.05744301155209541,0.06775529682636261,0.0,0.992102324962616,0.0,0.0,-0.12543120980262756,0.2154771238565445,0.9928939342498779,0.0,0.0,0.0,-2.694197416305542,-0.3667241930961609,0.7123461961746216,0.4200000464916229,1.0,3.798416400968563e-06,-2.2627416456089122e-06,-1.5020985699720768e-07,0.00026374010485596955,0.00026566069573163986,-0.00010429113171994686,-0.001705370144918561,0.00414750212803483,-0.0001298012211918831,-0.18234261870384216,0.22330734133720398,1.2557618618011475,-2.0868606567382812,2.6948373317718506,-1.0564532279968262,0.4432046413421631,0.7527682781219482,0.42000001668930054,-1.2313756942749023,2.8157126903533936,-0.20745038986206055,-3.000000476837158,-0.0069339461624622345,-0.011766564100980759,-0.016813810914754868,-0.022085286676883698,-0.4326486587524414,-0.5113527774810791,-0.588318943977356,-0.6636391878128052
0.13333333333333333,0.07039767503738403,0.08070558309555054,0.0,0.9856978058815002,0.0,0.0,-0.16852253675460815,0.8191419839859009,0.8294152617454529,0.0,0.0,0.0,-5.804108619689941,-0.3667241930961609,0.7123462557792664,0.4200000464916229,0.9999999403953552,3.5505045161698945e-06,-2.2297124360193266e-06,2.9290509928614483e-07,0.0002670330286491662,0.000267792638624087,-0.00010417005978524685,-0.0017440036172047257,0.004213502164930105,-0.00012799850082956254,-0.21327224373817444,0.27580636739730835,1.237198829650879,-1.6429061889648438,3.65704083442688,-1.3211078643798828,0.4432046413421631,0.7527682781219482,0.42000001668930054,-1.1814395189285278,2.999999523162842,-0.18855147063732147,2.999999523162842,-0.006175250746309757,-0.013314490206539631,-0.020574519410729408,-0.027960781008005142,-0.16568993031978607,-0.27419254183769226,-0.37873998284339905,-0.47909942269325256
0.15,0.07933946698904037,0.0919073298573494,0.0,0.9790942072868347,0.0,0.0,-0.20340736210346222,0.4928920269012451,0.6068251729011536,0.0,0.0,0.0,-3.405409812927246,-0.3667241930961609,0.7123461961746216,0.4200000464916229,0.9999999403953552,3.3380501918145455e-06,-2.242820528408629e-06,-2.8022322240417452e-08,0.00026674597756937146,0.0002675814612302929,-0.00010427739471197128,-0.0017367637483403087,0.0042068837210536,-0.00012831276399083436,-0.24533183872699738,0.33353865146636963,1.2082908153533936,-1.9455054998397827,3.6075563430786133,-2.0715394020080566,0.4432046413421631,0.7527682781219482,0.42000001668930054,-1.1512084007263184,0.7947132587432861,-0.22007428109645844,-3.0000009536743164,-0.013506337068974972,-0.021656803786754608,-0.029885729774832726,-0.03820052742958069,-0.4695645868778229,-0.5151612162590027,-0.5579741597175598,-0.5981895327568054
0.16666666666666666,0.08377468585968018,0.10587968677282333,0.0,0.9678875207901001,0.0,0.0,-0.25138357281684875,0.25206977128982544,0.7806562185287476,0.0,0.0,0.0,-6.537388324737549,-0.3667241930961609,0.7123462557792664,0.4200000464916229,0.9999999403953552,3.647779067250667e-06,-2.307212753294152e-06,3.527146219539645e-08,0.00026726859505288303,0.0002680137986317277,-0.00010418682359158993,-0.0017473286716267467,0.0042176577262580395,-0.00012798354146070778,-0.2781028151512146,0.398639440536499,1.1656169891357422,-1.91422438621521,4.225006103515625,-2.879647731781006,0.4432046413421631,0.7527682781219482,0.42000001668930054,-1.108431339263916,3.000002384185791,-0.27009117603302,-2.9999985694885254,-0.024980153888463974,-0.03331097215414047,-0.04168318957090378,-0.05011258274316788,-0.5772572159767151,-0.599223792552948,-0.616899311542511,-0.6305513978004456
0.18333333333333332,0.09382722526788712,0.11416873335838318,0.0,0.9600512385368347,0.0,0.0,-0.27982428669929504,0.6492468118667603,0.4846595525741577,0.0,0.0,0.0,-2.412245273590088,-0.3667241930961609,0.7123461961746216,0.4200000464916229,0.9999999403953552,3.290514769105357e-06,-2.1938158170087263e-06,-2.7924590995098697e-07,0.0002667787193786353,0.0002677605953067541,-0.0001043414231389761,-0.0017390446737408638,0.004206892102956772,-0.00012845569290220737,-0.31226521730422974,0.4669479727745056,1.1089791059494019,-1.7781243324279785,4.318620681762695,-3.925159454345703,0.4432046413421631,0.7527682781219482,0.42000001668930054,-1.0584321022033691,3.000002384185791,-0.3201189935207367,-2.9999990463256836,-0.03176246955990791,-0.0403197705745697,-0.048856548964977264,-0.057394955307245255,-0.5743677020072937,-0.5477972626686096,-0.5198720097541809,-0.4911526143550873
0.2,0.09783612936735153,0.1256450116634369,0.0,0.9475874900817871,0.0,0.0,-0.3194964528083801,0.2308080941438675,0.681941032409668,0.0,0.0,0.0,-5.624399662017822,-0.3667241930961609,0.7123461961746216,0.4200000464916229,1.0,3.280726787124877e-06,-2.219165025962866e-06,1.5945686016038962e-07,0.0002662799961399287,0.0002674010756891221,-0.0001042510848492384,-0.0017357835313305259,0.004197876434773207,-0.00012865287135355175,-0.33941417932510376,0.5357313752174377,1.0355079174041748,-1.3592469692230225,4.157286167144775,-4.641653060913086,0.4432046413421631,0.7527682781219482,0.42000001668930054,-1.0084224939346313,2.9999988079071045,-0.37014418840408325,-2.999999761581421,-0.04662591591477394,-0.055131956934928894,-0.06319120526313782,-0.07127314805984497,-0.6885199546813965,-0.7372907400131226,-0.7831359505653381,-0.8243577480316162
0.21666666666666667,0.10077828913927078,0.13252872228622437,0.0,0.9407809972763062,0.0,0.0,-0.3390148878097534,0.05866412818431854,0.37050485610961914,0.0,0.0,0.0,-1.3843036890029907,-0.3667241930961609,0.7123462557792664,0.4200000464916229,1.0,3.613114131439943e-06,-2.270080813104869e-06,2.2099777652329067e-07,0.0002671255497261882,0.00026781627093441784,-0.0001041400246322155,-0.0017444631084799767,0.004215197172015905,-0.00012786380830220878,-0.36318063735961914,0.5982391238212585,0.9516206979751587,-1.0962698459625244,3.554417133331299,-5.440430164337158,0.4432046413421631,0.7527682781219482,0.42000001668930054,-0.9584156274795532,3.000000476837158,-0.4201710820198059,-2.9999992847442627,-0.05812828242778778,-0.06690634042024612,-0.07522593438625336,-0.0835215300321579,-0.8699455261230469,-0.8397559523582458,-0.8120681047439575,-0.7844947576522827
0.23333333333333334,0.10243609547615051,0.14210571348667145,0.0,0.9284831285476685,0.0,0.0,-0.37137460708618164,0.15243516862392426,0.5398759245872498,0.0,0.0,0.0,-4.999099254608154,-0.3667241930961609,0.7123461961746216,0.4200000464916229,1.0,3.381833721505245e-06,-2.29093961934268e-06,2.727813352976227e-07,0.00026691294624470174,0.00026779971085488796,-0.00010433141142129898,-0.0017395353643223643,0.004209678154438734,-0.00012843581498600543,-0.37812986969947815,0.6526721715927124,0.8529065847396851,-0.6667807102203369,2.961928367614746,-6.211518287658691,0.4432046413421631,0.7527682781219482,0.42000001668930054,-0.9084054827690125,2.999997615814209,-0.4702003598213196,-3.000002384185791,-0.07347967475652695,-0.08238270878791809,-0.09071897715330124,-0.09860944002866745,-0.7552180886268616,-0.7907007932662964,-0.8231431841850281,-0.8517646789550781
0.25,0.10251806676387787,0.14781974256038666,0.0,0.9228597283363342,0.0,0.0,-0.38513627648353577,-0.07576382905244827,0.29688695073127747,0.0,0.0,0.0,-0.717819094657898,-0.3667241632938385,0.7123461961746216,0.4200000464916229,0.9999999403953552,3.7065449305373477e-06,-2.222977173005347e-06,-2.2551901679435105e-07,0.0002642468025442213,0.0002665686479303986,-0.00010457751341164112,-0.0017169659258797765,0.004155547823756933,-0.00013063880032859743,-0.3893372714519501,0.6914838552474976,0.7466740012168884,-0.39654719829559326,1.787384033203125,-6.529091835021973,0.4432046413421631,0.7527682781219482,0.42000001668930054,-0.8583948016166687,2.9999969005584717,-0.5202306509017944,-3.000000238418579,-0.08864711225032806,-0.0976153314113617,-0.10593785345554352,-0.1137835681438446,-0.991573691368103,-0.9929922819137573,-0.9865977764129639,-0.9741050004959106
0.26666666666666666,0.10012408345937729,0.1505892276763916,0.0,0.9125055074691772,0.0,0.0,-0.409064382314682,-0.21034231781959534,0.10079482197761536,0.0,0.0,0.0,-4.043520927429199,-0.3667241930961609,0.7123461961746216,0.4200000464916229,0.9999999403953552,3.7196000448602717e-06,-2.403485495960922e-06,-1.8307810023543425e-07,0.0002662320912349969,0.00026729173259809613,-0.00010425853542983532,-0.0017327233217656612,0.0041965520940721035,-0.00012851424980908632,-0.39136624336242676,0.7136356234550476,0.6331069469451904,0.20507372915744781,0.7984271049499512,-6.887266159057617,0.4432046413421631,0.7527682781219482,0.42000001668930054,-0.8083856105804443,3.000002861022949,-0.5702604055404663,-3.0000016689300537,-0.10551953315734863,-0.1143919974565506,-0.12264780700206757,-0.13044589757919312,-0.9637022614479065,-0.9692406058311462,-0.9743149876594543,-0.9787817001342773
0.2833333333333333,0.0948651060461998,0.15051411092281342,0.0,0.9096297025680542,0.0,0.0,-0.4154200851917267,-0.3557552397251129,-0.05154629796743393,0.0,0.0,0.0,0.10923062264919281,-0.3667241930961609,0.7123462557792664,0.4200000464916229,0.9999999403953552,3.5840146210830426e-06,-2.31546050599718e-06,7.404324975368581e-08,0.00026522012194618583,0.0002645521017257124,-0.00010317075066268444,-0.0017020526574924588,0.004185048397630453,-0.0001249978959094733,-0.38772112131118774,0.7178561091423035,0.5234183669090271,0.4064205288887024,-0.3206457197666168,-6.26181697845459,0.4432046413421631,0.7527682781219482,0.42000001668930054,-0.7583768367767334,3.0,-0.6202892065048218,-2.9999992847442627,-0.1228443905711174,-0.131550133228302,-0.13968263566493988,-0.14738570153713226,-1.0064512491226196,-1.004881501197815,-1.0036840438842773,-1.002726435661316
0.3,0.08715163171291351,0.14783801138401031,0.0,0.9177454710006714,0.0,0.0,-0.39716899394989014,-0.509081244468689,-0.20495754480361938,0.0,0.0,0.0,3.3264319896698,-0.3667241930961609,0.7123461961746216,0.4200000464916229,1.0,3.724180714925751e-06,-2.2719079879607307e-06,9.637297893050345e-08,0.0002631253737490624,0.0002652592374943197,-0.00010437984019517899,-0.0016960874199867249,0.004134821705520153,-0.00013027869863435626,-0.38357359170913696,0.7126238346099854,0.42675772309303284,0.23531481623649597,-0.4809887409210205,-5.292416572570801,0.4432046413421631,0.7527682781219482,0.42000001668930054,-0.7083689570426941,3.000002384185791,-0.6703158617019653,-2.999999523162842,-0.14044669270515442,-0.14897173643112183,-0.15697085857391357,-0.16456909477710724,-1.0234968662261963,-1.0178595781326294,-1.0135467052459717,-1.0100709199905396
0.31666666666666665,0.07752946019172668,0.14272651076316833,0.0,0.9186217784881592,0.0,0.0,-0.3951379954814911,-0.6254110932350159,-0.34994256496429443,0.0,0.0,0.0,-0.68780517578125,-0.36637136340141296,0.7121525406837463,0.4200000762939453,0.999952495098114,4.880223514192039e-07,-1.2725639635391417e-06,-0.009740376845002174,0.01021298486739397,-0.004631267860531807,-6.265146657824516e-05,0.0005412346799857914,0.002527628792449832,-0.23327681422233582,-0.38371217250823975,0.7148723602294922,0.4264533221721649,0.13221414387226105,0.145547017455101,-0.24288968741893768,0.4432046413421631,0.7527682781219482,0.42000001668930054,-0.6583641171455383,2.999992609024048,-0.7207759618759155,-2.9999642372131348,-0.14538456499576569,-0.1542491763830185,-0.16224877536296844,-0.16941653192043304,-0.3468571603298187,-0.3386037051677704,-0.31308045983314514,-0.2656633257865906
0.3333333333333333,0.06562934815883636,0.13524115085601807,0.0,0.9251223206520081,0.0,0.0,-0.3796692192554474,-0.7641161680221558,-0.4887951910495758,0.0,0.0,0.0,2.876054286956787,-0.3650665879249573,0.7144396305084229,0.4201747477054596,0.9993798136711121,0.004328488372266293,3.8066114029788878e-06,-0.0349450409412384,0.2816658318042755,0.4543450176715851,0.04168713092803955,2.224313497543335,-0.1453438699245453,-9.020613670349121,-0.3797430992126465,0.721766471862793,0.4227520823478699,0.2941233217716217,0.5493104457855225,-0.17459917068481445,0.4432046413421631,0.7527682781219482,0.42000001668930054,-0.6083579659461975,2.999980926513672,-0.7708102464675903,-3.000000238418579,-0.15271803736686707,-0.16075049340724945,-0.1676107943058014,-0.1732770800590515,-0.4467637538909912,-0.37673601508140564,-0.28755444288253784,-0.17655925452709198
0.35,0.05714789032936096,0.12489425390958786,0.0,0.9249911904335022,0.0,0.0,-0.37998852133750916,-0.41828450560569763,-0.6693654656410217,0.0,0.0,0.0,-0.9729527831077576,-0.3606801927089691,0.721554160118103,0.4200006425380707,0.9947105646133423,-4.736332630272955e-05,2.3225429686135612e-05,-0.10271761566400528,0.3091757893562317,0.46752920746803284,-0.0010378388687968254,0.03603731468319893,0.016342265531420708,-8.885427474975586,-0.37258052825927734,0.7290266752243042,0.42044299840927124,0.6093826293945312,0.44254550337791443,-0.13410469889640808,0.4432046413421631,0.7527682781219482,0.42000001668930054,-0.558353066444397,2.9996721744537354,-0.8208526372909546,-2.9999876022338867,-0.1610194742679596,-0.16719801723957062,-0.17186151444911957,-0.17496950924396515,-0.5111628174781799,-0.3712403178215027,-0.2117462307214737,-0.03261493891477585
0.36666666666666664,0.046472471207380295,0.11295200884342194,0.0,0.91336590051651,0.0,0.0,-0.4071396589279175,-0.7260444164276123,-0.7409713864326477,0.0,0.0,0.0,-4.626690864562988,-0.35274025797843933,0.7318825125694275,0.42021697759628296,0.9811206459999084,-0.005403727293014526,0.00057985819876194,-0.19332033395767212,0.7835055589675903,0.9097710251808167,0.09384264051914215,-4.490118503570557,1.360942006111145,-4.736038684844971,-0.3600716292858124,0.7386629581451416,0.4211702346801758,0.941758394241333,0.7756916284561157,0.08274735510349274,0.4432046413421631,0.7527682781219482,0.42000001668930054,-0.5083076357841492,2.999958038330078,-0.8708592057228088,-2.9999616146087646,-0.17193235456943512,-0.17511628568172455,-0.1764550656080246,-0.17593295872211456,-0.6459134817123413,-0.4576509892940521,-0.2497922033071518,-0.024443000555038452
0.3833333333333333,0.038741469383239746,0.09804002195596695,0.0,0.887815535068512,0.0,0.0,-0.4601994454860687,-0.4245535135269165,-0.9390674233436584,0.0,0.0,0.0,-7.851626396179199,-0.3325934410095215,0.7531996965408325,0.4212563633918762,0.9720736742019653,-0.025544945150613785,-0.0007523396634496748,-0.2332802563905716,1.6465882062911987,1.6614859104156494,0.0630304142832756,-0.36092835664749146,-3.726478099822998,-5.305959701538086,-0.3377522826194763,0.7575254440307617,0.4227641224861145,1.8374598026275635,1.488362431526184,0.11332458257675171,0.4432046413421631,0.7527682781219482,0.42000001668930054,-0.4582706093788147,2.999350070953369,-0.9208723306655884,-2.99997878074646,-0.1808367669582367,-0.18098632991313934,-0.1789264976978302,-0.17468717694282532,-0.5388330817222595,-0.34197092056274414,-0.12480548024177551,0.10889944434165955
0.4,0.03307472541928291,0.08715329319238663,0.0,0.845953106880188,0.0,0.0,-0.533257246017456,-0.30305808782577515,-0.47861361503601074,0.0,0.0,0.0,-10.912833213806152,-0.2793128490447998,0.7888299822807312,0.4235903322696686,0.9583385586738586,0.014453176409006119,-0.04578883573412895,-0.28157007694244385,4.963400840759277,2.230799913406372,0.09624682366847992,39.41139221191406,-18.522207260131836,12.819403648376465,-0.2808629274368286,0.7903157472610474,0.42540889978408813,4.631168365478516,2.4806551933288574,0.30661439895629883,0.4432046413421631,0.7527682781219482,0.42000001668930054,-0.4098522961139679,2.3017067909240723,-0.8838553428649902,2.997457265853882,-0.19573186337947845,-0.19197925925254822,-0.18470856547355652,-0.1753067672252655,-0.8892433643341064,-0.7970265746116638,-0.46203988790512085,-0.1408577561378479
0.4166666666666667,0.030851619318127632,0.08027379214763641,0.0,0.7853644490242004,0.0,0.0,-0.6190336346626282,-0.07221595197916031,-0.40524256229400635,0.0,0.0,0.0,-13.335471153259277,-0.17977923154830933,0.8331558108329773,0.4286704361438751,0.9281297922134399,0.05455595627427101,-0.07483240216970444,-0.3605533540248871,7.410329818725586,2.367509365081787,0.4291210174560547,1.5360594987869263,-8.45731258392334,20.876100540161133,-0.18103036284446716,0.8353486061096191,0.4304341673851013,7.1650776863098145,2.975958824157715,0.4246492385864258,0.4432046413421631,0.7527682781219482,0.42000001668930054,-0.3835073411464691,1.1741163730621338,-0.9098737239837646,-3.000004291534424,-0.20667248964309692,-0.20362026989459991,-0.192839577794075,-0.17881177365779877,-0.5496380925178528,-0.5886666178703308,-0.43525150418281555,-0.22040805220603943
0.43333333333333335,0.025906916707754135,0.07801146805286407,0.0,0.7322975397109985,0.0,0.0,-0.6809848546981812,-0.2551063895225525,-0.13906659185886383,0.0,0.0,0.0,-8.392599105834961,-0.0640840083360672,0.8686671853065491,0.436801016330719,0.8925584554672241,0.10851945728063583,-0.10542785376310349,-0.4247913658618927,7.20949649810791,1.1359199285507202,0.5293530225753784,9.61152458190918,-18.48444175720215,12.657525062561035,-0.06437421590089798,0.8724201917648315,0.4386028051376343,6.973332405090332,1.6825976371765137,0.5441304445266724,0.4432046413421631,0.7527682781219482,0.42000001668930054,-0.366572767496109,0.944523811340332,-0.8726505041122437,2.9968245029449463,-0.22079172730445862,-0.21736709773540497,-0.20292255282402039,-0.18450357019901276,-0.6297021508216858,-0.6923767924308777,-0.5361220240592957,-0.3248123228549957
0.45,0.02551916614174843,0.06914056092500687,0.0,0.7005472183227539,0.0,0.0,-0.713606059551239,0.04259749501943588,-0.6744139194488525,0.0,0.0,0.0,-4.461759090423584,0.051683709025382996,0.8870992064476013,0.4453897476196289,0.8249178528785706,0.12309122085571289,-0.11411531269550323,-0.5397562384605408,6.627288818359375,-0.4113052785396576,0.40896061062812805,-5.777713775634766,-12.140499114990234,19.19927978515625,0.049098219722509384,0.8917033672332764,0.4463168680667877,6.734046936035156,0.49570322036743164,0.5580287575721741,0.4432046413421631,0.7527682781219482,0.42000001668930054,-0.34821033477783203,0.9986322522163391,-0.8983543515205383,-3.0000033378601074,-0.22856825590133667,-0.22490300238132477,-0.20758205652236938,-0.18571138381958008,-0.4115857481956482,-0.3321593701839447,-0.14564532041549683,0.05922965332865715
0.4666666666666667,0.02196837030351162,0.06494773179292679,0.0,0.6925548315048218,0.0,0.0,-0.721365213394165,-0.158835768699646,-0.18879434466362,0.0,0.0,0.0,-0.22496579587459564,0.15324920415878296,0.8834160566329956,0.453045517206192,0.7457978129386902,0.12793642282485962,-0.09943576157093048,-0.6461658477783203,5.738594055175781,-1.1185500621795654,0.430030882358551,-0.5727423429489136,-20.08403778076172,-0.0039024038705974817,0.14981402456760406,0.8899614810943604,0.4538256525993347,5.42296028137207,-0.5514765381813049,0.3515065908432007,0.4432046413421631,0.7527682781219482,0.42000001668930054,-0.3340548872947693,0.5400314331054688,-0.9483786225318909,-3.000001907348633,-0.24000774323940277,-0.23536483943462372,-0.21393820643424988,-0.18812404572963715,-0.02417430281639099,-0.5978503227233887,-0.4055978059768677,-0.22800205647945404
0.48333333333333334,0.02185852639377117,0.059495288878679276,0.0,0.6772804856300354,0.0,0.0,-0.735724925994873,0.05016054958105087,-0.3832060694694519,0.0,0.0,0.0,-3.3370838165283203,0.2361816167831421,0.8671401143074036,0.45446375012397766,0.7023071050643921,0.11606103926897049,-0.09628381580114365,-0.6957181692123413,4.299060821533203,-2.115438938140869,-0.16820190846920013,-13.480223655700684,-8.381658554077148,18.404600143432617,0.23388122022151947,0.8736055493354797,0.4556109309196472,4.771071434020996,-1.4554522037506104,0.037382885813713074,0.4432046413421631,0.7527682781219482,0.42000001668930054,-0.3240543603897095,0.5261860489845276,-0.9984025955200195,-3.0000009536743164,-0.24003662168979645,-0.24002818763256073,-0.22076162695884705,-0.19182990491390228,-0.031890835613012314,-0.02216356247663498,-0.35602277517318726,-0.17403072118759155
0.5,0.024589333683252335,0.05697963759303093,0.0,0.6749923229217529,0.0,0.0,-0.7378247380256653,0.19367890059947968,-0.10880070924758911,0.0,0.0,0.0,0.529711127281189,0.3057383596897125,0.8389682769775391,0.4509982466697693,0.6478852033615112,0.09365110844373703,-0.08300933986902237,-0.7513878345489502,3.402146816253662,-2.2873101234436035,-0.41942545771598816,-9.592098236083984,-2.765826940536499,13.650125503540039,0.3037649393081665,0.8455415368080139,0.45223212242126465,3.8582820892333984,-1.8483176231384277,-0.2909518778324127,0.4432046413421631,0.7527682781219482,0.42000001668930054,-0.31426769495010376,0.5947524309158325,-1.0484248399734497,-3.000002145767212,-0.23988887667655945,-0.23985402286052704,-0.22678662836551666,-0.1957549899816513,0.02537948451936245,0.0439411997795105,-0.2105751633644104,-0.16340291500091553
0.5166666666666666,0.029578251764178276,0.05712813138961792,0.0,0.6635103225708008,0.0,0.0,-0.748167097568512,0.3475643992424011,0.11136197298765182,0.0,0.0,0.0,-2.689427614212036,0.3607080280780792,0.8113488554954529,0.4400557577610016,0.6205542683601379,0.06540333479642868,-0.0735163539648056,-0.7779653668403625,2.578960418701172,-1.988381266593933,-0.852331817150116,-10.651524543762207,-2.198885202407837,14.093829154968262,0.3593165874481201,0.8174302577972412,0.44173961877822876,2.9719696044921875,-1.6765825748443604,-0.757127046585083,0.4432046413421631,0.7527682781219482,0.42000001668930054,-0.3017084002494812,0.7973285913467407,-1.0984469652175903,-3.0000007152557373,-0.2370425909757614,-0.23729750514030457,-0.2286752313375473,-0.198442280292511,0.21890884637832642,0.19987192749977112,-0.050203341990709305,-0.15937362611293793
0.5333333333333333,0.037479910999536514,0.0532076396048069,0.0,0.66463303565979,0.0,0.0,-0.7471699118614197,0.44995880126953125,-0.22979816794395447,0.0,0.0,0.0,1.0728360414505005,0.4026827812194824,0.7853253483772278,0.42373713850975037,0.5779736042022705,0.016303351148962975,-0.07015631347894669,-0.8128706812858582,1.7366986274719238,-1.584283709526062,-0.9875274300575256,-0.7752550840377808,0.0933820977807045,17.381610870361328,0.40080976486206055,0.7910610437393188,0.4264736771583557,2.0812740325927734,-1.59149169921875,-0.9944740533828735,0.4432046413421631,0.7527682781219482,0.42000001668930054,-0.2860294580459595,0.9699298739433289,-1.148469090461731,-3.000001907348633,-0.22882921993732452,-0.22988252341747284,-0.2255694568157196,-0.19845138490200043,0.4092075824737549,0.39641672372817993,0.18760056793689728,-0.01632235385477543
0.55,0.046780459582805634,0.0538448765873909,0.0,0.6546913981437683,0.0,0.0,-0.755896270275116,0.6084845662117004,0.03192901611328125,0.0,0.0,0.0,-2.436856985092163,0.42398184537887573,0.7715793251991272,0.4211895763874054,0.5773748159408569,0.016918020322918892,-0.023724470287561417,-0.8159590363502502,0.835415244102478,-0.5996326804161072,-0.03633609414100647,0.6296525597572327,-1.4211679697036743,13.048041343688965,0.42212605476379395,0.7767318487167358,0.42308709025382996,1.08251953125,-0.5992705821990967,-0.17089632153511047,0.4432046413421631,0.7527682781219482,0.42000001668930054,-0.26837843656539917,1.2273966073989868,-1.1985716819763184,-2.9993560314178467,-0.22234250605106354,-0.2239314317703247,-0.22287479043006897,-0.19960662722587585,0.5361577868461609,0.4597778618335724,0.24583779275417328,-0.039609238505363464
0.5666666666666667,0.05358639359474182,0.050217851996421814,0.0,0.6571542024612427,0.0,0.0,-0.7537561655044556,0.3222132921218872,-0.23046104609966278,0.0,0.0,0.0,1.2327978610992432,0.43572402000427246,0.7620351314544678,0.42006057500839233,0.555895209312439,0.0006439987337216735,-0.003651914419606328,-0.8312439918518066,0.30931416153907776,-0.6154410243034363,0.30375510454177856,3.450622797012329,22.89371109008789,0.4463677406311035,0.4320549964904785,0.7663607597351074,0.4224347472190857,0.342582106590271,-0.6258803606033325,0.10739588737487793,0.4432046413421631,0.7527682781219482,0.42000001668930054,-0.26186519861221313,-0.10842715203762054,-1.2485655546188354,-2.9713685512542725,-0.21336336433887482,-0.2155463695526123,-0.217073455452919,-0.19823133945465088,0.3690579831600189,0.388581246137619,0.30396902561187744,0.07512471824884415
0.5833333333333334,0.061098046600818634,0.05117559805512428,0.0,0.6481973528862,0.0,0.0,-0.7614724040031433,0.4724401831626892,0.05418886989355087,0.0,0.0,0.0,-2.254458427429199,0.43912070989608765,0.7558359503746033,0.42119571566581726,0.5746690034866333,-0.017541585490107536,0.015571283176541328,-0.8180497288703918,0.14025169610977173,-0.22319190204143524,0.04633544012904167,-0.692348301410675,1.590251088142395,3.493654489517212,0.4356698989868164,0.7612243294715881,0.4244723916053772,0.19800060987472534,-0.054672688245773315,0.14039315283298492,0.4432046413421631,0.7527682781219482,0.42000001668930054,-0.27048349380493164,-0.8151883482933044,-1.298520565032959,-2.9987521171569824,-0.20829454064369202,-0.2103108912706375,-0.2130180448293686,-0.19801212847232819,0.46446889638900757,0.4305201470851898,0.33853983879089355,0.08000383526086807
0.6,0.07036521285772324,0.048107367008924484,0.0,0.6519582271575928,0.0,0.0,-0.758254885673523,0.5893784761428833,-0.19721151888370514,0.0,0.0,0.0,1.4689860343933105,0.44026559591293335,0.7532698512077332,0.4206942915916443,0.5858315229415894,-0.012157656252384186,0.0012185168452560902,-0.8103407025337219,-0.031533945351839066,-0.06436670571565628,-0.032932233065366745,-3.7118608951568604,-3.316471576690674,-0.3274751603603363,0.4359287917613983,0.7602863311767578,0.4270446002483368,-0.14054685831069946,-0.088838130235672,0.17603643238544464,0.4432046413421631,0.7527682781219482,0.42000001668930054,-0.31395769119262695,-3.0,-1.348499059677124,-2.999316692352295,-0.1995173692703247,-0.20191100239753723,-0.20573168992996216,-0.19479019939899445,0.3777429163455963,0.40022075176239014,0.3877834677696228,0.1874590963125229
0.6166666666666667,0.0800265222787857,0.04832295700907707,0.0,0.6442944407463074,0.0,0.0,-0.7647775411605835,0.5799907445907593,0.05286990851163864,0.0,0.0,0.0,-2.153076648712158,0.43955808877944946,0.7526897192001343,0.4199998676776886,0.5902305841445923,-4.4867232645628974e-05,-0.00016556656919419765,-0.8072346448898315,0.0030581667087972164,-0.015021266415715218,-0.0033711481373757124,0.19683553278446198,0.04339681938290596,0.0014079171232879162,0.43609708547592163,0.761436939239502,0.4303951859474182,0.044631101191043854,0.16454094648361206,0.23701494932174683,0.4432046413421631,0.7527682781219482,0.42000001668930054,-0.3639456033706665,-2.9977598190307617,-1.3984581232070923,-2.9990382194519043,-0.1924075484275818,-0.1949981153011322,-0.19928483664989471,-0.19180946052074432,0.5658900141716003,0.5156685709953308,0.46348878741264343,0.23903514444828033
0.6333333333333333,0.09118139743804932,0.046227794140577316,0.0,0.6487895250320435,0.0,0.0,-0.7609679102897644,0.690316915512085,-0.20457611978054047,0.0,0.0,0.0,1.5822261571884155,0.4395619332790375,0.7526739835739136,0.4200000464916229,0.5902320742607117,1.0786526871697788e-07,-3.6153367091174005e-06,-0.8072335720062256,0.0001250170753337443,-0.00015483738388866186,-5.143578164279461e-05,0.0006023920723237097,-0.0018604532815515995,-0.0006971933762542903,0.4354709982872009,0.7641122937202454,0.4345672130584717,-0.154939204454422,0.13756436109542847,0.30840638279914856,0.4432046413421631,0.7527682781219482,0.42000001668930054,-0.4139593839645386,-3.0000007152557373,-1.4484765529632568,-3.0,-0.18351395428180695,-0.1867322474718094,-0.19160518050193787,-0.18755534291267395,0.38311439752578735,0.3778379261493683,0.37721291184425354,0.2077413946390152
0.65,0.10006623715162277,0.04563154652714729,0.0,0.6704740524291992,0.0,0.0,-0.7419329881668091,0.4814058840274811,0.011130057275295258,0.0,0.0,0.0,4.65553092956543,0.4395619332790375,0.7526739239692688,0.4200000464916229,0.5902316570281982,3.724952932770975e-07,-3.2239374831988243e-06,-0.8072339296340942,0.00011574200470931828,-0.0002773828455246985,-9.126146323978901e-05,0.006449877750128508,-0.001373385894112289,-0.0006620672065764666,0.4342421889305115,0.7638117671012878,0.43752551078796387,-0.03080361895263195,-0.07256161421537399,0.26012611389160156,0.4432046413421631,0.7527682781219482,0.42000001668930054,-0.46396175026893616,-2.9999797344207764,-1.4984768629074097,-2.9999687671661377,-0.1790662556886673,-0.1817500740289688,-0.18580572307109833,-0.18349391222000122,0.253486305475235,0.30448827147483826,0.382405161857605,0.32248634099960327
0.6666666666666666,0.10925210267305374,0.0426991768181324,0.0,0.6801333427429199,0.0,0.0,-0.7330884337425232,0.5775920152664185,-0.2238851636648178,0.0,0.0,0.0,0.5204624533653259,0.4395619332790375,0.7526739239692688,0.4200000464916229,0.5902320146560669,3.538755208865041e-07,-3.314073182991706e-06,-0.8072335720062256,0.00011619532597251236,-0.00027212934219278395,-9.135296568274498e-05,0.006304016336798668,-0.00135091133415699,-0.0006581038469448686,0.43507254123687744,0.7637835144996643,0.44255468249320984,0.09873762726783752,-0.051673032343387604,0.3543326258659363,0.4432046413421631,0.7527682781219482,0.42000001668930054,-0.5139732956886292,-2.9999988079071045,-1.548492670059204,-3.000000238418579,-0.17544588446617126,-0.17705030739307404,-0.17947104573249817,-0.17756600677967072,0.17493551969528198,0.2541022002696991,0.3699612617492676,0.3762108087539673
0.6833333333333333,0.12008780986070633,0.036565687507390976,0.0,0.6676046848297119,0.0,0.0,-0.7445159554481506,0.6866584420204163,-0.437725305557251,0.0,0.0,0.0,-2.9104902744293213,0.4395619034767151,0.7526739239692688,0.4200000464916229,0.590231716632843,4.911281052955019e-07,-3.1493616461375495e-06,-0.8072338104248047,0.00011726361117325723,-0.00027087749913334846,-9.155296720564365e-05,0.006268307100981474,-0.0013300504069775343,-0.0006587471580132842,0.44142505526542664,0.7653921842575073,0.455632746219635,0.6364008188247681,0.17252296209335327,1.2934389114379883,0.4432046413421631,0.7527682781219482,0.42000001668930054,-0.5639858841896057,-2.9999825954437256,-1.5985081195831299,-3.0000007152557373,-0.17432484030723572,-0.17457400262355804,-0.17499294877052307,-0.17267832159996033,0.019961614161729813,0.09996902942657471,0.21935240924358368,0.2557833790779114
0.7,0.13395144045352936,0.034722503274679184,0.0,0.6333520412445068,0.0,0.0,-0.7738638520240784,0.8228982090950012,-0.07641154527664185,0.0,0.0,0.0,-6.254761219024658,0.4395619332790375,0.7526739239692688,0.4200000464916229,0.5902316570281982,4.285646468815685e-07,-3.0963158224039944e-06,-0.8072338104248047,0.00011853317846544087,-0.0002713011926971376,-9.178672917187214e-05,0.006271746475249529,-0.0013159633381292224,-0.0006620754138566554,0.460360050201416,0.7650567889213562,0.4829444885253906,1.670322060585022,-0.10679072141647339,2.0665946006774902,0.4432046413421631,0.7527682781219482,0.42000001668930054,-0.6139966249465942,-2.999844551086426,-1.6485226154327393,-2.999983787536621,-0.17962515354156494,-0.17767053842544556,-0.17527775466442108,-0.1713886559009552,-0.28441712260246277,-0.1678704470396042,-0.013152972795069218,0.08163412660360336
0.7166666666666667,0.14500340819358826,0.034407492727041245,0.0,0.6140514016151428,0.0,0.0,-0.789266049861908,0.5905317068099976,0.015704849734902382,0.0,0.0,0.0,-1.9010344743728638,0.4395619332790375,0.7526739239692688,0.4200000464916229,0.5902316570281982,4.2545474343569367e-07,-3.1876061257207766e-06,-0.8072338104248047,0.00011922582052648067,-0.00027139464509673417,-9.200186468660831e-05,0.0062697711400687695,-0.0013098714407533407,-0.0006638740305788815,0.48811835050582886,0.7656348347663879,0.5186641216278076,1.5462315082550049,0.18972136080265045,2.2128987312316895,0.4432046413421631,0.7527682781219482,0.42000001668930054,-0.6323585510253906,0.49858060479164124,-1.6985371112823486,-3.0,-0.1823350489139557,-0.17933772504329681,-0.175349622964859,-0.170710027217865,-0.0593833364546299,-0.04325364902615547,4.746834747493267e-08,9.10949893295765e-09
0.7333333333333333,0.15135957300662994,0.036403533071279526,0.0,0.6199345588684082,0.0,0.0,-0.7846535444259644,0.3075897991657257,0.16651169955730438,0.0,0.0,0.0,1.755956768989563,0.4395619332790375,0.7526739239692688,0.4200000464916229,0.5902316570281982,4.393129131585738e-07,-3.093960913247429e-06,-0.8072338104248047,0.00011867025750689209,-0.0002714000875130296,-9.185844101011753e-05,0.006273116450756788,-0.0013160915113985538,-0.0006625797832384706,0.5082401037216187,0.7686378955841064,0.5494799613952637,0.8093665838241577,0.20265337824821472,1.5550193786621094,0.4432046413421631,0.7527682781219482,0.42000001668930054,-0.6015098094940186,2.961562156677246,-1.659247636795044,3.0,-0.18189668655395508,-0.1788017451763153,-0.1743263155221939,-0.16978779435157776,0.09925998002290726,0.09772992879152298,0.1142292320728302,0.10125564783811569
0.75,0.15348349511623383,0.03437243774533272,0.0,0.6140435338020325,0.0,0.0,-0.7892721891403198,0.10427813977003098,-0.17326390743255615,0.0,0.0,0.0,-1.8036845922470093,0.4395619332790375,0.7526739239692688,0.4200000464916229,0.5902316570281982,4.3614267042357824e-07,-3.185295327057247e-06,-0.8072338104248047,0.00011916365474462509,-0.00027134589618071914,-9.198603220283985e-05,0.0062689571641385555,-0.001310365041717887,-0.0006636464968323708,0.5141779184341431,0.7730515003204346,0.5684728026390076,-0.12000486254692078,0.1993856132030487,0.8772751688957214,0.4432046413421631,0.7527682781219482,0.42000001668930054,-0.5701404809951782,0.9519497156143188,-1.6091911792755127,3.0,-0.17779003083705902,-0.17499704658985138,-0.17060622572898865,-0.16654495894908905,0.17490600049495697,0.18026185035705566,0.19096599519252777,0.17916107177734375
0.7666666666666666,0.1528288573026657,0.03734945133328438,0.0,0.6205053329467773,0.0,0.0,-0.7842022180557251,-0.08765070140361786,0.3128601312637329,0.0,0.0,0.0,1.8801072835922241,0.4395619332790375,0.7526739239692688,0.4200000464916229,0.5902316570281982,4.1597172639740165e-07,-3.091099642915651e-06,-0.8072338104248047,0.00011872805771417916,-0.0002714467409532517,-9.187054820358753e-05,0.006273829843848944,-0.001315668341703713,-0.0006627728580497205,0.5089377760887146,0.774195671081543,0.5795985460281372,-0.46239396929740906,0.0751214548945427,0.5102142095565796,0.4432046413421631,0.7527682781219482,0.42000001668930054,-0.5353008508682251,2.999995470046997,-1.5591652393341064,3.000000238418579,-0.17990151047706604,-0.17597618699073792,-0.17054107785224915,-0.16586732864379883,-0.16706222295761108,-0.09711427986621857,-0.037044934928417206,9.058112482307479e-08
0.7833333333333333,0.15038758516311646,0.036916617304086685,0.0,0.6150429844856262,0.0,0.0,-0.7884935736656189,-0.1804463416337967,-0.13068801164627075,0.0,0.0,0.0,-1.7442398071289062,0.4395619332790375,0.7526739239692688,0.4200000464916229,0.5902316570281982,4.127958845856483e-07,-3.1823576591705205e-06,-0.8072338104248047,0.00011922651901841164,-0.00027139318990521133,-9.199907071888447e-05,0.006269640754908323,-0.0013099779607728124,-0.0006638598279096186,0.49623334407806396,0.7753982543945312,0.5824949741363525,-1.081252932548523,0.02309054136276245,0.013553015887737274,0.4432046413421631,0.7527682781219482,0.42000001668930054,-0.5187521576881409,-0.7072610855102539,-1.5091087818145752,3.000000238418579,-0.1794011890888214,-0.17497195303440094,-0.16915978491306305,-0.16433116793632507,0.10057767480611801,0.12007839232683182,0.13101480901241302,0.13368786871433258
0.8,0.14986488223075867,0.03910659998655319,0.0,0.6209092736244202,0.0,0.0,-0.7838824391365051,0.021790631115436554,0.1535762995481491,0.0,0.0,0.0,1.5909024477005005,0.4395619332790375,0.7526739239692688,0.4200000464916229,0.5902316570281982,4.26676479037269e-07,-3.088666517214733e-06,-0.8072338104248047,0.00011873178300447762,-0.00027144773048348725,-9.1874273493886e-05,0.006273871753364801,-0.00131564075127244,-0.000662767153698951,0.4836209714412689,0.776769757270813,0.5817928314208984,-0.39284902811050415,0.21886594593524933,-0.04115179181098938,0.4432046413421631,0.7527682781219482,0.42000001668930054,-0.5087480545043945,1.6928889751434326,-1.5250775814056396,-3.0,-0.179461270570755,-0.17481587827205658,-0.16884881258010864,-0.16385142505168915,0.13701097667217255,0.10306137800216675,0.07180047035217285,0.052434153854846954
0.8166666666666667,0.1516379863023758,0.03836236521601677,0.0,0.6144337058067322,0.0,0.0,-0.7889684438705444,0.152985617518425,-0.0781700536608696,0.0,0.0,0.0,-1.8364485502243042,0.4395619332790375,0.7526739239692688,0.4200000464916229,0.5902316570281982,4.2348145257165015e-07,-3.1798952022654703e-06,-0.8072338104248047,0.00011922648991458118,-0.0002713959838729352,-9.200023487210274e-05,0.006269730161875486,-0.0013099147472530603,-0.000663864309899509,0.47765615582466125,0.7799294590950012,0.5787515640258789,-0.313618928194046,0.08090517669916153,-0.16271424293518066,0.4432046413421631,0.7527682781219482,0.42000001668930054,-0.5252987146377563,-3.0000007152557373,-1.4862780570983887,3.0000011920928955,-0.17656195163726807,-0.17264419794082642,-0.16732926666736603,-0.16269907355308533,0.09611581265926361,0.0713682696223259,0.04972868412733078,0.045937418937683105
0.8333333333333334,0.15593568980693817,0.03736552223563194,0.0,0.6202186942100525,0.0,0.0,-0.7844289541244507,0.29461240768432617,-0.08817324042320251,0.0,0.0,0.0,1.7585288286209106,0.4395619332790375,0.7526739239692688,0.4200000464916229,0.5902316570281982,4.313924648613465e-07,-3.085067191932467e-06,-0.8072338104248047,0.00011868021101690829,-0.00027139726444147527,-9.186356328427792e-05,0.006272962316870689,-0.0013160448288545012,-0.0006626136018894613,0.4767613410949707,0.7797064781188965,0.5772168040275574,0.17838674783706665,-0.056607794016599655,0.021587997674942017,0.4432046413421631,0.7527682781219482,0.42000001668930054,-0.565234899520874,-1.858636736869812,-1.5027225017547607,-3.000000476837158,-0.17630966007709503,-0.17229348421096802,-0.16678889095783234,-0.1616186499595642,0.030770011246204376,0.04509805142879486,0.06761658936738968,0.11485003679990768
0.85,0.16207973659038544,0.03377845138311386,0.0,0.6142155528068542,0.0,0.0,-0.7891383171081543,0.4064283072948456,-0.27672824263572693,0.0,0.0,0.0,-1.81094491481781,0.4395619332790375,0.7526739239692688,0.4200000464916229,0.5902316570281982,4.282153440726688e-07,-3.176359541612328e-06,-0.8072338104248047,0.00011922512203454971,-0.0002713948779273778,-9.2001399025321e-05,0.0062697818502783775,-0.0013099086936563253,-0.0006638470222242177,0.48251792788505554,0.776296854019165,0.57415771484375,0.518500566482544,-0.3499014675617218,-0.20911099016666412,0.4432046413421631,0.7527682781219482,0.42000001668930054,-0.6098442673683167,-2.9999969005584717,-1.5527293682098389,-3.000000476837158,-0.17683903872966766,-0.17217792570590973,-0.16585887968540192,-0.1594318151473999,-0.03459049016237259,0.021627143025398254,0.08845600485801697,0.1822202354669571
0.8666666666666667,0.17087601125240326,0.03236888721585274,0.0,0.587306022644043,0.0,0.0,-0.809364914894104,0.5763915777206421,-0.021970726549625397,0.0,0.0,0.0,-4.924393653869629,0.4395619332790375,0.7526739239692688,0.4200000464916229,0.5902316570281982,4.361193646218453e-07,-3.0815767786407378e-06,-0.8072338104248047,0.00011868198635056615,-0.00027139700250700116,-9.186239913105965e-05,0.006272910628467798,-0.0013159691588953137,-0.0006625974201597273,0.4941045343875885,0.7706950902938843,0.572392463684082,0.8647019863128662,-0.32953372597694397,0.133395716547966,0.4432046413421631,0.7527682781219482,0.42000001668930054,-0.6378326416015625,-0.5481242537498474,-1.6027476787567139,-2.999999523162842,-0.17770962417125702,-0.17270810902118683,-0.1658579558134079,-0.15843065083026886,-0.01969987340271473,-0.025016510859131813,-0.020735427737236023,0.010234920307993889
0.8833333333333333,0.1770625114440918,0.03340693935751915,0.0,0.5752394199371338,0.0,0.0,-0.8179850578308105,0.2872883081436157,0.10157134383916855,0.0,0.0,0.0,-0.7627375721931458,0.4395619332790375,0.7526739239692688,0.4200000464916229,0.5902316570281982,4.2699716118477227e-07,-3.171660637235618e-06,-0.8072338104248047,0.00011923705460503697,-0.000271391385467723,-9.200419299304485e-05,0.006269496865570545,-0.0013099242933094501,-0.0006638870108872652,0.5054924488067627,0.7686377167701721,0.5752321481704712,0.4670356512069702,0.0258629210293293,0.18948765099048615,0.4432046413421631,0.7527682781219482,0.42000001668930054,-0.6213551163673401,2.2664995193481445,-1.5783238410949707,2.999999761581421,-0.17587575316429138,-0.17154133319854736,-0.1652594357728958,-0.15801410377025604,0.18825598061084747,0.1247226893901825,0.06227700039744377,0.018237417563796043
