vladlanda/robotic-transformer/data/env_000_episode_0101.csv
sim_time_s,robot_box_x,robot_box_y,robot_box_z,robot_box_quat_w,robot_box_quat_x,robot_box_quat_y,robot_box_quat_z,robot_box_linvel_x,robot_box_linvel_y,robot_box_linvel_z,robot_box_angvel_x,robot_box_angvel_y,robot_box_angvel_z,cube_world_x,cube_world_y,cube_world_z,cube_quat_w,cube_quat_x,cube_quat_y,cube_quat_z,cube_linvel_x,cube_linvel_y,cube_linvel_z,cube_angvel_x,cube_angvel_y,cube_angvel_z,endpoint_world_x,endpoint_world_y,endpoint_world_z,endpoint_linvel_x,endpoint_linvel_y,endpoint_linvel_z,target_cube_world_x,target_cube_world_y,target_cube_world_z,gripper_actual_pos_rad_gp_leftgearjoint,gripper_actual_vel_rad_s_gp_leftgearjoint,gripper_actual_pos_rad_gp_rotatingjoint,gripper_actual_vel_rad_s_gp_rotatingjoint,motor_angle_rad_joint1,motor_angle_rad_joint2,motor_angle_rad_joint3,motor_angle_rad_joint4,motor_speed_rad_s_joint1,motor_speed_rad_s_joint2,motor_speed_rad_s_joint3,motor_speed_rad_s_joint4
0.0,0.0,0.0,0.0,1.0,0.0,0.0,0.0,0.0,0.0,0.0,0.0,0.0,0.0,-0.410512775182724,0.7012433409690857,0.41999998688697815,1.0,0.0,0.0,0.0,0.0,0.0,0.0,0.0,0.0,0.0,3.42540442943573e-06,-0.005000244826078415,1.313499927520752,0.0,0.0,0.0,0.3476825952529907,0.6515153050422668,0.42000001668930054,-1.5707999467849731,0.0,0.0,0.0,0.0,0.0,0.0,0.0,0.0,0.0,0.0,0.0
0.016666666666666666,0.0028778850100934505,0.0021806680597364902,0.0,0.9998081922531128,0.0,0.0,0.019586581736803055,0.24087215960025787,0.18240931630134583,0.0,0.0,0.0,3.1418697834014893,-0.41051289439201355,0.7012430429458618,0.41999998688697815,1.0,3.279964630564791e-06,-8.339746386809566e-07,8.465587342243452e-08,-1.9833529222523794e-05,0.00017983045836444944,-6.132945418357849e-05,0.0009432713268324733,-0.004689474124461412,-0.00031981561915017664,-0.007110234349966049,0.003379564033821225,1.3159373998641968,-0.8143353462219238,0.9868683815002441,0.18095196783542633,0.3476825952529907,0.6515153050422668,0.42000001668930054,-1.5301095247268677,3.0000011920928955,-0.04584788903594017,-2.9999992847442627,0.0008691533003002405,0.0007963840034790337,0.0007110277656465769,0.0006108740926720202,0.11094217747449875,0.09756709635257721,0.08334315568208694,0.06823883205652237
0.03333333333333333,0.008960975334048271,0.006801933515816927,0.0,0.9997960329055786,0.0,0.0,0.020196834579110146,0.40702125430107117,0.31530869007110596,0.0,0.0,0.0,-0.8691308498382568,-0.4105130136013031,0.701242983341217,0.4200000464916229,1.0,3.3908179375430336e-06,-2.132458348569344e-06,-3.7097745320124886e-08,0.00026357852038927376,0.00026937833172269166,-0.00010509369894862175,-0.0017707126680761576,0.004130884539335966,-0.0001354814594378695,-0.027549713850021362,0.02607562765479088,1.316615104675293,-1.5915107727050781,1.6155660152435303,-0.08277382701635361,0.3476825952529907,0.6515153050422668,0.42000001668930054,-1.4800904989242554,3.000001907348633,-0.09588771313428879,-3.000000476837158,0.002990138716995716,0.0026527619920670986,0.002277345396578312,0.0018608119571581483,0.1642209142446518,0.1397654265165329,0.11382538080215454,0.08630825579166412
0.05,0.01745404116809368,0.013708853162825108,0.0,0.9994943141937256,0.0,0.0,0.03179777413606644,0.5821787118911743,0.4610437750816345,0.0,0.0,0.0,2.7230045795440674,-0.4105130434036255,0.7012430429458618,0.4200000464916229,1.0,3.7651293496310245e-06,-2.2119379536889028e-06,5.6273887771851605e-09,0.0002653067058417946,0.00026691422681324184,-0.00010440615005791187,-0.0017243530601263046,0.00417736079543829,-0.00012949267693329602,-0.05945809558033943,0.05400949716567993,1.3116143941879272,-2.1847214698791504,1.7397397756576538,-0.47095438838005066,0.3476825952529907,0.6515153050422668,0.42000001668930054,-1.4300721883773804,2.999997854232788,-0.145926371216774,-3.0000014305114746,0.005597362760454416,0.004811081103980541,0.003952743485569954,0.0030177708249539137,0.18928784132003784,0.15254954993724823,0.11395072937011719,0.07339401543140411
0.06666666666666667,0.028587928041815758,0.02293025702238083,0.0,0.9995414614677429,0.0,0.0,0.03028007782995701,0.7095106244087219,0.5910854935646057,0.0,0.0,0.0,-1.1404327154159546,-0.4105130434036255,0.701242983341217,0.4200000464916229,0.9999999403953552,3.406754103707499e-06,-2.2856077066535363e-06,4.300980265270482e-07,0.0002670255198609084,0.0002679179306142032,-0.0001043803058564663,-0.001740670995786786,0.004211848136037588,-0.00012850687198806554,-0.09608164429664612,0.08861267566680908,1.299835205078125,-2.246819257736206,2.2828621864318848,-0.917513906955719,0.3476825952529907,0.6515153050422668,0.42000001668930054,-1.3800538778305054,3.0000011920928955,-0.19564124941825867,-2.9355621337890625,0.007940592244267464,0.006397525779902935,0.004743960220366716,0.0029732128605246544,0.12621186673641205,0.06806661933660507,0.007875198498368263,-0.05441323295235634
0.08333333333333333,0.03389666974544525,0.0355178527534008,0.0,0.9999969601631165,0.0,0.0,-0.0024734220933169127,0.1792849749326706,0.8234931230545044,0.0,0.0,0.0,-4.86648416519165,-0.4105130434036255,0.701242983341217,0.4200000464916229,0.9999999403953552,3.6260603337723296e-06,-2.3353738924924983e-06,3.0322857469400333e-07,0.00026613770751282573,0.00026685066404752433,-0.00010405178181827068,-0.0017283547203987837,0.004196325317025185,-0.000127911422168836,-0.13199295103549957,0.1307554990053177,1.280365228652954,-2.1055803298950195,2.6403417587280273,-1.3286365270614624,0.3476825952529907,0.6515153050422668,0.42000001668930054,-1.33002769947052,2.9999942779541016,-0.16153210401535034,2.999999523162842,0.004526633303612471,0.002321661449968815,-4.462201468413696e-05,-0.002582658315077424,-0.30410686135292053,-0.34826913475990295,-0.39499831199645996,-0.4445585012435913
0.1,0.043694738298654556,0.04934293404221535,0.0,0.9998197555541992,0.0,0.0,-0.018986135721206665,0.6700980067253113,0.8473383784294128,0.0,0.0,0.0,-0.605762779712677,-0.4105130434036255,0.701242983341217,0.4200000464916229,1.0,3.4220743145851884e-06,-2.30867885875341e-06,1.7964234189093986e-07,0.0002668164379429072,0.0002680036413948983,-0.00010440708138048649,-0.0017430284060537815,0.004207152873277664,-0.00012891023652628064,-0.16932427883148193,0.17092952132225037,1.2601269483566284,-2.2559661865234375,2.4224936962127686,-1.2215044498443604,0.3476825952529907,0.6515153050422668,0.42000001668930054,-1.280031442642212,2.9999985694885254,-0.19322581589221954,-3.0000009536743164,0.004906143993139267,0.0011129974154755473,-0.0028354558162391186,-0.006949360482394695,0.024995960295200348,-0.07824636250734329,-0.18060541152954102,-0.28201523423194885
0.11666666666666667,0.051433224231004715,0.061018042266368866,0.0,0.9989749193191528,0.0,0.0,-0.04526640474796295,0.4571983218193054,0.6521844267845154,0.0,0.0,0.0,-3.8363614082336426,-0.4105130434036255,0.7012430429458618,0.4200000464916229,1.0,3.7114557471795706e-06,-2.332793883397244e-06,2.5744137133187905e-07,0.0002648575755301863,0.00026635421090759337,-0.00010423525236546993,-0.001718215993605554,0.004170078784227371,-0.00012915751722175628,-0.20316436886787415,0.21801713109016418,1.238372564315796,-1.8424358367919922,3.17045259475708,-1.3282536268234253,0.3476825952529907,0.6515153050422668,0.42000001668930054,-1.2300089597702026,2.999993085861206,-0.15946775674819946,3.0,0.0034978848416358232,-0.0021682712249457836,-0.007960627786815166,-0.01388811506330967,-0.05385730788111687,-0.18393275141716003,-0.3109739124774933,-0.43479034304618835
0.13333333333333333,0.05627032369375229,0.07301805168390274,0.0,0.9953463077545166,0.0,0.0,-0.09636245667934418,0.21848945319652557,0.7912232279777527,0.0,0.0,0.0,-6.928816318511963,-0.4105130434036255,0.701242983341217,0.4200000464916229,1.0,3.335647988933488e-06,-2.2320116386254085e-06,3.113250670594425e-07,0.00026669682119973004,0.000267594848992303,-0.00010428694076836109,-0.0017371177673339844,0.004205875098705292,-0.00012840732233598828,-0.2345747947692871,0.27214181423187256,1.2147490978240967,-1.894540786743164,3.3408074378967285,-1.5480144023895264,0.3476825952529907,0.6515153050422668,0.42000001668930054,-1.1939606666564941,1.430497407913208,-0.19122067093849182,-2.999999761581421,0.0013599563390016556,-0.0063845631666481495,-0.014189577661454678,-0.02206059731543064,-0.20392857491970062,-0.31444838643074036,-0.42089495062828064,-0.5231029987335205
0.15,0.058303382247686386,0.08344761282205582,0.0,0.9919610023498535,0.0,0.0,-0.12654374539852142,0.04722938686609268,0.5593674778938293,0.0,0.0,0.0,-2.5329649448394775,-0.4105130434036255,0.701242983341217,0.4200000464916229,1.0,3.518864104989916e-06,-2.283212324982742e-06,-3.625428917075624e-07,0.00026618369156494737,0.00026735756546258926,-0.00010425550863146782,-0.0017349214758723974,0.004195664543658495,-0.00012860912829637527,-0.2728460431098938,0.3257526755332947,1.182584285736084,-2.307224750518799,3.41660737991333,-2.275428533554077,0.3476825952529907,0.6515153050422668,0.42000001668930054,-1.1497448682785034,2.9999990463256836,-0.1736556738615036,2.999999761581421,-0.0026155116502195597,-0.011896747164428234,-0.021161172538995743,-0.030413806438446045,-0.30717524886131287,-0.37755700945854187,-0.44356435537338257,-0.5052952766418457
0.16666666666666666,0.06367088109254837,0.09417461603879929,0.0,0.9856141805648804,0.0,0.0,-0.16901078820228577,0.3510849177837372,0.6645944118499756,0.0,0.0,0.0,-5.930517196655273,-0.4105130434036255,0.701242983341217,0.4200000464916229,1.0,3.666546717795427e-06,-2.3392813091049902e-06,-3.150027225728991e-07,0.0002659583115018904,0.00026667400379665196,-0.00010403734631836414,-0.001725324080325663,0.004192811902612448,-0.00012778834206983447,-0.3090117573738098,0.38580137491226196,1.1423313617706299,-1.9630182981491089,3.8328239917755127,-2.565488338470459,0.3476825952529907,0.6515153050422668,0.42000001668930054,-1.0998122692108154,2.9805383682250977,-0.20530012249946594,-2.999999761581421,-0.0076951514929533005,-0.01816381886601448,-0.028544628992676735,-0.03884398192167282,-0.4601227641105652,-0.5100281834602356,-0.5569934248924255,-0.6011009812355042
0.18333333333333332,0.06541929394006729,0.102950818836689,0.0,0.9813922047615051,0.0,0.0,-0.19201377034187317,0.09312637895345688,0.44583824276924133,0.0,0.0,0.0,-1.581441044807434,-0.4105130434036255,0.701242983341217,0.4200000464916229,1.0,3.8142911762406584e-06,-2.3995992251002463e-06,-2.7027797955270216e-07,0.00026548971072770655,0.000266111281234771,-0.00010391324758529663,-0.0017178148264065385,0.004184778779745102,-0.00012754148337990046,-0.3442312479019165,0.4459773004055023,1.0898362398147583,-1.9385372400283813,3.723031997680664,-3.559793472290039,0.3476825952529907,0.6515153050422668,0.42000001668930054,-1.0591093301773071,1.9580554962158203,-0.2553282082080841,-3.000000238418579,-0.020032186061143875,-0.030363980680704117,-0.04059251770377159,-0.05073447898030281,-0.7278098464012146,-0.7076124548912048,-0.6863352060317993,-0.6646496057510376
0.2,0.06363736093044281,0.1129414513707161,0.0,0.9742381572723389,0.0,0.0,-0.22552169859409332,-0.15857841074466705,0.6083120703697205,0.0,0.0,0.0,-4.908524513244629,-0.4105130434036255,0.701242983341217,0.4200000464916229,1.0,3.5999869396619033e-06,-2.2913013708603103e-06,-2.201937832069234e-07,0.00026573010836727917,0.0002664492931216955,-0.00010398332960903645,-0.0017227825010195374,0.004188841208815575,-0.00012773113849107176,-0.37508201599121094,0.5092372298240662,1.02357816696167,-1.6556854248046875,3.847064971923828,-4.290798187255859,0.3476825952529907,0.6515153050422668,0.42000001668930054,-1.0108389854431152,3.0000014305114746,-0.30535459518432617,-3.0000011920928955,-0.035341523587703705,-0.04523852467536926,-0.0547293983399868,-0.06413799524307251,-0.9357092976570129,-0.9061483144760132,-0.8592984080314636,-0.8122067451477051
0.21666666666666667,0.06597638130187988,0.12411605566740036,0.0,0.9582955241203308,0.0,0.0,-0.28577911853790283,0.10334673523902893,0.7525058388710022,0.0,0.0,0.0,-8.375653266906738,-0.4105130434036255,0.701242983341217,0.4200000464916229,0.9999999403953552,3.639563374235877e-06,-2.2620122308580903e-06,2.2247465381042275e-07,0.00026687391800805926,0.0002675444120541215,-0.00010411837138235569,-0.001740379841066897,0.004211025312542915,-0.00012783984129782766,-0.4002259373664856,0.5760015845298767,0.9431841969490051,-1.1518726348876953,3.995004177093506,-5.279605865478516,0.3476825952529907,0.6515153050422668,0.42000001668930054,-0.9608336687088013,3.0000011920928955,-0.35538291931152344,-2.9999992847442627,-0.050015658140182495,-0.05949470028281212,-0.06833424419164658,-0.0769709125161171,-0.9871165156364441,-0.989126980304718,-0.9907156825065613,-0.937065064907074
0.23333333333333334,0.06483891606330872,0.1332235336303711,0.0,0.944926381111145,0.0,0.0,-0.32728302478790283,-0.10873539000749588,0.5068483352661133,0.0,0.0,0.0,-3.9800925254821777,-0.4105130136013031,0.701242983341217,0.4200000464916229,1.0,3.420630036998773e-06,-2.3168879579316126e-06,2.955902687062917e-07,0.0002668013039510697,0.0002680388279259205,-0.00010442384518682957,-0.0017437251517549157,0.004206957295536995,-0.00012900005094707012,-0.4206598401069641,0.6314990520477295,0.8492579460144043,-0.8183532953262329,3.111811399459839,-6.0209784507751465,0.3476825952529907,0.6515153050422668,0.42000001668930054,-0.9108229875564575,2.9999983310699463,-0.4054132401943207,-3.000000476837158,-0.06601739674806595,-0.0755368173122406,-0.08440980315208435,-0.09307718276977539,-0.9888417720794678,-0.9834609031677246,-0.9752928018569946,-0.9665669202804565
0.25,0.06611604243516922,0.13770939409732819,0.0,0.9427380561828613,0.0,0.0,-0.33353403210639954,0.1645697057247162,0.1422504484653473,0.0,0.0,0.0,0.1676180213689804,-0.4105130434036255,0.701242983341217,0.4200000464916229,0.9999999403953552,3.347485289850738e-06,-2.2592903405893594e-06,1.8084206487856136e-07,0.0002668781380634755,0.00026791184791363776,-0.0001043954398483038,-0.001740514999255538,0.004208283498883247,-0.000128701634821482,-0.4372478723526001,0.6704944372177124,0.7478415966033936,-0.8010880947113037,1.8364906311035156,-6.252701759338379,0.3476825952529907,0.6515153050422668,0.42000001668930054,-0.8608123064041138,2.999997615814209,-0.45544490218162537,-3.0000009536743164,-0.08216813951730728,-0.09160497784614563,-0.10042824596166611,-0.10906371474266052,-0.9842606782913208,-0.9731448888778687,-0.9631084203720093,-0.9533417820930481
0.26666666666666666,0.06396366655826569,0.1395808607339859,0.0,0.9356279373168945,0.0,0.0,-0.35298779606819153,-0.21457193791866302,0.03665655106306076,0.0,0.0,0.0,-3.324584722518921,-0.4105130434036255,0.701242983341217,0.4200000464916229,0.9999999403953552,3.707919859152753e-06,-2.392595661149244e-06,-1.2726982845379098e-07,0.00026603692094795406,0.00026716693537309766,-0.00010421336628496647,-0.0017321702325716615,0.004193120636045933,-0.00012854926171712577,-0.4438556432723999,0.692054271697998,0.6410729885101318,0.029482394456863403,0.7499684691429138,-6.345870018005371,0.3476825952529907,0.6515153050422668,0.42000001668930054,-0.810802698135376,2.9999992847442627,-0.5054762363433838,-2.999999523162842,-0.09995599091053009,-0.10909277945756912,-0.11769095808267593,-0.1261514574289322,-1.000849962234497,-1.0006383657455444,-1.00047767162323,-1.000349760055542
0.2833333333333333,0.05788459628820419,0.13894934952259064,0.0,0.9346893429756165,0.0,0.0,-0.35546571016311646,-0.303968220949173,-0.1146332323551178,0.0,0.0,0.0,0.5628408789634705,-0.4105130434036255,0.7012430429458618,0.4200000464916229,0.9999999403953552,3.5725404359254753e-06,-2.304164354427485e-06,1.2984229158519156e-07,0.0002652165130712092,0.00026455134502612054,-0.00010317238047719002,-0.0017021878156811,0.004185077268630266,-0.00012500181037466973,-0.44093239307403564,0.697882354259491,0.5434201955795288,0.35972219705581665,0.12192867696285248,-5.481021881103516,0.3476825952529907,0.6515153050422668,0.42000001668930054,-0.760793924331665,2.9999961853027344,-0.5555058717727661,-2.9999985694885254,-0.11691182106733322,-0.12596777081489563,-0.1345362514257431,-0.14299137890338898,-0.8053608536720276,-0.850437343120575,-0.8925784826278687,-0.9302192330360413
0.3,0.05097163841128349,0.13539008796215057,0.0,0.9287042021751404,0.0,0.0,-0.3708213269710541,-0.46336278319358826,-0.25654858350753784,0.0,0.0,0.0,-2.826784133911133,-0.4105130434036255,0.701242983341217,0.4200000464916229,1.0,3.744931063920376e-06,-2.238220076833386e-06,-1.7679303709883243e-07,0.00026436246116645634,0.00026623631129041314,-0.00010443315841257572,-0.0017120876582339406,0.004158840514719486,-0.0001299011637456715,-0.4303704500198364,0.7036101222038269,0.45316165685653687,0.9636633396148682,0.36764752864837646,-5.082564353942871,0.3476825952529907,0.6515153050422668,0.42000001668930054,-0.7107859253883362,3.000000238418579,-0.6055335998535156,-3.000001907348633,-0.13412146270275116,-0.14308544993400574,-0.1515832096338272,-0.15997982025146484,-1.0196008682250977,-1.0148476362228394,-1.0112144947052002,-1.0082992315292358
0.31666666666666665,0.042002204805612564,0.12956836819648743,0.0,0.9291704297065735,0.0,0.0,-0.3696516454219818,-0.5745173096656799,-0.3896082043647766,0.0,0.0,0.0,1.0794545412063599,-0.410102516412735,0.7024879455566406,0.4209187924861908,0.9993311762809753,2.3120628611650318e-05,0.022983454167842865,-0.028441404923796654,0.1098998486995697,0.272369921207428,0.1817779541015625,-0.08005920797586441,9.097559928894043,-11.246277809143066,-0.42308542132377625,0.7076616287231445,0.42375850677490234,0.4515494108200073,0.3051850497722626,-0.14396339654922485,0.3476825952529907,0.6515153050422668,0.42000001668930054,-0.6609876751899719,2.963217258453369,-0.6561402678489685,-2.8043806552886963,-0.14347240328788757,-0.15281695127487183,-0.16145451366901398,-0.1696873903274536,-0.27641311287879944,-0.2868350148200989,-0.2757031321525574,-0.23742561042308807
0.3333333333333333,0.030822040513157845,0.12150698155164719,0.0,0.9239369630813599,0.0,0.0,-0.38254475593566895,-0.7170969247817993,-0.5226403474807739,0.0,0.0,0.0,-2.5860602855682373,-0.4083234965801239,0.7066793441772461,0.4227822422981262,0.991366446018219,0.007285904139280319,0.0745057463645935,-0.10764855891466141,0.10475434362888336,0.2434311807155609,0.08901255577802658,0.7047837376594543,4.964885234832764,-8.945542335510254,-0.41796520352363586,0.7122851014137268,0.4258838891983032,0.46187329292297363,0.19254276156425476,-0.18155431747436523,0.3476825952529907,0.6515153050422668,0.42000001668930054,-0.6109812259674072,2.9999873638153076,-0.7062047123908997,-2.9999730587005615,-0.14871755242347717,-0.15752831101417542,-0.16527217626571655,-0.17217200994491577,-0.42252033948898315,-0.34271618723869324,-0.2466268390417099,-0.13055068254470825
0.35,0.01749279722571373,0.11118513345718384,0.0,0.9249254465103149,0.0,0.0,-0.3801485002040863,-0.8380724787712097,-0.6591344475746155,0.0,0.0,0.0,1.2515579462051392,-0.40574344992637634,0.7114536762237549,0.4234311282634735,0.9803284406661987,0.024837689474225044,0.08071405440568924,-0.17839422821998596,0.30740591883659363,0.44444385170936584,0.05201933532953262,4.014744281768799,-4.163471698760986,-3.2419285774230957,-0.4091552495956421,0.7177606821060181,0.4230712652206421,0.556260347366333,0.3814850449562073,-0.141793891787529,0.3476825952529907,0.6515153050422668,0.42000001668930054,-0.5609762072563171,2.9999866485595703,-0.7562481164932251,-2.9999990463256836,-0.15674133598804474,-0.1636895388364792,-0.1693325936794281,-0.17384715378284454,-0.4655545651912689,-0.3425306975841522,-0.2069791704416275,-0.056437984108924866
0.36666666666666664,0.0023245839402079582,0.09849578887224197,0.0,0.920063853263855,0.0,0.0,-0.3917684853076935,-0.975250244140625,-0.8041360378265381,0.0,0.0,0.0,-2.4493892192840576,-0.39985743165016174,0.7195573449134827,0.4231468737125397,0.979357898235321,0.041857343167066574,0.041376158595085144,-0.19337551295757294,0.44501960277557373,0.5692262649536133,-0.015186002478003502,1.529257893562317,-5.960864543914795,-1.090544581413269,-0.3987092673778534,0.7232983112335205,0.4214358329772949,0.7333506345748901,0.37357842922210693,-0.08569429814815521,0.3476825952529907,0.6515153050422668,0.42000001668930054,-0.5109713673591614,2.999990224838257,-0.8063015937805176,-2.9999947547912598,-0.16478364169597626,-0.1694866418838501,-0.17261868715286255,-0.17432884871959686,-0.43940606713294983,-0.3019753694534302,-0.14813175797462463,0.023357393220067024
0.3833333333333333,-0.010445439256727695,0.083016537129879,0.0,0.9034106135368347,0.0,0.0,-0.42877641320228577,-0.6914390325546265,-0.9812928438186646,0.0,0.0,0.0,-5.713493347167969,-0.388630747795105,0.7330060601234436,0.4231630265712738,0.973524272441864,0.06943981349468231,-0.025474287569522858,-0.21628575026988983,0.9153598546981812,1.02548348903656,0.11180431395769119,-0.44383472204208374,-5.348298072814941,-4.524540901184082,-0.3844480514526367,0.7327324151992798,0.4219549298286438,1.0458146333694458,0.8050079345703125,0.13389469683170319,0.3476825952529907,0.6515153050422668,0.42000001668930054,-0.4609341025352478,3.0000016689300537,-0.8563305139541626,-2.999969005584717,-0.17145653069019318,-0.17378373444080353,-0.17419125139713287,-0.17281973361968994,-0.33132991194725037,-0.19043295085430145,-0.02701575495302677,0.15911546349525452
0.4,-0.019093038514256477,0.06443994492292404,0.0,0.8725963234901428,0.0,0.0,-0.488442063331604,-0.45304015278816223,-1.1702929735183716,0.0,0.0,0.0,-8.900053024291992,-0.35724544525146484,0.7553399801254272,0.4259791374206543,0.960411012172699,0.05793385952711105,-0.05678100883960724,-0.2665151059627533,3.1252877712249756,1.300248384475708,-0.13750168681144714,36.8016357421875,-12.17471694946289,13.263547897338867,-0.3532145023345947,0.7546623945236206,0.4245240092277527,2.8517985343933105,1.9017150402069092,0.47075656056404114,0.3476825952529907,0.6515153050422668,0.42000001668930054,-0.4171237349510193,1.7069624662399292,-0.9063531756401062,-2.999730110168457,-0.17872583866119385,-0.1780816912651062,-0.17519107460975647,-0.17021852731704712,-0.5196973085403442,-0.30115899443626404,-0.06744154542684555,0.17842134833335876
0.4166666666666667,-0.025435635820031166,0.051211901009082794,0.0,0.8242937326431274,0.0,0.0,-0.5661624073982239,-0.3369539678096771,-0.6618506908416748,0.0,0.0,0.0,-11.793139457702637,-0.28281721472740173,0.7898252010345459,0.4304928183555603,0.9367124438285828,0.10860271751880646,-0.10523326694965363,-0.31575489044189453,5.826279640197754,2.116783618927002,0.25438937544822693,22.505325317382812,-19.016767501831055,3.9255924224853516,-0.27945035696029663,0.7892519235610962,0.42956793308258057,5.683649063110352,2.4621694087982178,0.43525561690330505,0.3476825952529907,0.6515153050422668,0.42000001668930054,-0.3964884579181671,1.0796645879745483,-0.8691313862800598,2.995680332183838,-0.1938021332025528,-0.18962642550468445,-0.1814526468515396,-0.17139817774295807,-0.896176815032959,-0.7848884463310242,-0.4721052348613739,-0.1829017698764801
0.43333333333333335,-0.03338263928890228,0.0446687787771225,0.0,0.7826963663101196,0.0,0.0,-0.6224037408828735,-0.5955449938774109,-0.3761534094810486,0.0,0.0,0.0,-7.17736291885376,-0.18939512968063354,0.8247349858283997,0.4406367242336273,0.8855435848236084,0.06108018755912781,-0.17062059044837952,-0.42775028944015503,5.465467929840088,1.802230715751648,0.6615378260612488,-13.682171821594238,-4.247252941131592,-18.8699893951416,-0.18610960245132446,0.8234397172927856,0.4394141137599945,5.63869047164917,1.663581132888794,0.7027602195739746,0.3476825952529907,0.6515153050422668,0.42000001668930054,-0.37057435512542725,1.8620656728744507,-0.8954005241394043,-3.000002145767212,-0.20788323879241943,-0.20406031608581543,-0.19301405549049377,-0.17815382778644562,-0.6778921484947205,-0.7130029797554016,-0.6355555057525635,-0.4079757034778595
0.45,-0.03838397189974785,0.031583111733198166,0.0,0.760051429271698,0.0,0.0,-0.6498629450798035,-0.196428582072258,-0.9365110993385315,0.0,0.0,0.0,-3.30184268951416,-0.09115360677242279,0.843986451625824,0.45311710238456726,0.8283481597900391,0.048905521631240845,-0.16816718876361847,-0.5321345925331116,5.844104766845703,-0.26371368765830994,0.7661731839179993,-9.883594512939453,3.082728385925293,18.15604019165039,-0.08980972319841385,0.8439075946807861,0.45056599378585815,6.04128885269165,0.6586122512817383,0.7818563580513,0.3476825952529907,0.6515153050422668,0.42000001668930054,-0.33832085132598877,1.6113266944885254,-0.9454245567321777,-3.0000035762786865,-0.21528124809265137,-0.2110266089439392,-0.19817198812961578,-0.1795218288898468,-0.3786271810531616,-0.2890191674232483,-0.14301279187202454,0.09360914677381516
0.4666666666666667,-0.04382447898387909,0.020444175228476524,0.0,0.7294284701347351,0.0,0.0,-0.6840571165084839,-0.36717095971107483,-0.5387030243873596,0.0,0.0,0.0,-6.035770416259766,0.006114538758993149,0.8460602760314941,0.46383020281791687,0.7624609470367432,0.03084094077348709,-0.146994486451149,-0.629360556602478,5.701159954071045,-1.0938640832901,0.48688626289367676,13.795065879821777,-17.618003845214844,15.049308776855469,0.005516618490219116,0.8458070755004883,0.4613223671913147,5.643621444702148,-0.3779700696468353,0.7251361012458801,0.3476825952529907,0.6515153050422668,0.42000001668930054,-0.3178299367427826,0.8331166505813599,-0.9954485893249512,-3.0000035762786865,-0.22358660399913788,-0.2172558456659317,-0.20182254910469055,-0.17956434190273285,-0.5816621780395508,-0.42747166752815247,-0.26543501019477844,-0.06664909422397614
0.48333333333333334,-0.04730711877346039,0.014523172751069069,0.0,0.7142934799194336,0.0,0.0,-0.6998463273048401,-0.1408681422472,-0.2737126648426056,0.0,0.0,0.0,-1.477486491203308,0.09363695979118347,0.8329085111618042,0.47210392355918884,0.7092645168304443,0.013535663485527039,-0.11869579553604126,-0.6947458982467651,4.6247358322143555,-1.5229949951171875,0.27347666025161743,-3.5410337448120117,-1.7547374963760376,8.773528099060059,0.09196096658706665,0.8330482840538025,0.4693770408630371,4.912703514099121,-1.1788952350616455,0.43042945861816406,0.3476825952529907,0.6515153050422668,0.42000001668930054,-0.308736115694046,0.5903756618499756,-1.0454708337783813,-3.0000009536743164,-0.23300515115261078,-0.22389282286167145,-0.2059202343225479,-0.18092545866966248,-0.4874807596206665,-0.32181063294410706,-0.1896725744009018,-0.06629268079996109
0.5,-0.051642391830682755,0.005784557666629553,0.0,0.6907095313072205,0.0,0.0,-0.723132312297821,-0.308301717042923,-0.542129397392273,0.0,0.0,0.0,-4.782647132873535,0.16800172626972198,0.8077688217163086,0.47405561804771423,0.6762158870697021,-0.008583057671785355,-0.0953758955001831,-0.7304531335830688,3.874506711959839,-2.2643723487854004,-0.09378178417682648,-6.77890157699585,-5.3760833740234375,15.089988708496094,0.1667909175157547,0.8089948892593384,0.47207438945770264,4.210944175720215,-1.8323485851287842,0.08360164612531662,0.3476825952529907,0.6515153050422668,0.42000001668930054,-0.2959679961204529,0.7903377413749695,-1.095492959022522,-3.000002861022949,-0.23854106664657593,-0.22665366530418396,-0.20667000114917755,-0.18005836009979248,-0.3611793518066406,-0.16681616008281708,-0.030671322718262672,0.06606325507164001
0.5166666666666666,-0.05398043245077133,0.0015565510839223862,0.0,0.6811374425888062,0.0,0.0,-0.7321555614471436,-0.062641941010952,-0.18120285868644714,0.0,0.0,0.0,-0.4128127694129944,0.22948810458183289,0.773452877998352,0.47080695629119873,0.626981258392334,-0.05383370444178581,-0.0993090271949768,-0.7708008885383606,3.110015392303467,-2.290731430053711,-0.2943677008152008,-8.280444145202637,-0.20501011610031128,0.5509278178215027,0.22759684920310974,0.7752320766448975,0.4699840545654297,3.268892288208008,-2.1302497386932373,-0.2905821204185486,0.3476825952529907,0.6515153050422668,0.42000001668930054,-0.2808085083961487,1.0675015449523926,-1.1455150842666626,-3.0000040531158447,-0.23982885479927063,-0.23115427792072296,-0.20912295579910278,-0.1813521832227707,0.05942998826503754,-0.11506641656160355,-0.06116117537021637,-0.06340605020523071
0.5333333333333333,-0.05256865173578262,-0.006633111275732517,0.0,0.6627800464630127,0.0,0.0,-0.7488141059875488,0.10867201536893845,-0.5231205224990845,0.0,0.0,0.0,-3.838613986968994,0.2792041301727295,0.7410197257995605,0.46007898449897766,0.5922026634216309,-0.0886695384979248,-0.07142806798219681,-0.7977039217948914,2.3275887966156006,-2.2144179344177246,-0.8562563061714172,-6.401305675506592,2.018845558166504,12.357699394226074,0.27697157859802246,0.7425292730331421,0.4595806896686554,2.685342311859131,-2.0050911903381348,-0.7869350910186768,0.3476825952529907,0.6515153050422668,0.42000001668930054,-0.2645457684993744,0.8140726685523987,-1.1955372095108032,-2.9999992847442627,-0.233455628156662,-0.22813817858695984,-0.2067156285047531,-0.18045955896377563,0.3965355455875397,0.2302219718694687,0.1671145260334015,0.04402272030711174
0.55,-0.048789117485284805,-0.010323075577616692,0.0,0.6573471426963806,0.0,0.0,-0.7535879015922546,0.2547307312488556,-0.2003161460161209,0.0,0.0,0.0,0.08266279846429825,0.3175097405910492,0.7085313200950623,0.44383111596107483,0.5522562265396118,-0.1119118332862854,-0.06354691833257675,-0.823681116104126,1.922119379043579,-1.9850795269012451,-1.0260018110275269,0.1372973471879959,1.486406922340393,-2.998786211013794,0.31397247314453125,0.7088087797164917,0.44401535391807556,1.9462158679962158,-1.9596251249313354,-1.0566314458847046,0.3476825952529907,0.6515153050422668,0.42000001668930054,-0.24903903901576996,1.1612801551818848,-1.2140978574752808,0.4838546812534332,-0.2291497141122818,-0.225827157497406,-0.20561088621616364,-0.18163946270942688,0.40022602677345276,0.25962650775909424,0.12606577575206757,-0.06617837399244308
0.5666666666666667,-0.04270457848906517,-0.011515195481479168,0.0,0.6430127024650574,0.0,0.0,-0.7658555507659912,0.4147833287715912,0.0343412347137928,0.0,0.0,0.0,-3.0952675342559814,0.34466060996055603,0.6806975603103638,0.4222944378852844,0.5447739362716675,-0.12187185883522034,-0.07081069052219391,-0.8266525268554688,1.1529228687286377,-2.0560247898101807,-1.3393104076385498,-5.9312238693237305,-7.252898216247559,13.519704818725586,0.341367244720459,0.6806341409683228,0.42236316204071045,1.3085520267486572,-1.49574875831604,-1.3480181694030762,0.3476825952529907,0.6515153050422668,0.42000001668930054,-0.23113521933555603,0.7045029401779175,-1.171379804611206,2.9977738857269287,-0.2210395634174347,-0.2206486314535141,-0.2037704586982727,-0.1839495152235031,0.4855119585990906,0.308523565530777,0.07639452815055847,-0.2003757208585739
0.5833333333333334,-0.03379274159669876,-0.017064513638615608,0.0,0.6417617797851562,0.0,0.0,-0.7669040560722351,0.5913108587265015,-0.42826804518699646,0.0,0.0,0.0,0.744850218296051,0.35457849502563477,0.6717562079429626,0.42591023445129395,0.5550664067268372,-0.12648522853851318,-0.050440892577171326,-0.8205841183662415,0.2658093273639679,-0.7359992861747742,0.11417911946773529,0.39058011770248413,-0.048983097076416016,8.104532241821289,0.35071367025375366,0.6710624694824219,0.4263010621070862,0.2956508696079254,-0.4405978322029114,0.09009405970573425,0.3476825952529907,0.6515153050422668,0.42000001668930054,-0.22063161432743073,0.34819549322128296,-1.1911858320236206,-2.9995977878570557,-0.20600807666778564,-0.20951470732688904,-0.19761227071285248,-0.18316374719142914,0.8979059457778931,0.6916608810424805,0.39440327882766724,0.0712926983833313
0.6,-0.027687691152095795,-0.019001692533493042,0.0,0.6297703385353088,0.0,0.0,-0.7767813801765442,0.34080544114112854,-0.0759495198726654,0.0,0.0,0.0,-2.4817047119140625,0.3564668595790863,0.6675528287887573,0.424915075302124,0.5779638886451721,-0.10663304477930069,-0.049225155264139175,-0.8075667023658752,-0.039183907210826874,-0.22938236594200134,-0.10936492681503296,-0.43057504296302795,-4.923002243041992,7.585426330566406,0.35238248109817505,0.6662410497665405,0.42491593956947327,-0.03604573756456375,-0.16871777176856995,-0.10296905040740967,0.3476825952529907,0.6515153050422668,0.42000001668930054,-0.21223101019859314,0.6713106036186218,-1.1532959938049316,2.997850179672241,-0.19378775358200073,-0.20004889369010925,-0.19270066916942596,-0.1832198053598404,0.6639237403869629,0.5203490257263184,0.25868988037109375,-0.023706339299678802
0.6166666666666667,-0.023468488827347755,-0.02276628278195858,0.0,0.631899893283844,0.0,0.0,-0.7750500440597534,0.21144655346870422,-0.29715436697006226,0.0,0.0,0.0,1.1382524967193604,0.3539378046989441,0.6643644571304321,0.4233534038066864,0.599502682685852,-0.07255365699529648,-0.05519774183630943,-0.7951638102531433,-0.19416500627994537,-0.18213024735450745,-0.1457383781671524,7.662423133850098,-2.274235248565674,1.1133136749267578,0.3495727479457855,0.6632190942764282,0.4255450665950775,-0.2844908535480499,-0.1543634682893753,0.09901518374681473,0.3476825952529907,0.6515153050422668,0.42000001668930054,-0.23657934367656708,-3.0000030994415283,-1.1751245260238647,-2.9996531009674072,-0.1857522875070572,-0.19320763647556305,-0.18920518457889557,-0.18345943093299866,0.4196964502334595,0.38302484154701233,0.2102799117565155,0.014072219841182232
0.6333333333333333,-0.017866194248199463,-0.023354366421699524,0.0,0.6258270740509033,0.0,0.0,-0.7799618244171143,0.36703455448150635,-0.007043706253170967,0.0,0.0,0.0,-2.2138309478759766,0.3512589633464813,0.6610927581787109,0.4200957119464874,0.6124639511108398,0.0009396776440553367,-0.001065120450221002,-0.7904971837997437,-0.0712125152349472,-0.21965666115283966,-0.051570337265729904,0.7804778814315796,2.455303192138672,1.9195324182510376,0.3484613299369812,0.6635007858276367,0.42726001143455505,0.10386880487203598,0.15927930176258087,0.12575344741344452,0.3476825952529907,0.6515153050422668,0.42000001668930054,-0.2751174867153168,-1.672029972076416,-1.2250771522521973,-2.9985554218292236,-0.18025246262550354,-0.18819479644298553,-0.186872661113739,-0.18407191336154938,0.445785790681839,0.3923155665397644,0.2132313996553421,0.026600029319524765
0.65,-0.010457266122102737,-0.027893293648958206,0.0,0.6297670602798462,0.0,0.0,-0.7767840623855591,0.47241970896720886,-0.2830508351325989,0.0,0.0,0.0,1.4418753385543823,0.351215124130249,0.6596823334693909,0.42000025510787964,0.6131829619407654,2.9912841910118004e-06,-1.673130645940546e-05,-0.7899408340454102,-0.06450645625591278,-0.11545979231595993,-0.0005304287769831717,0.007973716594278812,0.025199254974722862,1.0135592222213745,0.34744107723236084,0.6656445264816284,0.429840624332428,-0.14942532777786255,0.033004723489284515,0.16828659176826477,0.3476825952529907,0.6515153050422668,0.42000001668930054,-0.3229046165943146,-2.999990463256836,-1.275073766708374,-2.999094009399414,-0.1712006777524948,-0.1798740178346634,-0.18134115636348724,-0.18144607543945312,0.3542824685573578,0.36959272623062134,0.2610633075237274,0.14091990888118744
0.6666666666666666,-0.00013414726709015667,-0.02860247902572155,0.0,0.654423713684082,0.0,0.0,-0.7561280131340027,0.653460681438446,-0.02559507079422474,0.0,0.0,0.0,4.706244945526123,0.35036471486091614,0.6585573554039001,0.4199998080730438,0.6084115505218506,-1.2471707123040687e-05,1.1229529661704873e-07,-0.7936217188835144,-0.08743549883365631,-0.06127187982201576,-0.0002679518947843462,0.0015588633250445127,-0.011954071931540966,-4.074556827545166,0.3443653881549835,0.6646468043327332,0.4336254298686981,-0.16342221200466156,-0.08215426653623581,0.29231542348861694,0.3476825952529907,0.6515153050422668,0.42000001668930054,-0.3729115128517151,-2.9999406337738037,-1.3250659704208374,-2.999967575073242,-0.16844582557678223,-0.17586186528205872,-0.17787033319473267,-0.17856517434120178,0.2041597217321396,0.29490259289741516,0.2936486303806305,0.2991458475589752
0.6833333333333333,0.011994856409728527,-0.03292880207300186,0.0,0.6653962731361389,0.0,0.0,-0.7464902997016907,0.7562074661254883,-0.2690466642379761,0.0,0.0,0.0,0.6923057436943054,0.34939223527908325,0.6580090522766113,0.41999995708465576,0.5926312208175659,-4.893212235401734e-07,3.325613079141476e-06,-0.805473804473877,-0.04440709576010704,-0.02389058843255043,-4.125828854739666e-05,0.004180814605206251,0.004055333789438009,-1.7715898752212524,0.3434939980506897,0.6638201475143433,0.4395100772380829,-0.03364812582731247,-0.1708168089389801,0.39559459686279297,0.3476825952529907,0.6515153050422668,0.42000001668930054,-0.42292463779449463,-3.000000476837158,-1.3750815391540527,-3.000000476837158,-0.16411463916301727,-0.16985516250133514,-0.17152009904384613,-0.1716831475496292,0.1279444396495819,0.26932191848754883,0.33854514360427856,0.41847074031829834
0.7,0.025771263986825943,-0.0396268330514431,0.0,0.6532721519470215,0.0,0.0,-0.7571231722831726,0.8573164939880371,-0.46837446093559265,0.0,0.0,0.0,-2.8523612022399902,0.34923654794692993,0.6579270958900452,0.4200001358985901,0.5901623368263245,2.1967975044390187e-05,5.2277514441811945e-06,-0.8072844743728638,0.0011696636211127043,0.0007012067944742739,-0.0007439486216753721,-0.004429185763001442,0.004497908521443605,-0.0017001440282911062,0.34805306792259216,0.6619549989700317,0.4530589282512665,0.5374842882156372,-0.08304177224636078,1.3056411743164062,0.3476825952529907,0.6515153050422668,0.42000001668930054,-0.4729378819465637,-2.9999871253967285,-1.4250998497009277,-2.999999761581421,-0.16401438415050507,-0.16725537180900574,-0.1674838811159134,-0.1660367250442505,-0.03734748438000679,0.11293277889490128,0.2067744880914688,0.31048569083213806
0.7166666666666667,0.04228202998638153,-0.04260456934571266,0.0,0.619044303894043,0.0,0.0,-0.7853560447692871,1.0143882036209106,-0.1982426941394806,0.0,0.0,0.0,-6.11265230178833,0.3492383658885956,0.6579288840293884,0.4200000464916229,0.5901612639427185,4.174004288870492e-07,-3.0540295483660884e-06,-0.8072853088378906,0.00011859458754770458,-0.0002735638990998268,-9.157229214906693e-05,0.006349286530166864,-0.001305023324675858,-0.0006628843257203698,0.3658345341682434,0.6577867269515991,0.4805629849433899,1.648489236831665,-0.30699050426483154,2.10439395904541,0.3476825952529907,0.6515153050422668,0.42000001668930054,-0.5229504704475403,-2.99999737739563,-1.4751181602478027,-3.0,-0.16889920830726624,-0.16918636858463287,-0.16728277504444122,-0.16357606649398804,-0.18738961219787598,-0.048869915306568146,0.05168771743774414,0.16381826996803284
0.7333333333333333,0.05600834637880325,-0.04406232014298439,0.0,0.599473237991333,0.0,0.0,-0.8003947734832764,0.743810772895813,-0.039045605808496475,0.0,0.0,0.0,-1.9382482767105103,0.3492383658885956,0.6579288840293884,0.4200000464916229,0.5901615619659424,4.84369365949533e-07,-2.9570442166004796e-06,-0.8072850704193115,0.00011542931315489113,-0.00027090543881058693,-9.11348033696413e-05,0.006279927212744951,-0.0013516191393136978,-0.000655192241538316,0.39268752932548523,0.657670259475708,0.5179596543312073,1.5041307210922241,0.22070039808750153,2.3374900817871094,0.3476825952529907,0.6515153050422668,0.42000001668930054,-0.5449254512786865,0.11055096983909607,-1.5251364707946777,-3.000000238418579,-0.17019549012184143,-0.16913792490959167,-0.16647642850875854,-0.16188852488994598,0.031754281371831894,0.058175794780254364,0.051475640386343,0.04833763465285301
0.75,0.06481628865003586,-0.04294342175126076,0.0,0.605324923992157,0.0,0.0,-0.7959784865379333,0.4499203860759735,0.11207599937915802,0.0,0.0,0.0,1.7571033239364624,0.3492383658885956,0.6579288840293884,0.4200000464916229,0.5901616811752319,4.3771640889644914e-07,-2.8965919227630366e-06,-0.807284951210022,0.00011783841182477772,-0.00027144423802383244,-9.163795039057732e-05,0.0062795584090054035,-0.0013252653880044818,-0.0006611861754208803,0.41292768716812134,0.6624695658683777,0.5522667169570923,0.8581850528717041,0.33312979340553284,1.8085300922393799,0.3476825952529907,0.6515153050422668,0.42000001668930054,-0.5228309631347656,2.3293826580047607,-1.486336350440979,2.9999992847442627,-0.1681125909090042,-0.16686871647834778,-0.1644989401102066,-0.1601894497871399,0.19150695204734802,0.19310791790485382,0.16841036081314087,0.14072614908218384
0.7666666666666666,0.0693221166729927,-0.045620497316122055,0.0,0.5990644693374634,0.0,0.0,-0.8007007837295532,0.22148297727108002,-0.2463529407978058,0.0,0.0,0.0,-1.881460189819336,0.3492383658885956,0.6579288840293884,0.4200000464916229,0.5901616811752319,2.810415935527999e-07,-3.1303995911002858e-06,-0.8072850704193115,0.00011831722076749429,-0.00027131245587952435,-9.174691513180733e-05,0.006273764651268721,-0.0013188262237235904,-0.0006620928761549294,0.42037349939346313,0.6674177646636963,0.5752472877502441,0.00972580537199974,0.23450927436351776,1.1377109289169312,0.3476825952529907,0.6515153050422668,0.42000001668930054,-0.49083712697029114,1.549699306488037,-1.4362837076187134,3.0000007152557373,-0.16398261487483978,-0.16276513040065765,-0.1608247607946396,-0.1570589691400528,0.2178870290517807,0.2288089394569397,0.21568600833415985,0.19037610292434692
0.7833333333333333,0.07044597715139389,-0.043236881494522095,0.0,0.6052507162094116,0.0,0.0,-0.7960348725318909,0.015246200375258923,0.2774128317832947,0.0,0.0,0.0,1.8064583539962769,0.3492383658885956,0.6579288840293884,0.4200000464916229,0.5901615619659424,4.7405217173945857e-07,-3.133141717626131e-06,-0.8072851300239563,0.00011695797729771584,-0.0002709122491069138,-9.14654228836298e-05,0.00627128453925252,-0.0013336436823010445,-0.0006587400566786528,0.4168427586555481,0.6696744561195374,0.5896422863006592,-0.3883332908153534,0.12635493278503418,0.6251940131187439,0.3476825952529907,0.6515153050422668,0.42000001668930054,-0.4508250057697296,2.9999961853027344,-1.3862310647964478,2.999999761581421,-0.16585111618041992,-0.16324342787265778,-0.1603783816099167,-0.15606269240379333,-0.16147053241729736,-0.06914757192134857,-0.0034573154989629984,0.036852698773145676
0.8,0.06943140178918839,-0.044222258031368256,0.0,0.5994686484336853,0.0,0.0,-0.8003982305526733,-0.13690826296806335,-0.06526214629411697,0.0,0.0,0.0,-1.5905580520629883,0.3492383658885956,0.6579288840293884,0.4200000464916229,0.5901616811752319,2.7123653012495197e-07,-3.1931233479554066e-06,-0.8072850108146667,0.00011851226008730009,-0.00027135590789839625,-9.179720655083656e-05,0.0062738158740103245,-0.0013169145677238703,-0.0006625840323977172,0.4058554768562317,0.6702681183815002,0.5945659875869751,-1.0171420574188232,-0.07535529136657715,0.1624504029750824,0.3476825952529907,0.6515153050422668,0.42000001668930054,-0.43276894092559814,-0.5449272394180298,-1.3361784219741821,3.000000476837158,-0.1660154014825821,-0.1623455435037613,-0.1587403565645218,-0.15403680503368378,-0.08970662951469421,-0.009282857179641724,0.05454844608902931,0.09650379419326782
0.8166666666666667,0.06991757452487946,-0.04125982150435448,0.0,0.6065545082092285,0.0,0.0,-0.7950419187545776,0.04853355512022972,0.1385301649570465,0.0,0.0,0.0,1.706892967224121,0.34923839569091797,0.6579288840293884,0.4200000464916229,0.5901615619659424,4.881046606897144e-07,-3.200541868864093e-06,-0.8072850704193115,0.00011720886686816812,-0.00027085840702056885,-9.152735583484173e-05,0.006268646102398634,-0.001330351922661066,-0.0006592307472601533,0.3941608667373657,0.669821560382843,0.5962628126144409,-0.35906243324279785,0.1232231929898262,0.06949155777692795,0.3476825952529907,0.6515153050422668,0.42000001668930054,-0.4258674085140228,1.2162529230117798,-1.3554407358169556,-2.999999523162842,-0.16849112510681152,-0.16355417668819427,-0.15881656110286713,-0.15324828028678894,0.07760424166917801,0.09320218861103058,0.11325503140687943,0.12845170497894287
0.8333333333333334,0.07197829335927963,-0.04261123761534691,0.0,0.6002086997032166,0.0,0.0,-0.799843430519104,0.16540557146072388,-0.0981614738702774,0.0,0.0,0.0,-1.8640620708465576,0.3492383658885956,0.6579288840293884,0.4200000464916229,0.5901613831520081,3.1231030561684747e-07,-2.8628141990338918e-06,-0.8072851896286011,0.00011826046102214605,-0.00027242462965659797,-9.176391176879406e-05,0.0063011134043335915,-0.0013264978770166636,-0.0006631815922446549,0.3911867141723633,0.6710865497589111,0.5949102640151978,-0.03640280291438103,-0.019196094945073128,-0.04961276799440384,0.3476825952529907,0.6515153050422668,0.42000001668930054,-0.4497224688529968,-3.0000007152557373,-1.3171207904815674,3.0,-0.16548651456832886,-0.16075368225574493,-0.15604162216186523,-0.15049044787883759,0.10113666951656342,0.10326427966356277,0.11729583889245987,0.13173964619636536
0.85,0.0763726755976677,-0.041201408952474594,0.0,0.6060718297958374,0.0,0.0,-0.7954099178314209,0.29513683915138245,0.14100579917430878,0.0,0.0,0.0,1.7535408735275269,0.3492383658885956,0.6579288840293884,0.4200000464916229,0.5901616811752319,2.7415458703217155e-07,-3.0984920158516616e-06,-0.807284951210022,0.00011818612983915955,-0.00027136545395478606,-9.171711280941963e-05,0.006275782827287912,-0.001320664887316525,-0.0006618594052270055,0.3929319679737091,0.670574426651001,0.5950965881347656,0.21291761100292206,-0.04567962884902954,0.08896454423666,0.3476825952529907,0.6515153050422668,0.42000001668930054,-0.4869214594364166,-1.5581135749816895,-1.3367153406143188,-3.000000476837158,-0.16414187848567963,-0.15940426290035248,-0.15442200005054474,-0.14854425191879272,0.11862386763095856,0.11171439290046692,0.12286985665559769,0.13926909863948822
0.8666666666666667,0.08241124451160431,-0.0426008403301239,0.0,0.6000372767448425,0.0,0.0,-0.7999719977378845,0.3968079090118408,-0.11325164884328842,0.0,0.0,0.0,-1.902547001838684,0.3492383658885956,0.6579288840293884,0.4200000464916229,0.5901614427566528,4.885741304860858e-07,-3.1067315831023734e-06,-0.8072852492332458,0.00011619291035458446,-0.00027061361470259726,-9.133899584412575e-05,0.006268003024160862,-0.0013422933407127857,-0.0006566463271155953,0.39892715215682983,0.667592465877533,0.5912545323371887,0.48067063093185425,-0.35720115900039673,-0.35779619216918945,0.3476825952529907,0.6515153050422668,0.42000001668930054,-0.529075026512146,-2.999999523162842,-1.2988572120666504,3.000000476837158,-0.16101454198360443,-0.156414195895195,-0.1512341946363449,-0.1450367420911789,0.09549345076084137,0.11923237144947052,0.16102302074432373,0.20772705972194672
0.8833333333333333,0.09068569540977478,-0.04085720330476761,0.0,0.6055921912193298,0.0,0.0,-0.7957751154899597,0.5191352963447571,0.14873947203159332,0.0,0.0,0.0,1.8126722574234009,0.3492383658885956,0.6579288840293884,0.4200000464916229,0.5901615619659424,4.268562463494163e-07,-3.0560486266040243e-06,-0.8072851300239563,0.00011838215141324326,-0.00027138181030750275,-9.176414459943771e-05,0.006275109946727753,-0.001318615861237049,-0.0006623264052905142,0.40784066915512085,0.6638845205307007,0.5898962020874023,0.5853177905082703,-0.08341982215642929,0.18163418769836426,0.3476825952529907,0.6515153050422668,0.42000001668930054,-0.5534003973007202,-0.1453046053647995,-1.3187816143035889,-3.0,-0.15970227122306824,-0.15516428649425507,-0.1497628092765808,-0.14326351881027222,0.16239196062088013,0.12105752527713776,0.09593524038791656,0.07608893513679504
0.9,0.09599055349826813,-0.0434260293841362,0.0,0.6335923671722412,0.0,0.0,-0.7736670970916748,0.2581459879875183,-0.1945398449897766,0.0,0.0,0.0,5.013435363769531,0.3492383658885956,0.6579288840293884,0.4200000464916229,0.5901616811752319,4.2049737203342374e-07,-3.00515785056632e-06,-0.8072850108146667,0.00011828191782115027,-0.00027141516329720616,-9.174528531730175e-05,0.0062764654867351055,-0.0013200927060097456,-0.0006621524225920439,0.4168662428855896,0.6625369787216187,0.5913349390029907,0.4607316851615906,-0.1565437912940979,0.013989662751555443,0.3476825952529907,0.6515153050422668,0.42000001668930054,-0.5718889236450195,-1.9058736562728882,-1.2805640697479248,2.999999761581421,-0.1543382704257965,-0.15056025981903076,-0.14569729566574097,-0.13967987895011902,0.22762218117713928,0.20939986407756805,0.1998111456632614,0.18938705325126648
