vladlanda/robotic-transformer/data/env_000_episode_0140.csv
sim_time_s,robot_box_x,robot_box_y,robot_box_z,robot_box_quat_w,robot_box_quat_x,robot_box_quat_y,robot_box_quat_z,robot_box_linvel_x,robot_box_linvel_y,robot_box_linvel_z,robot_box_angvel_x,robot_box_angvel_y,robot_box_angvel_z,cube_world_x,cube_world_y,cube_world_z,cube_quat_w,cube_quat_x,cube_quat_y,cube_quat_z,cube_linvel_x,cube_linvel_y,cube_linvel_z,cube_angvel_x,cube_angvel_y,cube_angvel_z,endpoint_world_x,endpoint_world_y,endpoint_world_z,endpoint_linvel_x,endpoint_linvel_y,endpoint_linvel_z,target_cube_world_x,target_cube_world_y,target_cube_world_z,gripper_actual_pos_rad_gp_leftgearjoint,gripper_actual_vel_rad_s_gp_leftgearjoint,gripper_actual_pos_rad_gp_rotatingjoint,gripper_actual_vel_rad_s_gp_rotatingjoint,motor_angle_rad_joint1,motor_angle_rad_joint2,motor_angle_rad_joint3,motor_angle_rad_joint4,motor_speed_rad_s_joint1,motor_speed_rad_s_joint2,motor_speed_rad_s_joint3,motor_speed_rad_s_joint4
0.0,0.0,0.0,0.0,1.0,0.0,0.0,0.0,0.0,0.0,0.0,0.0,0.0,0.0,-0.3877784013748169,0.7475849390029907,0.41999998688697815,1.0,0.0,0.0,0.0,0.0,0.0,0.0,0.0,0.0,0.0,3.42540442943573e-06,-0.005000244826078415,1.313499927520752,0.0,0.0,0.0,0.34566789865493774,0.64327073097229,0.42000001668930054,-1.5707999467849731,0.0,0.0,0.0,0.0,0.0,0.0,0.0,0.0,0.0,0.0,0.0
0.016666666666666666,0.0028778850100934505,0.0021806680597364902,0.0,0.9998081922531128,0.0,0.0,0.019586581736803055,0.24087215960025787,0.18240931630134583,0.0,0.0,0.0,3.1418697834014893,-0.38777852058410645,0.7475846409797668,0.41999998688697815,1.0,3.279964630564791e-06,-8.339746386809566e-07,8.465587342243452e-08,-1.9833529222523794e-05,0.00017983045836444944,-6.132945418357849e-05,0.0009432713268324733,-0.004689474124461412,-0.00031981561915017664,-0.007110234349966049,0.003379564033821225,1.3159373998641968,-0.8143353462219238,0.9868683815002441,0.18095196783542633,0.34566789865493774,0.64327073097229,0.42000001668930054,-1.5301095247268677,3.0000011920928955,-0.04584788903594017,-2.9999992847442627,0.0008691533003002405,0.0007963840034790337,0.0007110277656465769,0.0006108740926720202,0.11094217747449875,0.09756709635257721,0.08334315568208694,0.06823883205652237
0.03333333333333333,0.008961031213402748,0.006802022457122803,0.0,0.9997960329055786,0.0,0.0,0.020196909084916115,0.4070281386375427,0.3153098523616791,0.0,0.0,0.0,-0.869123101234436,-0.387778639793396,0.7475845813751221,0.4200000464916229,1.0,3.390805204617209e-06,-2.132404688381939e-06,-3.708747797759315e-08,0.0002635775599628687,0.0002693787682801485,-0.0001050964929163456,-0.0017706695944070816,0.004130705259740353,-0.00013547964044846594,-0.027404291555285454,0.026262354105710983,1.316609263420105,-1.5743696689605713,1.6170927286148071,-0.08348284661769867,0.34566789865493774,0.64327073097229,0.42000001668930054,-1.4800904989242554,3.0000030994415283,-0.09588772058486938,-3.000000476837158,0.0029736561700701714,0.002630462171509862,0.0022492269054055214,0.0018268853891640902,0.16225673258304596,0.13719788193702698,0.11065411567687988,0.08253456652164459
0.05,0.01847068779170513,0.013902062550187111,0.0,0.9999781250953674,0.0,0.0,-0.006617772858589888,0.6362980604171753,0.4723146855831146,0.0,0.0,0.0,-4.074123382568359,-0.3877786695957184,0.7475846409797668,0.4200000464916229,1.0,3.7651225284207612e-06,-2.211832452303497e-06,5.631207500300661e-09,0.0002653110132087022,0.000266915129031986,-0.00010440382175147533,-0.0017243130132555962,0.00417749211192131,-0.00012949398660566658,-0.05624375492334366,0.057440295815467834,1.3121907711029053,-1.8875651359558105,2.052858829498291,-0.43132203817367554,0.34566789865493774,0.64327073097229,0.42000001668930054,-1.4300721883773804,3.000000238418579,-0.14592640101909637,-3.0000007152557373,0.005882031284272671,0.005006392486393452,0.004058254882693291,0.0030334973707795143,0.19631072878837585,0.15369659662246704,0.10916395485401154,0.06263641268014908
0.06666666666666667,0.02918597124516964,0.02355477772653103,0.0,0.9998855590820312,0.0,0.0,-0.015129972249269485,0.6957670450210571,0.6224883198738098,0.0,0.0,0.0,-0.028050962835550308,-0.3877786695957184,0.7475845813751221,0.4200000464916229,0.9999999403953552,3.4066986245306907e-06,-2.2855422230350086e-06,4.301130900330463e-07,0.0002670245012268424,0.00026791836717166007,-0.0001043803058564663,-0.0017406563274562359,0.004211660008877516,-0.00012850432540290058,-0.09082412719726562,0.0905289426445961,1.3022290468215942,-2.1243886947631836,2.087124824523926,-0.7174176573753357,0.34566789865493774,0.64327073097229,0.42000001668930054,-1.3800450563430786,3.0000007152557373,-0.12072893977165222,3.0000009536743164,0.0076087890192866325,0.005963499657809734,0.00420478917658329,0.0023291565012186766,0.0936228558421135,0.035755787044763565,-0.02414781227707863,-0.0862053707242012
0.08333333333333333,0.03403591364622116,0.03702648729085922,0.0,0.9992433786392212,0.0,0.0,-0.038892995566129684,0.2546631991863251,0.8334742188453674,0.0,0.0,0.0,-3.7095584869384766,-0.3877786695957184,0.7475845813751221,0.4200000464916229,1.0,3.697237389133079e-06,-2.188894086430082e-06,-2.632152131809562e-07,0.000263897207332775,0.0002658645680639893,-0.00010433699935674667,-0.0017081270925700665,0.00415023323148489,-0.0001299154246225953,-0.12035304307937622,0.12978051602840424,1.2886533737182617,-1.4454599618911743,2.6115100383758545,-0.7874988913536072,0.34566789865493774,0.64327073097229,0.42000001668930054,-1.3300447463989258,2.9998834133148193,-0.15270958840847015,-3.0000011920928955,0.0029430657159537077,0.0004465433885343373,-0.002215145854279399,-0.0050500002689659595,-0.2551395297050476,-0.3403797745704651,-0.42698630690574646,-0.5151529312133789
0.1,0.04421743005514145,0.051426857709884644,0.0,0.9959902167320251,0.0,0.0,-0.08946245908737183,0.6921347379684448,0.8995360732078552,0.0,0.0,0.0,-6.926391124725342,-0.3877786695957184,0.7475845813751221,0.4200000464916229,0.9999999403953552,3.6202645787852816e-06,-2.2652204734185943e-06,1.7464172685777157e-07,0.00026676952256821096,0.00026740870089270175,-0.0001040799543261528,-0.0017386189429089427,0.004209231119602919,-0.0001277522387681529,-0.14601272344589233,0.17591065168380737,1.2753714323043823,-1.622268795967102,2.938839912414551,-0.8980684280395508,0.34566789865493774,0.64327073097229,0.42000001668930054,-1.2800287008285522,2.999992609024048,-0.11917086690664291,3.000001907348633,0.0027668611146509647,-0.0015984508208930492,-0.0061156488955020905,-0.010792338289320469,-0.032066844403743744,-0.13650566339492798,-0.23991407454013824,-0.34224870800971985
0.11666666666666667,0.05234720557928085,0.06412418931722641,0.0,0.9928332567214966,0.0,0.0,-0.11950784176588058,0.45821240544319153,0.722102165222168,0.0,0.0,0.0,-2.4202768802642822,-0.3877786695957184,0.7475845813751221,0.4200000464916229,1.0,3.798244051722577e-06,-2.2627962152910186e-06,-1.50183694813677e-07,0.000263741152593866,0.00026566089945845306,-0.00010428996756672859,-0.0017054296331480145,0.004147564060986042,-0.00012979822349734604,-0.17734357714653015,0.22245381772518158,1.2588489055633545,-1.8730943202972412,2.962078094482422,-1.0304386615753174,0.34566789865493774,0.64327073097229,0.42000001668930054,-1.230043888092041,2.9988975524902344,-0.1511203795671463,-3.0,0.0003158479230478406,-0.005693818908184767,-0.011828654445707798,-0.018095456063747406,-0.15194034576416016,-0.25481122732162476,-0.35518211126327515,-0.45293962955474854
0.13333333333333333,0.057308509945869446,0.07750748097896576,0.0,0.9873714447021484,0.0,0.0,-0.1584222912788391,0.22622212767601013,0.8618153929710388,0.0,0.0,0.0,-5.503054618835449,-0.3877786695957184,0.7475846409797668,0.4200000464916229,0.9999999403953552,3.55031761500868e-06,-2.2298022486211266e-06,2.929353684066882e-07,0.0002670320973265916,0.0002677934244275093,-0.00010417005978524685,-0.0017440698575228453,0.004213511943817139,-0.00012799800606444478,-0.20779165625572205,0.2761482000350952,1.2397416830062866,-1.68153715133667,3.566807746887207,-1.2984957695007324,0.34566789865493774,0.64327073097229,0.42000001668930054,-1.1800284385681152,2.9999916553497314,-0.11757916957139969,3.0000009536743164,-0.0029485272243618965,-0.010746519081294537,-0.01860676147043705,-0.02653294801712036,-0.26838061213493347,-0.36742717027664185,-0.46248725056648254,-0.5533984303474426
0.15,0.05942946672439575,0.08903244137763977,0.0,0.9799920320510864,0.0,0.0,-0.19903667271137238,0.0873858779668808,0.6148310899734497,0.0,0.0,0.0,-4.637676239013672,-0.387778639793396,0.7475845813751221,0.4200000464916229,1.0,3.332025926283677e-06,-2.1019659470766783e-06,1.313283775061791e-07,0.00026730605168268085,0.00026859392528422177,-0.00010459637269377708,-0.0017496388172730803,0.004215574357658625,-0.00012928410433232784,-0.238920658826828,0.33502840995788574,1.2131402492523193,-1.8647387027740479,3.6645970344543457,-1.8777186870574951,0.34566789865493774,0.64327073097229,0.42000001668930054,-1.1519196033477783,0.5616516470909119,-0.149558886885643,-3.0000009536743164,-0.007660913746803999,-0.016923731192946434,-0.02617129497230053,-0.03540603071451187,-0.32301566004753113,-0.39359915256500244,-0.459712415933609,-0.5213753581047058
0.16666666666666666,0.06492047011852264,0.10075856000185013,0.0,0.9738994240760803,0.0,0.0,-0.22697991132736206,0.323628693819046,0.7069969177246094,0.0,0.0,0.0,-2.7235941886901855,-0.3877786695957184,0.7475845813751221,0.4200000464916229,1.0,3.7371282815001905e-06,-2.233031636933447e-06,-1.8763215337003203e-07,0.000264328729826957,0.0002662690822035074,-0.00010445667430758476,-0.0017118192045018077,0.004157449118793011,-0.00013001686602365226,-0.27360737323760986,0.3981723487377167,1.1748578548431396,-2.0430846214294434,4.055808067321777,-2.7046642303466797,0.34566789865493774,0.64327073097229,0.42000001668930054,-1.1107498407363892,3.0000009536743164,-0.19957447052001953,-2.999999523162842,-0.012811525724828243,-0.022893916815519333,-0.03289451822638512,-0.04281911998987198,-0.45825642347335815,-0.4703415334224701,-0.4801082909107208,-0.4878990948200226
0.18333333333333332,0.06694062054157257,0.11045175045728683,0.0,0.9630704522132874,0.0,0.0,-0.2692495584487915,0.09892908483743668,0.5069596171379089,0.0,0.0,0.0,-6.028887748718262,-0.3877786695957184,0.7475846409797668,0.4200000464916229,0.9999999403953552,3.6600679322873475e-06,-2.302136635989882e-06,2.528700520088023e-07,0.00026690925005823374,0.0002676027943380177,-0.0001041253563016653,-0.0017412796150892973,0.0042115445248782635,-0.00012787021114490926,-0.3051539659500122,0.46741175651550293,1.1236984729766846,-1.6265058517456055,4.31884765625,-3.333118200302124,0.34566789865493774,0.64327073097229,0.42000001668930054,-1.061826229095459,2.84251070022583,-0.24960258603096008,-2.999999523162842,-0.024212317541241646,-0.03404334560036659,-0.04377678409218788,-0.05342823639512062,-0.7129003405570984,-0.694875180721283,-0.6759047508239746,-0.6565285325050354
0.2,0.0654647946357727,0.12096253037452698,0.0,0.9564734697341919,0.0,0.0,-0.291819304227829,-0.15136128664016724,0.651383638381958,0.0,0.0,0.0,-1.727653980255127,-0.3877786695957184,0.7475845813751221,0.4200000464916229,1.0,3.5906386983697303e-06,-2.3002876332611777e-06,1.387365955451969e-07,0.0002665475767571479,0.0002673207491170615,-0.00010424014180898666,-0.0017325275111943483,0.004203495569527149,-0.00012820970732718706,-0.3349408805370331,0.5355755090713501,1.0596933364868164,-1.5775794982910156,4.106789588928223,-4.25079345703125,0.34566789865493774,0.64327073097229,0.42000001668930054,-1.0124821662902832,3.00000262260437,-0.2996287941932678,-2.999998092651367,-0.03838636353611946,-0.04742804542183876,-0.05636371672153473,-0.06522312015295029,-0.8710591197013855,-0.8130933046340942,-0.7547464370727539,-0.6968739628791809
0.21666666666666667,0.06732568889856339,0.1328902244567871,0.0,0.9451708793640137,0.0,0.0,-0.3265761435031891,0.09541023522615433,0.7750731706619263,0.0,0.0,0.0,-5.2358808517456055,-0.3877786695957184,0.7475846409797668,0.4200000464916229,1.0,3.6067460769118043e-06,-2.260896735606366e-06,1.9630940428783106e-08,0.0002644705818966031,0.0002655840362422168,-0.00010396447032690048,-0.0017087544547393918,0.004164231941103935,-0.00012832245556637645,-0.3598974049091339,0.6035811901092529,0.9827708005905151,-1.2372299432754517,3.959587335586548,-4.969135284423828,0.34566789865493774,0.64327073097229,0.42000001668930054,-0.9624775052070618,2.9999783039093018,-0.34965524077415466,-2.999999761581421,-0.05190737918019295,-0.060212451964616776,-0.06824280321598053,-0.07620780169963837,-0.935344934463501,-0.9320024251937866,-0.8490459322929382,-0.7692297101020813
0.23333333333333334,0.06599506735801697,0.14218726754188538,0.0,0.9390813112258911,0.0,0.0,-0.3436950743198395,-0.11241283267736435,0.49673786759376526,0.0,0.0,0.0,-1.0740292072296143,-0.387778639793396,0.7475845813751221,0.4200000464916229,0.9999999403953552,3.742040007637115e-06,-2.2273377453529974e-06,4.589223294715339e-07,0.00026475079357624054,0.00026671396335586905,-0.0001045342069119215,-0.001718980842269957,0.004165731370449066,-0.00013019278412684798,-0.38145118951797485,0.6607040166854858,0.8933606743812561,-1.0134458541870117,3.1377992630004883,-5.693883419036865,0.34566789865493774,0.64327073097229,0.42000001668930054,-0.9124687314033508,2.999997854232788,-0.39968451857566833,-3.0000011920928955,-0.06803876906633377,-0.07626882940530777,-0.08367405086755753,-0.09006734192371368,-0.9688392281532288,-0.9556012749671936,-0.9453040957450867,-0.874345064163208
0.25,0.05617141351103783,0.14667996764183044,0.0,0.932362973690033,0.0,0.0,-0.3615235984325409,-0.7436087131500244,0.2904023230075836,0.0,0.0,0.0,-2.1413285732269287,-0.3877786695957184,0.7475845813751221,0.4200000464916229,1.0,3.3941641959245317e-06,-2.2818860543338815e-06,1.336301380661098e-07,0.0002667922817636281,0.0002679384488146752,-0.00010439474135637283,-0.0017417253693565726,0.004206556361168623,-0.00012884114403277636,-0.39754563570022583,0.7044126987457275,0.7934314608573914,-0.9582175016403198,2.079767942428589,-6.099176406860352,0.34566789865493774,0.64327073097229,0.42000001668930054,-0.8624594211578369,3.0000009536743164,-0.4497153162956238,-2.9999945163726807,-0.08147717267274857,-0.09027059376239777,-0.09823152422904968,-0.10514286160469055,-0.524097740650177,-0.617630660533905,-0.7062423825263977,-0.78729647397995
0.26666666666666666,0.044607724994421005,0.14719387888908386,0.0,0.9216756224632263,0.0,0.0,-0.38796138763427734,-0.7097991704940796,-0.016332663595676422,0.0,0.0,0.0,-3.8011910915374756,-0.3877786695957184,0.7475846409797668,0.4200000464916229,1.0,3.683193199321977e-06,-2.309913497811067e-06,2.101072880122956e-07,0.0002647913643158972,0.0002662580809555948,-0.00010421057231724262,-0.0017168582417070866,0.0041689565405249596,-0.00012909348879475147,-0.4107975363731384,0.7352126836776733,0.6884167194366455,-0.44483649730682373,1.5128891468048096,-6.39973783493042,0.34566789865493774,0.64327073097229,0.42000001668930054,-0.812452495098114,2.999368667602539,-0.4997463524341583,-2.9997875690460205,-0.09344498068094254,-0.10277356207370758,-0.11126311123371124,-0.11867693811655045,-0.9220672249794006,-0.9024421572685242,-0.8858693838119507,-0.8723189234733582
0.2833333333333333,0.03675578534603119,0.1445263773202896,0.0,0.919592559337616,0.0,0.0,-0.3928734064102173,-0.37973034381866455,-0.2096448391675949,0.0,0.0,0.0,0.28257596492767334,-0.3877786695957184,0.7475845813751221,0.4200000464916229,1.0,3.3066860396502307e-06,-2.2123508642835077e-06,2.6256594765072805e-07,0.00026660787989385426,0.00026745101786218584,-0.00010424572974443436,-0.0017352577997371554,0.004204442724585533,-0.00012828593025915325,-0.41835540533065796,0.7533810138702393,0.5833640098571777,-0.22744256258010864,0.6960625648498535,-6.151638507843018,0.34566789865493774,0.64327073097229,0.42000001668930054,-0.7624437212944031,2.999999761581421,-0.5497761964797974,-3.000001907348633,-0.11009790003299713,-0.11936649680137634,-0.12778958678245544,-0.1348959058523178,-1.000248908996582,-1.000146508216858,-1.000078558921814,-1.0000333786010742
0.3,0.02662905864417553,0.1402270346879959,0.0,0.9116401076316833,0.0,0.0,-0.4109894633293152,-0.6949116587638855,-0.2959967255592346,0.0,0.0,0.0,-3.2700417041778564,-0.3877786695957184,0.7475845813751221,0.4200000464916229,1.0,3.641024932221626e-06,-2.377741111558862e-06,-4.1939159700632445e-07,0.0002661148027982563,0.00026725901989266276,-0.00010423362255096436,-0.0017336049349978566,0.004194726701825857,-0.0001285561011172831,-0.4158625602722168,0.7574284076690674,0.4804975390434265,0.5446721911430359,-0.18933749198913574,-5.972939491271973,0.34566789865493774,0.64327073097229,0.42000001668930054,-0.7124355435371399,3.000000238418579,-0.5998049378395081,-3.000002861022949,-0.1279572993516922,-0.13691799342632294,-0.14510872960090637,-0.15203233063220978,-1.007298469543457,-1.0055161714553833,-1.0041545629501343,-1.0030649900436401
0.31666666666666665,0.0202373955398798,0.1329384744167328,0.0,0.9107316136360168,0.0,0.0,-0.4129987061023712,-0.3272859454154968,-0.46530768275260925,0.0,0.0,0.0,0.677638053894043,-0.3877786695957184,0.7475846409797668,0.4200000464916229,1.0,3.621596988523379e-06,-2.2888571038492955e-06,1.9691172781222122e-07,0.0002673400449566543,0.0002680283214431256,-0.00010420801118016243,-0.0017466888530179858,0.00421897554770112,-0.00012793613132089376,-0.41178905963897705,0.7579249739646912,0.4277414083480835,0.14023733139038086,-0.06732531636953354,-0.28153327107429504,0.34566789865493774,0.64327073097229,0.42000001668930054,-0.6624309420585632,2.999983072280884,-0.6502445936203003,-2.9995529651641846,-0.1402190625667572,-0.14895014464855194,-0.15682804584503174,-0.16331353783607483,-0.452903687953949,-0.4341486394405365,-0.4000927209854126,-0.3467293679714203
0.3333333333333333,0.011141967959702015,0.12422733008861542,0.0,0.9034838080406189,0.0,0.0,-0.42862221598625183,-0.6420977711677551,-0.5434672832489014,0.0,0.0,0.0,-3.0462582111358643,-0.38556259870529175,0.7507403492927551,0.42000019550323486,0.9996923804283142,2.5001176595651486e-07,-3.544350420270348e-06,-0.024800390005111694,0.0973050594329834,0.14802376925945282,-3.319967072457075e-05,0.0006236698827706277,0.0010519787902012467,-2.5125937461853027,-0.41046351194381714,0.7609466910362244,0.4255714416503906,0.21130159497261047,0.22684046626091003,-0.15031355619430542,0.34566789865493774,0.64327073097229,0.42000001668930054,-0.6124253273010254,2.999966621398926,-0.7003523707389832,-2.999891996383667,-0.1497594267129898,-0.15727543830871582,-0.1636863499879837,-0.16843196749687195,-0.6568248271942139,-0.5457914471626282,-0.42259344458580017,-0.28815406560897827
0.35,-0.0018101184396073222,0.11452865600585938,0.0,0.9029340744018555,0.0,0.0,-0.429779052734375,-0.8304152488708496,-0.60299152135849,0.0,0.0,0.0,0.7917003631591797,-0.3824622631072998,0.7545830607414246,0.4200001657009125,0.9985011219978333,-2.4557013603043742e-05,-4.276576146367006e-05,-0.0547306090593338,0.1663254201412201,0.2004237025976181,-0.001005245721898973,0.05946597829461098,-0.013846460729837418,-2.6506214141845703,-0.40475040674209595,0.7632448673248291,0.42284125089645386,0.49455106258392334,0.09958843886852264,-0.15517590939998627,0.34566789865493774,0.64327073097229,0.42000001668930054,-0.5624203681945801,2.999976396560669,-0.7503951787948608,-2.9999663829803467,-0.16426898539066315,-0.16850632429122925,-0.1714855283498764,-0.17271873354911804,-0.9017395973205566,-0.6690271496772766,-0.42776042222976685,-0.18420103192329407
0.36666666666666664,-0.010237771086394787,0.10121763497591019,0.0,0.8958601355552673,0.0,0.0,-0.4443361461162567,-0.5070052742958069,-0.8134362101554871,0.0,0.0,0.0,-2.7777116298675537,-0.3794637620449066,0.7569383978843689,0.4200001657009125,0.9935523271560669,3.853986527246889e-06,-1.962229816854233e-06,-0.11337364464998245,0.16725300252437592,0.11292706429958344,-0.0002498011745046824,-0.004337109159678221,0.011186487972736359,-7.485056400299072,-0.3951946794986725,0.7641165256500244,0.4207180142402649,0.6929373741149902,-0.02506392076611519,-0.11360704898834229,0.34566789865493774,0.64327073097229,0.42000001668930054,-0.5124155879020691,2.999938488006592,-0.8004544973373413,-2.999992609024048,-0.17542824149131775,-0.1761210560798645,-0.1753675490617752,-0.17279313504695892,-0.7248191237449646,-0.4836428165435791,-0.23316410183906555,0.018009433522820473
0.3833333333333333,-0.021972283720970154,0.08664321899414062,0.0,0.8751246333122253,0.0,0.0,-0.4838976263999939,-0.7811194658279419,-0.9035496115684509,0.0,0.0,0.0,-6.439230442047119,-0.37284839153289795,0.7621606588363647,0.4200901687145233,0.977489709854126,0.0022364510223269463,-0.00028904801001772285,-0.21097113192081451,0.5935963988304138,0.4781121611595154,0.028301671147346497,1.421818733215332,-0.514268696308136,-17.077524185180664,-0.38160884380340576,0.7675710916519165,0.4207146167755127,0.9836753606796265,0.5005929470062256,0.08301970362663269,0.34566789865493774,0.64327073097229,0.42000001668930054,-0.46241021156311035,3.0000016689300537,-0.850516676902771,-2.999690294265747,-0.1877930462360382,-0.1845921128988266,-0.17977961897850037,-0.17313535511493683,-0.639282763004303,-0.4360966682434082,-0.22252020239830017,-0.007549675647169352
0.4,-0.03128621727228165,0.06910993903875351,0.0,0.8379431962966919,0.0,0.0,-0.5457574129104614,-0.4985072612762451,-1.1006284952163696,0.0,0.0,0.0,-9.375411987304688,-0.33929064869880676,0.7797526121139526,0.42203211784362793,0.9689170718193054,0.0028697410598397255,-0.02258036658167839,-0.2463361620903015,2.5397088527679443,2.111504316329956,0.16300353407859802,2.9552197456359863,0.13759706914424896,-31.915241241455078,-0.3456075191497803,0.7840256690979004,0.4228702485561371,3.348135471343994,1.4649362564086914,0.17591360211372375,0.34566789865493774,0.64327073097229,0.42000001668930054,-0.41252219676971436,2.910806655883789,-0.9005483388900757,-2.997445583343506,-0.19923482835292816,-0.19191652536392212,-0.18283706903457642,-0.17196239531040192,-0.6632534861564636,-0.40537065267562866,-0.14058910310268402,0.11913160979747772
0.4166666666666667,-0.037985123693943024,0.056961771100759506,0.0,0.7815395593643188,0.0,0.0,-0.623855710029602,-0.3521673381328583,-0.5904185175895691,0.0,0.0,0.0,-12.377891540527344,-0.25787726044654846,0.8077165484428406,0.4266563355922699,0.9451574683189392,0.052842266857624054,-0.06215223670005798,-0.31626278162002563,6.576347827911377,2.0151162147521973,0.2529645264148712,23.844255447387695,-18.296220779418945,8.262879371643066,-0.26311248540878296,0.8129040598869324,0.42736393213272095,6.172928810119629,1.972059726715088,0.39675959944725037,0.34566789865493774,0.64327073097229,0.42000001668930054,-0.3833102285861969,0.8845950961112976,-0.8636807203292847,2.9964680671691895,-0.21504350006580353,-0.20525746047496796,-0.19045217335224152,-0.17428496479988098,-0.8531569242477417,-0.8459447622299194,-0.5316445231437683,-0.25030314922332764
0.43333333333333335,-0.04673731327056885,0.05315534025430679,0.0,0.7321731448173523,0.0,0.0,-0.6811185479164124,-0.6081300973892212,-0.17574559152126312,0.0,0.0,0.0,-8.030230522155762,-0.15674181282520294,0.8307737708091736,0.43665528297424316,0.9124279618263245,0.09600137174129486,-0.08538943529129028,-0.3885453939437866,6.485472679138184,0.5390101075172424,0.7159264087677002,7.484288215637207,-11.733016967773438,11.42344856262207,-0.16021910309791565,0.8379771709442139,0.43747183680534363,6.101558685302734,0.9917165040969849,0.7583920955657959,0.34566789865493774,0.64327073097229,0.42000001668930054,-0.3705034852027893,0.7142844200134277,-0.8902362585067749,-3.000001907348633,-0.2303396463394165,-0.22061383724212646,-0.20425352454185486,-0.18289193511009216,-0.7488774657249451,-0.7774539589881897,-0.7941396832466125,-0.5366599559783936
0.45,-0.05097389593720436,0.03953157737851143,0.0,0.7066729068756104,0.0,0.0,-0.7075403928756714,-0.14825762808322906,-0.9890610575675964,0.0,0.0,0.0,-3.3387460708618164,-0.0529571957886219,0.842839241027832,0.44814974069595337,0.8531990051269531,0.10457374155521393,-0.0874757394194603,-0.5034518837928772,6.2299981117248535,-0.7218188047409058,0.8441319465637207,-7.524566173553467,6.582822799682617,5.299171447753906,-0.05751751363277435,0.8504612445831299,0.4481132924556732,6.189504623413086,0.15189354121685028,0.7009897232055664,0.34566789865493774,0.64327073097229,0.42000001668930054,-0.3558998107910156,0.8856329321861267,-0.9402602910995483,-2.998962163925171,-0.23233374953269958,-0.22396594285964966,-0.208713099360466,-0.1845318228006363,-0.04424039274454117,-0.06643424928188324,-0.08468551188707352,0.08188625425100327
0.4666666666666667,-0.05566942319273949,0.029678095132112503,0.0,0.7045844197273254,0.0,0.0,-0.7096201777458191,-0.29333728551864624,-0.43234628438949585,0.0,0.0,0.0,0.6560423970222473,0.03899424895644188,0.838128387928009,0.45825904607772827,0.788472592830658,0.08958221971988678,-0.06778235733509064,-0.6047242879867554,4.7469482421875,-1.4513719081878662,0.4679918587207794,-10.679178237915039,-18.72535514831543,22.037704467773438,0.03530721738934517,0.8479483127593994,0.458429217338562,5.060480117797852,-0.46905386447906494,0.6002727746963501,0.34566789865493774,0.64327073097229,0.42000001668930054,-0.342294305562973,0.6044398546218872,-0.990284264087677,-3.0000038146972656,-0.23680494725704193,-0.2279616892337799,-0.21241925656795502,-0.18577232956886292,-0.2698200047016144,-0.2396371215581894,-0.22963079810142517,-0.13115572929382324
0.48333333333333334,-0.0579993762075901,0.01933378539979458,0.0,0.6928997039794922,0.0,0.0,-0.7210339903831482,-0.07882759720087051,-0.6485264301300049,0.0,0.0,0.0,-2.8030567169189453,0.11358979344367981,0.822674036026001,0.46445322036743164,0.7453696727752686,0.07557796686887741,-0.06661133468151093,-0.6589953303337097,4.006551265716553,-2.3205556869506836,0.3043023943901062,-11.006505012512207,-9.266867637634277,19.149723052978516,0.1117023229598999,0.8323043584823608,0.46500495076179504,4.349129676818848,-1.473771572113037,0.3852449655532837,0.34566789865493774,0.64327073097229,0.42000001668930054,-0.33380675315856934,0.4082702696323395,-1.0403066873550415,-3.000002145767212,-0.23980942368507385,-0.22985288500785828,-0.2135949432849884,-0.18536081910133362,-0.24695917963981628,-0.11588534712791443,-0.015297653153538704,0.10230462998151779
0.5,-0.05680559203028679,0.013292009942233562,0.0,0.6931620836257935,0.0,0.0,-0.7207817435264587,0.12386196851730347,-0.30176958441734314,0.0,0.0,0.0,0.860464870929718,0.17858821153640747,0.7941522598266602,0.46713724732398987,0.6857136487960815,0.06087816134095192,-0.030303912237286568,-0.7246876955032349,3.2916343212127686,-2.541816234588623,-0.06911811977624893,-1.360276699066162,-4.353244304656982,17.124414443969727,0.1775069236755371,0.803165853023529,0.4668821096420288,3.7334680557250977,-1.9624004364013672,-0.0014084279537200928,0.34566789865493774,0.64327073097229,0.42000001668930054,-0.32488304376602173,0.5863837003707886,-1.0903288125991821,-3.0000007152557373,-0.23977074027061462,-0.23247462511062622,-0.21472112834453583,-0.18525086343288422,0.04806610569357872,-0.02882297709584236,0.027893219143152237,0.043395381420850754
0.5166666666666666,-0.054540909826755524,0.0031168803106993437,0.0,0.6818509101867676,0.0,0.0,-0.7314911484718323,0.16616292297840118,-0.5835036635398865,0.0,0.0,0.0,-2.6276724338531494,0.23305416107177734,0.7629119157791138,0.45946234464645386,0.6458166241645813,-0.020507708191871643,-0.056941743940114975,-0.7610899806022644,2.5051753520965576,-2.3651981353759766,-0.27253469824790955,16.022287368774414,-5.026458740234375,21.77682113647461,0.23253676295280457,0.7716602087020874,0.4625324010848999,2.980526924133301,-2.070894718170166,-0.5251914262771606,0.34566789865493774,0.64327073097229,0.42000001668930054,-0.3113841414451599,0.9377894997596741,-1.1403509378433228,-3.0000014305114746,-0.23298007249832153,-0.22755523025989532,-0.21016140282154083,-0.18200179934501648,0.2978537976741791,0.23973560333251953,0.22655506432056427,0.1322254240512848
0.5333333333333333,-0.050165753811597824,-0.0022610314190387726,0.0,0.683038055896759,0.0,0.0,-0.7303827404975891,0.2871098518371582,-0.27163922786712646,0.0,0.0,0.0,1.0469005107879639,0.2749342918395996,0.7281612157821655,0.4483753442764282,0.5944415926933289,-0.08185184001922607,-0.048126205801963806,-0.7985131144523621,1.7515448331832886,-2.3497941493988037,-0.6314047574996948,0.6717028617858887,3.3286678791046143,25.341737747192383,0.27471861243247986,0.7365520596504211,0.4528560936450958,2.3168535232543945,-2.1180315017700195,-0.7071370482444763,0.34566789865493774,0.64327073097229,0.42000001668930054,-0.29429635405540466,0.9788931608200073,-1.1903730630874634,-2.9999752044677734,-0.22865070402622223,-0.22400374710559845,-0.20719434320926666,-0.1811572164297104,0.36276519298553467,0.2995607554912567,0.22087085247039795,0.04408557340502739
0.55,-0.04335032030940056,-0.010364118032157421,0.0,0.6729289293289185,0.0,0.0,-0.7397071123123169,0.41783538460731506,-0.5510051250457764,0.0,0.0,0.0,-2.518436908721924,0.30796536803245544,0.6978552341461182,0.4307565689086914,0.5601966381072998,-0.117210753262043,-0.07583758234977722,-0.8165109157562256,1.5041837692260742,-1.70879328250885,-0.9628033638000488,4.434187889099121,1.0659823417663574,12.252212524414062,0.3073309361934662,0.7061758041381836,0.43672141432762146,1.6877479553222656,-1.7550127506256104,-1.1655738353729248,0.34566789865493774,0.64327073097229,0.42000001668930054,-0.2770136594772339,1.0240986347198486,-1.1547596454620361,3.0000011920928955,-0.2177167385816574,-0.21512584388256073,-0.20094625651836395,-0.17912150919437408,0.6520552635192871,0.539656400680542,0.3695751130580902,0.0989457219839096
0.5666666666666667,-0.03779378905892372,-0.01530882716178894,0.0,0.6746715307235718,0.0,0.0,-0.7381181120872498,0.2659737467765808,-0.24985633790493011,0.0,0.0,0.0,1.1156903505325317,0.32982927560806274,0.6751478910446167,0.423922598361969,0.5230584740638733,-0.0828067809343338,-0.018267765641212463,-0.8480678200721741,1.0742038488388062,-1.1473867893218994,0.0053471848368644714,-10.993973731994629,-4.049605369567871,13.395414352416992,0.32789841294288635,0.6813985109329224,0.4275834560394287,0.8328725099563599,-1.1251575946807861,0.08213097602128983,0.34566789865493774,0.64327073097229,0.42000001668930054,-0.25800618529319763,1.1289186477661133,-1.1767855882644653,-2.9989163875579834,-0.20900973677635193,-0.20808309316635132,-0.1967487782239914,-0.17941021919250488,0.5758230090141296,0.4543520212173462,0.254835307598114,-0.036011144518852234
0.5833333333333334,-0.03191418573260307,-0.016991812735795975,0.0,0.6661556959152222,0.0,0.0,-0.7458126544952393,0.3965355157852173,-0.005677860230207443,0.0,0.0,0.0,-2.2016098499298096,0.3414791524410248,0.6618764400482178,0.4230993688106537,0.5369204878807068,-0.06278219819068909,-0.01520866621285677,-0.841156005859375,0.5138627290725708,-0.7031049728393555,-0.002791237086057663,-0.9189605116844177,-0.29253727197647095,5.187986850738525,0.339230477809906,0.6675560474395752,0.42659279704093933,0.4529314935207367,-0.621853768825531,-0.01451961137354374,0.34566789865493774,0.64327073097229,0.42000001668930054,-0.23979124426841736,0.9824592471122742,-1.1389156579971313,2.9999964237213135,-0.19863085448741913,-0.20021861791610718,-0.19271300733089447,-0.18052992224693298,0.6188424229621887,0.46819427609443665,0.23454943299293518,-0.07243616133928299
0.6,-0.02845676802098751,-0.02281758189201355,0.0,0.6694496870040894,0.0,0.0,-0.7428573966026306,0.18700312077999115,-0.38337942957878113,0.0,0.0,0.0,1.2333060503005981,0.3469446897506714,0.651974618434906,0.4234565198421478,0.5504863858222961,-0.06522386521100998,0.001032102620229125,-0.8322916626930237,0.08542858064174652,-0.7326693534851074,0.006318697240203619,-1.6483697891235352,-0.28963491320610046,2.608933925628662,0.3430621325969696,0.6577211618423462,0.42730391025543213,0.005064964294433594,-0.5978153347969055,0.11991988122463226,0.34566789865493774,0.64327073097229,0.42000001668930054,-0.26710766553878784,-3.0000009536743164,-1.161146640777588,-2.999460458755493,-0.18590983748435974,-0.1894226372241974,-0.18581178784370422,-0.17866647243499756,0.5399488806724548,0.5182242393493652,0.3357181251049042,0.08456400036811829
0.6166666666666667,-0.022864392027258873,-0.024055728688836098,0.0,0.6608636379241943,0.0,0.0,-0.7505059838294983,0.3157270848751068,-0.026016928255558014,0.0,0.0,0.0,-2.1822404861450195,0.3469755947589874,0.6436299085617065,0.4230104982852936,0.5647475719451904,-0.05958356335759163,-0.014185280539095402,-0.8229876160621643,0.2091393768787384,-0.09703977406024933,0.1679038107395172,-3.430445432662964,5.689019680023193,1.0404671430587769,0.3438718318939209,0.6534445285797119,0.42916983366012573,0.24550572037696838,-0.003208969719707966,0.11817042529582977,0.34566789865493774,0.64327073097229,0.42000001668930054,-0.2987143397331238,-1.0048094987869263,-1.2110897302627563,-2.998680830001831,-0.17914056777954102,-0.1830701231956482,-0.18227186799049377,-0.17892014980316162,0.5287038087844849,0.4647859036922455,0.27486878633499146,0.0378357395529747
0.6333333333333333,-0.01565762422978878,-0.028183316811919212,0.0,0.664577305316925,0.0,0.0,-0.7472195625305176,0.46732255816459656,-0.27266621589660645,0.0,0.0,0.0,1.3974406719207764,0.3493373394012451,0.6425749659538269,0.42433884739875793,0.5715670585632324,-0.08199544250965118,0.004109199624508619,-0.8164379596710205,0.009500852786004543,-0.09745226800441742,0.06983283162117004,0.5299272537231445,3.3092899322509766,-0.6671733856201172,0.34426993131637573,0.6524491310119629,0.4294782280921936,-0.17450055480003357,-0.11507529020309448,-0.05221708118915558,0.34566789865493774,0.64327073097229,0.42000001668930054,-0.3407924175262451,-2.999877691268921,-1.2088215351104736,2.771111011505127,-0.17045947909355164,-0.17512479424476624,-0.17698530852794647,-0.17703980207443237,0.3410201966762543,0.34073859453201294,0.2337845265865326,0.0820140391588211
0.65,-0.006502403412014246,-0.02983061410486698,0.0,0.6740040183067322,0.0,0.0,-0.7387276887893677,0.5861070156097412,-0.03525824844837189,0.0,0.0,0.0,1.6809875965118408,0.34875333309173584,0.6418800950050354,0.4239772856235504,0.5716907978057861,-0.07420498132705688,0.0075186798349022865,-0.8170720338821411,-0.057808004319667816,-0.022547388449311256,-0.04465039074420929,0.5860340595245361,-1.726125717163086,-0.17920106649398804,0.34231698513031006,0.6532928943634033,0.4311867356300354,-0.0927686020731926,0.09736986458301544,0.1798076629638672,0.34566789865493774,0.64327073097229,0.42000001668930054,-0.39078524708747864,-2.9997458457946777,-1.2316877841949463,-2.9992597103118896,-0.16493120789527893,-0.1699318289756775,-0.17357634007930756,-0.1759636104106903,0.3586786985397339,0.32855790853500366,0.2250126600265503,0.09501642733812332
0.6666666666666666,0.0038912338204681873,-0.034321222454309464,0.0,0.6790873408317566,0.0,0.0,-0.7340574860572815,0.6677094101905823,-0.28130796551704407,0.0,0.0,0.0,0.3815170228481293,0.34732934832572937,0.6417099833488464,0.4219619929790497,0.5757429003715515,-0.03738908842206001,-0.009063402190804482,-0.8167251944541931,-0.10548713803291321,-0.006932102609425783,-0.14160041511058807,0.8626487255096436,-5.5981879234313965,1.6155695915222168,0.3409510552883148,0.6552918553352356,0.43487221002578735,-0.1368640810251236,0.061832740902900696,0.24779140949249268,0.34566789865493774,0.64327073097229,0.42000001668930054,-0.44078943133354187,-2.999999523162842,-1.2816672325134277,-2.9998397827148438,-0.15754112601280212,-0.16291643679141998,-0.1679045408964157,-0.17194579541683197,0.28358232975006104,0.31049826741218567,0.28962236642837524,0.2525330185890198
0.6833333333333333,0.016542470082640648,-0.035773470997810364,0.0,0.6655853390693665,0.0,0.0,-0.7463217377662659,0.788063645362854,-0.03333856910467148,0.0,0.0,0.0,-3.060290813446045,0.34606075286865234,0.6407881379127502,0.42000800371170044,0.5799171924591064,7.374423876171932e-05,0.0002389012515777722,-0.8146753907203674,-0.008556308224797249,-0.0010399071034044027,-2.416921779513359e-05,-0.004333252087235451,0.04326750338077545,0.48748067021369934,0.34132927656173706,0.6567022800445557,0.4404412508010864,0.1687125712633133,0.07854960113763809,0.5405998826026917,0.34566789865493774,0.64327073097229,0.42000001668930054,-0.490803062915802,-3.000000476837158,-1.3316855430603027,-3.000000476837158,-0.15475352108478546,-0.15955638885498047,-0.1644708663225174,-0.16852393746376038,0.1460944563150406,0.1843772977590561,0.20681390166282654,0.23239868879318237
0.7,0.031240079551935196,-0.04050508141517639,0.0,0.6309000849723816,0.0,0.0,-0.7758640646934509,0.919590413570404,-0.3259754180908203,0.0,0.0,0.0,-6.314326286315918,0.34605729579925537,0.6407979130744934,0.4200000464916229,0.579917311668396,2.928447884187335e-07,-4.531498234428e-06,-0.8146752715110779,0.00021050892246421427,-0.00018065355834551156,-7.743318565189838e-05,0.001198420999571681,-0.0008167538326233625,-0.0009660447249189019,0.35230380296707153,0.6566728353500366,0.45671170949935913,1.0990073680877686,-0.15825125575065613,1.5382345914840698,0.34566789865493774,0.64327073097229,0.42000001668930054,-0.5408156514167786,-2.999929189682007,-1.3817038536071777,-2.999993324279785,-0.15384727716445923,-0.15758016705513,-0.16155870258808136,-0.16459357738494873,-0.15284305810928345,-0.04247542470693588,0.06439237296581268,0.1751403659582138
0.7166666666666667,0.043642934411764145,-0.042298778891563416,0.0,0.6101288795471191,0.0,0.0,-0.7923021912574768,0.6702030897140503,-0.09467435628175735,0.0,0.0,0.0,-2.1023166179656982,0.34605735540390015,0.6407978534698486,0.4200000464916229,0.5799176692962646,4.01331931243476e-07,-3.2213042686635163e-06,-0.8146750330924988,0.00010018792818300426,-0.00026562114362604916,-8.84844921529293e-05,0.0063318959437310696,-0.0015130109386518598,-0.0006811014609411359,0.37284645438194275,0.6598570346832275,0.48614612221717834,1.3577313423156738,0.49403855204582214,1.8917380571365356,0.34566789865493774,0.64327073097229,0.42000001668930054,-0.561992883682251,0.1967962384223938,-1.4317221641540527,-3.000000238418579,-0.1576438695192337,-0.16009610891342163,-0.16285192966461182,-0.16466078162193298,-0.09118841588497162,-0.08456040918827057,-0.07831794768571854,-0.07080577313899994
0.7333333333333333,0.0515049584209919,-0.04157579690217972,0.0,0.6148579716682434,0.0,0.0,-0.7886378169059753,0.3973444998264313,0.09368962049484253,0.0,0.0,0.0,1.5872935056686401,0.34605735540390015,0.6407978534698486,0.4200000464916229,0.5799175500869751,3.6242778378436924e-07,-3.2562909382249927e-06,-0.8146751523017883,0.000101513258414343,-0.0002662725455593318,-8.880952373147011e-05,0.006341836880892515,-0.0015007734764367342,-0.0006848621414974332,0.39207151532173157,0.6679168939590454,0.5121526122093201,0.8965091705322266,0.49162566661834717,1.2717434167861938,0.34566789865493774,0.64327073097229,0.42000001668930054,-0.5379871129989624,2.466214895248413,-1.3931852579116821,2.999999761581421,-0.15935330092906952,-0.16149471700191498,-0.16389919817447662,-0.165352463722229,-0.07347169518470764,-0.052004698663949966,-0.026854123920202255,-0.0029269650112837553
0.75,0.055257607251405716,-0.044596605002880096,0.0,0.6078097224235535,0.0,0.0,-0.7940827012062073,0.1693217158317566,-0.28085315227508545,0.0,0.0,0.0,-1.9827854633331299,0.34605735540390015,0.6407978534698486,0.4200000464916229,0.5799175500869751,3.661317293790489e-07,-3.295878059361712e-06,-0.8146750330924988,0.00010181008110521361,-0.00026629766216501594,-8.889846503734589e-05,0.006340584717690945,-0.001498135388828814,-0.0006856133695691824,0.4001956582069397,0.6750437021255493,0.5266460180282593,0.04691704735159874,0.38408541679382324,0.6631348729133606,0.34566789865493774,0.64327073097229,0.42000001668930054,-0.4988346993923187,2.219982147216797,-1.3431326150894165,2.9999992847442627,-0.15998560190200806,-0.16168133914470673,-0.16357119381427765,-0.1645621359348297,-0.024559419602155685,0.011515163816511631,0.050646841526031494,0.0838218405842781
0.7666666666666666,0.055509552359580994,-0.04265377297997475,0.0,0.6135108470916748,0.0,0.0,-0.7896863222122192,-0.036969929933547974,0.24842022359371185,0.0,0.0,0.0,1.751039743423462,0.34605735540390015,0.6407978534698486,0.4200000464916229,0.5799176096916199,3.824590635304048e-07,-3.337234829814406e-06,-0.8146750330924988,0.00010186129657085985,-0.00026621666620485485,-8.891080506145954e-05,0.00633837329223752,-0.00149704166688025,-0.0006856099353171885,0.39719337224960327,0.6794846057891846,0.5356473326683044,-0.36136481165885925,0.25565552711486816,0.4380137324333191,0.34566789865493774,0.64327073097229,0.42000001668930054,-0.45493826270103455,2.9489710330963135,-1.348808765411377,-2.999999523162842,-0.16634754836559296,-0.1661304533481598,-0.16612306237220764,-0.1654348075389862,-0.4379013776779175,-0.3118520975112915,-0.18610358238220215,-0.07392105460166931
0.7833333333333333,0.05724284425377846,-0.042833320796489716,0.0,0.6081907153129578,0.0,0.0,-0.7937909364700317,0.11194191873073578,-0.11673617362976074,0.0,0.0,0.0,-1.418165683746338,0.34605735540390015,0.6407978534698486,0.4200000464916229,0.5799176692962646,3.838827353774832e-07,-3.3800101846281905e-06,-0.8146750330924988,0.00010218688839813694,-0.0002661919570527971,-8.898717351257801e-05,0.006335923448204994,-0.0014932353515177965,-0.0006863106391392648,0.3847465515136719,0.6824998259544373,0.5365257859230042,-1.0936470031738281,0.1342298537492752,-0.14621061086654663,0.34566789865493774,0.64327073097229,0.42000001668930054,-0.4379728138446808,-0.6181399822235107,-1.3105084896087646,3.0000007152557373,-0.17138376832008362,-0.1694987416267395,-0.16776148974895477,-0.16550253331661224,-0.21235856413841248,-0.13126696646213531,-0.04249940067529678,0.040526874363422394
0.8,0.058947231620550156,-0.04219581559300423,0.0,0.6151501536369324,0.0,0.0,-0.788409948348999,0.11782070249319077,0.0970534011721611,0.0,0.0,0.0,1.849892020225525,0.34605735540390015,0.6407978534698486,0.4200000464916229,0.5799177289009094,3.8190904660950764e-07,-3.2384746191382874e-06,-0.814674973487854,0.00010088477574754506,-0.0002658548764884472,-8.869613520801067e-05,0.006334973964840174,-0.0015065801562741399,-0.0006829867488704622,0.37219059467315674,0.685228705406189,0.534099817276001,-0.5041085481643677,0.20199596881866455,-0.096962109208107,0.34566789865493774,0.64327073097229,0.42000001668930054,-0.4574849307537079,-1.6225366592407227,-1.3302136659622192,-2.9999990463256836,-0.17416240274906158,-0.17129933834075928,-0.16831007599830627,-0.16474902629852295,-0.111540287733078,-0.0679287388920784,-0.0031135843601077795,0.06992998719215393
0.8166666666666667,0.06218763440847397,-0.04400790482759476,0.0,0.6097825765609741,0.0,0.0,-0.7925687432289124,0.2328500598669052,-0.14929191768169403,0.0,0.0,0.0,-1.6793049573898315,0.34605735540390015,0.6407978534698486,0.4200000464916229,0.5799176096916199,3.894565168138797e-07,-3.2756863674876513e-06,-0.8146750926971436,0.0001015730740618892,-0.0002661937614902854,-8.882279507815838e-05,0.006339503452181816,-0.0014996399404481053,-0.0006848748307675123,0.36566680669784546,0.6862075328826904,0.5276793241500854,-0.29769980907440186,-0.11418124288320541,-0.4874514639377594,0.34566789865493774,0.64327073097229,0.42000001668930054,-0.5031753778457642,-3.000000238418579,-1.3802281618118286,-2.9999992847442627,-0.17496049404144287,-0.1713380664587021,-0.16719087958335876,-0.16228656470775604,-0.10572338104248047,-0.03165523707866669,0.06518474221229553,0.17195382714271545
0.8333333333333334,0.06795652210712433,-0.04888090118765831,0.0,0.5835283994674683,0.0,0.0,-0.8120927214622498,0.3924446105957031,-0.3527839183807373,0.0,0.0,0.0,-4.839195728302002,0.34605735540390015,0.6407978534698486,0.4200000464916229,0.5799176692962646,3.9886634795038844e-07,-3.3168873869726667e-06,-0.8146750926971436,0.00010051648132503033,-0.00026595525559969246,-8.861138485372066e-05,0.006339477840811014,-0.0015113198896870017,-0.0006823072326369584,0.36633822321891785,0.681138277053833,0.5227469205856323,0.40762364864349365,-0.4469573497772217,0.04568398743867874,0.34566789865493774,0.64327073097229,0.42000001668930054,-0.5531860589981079,-2.999938726425171,-1.4302464723587036,-2.999997854232788,-0.17825065553188324,-0.17322476208209991,-0.1672946810722351,-0.16043606400489807,-0.21280930936336517,-0.12903812527656555,-0.023096339777112007,0.09335990995168686
0.85,0.07682034373283386,-0.05022980645298958,0.0,0.5716654062271118,0.0,0.0,-0.820486843585968,0.5407944321632385,-0.04883426055312157,0.0,0.0,0.0,-0.6582961082458496,0.34605735540390015,0.6407978534698486,0.4200000464916229,0.5799176692962646,3.875296954447549e-07,-3.3583439744688803e-06,-0.814674973487854,0.0001006269667414017,-0.0002659176825545728,-8.863210678100586e-05,0.006337848957628012,-0.001509837806224823,-0.0006824990850873291,0.37257373332977295,0.6782569885253906,0.5276968479156494,0.3861980736255646,0.08550386130809784,0.48573100566864014,0.34566789865493774,0.64327073097229,0.42000001668930054,-0.5739436149597168,0.2447376400232315,-1.4802647829055786,-2.999999761581421,-0.1826992928981781,-0.17682597041130066,-0.1697801798582077,-0.16170457005500793,-0.0964496061205864,-0.11793958395719528,-0.12488728016614914,-0.1247415766119957
0.8666666666666667,0.08203893899917603,-0.05108688026666641,0.0,0.5855616927146912,0.0,0.0,-0.810627818107605,0.2525179088115692,0.03252843767404556,0.0,0.0,0.0,2.8512961864471436,0.34605735540390015,0.6407978534698486,0.4200000464916229,0.5799177289009094,3.9519434835710854e-07,-3.4020051771221915e-06,-0.814674973487854,0.00010074052261188626,-0.0002658905868884176,-8.865795098245144e-05,0.006336612161248922,-0.00150824966840446,-0.0006827049073763192,0.3809283971786499,0.6814357042312622,0.5311287641525269,0.5363572835922241,0.18758359551429749,-0.038674697279930115,0.34566789865493774,0.64327073097229,0.42000001668930054,-0.5633159279823303,0.9587002992630005,-1.4415886402130127,2.9999992847442627,-0.18095378577709198,-0.17590951919555664,-0.16946008801460266,-0.16184663772583008,0.13108420372009277,0.08461190015077591,0.048649854958057404,0.01796855218708515
0.8833333333333333,0.08344843238592148,-0.05515320599079132,0.0,0.5853870511054993,0.0,0.0,-0.8107540011405945,0.007056758739054203,-0.25788140296936035,0.0,0.0,0.0,-0.738057017326355,0.34605735540390015,0.6407978534698486,0.4200000464916229,0.5799176692962646,3.9794005601834215e-07,-3.259877303207759e-06,-0.8146750330924988,0.00010032503632828593,-0.0002660360187292099,-8.857832290232182e-05,0.006342396140098572,-0.0015143033815547824,-0.0006820232374593616,0.38757801055908203,0.681786060333252,0.5268020033836365,0.19270306825637817,-0.14373821020126343,-0.29859814047813416,0.34566789865493774,0.64327073097229,0.42000001668930054,-0.5822700262069702,-2.8866195678710938,-1.391535997390747,3.0,-0.17751385271549225,-0.17333219945430756,-0.16762535274028778,-0.16070249676704407,0.06097446009516716,0.04437854140996933,0.028715794906020164,0.009990766644477844
0.9,0.08767669647932053,-0.05327124521136284,0.0,0.5994242429733276,0.0,0.0,-0.800431489944458,0.21809521317481995,0.15771304070949554,0.0,0.0,0.0,2.8082265853881836,0.34605735540390015,0.6407978534698486,0.4200000464916229,0.5799175500869751,3.7823247112100944e-07,-3.2965544960461557e-06,-0.8146751523017883,0.00010162557009607553,-0.00026624539168551564,-8.883490227162838e-05,0.006340507417917252,-0.0014993256190791726,-0.0006850723293609917,0.3938363790512085,0.6784734725952148,0.5219390392303467,0.5250606536865234,-0.07624819874763489,-0.26912233233451843,0.34566789865493774,0.64327073097229,0.42000001668930054,-0.6045382022857666,-0.01775607094168663,-1.4098175764083862,-3.000000238418579,-0.18181946873664856,-0.17682132124900818,-0.17032013833522797,-0.16270484030246735,-0.11099487543106079,-0.09633393585681915,-0.07570133358240128,-0.0527442991733551
