vladlanda/robotic-transformer/data/env_000_episode_0260.csv
sim_time_s,robot_box_x,robot_box_y,robot_box_z,robot_box_quat_w,robot_box_quat_x,robot_box_quat_y,robot_box_quat_z,robot_box_linvel_x,robot_box_linvel_y,robot_box_linvel_z,robot_box_angvel_x,robot_box_angvel_y,robot_box_angvel_z,cube_world_x,cube_world_y,cube_world_z,cube_quat_w,cube_quat_x,cube_quat_y,cube_quat_z,cube_linvel_x,cube_linvel_y,cube_linvel_z,cube_angvel_x,cube_angvel_y,cube_angvel_z,endpoint_world_x,endpoint_world_y,endpoint_world_z,endpoint_linvel_x,endpoint_linvel_y,endpoint_linvel_z,target_cube_world_x,target_cube_world_y,target_cube_world_z,gripper_actual_pos_rad_gp_leftgearjoint,gripper_actual_vel_rad_s_gp_leftgearjoint,gripper_actual_pos_rad_gp_rotatingjoint,gripper_actual_vel_rad_s_gp_rotatingjoint,motor_angle_rad_joint1,motor_angle_rad_joint2,motor_angle_rad_joint3,motor_angle_rad_joint4,motor_speed_rad_s_joint1,motor_speed_rad_s_joint2,motor_speed_rad_s_joint3,motor_speed_rad_s_joint4
0.0,0.0,0.0,0.0,1.0,0.0,0.0,0.0,0.0,0.0,0.0,0.0,0.0,0.0,-0.4323006272315979,0.7737533450126648,0.41999998688697815,1.0,0.0,0.0,0.0,0.0,0.0,0.0,0.0,0.0,0.0,3.42540442943573e-06,-0.005000244826078415,1.313499927520752,0.0,0.0,0.0,0.47596117854118347,0.7355399131774902,0.42000001668930054,-1.5707999467849731,0.0,0.0,0.0,0.0,0.0,0.0,0.0,0.0,0.0,0.0,0.0
0.016666666666666666,0.0028778850100934505,0.0021806680597364902,0.0,0.9998081922531128,0.0,0.0,0.019586581736803055,0.24087215960025787,0.18240931630134583,0.0,0.0,0.0,3.1418697834014893,-0.43230074644088745,0.7737530469894409,0.41999998688697815,1.0,3.279964630564791e-06,-8.339746386809566e-07,8.465587342243452e-08,-1.9833529222523794e-05,0.00017983045836444944,-6.132945418357849e-05,0.0009432713268324733,-0.004689474124461412,-0.00031981561915017664,-0.007110234349966049,0.003379564033821225,1.3159373998641968,-0.8143353462219238,0.9868683815002441,0.18095196783542633,0.47596117854118347,0.7355399131774902,0.42000001668930054,-1.5301095247268677,3.0000011920928955,-0.04584788903594017,-2.9999992847442627,0.0008691533003002405,0.0007963840034790337,0.0007110277656465769,0.0006108740926720202,0.11094217747449875,0.09756709635257721,0.08334315568208694,0.06823883205652237
0.03333333333333333,0.00896099116653204,0.006802027579396963,0.0,0.9997960329055786,0.0,0.0,0.020196840167045593,0.4070222079753876,0.3153079152107239,0.0,0.0,0.0,-0.8691337704658508,-0.432300865650177,0.7737529873847961,0.4200000464916229,1.0,3.3908477234945167e-06,-2.1324151475710096e-06,-3.7116176798690503e-08,0.00026357846218161285,0.0002693776914384216,-0.00010509602725505829,-0.0017706857761368155,0.004130810499191284,-0.0001354778796667233,-0.027556639164686203,0.02629934810101986,1.3165804147720337,-1.5912965536117554,1.6163429021835327,-0.08707208186388016,0.47596117854118347,0.7355399131774902,0.42000001668930054,-1.4800903797149658,3.0000007152557373,-0.09588771313428879,-3.000000238418579,0.002990090986713767,0.0026526888832449913,0.0022772483061999083,0.0018606933299452066,0.1642124056816101,0.13975512981414795,0.11381323635578156,0.08629471808671951
0.05,0.017318179830908775,0.013603686355054379,0.0,0.9999240636825562,0.0,0.0,0.01232336275279522,0.5437700152397156,0.4473945200443268,0.0,0.0,0.0,-0.9781982898712158,-0.4323008954524994,0.7737530469894409,0.4200000464916229,1.0,3.765178917092271e-06,-2.2119245386420516e-06,5.606314079642516e-09,0.00026530868490226567,0.0002669158566277474,-0.0001044049859046936,-0.0017243095207959414,0.004177443217486143,-0.00012949752272106707,-0.058104172348976135,0.05694445222616196,1.3112244606018066,-2.0364131927490234,2.030136823654175,-0.5205904841423035,0.47596117854118347,0.7355399131774902,0.42000001668930054,-1.4300720691680908,3.000000476837158,-0.14592638611793518,-3.0000009536743164,0.0055234129540622234,0.004719079006463289,0.003842645790427923,0.0028894757851958275,0.1710314303636551,0.13316799700260162,0.09344570338726044,0.05175112932920456
0.06666666666666667,0.028969421982765198,0.022684479132294655,0.0,0.9998809099197388,0.0,0.0,-0.015431756153702736,0.7650482058525085,0.5896816849708557,0.0,0.0,0.0,-4.245154857635498,-0.4323008954524994,0.7737529873847961,0.4200000464916229,0.9999999403953552,3.406791165616596e-06,-2.2856313535157824e-06,4.300777334265149e-07,0.00026702677132561803,0.00026791825075633824,-0.0001043803058564663,-0.0017406195402145386,0.00421179411932826,-0.00012850826897192746,-0.09062527120113373,0.0950486958026886,1.3000820875167847,-1.8683775663375854,2.507944345474243,-0.809381365776062,0.47596117854118347,0.7355399131774902,0.42000001668930054,-1.3800537586212158,3.0000011920928955,-0.19596366584300995,-3.0000009536743164,0.00786469504237175,0.006202808115631342,0.004429203923791647,0.0025396074634045362,0.12555569410324097,0.05935381352901459,-0.008934035897254944,-0.07936043292284012
0.08333333333333333,0.03489524871110916,0.03585246950387955,0.0,0.9996474981307983,0.0,0.0,-0.026549285277724266,0.22041204571723938,0.8670298457145691,0.0,0.0,0.0,-0.30369457602500916,-0.4323008954524994,0.7737529873847961,0.4200000464916229,0.9999999403953552,3.6260698834666982e-06,-2.335327053515357e-06,3.032084521237266e-07,0.00026613925001583993,0.00026685016928240657,-0.00010405108332633972,-0.001728382776491344,0.004196322523057461,-0.00012790641630999744,-0.12466908246278763,0.13491427898406982,1.2831380367279053,-2.035193920135498,2.4627933502197266,-1.136023759841919,0.47596117854118347,0.7355399131774902,0.42000001668930054,-1.3300282955169678,2.9999961853027344,-0.16895726323127747,2.999999523162842,0.003949042875319719,0.0015647533582523465,-0.0009837684920057654,-0.00370480353012681,-0.33889201283454895,-0.3859093487262726,-0.4355580806732178,-0.4881148636341095
0.1,0.04497651383280754,0.04978225752711296,0.0,0.9987202286720276,0.0,0.0,-0.050575774163007736,0.7157787680625916,0.8500801920890808,0.0,0.0,0.0,-3.7364108562469482,-0.4323008954524994,0.7737529873847961,0.4200000464916229,1.0,3.4221220630570315e-06,-2.308592684130417e-06,1.7961252751774737e-07,0.0002668163215275854,0.00026800521300174296,-0.00010440708138048649,-0.0017430817242711782,0.0042070625349879265,-0.00012890611833427101,-0.15311463177204132,0.17950952053070068,1.2669833898544312,-1.4464210271835327,2.919095993041992,-0.9136792421340942,0.47596117854118347,0.7355399131774902,0.42000001668930054,-1.2800318002700806,2.999999523162842,-0.2006399780511856,-3.0000014305114746,0.0031450383830815554,-0.001008101855404675,-0.005320366006344557,-0.009800830855965614,-0.04366467520594597,-0.1672104150056839,-0.28961801528930664,-0.4109356105327606
0.11666666666666667,0.05293966829776764,0.06612740457057953,0.0,0.994789183139801,0.0,0.0,-0.10195326060056686,0.4886278510093689,1.0503368377685547,0.0,0.0,0.0,-6.839920520782471,-0.4323008954524994,0.7737530469894409,0.4200000464916229,1.0,3.7114953101990977e-06,-2.3327368126047077e-06,2.574126938270638e-07,0.0002648562949616462,0.0002663532504811883,-0.00010423408821225166,-0.0017183172749355435,0.004170157015323639,-0.0001291559310629964,-0.17761534452438354,0.2311599850654602,1.250797986984253,-1.4666047096252441,3.3144078254699707,-0.9967219829559326,0.47596117854118347,0.7355399131774902,0.42000001668930054,-1.2318331003189087,2.7609777450561523,-0.16685451567173004,3.0000014305114746,8.116869139485061e-05,-0.005957355722784996,-0.012125980108976364,-0.018434863537549973,-0.11695492267608643,-0.2391260415315628,-0.3579713702201843,-0.47341135144233704
0.13333333333333333,0.05808672308921814,0.0849810540676117,0.0,0.991355836391449,0.0,0.0,-0.1312006115913391,0.2296307384967804,1.1720995903015137,0.0,0.0,0.0,-2.471259593963623,-0.4323008954524994,0.7737529873847961,0.4200000464916229,0.9999999403953552,3.4247075291204965e-06,-2.30203545470431e-06,1.5598085667534178e-07,0.0002670704561751336,0.00026811397401615977,-0.00010444503277540207,-0.001743327477015555,0.004212008323520422,-0.00012877430708613247,-0.20926052331924438,0.2826959490776062,1.232434868812561,-1.994734287261963,3.220088005065918,-1.2208647727966309,0.47596117854118347,0.7355399131774902,0.42000001668930054,-1.1939321756362915,1.839499592781067,-0.1985124796628952,-3.000000476837158,-0.0029528308659791946,-0.010874571278691292,-0.018854953348636627,-0.026901811361312866,-0.2464067041873932,-0.34593406319618225,-0.44102153182029724,-0.531534731388092
0.15,0.059829339385032654,0.10293366014957428,0.0,0.9849686622619629,0.0,0.0,-0.17273321747779846,0.05945300683379173,1.01213800907135,0.0,0.0,0.0,-5.942558765411377,-0.4323008954524994,0.7737529873847961,0.4200000464916229,1.0,3.7138861443963833e-06,-2.2079179871070664e-06,-1.691132354153524e-07,0.0002635323617141694,0.00026536022778600454,-0.00010421965271234512,-0.001701295142993331,0.0041441405192017555,-0.00012960679305251688,-0.24132849276065826,0.34123921394348145,1.2091892957687378,-1.7773287296295166,3.8578312397003174,-1.6114535331726074,0.47596117854118347,0.7355399131774902,0.42000001668930054,-1.1479363441467285,3.0000009536743164,-0.2485196739435196,-3.0,-0.0077397809363901615,-0.017239097505807877,-0.026712561026215553,-0.036165978759527206,-0.3439922332763672,-0.42471957206726074,-0.5006215572357178,-0.5716475248336792
0.16666666666666666,0.06645893305540085,0.12121421098709106,0.0,0.9803730845451355,0.0,0.0,-0.1971512734889984,0.358531653881073,1.123425841331482,0.0,0.0,0.0,-1.9566298723220825,-0.4323008954524994,0.7737529873847961,0.4200000464916229,0.9999999403953552,3.6383873975864844e-06,-2.278850388393039e-06,2.7004381308870506e-07,0.0002668264205567539,0.00026750037795864046,-0.00010410160757601261,-0.001739899511449039,0.004210035782307386,-0.0001278175914194435,-0.27715355157852173,0.4023084044456482,1.1764497756958008,-2.2172961235046387,3.7472095489501953,-2.339341640472412,0.47596117854118347,0.7355399131774902,0.42000001668930054,-1.1164724826812744,0.9297481775283813,-0.29853355884552,-2.9998722076416016,-0.010888739489018917,-0.021653005853295326,-0.03230069577693939,-0.042837854474782944,-0.41955703496932983,-0.44496771693229675,-0.4675658941268921,-0.48760366439819336
0.18333333333333332,0.06887562572956085,0.1366257667541504,0.0,0.9719853401184082,0.0,0.0,-0.23504146933555603,0.11532827466726303,0.8872359991073608,0.0,0.0,0.0,-5.400362491607666,-0.4323008954524994,0.7737529873847961,0.4200000464916229,1.0,3.3864146189444e-06,-2.300287860634853e-06,1.4390711555734015e-07,0.0002667455992195755,0.0002678711898624897,-0.00010436843149363995,-0.0017411891603842378,0.004205980338156223,-0.00012878818961326033,-0.31203538179397583,0.46826452016830444,1.1332570314407349,-1.8594787120819092,4.241761207580566,-2.8516297340393066,0.47596117854118347,0.7355399131774902,0.42000001668930054,-1.0730781555175781,3.000001907348633,-0.34856095910072327,-3.0,-0.020828409120440483,-0.03162318095564842,-0.04227280616760254,-0.05279184877872467,-0.6712183952331543,-0.6628577709197998,-0.6530708074569702,-0.6422908902168274
0.2,0.06789759546518326,0.15252017974853516,0.0,0.967312753200531,0.0,0.0,-0.25358641147613525,-0.1278504580259323,0.9890046715736389,0.0,0.0,0.0,-1.2501879930496216,-0.4323008954524994,0.7737530469894409,0.4200000464916229,1.0,3.6755382097908296e-06,-2.32657180276874e-06,2.211032636978416e-07,0.00026484476984478533,0.00026631413493305445,-0.00010421779006719589,-0.0017177412519231439,0.00416988180950284,-0.0001290992076974362,-0.34628263115882874,0.5360866785049438,1.0778863430023193,-1.9046318531036377,4.121745586395264,-3.7413852214813232,0.47596117854118347,0.7355399131774902,0.42000001668930054,-1.0313440561294556,2.05596923828125,-0.3985864222049713,-3.0000016689300537,-0.03338735178112984,-0.04368378221988678,-0.053807590156793594,-0.06378334015607834,-0.8022425770759583,-0.755195677280426,-0.7070253491401672,-0.6584002375602722
0.21666666666666667,0.06931369751691818,0.17006969451904297,0.0,0.9583873152732849,0.0,0.0,-0.2854710817337036,0.1032106950879097,1.1020938158035278,0.0,0.0,0.0,-4.878458499908447,-0.4323008954524994,0.7737529873847961,0.4200000464916229,1.0,3.3222745514649432e-06,-2.208058276664815e-06,2.742532672073139e-07,0.0002666293294169009,0.000267496972810477,-0.0001042631920427084,-0.00173582520801574,0.004204846918582916,-0.0001283418241655454,-0.3775634169578552,0.6049185395240784,1.0091774463653564,-1.6877028942108154,4.083673000335693,-4.496133804321289,0.47596117854118347,0.7355399131774902,0.42000001668930054,-0.9830546379089355,2.9999992847442627,-0.44861093163490295,-2.9999990463256836,-0.04732874035835266,-0.056630007922649384,-0.06572703272104263,-0.07469270378351212,-0.9573843479156494,-0.87704998254776,-0.7935102581977844,-0.7127493023872375
0.23333333333333334,0.06851836293935776,0.18491540849208832,0.0,0.9539082646369934,0.0,0.0,-0.3000984191894531,-0.09597323089838028,0.8162358999252319,0.0,0.0,0.0,-0.8192752599716187,-0.4323008954524994,0.7737529873847961,0.4200000464916229,1.0,3.656448598121642e-06,-2.3734667138342047e-06,-4.076868265201483e-07,0.00026611698558554053,0.00026726056239567697,-0.00010423315688967705,-0.0017334865406155586,0.004194590263068676,-0.00012855575187131763,-0.40618354082107544,0.6655842661857605,0.926398515701294,-1.4826358556747437,3.4087772369384766,-5.347785472869873,0.47596117854118347,0.7355399131774902,0.42000001668930054,-0.9330472350120544,3.000000476837158,-0.49863824248313904,-2.999999761581421,-0.06321375072002411,-0.07250407338142395,-0.08031986653804779,-0.08733398467302322,-0.9768350124359131,-0.961826503276825,-0.8939909934997559,-0.766685962677002
0.25,0.07074297964572906,0.194597065448761,0.0,0.9454483985900879,0.0,0.0,-0.3257719874382019,0.19189518690109253,0.47255444526672363,0.0,0.0,0.0,-4.005645275115967,-0.4323008954524994,0.7737530469894409,0.4200000464916229,1.0,3.630453193181893e-06,-2.2426670511777047e-06,1.1200068428252052e-08,0.00026680133305490017,0.0002670591638889164,-0.00010390859097242355,-0.0017341704806312919,0.004210620187222958,-0.0001270287175429985,-0.42844539880752563,0.718311071395874,0.829835057258606,-1.09964120388031,2.826761245727539,-6.107227325439453,0.47596117854118347,0.7355399131774902,0.42000001668930054,-0.8830370903015137,2.999999523162842,-0.5486671328544617,-2.9999988079071045,-0.07916238903999329,-0.08829697966575623,-0.09588677436113358,-0.10143047571182251,-0.966519832611084,-0.9490314722061157,-0.9369652271270752,-0.893892228603363
0.26666666666666666,0.06765438616275787,0.20790472626686096,0.0,0.9424139261245728,0.0,0.0,-0.33444881439208984,-0.3104721009731293,0.9324109554290771,0.0,0.0,0.0,-0.142243891954422,-0.432300865650177,0.7737529873847961,0.4200000464916229,0.9999999403953552,3.7400968722067773e-06,-2.236321961390786e-06,4.4995121584179287e-07,0.00026479564257897437,0.0002667310182005167,-0.0001045397948473692,-0.0017189527861773968,0.0041666654869914055,-0.00013017236778978258,-0.44372349977493286,0.7493404150009155,0.7254042625427246,-0.5855593681335449,1.1519755125045776,-6.315122604370117,0.47596117854118347,0.7355399131774902,0.42000001668930054,-0.8330268859863281,3.0000011920928955,-0.5986968874931335,-3.0,-0.09662820398807526,-0.10551208257675171,-0.11291500180959702,-0.11832153797149658,-0.9919889569282532,-0.9929729104042053,-0.9939677715301514,-0.9950588941574097
0.2833333333333333,0.06873474270105362,0.21667039394378662,0.0,0.934781014919281,0.0,0.0,-0.35522449016571045,0.09765958786010742,0.4568522572517395,0.0,0.0,0.0,-3.2033581733703613,-0.4323008954524994,0.7737529873847961,0.4200000464916229,1.0,3.3916114716703305e-06,-2.2911938231118256e-06,1.2457824993816757e-07,0.00026677161804400384,0.0002678929013200104,-0.00010437355376780033,-0.001741260988637805,0.004206313751637936,-0.00012878593406639993,-0.4518992602825165,0.766242265701294,0.6163772940635681,-0.1465274542570114,0.6207386255264282,-6.648055553436279,0.47596117854118347,0.7355399131774902,0.42000001668930054,-0.7830180525779724,3.000000238418579,-0.6487266421318054,-2.9999990463256836,-0.10959368944168091,-0.11877121031284332,-0.1263609081506729,-0.1319979727268219,-0.9939717054367065,-0.9762851595878601,-0.9353965520858765,-0.904039204120636
0.3,0.06663176417350769,0.22177551686763763,0.0,0.9340906739234924,0.0,0.0,-0.35703590512275696,-0.14789488911628723,0.21515768766403198,0.0,0.0,0.0,0.6601170897483826,-0.4323008954524994,0.7737530469894409,0.4200000464916229,1.0,3.680698682728689e-06,-2.319141685802606e-06,2.0107165710214758e-07,0.00026479046209715307,0.00026625796454027295,-0.00010421173647046089,-0.0017169079510495067,0.004168956074863672,-0.00012909715587738901,-0.4509933590888977,0.7712000012397766,0.512047529220581,0.32314443588256836,0.048758890479803085,-5.845003128051758,0.47596117854118347,0.7355399131774902,0.42000001668930054,-0.7330093383789062,3.000000476837158,-0.6987543702125549,-3.000000238418579,-0.12689988315105438,-0.13592055439949036,-0.14340819418430328,-0.14897635579109192,-0.9484902024269104,-0.9640621542930603,-0.9801077842712402,-0.9957955479621887
0.31666666666666665,0.0619252547621727,0.22304603457450867,0.0,0.928723156452179,0.0,0.0,-0.3707738518714905,-0.3355686664581299,0.030042726546525955,0.0,0.0,0.0,-2.6240100860595703,-0.4323008954524994,0.7737529873847961,0.4200000464916229,1.0,3.3041671940736705e-06,-2.2215672288439237e-06,2.5353810428896395e-07,0.00026660921867005527,0.00026745020295493305,-0.00010424340143799782,-0.0017352759605273604,0.004204507451504469,-0.00012828085164073855,-0.4405192732810974,0.7715796232223511,0.4159909188747406,0.9716443419456482,-0.10522016882896423,-5.500887870788574,0.47596117854118347,0.7355399131774902,0.42000001668930054,-0.683002233505249,3.0000016689300537,-0.7487802505493164,-3.000002145767212,-0.14430218935012817,-0.15315672755241394,-0.16051796078681946,-0.16598515212535858,-1.0110363960266113,-1.0083816051483154,-1.006347894668579,-1.0047109127044678
0.3333333333333333,0.05496121942996979,0.2217610627412796,0.0,0.9296989440917969,0.0,0.0,-0.3683203458786011,-0.4596330523490906,-0.11865825206041336,0.0,0.0,0.0,1.194430947303772,-0.4323008954524994,0.7737529873847961,0.4200000464916229,1.0,3.661570190161001e-06,-2.3658785721636377e-06,-4.2775312181220215e-07,0.00026611395878717303,0.00026725823408924043,-0.00010423222556710243,-0.0017335241427645087,0.004194583743810654,-0.0001285498874494806,-0.44155973196029663,0.7770748138427734,0.42688632011413574,-0.11916385591030121,0.3317185342311859,-0.17506414651870728,0.47596117854118347,0.7355399131774902,0.42000001668930054,-0.6331190466880798,2.9999897480010986,-0.7992890477180481,-3.0000016689300537,-0.14505496621131897,-0.1550285369157791,-0.16311301290988922,-0.16881968080997467,-0.22037996351718903,-0.22887994349002838,-0.22358837723731995,-0.20212505757808685
0.35,0.0456741563975811,0.21801777184009552,0.0,0.9250372052192688,0.0,0.0,-0.3798764646053314,-0.6059806942939758,-0.2672572433948517,0.0,0.0,0.0,-2.3707661628723145,-0.4324246346950531,0.7756004929542542,0.4200000762939453,0.9994335770606995,-8.519583388988394e-06,1.1437066859798506e-05,-0.033653125166893005,0.018427375704050064,0.20766949653625488,-0.00036158564034849405,0.01932520791888237,-0.007522969972342253,-6.177240371704102,-0.44099488854408264,0.7808336019515991,0.4238847494125366,0.15799203515052795,0.2254585176706314,-0.18442942202091217,0.47596117854118347,0.7355399131774902,0.42000001668930054,-0.5831137299537659,2.999987840652466,-0.8493311405181885,-2.999988079071045,-0.150111123919487,-0.15967978537082672,-0.16720111668109894,-0.1721789687871933,-0.35571059584617615,-0.3033164441585541,-0.2465643584728241,-0.18655547499656677
0.36666666666666664,0.034216027706861496,0.21185514330863953,0.0,0.9266360998153687,0.0,0.0,-0.3759594261646271,-0.7258630990982056,-0.41006791591644287,0.0,0.0,0.0,1.4291666746139526,-0.429985374212265,0.7816747426986694,0.42000025510787964,0.9939970374107361,1.04672044471954e-05,1.1937873978240532e-06,-0.10940670222043991,0.20297883450984955,0.4501117467880249,-0.0005685218493454158,-0.02841491438448429,0.00781949795782566,-12.18666934967041,-0.437045693397522,0.7879760265350342,0.4215759038925171,0.28599703311920166,0.5645028948783875,0.023340709507465363,0.47596117854118347,0.7355399131774902,0.42000001668930054,-0.5330842733383179,3.0000007152557373,-0.8993494510650635,-2.9999661445617676,-0.15731742978096008,-0.16536374390125275,-0.1713051199913025,-0.17469291388988495,-0.42984649538993835,-0.3211189806461334,-0.20909284055233002,-0.09753028303384781
0.3833333333333333,0.02075304463505745,0.20323672890663147,0.0,0.9224320650100708,0.0,0.0,-0.3861594796180725,-0.8584599494934082,-0.5617592930793762,0.0,0.0,0.0,-2.233147144317627,-0.4234143793582916,0.7935084104537964,0.420235276222229,0.9895945191383362,-0.005841564387083054,0.000767309800721705,-0.14376355707645416,0.547827959060669,0.8902124166488647,0.051452383399009705,-2.4820199012756348,0.6721367835998535,-3.915660858154297,-0.42984089255332947,0.798244297504425,0.42228126525878906,0.5998561382293701,0.7804512977600098,0.047561608254909515,0.47596117854118347,0.7355399131774902,0.42000001668930054,-0.48303860425949097,2.999911069869995,-0.9493588805198669,-2.9999711513519287,-0.16487888991832733,-0.17090655863285065,-0.174723282456398,-0.17596012353897095,-0.43387433886528015,-0.3062512278556824,-0.1714552640914917,-0.034849174320697784
0.4,0.00977391004562378,0.19160707294940948,0.0,0.9071493744850159,0.0,0.0,-0.4208087623119354,-0.5865731239318848,-0.753599226474762,0.0,0.0,0.0,-5.351417541503906,-0.4106515944004059,0.8119693994522095,0.4211232364177704,0.983315646648407,-0.02833828330039978,0.004862883593887091,-0.17962044477462769,1.0281792879104614,1.371084213256836,0.08100258558988571,-3.9688987731933594,1.314816951751709,-6.164106369018555,-0.4162636399269104,0.8149271607398987,0.423456609249115,1.0664825439453125,1.2776070833206177,0.09401057660579681,0.47596117854118347,0.7355399131774902,0.42000001668930054,-0.43299058079719543,2.9998767375946045,-0.9993702173233032,-2.99997615814209,-0.17196638882160187,-0.17560379207134247,-0.17684443295001984,-0.1754244565963745,-0.38563674688339233,-0.2332974076271057,-0.06849732995033264,0.1020057424902916
0.4166666666666667,0.0026015406474471092,0.1767452508211136,0.0,0.8785166144371033,0.0,0.0,-0.4777117371559143,-0.35353410243988037,-0.9480496048927307,0.0,0.0,0.0,-8.456123352050781,-0.38170620799064636,0.8411425948143005,0.42334526777267456,0.971552312374115,-0.02824566885828972,-0.02164032682776451,-0.2341366857290268,2.682220458984375,1.9764349460601807,0.20531292259693146,29.4619140625,-12.580706596374512,9.595847129821777,-0.3870990574359894,0.845015287399292,0.425068199634552,2.4847729206085205,2.324887752532959,0.29821884632110596,0.47596117854118347,0.7355399131774902,0.42000001668930054,-0.3908378779888153,1.6243009567260742,-1.0463433265686035,-2.6386303901672363,-0.17951105535030365,-0.18021813035011292,-0.17834429442882538,-0.17375585436820984,-0.4914866089820862,-0.29624491930007935,-0.09320119768381119,0.10922501236200333
0.43333333333333335,-0.0015323874540627003,0.16103076934814453,0.0,0.8335026502609253,0.0,0.0,-0.55251544713974,-0.19537930190563202,-0.95694500207901,0.0,0.0,0.0,-11.201172828674316,-0.3164830803871155,0.8862669467926025,0.42842161655426025,0.955172061920166,0.03497333824634552,-0.057898037135601044,-0.2882201671600342,5.39260196685791,2.7119219303131104,0.4747728705406189,22.28231430053711,-15.038023948669434,17.496623992919922,-0.3215716481208801,0.8906837701797485,0.4302549958229065,5.037330627441406,3.2260608673095703,0.45648884773254395,0.47596117854118347,0.7355399131774902,0.42000001668930054,-0.37292975187301636,0.7946649193763733,-1.0072342157363892,2.996742010116577,-0.19131019711494446,-0.1877802312374115,-0.18180117011070251,-0.17340511083602905,-0.7501621842384338,-0.4911605715751648,-0.25006622076034546,-0.03668771684169769
0.45,-0.00994175486266613,0.15218733251094818,0.0,0.7672953009605408,0.0,0.0,-0.6412939429283142,-0.6009826064109802,-0.3849147856235504,0.0,0.0,0.0,-14.328471183776855,-0.21125972270965576,0.9293805360794067,0.43901610374450684,0.9267749786376953,0.10576459020376205,-0.07068781554698944,-0.3534192144870758,7.6326069831848145,1.976277470588684,0.6855270266532898,33.420875549316406,-9.394275665283203,19.234464645385742,-0.2167941927909851,0.9355028867721558,0.4397624433040619,7.33765983581543,2.3351831436157227,0.6699450612068176,0.47596117854118347,0.7355399131774902,0.42000001668930054,-0.3595987856388092,0.8954977989196777,-0.9572124481201172,2.992708683013916,-0.2074672281742096,-0.20284315943717957,-0.19323502480983734,-0.17952564358711243,-0.9120619297027588,-0.8988870978355408,-0.8131850361824036,-0.47859352827072144
0.4666666666666667,-0.014512045308947563,0.14082463085651398,0.0,0.7062519192695618,0.0,0.0,-0.7079606056213379,-0.23546116054058075,-0.6844841241836548,0.0,0.0,0.0,-9.456879615783691,-0.08855514973402023,0.953530490398407,0.4494415521621704,0.8872464895248413,0.12919332087039948,-0.08310766518115997,-0.43496644496917725,7.722536563873291,0.014659970998764038,0.9447011351585388,-0.3540165424346924,5.015347480773926,2.6973209381103516,-0.09353787451982498,0.9630314111709595,0.4502958357334137,7.472112655639648,0.7514868378639221,0.6218684911727905,0.47596117854118347,0.7355399131774902,0.42000001668930054,-0.3426588177680969,1.0281225442886353,-0.982471764087677,-2.9999589920043945,-0.22221128642559052,-0.2171551138162613,-0.20451676845550537,-0.18442080914974213,-1.0000003576278687,-0.9722309708595276,-0.7378355860710144,-0.3221670985221863
0.48333333333333334,-0.02006748504936695,0.13398988544940948,0.0,0.668766975402832,0.0,0.0,-0.7434720993041992,-0.3720541000366211,-0.4981406033039093,0.0,0.0,0.0,-4.661540985107422,0.0339772067964077,0.9528360366821289,0.45978236198425293,0.8229512572288513,0.119593545794487,-0.060938622802495956,-0.5520281791687012,7.227015018463135,-1.2971111536026,0.5007390975952148,15.15841293334961,-9.582001686096191,19.08319091796875,0.029729176312685013,0.9635894298553467,0.4602004289627075,7.27318811416626,-0.5718923211097717,0.5009886622428894,0.47596117854118347,0.7355399131774902,0.42000001668930054,-0.32665127515792847,0.7564839720726013,-1.0324945449829102,-3.00000262260437,-0.2361603081226349,-0.23139464855194092,-0.21893149614334106,-0.19322067499160767,-0.43495649099349976,-0.5158494114875793,-0.591962456703186,-0.4061380922794342
0.5,-0.023412736132740974,0.12298355996608734,0.0,0.6580575704574585,0.0,0.0,-0.7529675960540771,-0.16660542786121368,-0.6896945238113403,0.0,0.0,0.0,-0.7566757798194885,0.1416534036397934,0.9360360503196716,0.4633484184741974,0.7723450064659119,0.0887046530842781,-0.06424522399902344,-0.6256892681121826,5.901087284088135,-2.0095925331115723,0.2737466096878052,9.475802421569824,-8.494830131530762,8.083061218261719,0.14009717106819153,0.9482320547103882,0.46504053473472595,6.02684211730957,-1.5815143585205078,0.13185863196849823,0.47596117854118347,0.7355399131774902,0.42000001668930054,-0.31730973720550537,0.28347110748291016,-1.0825166702270508,-3.0000011920928955,-0.2400439977645874,-0.2385839819908142,-0.2260950803756714,-0.19725683331489563,-0.02243620529770851,-0.44814738631248474,-0.3725951910018921,-0.17817670106887817
0.5166666666666666,-0.02339792810380459,0.11515821516513824,0.0,0.6388630270957947,0.0,0.0,-0.7693204879760742,0.06573213636875153,-0.40272438526153564,0.0,0.0,0.0,-3.876113176345825,0.2339669167995453,0.904961884021759,0.4612279534339905,0.6987804174423218,0.0576048381626606,-0.07106098532676697,-0.7094631791114807,4.904387474060059,-3.2171003818511963,-0.40850111842155457,-16.610830307006836,-10.814672470092773,23.58153533935547,0.2332250475883484,0.9175114631652832,0.463823139667511,5.302568435668945,-2.2001359462738037,-0.15095224976539612,0.47596117854118347,0.7355399131774902,0.42000001668930054,-0.31465452909469604,-0.11762501299381256,-1.1325387954711914,-3.000002861022949,-0.23995184898376465,-0.23991048336029053,-0.23280270397663116,-0.20163680613040924,-0.028080035001039505,0.010187778621912003,-0.2817247211933136,-0.2026551514863968
0.5333333333333333,-0.020545028150081635,0.11138228327035904,0.0,0.6344771981239319,0.0,0.0,-0.7729415893554688,0.2022639960050583,-0.1523212343454361,0.0,0.0,0.0,0.22396986186504364,0.31187719106674194,0.8656613230705261,0.45358896255493164,0.6433042287826538,0.02874971739947796,-0.061792369931936264,-0.7625711560249329,3.9349043369293213,-3.025851011276245,-0.684097409248352,-8.429036140441895,0.653736412525177,4.651205062866211,0.31209948658943176,0.8769547939300537,0.45631688833236694,4.215093612670898,-2.662724494934082,-0.5514101982116699,0.47596117854118347,0.7355399131774902,0.42000001668930054,-0.31617528200149536,0.03299395740032196,-1.182560920715332,-3.000002145767212,-0.23994691669940948,-0.23937664926052094,-0.2361000031232834,-0.20453180372714996,0.005735174752771854,0.09174726903438568,-0.08614025264978409,-0.11282848566770554
0.55,-0.014848696067929268,0.10254382342100143,0.0,0.6184869408607483,0.0,0.0,-0.7857950925827026,0.3978003263473511,-0.6618813872337341,0.0,0.0,0.0,-3.484710931777954,0.37440571188926697,0.8232505917549133,0.4368947446346283,0.5719013810157776,-0.05941956862807274,-0.08818849921226501,-0.8134008049964905,3.048994302749634,-2.5981357097625732,-1.0565470457077026,-10.644814491271973,5.77072811126709,15.210199356079102,0.375312864780426,0.836364209651947,0.4427432417869568,3.4261889457702637,-2.4516537189483643,-0.9793253540992737,0.47596117854118347,0.7355399131774902,0.42000001668930054,-0.3092707693576813,0.6795861721038818,-1.2325830459594727,-2.9999287128448486,-0.23314164578914642,-0.23232826590538025,-0.2324642539024353,-0.20314384996891022,0.5581883192062378,0.5546754598617554,0.3662543296813965,0.17178533971309662
0.5666666666666667,-0.00761108985170722,0.09817971289157867,0.0,0.6155532002449036,0.0,0.0,-0.7880952954292297,0.45972105860710144,-0.13009582459926605,0.0,0.0,0.0,0.47924530506134033,0.42194679379463196,0.7866923809051514,0.4232931137084961,0.49818775057792664,-0.06849253177642822,-0.03370478376746178,-0.8637022376060486,2.5182337760925293,-1.7740155458450317,-0.4297991394996643,29.814085006713867,-14.601048469543457,2.1808173656463623,0.4223681688308716,0.7973904609680176,0.4275893568992615,2.284919261932373,-2.1629316806793213,-0.7315280437469482,0.47596117854118347,0.7355399131774902,0.42000001668930054,-0.2928940951824188,1.299897313117981,-1.2826038599014282,-2.9908640384674072,-0.22860057651996613,-0.22704921662807465,-0.2290322631597519,-0.20286260545253754,0.27230262756347656,0.30196356773376465,0.20794932544231415,-0.01668824627995491
0.5833333333333334,0.00182324496563524,0.09125175327062607,0.0,0.6014016270637512,0.0,0.0,-0.7989468574523926,0.6360505819320679,-0.409294068813324,0.0,0.0,0.0,-2.906775712966919,0.4540584087371826,0.7658790946006775,0.42027711868286133,0.47227025032043457,-0.003340644296258688,0.006619851104915142,-0.8814226388931274,1.4149659872055054,-1.9506739377975464,-0.45010125637054443,-11.235313415527344,-19.06058692932129,27.702865600585938,0.45228859782218933,0.774336576461792,0.425226092338562,1.3179715871810913,-1.0854417085647583,0.1382298469543457,0.47596117854118347,0.7355399131774902,0.42000001668930054,-0.2647594213485718,1.493855595588684,-1.289151906967163,1.7150660753250122,-0.21903443336486816,-0.21836450695991516,-0.2226102501153946,-0.20133866369724274,0.3884621858596802,0.3716329336166382,0.29505929350852966,0.022469861432909966
0.6,0.009096231311559677,0.08685357868671417,0.0,0.6015086770057678,0.0,0.0,-0.7988662719726562,0.3609446883201599,-0.20875054597854614,0.0,0.0,0.0,0.8866658806800842,0.4718102812767029,0.7476875185966492,0.42096996307373047,0.4762529134750366,-0.011556874960660934,0.02168501354753971,-0.8789649605751038,0.665321946144104,-1.9624801874160767,0.2606053352355957,7.835018634796143,-1.8897557258605957,20.350500106811523,0.4701188802719116,0.7551264762878418,0.4266689419746399,0.7415206432342529,-1.0395731925964355,-0.040236569941043854,0.47596117854118347,0.7355399131774902,0.42000001668930054,-0.2508423328399658,0.048804428428411484,-1.3201823234558105,-3.0000014305114746,-0.21254833042621613,-0.21226422488689423,-0.21745048463344574,-0.20073546469211578,0.37569406628608704,0.3561416268348694,0.32227787375450134,0.053102053701877594
0.6166666666666667,0.016687193885445595,0.08655421435832977,0.0,0.5907156467437744,0.0,0.0,-0.8068798184394836,0.4940894842147827,0.04549532011151314,0.0,0.0,0.0,-2.519887685775757,0.4821811616420746,0.7363799810409546,0.42002859711647034,0.5029382109642029,-0.0001756907149683684,0.002530850935727358,-0.8643186092376709,0.31122085452079773,-0.3986187279224396,-0.03293919190764427,1.7115862369537354,0.10875409096479416,4.518986701965332,0.4786508083343506,0.74311363697052,0.42521947622299194,0.24271033704280853,-0.40015631914138794,0.01979372277855873,0.47596117854118347,0.7355399131774902,0.42000001668930054,-0.2532320022583008,0.1967441886663437,-1.2819370031356812,2.992236614227295,-0.20488300919532776,-0.20576173067092896,-0.21190154552459717,-0.20002131164073944,0.516518771648407,0.4300512373447418,0.3737265467643738,0.0841326117515564
0.6333333333333333,0.026178302243351936,0.08257661759853363,0.0,0.5930288434028625,0.0,0.0,-0.8051812052726746,0.5771799683570862,-0.2487492561340332,0.0,0.0,0.0,1.2513699531555176,0.48490259051322937,0.7315641641616821,0.42007386684417725,0.5212379097938538,0.0008892485639080405,-0.0016027680831030011,-0.853409469127655,-0.015673071146011353,-0.20678287744522095,0.027157237753272057,-0.7441186308860779,-0.8631383180618286,2.857940196990967,0.47983217239379883,0.7384501695632935,0.42600756883621216,-0.09630677103996277,-0.1766495406627655,0.1805272251367569,0.47596117854118347,0.7355399131774902,0.42000001668930054,-0.2890274226665497,-2.9999544620513916,-1.3019471168518066,-2.999220609664917,-0.19423529505729675,-0.19667169451713562,-0.20367726683616638,-0.19650670886039734,0.5343755483627319,0.4756461977958679,0.4643332362174988,0.22296904027462006
0.65,0.037988290190696716,0.08251288533210754,0.0,0.6072477698326111,0.0,0.0,-0.7945125102996826,0.7342473268508911,0.02165546454489231,0.0,0.0,0.0,2.5412001609802246,0.48438289761543274,0.7290308475494385,0.42000019550323486,0.5294232368469238,-1.419404725311324e-06,-7.25105928722769e-06,-0.8483577966690063,-0.05082293227314949,-0.09816880524158478,-0.0003000459691975266,0.008147128857672215,0.006313737016171217,-0.5460655093193054,0.4786502718925476,0.7378778457641602,0.4292330741882324,-0.049839772284030914,0.11188580840826035,0.21666952967643738,0.47596117854118347,0.7355399131774902,0.42000001668930054,-0.33902212977409363,-2.999373435974121,-1.3519023656845093,-2.9984400272369385,-0.18702198565006256,-0.19035765528678894,-0.197312593460083,-0.19371362030506134,0.5390776991844177,0.4548700153827667,0.4360257089138031,0.21575318276882172
0.6666666666666666,0.05154569074511528,0.0806318074464798,0.0,0.6054449677467346,0.0,0.0,-0.7958871722221375,0.8402930498123169,-0.11839736253023148,0.0,0.0,0.0,-1.2950412034988403,0.4839988350868225,0.7282926440238953,0.4200000464916229,0.5281485319137573,2.876304279197939e-07,-2.5492019517514564e-07,-0.8491519093513489,-0.01326824352145195,-0.02520928531885147,-9.890994988381863e-06,-1.420603621227201e-05,0.0005197426653467119,-0.0906190350651741,0.47872090339660645,0.7430341243743896,0.4333503544330597,-0.07431251555681229,0.3591027855873108,0.27226656675338745,0.47596117854118347,0.7355399131774902,0.42000001668930054,-0.38903939723968506,-3.000002384185791,-1.4018635749816895,-2.9989335536956787,-0.17499160766601562,-0.18032807111740112,-0.18811455368995667,-0.18839524686336517,0.6405749320983887,0.5509240627288818,0.5283102989196777,0.3325710594654083
0.6833333333333333,0.06689132750034332,0.07681994885206223,0.0,0.6153990626335144,0.0,0.0,-0.788215696811676,0.953980565071106,-0.3044280409812927,0.0,0.0,0.0,2.410236358642578,0.48105382919311523,0.7296133041381836,0.42094436287879944,0.5522875785827637,0.013123285956680775,-0.02005576714873314,-0.83330899477005,-0.20071621239185333,0.09492909163236618,0.09200836718082428,-1.9034478664398193,-4.284289836883545,2.532528877258301,0.47623777389526367,0.7466726303100586,0.4397706389427185,-0.24116294085979462,0.18471947312355042,0.5756857991218567,0.47596117854118347,0.7355399131774902,0.42000001668930054,-0.4390537738800049,-2.9999988079071045,-1.4518818855285645,-2.999999523162842,-0.16845980286598206,-0.1741119772195816,-0.18110571801662445,-0.1832277476787567,0.2801668345928192,0.30006343126296997,0.38547196984291077,0.32872065901756287
0.7,0.07977793365716934,0.07306705415248871,0.0,0.6128082275390625,0.0,0.0,-0.7902316451072693,0.685296893119812,-0.1766321063041687,0.0,0.0,0.0,-1.3934111595153809,0.4782104194164276,0.7309154272079468,0.4216310679912567,0.5640838146209717,0.02401529997587204,-0.03517378866672516,-0.8246183395385742,-0.1594071388244629,0.07257962971925735,0.0258508138358593,-0.5240204930305481,-1.2972440719604492,1.5437138080596924,0.47780847549438477,0.7488689422607422,0.4480355381965637,0.38036155700683594,0.07594386488199234,0.5596582889556885,0.47596117854118347,0.7355399131774902,0.42000001668930054,-0.48906686902046204,-3.0000007152557373,-1.5019001960754395,-2.999999523162842,-0.16510333120822906,-0.1701243668794632,-0.17535699903964996,-0.1777174174785614,0.19331946969032288,0.2397899627685547,0.35426825284957886,0.36843401193618774
0.7166666666666667,0.09248363226652145,0.06754729896783829,0.0,0.5875776410102844,0.0,0.0,-0.809167742729187,0.8002511858940125,-0.3951621651649475,0.0,0.0,0.0,-4.70949649810791,0.4761325418949127,0.7318515181541443,0.42131170630455017,0.5717423558235168,0.019416797906160355,-0.027783751487731934,-0.819732666015625,-0.11289084702730179,0.05087175592780113,-0.03401673585176468,0.6574023962020874,1.7423654794692993,0.9621052145957947,0.4871024191379547,0.7500851154327393,0.46490800380706787,0.7713920474052429,0.041964322328567505,1.5777039527893066,0.47596117854118347,0.7355399131774902,0.42000001668930054,-0.539079487323761,-2.999959707260132,-1.5519185066223145,-2.999999523162842,-0.16471125185489655,-0.1685461848974228,-0.17155545949935913,-0.17312359809875488,-0.06979258358478546,0.016532529145479202,0.15894196927547455,0.22851963341236115
0.7333333333333333,0.10763987898826599,0.06490522623062134,0.0,0.576482892036438,0.0,0.0,-0.817109227180481,0.9334874153137207,-0.09708543866872787,0.0,0.0,0.0,-0.6223547458648682,0.47485384345054626,0.7324426770210266,0.4200158715248108,0.5768396258354187,0.0003286120481789112,-0.0004604299901984632,-0.8168571591377258,-0.03251708671450615,0.016726091504096985,-0.022309131920337677,0.5405198931694031,1.0709071159362793,0.39773619174957275,0.5020211338996887,0.7539561986923218,0.4959261119365692,1.0056672096252441,0.4168323874473572,2.1347427368164062,0.47596117854118347,0.7355399131774902,0.42000001668930054,-0.5751343965530396,-1.4338796138763428,-1.6019337177276611,-2.9999992847442627,-0.16752561926841736,-0.17020973563194275,-0.17124013602733612,-0.1718190759420395,-0.1139434427022934,-0.08350466936826706,-0.008616248145699501,0.0205409936606884
0.75,0.11944185942411423,0.06486383825540543,0.0,0.5908520817756653,0.0,0.0,-0.8067798614501953,0.6271176338195801,0.04001004993915558,0.0,0.0,0.0,2.9925882816314697,0.47487491369247437,0.7324352264404297,0.42000001668930054,0.5768399238586426,2.4925320758484304e-06,-2.001744405788486e-06,-0.8168572187423706,0.0002662951301317662,-8.229144441429526e-05,-9.118719026446342e-05,0.0008004430565051734,0.0021124801132827997,-0.0007475264137610793,0.520634651184082,0.7598718404769897,0.5243929624557495,1.1122474670410156,0.31842926144599915,1.3703632354736328,0.47596117854118347,0.7355399131774902,0.42000001668930054,-0.5731214284896851,1.4237855672836304,-1.6221691370010376,0.30142664909362793,-0.16780173778533936,-0.17004509270191193,-0.17002522945404053,-0.1701589822769165,0.04566665366292,0.07493927329778671,0.13160619139671326,0.1583549827337265
0.7666666666666666,0.12643805146217346,0.06062323972582817,0.0,0.5918639302253723,0.0,0.0,-0.8060379028320312,0.3758835196495056,-0.3076803684234619,0.0,0.0,0.0,-0.9012325406074524,0.47487494349479675,0.732435405254364,0.4200000464916229,0.5768397450447083,4.2048446857734234e-07,-3.233662027923856e-06,-0.8168573379516602,9.478263382334262e-05,-0.000263288093265146,-8.764397352933884e-05,0.006326050963252783,-0.0015731591265648603,-0.0006855512619949877,0.5334323048591614,0.7643709182739258,0.5410283207893372,0.40060338377952576,0.12002602219581604,0.7928598523139954,0.47596117854118347,0.7355399131774902,0.42000001668930054,-0.5803049206733704,-1.9831006526947021,-1.5740634202957153,3.000000476837158,-0.16493603587150574,-0.16678382456302643,-0.16606779396533966,-0.16591021418571472,0.07901747524738312,0.13464656472206116,0.19729867577552795,0.23687157034873962
0.7833333333333333,0.13027150928974152,0.06168593466281891,0.0,0.6040918231010437,0.0,0.0,-0.7969146966934204,0.17774568498134613,0.19292329251766205,0.0,0.0,0.0,2.712651491165161,0.47487494349479675,0.732435405254364,0.4200000464916229,0.5768397450447083,4.6924401431169827e-07,-2.903643235185882e-06,-0.8168572187423706,9.58060918492265e-05,-0.0002651084796525538,-8.772010914981365e-05,0.0063726515509188175,-0.0015620848862454295,-0.0006898327847011387,0.5394643545150757,0.7638378143310547,0.5514566898345947,0.35647648572921753,-0.05855545774102211,0.5122065544128418,0.47596117854118347,0.7355399131774902,0.42000001668930054,-0.5858075022697449,1.062386155128479,-1.5885918140411377,-3.0,-0.1691603660583496,-0.1688813716173172,-0.1661204695701599,-0.16433370113372803,-0.30271315574645996,-0.16733860969543457,-0.042950861155986786,0.060454852879047394
0.8,0.13079117238521576,0.059384867548942566,0.0,0.6024080514907837,0.0,0.0,-0.798188328742981,-0.011112507432699203,-0.25383052229881287,0.0,0.0,0.0,-1.1798508167266846,0.47487494349479675,0.732435405254364,0.4200000464916229,0.5768399238586426,4.5569422013613803e-07,-2.9366806302277837e-06,-0.816857099533081,9.593606955604628e-05,-0.0002650424721650779,-8.774665184319019e-05,0.006370353512465954,-0.0015601868508383632,-0.0006900144508108497,0.540555477142334,0.7625524997711182,0.5543724298477173,-0.23154214024543762,-0.1216408908367157,0.02191181480884552,0.47596117854118347,0.7355399131774902,0.42000001668930054,-0.5960556864738464,-2.0171124935150146,-1.5496171712875366,3.000000476837158,-0.17124392092227936,-0.16926255822181702,-0.1649949699640274,-0.1619061380624771,-0.04571380838751793,0.04533740505576134,0.12159784883260727,0.19019104540348053
0.8166666666666667,0.13271284103393555,0.06008966639637947,0.0,0.6116600632667542,0.0,0.0,-0.791120707988739,0.11973229050636292,0.04996057599782944,0.0,0.0,0.0,1.9936492443084717,0.47487494349479675,0.732435405254364,0.4200000464916229,0.5768399238586426,4.899769123767328e-07,-2.975141796923708e-06,-0.8168572187423706,9.480080916546285e-05,-0.00026475475169718266,-8.751521818339825e-05,0.006369357462972403,-0.0015724276890978217,-0.0006871786899864674,0.539341151714325,0.7601940631866455,0.5564254522323608,0.1662122905254364,-0.02678360603749752,0.24090194702148438,0.47596117854118347,0.7355399131774902,0.42000001668930054,-0.6014225482940674,1.1069178581237793,-1.5647181272506714,-3.000000238418579,-0.17422917485237122,-0.17066530883312225,-0.16502439975738525,-0.1605609804391861,-0.007918237708508968,0.030878154560923576,0.06437709182500839,0.11090932786464691
0.8333333333333334,0.13550545275211334,0.0578189492225647,0.0,0.607196569442749,0.0,0.0,-0.7945516705513,0.24158059060573578,-0.16985398530960083,0.0,0.0,0.0,-1.5871281623840332,0.47487494349479675,0.732435405254364,0.4200000464916229,0.5768397450447083,4.7626528498767584e-07,-3.0078774670982966e-06,-0.8168573379516602,9.531443356536329e-05,-0.0002651505346875638,-8.759298361837864e-05,0.006376428063958883,-0.001567626604810357,-0.0006887660711072385,0.5410914421081543,0.7600211501121521,0.5597153902053833,0.03585343435406685,-0.06886223703622818,0.2967848777770996,0.47596117854118347,0.7355399131774902,0.42000001668930054,-0.6212175488471985,-3.0000014305114746,-1.525814175605774,3.0000009536743164,-0.17386677861213684,-0.16986288130283356,-0.1638479232788086,-0.1587068885564804,-0.02968098409473896,0.004458142910152674,0.03369476646184921,0.08288364112377167
0.85,0.1411709040403366,0.058388352394104004,0.0,0.6142603158950806,0.0,0.0,-0.7891034483909607,0.37208810448646545,0.08389353007078171,0.0,0.0,0.0,1.9181877374649048,0.47487494349479675,0.732435405254364,0.4200000464916229,0.5768398642539978,4.6902329131626175e-07,-3.0414798857236747e-06,-0.8168572187423706,9.541166218696162e-05,-0.0002651269605848938,-8.76144040375948e-05,0.006375510711222887,-0.0015661315992474556,-0.0006889246869832277,0.5447075366973877,0.7581368684768677,0.5671874284744263,0.38386377692222595,-0.0984947681427002,0.646660327911377,0.47596117854118347,0.7355399131774902,0.42000001668930054,-0.6443137526512146,-0.012174982577562332,-1.5414403676986694,-3.000000238418579,-0.17501051723957062,-0.17047849297523499,-0.1639249473810196,-0.1578015387058258,-0.015706492587924004,0.0029590630438178778,0.026177281513810158,0.08116742968559265
0.8666666666666667,0.14382216334342957,0.055316004902124405,0.0,0.619051456451416,0.0,0.0,-0.7853504419326782,0.0837286040186882,-0.1848892718553543,0.0,0.0,0.0,0.16655367612838745,0.47487494349479675,0.732435405254364,0.4200000464916229,0.5768396854400635,4.805793309969886e-07,-3.076522943956661e-06,-0.8168573379516602,9.556251461617649e-05,-0.00026508065639063716,-8.76511912792921e-05,0.006373393815010786,-0.0015643640654161572,-0.0006892146775498986,0.5499465465545654,0.7562433481216431,0.5768064856529236,0.19880016148090363,-0.2010391652584076,0.6096121072769165,0.47596117854118347,0.7355399131774902,0.42000001668930054,-0.6622385382652283,-1.9556353092193604,-1.5038520097732544,3.0,-0.17297308146953583,-0.1683608889579773,-0.16167427599430084,-0.15489955246448517,0.027918225154280663,0.057040780782699585,0.08512628078460693,0.13955143094062805
0.8833333333333333,0.14799228310585022,0.05696148797869682,0.0,0.6370313167572021,0.0,0.0,-0.7708379030227661,0.28246912360191345,0.11063943803310394,0.0,0.0,0.0,3.4741029739379883,0.47487494349479675,0.732435405254364,0.4200000464916229,0.5768398642539978,4.496574206314108e-07,-2.925474063886213e-06,-0.8168572187423706,9.572901763021946e-05,-0.00026509977760724723,-8.768681436777115e-05,0.006373048294335604,-0.001562447869218886,-0.0006896091508679092,0.5527217388153076,0.75159752368927,0.5880284905433655,0.24397437274456024,-0.204234778881073,0.7646033763885498,0.47596117854118347,0.7355399131774902,0.42000001668930054,-0.6642869710922241,1.4187878370285034,-1.519921898841858,-3.000000238418579,-0.17501063644886017,-0.16950780153274536,-0.16197746992111206,-0.15397417545318604,0.033536817878484726,0.047065798193216324,0.06237087398767471,0.10484908521175385
0.9,0.14946527779102325,0.05432302877306938,0.0,0.6403675675392151,0.0,0.0,-0.7680685520172119,0.022543879225850105,-0.16561873257160187,0.0,0.0,0.0,-0.44781288504600525,0.47487494349479675,0.732435405254364,0.4200000464916229,0.5768399834632874,4.427246835803089e-07,-2.9584400635940256e-06,-0.816857099533081,9.62964550126344e-05,-0.00026492003235034645,-8.78253486007452e-05,0.006365217734128237,-0.0015553499106317759,-0.000690888031385839,0.5553747415542603,0.7504180073738098,0.5997250080108643,0.0027288757264614105,-0.08483551442623138,0.7334961295127869,0.47596117854118347,0.7355399131774902,0.42000001668930054,-0.668862521648407,-1.6934109926223755,-1.481144905090332,3.000000238418579,-0.1716669648885727,-0.1665562391281128,-0.15941432118415833,-0.15138055384159088,0.10887240618467331,0.09778337925672531,0.08189025521278381,0.08449634909629822
