vladlanda/robotic-transformer/data/env_000_episode_0262.csv
sim_time_s,robot_box_x,robot_box_y,robot_box_z,robot_box_quat_w,robot_box_quat_x,robot_box_quat_y,robot_box_quat_z,robot_box_linvel_x,robot_box_linvel_y,robot_box_linvel_z,robot_box_angvel_x,robot_box_angvel_y,robot_box_angvel_z,cube_world_x,cube_world_y,cube_world_z,cube_quat_w,cube_quat_x,cube_quat_y,cube_quat_z,cube_linvel_x,cube_linvel_y,cube_linvel_z,cube_angvel_x,cube_angvel_y,cube_angvel_z,endpoint_world_x,endpoint_world_y,endpoint_world_z,endpoint_linvel_x,endpoint_linvel_y,endpoint_linvel_z,target_cube_world_x,target_cube_world_y,target_cube_world_z,gripper_actual_pos_rad_gp_leftgearjoint,gripper_actual_vel_rad_s_gp_leftgearjoint,gripper_actual_pos_rad_gp_rotatingjoint,gripper_actual_vel_rad_s_gp_rotatingjoint,motor_angle_rad_joint1,motor_angle_rad_joint2,motor_angle_rad_joint3,motor_angle_rad_joint4,motor_speed_rad_s_joint1,motor_speed_rad_s_joint2,motor_speed_rad_s_joint3,motor_speed_rad_s_joint4
0.0,0.0,0.0,0.0,1.0,0.0,0.0,0.0,0.0,0.0,0.0,0.0,0.0,0.0,-0.4035680890083313,0.6822594404220581,0.41999998688697815,1.0,0.0,0.0,0.0,0.0,0.0,0.0,0.0,0.0,0.0,3.42540442943573e-06,-0.005000244826078415,1.313499927520752,0.0,0.0,0.0,0.3912506699562073,0.6377864480018616,0.42000001668930054,-1.5707999467849731,0.0,0.0,0.0,0.0,0.0,0.0,0.0,0.0,0.0,0.0,0.0
0.016666666666666666,0.0028778850100934505,0.0021806680597364902,0.0,0.9998081922531128,0.0,0.0,0.019586581736803055,0.24087215960025787,0.18240931630134583,0.0,0.0,0.0,3.1418697834014893,-0.40356820821762085,0.6822591423988342,0.41999998688697815,1.0,3.279964630564791e-06,-8.339746386809566e-07,8.465587342243452e-08,-1.9833529222523794e-05,0.00017983045836444944,-6.132945418357849e-05,0.0009432713268324733,-0.004689474124461412,-0.00031981561915017664,-0.007110234349966049,0.003379564033821225,1.3159373998641968,-0.8143353462219238,0.9868683815002441,0.18095196783542633,0.3912506699562073,0.6377864480018616,0.42000001668930054,-1.5301095247268677,3.0000011920928955,-0.04584788903594017,-2.9999992847442627,0.0008691533003002405,0.0007963840034790337,0.0007110277656465769,0.0006108740926720202,0.11094217747449875,0.09756709635257721,0.08334315568208694,0.06823883205652237
0.03333333333333333,0.008960979990661144,0.006801926530897617,0.0,0.9997960329055786,0.0,0.0,0.02019684389233589,0.4070214033126831,0.31530871987342834,0.0,0.0,0.0,-0.8691303133964539,-0.4035683274269104,0.6822590827941895,0.4200000464916229,1.0,3.3908354453160428e-06,-2.1324485715012997e-06,-3.710144014235084e-08,0.00026357831666246057,0.00026937946677207947,-0.00010509486310184002,-0.0017707672668620944,0.004130808170884848,-0.000135478752781637,-0.027549419552087784,0.026064813137054443,1.3166167736053467,-1.5915195941925049,1.6155322790145874,-0.08260750770568848,0.3912506699562073,0.6377864480018616,0.42000001668930054,-1.4800904989242554,3.000002861022949,-0.09588772058486938,-3.0,0.002990142675116658,0.0026527661830186844,0.0022773509845137596,0.001860818825662136,0.16422119736671448,0.13976578414440155,0.11382581293582916,0.08630875498056412
0.05,0.017165089026093483,0.01367102563381195,0.0,0.9998697638511658,0.0,0.0,0.0161384679377079,0.5301827788352966,0.4537794291973114,0.0,0.0,0.0,-0.29279839992523193,-0.4035683572292328,0.6822591423988342,0.4200000464916229,1.0,3.765139354072744e-06,-2.2119161258160602e-06,5.630195420991413e-09,0.0002653095289133489,0.00026691411039792,-0.00010440382175147533,-0.0017242460744455457,0.004177400842308998,-0.00012949357915204018,-0.05854841694235802,0.05513498932123184,1.3115558624267578,-2.0843911170959473,1.854862928390503,-0.4844169020652771,0.3912506699562073,0.6377864480018616,0.42000001668930054,-1.4300721883773804,3.0000033378601074,-0.14592640101909637,-3.0000009536743164,0.0054905773140490055,0.004701818339526653,0.0038409766275435686,0.0029033280443400145,0.16922840476036072,0.13265177607536316,0.09422008693218231,0.05381320044398308
0.06666666666666667,0.02842988446354866,0.02276136353611946,0.0,0.9999741315841675,0.0,0.0,-0.007192110177129507,0.7418345808982849,0.5886018872261047,0.0,0.0,0.0,-3.6504766941070557,-0.4035683572292328,0.6822590827941895,0.4200000464916229,0.9999999403953552,3.4067325032083318e-06,-2.285616346853203e-06,4.301086846680846e-07,0.0002670263056643307,0.0002679172612261027,-0.00010437914170324802,-0.0017406872939318419,0.004211808554828167,-0.0001285045873373747,-0.09412625432014465,0.09051965922117233,1.3002283573150635,-2.1848649978637695,2.3313324451446533,-0.8684270977973938,0.3912506699562073,0.6377864480018616,0.42000001668930054,-1.3800501823425293,2.999998092651367,-0.18434180319309235,-1.6882129907608032,0.007971556857228279,0.006428520195186138,0.004774743691086769,0.003004366997629404,0.14824149012565613,0.09150891751050949,0.03273522108793259,-0.028133975341916084
0.08333333333333333,0.03400496020913124,0.03581292927265167,0.0,0.9999082684516907,0.0,0.0,-0.013545583002269268,0.20084193348884583,0.856852114200592,0.0,0.0,0.0,0.2689078450202942,-0.4035683572292328,0.6822590827941895,0.4200000464916229,1.0,3.6972751331632026e-06,-2.188954113080399e-06,-2.6322550183977e-07,0.0002638972655404359,0.00026586506282910705,-0.00010434049181640148,-0.0017082244157791138,0.004150220658630133,-0.00012991207768209279,-0.13321053981781006,0.12734001874923706,1.2815616130828857,-2.35174560546875,2.2538559436798096,-1.2698137760162354,0.3912506699562073,0.6377864480018616,0.42000001668930054,-1.3300265073776245,2.999999523162842,-0.14992989599704742,2.999999523162842,0.004608223680406809,0.00246639852412045,0.0001626588054932654,-0.0023128774482756853,-0.297243595123291,-0.33876925706863403,-0.38284599781036377,-0.4297507107257843
0.1,0.04404299333691597,0.049272775650024414,0.0,0.9994391202926636,0.0,0.0,-0.03348849341273308,0.694907009601593,0.8378987312316895,0.0,0.0,0.0,-3.261568069458008,-0.4035683572292328,0.6822590827941895,0.4200000464916229,0.9999999403953552,3.620343704824336e-06,-2.265245484522893e-06,1.7462637913467915e-07,0.00026676931884139776,0.000267408206127584,-0.00010407879017293453,-0.001738669816404581,0.004209199454635382,-0.00012775094364769757,-0.16806060075759888,0.16850470006465912,1.262773036956787,-1.909714698791504,2.6869237422943115,-1.111683964729309,0.3912506699562073,0.6377864480018616,0.42000001668930054,-1.2800251245498657,3.0000016689300537,-0.18173640966415405,-3.0000007152557373,0.005259270314127207,0.0013821207685396075,-0.0026477533392608166,-0.006839996203780174,0.024232447147369385,-0.09325150400400162,-0.2097516655921936,-0.32517677545547485
0.11666666666666667,0.05196526274085045,0.061145082116127014,0.0,0.9967384934425354,0.0,0.0,-0.08069905638694763,0.46401968598365784,0.6690599918365479,0.0,0.0,0.0,-6.345498085021973,-0.4035683572292328,0.6822590827941895,0.4200000464916229,1.0,3.798347734118579e-06,-2.2628460101259407e-06,-1.5019826093976008e-07,0.0002637401921674609,0.00026566156884655356,-0.00010429113171994686,-0.0017054638592526317,0.004147501662373543,-0.00012979934399481863,-0.19982755184173584,0.21823212504386902,1.2415295839309692,-1.9079837799072266,3.2074904441833496,-1.36897611618042,0.3912506699562073,0.6377864480018616,0.42000001668930054,-1.2300113439559937,2.9999892711639404,-0.1480443775653839,3.000000238418579,0.0034814588725566864,-0.002220544731244445,-0.008049769327044487,-0.01401496957987547,-0.07236324995756149,-0.18822741508483887,-0.3013570308685303,-0.41161400079727173
0.13333333333333333,0.05728885903954506,0.06996773928403854,0.0,0.9944121241569519,0.0,0.0,-0.10556744784116745,0.26307880878448486,0.44071561098098755,0.0,0.0,0.0,-1.8621885776519775,-0.4035683572292328,0.6822591423988342,0.4200000464916229,0.9999999403953552,3.550474502844736e-06,-2.229893652838655e-06,2.9291419423316256e-07,0.0002670332323759794,0.0002677943557500839,-0.00010417005978524685,-0.0017440859228372574,0.004213657695800066,-0.00012800388503819704,-0.2369416058063507,0.26697248220443726,1.2153425216674805,-2.236781120300293,3.013155221939087,-1.76741361618042,0.3912506699562073,0.6377864480018616,0.42000001668930054,-1.1851125955581665,2.4049816131591797,-0.17981652915477753,-2.999999523162842,0.0015547139337286353,-0.005978562869131565,-0.013577623292803764,-0.02124922163784504,-0.1692991405725479,-0.2675878703594208,-0.36204689741134644,-0.4526153802871704
0.15,0.058914050459861755,0.07929608970880508,0.0,0.9901289343833923,0.0,0.0,-0.14015935361385345,0.025282757356762886,0.6106647849082947,0.0,0.0,0.0,-4.975232124328613,-0.4035683274269104,0.6822590827941895,0.4200000464916229,1.0,3.332175083414768e-06,-2.1020707663410576e-06,1.3131682408129564e-07,0.0002673084964044392,0.00026859689387492836,-0.00010459520854055882,-0.0017496650107204914,0.0042156632989645,-0.00012928851356264204,-0.27394407987594604,0.322523832321167,1.1807115077972412,-2.0792784690856934,3.664090156555176,-2.392110824584961,0.3912506699562073,0.6377864480018616,0.42000001668930054,-1.13604736328125,2.9999942779541016,-0.1461246758699417,3.000000476837158,-0.002866270486265421,-0.01189120952039957,-0.020907076075673103,-0.02992011234164238,-0.346233606338501,-0.4207369089126587,-0.490863174200058,-0.5566461086273193
0.16666666666666666,0.06455346196889877,0.09074026346206665,0.0,0.9792054891586304,0.0,0.0,-0.20287086069583893,0.34142616391181946,0.7444570064544678,0.0,0.0,0.0,-8.397453308105469,-0.4035683572292328,0.6822590827941895,0.4200000464916229,1.0,3.737257202374167e-06,-2.2331987565848976e-06,-1.8764458786790783e-07,0.00026433030143380165,0.000266268034465611,-0.00010445783846080303,-0.0017118732212111354,0.004157560411840677,-0.00013001071056351066,-0.30756038427352905,0.3869030773639679,1.1360903978347778,-1.8254284858703613,4.104752540588379,-2.987811803817749,0.3912506699562073,0.6377864480018616,0.42000001668930054,-1.0944243669509888,2.0403623580932617,-0.17795304954051971,-3.0000016689300537,-0.007784882560372353,-0.01804286614060402,-0.02821461297571659,-0.03830760717391968,-0.49060162901878357,-0.5310724377632141,-0.5686379075050354,-0.603448212146759
0.18333333333333332,0.06673948466777802,0.10022739320993423,0.0,0.9694245457649231,0.0,0.0,-0.24538969993591309,0.11185091733932495,0.5226170420646667,0.0,0.0,0.0,-4.025117874145508,-0.4035683572292328,0.6822591423988342,0.4200000464916229,0.9999999403953552,3.6601879855879815e-06,-2.302341272297781e-06,2.528711604554701e-07,0.000266908056801185,0.00026760302716866136,-0.000104124890640378,-0.0017413176828995347,0.004211504012346268,-0.00012786878505721688,-0.34137454628944397,0.4510684013366699,1.0772064924240112,-1.7607948780059814,4.05340051651001,-3.986021041870117,0.3912506699562073,0.6377864480018616,0.42000001668930054,-1.0470985174179077,2.9999988079071045,-0.2279810905456543,-3.0000007152557373,-0.019411109387874603,-0.02954232506453991,-0.039564404636621475,-0.04949558526277542,-0.7316997051239014,-0.7071201205253601,-0.6814325451850891,-0.6553344130516052
0.2,0.06525511294603348,0.11153827607631683,0.0,0.9549841284751892,0.0,0.0,-0.29665693640708923,-0.15360276401042938,0.7000166773796082,0.0,0.0,0.0,-7.218809127807617,-0.4035683572292328,0.6822590827941895,0.4200000464916229,1.0,3.5907578421756625e-06,-2.3004690774541814e-06,1.3875796867068857e-07,0.00026654661633074284,0.00026732246624305844,-0.0001042394433170557,-0.0017325595254078507,0.00420342106372118,-0.00012821020209230483,-0.3688420355319977,0.5184580683708191,1.0032298564910889,-1.3215314149856567,4.1261701583862305,-4.777949333190918,0.3912506699562073,0.6377864480018616,0.42000001668930054,-0.9970917701721191,3.0000007152557373,-0.27800819277763367,-3.0000007152557373,-0.034642741084098816,-0.044398605823516846,-0.05365096405148506,-0.06281248480081558,-0.9440735578536987,-0.9172951579093933,-0.8682448863983154,-0.8188289403915405
0.21666666666666667,0.06830073148012161,0.11850054562091827,0.0,0.9442025423049927,0.0,0.0,-0.32936546206474304,0.1757356822490692,0.35665491223335266,0.0,0.0,0.0,-2.7713167667388916,-0.4035683572292328,0.6822591423988342,0.4200000464916229,1.0,3.606865902838763e-06,-2.261095914946054e-06,1.9646103410764226e-08,0.0002644704363774508,0.0002655842690728605,-0.00010396563448011875,-0.0017088704043999314,0.004164243582636118,-0.00012832065112888813,-0.3928889334201813,0.5793143510818481,0.9187028408050537,-1.114991307258606,3.447690963745117,-5.43253231048584,0.3912506699562073,0.6377864480018616,0.42000001668930054,-0.9470848441123962,2.999998092651367,-0.32803839445114136,-2.9999992847442627,-0.048250071704387665,-0.057473983615636826,-0.06572918593883514,-0.07391448318958282,-0.9851086139678955,-0.97029048204422,-0.8708401918411255,-0.7755370736122131
0.23333333333333334,0.06549467146396637,0.1289767622947693,0.0,0.9385659694671631,0.0,0.0,-0.34509986639022827,-0.14879587292671204,0.5889650583267212,0.0,0.0,0.0,-1.4736987352371216,-0.4035683274269104,0.6822590827941895,0.4200000464916229,0.9999999403953552,3.742164153663907e-06,-2.227621735073626e-06,4.589477669014741e-07,0.0002647507353685796,0.00026671186788007617,-0.00010453304275870323,-0.0017189144855365157,0.004165781196206808,-0.00013019215839449316,-0.41061675548553467,0.6230325698852539,0.8233664631843567,-0.8325255513191223,2.173248767852783,-5.854526996612549,0.3912506699562073,0.6377864480018616,0.42000001668930054,-0.8970741629600525,2.999999761581421,-0.3780699670314789,-3.0000030994415283,-0.06456566601991653,-0.07373145967721939,-0.08197470009326935,-0.09017249196767807,-0.7052991986274719,-0.7515215277671814,-0.7952165603637695,-0.8336007595062256
0.25,0.06781347841024399,0.13415910303592682,0.0,0.9265780448913574,0.0,0.0,-0.3761025667190552,0.1521475911140442,0.2720702290534973,0.0,0.0,0.0,-4.617364883422852,-0.4035683572292328,0.6822590827941895,0.4200000464916229,1.0,3.394281748114736e-06,-2.2822139271738706e-06,1.3366967266392749e-07,0.0002667936496436596,0.00026793917641043663,-0.0001043959055095911,-0.0017416636692360044,0.004206570331007242,-0.0001288379280595109,-0.42096903920173645,0.6573089361190796,0.7206968069076538,-0.3166821599006653,1.7048038244247437,-6.329923152923584,0.3912506699562073,0.6377864480018616,0.42000001668930054,-0.8470634818077087,2.999997138977051,-0.42810165882110596,-3.0000016689300537,-0.07692016661167145,-0.08635322004556656,-0.094880111515522,-0.10331543534994125,-0.990084171295166,-0.9612829685211182,-0.9300102591514587,-0.8993063569068909
0.26666666666666666,0.06625144928693771,0.1372486799955368,0.0,0.9218217134475708,0.0,0.0,-0.3876142203807831,-0.14433793723583221,0.09127247333526611,0.0,0.0,0.0,-0.4465736746788025,-0.4035683572292328,0.6822591423988342,0.4200000464916229,1.0,3.683290287881391e-06,-2.3102563773136353e-06,2.1014641049532656e-07,0.0002647915680427104,0.0002662589540705085,-0.00010421173647046089,-0.00171689223498106,0.004168987274169922,-0.0001290979707846418,-0.4264659583568573,0.6740610003471375,0.6194601058959961,-0.10338795185089111,0.44987645745277405,-5.800724029541016,0.3912506699562073,0.6377864480018616,0.42000001668930054,-0.7970544695854187,3.0000016689300537,-0.47813281416893005,-3.000000238418579,-0.09427429735660553,-0.10352323949337006,-0.1119178831577301,-0.12025529146194458,-1.0066580772399902,-1.0050060749053955,-1.0037487745285034,-1.0027531385421753
0.2833333333333333,0.061373043805360794,0.13748356699943542,0.0,0.924019455909729,0.0,0.0,-0.38234543800354004,-0.262043833732605,-0.06836746633052826,0.0,0.0,0.0,1.1815922260284424,-0.4035683572292328,0.6822590827941895,0.4200000464916229,1.0,3.3067699405364692e-06,-2.212680783486576e-06,2.626196646815515e-07,0.00026660721050575376,0.0002674503193702549,-0.00010424340143799782,-0.0017352817812934518,0.004204391967505217,-0.00012828312173951417,-0.42735907435417175,0.6760900020599365,0.528927206993103,0.07865303754806519,-0.16863098740577698,-5.1087236404418945,0.3912506699562073,0.6377864480018616,0.42000001668930054,-0.7470456957817078,2.9998629093170166,-0.52816241979599,-2.9998514652252197,-0.11202237755060196,-0.1210145577788353,-0.12921641767024994,-0.13740244507789612,-0.8378140926361084,-0.8725316524505615,-0.9043571949005127,-0.9321187734603882
0.3,0.05529932677745819,0.1347256600856781,0.0,0.919384777545929,0.0,0.0,-0.39335939288139343,-0.4121871888637543,-0.20768360793590546,0.0,0.0,0.0,-2.287710189819336,-0.4035683572292328,0.6822590827941895,0.4200000464916229,1.0,3.6408114283403847e-06,-2.3781321942806244e-06,-4.193823031073407e-07,0.000266095477854833,0.00026721254107542336,-0.00010421359911561012,-0.0017330015543848276,0.004194345790892839,-0.00012849061749875546,-0.4205373525619507,0.6787442564964294,0.4446318745613098,0.7276202440261841,0.2945527136325836,-4.753371238708496,0.3912506699562073,0.6377864480018616,0.42000001668930054,-0.6970381140708923,3.0000014305114746,-0.5781901478767395,-2.999999761581421,-0.1292494684457779,-0.138139545917511,-0.14626528322696686,-0.15439055860042572,-1.0201678276062012,-1.0152983665466309,-1.0115745067596436,-1.008583903312683
0.31666666666666665,0.04716721177101135,0.1296587735414505,0.0,0.921389639377594,0.0,0.0,-0.3886401057243347,-0.527480959892273,-0.34371766448020935,0.0,0.0,0.0,1.5166995525360107,-0.40356799960136414,0.6822465658187866,0.42001253366470337,0.9999998807907104,0.00031633360777050257,1.179647711069265e-06,-5.5610298659303226e-06,0.0009648969862610102,-0.001254606293514371,0.0010016228770837188,0.04628586396574974,0.004904191941022873,-0.01784260757267475,-0.415341317653656,0.6829307079315186,0.4179544150829315,0.2715642750263214,0.2517579197883606,-0.16220985352993011,0.3912506699562073,0.6377864480018616,0.42000001668930054,-0.6471481323242188,2.9884233474731445,-0.6286909580230713,-2.88909912109375,-0.1373492181301117,-0.1468275636434555,-0.15535633265972137,-0.16363213956356049,-0.22614391148090363,-0.24318721890449524,-0.24325105547904968,-0.21997849643230438
0.3333333333333333,0.03682815283536911,0.12231302261352539,0.0,0.9172530174255371,0.0,0.0,-0.39830508828163147,-0.6645361185073853,-0.480496346950531,0.0,0.0,0.0,-2.1870129108428955,-0.4023427367210388,0.6840736269950867,0.4201856255531311,0.9998819828033447,0.004663323517888784,4.7936309783835895e-06,-0.014634198509156704,0.2430877387523651,0.34016498923301697,0.040561068803071976,2.026703357696533,0.0009054480469785631,-4.8206562995910645,-0.41176483035087585,0.6884938478469849,0.42392194271087646,0.3395252227783203,0.34953850507736206,-0.15334485471248627,0.3912506699562073,0.6377864480018616,0.42000001668930054,-0.5971360206604004,2.999971866607666,-0.6787588596343994,-2.99999737739563,-0.14085650444030762,-0.15022772550582886,-0.15835799276828766,-0.1658298671245575,-0.3285083770751953,-0.28743401169776917,-0.2345515936613083,-0.1630590707063675
0.35,0.02432253770530224,0.11266385763883591,0.0,0.9194291234016418,0.0,0.0,-0.39325571060180664,-0.7928170561790466,-0.6220700144767761,0.0,0.0,0.0,1.5432472229003906,-0.3974672555923462,0.6913931369781494,0.4200001657009125,0.9961453080177307,8.703455023351125e-08,-5.530556336452719e-06,-0.08771858364343643,0.3331082761287689,0.5157653093338013,-6.179756746860221e-05,0.003010663203895092,-0.00017902455874718726,-11.82928466796875,-0.40514421463012695,0.6967935562133789,0.4213462769985199,0.4671887755393982,0.5744738578796387,-0.1360967457294464,0.3912506699562073,0.6377864480018616,0.42000001668930054,-0.5471310615539551,2.999976873397827,-0.7287929058074951,-2.9999964237213135,-0.1478898972272873,-0.1559169739484787,-0.16251443326473236,-0.1681603193283081,-0.449740469455719,-0.3494429588317871,-0.23779645562171936,-0.10871053487062454
0.36666666666666664,0.010554952546954155,0.10066772252321243,0.0,0.9152790307998657,0.0,0.0,-0.40282049775123596,-0.881230354309082,-0.7606162428855896,0.0,0.0,0.0,-2.195652723312378,-0.39125174283981323,0.7005117535591125,0.4200016260147095,0.9843934178352356,1.4223062862583902e-05,-2.896246405725833e-05,-0.1759815365076065,0.5101537704467773,0.6830599904060364,-0.0015034349635243416,-0.03017565608024597,0.047733280807733536,-3.792740821838379,-0.394420862197876,0.7049918174743652,0.42025667428970337,0.7573072910308838,0.48935723304748535,0.0812063068151474,0.3912506699562073,0.6377864480018616,0.42000001668930054,-0.497102290391922,2.9998700618743896,-0.7788185477256775,-2.9999778270721436,-0.15661659836769104,-0.16235800087451935,-0.16645033657550812,-0.16928507387638092,-0.5062137246131897,-0.35408782958984375,-0.18785910308361053,-0.002723594894632697
0.3833333333333333,-0.0006683598039671779,0.08593232184648514,0.0,0.8990463614463806,0.0,0.0,-0.4378533959388733,-0.5983928442001343,-0.9363755583763123,0.0,0.0,0.0,-5.482058525085449,-0.3789237141609192,0.7159150242805481,0.4202548861503601,0.9779813289642334,-0.005508497357368469,5.742205394199118e-05,-0.20861926674842834,0.9977681636810303,1.1728330850601196,0.0679486095905304,-2.937505006790161,0.7811418175697327,-5.773839473724365,-0.3786320388317108,0.716915488243103,0.4220963716506958,1.1826128959655762,0.9730280637741089,0.12752997875213623,0.3912506699562073,0.6377864480018616,0.42000001668930054,-0.4470479488372803,3.0,-0.8288256525993347,-2.999971628189087,-0.16456866264343262,-0.16766496002674103,-0.16880983114242554,-0.1683257520198822,-0.4105439782142639,-0.2517159879207611,-0.0734906867146492,0.1279236525297165
0.4,-0.008597804233431816,0.06825600564479828,0.0,0.8684113621711731,0.0,0.0,-0.4958444833755493,-0.3619363009929657,-1.1270731687545776,0.0,0.0,0.0,-8.675950050354004,-0.3465447425842285,0.740239143371582,0.423354834318161,0.9631718993186951,-0.028152115643024445,-0.024972103536128998,-0.266239732503891,2.895423173904419,1.8717116117477417,0.1435208022594452,33.70430374145508,-21.60191535949707,4.269374370574951,-0.34635141491889954,0.7408995628356934,0.4248102903366089,2.778297185897827,1.9302587509155273,0.3879670202732086,0.3912506699562073,0.6377864480018616,0.42000001668930054,-0.4004587233066559,2.106171131134033,-0.878845751285553,-2.9999823570251465,-0.17282326519489288,-0.17275145649909973,-0.17043574154376984,-0.16616195440292358,-0.5083013772964478,-0.2983250916004181,-0.07394607365131378,0.16590513288974762
0.4166666666666667,-0.013470171950757504,0.055610209703445435,0.0,0.8202916979789734,0.0,0.0,-0.5719453692436218,-0.24973519146442413,-0.6280478239059448,0.0,0.0,0.0,-11.633424758911133,-0.272793710231781,0.7773849368095398,0.42810773849487305,0.9421301484107971,0.041926417499780655,-0.07349736243486404,-0.3243933320045471,6.004664897918701,2.1157822608947754,0.3863585293292999,12.594025611877441,-14.492908477783203,18.307540893554688,-0.27280980348587036,0.7778239250183105,0.42998552322387695,5.658297538757324,2.645254611968994,0.41610392928123474,0.3912506699562073,0.6377864480018616,0.42000001668930054,-0.379813015460968,0.9873894453048706,-0.8417988419532776,2.9983747005462646,-0.18786528706550598,-0.18434493243694305,-0.1768413633108139,-0.16750995814800262,-0.8967264890670776,-0.7939539551734924,-0.4856550395488739,-0.1967226266860962
0.43333333333333335,-0.02201138436794281,0.05014228820800781,0.0,0.77925044298172,0.0,0.0,-0.6267126202583313,-0.6261359453201294,-0.30508026480674744,0.0,0.0,0.0,-6.990035533905029,-0.17878936231136322,0.8127902746200562,0.4385792911052704,0.9003078937530518,0.08173107355833054,-0.09583776444196701,-0.416630357503891,5.8118367195129395,1.4838480949401855,0.561919629573822,-5.631439685821533,-9.294492721557617,-1.720070242881775,-0.17906342446804047,0.8142823576927185,0.4398350715637207,5.698024272918701,1.821415901184082,0.7478322982788086,0.3912506699562073,0.6377864480018616,0.42000001668930054,-0.36147087812423706,1.1920641660690308,-0.8684359192848206,-2.9999985694885254,-0.20259597897529602,-0.19930048286914825,-0.18902671337127686,-0.17471925914287567,-0.7612574696540833,-0.7845700979232788,-0.6609829664230347,-0.41567307710647583
0.45,-0.025884341448545456,0.037632670253515244,0.0,0.7585312724113464,0.0,0.0,-0.6516366004943848,-0.11342142522335052,-0.9086208939552307,0.0,0.0,0.0,-2.881757974624634,-0.07871454954147339,0.8348153233528137,0.45022904872894287,0.8509066104888916,0.07386437058448792,-0.09105508774518967,-0.5120652914047241,6.192115306854248,-0.14615119993686676,0.6496214270591736,-5.91813850402832,-21.24147605895996,24.613554000854492,-0.07965048402547836,0.8376885652542114,0.4506285488605499,6.256203651428223,0.8419061303138733,0.8134466409683228,0.3912506699562073,0.6377864480018616,0.42000001668930054,-0.3404567539691925,1.026349663734436,-0.9184598922729492,-3.0000052452087402,-0.20951856672763824,-0.20610156655311584,-0.19379498064517975,-0.17581483721733093,-0.34984034299850464,-0.27830275893211365,-0.12291347980499268,0.10655997693538666
0.4666666666666667,-0.03105509653687477,0.026951206848025322,0.0,0.7294383645057678,0.0,0.0,-0.6840465664863586,-0.348152220249176,-0.5750563740730286,0.0,0.0,0.0,-5.972799777984619,0.025087401270866394,0.8370907306671143,0.4591478109359741,0.7609174251556396,0.062349945306777954,-0.12780426442623138,-0.6330744028091431,5.814398765563965,-0.9984362721443176,0.624539315700531,-12.794966697692871,8.622889518737793,12.914419174194336,0.02113996632397175,0.8420340418815613,0.46146124601364136,6.2300615310668945,-0.21071654558181763,0.6090636849403381,0.3912506699562073,0.6377864480018616,0.42000001668930054,-0.3257405757904053,0.6574935913085938,-0.9684839248657227,-2.999512195587158,-0.21762362122535706,-0.2123006135225296,-0.1972499042749405,-0.17575110495090485,-0.44206053018569946,-0.319819837808609,-0.17449788749217987,-0.0038877716287970543
0.48333333333333334,-0.03431921452283859,0.02061527781188488,0.0,0.7147464156150818,0.0,0.0,-0.6993837356567383,-0.12768873572349548,-0.29238414764404297,0.0,0.0,0.0,-1.3899115324020386,0.11970299482345581,0.8237735033035278,0.4670703411102295,0.6928308010101318,0.05863407254219055,-0.11812594532966614,-0.7089383602142334,5.193493843078613,-1.9045038223266602,0.4143510162830353,-9.54106616973877,-3.1617984771728516,15.163203239440918,0.11619403213262558,0.8311482667922974,0.4691333770751953,5.427003383636475,-1.142165184020996,0.41444849967956543,0.3912506699562073,0.6377864480018616,0.42000001668930054,-0.3131806552410126,0.5435839891433716,-1.0185072422027588,-3.0000016689300537,-0.22541818022727966,-0.21765750646591187,-0.20024144649505615,-0.17634189128875732,-0.43744534254074097,-0.28028255701065063,-0.15141019225120544,-0.04004316031932831
0.5,-0.034090206027030945,0.013145854696631432,0.0,0.6932609677314758,0.0,0.0,-0.720686674118042,0.07130448520183563,-0.51357501745224,0.0,0.0,0.0,-4.503636360168457,0.20189233124256134,0.7976251840591431,0.46756646037101746,0.6261650323867798,0.00230336538515985,-0.13376033306121826,-0.7681277394294739,4.379349231719971,-2.261528730392456,-0.18263015151023865,-22.878040313720703,8.675936698913574,-3.1677439212799072,0.19801200926303864,0.807021975517273,0.47263771295547485,4.566524505615234,-1.8313920497894287,0.15159858763217926,0.3912506699562073,0.6377864480018616,0.42000001668930054,-0.305916428565979,0.43630844354629517,-1.0685293674468994,-2.9996635913848877,-0.2327815443277359,-0.22194115817546844,-0.20216846466064453,-0.17642523348331451,-0.37868478894233704,-0.18587234616279602,-0.048346053808927536,0.048606548458337784
0.5166666666666666,-0.034744374454021454,0.009389732033014297,0.0,0.6850652098655701,0.0,0.0,-0.7284817099571228,-0.0675325095653534,-0.15732577443122864,0.0,0.0,0.0,-0.24329501390457153,0.26832157373428345,0.7628332376480103,0.4657738506793976,0.5719969868659973,-0.0383174866437912,-0.10476134717464447,-0.8126354217529297,3.4866292476654053,-2.2592575550079346,-0.12393223494291306,-1.3584904670715332,7.813660621643066,-8.530069351196289,0.2657262682914734,0.7722632884979248,0.47170647978782654,3.5983545780181885,-2.2455027103424072,-0.21036583185195923,0.3912506699562073,0.6377864480018616,0.42000001668930054,-0.2933034300804138,0.9684031009674072,-1.11855149269104,-3.000000476837158,-0.2399892956018448,-0.22615765035152435,-0.20423483848571777,-0.17726078629493713,1.0483476216904819e-05,-0.16211925446987152,-0.09445559233427048,-0.08430535346269608
0.5333333333333333,-0.03348527103662491,0.0019254644867032766,0.0,0.6679658889770508,0.0,0.0,-0.7441918849945068,0.10258745402097702,-0.48218008875846863,0.0,0.0,0.0,-3.654782295227051,0.32257914543151855,0.7284409403800964,0.4565788805484772,0.5355361104011536,-0.06682130694389343,-0.08081969618797302,-0.8379762172698975,2.871845006942749,-2.1182427406311035,-0.5182577967643738,-2.0797317028045654,13.374933242797852,-4.325757026672363,0.3211301267147064,0.7373279333114624,0.4631074070930481,2.965360164642334,-2.1560776233673096,-0.7728309035301208,0.3912506699562073,0.6377864480018616,0.42000001668930054,-0.2753927707672119,1.0005213022232056,-1.1685736179351807,-2.9997034072875977,-0.2351779043674469,-0.22453467547893524,-0.20285187661647797,-0.17704275250434875,0.3354201912879944,0.16090887784957886,0.111455537378788,0.002832552418112755
0.55,-0.029753761366009712,-0.0013524920213967562,0.0,0.6634820699691772,0.0,0.0,-0.7481921315193176,0.2492164522409439,-0.16867579519748688,0.0,0.0,0.0,0.19807524979114532,0.3638935983181,0.6928975582122803,0.4416857957839966,0.49960219860076904,-0.10164514929056168,-0.05544278398156166,-0.8584823608398438,2.0005104541778564,-2.5695078372955322,-0.8624535799026489,-4.3416876792907715,3.8661508560180664,6.533793926239014,0.3630140423774719,0.7007297277450562,0.4485388398170471,2.1337313652038574,-2.1340889930725098,-1.0326300859451294,0.3912506699562073,0.6377864480018616,0.42000001668930054,-0.26176491379737854,0.6033835411071777,-1.2185957431793213,-3.0000011920928955,-0.23162785172462463,-0.22322580218315125,-0.20249031484127045,-0.17866206169128418,0.34768712520599365,0.1918932944536209,0.0789564847946167,-0.0899532288312912
0.5666666666666667,-0.023816751316189766,-0.0015402543358504772,0.0,0.6501376032829285,0.0,0.0,-0.7598164677619934,0.4054391086101532,0.05652894824743271,0.0,0.0,0.0,-2.9981963634490967,0.3935631215572357,0.6640838384628296,0.42305988073349,0.4965388774871826,-0.07273726165294647,-0.03579651564359665,-0.8642204403877258,1.338340163230896,-1.1066222190856934,-0.23132231831550598,-4.077121257781982,-10.986754417419434,-3.5913069248199463,0.39196425676345825,0.6705901622772217,0.4281322956085205,0.9469599723815918,-1.2409920692443848,-0.5897319316864014,0.3912506699562073,0.6377864480018616,0.42000001668930054,-0.25035297870635986,0.6718220114707947,-1.1806610822677612,3.0000052452087402,-0.22390156984329224,-0.21884189546108246,-0.20115765929222107,-0.18110907077789307,0.5811970829963684,0.3574279844760895,0.12963896989822388,-0.13101108372211456
0.5833333333333334,-0.014916020445525646,-0.0065593235194683075,0.0,0.6494430899620056,0.0,0.0,-0.7604101896286011,0.5147567987442017,-0.26456448435783386,0.0,0.0,0.0,0.8080330491065979,0.4050450623035431,0.6536024212837219,0.42272430658340454,0.49466097354888916,-0.03657127171754837,0.03213310241699219,-0.867721438407898,0.3104495704174042,-0.49771419167518616,0.07430535554885864,10.556346893310547,3.643454074859619,5.861264705657959,0.40250924229621887,0.6569277048110962,0.42744600772857666,0.23235061764717102,-0.6071245074272156,0.09574044495820999,0.3912506699562073,0.6377864480018616,0.42000001668930054,-0.23398546874523163,1.2024879455566406,-1.2018088102340698,-2.999866008758545,-0.20968200266361237,-0.20872357487678528,-0.19554933905601501,-0.18041452765464783,0.7250368595123291,0.5273369550704956,0.2800295948982239,0.006145644932985306
0.6,-0.008999016135931015,-0.00722352834418416,0.0,0.6381371021270752,0.0,0.0,-0.7699227333068848,0.3231498897075653,-0.050192538648843765,0.0,0.0,0.0,-2.5658817291259766,0.4070241153240204,0.6461730599403381,0.42193761467933655,0.5440664887428284,-0.020042909309267998,0.031255509704351425,-0.8382200598716736,0.11238458007574081,-0.4699856638908386,-0.10257351398468018,-0.7705270051956177,-2.6462957859039307,6.387113571166992,0.4045359194278717,0.6491877436637878,0.4260266423225403,0.03181953355669975,-0.35900068283081055,-0.0933753103017807,0.3912506699562073,0.6377864480018616,0.42000001668930054,-0.23709461092948914,-1.465408444404602,-1.1638829708099365,2.9983553886413574,-0.1989690214395523,-0.20098912715911865,-0.19187241792678833,-0.18116925656795502,0.6984683275222778,0.5157561302185059,0.2584325075149536,-0.014929216355085373
0.6166666666666667,-0.0023614808451384306,-0.005307027604430914,0.0,0.6403080821037292,0.0,0.0,-0.7681182026863098,0.42811670899391174,0.1750677078962326,0.0,0.0,0.0,1.230046033859253,0.406782329082489,0.6422933340072632,0.4217555522918701,0.5687769055366516,-0.025020156055688858,0.037626661360263824,-0.8212496638298035,-0.15282149612903595,-0.12026213109493256,0.011323722079396248,0.2665190100669861,0.46712642908096313,2.445899486541748,0.4026820659637451,0.645219087600708,0.4271742105484009,-0.2320224940776825,-0.10447422415018082,0.13472333550453186,0.3912506699562073,0.6377864480018616,0.42000001668930054,-0.2814890146255493,-2.9999935626983643,-1.1855064630508423,-2.999276638031006,-0.18848812580108643,-0.1932610720396042,-0.1882326751947403,-0.18178588151931763,0.6149093508720398,0.46361711621284485,0.22552227973937988,-0.01984495297074318
0.6333333333333333,0.006029574200510979,-0.006675349548459053,0.0,0.63966965675354,0.0,0.0,-0.7686499357223511,0.531420886516571,-0.07835308462381363,0.0,0.0,0.0,-0.740864634513855,0.4043254256248474,0.640755832195282,0.4208114743232727,0.5852403044700623,-0.012043453752994537,0.016452830284833908,-0.8106034994125366,-0.17320974171161652,-0.050414491444826126,-0.06470634788274765,-1.1218416690826416,-3.2754108905792236,5.9127020835876465,0.40161824226379395,0.6471961736679077,0.429382860660553,-0.10003164410591125,0.19738709926605225,0.1333136260509491,0.3912506699562073,0.6377864480018616,0.42000001668930054,-0.32326745986938477,-2.038667678833008,-1.2354704141616821,-2.999149799346924,-0.17583046853542328,-0.1833106130361557,-0.1824650913476944,-0.1802348792552948,0.6207941174507141,0.5007349252700806,0.28715232014656067,0.06993138790130615
0.65,0.016631819307804108,-0.00474117137491703,0.0,0.6523346900939941,0.0,0.0,-0.7579310536384583,0.6557158827781677,0.1684010922908783,0.0,0.0,0.0,2.8153581619262695,0.4018951952457428,0.6404908299446106,0.42000001668930054,0.6023128628730774,-6.861187557660742e-06,5.58617512069759e-06,-0.7982600331306458,-0.12370963394641876,-0.0026271978858858347,-0.0003168320981785655,-0.0028643161058425903,-0.013986598700284958,1.1374715566635132,0.39968594908714294,0.6494137048721313,0.43201684951782227,-0.13433650135993958,0.1692812740802765,0.19051264226436615,0.3912506699562073,0.6377864480018616,0.42000001668930054,-0.3720869719982147,-2.999999761581421,-1.2854493856430054,-2.9993627071380615,-0.16761523485183716,-0.17653286457061768,-0.1786700040102005,-0.17946314811706543,0.5144014358520508,0.4326075613498688,0.26074546575546265,0.08917899429798126
0.6666666666666666,0.024175645783543587,-0.006415166892111301,0.0,0.6522550582885742,0.0,0.0,-0.75799959897995,0.3548216223716736,-0.1450512558221817,0.0,0.0,0.0,-0.9908140301704407,0.4008210003376007,0.6404518485069275,0.4200000464916229,0.6060863137245178,3.7237867900330457e-07,4.6196134917408926e-07,-0.7953988313674927,-0.043148472905159,-0.002176890382543206,-8.597096893936396e-06,-0.0003890719963237643,6.712467893521534e-06,0.3802908957004547,0.39908742904663086,0.6527931690216064,0.4355109930038452,-0.029792513698339462,0.16012197732925415,0.22298108041286469,0.3912506699562073,0.6377864480018616,0.42000001668930054,-0.42209601402282715,-2.999999761581421,-1.33541738986969,-2.9993550777435303,-0.1579129546880722,-0.16799189150333405,-0.17273837327957153,-0.17611978948116302,0.46668997406959534,0.4386652708053589,0.3246206045150757,0.20889422297477722
0.6833333333333333,0.031550418585538864,-0.011073077097535133,0.0,0.6627249121665955,0.0,0.0,-0.7488629221916199,0.48348942399024963,-0.35133618116378784,0.0,0.0,0.0,2.485568046569824,0.40076738595962524,0.640448272228241,0.4199999272823334,0.6062830686569214,5.496802373272658e-07,-9.318900993093848e-06,-0.7952489256858826,0.0003457907878328115,-0.0006615535821765661,-0.00012903730385005474,0.016432955861091614,-0.005138116888701916,-0.0015777534572407603,0.39826732873916626,0.654403567314148,0.441999614238739,-0.03169071674346924,0.08814111351966858,0.6086980700492859,0.3912506699562073,0.6377864480018616,0.42000001668930054,-0.47210952639579773,-3.0000011920928955,-1.385435700416565,-2.999999523162842,-0.15330541133880615,-0.16276413202285767,-0.1681753247976303,-0.1722022294998169,0.1946355402469635,0.26922735571861267,0.2755489647388458,0.2863712012767792
0.7,0.04106209799647331,-0.018022356554865837,0.0,0.6606743931770325,0.0,0.0,-0.7506725788116455,0.5965443849563599,-0.4993424415588379,0.0,0.0,0.0,-1.300049066543579,0.4007677435874939,0.6404480934143066,0.41999995708465576,0.6062828302383423,-7.633046834598645e-07,-5.637462436425267e-06,-0.7952490448951721,0.00015598384197801352,-0.0004050855350214988,-8.308421820402145e-05,0.00954057089984417,-0.0021544822957366705,-0.0007596518844366074,0.40248167514801025,0.6556736826896667,0.4506412148475647,0.4977322220802307,0.03984518349170685,0.5846861600875854,0.3912506699562073,0.6377864480018616,0.42000001668930054,-0.5221220850944519,-3.000000476837158,-1.43545401096344,-3.000000476837158,-0.15203960239887238,-0.15972086787223816,-0.16432568430900574,-0.16741476953029633,0.04481456056237221,0.1714043915271759,0.2484406977891922,0.33589887619018555
0.7166666666666667,0.05282261222600937,-0.02603823132812977,0.0,0.6366305947303772,0.0,0.0,-0.7711688876152039,0.7422229051589966,-0.523371160030365,0.0,0.0,0.0,-4.718635559082031,0.4007677435874939,0.6404480934143066,0.41999995708465576,0.6062824726104736,-9.435383390155039e-07,-6.063743967388291e-06,-0.795249342918396,0.00015771549078635871,-0.0004084640822838992,-8.348468691110611e-05,0.00963564682751894,-0.002188940765336156,-0.0007677472895011306,0.41607943177223206,0.6558021306991577,0.4678950011730194,1.1470439434051514,-0.022714048624038696,1.5988574028015137,0.3912506699562073,0.6377864480018616,0.42000001668930054,-0.5721343755722046,-2.999964475631714,-1.485472321510315,-2.9999990463256836,-0.15497003495693207,-0.1600271612405777,-0.1627454161643982,-0.1638064682483673,-0.2506980299949646,-0.08286081254482269,0.04613061621785164,0.18265430629253387
0.7333333333333333,0.06933560222387314,-0.02818208932876587,0.0,0.6249760389328003,0.0,0.0,-0.7806439399719238,0.9078317284584045,-0.10324066877365112,0.0,0.0,0.0,-0.773242175579071,0.4007677435874939,0.6404481530189514,0.41999995708465576,0.6062828898429871,-1.0357142627981375e-06,-5.8891455410048366e-06,-0.7952490448951721,0.00015696469927206635,-0.00040777496178634465,-8.342461660504341e-05,0.009615854360163212,-0.0021904162131249905,-0.0007655691006220877,0.4338776469230652,0.6572726964950562,0.49958336353302,1.067984938621521,0.37564098834991455,2.137413501739502,0.3912506699562073,0.6377864480018616,0.42000001668930054,-0.5985064506530762,-0.3730592727661133,-1.53549063205719,-2.999730348587036,-0.16486385464668274,-0.16673533618450165,-0.16696849465370178,-0.1655908226966858,-0.3532332181930542,-0.25157982110977173,-0.18371887505054474,-0.11466104537248611
0.75,0.08071868121623993,-0.029100706800818443,0.0,0.637135922908783,0.0,0.0,-0.7707514762878418,0.6264855265617371,-0.0769132450222969,0.0,0.0,0.0,2.6859166622161865,0.4007677435874939,0.6404480934143066,0.41999995708465576,0.6062828302383423,-9.340020596937393e-07,-6.083838343329262e-06,-0.7952489852905273,0.00015791207260917872,-0.0004086512781213969,-8.344277739524841e-05,0.009643478319048882,-0.002189978724345565,-0.000768531986977905,0.45320504903793335,0.6618075370788574,0.5279780626296997,1.1785023212432861,0.21566742658615112,1.3453831672668457,0.3912506699562073,0.6377864480018616,0.42000001668930054,-0.5808473229408264,2.249283790588379,-1.4966596364974976,2.9999988079071045,-0.16778181493282318,-0.16845467686653137,-0.16793347895145416,-0.1657642126083374,-0.03679140657186508,0.013435718603432178,0.04125156253576279,0.0702768862247467
0.7666666666666666,0.08776459097862244,-0.034894950687885284,0.0,0.6365395188331604,0.0,0.0,-0.7712441086769104,0.3865055739879608,-0.3703947961330414,0.0,0.0,0.0,-1.0606422424316406,0.4007677435874939,0.6404480934143066,0.41999995708465576,0.6062825322151184,-9.590128229319816e-07,-5.958057954558171e-06,-0.7952492237091064,0.00015713085304014385,-0.0004082045052200556,-8.344813250005245e-05,0.009627400897443295,-0.0021879991982132196,-0.000765960372518748,0.46779829263687134,0.6650471687316895,0.5441501140594482,0.4979434013366699,0.041399940848350525,0.7502468824386597,0.3912506699562073,0.6377864480018616,0.42000001668930054,-0.5647690296173096,-0.12653851509094238,-1.446606993675232,2.9999992847442627,-0.16580505669116974,-0.1659337431192398,-0.16521276533603668,-0.16287542879581451,-0.010604397393763065,0.05629723519086838,0.10039743781089783,0.13490258157253265
0.7833333333333333,0.09171594679355621,-0.035935886204242706,0.0,0.6465527415275574,0.0,0.0,-0.7628692984580994,0.19585257768630981,-0.03650876507163048,0.0,0.0,0.0,2.3075456619262695,0.4007677435874939,0.6404480934143066,0.41999995708465576,0.606282651424408,-9.174829074254376e-07,-5.912828783039004e-06,-0.7952492237091064,0.00015787454321980476,-0.0004090955771971494,-8.351961150765419e-05,0.009653924964368343,-0.0021934646647423506,-0.0007688384503126144,0.47301432490348816,0.6635869741439819,0.5519295930862427,0.2339904010295868,-0.07507174462080002,0.23035036027431488,0.3912506699562073,0.6377864480018616,0.42000001668930054,-0.5476361513137817,1.9860330820083618,-1.4638200998306274,-2.999999523162842,-0.1692478209733963,-0.1675814688205719,-0.16545985639095306,-0.1619863063097,-0.09672001749277115,-0.015846971422433853,0.04582583159208298,0.09263639897108078
0.8,0.09192383289337158,-0.0374213270843029,0.0,0.6440317034721375,0.0,0.0,-0.7649987936019897,-0.03932615742087364,-0.06512357294559479,0.0,0.0,0.0,-1.208412766456604,0.4007677435874939,0.6404480934143066,0.41999995708465576,0.6062825918197632,-9.212023996951757e-07,-6.013854090269888e-06,-0.7952492237091064,0.00015818998508621007,-0.00040908853407017887,-8.351029828190804e-05,0.009654833935201168,-0.0021920499857515097,-0.0007696222746744752,0.4721992313861847,0.664017915725708,0.5510566234588623,-0.3531608581542969,0.04591275006532669,-0.17324566841125488,0.3912506699562073,0.6377864480018616,0.42000001668930054,-0.5353420376777649,-0.3214665651321411,-1.425195574760437,2.999999761581421,-0.16892406344413757,-0.16656067967414856,-0.16395671665668488,-0.16018790006637573,0.0022126215044409037,0.039883941411972046,0.06671896576881409,0.08159030228853226
0.8166666666666667,0.09329025447368622,-0.03594309836626053,0.0,0.6512618660926819,0.0,0.0,-0.7588530778884888,0.12713336944580078,0.17362867295742035,0.0,0.0,0.0,1.897949457168579,0.4007677435874939,0.6404480934143066,0.41999995708465576,0.6062828302383423,-9.06569141534419e-07,-5.94868515690905e-06,-0.7952489852905273,0.00015876584802754223,-0.00040908812661655247,-8.351914584636688e-05,0.009655612520873547,-0.002188744954764843,-0.000771129853092134,0.4665250778198242,0.6649549007415771,0.5484893321990967,-0.3458111882209778,0.07600842416286469,-0.07531031221151352,0.3912506699562073,0.6377864480018616,0.42000001668930054,-0.5393077731132507,-0.16487719118595123,-1.4428410530090332,-3.0,-0.16852614283561707,-0.1659007966518402,-0.16306960582733154,-0.15916851162910461,0.038551006466150284,0.04308762401342392,0.050336629152297974,0.0548744834959507
0.8333333333333334,0.09342273324728012,-0.03750395402312279,0.0,0.6497403979301453,0.0,0.0,-0.7601561546325684,-0.07467597723007202,-0.13271546363830566,0.0,0.0,0.0,-1.4599649906158447,0.4007677435874939,0.6404480934143066,0.41999995708465576,0.6062825322151184,-9.433174454898108e-07,-6.005362592986785e-06,-0.7952492833137512,0.00015747398720122874,-0.00040836515836417675,-8.346978574991226e-05,0.009632423520088196,-0.0021883908193558455,-0.0007670042105019093,0.4618144631385803,0.6656700968742371,0.5439310073852539,-0.2681625187397003,-0.07392954081296921,-0.346120148897171,0.3912506699562073,0.6377864480018616,0.42000001668930054,-0.5678523182868958,-2.992039203643799,-1.4042754173278809,3.0,-0.16602233052253723,-0.16350287199020386,-0.1606571227312088,-0.15673302114009857,0.058082688599824905,0.0767209604382515,0.10358277708292007,0.13015086948871613
0.85,0.09448587894439697,-0.03547189012169838,0.0,0.6523487567901611,0.0,0.0,-0.7579188942909241,0.09117552638053894,0.13220013678073883,0.0,0.0,0.0,1.301167368888855,0.4007677435874939,0.6404480934143066,0.41999995708465576,0.6062825918197632,-9.198959673994977e-07,-5.95746723774937e-06,-0.7952491641044617,0.00015797036758158356,-0.0004091330920346081,-8.352124132215977e-05,0.009655176661908627,-0.0021933247335255146,-0.0007691038772463799,0.4595363736152649,0.6640511751174927,0.5431333780288696,0.05972079932689667,-0.03185521438717842,0.26877865195274353,0.3912506699562073,0.6377864480018616,0.42000001668930054,-0.6027811169624329,-1.314628005027771,-1.422343134880066,-3.0,-0.16761945188045502,-0.16452915966510773,-0.16092556715011597,-0.15622057020664215,0.0040407306514680386,0.0075280796736478806,0.02848324365913868,0.05696161836385727
0.8666666666666667,0.0974903255701065,-0.03717584162950516,0.0,0.6450251340866089,0.0,0.0,-0.7641613483428955,0.22185297310352325,-0.13665033876895905,0.0,0.0,0.0,-2.0457029342651367,0.4007677435874939,0.6404480934143066,0.41999995708465576,0.6062827110290527,-9.171234296445618e-07,-5.908781986363465e-06,-0.7952491641044617,0.0001577584189362824,-0.0004090381262358278,-8.35140235722065e-05,0.009652134962379932,-0.002193395048379898,-0.0007684892625547945,0.4635850191116333,0.6636108160018921,0.5452648997306824,0.3362444043159485,-0.1382332295179367,0.1393951028585434,0.3912506699562073,0.6377864480018616,0.42000001668930054,-0.6340856552124023,-2.327960729598999,-1.472361445426941,-3.000000476837158,-0.1661231368780136,-0.1630951464176178,-0.1592014878988266,-0.15402255952358246,-0.006275255233049393,0.021902838721871376,0.07037509232759476,0.1282525211572647
0.8833333333333333,0.10337794572114944,-0.03704357519745827,0.0,0.6165375113487244,0.0,0.0,-0.7873255610466003,0.3952907919883728,0.058991190046072006,0.0,0.0,0.0,-5.3181867599487305,0.4007677435874939,0.6404480934143066,0.41999995708465576,0.606282651424408,-9.206400477523857e-07,-6.010001925460529e-06,-0.7952491641044617,0.0001581904652994126,-0.0004090881848242134,-8.350913412868977e-05,0.009654809720814228,-0.0021920453291386366,-0.0007696214597672224,0.47382569313049316,0.662243127822876,0.5489317178726196,0.9135267734527588,-0.03863745555281639,0.4358566701412201,0.3912506699562073,0.6377864480018616,0.42000001668930054,-0.650769054889679,0.12785108387470245,-1.522379755973816,-3.0,-0.16732847690582275,-0.16405288875102997,-0.15958045423030853,-0.15365886688232422,-0.0140334852039814,-0.026294836774468422,-0.017533089965581894,0.002439548959955573
0.9,0.10704401880502701,-0.03430932015180588,0.0,0.6026915311813354,0.0,0.0,-0.7979742288589478,0.14794231951236725,0.20692336559295654,0.0,0.0,0.0,-1.031867265701294,0.4007677435874939,0.6404480934143066,0.41999995708465576,0.6062825918197632,-9.024201972351875e-07,-5.94656648900127e-06,-0.7952491641044617,0.00015847152099013329,-0.0004089696449227631,-8.350983262062073e-05,0.009651564061641693,-0.0021889922209084034,-0.0007701257709413767,0.484302818775177,0.6651822924613953,0.5582798719406128,0.3570083677768707,0.38892579078674316,0.6458927392959595,0.3912506699562073,0.6377864480018616,0.42000001668930054,-0.6244595050811768,2.77699875831604,-1.4899508953094482,2.999999761581421,-0.166261687874794,-0.16363894939422607,-0.1595526784658432,-0.153896763920784,0.13046857714653015,0.06504885107278824,0.010364977642893791,-0.04087720066308975
