vladlanda/robotic-transformer/data/env_000_episode_0209.csv
sim_time_s,robot_box_x,robot_box_y,robot_box_z,robot_box_quat_w,robot_box_quat_x,robot_box_quat_y,robot_box_quat_z,robot_box_linvel_x,robot_box_linvel_y,robot_box_linvel_z,robot_box_angvel_x,robot_box_angvel_y,robot_box_angvel_z,cube_world_x,cube_world_y,cube_world_z,cube_quat_w,cube_quat_x,cube_quat_y,cube_quat_z,cube_linvel_x,cube_linvel_y,cube_linvel_z,cube_angvel_x,cube_angvel_y,cube_angvel_z,endpoint_world_x,endpoint_world_y,endpoint_world_z,endpoint_linvel_x,endpoint_linvel_y,endpoint_linvel_z,target_cube_world_x,target_cube_world_y,target_cube_world_z,gripper_actual_pos_rad_gp_leftgearjoint,gripper_actual_vel_rad_s_gp_leftgearjoint,gripper_actual_pos_rad_gp_rotatingjoint,gripper_actual_vel_rad_s_gp_rotatingjoint,motor_angle_rad_joint1,motor_angle_rad_joint2,motor_angle_rad_joint3,motor_angle_rad_joint4,motor_speed_rad_s_joint1,motor_speed_rad_s_joint2,motor_speed_rad_s_joint3,motor_speed_rad_s_joint4
0.0,0.0,0.0,0.0,1.0,0.0,0.0,0.0,0.0,0.0,0.0,0.0,0.0,0.0,-0.42569175362586975,0.7777382135391235,0.41999998688697815,1.0,0.0,0.0,0.0,0.0,0.0,0.0,0.0,0.0,0.0,3.42540442943573e-06,-0.005000244826078415,1.313499927520752,0.0,0.0,0.0,0.47205978631973267,0.7630617022514343,0.42000001668930054,-1.5707999467849731,0.0,0.0,0.0,0.0,0.0,0.0,0.0,0.0,0.0,0.0,0.0
0.016666666666666666,0.0028778850100934505,0.0021806680597364902,0.0,0.9998081922531128,0.0,0.0,0.019586581736803055,0.24087215960025787,0.18240931630134583,0.0,0.0,0.0,3.1418697834014893,-0.4256918728351593,0.7777379155158997,0.41999998688697815,1.0,3.2799914606584935e-06,-8.339814598912199e-07,8.465387679734704e-08,-1.9833554688375443e-05,0.00017983050202019513,-6.133061833679676e-05,0.0009432226070202887,-0.004689437802881002,-0.0003198152990080416,-0.007110234349966049,0.003379564033821225,1.3159373998641968,-0.8143353462219238,0.9868683815002441,0.18095196783542633,0.47205978631973267,0.7630617022514343,0.42000001668930054,-1.5301095247268677,3.0000011920928955,-0.04584788903594017,-2.9999992847442627,0.0008691533003002405,0.0007963840034790337,0.0007110277656465769,0.0006108740926720202,0.11094217747449875,0.09756709635257721,0.08334315568208694,0.06823883205652237
0.03333333333333333,0.00896099116653204,0.006802027579396963,0.0,0.9997960329055786,0.0,0.0,0.020196840167045593,0.4070222079753876,0.3153079152107239,0.0,0.0,0.0,-0.8691337704658508,-0.42569199204444885,0.7777378559112549,0.4200000464916229,1.0,3.3908074783539632e-06,-2.1324644876585808e-06,-3.709624607495243e-08,0.0002635783748701215,0.0002693790302146226,-0.00010509486310184002,-0.0017706957878544927,0.004130749497562647,-0.0001354783307760954,-0.027556639164686203,0.02629934810101986,1.3165804147720337,-1.5912965536117554,1.6163429021835327,-0.08707208186388016,0.47205978631973267,0.7630617022514343,0.42000001668930054,-1.4800903797149658,3.0000007152557373,-0.09588771313428879,-3.000000238418579,0.002990090986713767,0.0026526888832449913,0.0022772483061999083,0.0018606933299452066,0.1642124056816101,0.13975512981414795,0.11381323635578156,0.08629471808671951
0.05,0.01837979257106781,0.013801946304738522,0.0,0.9999947547912598,0.0,0.0,-0.0032430700957775116,0.6352019906044006,0.46824848651885986,0.0,0.0,0.0,-4.095200061798096,-0.42569202184677124,0.7777379155158997,0.4200000464916229,1.0,3.7651545881089987e-06,-2.2119120330899023e-06,5.611795916848905e-09,0.00026530781178735197,0.00026691469247452915,-0.00010440615005791187,-0.001724383095279336,0.004177459981292486,-0.00012949582014698535,-0.056811556220054626,0.058209583163261414,1.3117117881774902,-1.8969252109527588,2.1586227416992188,-0.47659602761268616,0.47205978631973267,0.7630617022514343,0.42000001668930054,-1.4300720691680908,2.9999990463256836,-0.14592640101909637,-3.0000009536743164,0.005903697572648525,0.005044892895966768,0.0041136774234473705,0.003105866489931941,0.1995941400527954,0.1571132093667984,0.11272307485342026,0.06634571403265
0.06666666666666667,0.0306823942810297,0.023219674825668335,0.0,0.9999302625656128,0.0,0.0,-0.011811723001301289,0.7723067998886108,0.6118492484092712,0.0,0.0,0.0,-0.05802801996469498,-0.42569202184677124,0.7777378559112549,0.4200000464916229,0.9999999403953552,3.4067159049300244e-06,-2.2855938368593343e-06,4.3009254113712814e-07,0.0002670247631613165,0.00026791825075633824,-0.00010437914170324802,-0.0017406323458999395,0.004211686551570892,-0.0001285075704799965,-0.09154751896858215,0.09304595738649368,1.3010762929916382,-2.13063383102417,2.2040178775787354,-0.7867159843444824,0.47205978631973267,0.7630617022514343,0.42000001668930054,-1.3800537586212158,2.9999992847442627,-0.195958212018013,-3.000001907348633,0.008333537727594376,0.006672188639640808,0.004898315295577049,0.003007032908499241,0.12301085144281387,0.06513818353414536,0.0051102000288665295,-0.057126712054014206
0.08333333333333333,0.03671727702021599,0.03648576885461807,0.0,0.9993574619293213,0.0,0.0,-0.03584272786974907,0.22705908119678497,0.8687958121299744,0.0,0.0,0.0,-3.8269803524017334,-0.42569202184677124,0.7777378559112549,0.4200000464916229,1.0,3.697289685078431e-06,-2.188937742175767e-06,-2.6324386226406205e-07,0.00026389604317955673,0.0002658649464137852,-0.00010434049181640148,-0.001708196708932519,0.0041501703672111034,-0.00012991030234843493,-0.12245307862758636,0.13471843302249908,1.285103678703308,-1.5894025564193726,2.785008430480957,-1.050544023513794,0.47205978631973267,0.7630617022514343,0.42000001668930054,-1.3300325870513916,2.999999761581421,-0.22077514231204987,-0.19695819914340973,0.00414968142285943,0.0016967377159744501,-0.0009227585978806019,-0.0037174394819885492,-0.3753543794155121,-0.43503084778785706,-0.497454434633255,-0.5628678202629089
0.1,0.04658135399222374,0.05135660991072655,0.0,0.9961734414100647,0.0,0.0,-0.08739851415157318,0.7375907897949219,0.8998923301696777,0.0,0.0,0.0,-6.985047340393066,-0.42569202184677124,0.7777378559112549,0.4200000464916229,0.9999999403953552,3.620398047132767e-06,-2.265205921503366e-06,1.7460170909089356e-07,0.000266769144218415,0.0002674092538654804,-0.00010408065281808376,-0.001738645602017641,0.004209234844893217,-0.00012775602226611227,-0.14732038974761963,0.18316911160945892,1.269035816192627,-1.4262754917144775,3.0556936264038086,-0.9478513598442078,0.47205978631973267,0.7630617022514343,0.42000001668930054,-1.2800326347351074,2.999998092651367,-0.26687091588974,-3.000000238418579,0.0021477725822478533,-0.0019589257426559925,-0.006236257962882519,-0.010692624375224113,-0.04253031685948372,-0.15511184930801392,-0.26669955253601074,-0.37720048427581787
0.11666666666666667,0.0542229525744915,0.06810425221920013,0.0,0.9929143786430359,0.0,0.0,-0.11883194744586945,0.4829525947570801,1.0571831464767456,0.0,0.0,0.0,-2.552903652191162,-0.42569202184677124,0.7777378559112549,0.4200000464916229,1.0,3.798361603912781e-06,-2.2628253191214753e-06,-1.5022170885004016e-07,0.000263741152593866,0.0002656599972397089,-0.00010429229587316513,-0.0017054708441719413,0.004147648345679045,-0.00012979858729522675,-0.17703059315681458,0.23067374527454376,1.252351999282837,-1.8069663047790527,3.034605026245117,-0.974072277545929,0.47205978631973267,0.7630617022514343,0.42000001668930054,-1.230013370513916,2.999988317489624,-0.2327021211385727,3.0000007152557373,-0.0016772022936493158,-0.007426908705383539,-0.013325122185051441,-0.01937980204820633,-0.12665367126464844,-0.24494560062885284,-0.359830766916275,-0.47109708189964294
0.13333333333333333,0.05945330113172531,0.0871158167719841,0.0,0.9871172308921814,0.0,0.0,-0.15999868512153625,0.24443820118904114,1.2004199028015137,0.0,0.0,0.0,-5.811440944671631,-0.42569202184677124,0.7777379155158997,0.4200000464916229,0.9999999403953552,3.5505204323271755e-06,-2.229785422969144e-06,2.9288165137586475e-07,0.00026703279581852257,0.00026779391919262707,-0.00010417005978524685,-0.0017440415685996413,0.004213592037558556,-0.00012800541298929602,-0.20425887405872345,0.28365910053253174,1.2372630834579468,-1.4125916957855225,3.44091796875,-0.9032610654830933,0.47205978631973267,0.7630617022514343,0.42000001668930054,-1.18429434299469,2.491285800933838,-0.26393622159957886,-3.0000007152557373,-0.004994026385247707,-0.012840435840189457,-0.02076052688062191,-0.0287576112896204,-0.2828962206840515,-0.40505853295326233,-0.5224997401237488,-0.6349321603775024
0.15,0.061663080006837845,0.10407202690839767,0.0,0.9832591414451599,0.0,0.0,-0.18221281468868256,0.10032103955745697,0.8949836492538452,0.0,0.0,0.0,-1.683794617652893,-0.42569202184677124,0.7777378559112549,0.4200000464916229,0.9999999403953552,3.3380674722138792e-06,-2.242838490928989e-06,-2.8060037848831598e-08,0.0002667458902578801,0.00026757988962344825,-0.00010427623055875301,-0.0017367381369695067,0.004206942860037088,-0.0001283128949580714,-0.23572224378585815,0.34006792306900024,1.2151315212249756,-2.0521230697631836,3.5600104331970215,-1.6776429414749146,0.47205978631973267,0.7630617022514343,0.42000001668930054,-1.1593559980392456,0.6428351998329163,-0.22978202998638153,3.000000238418579,-0.00973312184214592,-0.01922932267189026,-0.028709223493933678,-0.03817320987582207,-0.29048916697502136,-0.3666198253631592,-0.4374266564846039,-0.5028350949287415
0.16666666666666666,0.06863843649625778,0.12143206596374512,0.0,0.9757113456726074,0.0,0.0,-0.21906018257141113,0.539272129535675,1.0626474618911743,0.0,0.0,0.0,-5.456465244293213,-0.42569202184677124,0.7777379155158997,0.4200000464916229,0.9999999403953552,3.6478047604759922e-06,-2.307233671672293e-06,3.5235295570146263e-08,0.0002672690898180008,0.0002680139150470495,-0.00010418728925287724,-0.001747197238728404,0.004217608831822872,-0.00012798573879990727,-0.2674108147621155,0.4043901860713959,1.1842610836029053,-1.7227234840393066,4.162103652954102,-2.0431857109069824,0.47205978631973267,0.7630617022514343,0.42000001668930054,-1.1175225973129272,2.9999983310699463,-0.26103752851486206,-2.999999523162842,-0.013079623691737652,-0.023849202319979668,-0.03451251983642578,-0.04507049173116684,-0.19714230298995972,-0.26469188928604126,-0.32721027731895447,-0.38474005460739136
0.18333333333333332,0.0713924840092659,0.13527975976467133,0.0,0.9710763096809387,0.0,0.0,-0.2387693077325821,0.10565780848264694,0.7827692031860352,0.0,0.0,0.0,-1.3408863544464111,-0.42569202184677124,0.7777378559112549,0.4200000464916229,0.9999999403953552,3.2905488751566736e-06,-2.193873569922289e-06,-2.792829718600842e-07,0.0002667795342858881,0.00026776042068377137,-0.00010433956049382687,-0.0017391042783856392,0.004207027144730091,-0.0001284590980503708,-0.3019542098045349,0.4695936441421509,1.1408066749572754,-1.978004813194275,4.128974914550781,-3.0682592391967773,0.47205978631973267,0.7630617022514343,0.42000001668930054,-1.084765076637268,1.0724726915359497,-0.31106582283973694,-2.999999761581421,-0.022819602862000465,-0.03346303105354309,-0.04397594556212425,-0.05436982214450836,-0.6797919869422913,-0.6483532190322876,-0.6159772276878357,-0.5832618474960327
0.2,0.07133882492780685,0.14996689558029175,0.0,0.9626261591911316,0.0,0.0,-0.2708336114883423,-0.10751108825206757,0.9108184576034546,0.0,0.0,0.0,-4.807362079620361,-0.42569202184677124,0.7777378559112549,0.4200000464916229,1.0,3.28078749589622e-06,-2.2191734387888573e-06,1.5941357389692712e-07,0.00026627929764799774,0.000267399795120582,-0.00010425224900245667,-0.0017356870230287313,0.004197803791612387,-0.00012865019380114973,-0.33455103635787964,0.5399291515350342,1.0837465524673462,-1.8175195455551147,4.302369594573975,-3.761992931365967,0.47205978631973267,0.7630617022514343,0.42000001668930054,-1.040702223777771,3.0000035762786865,-0.3610915541648865,-2.9999990463256836,-0.03561459481716156,-0.0455426387488842,-0.05532398074865341,-0.06498200446367264,-0.8151262998580933,-0.7653842568397522,-0.7145698070526123,-0.6633385419845581
0.21666666666666667,0.07297594845294952,0.1662873774766922,0.0,0.9584552645683289,0.0,0.0,-0.2852429449558258,0.12478085607290268,1.0206422805786133,0.0,0.0,0.0,-0.8026137351989746,-0.42569202184677124,0.7777379155158997,0.4200000464916229,1.0,3.6131975775788305e-06,-2.270054665132193e-06,2.2095007068401173e-07,0.0002671261318027973,0.0002678181044757366,-0.00010414118878543377,-0.0017445804551243782,0.004215228371322155,-0.00012786441948264837,-0.3672308921813965,0.6062777042388916,1.012690544128418,-1.790644645690918,3.8404617309570312,-4.7081804275512695,0.47205978631973267,0.7630617022514343,0.42000001668930054,-0.9906991720199585,2.9999988079071045,-0.4111161530017853,-2.999999761581421,-0.04969443008303642,-0.05830630660057068,-0.0667874738574028,-0.0751771628856659,-0.9388108253479004,-0.8343944549560547,-0.7327721118927002,-0.6350100040435791
0.23333333333333334,0.07256811857223511,0.1804720014333725,0.0,0.9497959613800049,0.0,0.0,-0.31286996603012085,-0.07993774861097336,0.7476434111595154,0.0,0.0,0.0,-4.324509620666504,-0.42569202184677124,0.7777378559112549,0.4200000464916229,1.0,3.3819201235019136e-06,-2.290869360876968e-06,2.727421417603182e-07,0.00026691355742514133,0.0002678000892046839,-0.00010433257557451725,-0.001739609520882368,0.00420966325327754,-0.00012843690637964755,-0.3942679166793823,0.6683077812194824,0.9284660220146179,-1.3623045682907104,3.5477371215820312,-5.311144828796387,0.47205978631973267,0.7630617022514343,0.42000001668930054,-0.9406903386116028,2.999997854232788,-0.46114352345466614,-2.999997854232788,-0.06496436148881912,-0.0737023577094078,-0.08116409182548523,-0.08776256442070007,-0.9703752994537354,-0.965369462966919,-0.9084785580635071,-0.8017345666885376
0.25,0.0735367089509964,0.19457672536373138,0.0,0.946350634098053,0.0,0.0,-0.3231416642665863,0.1096259281039238,0.8813802003860474,0.0,0.0,0.0,-0.31522783637046814,-0.42569199204444885,0.7777378559112549,0.4200000464916229,0.9999999403953552,3.7066345157654723e-06,-2.222945795438136e-06,-2.2556247358807013e-07,0.0002642473264131695,0.0002665669599082321,-0.00010457937605679035,-0.0017170740757137537,0.004155685659497976,-0.00013062926882412285,-0.41816937923431396,0.7170246243476868,0.8340578079223633,-1.2569291591644287,2.492236614227295,-5.94561767578125,0.47205978631973267,0.7630617022514343,0.42000001668930054,-0.8906800150871277,3.0000030994415283,-0.5111727714538574,-2.999999761581421,-0.08121716976165771,-0.08990233391523361,-0.09729856252670288,-0.10294128209352493,-0.9676067233085632,-0.9585418701171875,-0.9517117142677307,-0.9351951479911804
0.26666666666666666,0.07284378260374069,0.20597697794437408,0.0,0.9381681084632874,0.0,0.0,-0.3461800217628479,-0.10137272626161575,0.6157737374305725,0.0,0.0,0.0,-3.8014988899230957,-0.42569202184677124,0.7777378559112549,0.4200000464916229,0.9999999403953552,3.719743290275801e-06,-2.4033963654801482e-06,-1.8313593841412512e-07,0.00026623267331160605,0.0002672910050023347,-0.00010425737127661705,-0.0017326035303995013,0.004196490161120892,-0.00012851072824560106,-0.4353986382484436,0.7531962394714355,0.7283957004547119,-0.7503577470779419,1.771030306816101,-6.56026554107666,0.47205978631973267,0.7630617022514343,0.42000001668930054,-0.8406696915626526,2.999997854232788,-0.5612025260925293,-3.000001907348633,-0.09775729477405548,-0.1063392236828804,-0.113617442548275,-0.11918775737285614,-0.9918099641799927,-0.9927847385406494,-0.978656530380249,-0.9686509370803833
0.2833333333333333,0.07058873772621155,0.2133421003818512,0.0,0.9359912872314453,0.0,0.0,-0.3520232141017914,-0.1913583129644394,0.37975525856018066,0.0,0.0,0.0,0.1984250545501709,-0.42569202184677124,0.7777379155158997,0.4200000464916229,0.9999999403953552,3.5841740100295283e-06,-2.315398432983784e-06,7.398276835601791e-08,0.0002652210823725909,0.0002645523054525256,-0.00010317191481590271,-0.0017021427629515529,0.004185129422694445,-0.00012499491276685148,-0.4458739757537842,0.7711634635925293,0.6181544065475464,-0.35987335443496704,0.4695740044116974,-6.640404224395752,0.47205978631973267,0.7630617022514343,0.42000001668930054,-0.7906607389450073,2.9999990463256836,-0.6112322807312012,-2.9999992847442627,-0.11452159285545349,-0.12303810566663742,-0.13027428090572357,-0.13581779599189758,-0.9999634027481079,-0.9999589323997498,-0.9989681839942932,-0.9981572031974792
0.3,0.0652308315038681,0.21705582737922668,0.0,0.9292137026786804,0.0,0.0,-0.3695428669452667,-0.37054362893104553,0.16597233712673187,0.0,0.0,0.0,-3.0927646160125732,-0.42569202184677124,0.7777378559112549,0.4200000464916229,1.0,3.7243778479023604e-06,-2.2718340915162116e-06,9.629111730191653e-08,0.00026312560657970607,0.0002652584225870669,-0.00010438216850161552,-0.0016960793873295188,0.004134789574891329,-0.00013027508975937963,-0.44578269124031067,0.7748832702636719,0.5082858800888062,0.39446812868118286,-0.08722344040870667,-6.374411582946777,0.47205978631973267,0.7630617022514343,0.42000001668930054,-0.7406519651412964,2.999999523162842,-0.6612610816955566,-3.0000016689300537,-0.13194960355758667,-0.14027756452560425,-0.14737507700920105,-0.152811661362648,-1.0089632272720337,-1.0067750215530396,-1.0051026344299316,-1.0037637948989868
0.31666666666666665,0.057698387652635574,0.21799622476100922,0.0,0.9288548231124878,0.0,0.0,-0.37044402956962585,-0.4885070323944092,0.010755997151136398,0.0,0.0,0.0,0.7884531617164612,-0.42569202184677124,0.7777378559112549,0.4200000464916229,1.0,3.666371867439011e-06,-2.3924892502691364e-06,1.6792405688192957e-07,0.00026602050638757646,0.0002670706599019468,-0.00010418635793030262,-0.001731188502162695,0.004193520173430443,-0.0001284972531720996,-0.43657416105270386,0.7726306915283203,0.4082542657852173,0.8163025975227356,-0.2963363528251648,-5.659309387207031,0.47205978631973267,0.7630617022514343,0.42000001668930054,-0.6906446814537048,3.0000007152557373,-0.711287796497345,-3.000001907348633,-0.1492934674024582,-0.15746422111988068,-0.1644458919763565,-0.16979287564754486,-1.0146281719207764,-1.01112961769104,-1.0084413290023804,-1.006270170211792
0.3333333333333333,0.04803662374615669,0.21623177826404572,0.0,0.9343135356903076,0.0,0.0,-0.3564522862434387,-0.6299489736557007,-0.14947912096977234,0.0,0.0,0.0,2.3694498538970947,-0.4266892969608307,0.7756478190422058,0.4203017055988312,0.9996607303619385,0.007199481129646301,-0.0004936021286994219,-0.025026990100741386,0.02870197966694832,0.022240491583943367,-0.05366623029112816,-1.4547001123428345,1.296332597732544,0.11845865845680237,-0.4374428987503052,0.7793858051300049,0.42659837007522583,0.1799192577600479,0.6230758428573608,-0.18460765480995178,0.47205978631973267,0.7630617022514343,0.42000001668930054,-0.6407729983329773,3.0000014305114746,-0.761928379535675,-2.9998559951782227,-0.14701369404792786,-0.15704227983951569,-0.16538628935813904,-0.17149636149406433,-0.056250061839818954,-0.10817869007587433,-0.14316986501216888,-0.1578899472951889
0.35,0.03974732756614685,0.2116033285856247,0.0,0.9329378604888916,0.0,0.0,-0.3600373864173889,-0.42548689246177673,-0.3288837671279907,0.0,0.0,0.0,-1.3166987895965576,-0.42400914430618286,0.779869794845581,0.4200000464916229,0.9980829358100891,1.057529402714863e-06,1.3374261698118062e-06,-0.06189046427607536,0.21491049230098724,0.3069906234741211,-5.034497007727623e-06,-0.0002706955710891634,0.0004334721015766263,-5.189149856567383,-0.4333803057670593,0.7857773900032043,0.42336058616638184,0.3632645905017853,0.3244408369064331,-0.19790929555892944,0.47205978631973267,0.7630617022514343,0.42000001668930054,-0.5907673835754395,2.9999935626983643,-0.8119634389877319,-2.999990224838257,-0.1503843069076538,-0.16031229496002197,-0.1683487594127655,-0.17393311858177185,-0.280085951089859,-0.23270893096923828,-0.17792929708957672,-0.11701658368110657
0.36666666666666664,0.02933243103325367,0.20521046221256256,0.0,0.9373190402984619,0.0,0.0,-0.3484724164009094,-0.610893189907074,-0.4789310395717621,0.0,0.0,0.0,2.3727591037750244,-0.41815385222435,0.7876209020614624,0.4200000464916229,0.9896677136421204,1.0305269597665756e-06,3.2768689379736315e-06,-0.1433798372745514,0.460518479347229,0.6034157872200012,-4.865598020842299e-05,0.0016416586004197598,-0.002622948493808508,-15.017548561096191,-0.4245172441005707,0.7942104339599609,0.4205409288406372,0.5546969175338745,0.7193485498428345,0.024989686906337738,0.47205978631973267,0.7630617022514343,0.42000001668930054,-0.5407575368881226,2.9999465942382812,-0.8619949221611023,-2.973752021789551,-0.15922784805297852,-0.1671089380979538,-0.17303349077701569,-0.1765071302652359,-0.3692672550678253,-0.2654169797897339,-0.15431582927703857,-0.039962686598300934
0.3833333333333333,0.017430126667022705,0.19627068936824799,0.0,0.9358994960784912,0.0,0.0,-0.35226717591285706,-0.7557122707366943,-0.5745286345481873,0.0,0.0,0.0,-1.438680648803711,-0.4070045053958893,0.8010794520378113,0.42040926218032837,0.9804357290267944,-0.010130682028830051,0.0018856632523238659,-0.1965693086385727,0.8275689482688904,0.9601508975028992,0.05140278860926628,-2.4273273944854736,0.9094575047492981,-5.2413554191589355,-0.4125455319881439,0.8064123392105103,0.42149680852890015,0.8931227922439575,0.842126190662384,0.05728163570165634,0.47205978631973267,0.7630617022514343,0.42000001668930054,-0.4907131791114807,2.999965190887451,-0.9120041131973267,-2.9999754428863525,-0.16676105558872223,-0.17242878675460815,-0.17599213123321533,-0.17704690992832184,-0.4278110861778259,-0.2850458323955536,-0.13329432904720306,0.021324463188648224
0.4,0.008048138581216335,0.18462282419204712,0.0,0.9243378639221191,0.0,0.0,-0.3815750181674957,-0.49792447686195374,-0.7496770024299622,0.0,0.0,0.0,-4.574106693267822,-0.38984259963035583,0.8199037313461304,0.4212520718574524,0.9700607061386108,-0.03131481260061264,0.007364275399595499,-0.2407223880290985,1.2470651865005493,1.3128907680511475,0.09681826084852219,-4.568007469177246,2.151461362838745,-7.1761474609375,-0.39483946561813354,0.8234651684761047,0.4232558608055115,1.2790822982788086,1.213892936706543,0.17643430829048157,0.47205978631973267,0.7630617022514343,0.42000001668930054,-0.44065725803375244,2.999894380569458,-0.9620120525360107,-2.99997878074646,-0.17384253442287445,-0.17682158946990967,-0.177477166056633,-0.1755247861146927,-0.388081431388855,-0.2152189463376999,-0.02760855108499527,0.16683587431907654
0.4166666666666667,0.0025924392975866795,0.16990888118743896,0.0,0.900868833065033,0.0,0.0,-0.4340914487838745,-0.2567402422428131,-0.9367592930793762,0.0,0.0,0.0,-7.735736846923828,-0.35996201634407043,0.8458573222160339,0.4241267442703247,0.9545572996139526,-0.03623122349381447,-0.018029680475592613,-0.2952667772769928,2.31799054145813,1.6960980892181396,0.18132077157497406,14.785467147827148,-11.313886642456055,2.500941753387451,-0.36469292640686035,0.8505377769470215,0.4254013001918793,2.251281261444092,1.9087655544281006,0.4381062388420105,0.47205978631973267,0.7630617022514343,0.42000001668930054,-0.39660343527793884,1.8619595766067505,-1.0120341777801514,-3.0000016689300537,-0.18109282851219177,-0.18098875880241394,-0.17833292484283447,-0.1729857474565506,-0.43816593289375305,-0.24802082777023315,-0.04644513502717018,0.15762130916118622
0.43333333333333335,0.0006444741738960147,0.1525094211101532,0.0,0.8624225854873657,0.0,0.0,-0.5061890482902527,-0.039188217371702194,-1.143257737159729,0.0,0.0,0.0,-10.431173324584961,-0.2999463677406311,0.8846089243888855,0.42949843406677246,0.9355884790420532,0.0161913875490427,-0.057723596692085266,-0.34796541929244995,4.955225944519043,2.1849706172943115,0.4625198543071747,15.021262168884277,-13.605093002319336,19.108156204223633,-0.3043088912963867,0.8891327381134033,0.43098753690719604,4.6862311363220215,2.791614532470703,0.44290831685066223,0.47205978631973267,0.7630617022514343,0.42000001668930054,-0.37756654620170593,0.8320616483688354,-0.9746960997581482,2.9982197284698486,-0.19199469685554504,-0.18754951655864716,-0.1806221455335617,-0.1712542474269867,-0.6937810182571411,-0.4213049113750458,-0.16345439851284027,0.06884468346834183
0.45,-0.0059015522710978985,0.14070601761341095,0.0,0.8046693801879883,0.0,0.0,-0.5937231779098511,-0.5040189027786255,-0.5501075387001038,0.0,0.0,0.0,-13.49143123626709,-0.19855345785617828,0.9253958463668823,0.43918177485466003,0.8979405760765076,0.053410355001688004,-0.07635278254747391,-0.4301397502422333,7.460568904876709,1.894344449043274,0.7313854098320007,7.5338287353515625,-11.439156532287598,12.220536231994629,-0.20332178473472595,0.9307848215103149,0.44065234065055847,7.224081993103027,2.4223663806915283,0.7179187536239624,0.47205978631973267,0.7630617022514343,0.42000001668930054,-0.36291757225990295,0.9794785380363464,-0.9997134804725647,-2.9999988079071045,-0.2082660049200058,-0.20211900770664215,-0.19080370664596558,-0.17602303624153137,-0.930030107498169,-0.9201372861862183,-0.7719812393188477,-0.4404410421848297
0.4666666666666667,-0.009516051039099693,0.13621756434440613,0.0,0.7509298324584961,0.0,0.0,-0.6603819727897644,-0.2462574690580368,-0.4050056040287018,0.0,0.0,0.0,-8.721389770507812,-0.07803726196289062,0.9473280906677246,0.4509732127189636,0.8396183252334595,0.08157096803188324,-0.08781591057777405,-0.5297881960868835,6.954394340515137,0.3085288405418396,0.5069937705993652,-9.198202133178711,-10.660602569580078,37.879180908203125,-0.08231808990240097,0.9556591510772705,0.4526403844356537,7.363241672515869,0.9893363118171692,0.8309457898139954,0.47205978631973267,0.7630617022514343,0.42000001668930054,-0.3458139896392822,1.0099159479141235,-1.0328603982925415,-1.1751830577850342,-0.22460798919200897,-0.21829065680503845,-0.2062828689813614,-0.18486565351486206,-0.5240510702133179,-0.6144506335258484,-0.6928624510765076,-0.41132667660713196
0.48333333333333334,-0.010104083456099033,0.12398966401815414,0.0,0.7185958027839661,0.0,0.0,-0.6954279541969299,-0.015460481867194176,-0.7759760618209839,0.0,0.0,0.0,-4.515865802764893,0.042177021503448486,0.950950562953949,0.46085530519485474,0.7708492279052734,0.05909648537635803,-0.10645583271980286,-0.6252729296684265,6.6750168800354,-1.5145680904388428,0.49434974789619446,-1.6241644620895386,7.070508003234863,33.35165786743164,0.03722727298736572,0.96241295337677,0.46393656730651855,7.264454364776611,-0.3431283235549927,0.709784984588623,0.47205978631973267,0.7630617022514343,0.42000001668930054,-0.3301732540130615,0.598741352558136,-1.0805282592773438,-2.9995925426483154,-0.23219217360019684,-0.22568883001804352,-0.21358972787857056,-0.18755187094211578,-0.5887335538864136,-0.47238272428512573,-0.3758130371570587,-0.08547850698232651
0.5,-0.011190937831997871,0.11742839217185974,0.0,0.7110214829444885,0.0,0.0,-0.7031702995300293,-0.07108496129512787,-0.31996065378189087,0.0,0.0,0.0,-0.19967074692249298,0.14883655309677124,0.9315329790115356,0.46711084246635437,0.6675405502319336,0.04041089490056038,-0.10637770593166351,-0.7358262538909912,5.858245849609375,-2.198157548904419,0.37105199694633484,-9.723831176757812,-4.652647972106934,1.1490976810455322,0.14427515864372253,0.9461682438850403,0.4719158709049225,5.619133949279785,-1.4197351932525635,0.2957126796245575,0.47205978631973267,0.7630617022514343,0.42000001668930054,-0.32376644015312195,0.012510675005614758,-1.1305503845214844,-3.000000476837158,-0.24000494182109833,-0.23746275901794434,-0.22271186113357544,-0.19201602041721344,-0.033038001507520676,-0.5699462294578552,-0.4553982615470886,-0.26840585470199585
0.5166666666666666,-0.009938421659171581,0.1082269474864006,0.0,0.6947537064552307,0.0,0.0,-0.7192476987838745,0.10522427409887314,-0.6205027103424072,0.0,0.0,0.0,-3.6182425022125244,0.2357136607170105,0.9054018259048462,0.46666213870048523,0.6031473278999329,0.020657528191804886,-0.09825847297906876,-0.7912849187850952,4.828576564788818,-1.9368772506713867,-0.09114661067724228,-0.781420111656189,4.137089252471924,-12.799086570739746,0.2326832413673401,0.9190393090248108,0.4718831479549408,4.900203227996826,-2.0490667819976807,-0.22529199719429016,0.47205978631973267,0.7630617022514343,0.42000001668930054,-0.32027122378349304,0.49796637892723083,-1.180572509765625,-3.0000009536743164,-0.23895959556102753,-0.23966121673583984,-0.22700129449367523,-0.19420480728149414,0.04672727733850479,0.10381357371807098,-0.14370955526828766,-0.05594554543495178
0.5333333333333333,-0.006128932349383831,0.10246168822050095,0.0,0.6909254789352417,0.0,0.0,-0.7229259610176086,0.2539447844028473,-0.2891368269920349,0.0,0.0,0.0,0.3053107261657715,0.3089027404785156,0.8680198192596436,0.45984864234924316,0.5306530594825745,-0.003919129725545645,-0.08277413249015808,-0.8435285091400146,3.899031400680542,-2.9019956588745117,-0.40109625458717346,-5.7496843338012695,3.8369972705841064,1.1363461017608643,0.30741697549819946,0.8807197213172913,0.465424120426178,4.098154067993164,-2.4713659286499023,-0.5883384943008423,0.47205978631973267,0.7630617022514343,0.42000001668930054,-0.3035649061203003,1.2027643918991089,-1.2305946350097656,-2.9998795986175537,-0.2398979365825653,-0.23932084441184998,-0.22970347106456757,-0.19604305922985077,0.02525014616549015,0.11591137200593948,-0.04335121065378189,-0.06475157290697098
0.55,-0.00023609351774211973,0.10019956529140472,0.0,0.6782883405685425,0.0,0.0,-0.7347958087921143,0.40106508135795593,-0.057063113898038864,0.0,0.0,0.0,-2.937544822692871,0.3693869113922119,0.8303394913673401,0.44566085934638977,0.48162177205085754,-0.035215169191360474,-0.07428272813558578,-0.8725149035453796,3.098766803741455,-2.5956292152404785,-0.7059078216552734,-4.5731892585754395,11.300065994262695,2.5948333740234375,0.36954450607299805,0.8425126671791077,0.4515262246131897,3.307983875274658,-2.2503490447998047,-1.0413367748260498,0.47205978631973267,0.7630617022514343,0.42000001668930054,-0.28650203347206116,0.7032891511917114,-1.2806167602539062,-2.9981532096862793,-0.2371664047241211,-0.23593232035636902,-0.22933176159858704,-0.1975390762090683,0.24521411955356598,0.263808012008667,0.08361640572547913,-0.09257421642541885
0.5666666666666667,0.008367475122213364,0.09705124795436859,0.0,0.6781277656555176,0.0,0.0,-0.7349439859390259,0.5669556856155396,-0.25924086570739746,0.0,0.0,0.0,0.8971508145332336,0.41644811630249023,0.7943902611732483,0.42750945687294006,0.4371994733810425,-0.06958217918872833,-0.06005794182419777,-0.8946551084518433,2.222640037536621,-2.414591073989868,-0.9615156650543213,1.6935240030288696,9.688017845153809,3.2477855682373047,0.4169732332229614,0.8056455850601196,0.4335256814956665,2.3885180950164795,-2.126535415649414,-1.1590244770050049,0.47205978631973267,0.7630617022514343,0.42000001668930054,-0.27812498807907104,0.3763657808303833,-1.3306357860565186,-2.9998221397399902,-0.23023182153701782,-0.22913901507854462,-0.22561074793338776,-0.19774796068668365,0.5171010494232178,0.4891243278980255,0.30525681376457214,0.022628923878073692
0.5833333333333334,0.018807729706168175,0.09617964178323746,0.0,0.6676025390625,0.0,0.0,-0.7445178627967834,0.6684219241142273,0.0032241272274404764,0.0,0.0,0.0,-2.6140058040618896,0.44904080033302307,0.7745418548583984,0.4205855131149292,0.43025556206703186,-0.012231625616550446,-0.006337244529277086,-0.9026020169258118,1.3803917169570923,-1.0767581462860107,-0.022120386362075806,0.9001643061637878,-1.8418810367584229,9.838523864746094,0.4481935203075409,0.7835253477096558,0.42403295636177063,1.4888725280761719,-0.8341313600540161,-0.10861670970916748,0.47205978631973267,0.7630617022514343,0.42000001668930054,-0.26808083057403564,0.7300961017608643,-1.2923556566238403,2.989696502685547,-0.2195480316877365,-0.22012749314308167,-0.22027316689491272,-0.19809114933013916,0.7223276495933533,0.586999237537384,0.35681813955307007,-0.01728285476565361
0.6,0.02660243771970272,0.09161419421434402,0.0,0.6688317060470581,0.0,0.0,-0.7434138059616089,0.4228896200656891,-0.28805840015411377,0.0,0.0,0.0,1.0619045495986938,0.4673459827899933,0.7616057991981506,0.42067253589630127,0.4464803636074066,-0.014151714742183685,-0.00799217913299799,-0.8946457505226135,0.7340089678764343,-0.8213692903518677,0.014581866562366486,-0.4255007803440094,-1.022765874862671,2.91247296333313,0.46471813321113586,0.769839882850647,0.42506542801856995,0.6027628183364868,-0.852915346622467,0.1189626157283783,0.47205978631973267,0.7630617022514343,0.42000001668930054,-0.2790779173374176,-1.6494635343551636,-1.3122849464416504,-2.999551296234131,-0.20672574639320374,-0.20911189913749695,-0.21235933899879456,-0.19609804451465607,0.5754653811454773,0.5245066285133362,0.4078178107738495,0.09828269481658936
0.6166666666666667,0.035227227956056595,0.0920674055814743,0.0,0.6588897109031677,0.0,0.0,-0.7522395253181458,0.5341761708259583,0.013401382602751255,0.0,0.0,0.0,-2.434515953063965,0.4745196998119354,0.7537802457809448,0.421239972114563,0.47713273763656616,-0.023724762722849846,-0.002013161778450012,-0.8785085678100586,0.44353750348091125,-0.048569455742836,0.22874325513839722,-0.4870988130569458,8.266392707824707,3.095430850982666,0.47283935546875,0.7631475329399109,0.4271056354045868,0.46302974224090576,-0.1071775034070015,0.1473379284143448,0.47205978631973267,0.7630617022514343,0.42000001668930054,-0.2909914255142212,0.06301959604024887,-1.3622276782989502,-2.997509241104126,-0.1983218491077423,-0.20177415013313293,-0.20683610439300537,-0.19566917419433594,0.7309902310371399,0.6048863530158997,0.4554305970668793,0.11379934102296829
0.6333333333333333,0.0454472154378891,0.0889689102768898,0.0,0.6614584922790527,0.0,0.0,-0.7499817609786987,0.6428695917129517,-0.2085997611284256,0.0,0.0,0.0,1.3107426166534424,0.48004135489463806,0.7531931400299072,0.42345699667930603,0.48932215571403503,-0.061204325407743454,0.017498813569545746,-0.869776725769043,0.13826633989810944,-0.015897303819656372,0.09299657493829727,-0.5229411125183105,3.0757341384887695,1.4522231817245483,0.4748268127441406,0.75975501537323,0.4263964891433716,-0.125860795378685,-0.19085073471069336,-0.047875482589006424,0.47205978631973267,0.7630617022514343,0.42000001668930054,-0.3277503550052643,-2.9999899864196777,-1.3238581418991089,2.9997928142547607,-0.18728014826774597,-0.19220885634422302,-0.19900712370872498,-0.1928713172674179,0.5272859334945679,0.47849687933921814,0.4208034873008728,0.16310784220695496
0.65,0.05756620690226555,0.08918792754411697,0.0,0.6527973413467407,0.0,0.0,-0.7575325965881348,0.7512986660003662,0.05730930715799332,0.0,0.0,0.0,-2.322200298309326,0.4818289279937744,0.7530568242073059,0.42365097999572754,0.50367671251297,-0.06448633968830109,0.021976817399263382,-0.8612017035484314,0.09686756134033203,-0.006522737443447113,-0.012320050969719887,0.7333112359046936,-0.3111063838005066,2.1208949089050293,0.47545942664146423,0.7610390186309814,0.42862921953201294,0.10618017613887787,0.22056478261947632,0.22553031146526337,0.47205978631973267,0.7630617022514343,0.42000001668930054,-0.37777140736579895,-3.0,-1.3426892757415771,-2.9991986751556396,-0.17790009081363678,-0.18424010276794434,-0.1923290491104126,-0.19055792689323425,0.6467962265014648,0.5377346873283386,0.44607803225517273,0.18210910260677338
0.6666666666666666,0.07149150967597961,0.08611500263214111,0.0,0.6561664938926697,0.0,0.0,-0.7546161413192749,0.8536920547485352,-0.23117797076702118,0.0,0.0,0.0,1.4193265438079834,0.48204293847084045,0.7538847327232361,0.4226476550102234,0.5256353616714478,-0.041154682636260986,0.0062422133050858974,-0.8496909737586975,-0.1201508492231369,0.09643510729074478,-0.03271382674574852,-3.444951295852661,-3.963965892791748,3.217787027359009,0.4751270115375519,0.7644908428192139,0.43210816383361816,-0.15858399868011475,0.16363310813903809,0.2066073715686798,0.47205978631973267,0.7630617022514343,0.42000001668930054,-0.4277835190296173,-3.0000059604644775,-1.3926923274993896,-2.999706745147705,-0.16659799218177795,-0.17458638548851013,-0.18399593234062195,-0.18628667294979095,0.4842221736907959,0.4341389834880829,0.4026620090007782,0.2114066183567047
0.6833333333333333,0.08294977992773056,0.08587843179702759,0.0,0.6783658266067505,0.0,0.0,-0.7347242832183838,0.634756326675415,0.007630892097949982,0.0,0.0,0.0,4.8224873542785645,0.4802000820636749,0.7551422119140625,0.4209180474281311,0.5415340065956116,-0.018935473635792732,-0.012775886803865433,-0.840368390083313,-0.09393495321273804,0.046756912022829056,-0.07705118507146835,3.8604576587677,-1.959325909614563,1.6708825826644897,0.47323042154312134,0.764563798904419,0.43568146228790283,-0.09277470409870148,-0.025033801794052124,0.24260413646697998,0.47205978631973267,0.7630617022514343,0.42000001668930054,-0.4778013229370117,-2.999987840652466,-1.442670464515686,-2.999598503112793,-0.16191977262496948,-0.16982495784759521,-0.17874100804328918,-0.1829504817724228,0.2872331142425537,0.304027795791626,0.3512462377548218,0.27049747109413147
0.7,0.0951291173696518,0.08249839395284653,0.0,0.6894250512123108,0.0,0.0,-0.724357008934021,0.738264799118042,-0.23536787927150726,0.0,0.0,0.0,0.7373749613761902,0.47927331924438477,0.7552518844604492,0.4200000464916229,0.5458891987800598,6.391720717147109e-07,-4.097257999546855e-07,-0.8378573656082153,-0.023351412266492844,-0.007116157095879316,-4.54604160040617e-05,-0.0006008939235471189,0.00247618998400867,0.0952727347612381,0.4730290174484253,0.7664804458618164,0.44053906202316284,-0.017193369567394257,0.0983586460351944,0.30490583181381226,0.47205978631973267,0.7630617022514343,0.42000001668930054,-0.5278019309043884,-2.999850034713745,-1.492659568786621,-2.9999442100524902,-0.15749046206474304,-0.16467827558517456,-0.1722864955663681,-0.1770213097333908,0.17706917226314545,0.2565966248512268,0.37321391701698303,0.39385202527046204
0.7166666666666667,0.10855284333229065,0.07620830088853836,0.0,0.6779171824455261,0.0,0.0,-0.7351382970809937,0.8380519151687622,-0.4438892900943756,0.0,0.0,0.0,-2.8000905513763428,0.4792730212211609,0.7552521824836731,0.4200000464916229,0.5458894371986389,-1.4676621162834635e-07,-5.48342359252274e-06,-0.8378572463989258,0.000332227093167603,-0.00023403693921864033,-8.647283539175987e-05,0.0022985225077718496,0.0009854135569185019,-0.0015220479108393192,0.47807416319847107,0.7701596021652222,0.4516240060329437,0.567755937576294,0.25943025946617126,1.1130571365356445,0.47205978631973267,0.7630617022514343,0.42000001668930054,-0.5778142213821411,-2.9999825954437256,-1.542677879333496,-2.9999990463256836,-0.1569201797246933,-0.16246545314788818,-0.16779039800167084,-0.1715824455022812,-0.0434185266494751,0.06879629194736481,0.2193690538406372,0.3029862642288208
0.7333333333333333,0.12509356439113617,0.07449859380722046,0.0,0.6444525122642517,0.0,0.0,-0.7646443247795105,0.9665093421936035,-0.09087657928466797,0.0,0.0,0.0,-6.177354335784912,0.47927314043045044,0.7552520632743835,0.4200000464916229,0.5458893775939941,2.807694556850038e-07,-2.9640177672263235e-06,-0.837857186794281,3.908788858097978e-05,-0.0002484697906766087,-7.623620331287384e-05,0.0065028127282857895,-0.0020920068491250277,-0.0007033027359284461,0.4956069588661194,0.7712234258651733,0.4764174818992615,1.5797197818756104,-0.014853958040475845,1.9438719749450684,0.47205978631973267,0.7630617022514343,0.42000001668930054,-0.6278249025344849,-2.999945878982544,-1.5926947593688965,-2.9999959468841553,-0.16445578634738922,-0.16694511473178864,-0.16864648461341858,-0.16979672014713287,-0.4011513590812683,-0.23316887021064758,-0.029674863442778587,0.12985964119434357
0.75,0.138376846909523,0.07447763532400131,0.0,0.6253026127815247,0.0,0.0,-0.7803823947906494,0.7315230369567871,0.015277285128831863,0.0,0.0,0.0,-1.8949098587036133,0.47927314043045044,0.7552520632743835,0.4200000464916229,0.545889675617218,2.1697870522530138e-07,-2.8432705221348442e-06,-0.8378570675849915,4.188534148852341e-05,-0.0002493388019502163,-7.682573050260544e-05,0.006510123144835234,-0.0020640548318624496,-0.0007120152586139739,0.5228644609451294,0.7732760906219482,0.5117381811141968,1.646661400794983,0.28735893964767456,2.256469488143921,0.47205978631973267,0.7630617022514343,0.42000001668930054,-0.6457198262214661,0.5553860068321228,-1.6427092552185059,-3.000000476837158,-0.1698221117258072,-0.17042696475982666,-0.16975753009319305,-0.16913999617099762,-0.20469586551189423,-0.15003296732902527,-0.07192013412714005,-0.022510532289743423
0.7666666666666666,0.1471118927001953,0.076554074883461,0.0,0.6312748789787292,0.0,0.0,-0.77555912733078,0.4487873315811157,0.17255885899066925,0.0,0.0,0.0,1.799885630607605,0.47927314043045044,0.7552520632743835,0.4200000464916229,0.5458894371986389,3.854351007248624e-07,-2.610246156109497e-06,-0.8378571271896362,4.101826198166236e-05,-0.0002504970761947334,-7.669022306799889e-05,0.006544741801917553,-0.0020806011743843555,-0.0007126235868781805,0.5446707010269165,0.777192234992981,0.5431228876113892,0.9536137580871582,0.2546045482158661,1.5845667123794556,0.47205978631973267,0.7630617022514343,0.42000001668930054,-0.6135662794113159,2.9999845027923584,-1.6057145595550537,3.000000476837158,-0.1719971001148224,-0.1718035191297531,-0.1700136810541153,-0.16863730549812317,-0.05175403133034706,-0.013110904023051262,0.039813023060560226,0.07612461596727371
0.7833333333333333,0.15135498344898224,0.07436010241508484,0.0,0.6254295110702515,0.0,0.0,-0.7802807092666626,0.22295741736888885,-0.1768713742494583,0.0,0.0,0.0,-1.8314129114151,0.47927314043045044,0.7552520632743835,0.4200000464916229,0.5458894968032837,2.1751432655037206e-07,-2.9977950362081174e-06,-0.8378570675849915,3.544291394064203e-05,-0.00025361517327837646,-7.566693238914013e-05,0.006655518431216478,-0.0021628832910209894,-0.000707521045114845,0.5532423257827759,0.783517062664032,0.5625452995300293,0.00793345458805561,0.3454234302043915,0.901334285736084,0.47205978631973267,0.7630617022514343,0.42000001668930054,-0.5796918272972107,1.1946876049041748,-1.5556581020355225,2.9999990463256836,-0.16997219622135162,-0.16950365900993347,-0.16727681457996368,-0.1656516194343567,0.03199265897274017,0.07477888464927673,0.1196633130311966,0.15310588479042053
0.8,0.1523122638463974,0.07745968550443649,0.0,0.6316144466400146,0.0,0.0,-0.7752826809883118,0.015803247690200806,0.1712741106748581,0.0,0.0,0.0,1.6776193380355835,0.47927314043045044,0.7552520632743835,0.4200000464916229,0.5458893179893494,2.3111888936000469e-07,-2.713310095714405e-06,-0.837857186794281,4.222124698571861e-05,-0.0002480372495483607,-7.682526484131813e-05,0.006474385503679514,-0.0020525925792753696,-0.000709177169483155,0.5485343933105469,0.7871941328048706,0.5741831064224243,-0.38316628336906433,0.30532944202423096,0.5245680809020996,0.47205978631973267,0.7630617022514343,0.42000001668930054,-0.541521430015564,3.0,-1.5705976486206055,-3.0,-0.17417283356189728,-0.17205391824245453,-0.16830483078956604,-0.1654130518436432,-0.05648918077349663,-0.01192000787705183,0.026263175532221794,0.057696640491485596
0.8166666666666667,0.1547803282737732,0.07631950825452805,0.0,0.625567615032196,0.0,0.0,-0.7801699638366699,0.16700197756290436,-0.029871389269828796,0.0,0.0,0.0,-1.631921410560608,0.47927314043045044,0.7552520632743835,0.4200000464916229,0.5458893775939941,1.8593694051105558e-07,-2.375556732658879e-06,-0.8378572463989258,3.9932016079546884e-05,-0.0002501916897017509,-7.647206075489521e-05,0.006542761344462633,-0.002091853879392147,-0.0007093396270647645,0.5350908637046814,0.7942004203796387,0.5759286880493164,-1.2883472442626953,0.4547466039657593,-0.14342139661312103,0.47205978631973267,0.7630617022514343,0.42000001668930054,-0.5257956385612488,-0.798556387424469,-1.5316709280014038,3.0,-0.17294475436210632,-0.1705767959356308,-0.16670012474060059,-0.16370882093906403,-0.03125033527612686,0.002707273932173848,0.025513911619782448,0.046558927744627
0.8333333333333334,0.15952765941619873,0.0794285386800766,0.0,0.6327422857284546,0.0,0.0,-0.7743624448776245,0.29338133335113525,0.17595863342285156,0.0,0.0,0.0,1.8547958135604858,0.47927314043045044,0.7552520632743835,0.4200000464916229,0.545889139175415,3.0532564210261626e-07,-2.6717800665210234e-06,-0.8378573060035706,3.981186091550626e-05,-0.00025181646924465895,-7.651001214981079e-05,0.006585233844816685,-0.0021025468595325947,-0.0007126144482754171,0.51829594373703,0.8004211783409119,0.5730353593826294,-0.6695858240127563,0.4616190195083618,-0.16860821843147278,0.47205978631973267,0.7630617022514343,0.42000001668930054,-0.5191938281059265,1.3953992128372192,-1.5471701622009277,-2.9999992847442627,-0.17478977143764496,-0.17180924117565155,-0.16745136678218842,-0.1639060527086258,0.06999117881059647,0.053255364298820496,0.036628756672143936,0.03602438420057297
0.85,0.16192477941513062,0.07805416733026505,0.0,0.6277720928192139,0.0,0.0,-0.7783972024917603,0.053101155906915665,-0.1378556191921234,0.0,0.0,0.0,-1.592002511024475,0.47927314043045044,0.7552520036697388,0.4200000464916229,0.545889675617218,2.988982714668964e-07,-2.61150194091897e-06,-0.8378570675849915,3.935889253625646e-05,-0.00025099143385887146,-7.631350308656693e-05,0.006566834636032581,-0.0021012735087424517,-0.0007100123330019414,0.5078046321868896,0.8067024946212769,0.566509485244751,-0.6142319440841675,0.21026170253753662,-0.4529433846473694,0.47205978631973267,0.7630617022514343,0.42000001668930054,-0.5391853451728821,-3.000000476837158,-1.5083072185516357,2.999999761581421,-0.17276504635810852,-0.17006777226924896,-0.16597765684127808,-0.16238857805728912,0.03768765926361084,0.047786980867385864,0.05686219781637192,0.08345428854227066
0.8666666666666667,0.16457900404930115,0.07426168024539948,0.0,0.6302008628845215,0.0,0.0,-0.7764321565628052,0.2046528309583664,-0.27814725041389465,0.0,0.0,0.0,1.2883179187774658,0.47927314043045044,0.7552520632743835,0.4200000464916229,0.5458892583847046,2.4227469452853256e-07,-3.0130154300422873e-06,-0.8378572463989258,4.329422881710343e-05,-0.00024854761431925,-7.7118631452322e-05,0.006481163203716278,-0.0020446162670850754,-0.0007129893056116998,0.5023999214172363,0.8085602521896362,0.5620979070663452,-0.054243430495262146,0.05513446778059006,-0.01862083375453949,0.47205978631973267,0.7630617022514343,0.42000001668930054,-0.5798720717430115,-1.9406477212905884,-1.5243158340454102,-3.000000476837158,-0.17413018643856049,-0.17070183157920837,-0.1658702939748764,-0.16122326254844666,-0.10752540081739426,-0.05180223658680916,0.006706868298351765,0.08638319373130798
0.8833333333333333,0.16958659887313843,0.06800270080566406,0.0,0.6216516494750977,0.0,0.0,-0.7832938432693481,0.34316426515579224,-0.4323204457759857,0.0,0.0,0.0,-2.198431968688965,0.47927314043045044,0.7552520632743835,0.4200000464916229,0.5458893179893494,2.4771520656940993e-07,-2.9183920560171828e-06,-0.837857186794281,4.1101229726336896e-05,-0.0002490530314389616,-7.665297016501427e-05,0.006506644655019045,-0.0020717140287160873,-0.000709039974026382,0.5059393048286438,0.8071689605712891,0.5588220357894897,0.4724571406841278,-0.2357640415430069,-0.19760042428970337,0.47205978631973267,0.7630617022514343,0.42000001668930054,-0.6238691806793213,-2.999711036682129,-1.5393614768981934,0.8714208602905273,-0.17704884707927704,-0.17232726514339447,-0.1661047488451004,-0.15967923402786255,-0.17471106350421906,-0.08207082748413086,0.01801951788365841,0.14211373031139374
0.9,0.17898154258728027,0.0671146884560585,0.0,0.5897183418273926,0.0,0.0,-0.8076090216636658,0.49291712045669556,-0.04779047518968582,0.0,0.0,0.0,-5.563268184661865,0.47927314043045044,0.7552520036697388,0.4200000464916229,0.5458896160125732,2.2651815356766747e-07,-2.970011792058358e-06,-0.8378570675849915,4.225831798976287e-05,-0.0002479167887941003,-7.682852447032928e-05,0.006470999680459499,-0.0020515192300081253,-0.00070927944034338,0.5159457921981812,0.7999799251556396,0.5586452484130859,0.8416234254837036,-0.36003339290618896,0.30265724658966064,0.47205978631973267,0.7630617022514343,0.42000001668930054,-0.6461836099624634,0.07229993492364883,-1.5743646621704102,-2.9999992847442627,-0.18561841547489166,-0.17875030636787415,-0.1703808754682541,-0.16155587136745453,-0.2887994050979614,-0.2347438931465149,-0.17574374377727509,-0.0962032675743103
0.9166666666666666,0.18439707159996033,0.06746542453765869,0.0,0.5740404725074768,0.0,0.0,-0.8188269138336182,0.2617005407810211,-0.0029467293061316013,0.0,0.0,0.0,-1.1391334533691406,0.47927311062812805,0.7552520632743835,0.4200000464916229,0.5458892583847046,2.628324295983475e-07,-2.9462908059940673e-06,-0.8378573060035706,4.0913058910518885e-05,-0.00024858294636942446,-7.662316784262657e-05,0.006495243404060602,-0.0020720676984637976,-0.000707592349499464,0.5272767543792725,0.7972085475921631,0.5643567442893982,0.5220279097557068,0.01412859559059143,0.3437824249267578,0.47205978631973267,0.7630617022514343,0.42000001668930054,-0.6207459568977356,2.728222608566284,-1.5570648908615112,2.999999761581421,-0.18758127093315125,-0.18065670132637024,-0.17217501997947693,-0.1629224419593811,0.061072222888469696,0.01086400356143713,-0.036904964596033096,-0.06669046729803085
