vladlanda/robotic-transformer/data/env_000_episode_0251.csv
sim_time_s,robot_box_x,robot_box_y,robot_box_z,robot_box_quat_w,robot_box_quat_x,robot_box_quat_y,robot_box_quat_z,robot_box_linvel_x,robot_box_linvel_y,robot_box_linvel_z,robot_box_angvel_x,robot_box_angvel_y,robot_box_angvel_z,cube_world_x,cube_world_y,cube_world_z,cube_quat_w,cube_quat_x,cube_quat_y,cube_quat_z,cube_linvel_x,cube_linvel_y,cube_linvel_z,cube_angvel_x,cube_angvel_y,cube_angvel_z,endpoint_world_x,endpoint_world_y,endpoint_world_z,endpoint_linvel_x,endpoint_linvel_y,endpoint_linvel_z,target_cube_world_x,target_cube_world_y,target_cube_world_z,gripper_actual_pos_rad_gp_leftgearjoint,gripper_actual_vel_rad_s_gp_leftgearjoint,gripper_actual_pos_rad_gp_rotatingjoint,gripper_actual_vel_rad_s_gp_rotatingjoint,motor_angle_rad_joint1,motor_angle_rad_joint2,motor_angle_rad_joint3,motor_angle_rad_joint4,motor_speed_rad_s_joint1,motor_speed_rad_s_joint2,motor_speed_rad_s_joint3,motor_speed_rad_s_joint4
0.0,0.0,0.0,0.0,1.0,0.0,0.0,0.0,0.0,0.0,0.0,0.0,0.0,0.0,-0.4196104109287262,0.7154220342636108,0.41999998688697815,1.0,0.0,0.0,0.0,0.0,0.0,0.0,0.0,0.0,0.0,3.42540442943573e-06,-0.005000244826078415,1.313499927520752,0.0,0.0,0.0,0.45440584421157837,0.6873536109924316,0.42000001668930054,-1.5707999467849731,0.0,0.0,0.0,0.0,0.0,0.0,0.0,0.0,0.0,0.0,0.0
0.016666666666666666,0.0028778850100934505,0.0021806680597364902,0.0,0.9998081922531128,0.0,0.0,0.019586581736803055,0.24087215960025787,0.18240931630134583,0.0,0.0,0.0,3.1418697834014893,-0.41961053013801575,0.715421736240387,0.41999998688697815,1.0,3.2799914606584935e-06,-8.339814598912199e-07,8.465387679734704e-08,-1.9833554688375443e-05,0.00017983050202019513,-6.133061833679676e-05,0.0009432226070202887,-0.004689437802881002,-0.0003198152990080416,-0.007110234349966049,0.003379564033821225,1.3159373998641968,-0.8143353462219238,0.9868683815002441,0.18095196783542633,0.45440584421157837,0.6873536109924316,0.42000001668930054,-1.5301095247268677,3.0000011920928955,-0.04584788903594017,-2.9999992847442627,0.0008691533003002405,0.0007963840034790337,0.0007110277656465769,0.0006108740926720202,0.11094217747449875,0.09756709635257721,0.08334315568208694,0.06823883205652237
0.03333333333333333,0.00896099116653204,0.006802000571042299,0.0,0.9997960329055786,0.0,0.0,0.020196842029690742,0.4070222079753876,0.31530800461769104,0.0,0.0,0.0,-0.8691325783729553,-0.4196106493473053,0.7154216766357422,0.4200000464916229,1.0,3.390914116607746e-06,-2.132455392711563e-06,-3.71076644967161e-08,0.0002635782293509692,0.00026937935035675764,-0.00010509486310184002,-0.001770757487975061,0.0041308156214654446,-0.00013547815615311265,-0.027553992345929146,0.02623889409005642,1.3165898323059082,-1.591367244720459,1.6161329746246338,-0.085887111723423,0.45440584421157837,0.6873536109924316,0.42000001668930054,-1.4800904989242554,3.0000014305114746,-0.09588771313428879,-3.000000238418579,0.0029900972731411457,0.002652703318744898,0.002277269959449768,0.0018607224337756634,0.16421382129192352,0.1397574096918106,0.11381610482931137,0.08629810810089111
0.05,0.01711766980588436,0.013714548200368881,0.0,0.9997564554214478,0.0,0.0,0.022069869562983513,0.5291435122489929,0.45637527108192444,0.0,0.0,0.0,0.7580900192260742,-0.4196106791496277,0.715421736240387,0.4200000464916229,1.0,3.7652293940482195e-06,-2.2118967990536476e-06,5.613899567435965e-09,0.000265309150563553,0.0002669153909664601,-0.0001044049859046936,-0.00172426737844944,0.004177379421889782,-0.0001294983085244894,-0.05887527018785477,0.05548381060361862,1.3113059997558594,-2.1225414276123047,1.8722789287567139,-0.508124828338623,0.45440584421157837,0.6873536109924316,0.42000001668930054,-1.4300721883773804,3.000002384185791,-0.14592638611793518,-3.000001907348633,0.005468735005706549,0.004685430787503719,0.00383007968775928,0.0028979589696973562,0.16888992488384247,0.13276876509189606,0.09479613602161407,0.05485299974679947
0.06666666666666667,0.02789103053510189,0.022802751511335373,0.0,0.9999833106994629,0.0,0.0,0.005781009793281555,0.7104358673095703,0.5852959156036377,0.0,0.0,0.0,-2.7957887649536133,-0.4196106791496277,0.7154216766357422,0.4200000464916229,0.9999999403953552,3.4068445984303253e-06,-2.2855729184811935e-06,4.300823945868615e-07,0.000267024093773216,0.0002679175231605768,-0.0001043803058564663,-0.0017406325787305832,0.004211729858070612,-0.00012850853090640157,-0.09407797455787659,0.0918097048997879,1.299365520477295,-2.12736439704895,2.3930630683898926,-0.9040213823318481,0.45440584421157837,0.6873536109924316,0.42000001668930054,-1.3800538778305054,2.999999761581421,-0.1959550976753235,-3.000000238418579,0.0077013601548969746,0.006149990018457174,0.0044875857420265675,0.0027106842026114464,0.12950100004673004,0.07017853856086731,0.008850871585309505,-0.05459969490766525
0.08333333333333333,0.03325206786394119,0.03557254746556282,0.0,0.9995450973510742,0.0,0.0,-0.030160266906023026,0.3164374828338623,0.7542684078216553,0.0,0.0,0.0,-4.765891075134277,-0.4196106791496277,0.7154216766357422,0.4200000464916229,1.0,3.697329248097958e-06,-2.1889204617764335e-06,-2.632361599808064e-07,0.00026389621780253947,0.00026586378226056695,-0.00010433816350996494,-0.0017081365222111344,0.004150137305259705,-0.00012991174298804253,-0.12883546948432922,0.13426023721694946,1.2803480625152588,-1.9817801713943481,2.693042755126953,-1.19252610206604,0.45440584421157837,0.6873536109924316,0.42000001668930054,-1.3300273418426514,2.9997622966766357,-0.16217710077762604,2.9999735355377197,0.0042313034646213055,0.0019954273011535406,-0.0004018094332423061,-0.002968700835481286,-0.09115011990070343,-0.16550712287425995,-0.24064531922340393,-0.3167640268802643
0.1,0.043201468884944916,0.04926802217960358,0.0,0.9990108609199524,0.0,0.0,-0.04446689411997795,0.6553815603256226,0.8487681746482849,0.0,0.0,0.0,-0.6757375001907349,-0.4196106791496277,0.7154216766357422,0.4200000464916229,0.9999999403953552,3.620433972173487e-06,-2.265166358483839e-06,1.7460881451825117e-07,0.00026676940615288913,0.00026740849716588855,-0.0001040794886648655,-0.0017386502586305141,0.0042092143557965755,-0.00012775196228176355,-0.16435234248638153,0.17544737458229065,1.261077880859375,-2.07954740524292,2.566758394241333,-1.16575288772583,0.45440584421157837,0.6873536109924316,0.42000001668930054,-1.2800308465957642,3.000000476837158,-0.19385936856269836,-3.0000009536743164,0.004916762933135033,0.0009854468517005444,-0.0030969984363764524,-0.007340040057897568,1.8044374883174896e-08,-0.1074385941028595,-0.21302081644535065,-0.31779929995536804
0.11666666666666667,0.051003336906433105,0.06192252039909363,0.0,0.9974692463874817,0.0,0.0,-0.07109932601451874,0.4532191753387451,0.6868078708648682,0.0,0.0,0.0,-3.926253080368042,-0.4196106791496277,0.7154216766357422,0.4200000464916229,1.0,3.7984186747053172e-06,-2.262772341055097e-06,-1.5020653165720432e-07,0.00026373984292149544,0.00026565982261672616,-0.00010428996756672859,-0.0017054551281034946,0.004147582221776247,-0.000129800770082511,-0.1965697854757309,0.22388693690299988,1.240000605583191,-1.7956006526947021,3.2201263904571533,-1.3372201919555664,0.45440584421157837,0.6873536109924316,0.42000001668930054,-1.2300087213516235,2.999990463256836,-0.16009995341300964,3.000000476837158,0.003684079507365823,-0.0021643005311489105,-0.008118136785924435,-0.014200975187122822,-0.05649486184120178,-0.18195544183254242,-0.30374929308891296,-0.422477126121521
0.13333333333333333,0.05568332597613335,0.07529547810554504,0.0,0.9924442172050476,0.0,0.0,-0.12269668281078339,0.210729718208313,0.853370189666748,0.0,0.0,0.0,-7.011735439300537,-0.4196106791496277,0.715421736240387,0.4200000464916229,0.9999999403953552,3.5505179312167456e-06,-2.2298092972050654e-06,2.9291240366546845e-07,0.0002670329704415053,0.0002677935699466616,-0.00010416889563202858,-0.0017439755611121655,0.004213570151478052,-0.00012800609692931175,-0.22735756635665894,0.27866044640541077,1.2169773578643799,-1.8482402563095093,3.389256000518799,-1.4868402481079102,0.45440584421157837,0.6873536109924316,0.42000001668930054,-1.1912870407104492,1.7240252494812012,-0.19184978306293488,-3.0,0.0015249800635501742,-0.006351429503411055,-0.01425941288471222,-0.02222912386059761,-0.20201323926448822,-0.3108381927013397,-0.4152238368988037,-0.5154547691345215
0.15,0.061944130808115005,0.08847574144601822,0.0,0.9878786206245422,0.0,0.0,-0.1552283763885498,0.4402364194393158,0.7340052723884583,0.0,0.0,0.0,-2.777397394180298,-0.4196106791496277,0.7154216766357422,0.4200000464916229,0.9999999403953552,3.3381122648279415e-06,-2.2428905595006654e-06,-2.803136034401632e-08,0.0002667456865310669,0.0002675803261809051,-0.00010427623055875301,-0.0017366986721754074,0.004206871148198843,-0.00012831554340664297,-0.26479825377464294,0.3328815698623657,1.1862596273422241,-2.286982536315918,3.48972225189209,-2.1587088108062744,0.45440584421157837,0.6873536109924316,0.42000001668930054,-1.1462678909301758,3.0000011920928955,-0.22292377054691315,-0.8895891904830933,-0.0023430197034031153,-0.011640967801213264,-0.020904140546917915,-0.030167631804943085,-0.3560437560081482,-0.41088756918907166,-0.4630662202835083,-0.5127733945846558
0.16666666666666666,0.06574053317308426,0.10242452472448349,0.0,0.9802129864692688,0.0,0.0,-0.19794577360153198,0.1607712358236313,0.9036369919776917,0.0,0.0,0.0,-5.997679233551025,-0.4196106791496277,0.715421736240387,0.4200000464916229,0.9999999403953552,3.647830908448668e-06,-2.307289605596452e-06,3.526602299075421e-08,0.0002672695554792881,0.0002680134493857622,-0.0001041879877448082,-0.0017471626633778214,0.004217641893774271,-0.00012799118121620268,-0.3005850911140442,0.3937533497810364,1.1473593711853027,-1.9070682525634766,3.914365291595459,-2.4830322265625,0.45440584421157837,0.6873536109924316,0.42000001668930054,-1.0962693691253662,3.0000011920928955,-0.2708270847797394,-3.0,-0.011169815436005592,-0.021226108074188232,-0.03120114840567112,-0.04113304242491722,-0.6044989824295044,-0.6451513767242432,-0.6829355359077454,-0.7179281711578369
0.18333333333333332,0.06698562204837799,0.11388825625181198,0.0,0.9752120971679688,0.0,0.0,-0.22127224504947662,0.03650259971618652,0.5913905501365662,0.0,0.0,0.0,-1.8108961582183838,-0.4196106791496277,0.7154216766357422,0.4200000464916229,0.9999999403953552,3.290551603640779e-06,-2.1939342786936322e-06,-2.7924167511628184e-07,0.0002667796507012099,0.00026776036247611046,-0.00010434072464704514,-0.001739065395668149,0.004206969402730465,-0.00012845818127971143,-0.3355620801448822,0.4563015103340149,1.097467064857483,-1.938136339187622,3.8779964447021484,-3.4533114433288574,0.45440584421157837,0.6873536109924316,0.42000001668930054,-1.0570095777511597,1.7843374013900757,-0.32085445523262024,-3.0,-0.02121923118829727,-0.03157709538936615,-0.04180318862199783,-0.05194026976823807,-0.6293292045593262,-0.6257015466690063,-0.6196164488792419,-0.6114434003829956
0.2,0.07114189863204956,0.12640850245952606,0.0,0.9660544395446777,0.0,0.0,-0.2583385407924652,0.23500698804855347,0.7542387247085571,0.0,0.0,0.0,-5.399606704711914,-0.4196106791496277,0.7154216766357422,0.4200000464916229,1.0,3.2807351999508683e-06,-2.219225052613183e-06,1.594732026433121e-07,0.00026627970510162413,0.00026740136672742665,-0.0001042510848492384,-0.001735763973556459,0.004197762347757816,-0.0001286511542275548,-0.36602333188056946,0.5224202871322632,1.0329571962356567,-1.6437829732894897,4.000390529632568,-4.230231285095215,0.45440584421157837,0.6873536109924316,0.42000001668930054,-1.0094047784805298,3.0,-0.3708801865577698,-2.999999523162842,-0.03363709896802902,-0.043460603803396225,-0.053143855184316635,-0.06273996829986572,-0.9123017191886902,-0.8509635329246521,-0.7907973527908325,-0.7324375510215759
0.21666666666666667,0.07210441678762436,0.13664479553699493,0.0,0.9608993530273438,0.0,0.0,-0.2768978476524353,0.016755327582359314,0.4902016818523407,0.0,0.0,0.0,-1.202599287033081,-0.4196106791496277,0.715421736240387,0.4200000464916229,1.0,3.613135277191759e-06,-2.2701503894495545e-06,2.2101289687270764e-07,0.0002671263355296105,0.0002678169112186879,-0.00010414118878543377,-0.0017444867407903075,0.0042151641100645065,-0.00012786478328052908,-0.39445245265960693,0.581549882888794,0.9549899101257324,-1.4499465227127075,3.402129650115967,-5.037935733795166,0.45440584421157837,0.6873536109924316,0.42000001668930054,-0.9593973159790039,3.000002145767212,-0.42090755701065063,-3.0000011920928955,-0.04875990375876427,-0.0587020143866539,-0.06822752952575684,-0.07646193355321884,-0.9553899168968201,-0.9472585320472717,-0.9172748327255249,-0.8237867951393127
0.23333333333333334,0.06910771131515503,0.14714914560317993,0.0,0.9519296884536743,0.0,0.0,-0.30631664395332336,-0.25352993607521057,0.6715756058692932,0.0,0.0,0.0,-4.491063117980957,-0.4196106791496277,0.7154216766357422,0.4200000464916229,1.0,3.3818234896898502e-06,-2.290981683472637e-06,2.728025378928578e-07,0.0002669123059604317,0.0002677978773135692,-0.00010433210991322994,-0.0017395822796970606,0.004209768958389759,-0.00012843773583881557,-0.41653186082839966,0.6351504325866699,0.8646360635757446,-1.0923675298690796,2.9992871284484863,-5.670296669006348,0.45440584421157837,0.6873536109924316,0.42000001668930054,-0.9093866348266602,3.0000038146972656,-0.4709368348121643,-2.9999990463256836,-0.06469206511974335,-0.0746588483452797,-0.08421320468187332,-0.09245776385068893,-0.9889477491378784,-0.9912142157554626,-0.9911803007125854,-0.9843015670776367
0.25,0.07046233117580414,0.1532279998064041,0.0,0.9480440020561218,0.0,0.0,-0.31813934445381165,0.09188327938318253,0.27357029914855957,0.0,0.0,0.0,-0.3651367127895355,-0.4196106493473053,0.7154216766357422,0.4200000464916229,0.9999999403953552,3.706510142365005e-06,-2.2230249214771902e-06,-2.254949436064635e-07,0.00026424831594340503,0.00026656725094653666,-0.00010457634925842285,-0.001716952072456479,0.004155570175498724,-0.00013063338701613247,-0.43634071946144104,0.6760838031768799,0.7676582336425781,-0.9552596211433411,1.988765835762024,-6.035926818847656,0.45440584421157837,0.6873536109924316,0.42000001668930054,-0.8593759536743164,2.9999969005584717,-0.5209670066833496,-2.999997615814209,-0.07928811013698578,-0.08899475634098053,-0.09827323257923126,-0.1060490533709526,-0.9893460869789124,-0.988244354724884,-0.9821467995643616,-0.9230203032493591
0.26666666666666666,0.06709326058626175,0.15672631561756134,0.0,0.9398143291473389,0.0,0.0,-0.34168553352355957,-0.2909313142299652,0.13689595460891724,0.0,0.0,0.0,-3.8371834754943848,-0.4196106791496277,0.7154216766357422,0.4200000464916229,0.9999999403953552,3.7196562061581062e-06,-2.4035145997913787e-06,-1.8307397908756684e-07,0.00026623206213116646,0.00026729085948318243,-0.00010425853542983532,-0.0017326372908428311,0.004196509253233671,-0.0001285135222133249,-0.4464693069458008,0.7006174325942993,0.6633373498916626,-0.1986967772245407,0.9667948484420776,-6.261999607086182,0.45440584421157837,0.6873536109924316,0.42000001668930054,-0.8093665242195129,3.00000262260437,-0.5709968209266663,-3.0000007152557373,-0.09682722389698029,-0.10628620535135269,-0.11537773162126541,-0.12301025539636612,-1.0011703968048096,-1.0008784532546997,-1.0006557703018188,-1.000479817390442
0.2833333333333333,0.06718263030052185,0.15641121566295624,0.0,0.9376478791236877,0.0,0.0,-0.34758666157722473,0.009764626622200012,-0.05060606449842453,0.0,0.0,0.0,0.167330801486969,-0.4196106791496277,0.715421736240387,0.4200000464916229,0.9999999403953552,3.584109208532027e-06,-2.315508709216374e-06,7.404404556154986e-08,0.0002652198018040508,0.0002645530621521175,-0.00010317005217075348,-0.001702171633951366,0.004185137338936329,-0.0001249976339749992,-0.44936132431030273,0.7128468751907349,0.5623277425765991,0.0527259036898613,0.3616752028465271,-5.875730514526367,0.45440584421157837,0.6873536109924316,0.42000001668930054,-0.759357750415802,2.999716281890869,-0.6210265755653381,-2.9999983310699463,-0.11263392865657806,-0.1221560463309288,-0.13135230541229248,-0.1391211450099945,-1.0556061267852783,-1.041874885559082,-1.031429648399353,-1.0231122970581055
0.3,0.06318122893571854,0.15441744029521942,0.0,0.9304787516593933,0.0,0.0,-0.36634591221809387,-0.32927730679512024,-0.15198005735874176,0.0,0.0,0.0,-3.2871227264404297,-0.4196106791496277,0.7154216766357422,0.4200000464916229,1.0,3.724297130247578e-06,-2.271929133712547e-06,9.635297004706445e-08,0.0002631272072903812,0.00026525818975642323,-0.00010438100434839725,-0.0016960492357611656,0.004134910646826029,-0.00013027878594584763,-0.4417360723018646,0.7156459093093872,0.47104695439338684,0.8662012219429016,0.022016720846295357,-5.237098693847656,0.45440584421157837,0.6873536109924316,0.42000001668930054,-0.7093863487243652,3.000002145767212,-0.671053946018219,-3.000000476837158,-0.13056206703186035,-0.1397816240787506,-0.1487497240304947,-0.1563386470079422,-1.0103631019592285,-1.0078434944152832,-1.00592041015625,-1.0043786764144897
0.31666666666666665,0.05584726482629776,0.15067346394062042,0.0,0.9295974373817444,0.0,0.0,-0.36857640743255615,-0.3580522835254669,-0.30948466062545776,0.0,0.0,0.0,0.6371367573738098,-0.4194367229938507,0.7152847647666931,0.4200100600719452,0.9999924898147583,-6.967633225940517e-07,0.0003329596947878599,-0.0038418106269091368,0.008985190652310848,-0.1310509294271469,-0.008885610848665237,0.23308372497558594,-0.944617509841919,-3.7024824619293213,-0.43408530950546265,0.7161868810653687,0.42856237292289734,0.12320123612880707,-0.04202196002006531,-0.25781452655792236,0.45440584421157837,0.6873536109924316,0.42000001668930054,-0.6593813300132751,2.9950289726257324,-0.7214376926422119,-2.997732400894165,-0.1437297761440277,-0.15286409854888916,-0.1616259515285492,-0.16884347796440125,-0.4006637930870056,-0.42302319407463074,-0.42705243825912476,-0.4095567464828491
0.3333333333333333,0.04816097766160965,0.14401200413703918,0.0,0.9232622981071472,0.0,0.0,-0.38417020440101624,-0.5106820464134216,-0.44009602069854736,0.0,0.0,0.0,-2.9247047901153564,-0.4192093014717102,0.7141604423522949,0.42001187801361084,0.9998515844345093,0.0004534552281256765,-7.487164839403704e-05,-0.017219513654708862,0.1680026650428772,0.19349674880504608,0.03904825821518898,1.5651644468307495,-0.017012525349855423,-3.3551762104034424,-0.4319087266921997,0.7192907929420471,0.4258381128311157,0.23340268433094025,0.2128412276506424,-0.16469810903072357,0.45440584421157837,0.6873536109924316,0.42000001668930054,-0.6093754768371582,2.999284267425537,-0.7715212106704712,-2.99991512298584,-0.15106797218322754,-0.1600111573934555,-0.16822777688503265,-0.17455069720745087,-0.47527313232421875,-0.4318650960922241,-0.36772921681404114,-0.286094605922699
0.35,0.03817826509475708,0.13510167598724365,0.0,0.9232208728790283,0.0,0.0,-0.38426974415779114,-0.640860378742218,-0.5771355628967285,0.0,0.0,0.0,0.9032023549079895,-0.41491544246673584,0.7197580933570862,0.4200247526168823,0.9965068101882935,0.0006069415248930454,-0.00023571208294015378,-0.08350867033004761,0.30031898617744446,0.4079837203025818,-0.02027982473373413,-0.9677382707595825,0.025338683277368546,-10.252266883850098,-0.42669299244880676,0.7253173589706421,0.42315465211868286,0.40322691202163696,0.4699019193649292,-0.13791847229003906,0.45440584421157837,0.6873536109924316,0.42000001668930054,-0.5593704581260681,2.9999887943267822,-0.8215653300285339,-2.999929666519165,-0.160273015499115,-0.1677716076374054,-0.17419086396694183,-0.1784687340259552,-0.5576486587524414,-0.45063501596450806,-0.32163286209106445,-0.1790400892496109
0.36666666666666664,0.025901049375534058,0.12389529496431351,0.0,0.9172165393829346,0.0,0.0,-0.3983891010284424,-0.7809482216835022,-0.7113361954689026,0.0,0.0,0.0,-2.7688865661621094,-0.4087628722190857,0.727873682975769,0.4201347529888153,0.9882698059082031,0.003316098591312766,-0.00034992030123248696,-0.15268094837665558,0.5454210638999939,0.6902368664741516,0.03198520094156265,1.6530437469482422,-0.4602826237678528,-2.7083799839019775,-0.4177321791648865,0.7338641285896301,0.42150938510894775,0.6847699880599976,0.6140763759613037,-0.07405464351177216,0.45440584421157837,0.6873536109924316,0.42000001668930054,-0.5093656182289124,2.999987840652466,-0.8716160655021667,-2.999998092651367,-0.16958735883235931,-0.17503491044044495,-0.17899088561534882,-0.1805623322725296,-0.5254133343696594,-0.3902129828929901,-0.23052531480789185,-0.057664886116981506
0.3833333333333333,0.016180887818336487,0.10994360595941544,0.0,0.8992765545845032,0.0,0.0,-0.43738046288490295,-0.5092587471008301,-0.8900365233421326,0.0,0.0,0.0,-5.989349365234375,-0.39607349038124084,0.7431842088699341,0.4205358624458313,0.9835611581802368,0.005303881596773863,-0.003780927276238799,-0.18045780062675476,1.0213062763214111,1.2039979696273804,0.06423134356737137,-2.8466403484344482,-0.9292894601821899,-5.412724494934082,-0.4038516581058502,0.7476682662963867,0.421649694442749,1.043114185333252,1.1133006811141968,0.07703720033168793,0.45440584421157837,0.6873536109924316,0.42000001668930054,-0.45936164259910583,2.999966859817505,-0.9216674566268921,-2.999927282333374,-0.17773805558681488,-0.1807781308889389,-0.1818648725748062,-0.1803121566772461,-0.42241227626800537,-0.2763412296772003,-0.10204727202653885,0.08762593567371368
0.4,0.01040596142411232,0.0929686576128006,0.0,0.8671566247940063,0.0,0.0,-0.4980355501174927,-0.2617926001548767,-1.0725764036178589,0.0,0.0,0.0,-8.9797945022583,-0.3650859594345093,0.7713068723678589,0.42364418506622314,0.9737322330474854,0.02004239149391651,-0.03155336529016495,-0.22460663318634033,2.979559898376465,2.2472829818725586,0.32038095593452454,32.85832977294922,-14.47030258178711,7.286681175231934,-0.37237656116485596,0.775355339050293,0.42495906352996826,2.798189163208008,2.2291722297668457,0.43027573823928833,0.45440584421157837,0.6873536109924316,0.42000001668930054,-0.41072869300842285,2.3938796520233154,-0.9448448419570923,-0.015276936814188957,-0.1863480508327484,-0.186313197016716,-0.18392525613307953,-0.178737074136734,-0.5484788417816162,-0.3404150903224945,-0.11353710293769836,0.11714193224906921
0.4166666666666667,0.006414606235921383,0.08136728405952454,0.0,0.8177735209465027,0.0,0.0,-0.5755401253700256,-0.15158775448799133,-0.5662892460823059,0.0,0.0,0.0,-11.76040267944336,-0.2933436930179596,0.812751293182373,0.43155673146247864,0.9546043872833252,0.09191849082708359,-0.06909700483083725,-0.27478542923927307,5.6899213790893555,2.4134860038757324,0.5771175622940063,5.536410331726074,-7.338744640350342,13.138980865478516,-0.30011624097824097,0.8184113502502441,0.43284523487091064,5.525232315063477,3.0291006565093994,0.615073561668396,0.45440584421157837,0.6873536109924316,0.42000001668930054,-0.38402608036994934,1.391628623008728,-0.8978180885314941,2.999202251434326,-0.20148803293704987,-0.19814451038837433,-0.19073201715946198,-0.18084651231765747,-0.8997175693511963,-0.7984058856964111,-0.5034881830215454,-0.23907527327537537
0.43333333333333335,-0.000591233023442328,0.07684876769781113,0.0,0.7754237651824951,0.0,0.0,-0.6314411759376526,-0.5369310975074768,-0.251406729221344,0.0,0.0,0.0,-7.183601379394531,-0.20000188052654266,0.8518670201301575,0.4444935917854309,0.9219802618026733,0.12222439050674438,-0.08681657165288925,-0.35703837871551514,6.188168525695801,1.534002423286438,0.9212714433670044,5.988208770751953,-12.976470947265625,17.040170669555664,-0.20500798523426056,0.8598346710205078,0.4456787705421448,5.890999794006348,2.142014980316162,0.8949095010757446,0.45440584421157837,0.6873536109924316,0.42000001668930054,-0.36871400475502014,0.536926805973053,-0.9237830638885498,-3.0000011920928955,-0.21622683107852936,-0.21302548050880432,-0.20353387296199799,-0.1885303407907486,-0.7525115013122559,-0.7709721326828003,-0.7152283191680908,-0.45229730010032654
0.45,-0.002858320251107216,0.064998559653759,0.0,0.7534317374229431,0.0,0.0,-0.6575261354446411,-0.030456053093075752,-0.8618804812431335,0.0,0.0,0.0,-3.0682425498962402,-0.094645656645298,0.8801188468933105,0.45627570152282715,0.8684792518615723,0.11690273880958557,-0.09499263763427734,-0.4722856879234314,6.723649024963379,0.29363638162612915,0.6747480034828186,12.256842613220215,-10.15050220489502,25.246654510498047,-0.09940804541110992,0.8893588781356812,0.4571415185928345,6.727485179901123,1.1976001262664795,0.6910231113433838,0.45440584421157837,0.6873536109924316,0.42000001668930054,-0.3577502369880676,0.6376810073852539,-0.9738070964813232,-3.000002861022949,-0.22221378982067108,-0.21899859607219696,-0.20850870013237,-0.18968269228935242,-0.2929341793060303,-0.2236115038394928,-0.11388843506574631,0.12478626519441605
0.4666666666666667,-0.0067253862507641315,0.05503680557012558,0.0,0.7230659127235413,0.0,0.0,-0.6907790303230286,-0.2719116508960724,-0.5311745405197144,0.0,0.0,0.0,-6.15089750289917,0.015877440571784973,0.8888767957687378,0.4665006101131439,0.8047453761100769,0.11225416511297226,-0.09418368339538574,-0.575250506401062,7.005417823791504,0.10086091607809067,0.6604777574539185,26.011539459228516,-18.190580368041992,-3.3713326454162598,0.012350421398878098,0.9004315137863159,0.46757832169532776,6.713838577270508,0.15214255452156067,0.6305885910987854,0.45440584421157837,0.6873536109924316,0.42000001668930054,-0.34555938839912415,0.7298702597618103,-1.0238310098648071,-3.000002145767212,-0.2295372486114502,-0.22452735900878906,-0.21199385821819305,-0.18973372876644135,-0.36151817440986633,-0.2652444541454315,-0.17232745885849,-0.03031257353723049
0.48333333333333334,-0.008847121149301529,0.04993586987257004,0.0,0.7080197334289551,0.0,0.0,-0.706192672252655,-0.06326843798160553,-0.22074522078037262,0.0,0.0,0.0,-1.3968441486358643,0.12183591723442078,0.8809602856636047,0.4730628728866577,0.748604416847229,0.09889192879199982,-0.09392362833023071,-0.6488375067710876,5.96678352355957,-2.029801368713379,0.33324435353279114,1.9955832958221436,-10.167791366577148,24.56285285949707,0.12118523567914963,0.8928940296173096,0.4748283624649048,6.343515396118164,-1.108965516090393,0.3082348108291626,0.45440584421157837,0.6873536109924316,0.42000001668930054,-0.33467525243759155,0.5615572929382324,-1.0738533735275269,-3.000000476837158,-0.23851808905601501,-0.2307179719209671,-0.2157614678144455,-0.19088588654994965,-0.5497887134552002,-0.3500318229198456,-0.18778780102729797,-0.04412299022078514
0.5,-0.007578096818178892,0.04282157123088837,0.0,0.6855121850967407,0.0,0.0,-0.7280611395835876,0.13080386817455292,-0.47626009583473206,0.0,0.0,0.0,-4.618402004241943,0.21629735827445984,0.855949342250824,0.4724356532096863,0.6720899343490601,0.07009725272655487,-0.08862539380788803,-0.7317970991134644,4.997955322265625,-2.7109692096710205,-0.1886785626411438,-8.30863094329834,-8.617809295654297,20.427837371826172,0.21629825234413147,0.868007481098175,0.47503137588500977,5.282766819000244,-1.9672691822052002,-0.1240142285823822,0.45440584421157837,0.6873536109924316,0.42000001668930054,-0.32452020049095154,0.5418443083763123,-1.1238754987716675,-3.0000014305114746,-0.24002182483673096,-0.23605334758758545,-0.21814759075641632,-0.19099582731723785,-0.03912379965186119,-0.2801644802093506,-0.0903635025024414,0.03959793969988823
0.5166666666666666,-0.005017788149416447,0.039302535355091095,0.0,0.6761848330497742,0.0,0.0,-0.736732006072998,0.1653013825416565,-0.16940835118293762,0.0,0.0,0.0,-0.40447887778282166,0.294617623090744,0.8179143071174622,0.46532168984413147,0.608116090297699,0.024620477110147476,-0.08411148935556412,-0.7889955043792725,3.7488667964935303,-3.0089521408081055,-0.501867413520813,-3.0375399589538574,-1.0343292951583862,22.56716537475586,0.29516518115997314,0.8299026489257812,0.4690113067626953,4.3688178062438965,-2.5060665607452393,-0.5434337854385376,0.45440584421157837,0.6873536109924316,0.42000001668930054,-0.3161426782608032,0.44109004735946655,-1.173897624015808,-2.999858856201172,-0.23993578553199768,-0.23994120955467224,-0.22086432576179504,-0.1919088214635849,-0.02030966803431511,-0.012398921884596348,-0.05517846345901489,-0.011213205754756927
0.5333333333333333,-0.0001298298593610525,0.034278664737939835,0.0,0.6577593684196472,0.0,0.0,-0.7532281279563904,0.33276546001434326,-0.29315322637557983,0.0,0.0,0.0,-3.8908870220184326,0.35821717977523804,0.7797887325286865,0.4504011273384094,0.5726607441902161,-0.024910448119044304,-0.07857225090265274,-0.8156380653381348,2.959376811981201,-2.5551156997680664,-0.9816098809242249,-7.080363750457764,3.8178937435150146,30.03835678100586,0.35979217290878296,0.7912290096282959,0.45521122217178345,3.526399612426758,-2.40750789642334,-0.9938338994979858,0.45440584421157837,0.6873536109924316,0.42000001668930054,-0.3067505955696106,0.6149736046791077,-1.2239197492599487,-2.999785900115967,-0.2359480857849121,-0.23631486296653748,-0.21894705295562744,-0.19078633189201355,0.22460626065731049,0.23699752986431122,0.1362040936946869,0.053376272320747375
0.55,0.006924387998878956,0.032485805451869965,0.0,0.6532869935035706,0.0,0.0,-0.7571103572845459,0.4608895778656006,-0.04057326540350914,0.0,0.0,0.0,0.23492436110973358,0.40714356303215027,0.7403963208198547,0.4306791424751282,0.5173258781433105,-0.09556904435157776,-0.07391759753227234,-0.8472169041633606,2.502746820449829,-2.0164120197296143,-1.1361126899719238,-1.5221967697143555,4.586987495422363,20.63790512084961,0.4090009331703186,0.7518681287765503,0.4370265007019043,2.519946575164795,-2.360002040863037,-1.2056670188903809,0.45440584421157837,0.6873536109924316,0.42000001668930054,-0.29422029852867126,0.8328215479850769,-1.2739418745040894,-3.0000007152557373,-0.23237654566764832,-0.23246851563453674,-0.21702557802200317,-0.19092628359794617,0.2937483787536621,0.2941296696662903,0.14774717390537262,-0.02792598493397236
0.5666666666666667,0.0161416195333004,0.027353238314390182,0.0,0.6381352543830872,0.0,0.0,-0.7699242830276489,0.5628340244293213,-0.36570730805397034,0.0,0.0,0.0,-3.272653818130493,0.4433445334434509,0.7164361476898193,0.42120546102523804,0.46826279163360596,-0.018983041867613792,-0.015100182965397835,-0.8832562565803528,1.714068055152893,-0.8448789715766907,-0.014680517837405205,1.7929646968841553,-4.585887908935547,-7.5152506828308105,0.4415985941886902,0.7249871492385864,0.4237079918384552,1.3352514505386353,-1.0307765007019043,-0.0694882944226265,0.45440584421157837,0.6873536109924316,0.42000001668930054,-0.277640163898468,1.3015257120132446,-1.2425953149795532,3.0006775856018066,-0.2226186990737915,-0.22381913661956787,-0.21194253861904144,-0.19001980125904083,0.684164822101593,0.5936233997344971,0.3544272184371948,0.06928317248821259
0.5833333333333334,0.022812699899077415,0.025507768616080284,0.0,0.6363809108734131,0.0,0.0,-0.7713750004768372,0.32707223296165466,-0.0852491483092308,0.0,0.0,0.0,0.6376145482063293,0.4655119776725769,0.7033998370170593,0.4200066924095154,0.485255628824234,0.00012730715388897806,0.00024371256586164236,-0.8743721842765808,1.0815224647521973,-0.7284069657325745,-0.007515331264585257,-0.2202325314283371,-0.3099009096622467,3.2536206245422363,0.45972418785095215,0.7062002420425415,0.42466673254966736,0.8764356374740601,-1.03529691696167,0.10584208369255066,0.45440584421157837,0.6873536109924316,0.42000001668930054,-0.2723083198070526,-0.5063942670822144,-1.2631926536560059,-2.9999876022338867,-0.21544158458709717,-0.21720018982887268,-0.20844897627830505,-0.1907142549753189,0.4874243438243866,0.44021865725517273,0.24073617160320282,-0.029749272391200066
0.6,0.030536849051713943,0.02731919102370739,0.0,0.6239431500434875,0.0,0.0,-0.7814697027206421,0.4697574973106384,0.14537400007247925,0.0,0.0,0.0,-2.8236305713653564,0.4755563735961914,0.6937419772148132,0.4200114607810974,0.5217645764350891,-0.00016087028780020773,0.00017363486404065043,-0.8530893921852112,0.2585935890674591,-0.4006696045398712,-0.012064440175890923,-0.04344484582543373,-0.40305885672569275,6.455894470214844,0.47008711099624634,0.6945593953132629,0.4232245087623596,0.38981813192367554,-0.3971043825149536,-0.08982673287391663,0.45440584421157837,0.6873536109924316,0.42000001668930054,-0.271420955657959,0.5251626968383789,-1.225095510482788,2.9997096061706543,-0.2073897123336792,-0.21031659841537476,-0.20509952306747437,-0.1920740008354187,0.5787662863731384,0.4845077097415924,0.2574848234653473,-0.03945006802678108
0.6166666666666667,0.03987542539834976,0.024472946301102638,0.0,0.6242960095405579,0.0,0.0,-0.7811878323554993,0.5463303327560425,-0.1739085614681244,0.0,0.0,0.0,0.9643245935440063,0.4779958724975586,0.6884908080101013,0.42007067799568176,0.5540750026702881,-0.0008672935655340552,0.001538993907161057,-0.832464873790741,-0.0757988765835762,-0.20450834929943085,0.03681792691349983,0.7161145806312561,1.7890139818191528,3.4320387840270996,0.4719945192337036,0.6897727847099304,0.4243553876876831,-0.17055876553058624,-0.20886169373989105,0.14525917172431946,0.45440584421157837,0.6873536109924316,0.42000001668930054,-0.3045543432235718,-3.000002145767212,-1.2458463907241821,-2.999932050704956,-0.19534023106098175,-0.19992469251155853,-0.19844314455986023,-0.19033430516719818,0.6059661507606506,0.5466024875640869,0.36672061681747437,0.11042513698339462
0.6333333333333333,0.05142384022474289,0.025741903111338615,0.0,0.6468953490257263,0.0,0.0,-0.7625787854194641,0.7315413355827332,0.08037278801202774,0.0,0.0,0.0,4.334263801574707,0.47476914525032043,0.6853821873664856,0.4199995994567871,0.5703738927841187,-2.5491199266980402e-05,-5.54003199795261e-05,-0.8213852047920227,-0.1976204365491867,-0.17367452383041382,-0.00013311125803738832,0.014477316290140152,0.0008957277750596404,1.9502170085906982,0.4688396453857422,0.6881163716316223,0.4266281723976135,-0.102439746260643,0.08107053488492966,0.1406896859407425,0.45440584421157837,0.6873536109924316,0.42000001668930054,-0.34778907895088196,-2.2263121604919434,-1.295811653137207,-2.9985337257385254,-0.18780629336833954,-0.1930539458990097,-0.19405198097229004,-0.18965794146060944,0.5381302237510681,0.47274303436279297,0.31206321716308594,0.08425875753164291
0.65,0.060036417096853256,0.023100944235920906,0.0,0.65534907579422,0.0,0.0,-0.7553261518478394,0.4280494153499603,-0.19278143346309662,0.0,0.0,0.0,0.2506135106086731,0.4722249209880829,0.6831698417663574,0.42000001668930054,0.5819131135940552,-3.385619493201375e-06,6.355871562391258e-08,-0.8132508397102356,-0.13782981038093567,-0.11896411329507828,-0.00011768110562115908,0.002901784610003233,-0.0031292587518692017,1.6058683395385742,0.4678044319152832,0.6902609467506409,0.4297311305999756,-0.06964883953332901,0.09496521949768066,0.2155899703502655,0.45440584421157837,0.6873536109924316,0.42000001668930054,-0.39707067608833313,-2.9999780654907227,-1.3457814455032349,-2.9992904663085938,-0.1781122237443924,-0.18420973420143127,-0.1874460130929947,-0.18633301556110382,0.4921610653400421,0.4761522710323334,0.3851742148399353,0.23286950588226318
0.6666666666666666,0.0688876062631607,0.01836293190717697,0.0,0.6714292764663696,0.0,0.0,-0.7410686016082764,0.5676910281181335,-0.4189739227294922,0.0,0.0,0.0,3.5454933643341064,0.47042733430862427,0.6818272471427917,0.4200039207935333,0.5825324654579163,5.9575249906629324e-05,-8.41946093714796e-05,-0.8128074407577515,-0.14236369729042053,-0.0706397294998169,0.004514357075095177,-0.06957455724477768,-0.2139049768447876,-4.015058994293213,0.4647635221481323,0.6899958848953247,0.4351028800010681,-0.23481598496437073,-0.05857739597558975,0.4740813672542572,0.45440584421157837,0.6873536109924316,0.42000001668930054,-0.4470847249031067,-2.999999523162842,-1.3957996368408203,-3.0000009536743164,-0.17298239469528198,-0.17832012474536896,-0.18182024359703064,-0.18189027905464172,0.2649613916873932,0.3401288390159607,0.3668781816959381,0.34599414467811584
0.6833333333333333,0.0813029482960701,0.017346171662211418,0.0,0.6756888628005981,0.0,0.0,-0.7371869087219238,0.6836429834365845,-0.008370796218514442,0.0,0.0,0.0,-0.30342042446136475,0.4688459634780884,0.6810687780380249,0.4200000464916229,0.5583879351615906,-1.704800865809375e-06,4.7979810915421695e-06,-0.8295799493789673,-0.08083031326532364,-0.036685358732938766,-0.00018416554667055607,0.010601814836263657,0.002305667381733656,-3.100611925125122,0.46432697772979736,0.6893625259399414,0.4436585307121277,0.2338898479938507,0.06757208704948425,0.6250051259994507,0.45440584421157837,0.6873536109924316,0.42000001668930054,-0.4970976710319519,-3.0,-1.4458179473876953,-2.999999761581421,-0.17331525683403015,-0.17666521668434143,-0.1788017600774765,-0.17820648849010468,0.1109880730509758,0.197454571723938,0.26186248660087585,0.2971963584423065
0.7,0.09441035985946655,0.012304761447012424,0.0,0.657511830329895,0.0,0.0,-0.7534441947937012,0.8080790638923645,-0.36727970838546753,0.0,0.0,0.0,-3.840319871902466,0.4681836664676666,0.6807935237884521,0.4200000762939453,0.5478125214576721,-3.060336268845276e-07,3.7817360976077907e-07,-0.8366010785102844,-0.02512817457318306,-0.010599473491311073,-7.722782902419567e-05,0.002948824316263199,0.0033426862210035324,-0.9434885382652283,0.4740692675113678,0.6929950714111328,0.46181362867355347,0.8224923610687256,0.2412727177143097,1.6481016874313354,0.45440584421157837,0.6873536109924316,0.42000001668930054,-0.5471102595329285,-2.999979257583618,-1.4958362579345703,-2.9999988079071045,-0.1700069159269333,-0.17230407893657684,-0.1736067533493042,-0.17254576086997986,0.10776295512914658,0.18780291080474854,0.2594226598739624,0.3111279010772705
0.7166666666666667,0.1099247857928276,0.010101363994181156,0.0,0.6506080627441406,0.0,0.0,-0.7594137191772461,0.9517887830734253,-0.08322088420391083,0.0,0.0,0.0,0.2471718043088913,0.468183696269989,0.680793821811676,0.419999897480011,0.5478127002716064,-4.609511506714625e-06,-3.21755874210794e-06,-0.8366008996963501,-0.00029125279979780316,-0.00010528847633395344,-6.262375973165035e-05,-0.0002432615146972239,-0.007095745299011469,-9.847299952525645e-05,0.49023741483688354,0.6968669295310974,0.49638819694519043,1.1393649578094482,0.29101866483688354,2.539062976837158,0.45440584421157837,0.6873536109924316,0.42000001668930054,-0.5971190333366394,-2.9999988079071045,-1.5458545684814453,-3.000000238418579,-0.17092649638652802,-0.17189927399158478,-0.1718847155570984,-0.16973960399627686,-0.015270870178937912,0.03607415780425072,0.09451228380203247,0.14587128162384033
0.7333333333333333,0.12267470359802246,0.010869954712688923,0.0,0.6688219904899597,0.0,0.0,-0.7434226274490356,0.6988053917884827,0.09804676473140717,0.0,0.0,0.0,3.750967264175415,0.46818357706069946,0.680793821811676,0.41999998688697815,0.5478127598762512,-3.0271560262917774e-06,-3.82492135031498e-06,-0.8366008996963501,-2.9599688787129708e-05,-0.0003271886962465942,-9.102746844291687e-05,0.008571847341954708,-0.0034931041300296783,-0.0007569674053229392,0.5097751617431641,0.6986697316169739,0.5314120650291443,1.18304443359375,0.03328132629394531,1.7870204448699951,0.45440584421157837,0.6873536109924316,0.42000001668930054,-0.6160261631011963,0.4453442394733429,-1.5958728790283203,-3.0000007152557373,-0.17047643661499023,-0.17056037485599518,-0.16954584419727325,-0.16654464602470398,0.09850244224071503,0.14706864953041077,0.20046137273311615,0.2431924045085907
0.75,0.1310110092163086,0.008095508441329002,0.0,0.6739605665206909,0.0,0.0,-0.7387673258781433,0.412224143743515,-0.1733444184064865,0.0,0.0,0.0,-0.21698902547359467,0.46818357706069946,0.6807938814163208,0.41999998688697815,0.5478129982948303,-3.1097126793611096e-06,-3.933879270334728e-06,-0.8366008400917053,-3.1506420782534406e-05,-0.0003288632433395833,-9.254971519112587e-05,0.00859807152301073,-0.0035081978421658278,-0.0007584543200209737,0.5229827165603638,0.700246274471283,0.554993748664856,0.36870914697647095,0.02783033438026905,1.1779842376708984,0.45440584421157837,0.6873536109924316,0.42000001668930054,-0.6276508569717407,-1.6493418216705322,-1.5568714141845703,3.000000238418579,-0.16699820756912231,-0.16643519699573517,-0.16475486755371094,-0.1613207906484604,0.10826697200536728,0.1723746508359909,0.2317650020122528,0.2710203230381012
0.7666666666666666,0.13538451492786407,0.009285393171012402,0.0,0.6885600686073303,0.0,0.0,-0.7251792550086975,0.21858693659305573,0.08335501700639725,0.0,0.0,0.0,3.1687121391296387,0.46818357706069946,0.6807938814163208,0.41999998688697815,0.5478126406669617,-3.3078531487262808e-06,-3.813673401964479e-06,-0.8366010785102844,-3.3892229112097993e-05,-0.00032800299231894314,-9.27862711250782e-05,0.008579200133681297,-0.003515680320560932,-0.0007511099684052169,0.5274385213851929,0.6983824372291565,0.5710839033126831,0.2705407440662384,-0.11735576391220093,0.8006300330162048,0.45440584421157837,0.6873536109924316,0.42000001668930054,-0.6267147660255432,1.4883207082748413,-1.5717769861221313,-2.999999761581421,-0.16697478294372559,-0.16505932807922363,-0.1621733158826828,-0.15793587267398834,0.12448689341545105,0.17308081686496735,0.21303389966487885,0.23043330013751984
0.7833333333333333,0.13665418326854706,0.006896902807056904,0.0,0.6900506019592285,0.0,0.0,-0.7237611413002014,0.013781556859612465,-0.1656782627105713,0.0,0.0,0.0,-0.5778959393501282,0.46818357706069946,0.6807938814163208,0.41999998688697815,0.5478128790855408,-3.400032937861397e-06,-3.929757440346293e-06,-0.8366008996963501,-3.361723793204874e-05,-0.00032793369609862566,-9.266543202102184e-05,0.008578461594879627,-0.0035130283795297146,-0.0007516654441133142,0.528469443321228,0.6980040073394775,0.5791196823120117,-0.19293826818466187,-0.004162531346082687,0.30727100372314453,0.45440584421157837,0.6873536109924316,0.42000001668930054,-0.6270828247070312,-1.2920340299606323,-1.5328500270843506,3.000000476837158,-0.16417767107486725,-0.16174550354480743,-0.158502995967865,-0.1542789191007614,0.11713038384914398,0.15131019055843353,0.17327895760536194,0.17142650485038757
0.8,0.13911812007427216,0.00826598796993494,0.0,0.702373206615448,0.0,0.0,-0.7118088603019714,0.19174063205718994,0.08856373280286789,0.0,0.0,0.0,2.7253174781799316,0.4681835472583771,0.6807938814163208,0.41999998688697815,0.5478127598762512,-3.237677219658508e-06,-3.975429535785224e-06,-0.8366009593009949,-3.174836456310004e-05,-0.000328158144839108,-9.210966527462006e-05,0.008588659577071667,-0.0035057805944234133,-0.000755560933612287,0.5266293883323669,0.6953047513961792,0.5825240612030029,0.09068137407302856,-0.16803286969661713,0.15078657865524292,0.45440584421157837,0.6873536109924316,0.42000001668930054,-0.6211492419242859,1.7368028163909912,-1.5483018159866333,-2.9999992847442627,-0.1640770435333252,-0.16074436902999878,-0.15676137804985046,-0.15214410424232483,0.1444811224937439,0.1651412844657898,0.18311423063278198,0.18860669434070587
0.8166666666666667,0.14283888041973114,0.005741395056247711,0.0,0.7019566297531128,0.0,0.0,-0.7122196555137634,0.2644110321998596,-0.19186075031757355,0.0,0.0,0.0,-1.0015770196914673,0.46818357706069946,0.6807938814163208,0.41999998688697815,0.547812819480896,-3.3894932585099014e-06,-3.90891818824457e-06,-0.8366008400917053,-3.4323398722335696e-05,-0.00032778718741610646,-9.285099804401398e-05,0.008573267608880997,-0.0035160372499376535,-0.0007498324848711491,0.5291873812675476,0.6944652795791626,0.5826914310455322,0.13085319101810455,-0.07009214162826538,0.0019171088933944702,0.45440584421157837,0.6873536109924316,0.42000001668930054,-0.631013810634613,-2.54024600982666,-1.5094432830810547,3.000000238418579,-0.16059744358062744,-0.15737298130989075,-0.15351082384586334,-0.14916124939918518,0.13618724048137665,0.1336248219013214,0.12946996092796326,0.1167248785495758
0.8333333333333334,0.14917084574699402,0.006538338493555784,0.0,0.7114965319633484,0.0,0.0,-0.7026895880699158,0.420043408870697,0.06039957329630852,0.0,0.0,0.0,2.408306837081909,0.46818357706069946,0.6807938814163208,0.41999998688697815,0.5478126406669617,-3.3230514873139327e-06,-3.744090236068587e-06,-0.8366009593009949,-3.350622864672914e-05,-0.000327981892041862,-9.263865649700165e-05,0.008580029010772705,-0.0035133713390678167,-0.0007517055491916835,0.5326722264289856,0.6904656887054443,0.5815778970718384,0.3782525658607483,-0.28163695335388184,-0.0748557448387146,0.45440584421157837,0.6873536109924316,0.42000001668930054,-0.6422906517982483,0.898268461227417,-1.5253925323486328,-3.0,-0.1600164771080017,-0.1564204841852188,-0.1521679162979126,-0.14752067625522614,0.12649135291576385,0.13491347432136536,0.14931748807430267,0.16408875584602356
0.85,0.15319110453128815,0.0037182429805397987,0.0,0.709612250328064,0.0,0.0,-0.7045924067497253,0.17416824400424957,-0.21050426363945007,0.0,0.0,0.0,-1.1253329515457153,0.46818357706069946,0.6807938814163208,0.41999998688697815,0.5478127002716064,-3.0644011985714315e-06,-3.88041144105955e-06,-0.8366010189056396,-3.0811985197942704e-05,-0.0003282240650150925,-9.187799878418446e-05,0.008590721525251865,-0.0034991565626114607,-0.000757391972001642,0.540073037147522,0.6857402920722961,0.5784828662872314,0.4179048538208008,-0.36505982279777527,-0.1686471402645111,0.45440584421157837,0.6873536109924316,0.42000001668930054,-0.6594937443733215,-2.6417925357818604,-1.4865975379943848,2.999999523162842,-0.15773887932300568,-0.15414588153362274,-0.1498025357723236,-0.14504371583461761,0.04617292061448097,0.05994974821805954,0.0768718346953392,0.09331438690423965
0.8666666666666667,0.15798301994800568,0.00421622209250927,0.0,0.7176734209060669,0.0,0.0,-0.6963798403739929,0.3314061462879181,0.042517103254795074,0.0,0.0,0.0,2.2673308849334717,0.46818357706069946,0.6807938814163208,0.41999998688697815,0.5478127002716064,-2.9700731829507276e-06,-3.8099958601378603e-06,-0.8366008996963501,-3.610408748500049e-05,-0.0003284272097516805,-9.389454498887062e-05,0.008577834814786911,-0.003530493238940835,-0.0007486200775019825,0.5465519428253174,0.6785856485366821,0.5761612057685852,0.45796146988868713,-0.3879367411136627,-0.06593900173902512,0.45440584421157837,0.6873536109924316,0.42000001668930054,-0.6711891293525696,0.937912106513977,-1.5030243396759033,-3.000000238418579,-0.15831595659255981,-0.15434199571609497,-0.14955846965312958,-0.14435233175754547,0.07248890399932861,0.06951645761728287,0.07296224683523178,0.08084078133106232
0.8833333333333333,0.16070179641246796,0.0013267279136925936,0.0,0.715020477771759,0.0,0.0,-0.6991034746170044,0.1037062332034111,-0.2069254219532013,0.0,0.0,0.0,-1.2651439905166626,0.46818357706069946,0.680793821811676,0.41999998688697815,0.5478126406669617,-3.1414488148584496e-06,-4.053534667036729e-06,-0.8366010785102844,-3.523637860780582e-05,-0.00032812313293106854,-9.334948845207691e-05,0.008576837368309498,-0.003524343715980649,-0.000748798658605665,0.5551408529281616,0.673503041267395,0.5727252960205078,0.4702218174934387,-0.3104826807975769,-0.21953824162483215,0.45440584421157837,0.6873536109924316,0.42000001668930054,-0.6721222400665283,-0.8912224173545837,-1.464293360710144,2.999999761581421,-0.15665018558502197,-0.15299440920352936,-0.14843471348285675,-0.14337149262428284,0.02026498131453991,0.009987380355596542,0.002479678252711892,-0.002578076208010316
