vladlanda/robotic-transformer/data/env_000_episode_0068.csv
sim_time_s,robot_box_x,robot_box_y,robot_box_z,robot_box_quat_w,robot_box_quat_x,robot_box_quat_y,robot_box_quat_z,robot_box_linvel_x,robot_box_linvel_y,robot_box_linvel_z,robot_box_angvel_x,robot_box_angvel_y,robot_box_angvel_z,cube_world_x,cube_world_y,cube_world_z,cube_quat_w,cube_quat_x,cube_quat_y,cube_quat_z,cube_linvel_x,cube_linvel_y,cube_linvel_z,cube_angvel_x,cube_angvel_y,cube_angvel_z,endpoint_world_x,endpoint_world_y,endpoint_world_z,endpoint_linvel_x,endpoint_linvel_y,endpoint_linvel_z,target_cube_world_x,target_cube_world_y,target_cube_world_z,gripper_actual_pos_rad_gp_leftgearjoint,gripper_actual_vel_rad_s_gp_leftgearjoint,gripper_actual_pos_rad_gp_rotatingjoint,gripper_actual_vel_rad_s_gp_rotatingjoint,motor_angle_rad_joint1,motor_angle_rad_joint2,motor_angle_rad_joint3,motor_angle_rad_joint4,motor_speed_rad_s_joint1,motor_speed_rad_s_joint2,motor_speed_rad_s_joint3,motor_speed_rad_s_joint4
0.0,0.0,0.0,0.0,1.0,0.0,0.0,0.0,0.0,0.0,0.0,0.0,0.0,0.0,-0.35917165875434875,0.7695571184158325,0.41999998688697815,1.0,0.0,0.0,0.0,0.0,0.0,0.0,0.0,0.0,0.0,3.42540442943573e-06,-0.005000244826078415,1.313499927520752,0.0,0.0,0.0,0.40453290939331055,0.6922462582588196,0.42000001668930054,-1.5707999467849731,0.0,0.0,0.0,0.0,0.0,0.0,0.0,0.0,0.0,0.0,0.0
0.016666666666666666,0.00290587916970253,0.0021290224976837635,0.0,0.9998749494552612,0.0,0.0,0.015814905986189842,0.2414185106754303,0.18107937276363373,0.0,0.0,0.0,3.1422722339630127,-0.3591717779636383,0.7695568203926086,0.41999998688697815,1.0,3.279964630564791e-06,-8.339746386809566e-07,8.465587342243452e-08,-1.9833529222523794e-05,0.00017983045836444944,-6.132945418357849e-05,0.0009432713268324733,-0.004689474124461412,-0.00031981561915017664,-0.007094584405422211,0.003474816679954529,1.315946340560913,-0.8118425607681274,0.9896834492683411,0.18090561032295227,0.40453290939331055,0.6922462582588196,0.42000001668930054,-1.5301096439361572,3.0000014305114746,-0.04585496708750725,-3.000000476837158,0.0008783878292888403,0.0008044697460718453,0.0007184241549111903,0.0006187348044477403,0.11080954968929291,0.09746086597442627,0.08325103670358658,0.0681312307715416
0.03333333333333333,0.008992312476038933,0.006730564404278994,0.0,0.9998650550842285,0.0,0.0,0.016428885981440544,0.4072674810886383,0.31414180994033813,0.0,0.0,0.0,-0.8679623603820801,-0.35917189717292786,0.7695567607879639,0.4200000464916229,1.0,3.3907890610862523e-06,-2.132393774445518e-06,-3.709030593768148e-08,0.0002635782875586301,0.00026937786606140435,-0.00010509765706956387,-0.0017707186052575707,0.004130848217755556,-0.00013548022252507508,-0.02506355568766594,0.02664274349808693,1.3169007301330566,-1.3188118934631348,1.641355037689209,-0.04821385070681572,0.40453290939331055,0.6922462582588196,0.42000001668930054,-1.4800902605056763,3.000002384185791,-0.09589482098817825,-3.0000016689300537,0.002739914692938328,0.002313062781468034,0.0018484124448150396,0.001343436655588448,0.13343335688114166,0.0997694879770279,0.06460820883512497,0.02785685658454895
0.05,0.018495965749025345,0.013818382285535336,0.0,0.9999420642852783,0.0,0.0,-0.010764575563371181,0.635464072227478,0.471066951751709,0.0,0.0,0.0,-4.073474407196045,-0.35917192697525024,0.7695568203926086,0.4200000464916229,1.0,3.7651539059879724e-06,-2.2118510969448835e-06,5.617565523863277e-09,0.0002653085975907743,0.0002669144596438855,-0.00010440382175147533,-0.0017242616740986705,0.004177405033260584,-0.00012949334632139653,-0.04908406361937523,0.05864335596561432,1.3137813806533813,-1.5826815366744995,2.127284049987793,-0.3243899345397949,0.40453290939331055,0.6922462582588196,0.42000001668930054,-1.4300719499588013,3.000000238418579,-0.14593207836151123,-3.0,0.0050048986449837685,0.003913837485015392,0.002750448416918516,0.0015110442182049155,0.14915691316127777,0.09985358268022537,0.04863296449184418,-0.0045692203566432
0.06666666666666667,0.03093275986611843,0.023301444947719574,0.0,0.9997756481170654,0.0,0.0,-0.021182196214795113,0.7756399512290955,0.6160383820533752,0.0,0.0,0.0,-0.0065208133310079575,-0.35917192697525024,0.7695567607879639,0.4200000464916229,0.9999999403953552,3.4067420529027004e-06,-2.2855354018247453e-06,4.300922284983244e-07,0.0002670245012268424,0.00026791662094183266,-0.00010437797755002975,-0.0017406758852303028,0.004211791325360537,-0.00012850333587266505,-0.07901153713464737,0.09360596537590027,1.306484580039978,-1.883307695388794,2.194329261779785,-0.549332857131958,0.40453290939331055,0.6922462582588196,0.42000001668930054,-1.3800479173660278,2.999995708465576,-0.11651022732257843,2.999999523162842,0.00658151600509882,0.004621411208063364,0.002548517193645239,0.00035957651562057436,0.06636245548725128,0.007509185466915369,-0.05348141863942146,-0.11666520684957504
0.08333333333333333,0.03700828552246094,0.036728885024785995,0.0,0.9989954829216003,0.0,0.0,-0.04481104016304016,0.22942019999027252,0.8799828290939331,0.0,0.0,0.0,-3.7816550731658936,-0.35917192697525024,0.7695567607879639,0.4200000464916229,1.0,3.697293777804589e-06,-2.1888927221880294e-06,-2.6323124302507495e-07,0.00026389575214125216,0.0002658644807524979,-0.00010434049181640148,-0.0017081999685615301,0.0041502113454043865,-0.00012991497351322323,-0.10524401068687439,0.13399219512939453,1.2950692176818848,-1.3012003898620605,2.6584787368774414,-0.7458842992782593,0.40453290939331055,0.6922462582588196,0.42000001668930054,-1.330049991607666,3.000000238418579,-0.14851950109004974,-2.999999523162842,0.0013810746604576707,-0.0013687453465536237,-0.004285345785319805,-0.007375881541520357,-0.4408978521823883,-0.49944955110549927,-0.5607296228408813,-0.6249942779541016
0.1,0.04693344235420227,0.051689665764570236,0.0,0.9953832030296326,0.0,0.0,-0.09598032385110855,0.739305853843689,0.9040940999984741,0.0,0.0,0.0,-6.936593532562256,-0.35917192697525024,0.7695567607879639,0.4200000464916229,0.9999999403953552,3.6203691706759855e-06,-2.2651593098999e-06,1.7462396328937757e-07,0.0002667671360541135,0.000267408526269719,-0.00010407832451164722,-0.0017386116087436676,0.004209146834909916,-0.00012775430514011532,-0.12811286747455597,0.1796090453863144,1.2832615375518799,-1.4467010498046875,2.864940643310547,-0.731451153755188,0.40453290939331055,0.6922462582588196,0.42000001668930054,-1.2800469398498535,3.0,-0.1985217034816742,-3.0000009536743164,-0.001452762633562088,-0.005725549533963203,-0.010166540741920471,-0.01478318590670824,-0.08276369422674179,-0.18145644664764404,-0.27900761365890503,-0.37535592913627625
0.11666666666666667,0.05543986335396767,0.06406055390834808,0.0,0.9918074011802673,0.0,0.0,-0.1277422457933426,0.5468463897705078,0.6804893016815186,0.0,0.0,0.0,-2.5539467334747314,-0.35917192697525024,0.7695567607879639,0.4200000464916229,1.0,3.7983475067449035e-06,-2.262775296912878e-06,-1.5019621457668109e-07,0.0002637402212712914,0.00026565929874777794,-0.00010429113171994686,-0.0017053772462531924,0.004147558938711882,-0.00012979762686882168,-0.1571275293827057,0.22574912011623383,1.2689419984817505,-1.73634934425354,2.988806962966919,-0.8799885511398315,0.40453290939331055,0.6922462582588196,0.42000001668930054,-1.230055809020996,2.9889581203460693,-0.1647016555070877,3.000000238418579,-0.0050757271237671375,-0.010833564214408398,-0.016732454299926758,-0.022779935970902443,-0.11392360180616379,-0.22157546877861023,-0.32564663887023926,-0.4259820580482483
0.13333333333333333,0.06134168058633804,0.07747479528188705,0.0,0.9857509732246399,0.0,0.0,-0.16821108758449554,0.28598570823669434,0.8529854416847229,0.0,0.0,0.0,-5.671047210693359,-0.35917192697525024,0.7695568203926086,0.4200000464916229,0.9999999403953552,3.550464725776692e-06,-2.2297590476227924e-06,2.9291828695932054e-07,0.00026703329058364034,0.00026779319159686565,-0.00010417005978524685,-0.0017440806841477752,0.0042136311531066895,-0.00012799835531041026,-0.18361976742744446,0.27855437994003296,1.2534276247024536,-1.3816512823104858,3.471761703491211,-1.0107543468475342,0.40453290939331055,0.6922462582588196,0.42000001668930054,-1.1821749210357666,2.7375869750976562,-0.19641397893428802,-2.9999988079071045,-0.00876712054014206,-0.01633075624704361,-0.023962317034602165,-0.031666673719882965,-0.2901853621006012,-0.39487454295158386,-0.49489668011665344,-0.5900828242301941
0.15,0.06410396844148636,0.09013258665800095,0.0,0.9756268858909607,0.0,0.0,-0.21943610906600952,0.12412811815738678,0.6865925788879395,0.0,0.0,0.0,-6.512180805206299,-0.35917192697525024,0.7695567607879639,0.4200000464916229,0.9999999403953552,3.3380260902049486e-06,-2.242854861833621e-06,-2.8023800169307833e-08,0.00026674504624679685,0.0002675813448149711,-0.00010427623055875301,-0.0017367452383041382,0.004206857644021511,-0.00012831660569645464,-0.2116309404373169,0.3389021158218384,1.2301121950149536,-1.7355612516403198,3.907276153564453,-1.770206332206726,0.40453290939331055,0.6922462582588196,0.42000001668930054,-1.1582435369491577,0.32351022958755493,-0.16263224184513092,3.000000476837158,-0.014095349237322807,-0.023066047579050064,-0.03201897814869881,-0.04095787927508354,-0.3552111089229584,-0.41532912850379944,-0.47072744369506836,-0.5214600563049316
0.16666666666666666,0.0699598416686058,0.10249478369951248,0.0,0.9688029289245605,0.0,0.0,-0.24783234298229218,0.34726542234420776,0.7614511251449585,0.0,0.0,0.0,-2.392756700515747,-0.35917192697525024,0.7695568203926086,0.4200000464916229,0.9999999403953552,3.6477324556472013e-06,-2.3072666408552323e-06,3.5276432441833094e-08,0.0002672694972716272,0.0002680137986317277,-0.00010418682359158993,-0.0017472155159339309,0.004217604175209999,-0.0001279844727832824,-0.24657899141311646,0.4028807282447815,1.1959919929504395,-2.0508952140808105,4.070248126983643,-2.3451716899871826,0.40453290939331055,0.6922462582588196,0.42000001668930054,-1.118787407875061,3.0000007152557373,-0.19431443512439728,-3.000000238418579,-0.019704964011907578,-0.029426470398902893,-0.03905894607305527,-0.048608578741550446,-0.48352932929992676,-0.4969514012336731,-0.5078124403953552,-0.5163848996162415
0.18333333333333332,0.0724605992436409,0.11299092322587967,0.0,0.9579092860221863,0.0,0.0,-0.287071168422699,0.12308061867952347,0.5489614009857178,0.0,0.0,0.0,-5.717166423797607,-0.35917192697525024,0.7695567607879639,0.4200000464916229,0.9999999403953552,3.290510676379199e-06,-2.1939399630355183e-06,-2.7923860557166336e-07,0.00026677988353185356,0.0002677598095033318,-0.00010434072464704514,-0.0017390806460753083,0.004207015968859196,-0.00012845972378272563,-0.2793562412261963,0.47245246171951294,1.1501915454864502,-1.7290499210357666,4.384452819824219,-3.0515856742858887,0.40453290939331055,0.6922462582588196,0.42000001668930054,-1.0688157081604004,2.9868967533111572,-0.24434423446655273,-3.0000007152557373,-0.03131002187728882,-0.040754854679107666,-0.05009424686431885,-0.05934308469295502,-0.7143909931182861,-0.6930878758430481,-0.6709138751029968,-0.6483706831932068
0.2,0.07364638894796371,0.12401681393384933,0.0,0.9510537385940552,0.0,0.0,-0.30902546644210815,0.020704656839370728,0.6833818554878235,0.0,0.0,0.0,-1.5317435264587402,-0.35917192697525024,0.7695567607879639,0.4200000464916229,1.0,3.280785904280492e-06,-2.2192850792635e-06,1.5945126108363183e-07,0.0002662787737790495,0.00026740043540485203,-0.00010425224900245667,-0.0017357869073748589,0.004197799134999514,-0.00012864739983342588,-0.3107456862926483,0.5434231758117676,1.0893718004226685,-1.6932430267333984,4.345736026763916,-4.138173580169678,0.40453290939331055,0.6922462582588196,0.42000001668930054,-1.0225156545639038,2.5655128955841064,-0.2943724989891052,-2.999999761581421,-0.044608112424612045,-0.05318932980298996,-0.0616665855050087,-0.07006879895925522,-0.8116342425346375,-0.7470948100090027,-0.6828563213348389,-0.6197847127914429
0.21666666666666667,0.07649517804384232,0.13659994304180145,0.0,0.9397766590118408,0.0,0.0,-0.3417891263961792,0.20944304764270782,0.8063275814056396,0.0,0.0,0.0,-5.037660598754883,-0.35917192697525024,0.7695568203926086,0.4200000464916229,1.0,3.6131561955699e-06,-2.2701929083268624e-06,2.2099250429619133e-07,0.00026712566614151,0.00026781755150295794,-0.00010414118878543377,-0.0017445905832573771,0.004215225111693144,-0.0001278650452150032,-0.3381081223487854,0.6144420504570007,1.0129823684692383,-1.3927836418151855,4.179749011993408,-4.967559814453125,0.40453290939331055,0.6922462582588196,0.42000001668930054,-0.9728231430053711,3.000002384185791,-0.3443989157676697,-3.0000009536743164,-0.05949023365974426,-0.06710502505302429,-0.07419677078723907,-0.08126772195100784,-0.9387397766113281,-0.8994998931884766,-0.8059146404266357,-0.7165175080299377
0.23333333333333334,0.07740102708339691,0.14666461944580078,0.0,0.934206485748291,0.0,0.0,-0.3567327857017517,-0.00491183390840888,0.5245629549026489,0.0,0.0,0.0,-0.8977537751197815,-0.35917192697525024,0.7695567607879639,0.4200000464916229,1.0,3.3819057989603607e-06,-2.2909978270035936e-06,2.727781520661665e-07,0.00026691341190598905,0.0002678005548659712,-0.00010433373972773552,-0.0017396059120073915,0.004209697246551514,-0.0001284381578443572,-0.3608083724975586,0.6764653921127319,0.9216271042823792,-1.0737848281860352,3.4261415004730225,-5.886292934417725,0.40453290939331055,0.6922462582588196,0.42000001668930054,-0.9228143095970154,3.0,-0.3944264352321625,-2.999999761581421,-0.07575172930955887,-0.0832734927535057,-0.08925781399011612,-0.09417834877967834,-0.9748778939247131,-0.9605567455291748,-0.9246289134025574,-0.7868582010269165
0.25,0.07875052094459534,0.1566523015499115,0.0,0.9233138561248779,0.0,0.0,-0.38404619693756104,0.1427134871482849,0.6505463123321533,0.0,0.0,0.0,-4.376776218414307,-0.35917189717292786,0.7695567607879639,0.4200000464916229,0.9999999403953552,3.7065931337565416e-06,-2.2230362901609624e-06,-2.2552902123607055e-07,0.00026424863608554006,0.0002665686479303986,-0.00010457867756485939,-0.0017169653438031673,0.004155508242547512,-0.000130626474856399,-0.3765000104904175,0.7271599769592285,0.8157998323440552,-0.7100409269332886,2.6271166801452637,-6.649463653564453,0.40453290939331055,0.6922462582588196,0.42000001668930054,-0.8728054165840149,2.999995231628418,-0.44445666670799255,-3.0000007152557373,-0.092192143201828,-0.09962403029203415,-0.10555491596460342,-0.10972176492214203,-0.9888615608215332,-0.9770612120628357,-0.9682334661483765,-0.9628286361694336
0.26666666666666666,0.0785837471485138,0.16418495774269104,0.0,0.9192184209823608,0.0,0.0,-0.39374807476997375,-0.06520836055278778,0.37380465865135193,0.0,0.0,0.0,-0.2779103219509125,-0.35917192697525024,0.7695567607879639,0.4200000464916229,0.9999999403953552,3.719682354130782e-06,-2.40352301261737e-06,-1.831047029554611e-07,0.00026623340090736747,0.00026729138335213065,-0.00010425737127661705,-0.0017326533561572433,0.004196588881313801,-0.00012851436622440815,-0.3866961598396301,0.759140133857727,0.7019665241241455,-0.337882936000824,1.316065788269043,-6.947240829467773,0.40453290939331055,0.6922462582588196,0.42000001668930054,-0.8227964043617249,2.999993085861206,-0.4944875240325928,-2.99999737739563,-0.10882893204689026,-0.11614438891410828,-0.12197557091712952,-0.12607626616954803,-0.9925986528396606,-0.9853872656822205,-0.9775207042694092,-0.9713727235794067
0.2833333333333333,0.07512027025222778,0.16794657707214355,0.0,0.9101060628890991,0.0,0.0,-0.414375364780426,-0.2626146674156189,0.17323735356330872,0.0,0.0,0.0,-3.5575006008148193,-0.35917192697525024,0.7695568203926086,0.4200000464916229,0.9999999403953552,3.5841080716636498e-06,-2.315531901331269e-06,7.401592228006848e-08,0.0002652209368534386,0.0002645519271027297,-0.00010317238047719002,-0.0017021773383021355,0.0041851806454360485,-0.00012499751755967736,-0.3875582814216614,0.774219274520874,0.5841937065124512,0.30187955498695374,0.39257192611694336,-6.972211837768555,0.40453290939331055,0.6922462582588196,0.42000001668930054,-0.7727875709533691,3.0000007152557373,-0.5445181131362915,-2.999998092651367,-0.1259174793958664,-0.13311053812503815,-0.13885219395160675,-0.14288493990898132,-1.0044804811477661,-1.003379464149475,-1.0025371313095093,-1.0018665790557861
0.3,0.069013312458992,0.16900362074375153,0.0,0.9086438417434692,0.0,0.0,-0.4175720512866974,-0.398724764585495,0.021387405693531036,0.0,0.0,0.0,0.5079885125160217,-0.35917192697525024,0.7695567607879639,0.4200000464916229,1.0,3.7242741655063583e-06,-2.2719839307683287e-06,9.633081532456345e-08,0.0002631251991260797,0.0002652581315487623,-0.00010438100434839725,-0.0016961225774139166,0.0041347686201334,-0.00013027382374275476,-0.38063734769821167,0.7749571204185486,0.4745997190475464,0.6374715566635132,-0.3743053078651428,-6.1920270919799805,0.40453290939331055,0.6922462582588196,0.42000001668930054,-0.7227790951728821,3.0000007152557373,-0.5945467948913574,-3.000000238418579,-0.14331379532814026,-0.15033185482025146,-0.15594445168972015,-0.15987758338451385,-1.0104310512542725,-1.0079036951065063,-1.0059709548950195,-1.0044163465499878
0.31666666666666665,0.060959380120038986,0.1675175428390503,0.0,0.904227077960968,0.0,0.0,-0.42705196142196655,-0.5282312035560608,-0.13339264690876007,0.0,0.0,0.0,-2.169973850250244,-0.35901549458503723,0.7691138982772827,0.4206255376338959,0.9998595714569092,0.015611371956765652,5.287284875521436e-05,-0.006076783873140812,0.017510350793600082,-0.05134310573339462,0.0798291265964508,4.038627624511719,-0.02706146240234375,-1.7723815441131592,-0.37444329261779785,0.7741129398345947,0.42986544966697693,0.06348589062690735,-0.08117968589067459,-0.1561831533908844,0.40453290939331055,0.6922462582588196,0.42000001668930054,-0.6727747321128845,2.999983072280884,-0.6450638771057129,-3.003018379211426,-0.15292072296142578,-0.16046728193759918,-0.16637800633907318,-0.17031799256801605,-0.1547265499830246,-0.21657025814056396,-0.25392386317253113,-0.26149100065231323
0.3333333333333333,0.05080098658800125,0.16337177157402039,0.0,0.9066202044487,0.0,0.0,-0.4219476282596588,-0.6498159766197205,-0.29081910848617554,0.0,0.0,0.0,1.5684397220611572,-0.35889187455177307,0.768862783908844,0.42086872458457947,0.999264121055603,0.0222086850553751,-0.0007204615394584835,-0.03126216307282448,0.006435730494558811,-0.014970246702432632,-0.008853016421198845,-0.46460533142089844,0.01620904542505741,-2.3600847721099854,-0.3762568533420563,0.775846004486084,0.4276700019836426,-0.01215488649904728,0.014610975980758667,-0.23784460127353668,0.40453290939331055,0.6922462582588196,0.42000001668930054,-0.622768223285675,2.9999890327453613,-0.6951103210449219,-3.0000009536743164,-0.15748630464076996,-0.1650656759738922,-0.1707225888967514,-0.17408211529254913,-0.34077611565589905,-0.3023630380630493,-0.2545003890991211,-0.19677209854125977
0.35,0.03850981593132019,0.15671898424625397,0.0,0.9023714065551758,0.0,0.0,-0.43095916509628296,-0.7800437211990356,-0.4406089782714844,0.0,0.0,0.0,-2.1144065856933594,-0.35790738463401794,0.770037829875946,0.42000266909599304,0.9987843632698059,-5.313534347806126e-05,1.5370145774795674e-05,-0.04929214343428612,0.0981283187866211,0.13583292067050934,-0.0036553482059389353,0.08777205646038055,-0.1404973566532135,-2.001016139984131,-0.37424641847610474,0.7760344743728638,0.42417967319488525,0.24066978693008423,0.07710167020559311,-0.1873670518398285,0.40453290939331055,0.6922462582588196,0.42000001668930054,-0.5727631449699402,2.999960422515869,-0.7451645135879517,-2.9999988079071045,-0.16426914930343628,-0.1707712858915329,-0.17522384226322174,-0.1772722452878952,-0.42077571153640747,-0.33885458111763,-0.2525528073310852,-0.1641634851694107
0.36666666666666664,0.024436693638563156,0.14768651127815247,0.0,0.9050459861755371,0.0,0.0,-0.42531368136405945,-0.9013081192970276,-0.5823150277137756,0.0,0.0,0.0,1.6766566038131714,-0.35409078001976013,0.7746565341949463,0.4200001657009125,0.9958989024162292,-7.429255219904007e-06,1.14170570668648e-05,-0.0904724970459938,0.340932697057724,0.3947201669216156,-0.0004012571298517287,0.021905262023210526,-0.009212520904839039,-7.336767673492432,-0.36805737018585205,0.7800097465515137,0.42124634981155396,0.5144158601760864,0.39153149724006653,-0.14503037929534912,0.40453290939331055,0.6922462582588196,0.42000001668930054,-0.5227582454681396,2.9999797344207764,-0.795203685760498,-2.999997854232788,-0.1726321130990982,-0.17703524231910706,-0.17930984497070312,-0.17917191982269287,-0.48274657130241394,-0.3409254550933838,-0.1936688870191574,-0.04610200598835945
0.3833333333333333,0.013585155829787254,0.1356615573167801,0.0,0.9011555910110474,0.0,0.0,-0.43349578976631165,-0.5662462711334229,-0.7719249725341797,0.0,0.0,0.0,-1.998732089996338,-0.34799766540527344,0.7812880277633667,0.4200029671192169,0.98691326379776,4.209144026390277e-05,9.606465027900413e-05,-0.16125144064426422,0.4645473062992096,0.49212026596069336,-0.004207318648695946,-0.0760343000292778,-0.2137591689825058,-10.225308418273926,-0.3575035035610199,0.7859666347503662,0.4197392463684082,0.7990692257881165,0.4273940324783325,-0.06982266157865524,0.40453290939331055,0.6922462582588196,0.42000001668930054,-0.4727539122104645,2.9999992847442627,-0.8452551960945129,-2.9998369216918945,-0.18014128506183624,-0.18195566534996033,-0.18150530755519867,-0.17861038446426392,-0.3975442051887512,-0.2361980378627777,-0.06672294437885284,0.10414054989814758
0.4,0.000976781127974391,0.12192222476005554,0.0,0.883544385433197,0.0,0.0,-0.468347430229187,-0.8302102088928223,-0.8493092060089111,0.0,0.0,0.0,-5.627444267272949,-0.3345666825771332,0.7938385009765625,0.4204947352409363,0.968633234500885,0.00029178839758969843,-0.01036904752254486,-0.24827823042869568,1.8143222332000732,0.6755762696266174,0.45140504837036133,-6.11447286605835,-10.350260734558105,-4.396957874298096,-0.3405444622039795,0.7976109385490417,0.4212874174118042,1.2234771251678467,1.0019245147705078,0.12699836492538452,0.40453290939331055,0.6922462582588196,0.42000001668930054,-0.42269495129585266,2.979138135910034,-0.8952600359916687,-2.998220205307007,-0.1878686100244522,-0.18675380945205688,-0.1831904649734497,-0.17712584137916565,-0.43847471475601196,-0.26457762718200684,-0.0783272236585617,0.11245424300432205
0.4166666666666667,-0.00901971198618412,0.10523834079504013,0.0,0.8504176735877991,0.0,0.0,-0.5261080861091614,-0.5456019639968872,-1.0469954013824463,0.0,0.0,0.0,-8.78699016571045,-0.2996922433376312,0.8151016235351562,0.4248582720756531,0.9544273018836975,0.006940922699868679,-0.04287995770573616,-0.29526522755622864,2.9923219680786133,1.6921780109405518,0.5732091069221497,-2.207491159439087,-2.474271774291992,-6.963484287261963,-0.3051737844944,0.8204827308654785,0.4251435399055481,3.0090596675872803,1.7066240310668945,0.4336896538734436,0.40453290939331055,0.6922462582588196,0.42000001668930054,-0.3812308609485626,1.3477106094360352,-0.9452823996543884,-2.9995007514953613,-0.19517450034618378,-0.19095684587955475,-0.18411923944950104,-0.17475202679634094,-0.4875337779521942,-0.2800024449825287,-0.06622650474309921,0.14447952806949615
0.43333333333333335,-0.01636703684926033,0.0941445454955101,0.0,0.7991452813148499,0.0,0.0,-0.6011379361152649,-0.3881150186061859,-0.5331614017486572,0.0,0.0,0.0,-11.732121467590332,-0.2237909883260727,0.8458542227745056,0.43266361951828003,0.9281556010246277,0.06263686716556549,-0.08573529124259949,-0.3567255139350891,6.004539966583252,1.730502963066101,0.5839906930923462,17.6551513671875,-17.44517707824707,6.187897205352783,-0.22868981957435608,0.8515344858169556,0.43295401334762573,5.84072208404541,2.1486151218414307,0.5864729285240173,0.40453290939331055,0.6922462582588196,0.42000001668930054,-0.37031975388526917,0.5149660110473633,-0.9080265164375305,2.9975361824035645,-0.20983387529850006,-0.2018488198518753,-0.19014465808868408,-0.17634356021881104,-0.869583249092102,-0.7348719835281372,-0.4535209834575653,-0.208439439535141
0.45,-0.02038622461259365,0.08648872375488281,0.0,0.7577071785926819,0.0,0.0,-0.6525946855545044,-0.19120794534683228,-0.42068204283714294,0.0,0.0,0.0,-6.747446537017822,-0.12855024635791779,0.8745333552360535,0.4444327652454376,0.8839485049247742,0.08486790955066681,-0.10565432161092758,-0.44751474261283875,5.827311992645264,1.050058364868164,1.073931097984314,14.43004322052002,-10.939903259277344,-2.942962408065796,-0.13323985040187836,0.8815100193023682,0.4445936679840088,5.8192267417907715,1.4347658157348633,0.7697405219078064,0.40453290939331055,0.6922462582588196,0.42000001668930054,-0.3597891926765442,0.7776470184326172,-0.9339550137519836,-2.9993295669555664,-0.21999169886112213,-0.21288375556468964,-0.1976792961359024,-0.18051283061504364,-0.522515594959259,-0.5716454386711121,-0.4097368121147156,-0.2589740455150604
0.4666666666666667,-0.02669328637421131,0.07401116192340851,0.0,0.7366613149642944,0.0,0.0,-0.676261842250824,-0.30855920910835266,-0.6584450006484985,0.0,0.0,0.0,-2.543255567550659,-0.0312897190451622,0.8883171081542969,0.4596962332725525,0.8315937519073486,0.10641400516033173,-0.05801792070269585,-0.5419979095458984,6.029531955718994,-0.6879457831382751,0.6991180181503296,4.453526973724365,-15.753835678100586,19.13677978515625,-0.035202380269765854,0.8969746232032776,0.4573424458503723,6.078941345214844,0.20496606826782227,0.8926441669464111,0.40453290939331055,0.6922462582588196,0.42000001668930054,-0.3450060486793518,0.8395057320594788,-0.9839790463447571,-3.00000262260437,-0.2267713099718094,-0.21919170022010803,-0.2008368819952011,-0.18075832724571228,-0.7325922250747681,-0.5663533210754395,-0.2879020571708679,-0.03324297070503235
0.48333333333333334,-0.0285999346524477,0.06672544032335281,0.0,0.7077183723449707,0.0,0.0,-0.7064946889877319,-0.1088467538356781,-0.4413948059082031,0.0,0.0,0.0,-5.687571048736572,0.0658012181520462,0.8793603181838989,0.4700954854488373,0.7712523937225342,0.11706800013780594,-0.02696210704743862,-0.6250901818275452,5.550765037536621,-1.4785524606704712,0.7069683074951172,0.7675456404685974,13.89589786529541,2.4856717586517334,0.0631934106349945,0.8895211219787598,0.4669800400733948,5.847779273986816,-0.9581245183944702,0.4261346757411957,0.40453290939331055,0.6922462582588196,0.42000001668930054,-0.3323623836040497,0.5892486572265625,-1.0340018272399902,-2.9997546672821045,-0.23965080082416534,-0.2286788374185562,-0.2057017832994461,-0.18139061331748962,-0.5514193773269653,-0.3728219270706177,-0.14750032126903534,0.062484290450811386
0.5,-0.027891971170902252,0.061413947492837906,0.0,0.6939101815223694,0.0,0.0,-0.7200616002082825,0.09635087102651596,-0.19268213212490082,0.0,0.0,0.0,-1.109355092048645,0.15629848837852478,0.8575670123100281,0.47494474053382874,0.6883195638656616,0.09074720740318298,-0.026498155668377876,-0.7192209362983704,4.610472679138184,-2.413944721221924,0.11559681594371796,-10.442706108093262,-6.785689830780029,23.769336700439453,0.15339471399784088,0.8687163591384888,0.47235751152038574,5.245160102844238,-1.6038990020751953,0.2868371605873108,0.40453290939331055,0.6922462582588196,0.42000001668930054,-0.32446640729904175,0.30906251072883606,-1.0840239524841309,-3.0000033378601074,-0.23993128538131714,-0.23491527140140533,-0.2088501900434494,-0.18177755177021027,-0.010496088303625584,-0.2992318570613861,-0.16010381281375885,-0.04416583850979805
0.5166666666666666,-0.025891344994306564,0.05227639526128769,0.0,0.6702906489372253,0.0,0.0,-0.7420986890792847,0.07221093773841858,-0.5559552907943726,0.0,0.0,0.0,-4.693871021270752,0.23471184074878693,0.8289754390716553,0.47187671065330505,0.6184377074241638,0.02898620441555977,-0.0500093512237072,-0.7837050557136536,4.245203018188477,-1.9664288759231567,-0.2881634533405304,-9.262900352478027,-12.029779434204102,-4.9177446365356445,0.23156332969665527,0.8411060571670532,0.47210031747817993,4.215590000152588,-1.9027595520019531,-0.19805146753787994,0.40453290939331055,0.6922462582588196,0.42000001668930054,-0.31609436869621277,0.7231698632240295,-1.1340460777282715,-3.0000040531158447,-0.23385682702064514,-0.23345650732517242,-0.20682618021965027,-0.17950305342674255,0.3287976086139679,0.13298764824867249,0.13952094316482544,0.12256970256567001
0.5333333333333333,-0.02196323312819004,0.04785976558923721,0.0,0.6610870361328125,0.0,0.0,-0.7503092288970947,0.2703666388988495,-0.20993660390377045,0.0,0.0,0.0,-0.34716397523880005,0.29834383726119995,0.7970407009124756,0.4635082185268402,0.5676077604293823,-0.005133884958922863,-0.04758453369140625,-0.8219067454338074,3.177422046661377,-3.160902976989746,-0.4358353614807129,20.310340881347656,3.512883424758911,-5.168530464172363,0.2956197261810303,0.8063869476318359,0.46605950593948364,3.456533908843994,-2.1213507652282715,-0.49795424938201904,0.40453290939331055,0.6922462582588196,0.42000001668930054,-0.29577600955963135,1.5341216325759888,-1.184068202972412,-2.999627113342285,-0.23172485828399658,-0.2330036461353302,-0.20630383491516113,-0.1793774515390396,0.1699538677930832,0.10370168089866638,0.06376870721578598,-0.001519839745014906
0.55,-0.01563957706093788,0.04088762030005455,0.0,0.6432321667671204,0.0,0.0,-0.7656711935997009,0.4278809428215027,-0.4669986069202423,0.0,0.0,0.0,-3.682124614715576,0.34791114926338196,0.7627487778663635,0.449697881937027,0.5297558903694153,-0.04687781631946564,-0.018165651708841324,-0.8466587662696838,2.5425784587860107,-2.9577760696411133,-0.9213658571243286,-7.509448528289795,-14.449493408203125,15.061050415039062,0.34648311138153076,0.7721861600875854,0.4525907039642334,2.5210299491882324,-1.9799607992172241,-0.9117450714111328,0.40453290939331055,0.6922462582588196,0.42000001668930054,-0.27592751383781433,0.6660338640213013,-1.2340903282165527,-3.0000007152557373,-0.22597888112068176,-0.22842223942279816,-0.20354096591472626,-0.178750142455101,0.3208605647087097,0.28821828961372375,0.15718898177146912,0.0073049901984632015
0.5666666666666667,-0.011148055084049702,0.03671745955944061,0.0,0.6391417980194092,0.0,0.0,-0.7690889239311218,0.2031877338886261,-0.18857543170452118,0.0,0.0,0.0,0.2841363847255707,0.3845072090625763,0.7281076312065125,0.43206727504730225,0.4981219470500946,-0.0856894925236702,0.0006115282303653657,-0.8628622889518738,1.7272778749465942,-2.423863649368286,-1.0593054294586182,-1.6983082294464111,8.310568809509277,2.502326250076294,0.3830767869949341,0.7370117902755737,0.4352898597717285,1.8139503002166748,-2.024127721786499,-1.0944610834121704,0.40453290939331055,0.6922462582588196,0.42000001668930054,-0.27054038643836975,0.16628403961658478,-1.284104824066162,-3.0000009536743164,-0.22148719429969788,-0.22405874729156494,-0.20171505212783813,-0.17974218726158142,0.32764071226119995,0.3160214126110077,0.12491001933813095,-0.07797091454267502
0.5833333333333334,-0.0058975862339138985,0.03646377846598625,0.0,0.6261273622512817,0.0,0.0,-0.7797208428382874,0.3588484525680542,0.046697720885276794,0.0,0.0,0.0,-2.8791778087615967,0.4044421911239624,0.706607460975647,0.42541199922561646,0.5070722699165344,-0.07940594851970673,0.006009297911077738,-0.8582168221473694,0.6887661218643188,-1.0743077993392944,-0.1359550803899765,-6.175389766693115,-3.933682918548584,7.361421585083008,0.4020198583602905,0.7151158452033997,0.42878347635269165,0.7609946727752686,-0.9382810592651367,-0.1053067296743393,0.40453290939331055,0.6922462582588196,0.42000001668930054,-0.25952276587486267,0.9690313339233398,-1.245880126953125,2.9997222423553467,-0.21429386734962463,-0.21790027618408203,-0.1997602880001068,-0.18187592923641205,0.5075528621673584,0.42732879519462585,0.14189030230045319,-0.128972128033638
0.6,0.001897585578262806,0.03171602264046669,0.0,0.6261792182922363,0.0,0.0,-0.7796791791915894,0.46105214953422546,-0.2590290904045105,0.0,0.0,0.0,0.9175229668617249,0.41232484579086304,0.6955177187919617,0.4256329834461212,0.5263100862503052,-0.09064596891403198,0.023295197635889053,-0.8451261520385742,0.1675892174243927,-0.643751323223114,0.06439314782619476,2.2638306617736816,3.454202890396118,5.482728958129883,0.4096461534500122,0.7031917572021484,0.42973750829696655,0.15760371088981628,-0.5886325836181641,0.11637821048498154,0.40453290939331055,0.6922462582588196,0.42000001668930054,-0.2637203335762024,-1.0108227729797363,-1.266206979751587,-3.000255823135376,-0.20203176140785217,-0.20727916061878204,-0.1943657398223877,-0.18139266967773438,0.6008104681968689,0.5491218566894531,0.2706668972969055,0.006645547691732645
0.6166666666666667,0.0074963998049497604,0.030961045995354652,0.0,0.6152657866477966,0.0,0.0,-0.7883197069168091,0.2540155053138733,-0.06427399814128876,0.0,0.0,0.0,-2.4814865589141846,0.41389212012290955,0.6872987151145935,0.42479419708251953,0.5567299127578735,-0.08683423697948456,0.029980681836605072,-0.825598418712616,0.11435403674840927,-0.3064908981323242,-0.06492993980646133,1.4781159162521362,-2.346644639968872,4.463695049285889,0.4110225439071655,0.6965840458869934,0.4282854199409485,0.08753852546215057,-0.2279691994190216,-0.10640363395214081,0.40453290939331055,0.6922462582588196,0.42000001668930054,-0.2849609851837158,-1.4845870733261108,-1.228079915046692,2.999718427658081,-0.19280177354812622,-0.19889412820339203,-0.1905691921710968,-0.181890070438385,0.6510356664657593,0.579819917678833,0.2904857397079468,0.023819630965590477
0.6333333333333333,0.013208429329097271,0.032819949090480804,0.0,0.6179611086845398,0.0,0.0,-0.7862086892127991,0.37610605359077454,0.17441439628601074,0.0,0.0,0.0,1.2919460535049438,0.41474878787994385,0.6833113431930542,0.42242807149887085,0.5791862607002258,-0.04178737848997116,0.015849381685256958,-0.8139691352844238,-0.046301618218421936,-0.13809601962566376,-0.1518140584230423,0.6435748934745789,-6.387725353240967,2.3545258045196533,0.41137194633483887,0.6949200630187988,0.4293661415576935,-0.043888937681913376,0.016430482268333435,0.13394685089588165,0.40453290939331055,0.6922462582588196,0.42000001668930054,-0.32478246092796326,-2.999997138977051,-1.248713493347168,-2.9994406700134277,-0.18374103307724,-0.1907908171415329,-0.18689598143100739,-0.1822492629289627,0.508554995059967,0.4581174850463867,0.20740321278572083,-0.020705653354525566
0.65,0.02086697146296501,0.03168610855937004,0.0,0.6376751065254211,0.0,0.0,-0.7703054547309875,0.5045292973518372,-0.07623515278100967,0.0,0.0,0.0,3.8738999366760254,0.4133920669555664,0.6821035146713257,0.4200396239757538,0.5899426341056824,0.0006225347169674933,-0.0006434191600419581,-0.8074446320533752,-0.1023934930562973,0.019207147881388664,-0.0025102982763201,-0.4389999210834503,-0.0732174962759018,-1.3329294919967651,0.40983957052230835,0.6971601843833923,0.4318135380744934,-0.15244239568710327,0.13486656546592712,0.15957173705101013,0.40453290939331055,0.6922462582588196,0.42000001668930054,-0.3747933804988861,-3.0000112056732178,-1.2986830472946167,-2.998600721359253,-0.17347608506679535,-0.18145711719989777,-0.18162041902542114,-0.18066363036632538,0.4808749854564667,0.46317410469055176,0.267270565032959,0.08796358108520508
0.6666666666666666,0.030848205089569092,0.029738664627075195,0.0,0.6435092687606812,0.0,0.0,-0.7654383182525635,0.621419370174408,-0.20099946856498718,0.0,0.0,0.0,-0.13340343534946442,0.41188526153564453,0.6826189756393433,0.42000001668930054,0.5878075957298279,3.66507606486266e-06,-1.9225483072204952e-07,-0.8090007901191711,-0.07144125550985336,0.02566407062113285,-3.0591636459575966e-05,-0.0012676353799179196,0.0019037892343476415,-0.4045487940311432,0.4080541431903839,0.7005162239074707,0.4350310266017914,-0.0713646411895752,0.221327006816864,0.22351862490177155,0.40453290939331055,0.6922462582588196,0.42000001668930054,-0.42480623722076416,-2.9994688034057617,-1.3486436605453491,-2.999187707901001,-0.16648830473423004,-0.17445720732212067,-0.17729318141937256,-0.1787363737821579,0.4284130036830902,0.43844160437583923,0.30279022455215454,0.18240317702293396
0.6833333333333333,0.04250447452068329,0.024184318259358406,0.0,0.657085120677948,0.0,0.0,-0.7538163661956787,0.7353653311729431,-0.4131602644920349,0.0,0.0,0.0,3.344055414199829,0.4106726348400116,0.6829084157943726,0.42032590508461,0.589380145072937,0.004770263098180294,-0.006609019357711077,-0.8078147172927856,-0.09714052081108093,0.027642086148262024,0.04714559391140938,-0.7307812571525574,-2.2413763999938965,-0.3021809458732605,0.40620124340057373,0.7023871541023254,0.4413672089576721,-0.1288967877626419,0.051916807889938354,0.602799654006958,0.40453290939331055,0.6922462582588196,0.42000001668930054,-0.47482016682624817,-2.999998092651367,-1.3986619710922241,-2.999999523162842,-0.16256183385849,-0.1693533957004547,-0.17311976850032806,-0.17524713277816772,0.156706303358078,0.260559618473053,0.2560059130191803,0.2665822505950928
0.7,0.05619245395064354,0.016074420884251595,0.0,0.6598413586616516,0.0,0.0,-0.7514049410820007,0.8463846445083618,-0.5738423466682434,0.0,0.0,0.0,-0.5731834173202515,0.40962255001068115,0.6832045912742615,0.42026081681251526,0.5882977843284607,0.0038479208014905453,-0.005292813293635845,-0.8086178302764893,-0.05141991376876831,0.014451222494244576,-0.02067861333489418,0.32434776425361633,1.0063358545303345,-0.1346605271100998,0.40857869386672974,0.7030124664306641,0.4499998092651367,0.36977991461753845,-0.013372227549552917,0.5849530696868896,0.40453290939331055,0.6922462582588196,0.42000001668930054,-0.5248327255249023,-3.0000014305114746,-1.4486802816390991,-3.0000007152557373,-0.16164769232273102,-0.16634373366832733,-0.16950133442878723,-0.1707504391670227,0.04157098010182381,0.17678508162498474,0.2397327870130539,0.31948795914649963
0.7166666666666667,0.07228182256221771,0.00879148580133915,0.0,0.6397575736045837,0.0,0.0,-0.7685767412185669,0.9883619546890259,-0.43883997201919556,0.0,0.0,0.0,-4.021176338195801,0.4094797372817993,0.6832385659217834,0.4200000464916229,0.5880969166755676,5.160135060577886e-06,-5.85877842240734e-06,-0.8087904453277588,0.0006479831063188612,-0.00028345207101665437,-0.00026909285224974155,0.00324054597876966,0.0032238594722002745,-0.00200147507712245,0.4199284613132477,0.7027302980422974,0.46748965978622437,1.0160162448883057,0.02818485163152218,1.5974857807159424,0.40453290939331055,0.6922462582588196,0.42000001668930054,-0.5748449563980103,-2.999824047088623,-1.4986985921859741,-3.000000238418579,-0.16431353986263275,-0.16650022566318512,-0.16812558472156525,-0.1676095426082611,-0.11389631778001785,0.007963424548506737,0.08655214309692383,0.18063578009605408
0.7333333333333333,0.08575210720300674,0.004058306571096182,0.0,0.6333922147750854,0.0,0.0,-0.7738308906555176,0.7271295785903931,-0.21555396914482117,0.0,0.0,0.0,-0.012951258569955826,0.4094803035259247,0.6832385659217834,0.4200000464916229,0.5880966186523438,5.009636652175686e-07,-3.493118128972128e-06,-0.8087906837463379,0.00011237283615628257,-0.0002682689228095114,-9.044981561601162e-05,0.006251728627830744,-0.001373262028209865,-0.0006586724193766713,0.4395902752876282,0.7058300971984863,0.4993854761123657,1.251769781112671,0.3387060761451721,2.2065322399139404,0.40453290939331055,0.6922462582588196,0.42000001668930054,-0.6123175024986267,-1.5904138088226318,-1.5487169027328491,-2.999999523162842,-0.16607685387134552,-0.16692903637886047,-0.16778238117694855,-0.16630038619041443,-0.07133249938488007,-0.028447888791561127,-0.012288957834243774,0.01147473230957985
0.75,0.09492853283882141,0.002661558100953698,0.0,0.649884045124054,0.0,0.0,-0.760033369064331,0.491094172000885,-0.030071619898080826,0.0,0.0,0.0,3.394594669342041,0.4094803035259247,0.6832385659217834,0.4200000464916229,0.588096559047699,4.829845465792459e-07,-3.1078941447049147e-06,-0.8087906837463379,0.00011537795217009261,-0.00027053471421822906,-9.126495569944382e-05,0.006291622761636972,-0.0013524306705221534,-0.0006683595129288733,0.45963722467422485,0.7087875604629517,0.5289428234100342,1.0977792739868164,0.10665179044008255,1.4467377662658691,0.40453290939331055,0.6922462582588196,0.42000001668930054,-0.6110998392105103,1.46806001663208,-1.5369462966918945,2.999998092651367,-0.16682706773281097,-0.16691100597381592,-0.16733220219612122,-0.16538070142269135,0.0022548323031514883,0.04727834835648537,0.0763503834605217,0.1022111251950264
0.7666666666666666,0.09982949495315552,-0.0016605565324425697,0.0,0.6528459191322327,0.0,0.0,-0.7574906945228577,0.2138252556324005,-0.2590407729148865,0.0,0.0,0.0,-0.5687126517295837,0.4094803035259247,0.6832385659217834,0.4200000464916229,0.5880966186523438,5.029818908042216e-07,-3.083149294980103e-06,-0.8087905645370483,0.00011540971172507852,-0.0002705142251215875,-9.127939119935036e-05,0.006291000638157129,-0.0013520856155082583,-0.0006684186519123614,0.4708215296268463,0.7107251882553101,0.5468538999557495,0.20609019696712494,0.03295057266950607,0.8649047613143921,0.40453290939331055,0.6922462582588196,0.42000001668930054,-0.6011690497398376,-0.14494255185127258,-1.4868898391723633,2.9999990463256836,-0.16571088135242462,-0.16509394347667694,-0.16502752900123596,-0.162733256816864,-0.047808658331632614,0.022743897512555122,0.08073710650205612,0.12221365422010422
0.7833333333333333,0.10113951563835144,-0.002034861594438553,0.0,0.665343165397644,0.0,0.0,-0.7465376853942871,0.038287270814180374,-0.000601105042733252,0.0,0.0,0.0,2.759950876235962,0.4094803035259247,0.6832385659217834,0.4200000464916229,0.5880967378616333,4.76972729757108e-07,-3.056018613278866e-06,-0.8087905645370483,0.00011528129107318819,-0.00027053875965066254,-9.124306961894035e-05,0.006292220205068588,-0.001353638363070786,-0.0006681586964987218,0.4739672541618347,0.7086493968963623,0.5586543083190918,0.22261926531791687,-0.15225103497505188,0.6088749170303345,0.40453290939331055,0.6922462582588196,0.42000001668930054,-0.5884796380996704,1.5125112533569336,-1.503288984298706,-3.0,-0.16818580031394958,-0.16605694591999054,-0.16460196673870087,-0.16122406721115112,-0.042095620185136795,0.024917999282479286,0.09156908094882965,0.1423589289188385
0.8,0.10206937044858932,-0.0050478228367865086,0.0,0.6645113229751587,0.0,0.0,-0.7472782135009766,0.06884334236383438,-0.24807187914848328,0.0,0.0,0.0,-1.0505257844924927,0.4094803035259247,0.6832385659217834,0.4200000464916229,0.5880966186523438,4.690620585279248e-07,-3.0286028049886227e-06,-0.8087906241416931,0.00011534713848959655,-0.0002706158848013729,-9.128241799771786e-05,0.006293510086834431,-0.0013539534993469715,-0.0006684566615149379,0.47417065501213074,0.7081696391105652,0.5642309188842773,-0.20366816222667694,0.00819217599928379,0.21260622143745422,0.40453290939331055,0.6922462582588196,0.42000001668930054,-0.5826587080955505,-0.6323864459991455,-1.464555263519287,3.0,-0.1678992360830307,-0.16505463421344757,-0.16283056139945984,-0.1589457243680954,0.00445925397798419,0.04319584742188454,0.08641534298658371,0.11221028119325638
0.8166666666666667,0.10520324856042862,-0.0054253782145679,0.0,0.6739497780799866,0.0,0.0,-0.7387771606445312,0.2290562242269516,0.01861726865172386,0.0,0.0,0.0,2.258126974105835,0.4094803035259247,0.6832385063171387,0.4200000464916229,0.5880963802337646,6.785749064874835e-07,-3.0998237434687326e-06,-0.8087907433509827,0.00011760877532651648,-0.00026920283562503755,-9.179930202662945e-05,0.00624634837731719,-0.0013197270454838872,-0.0006715888739563525,0.4724254906177521,0.7064464092254639,0.5680371522903442,0.028687797486782074,-0.11814140528440475,0.29605919122695923,0.40453290939331055,0.6922462582588196,0.42000001668930054,-0.5835315585136414,0.4354507327079773,-1.48143470287323,-2.999999761581421,-0.168877974152565,-0.1652947962284088,-0.16213414072990417,-0.15752455592155457,0.012821603566408157,0.03974568098783493,0.08541758358478546,0.12398626655340195
0.8333333333333334,0.10630390793085098,-0.00918273814022541,0.0,0.6712811589241028,0.0,0.0,-0.7412027716636658,0.01257232204079628,-0.24450042843818665,0.0,0.0,0.0,-1.240189790725708,0.4094803035259247,0.6832385659217834,0.4200000464916229,0.5880966782569885,4.914046485282597e-07,-3.0768658234592294e-06,-0.8087906241416931,0.00011565971362870187,-0.00027013642829842865,-9.13841649889946e-05,0.006279068998992443,-0.0013492450816556811,-0.0006686893757432699,0.473675936460495,0.704090416431427,0.5704614520072937,0.038499314337968826,-0.26659297943115234,0.1307588666677475,0.40453290939331055,0.6922462582588196,0.42000001668930054,-0.6043682098388672,-2.651235342025757,-1.4427601099014282,3.0000009536743164,-0.16707223653793335,-0.16324791312217712,-0.1594896763563156,-0.15436217188835144,0.011118798516690731,0.05025189742445946,0.10962177813053131,0.16236574947834015
0.85,0.10865045338869095,-0.009097821079194546,0.0,0.6633455157279968,0.0,0.0,-0.7483132481575012,0.1770603060722351,0.02514377050101757,0.0,0.0,0.0,-1.3192487955093384,0.4094803035259247,0.6832385659217834,0.4200000464916229,0.588096559047699,5.284029498398013e-07,-3.0538824375980766e-06,-0.8087906837463379,0.00011375844042049721,-0.0002703581703826785,-9.093014523386955e-05,0.006296118255704641,-0.0013713875086978078,-0.0006644671666435897,0.47687774896621704,0.7002833485603333,0.5745723247528076,0.379923939704895,-0.16485388576984406,0.4327230453491211,0.40453290939331055,0.6922462582588196,0.42000001668930054,-0.619491696357727,0.5706453323364258,-1.460090160369873,-3.0,-0.16849158704280853,-0.16407103836536407,-0.15933005511760712,-0.153277188539505,0.011966962367296219,0.017972281202673912,0.050976552069187164,0.08566632121801376
0.8666666666666667,0.11326359957456589,-0.012683307752013206,0.0,0.6717515587806702,0.0,0.0,-0.740776538848877,0.32279056310653687,-0.23853643238544464,0.0,0.0,0.0,2.1223971843719482,0.4094803035259247,0.6832385659217834,0.4200000464916229,0.5880966186523438,4.9112071565105e-07,-3.0235205485951155e-06,-0.8087905645370483,0.00011514528887346387,-0.00027056835824623704,-9.12095420062542e-05,0.006293687969446182,-0.0013553217286244035,-0.0006678873323835433,0.4829605221748352,0.6972169280052185,0.5848664045333862,0.34707337617874146,-0.22917315363883972,0.8342139720916748,0.40453290939331055,0.6922462582588196,0.42000001668930054,-0.6186350584030151,-0.38558679819107056,-1.4214755296707153,3.0000007152557373,-0.16638794541358948,-0.16203463077545166,-0.1569368839263916,-0.150498166680336,0.0366390086710453,0.05034860968589783,0.08586929738521576,0.12060479074716568
0.8833333333333333,0.11591818183660507,-0.01315722893923521,0.0,0.6753310561180115,0.0,0.0,-0.7375147342681885,0.0856940969824791,0.007653399370610714,0.0,0.0,0.0,-0.050162509083747864,0.4094803035259247,0.6832385659217834,0.4200000464916229,0.5880966782569885,4.752496636228898e-07,-2.9924819955340354e-06,-0.8087905645370483,0.00011503529094625264,-0.00027060077991336584,-9.118719026446342e-05,0.006295039318501949,-0.0013568750582635403,-0.0006676817429251969,0.48972088098526,0.6915138363838196,0.5955826044082642,0.4606863558292389,-0.42102211713790894,0.5731521248817444,0.40453290939331055,0.6922462582588196,0.42000001668930054,-0.6299164295196533,-0.9138092994689941,-1.439184546470642,-3.000000238418579,-0.16686201095581055,-0.1621338576078415,-0.1562867909669876,-0.14908044040203094,0.041433319449424744,0.05670691654086113,0.09476181864738464,0.13602697849273682
0.9,0.11932602524757385,-0.013842935673892498,0.0,0.6889859437942505,0.0,0.0,-0.7247747182846069,0.253875732421875,-0.02441447041928768,0.0,0.0,0.0,3.2666518688201904,0.4094803035259247,0.6832385659217834,0.4200000464916229,0.5880967378616333,4.873558623330609e-07,-2.9609050216095056e-06,-0.8087905645370483,0.00011490286124171689,-0.0002706334344111383,-9.115645661950111e-05,0.006296646781265736,-0.0013585846172645688,-0.0006674298783764243,0.49509984254837036,0.6857510805130005,0.6038166284561157,0.18585050106048584,-0.29108312726020813,0.48079049587249756,0.40453290939331055,0.6922462582588196,0.42000001668930054,-0.6187803745269775,1.989817500114441,-1.489202857017517,-2.9999988079071045,-0.1640375554561615,-0.15944348275661469,-0.15341761708259583,-0.14600396156311035,0.18160535395145416,0.17045211791992188,0.17239470779895782,0.17251861095428467
