vladlanda/robotic-transformer/data/env_000_episode_0291.csv
sim_time_s,robot_box_x,robot_box_y,robot_box_z,robot_box_quat_w,robot_box_quat_x,robot_box_quat_y,robot_box_quat_z,robot_box_linvel_x,robot_box_linvel_y,robot_box_linvel_z,robot_box_angvel_x,robot_box_angvel_y,robot_box_angvel_z,cube_world_x,cube_world_y,cube_world_z,cube_quat_w,cube_quat_x,cube_quat_y,cube_quat_z,cube_linvel_x,cube_linvel_y,cube_linvel_z,cube_angvel_x,cube_angvel_y,cube_angvel_z,endpoint_world_x,endpoint_world_y,endpoint_world_z,endpoint_linvel_x,endpoint_linvel_y,endpoint_linvel_z,target_cube_world_x,target_cube_world_y,target_cube_world_z,gripper_actual_pos_rad_gp_leftgearjoint,gripper_actual_vel_rad_s_gp_leftgearjoint,gripper_actual_pos_rad_gp_rotatingjoint,gripper_actual_vel_rad_s_gp_rotatingjoint,motor_angle_rad_joint1,motor_angle_rad_joint2,motor_angle_rad_joint3,motor_angle_rad_joint4,motor_speed_rad_s_joint1,motor_speed_rad_s_joint2,motor_speed_rad_s_joint3,motor_speed_rad_s_joint4
0.0,0.0,0.0,0.0,1.0,0.0,0.0,0.0,0.0,0.0,0.0,0.0,0.0,0.0,-0.41722241044044495,0.7073644995689392,0.41999998688697815,1.0,0.0,0.0,0.0,0.0,0.0,0.0,0.0,0.0,0.0,3.42540442943573e-06,-0.005000244826078415,1.313499927520752,0.0,0.0,0.0,0.3659732937812805,0.7045480608940125,0.42000001668930054,-1.5707999467849731,0.0,0.0,0.0,0.0,0.0,0.0,0.0,0.0,0.0,0.0,0.0
0.016666666666666666,0.0028778850100934505,0.0021806680597364902,0.0,0.9998081922531128,0.0,0.0,0.019586581736803055,0.24087215960025787,0.18240931630134583,0.0,0.0,0.0,3.1418697834014893,-0.4172225296497345,0.7073642015457153,0.41999998688697815,1.0,3.2799914606584935e-06,-8.339814598912199e-07,8.465387679734704e-08,-1.9833554688375443e-05,0.00017983050202019513,-6.133061833679676e-05,0.0009432226070202887,-0.004689437802881002,-0.0003198152990080416,-0.007110234349966049,0.003379564033821225,1.3159373998641968,-0.8143353462219238,0.9868683815002441,0.18095196783542633,0.3659732937812805,0.7045480608940125,0.42000001668930054,-1.5301095247268677,3.0000011920928955,-0.04584788903594017,-2.9999992847442627,0.0008691533003002405,0.0007963840034790337,0.0007110277656465769,0.0006108740926720202,0.11094217747449875,0.09756709635257721,0.08334315568208694,0.06823883205652237
0.03333333333333333,0.008960986509919167,0.006801962852478027,0.0,0.9997960329055786,0.0,0.0,0.020196842029690742,0.4070218801498413,0.31530824303627014,0.0,0.0,0.0,-0.8691310286521912,-0.41722264885902405,0.7073641419410706,0.4200000464916229,1.0,3.390914116607746e-06,-2.132455392711563e-06,-3.71076644967161e-08,0.0002635782293509692,0.00026937935035675764,-0.00010509486310184002,-0.001770757487975061,0.0041308156214654446,-0.00013547815615311265,-0.027551688253879547,0.026150669902563095,1.316603660583496,-1.5914528369903564,1.6158185005187988,-0.08407119661569595,0.3659732937812805,0.7045480608940125,0.42000001668930054,-1.4800904989242554,3.000000238418579,-0.09588772058486938,-3.0000011920928955,0.0029901231173425913,0.0026527384761720896,0.0022773141972720623,0.0018607740057632327,0.16421808302402496,0.13976220786571503,0.1138215959072113,0.08630406111478806
0.05,0.017592575401067734,0.013738743960857391,0.0,0.9994290471076965,0.0,0.0,0.03378693759441376,0.5892762541770935,0.4638800323009491,0.0,0.0,0.0,2.6769046783447266,-0.41722267866134644,0.7073642015457153,0.4200000464916229,1.0,3.7652293940482195e-06,-2.2118967990536476e-06,5.613899567435965e-09,0.000265309150563553,0.0002669153909664601,-0.0001044049859046936,-0.00172426737844944,0.004177379421889782,-0.0001294983085244894,-0.05958984047174454,0.0541858896613121,1.3115580081939697,-2.1860287189483643,1.7672184705734253,-0.4788581132888794,0.3659732937812805,0.7045480608940125,0.42000001668930054,-1.4300721883773804,3.0,-0.14592638611793518,-2.9999992847442627,0.005649725440889597,0.004860790446400642,0.00399977620691061,0.003062177449464798,0.19163267314434052,0.15474607050418854,0.11599314212799072,0.07528002560138702
0.06666666666666667,0.028836283832788467,0.02301172725856304,0.0,0.9994907975196838,0.0,0.0,0.03190745413303375,0.7160899639129639,0.5940626859664917,0.0,0.0,0.0,-1.1837502717971802,-0.41722267866134644,0.7073641419410706,0.4200000464916229,0.9999999403953552,3.4068445984303253e-06,-2.2855729184811935e-06,4.300823945868615e-07,0.000267024093773216,0.0002679175231605768,-0.0001043803058564663,-0.0017406325787305832,0.004211729858070612,-0.00012850853090640157,-0.09644198417663574,0.0890156626701355,1.2995153665542603,-2.2670249938964844,2.2914164066314697,-0.9399374723434448,0.3659732937812805,0.7045480608940125,0.42000001668930054,-1.3800538778305054,3.0000009536743164,-0.19594429433345795,-3.0000014305114746,0.008040640503168106,0.006499983835965395,0.004848810378462076,0.0030799235682934523,0.12977764010429382,0.07228643447160721,0.01273838896304369,-0.048896562308073044
0.08333333333333333,0.03777271509170532,0.03502096235752106,0.0,0.9999998807907104,0.0,0.0,-0.0005544287851080298,0.4304479658603668,0.783443808555603,0.0,0.0,0.0,-4.818121910095215,-0.41722267866134644,0.7073641419410706,0.4200000464916229,0.9999999403953552,3.6261940294934902e-06,-2.335324097657576e-06,3.032077131592814e-07,0.00026613869704306126,0.00026684990734793246,-0.00010405178181827068,-0.0017283851047977805,0.004196336027234793,-0.00012790512118954211,-0.13259539008140564,0.1313183307647705,1.2805016040802002,-2.119750499725342,2.655783176422119,-1.296733021736145,0.3659732937812805,0.7045480608940125,0.42000001668930054,-1.3300272226333618,2.9999969005584717,-0.16218027472496033,3.000002384185791,0.00676318071782589,0.0043745641596615314,0.0018314310582354665,-0.0008753141155466437,-0.17564839124679565,-0.22964416444301605,-0.2859705984592438,-0.34478574991226196
0.1,0.04164397716522217,0.04914131760597229,0.0,0.9998535513877869,0.0,0.0,-0.017113815993070602,0.1394600123167038,0.7564159035682678,0.0,0.0,0.0,-0.6624888777732849,-0.41722267866134644,0.7073641419410706,0.4200000464916229,1.0,3.4221902751596645e-06,-2.308589955646312e-06,1.7962148035621794e-07,0.0002668164379429072,0.00026800547493621707,-0.00010440824553370476,-0.0017430244479328394,0.0042070322670042515,-0.00012891182268504053,-0.17021474242210388,0.17162109911441803,1.258972406387329,-2.246201515197754,2.410097122192383,-1.2325232028961182,0.3659732937812805,0.7045480608940125,0.42000001668930054,-1.2800312042236328,3.0000014305114746,-0.19386713206768036,-3.0,0.0020583667792379856,-0.0013777129352092743,-0.004991622641682625,-0.008795042522251606,-0.24153828620910645,-0.3269403278827667,-0.41199010610580444,-0.4967532455921173
0.11666666666666667,0.051688406616449356,0.06545989960432053,0.0,0.998974084854126,0.0,0.0,-0.045285820960998535,0.6270691156387329,0.977851927280426,0.0,0.0,0.0,-4.162109375,-0.41722267866134644,0.7073642015457153,0.4200000464916229,1.0,3.711589897648082e-06,-2.3326886093855137e-06,2.5741837816894986e-07,0.0002648572262842208,0.00026635400718078017,-0.00010423408821225166,-0.0017182240262627602,0.004170028958469629,-0.00012915991828776896,-0.20367544889450073,0.22012221813201904,1.2371089458465576,-1.8694535493850708,3.2740187644958496,-1.4194505214691162,0.3659732937812805,0.7045480608940125,0.42000001668930054,-1.2300045490264893,2.99996280670166,-0.16214686632156372,2.9999969005584717,0.003953469917178154,-0.001781368046067655,-0.007635418325662613,-0.013617701828479767,-0.035727690905332565,-0.15928708016872406,-0.28033047914505005,-0.39866286516189575
0.13333333333333333,0.05885886028409004,0.07952158153057098,0.0,0.9949991106987,0.0,0.0,-0.09988364577293396,0.38508209586143494,0.7957602143287659,0.0,0.0,0.0,-7.312122344970703,-0.41722267866134644,0.7073641419410706,0.4200000464916229,1.0,3.3358228392899036e-06,-2.231935013696784e-06,3.112950253125746e-07,0.0002666969667188823,0.0002675944415386766,-0.00010428577661514282,-0.001737116021104157,0.004205859266221523,-0.00012840113777201623,-0.2350325733423233,0.275604248046875,1.2125296592712402,-1.8901399374008179,3.3946194648742676,-1.5325665473937988,0.3659732937812805,0.7045480608940125,0.42000001668930054,-1.1931122541427612,1.5224443674087524,-0.1938832849264145,-3.000000238418579,0.0012056652922183275,-0.006412786897271872,-0.01410169992595911,-0.021867360919713974,-0.20553246140480042,-0.3118547201156616,-0.41480135917663574,-0.5141927599906921
0.15,0.06309934705495834,0.09018018841743469,0.0,0.9911547303199768,0.0,0.0,-0.13271144032478333,0.20199038088321686,0.5689340233802795,0.0,0.0,0.0,-2.8584883213043213,-0.41722267866134644,0.7073641419410706,0.4200000464916229,1.0,3.519018036968191e-06,-2.283167304995004e-06,-3.6257034707887215e-07,0.0002661826729308814,0.00026735695428214967,-0.00010425667278468609,-0.0017348745604977012,0.0041956654749810696,-0.00012861077266279608,-0.2734181880950928,0.329701691865921,1.1807703971862793,-2.2934155464172363,3.491037130355835,-2.2631607055664062,0.3659732937812805,0.7045480608940125,0.42000001668930054,-1.1483137607574463,3.0000007152557373,-0.2214663177728653,-0.5071759819984436,-0.003175398800522089,-0.012255155481398106,-0.021338555961847305,-0.030431030318140984,-0.3229594826698303,-0.3904351592063904,-0.45404234528541565,-0.513859212398529
0.16666666666666666,0.06372151523828506,0.10151543468236923,0.0,0.9844653606414795,0.0,0.0,-0.1755790412425995,-0.02957942895591259,0.727423369884491,0.0,0.0,0.0,-6.024454116821289,-0.41722267866134644,0.7073641419410706,0.4200000464916229,1.0,3.6667258882516762e-06,-2.339165348530514e-06,-3.15039500264902e-07,0.00026595863164402544,0.00026667414931580424,-0.00010403385385870934,-0.0017252492252737284,0.004192721098661423,-0.0001277857372770086,-0.3102383613586426,0.3906739056110382,1.1399118900299072,-1.9865831136703491,3.90789794921875,-2.658360719680786,0.3659732937812805,0.7045480608940125,0.42000001668930054,-1.0983192920684814,3.000002145767212,-0.268429696559906,-3.000000238418579,-0.010505877435207367,-0.020626211538910866,-0.030676977708935738,-0.040665000677108765,-0.5278704762458801,-0.5790213346481323,-0.6260387897491455,-0.6690366268157959
0.18333333333333332,0.06771518290042877,0.1123548373579979,0.0,0.9795616269111633,0.0,0.0,-0.2011442631483078,0.2564445436000824,0.6155339479446411,0.0,0.0,0.0,-1.914196491241455,-0.41722267866134644,0.7073641419410706,0.4200000464916229,1.0,3.8144250993354945e-06,-2.399531922492315e-06,-2.7030498017666105e-07,0.0002654914278537035,0.0002661098842509091,-0.00010391091927886009,-0.0017177292611449957,0.004184796009212732,-0.00012753943155985326,-0.3466067314147949,0.45243752002716064,1.0870327949523926,-2.035743236541748,3.8078866004943848,-3.652608871459961,0.3659732937812805,0.7045480608940125,0.42000001668930054,-1.0581647157669067,1.8813610076904297,-0.31845706701278687,-3.000000476837158,-0.019135350361466408,-0.02959924377501011,-0.03994351252913475,-0.050182145088911057,-0.6836801171302795,-0.6628183722496033,-0.6409279108047485,-0.6186010241508484
0.2,0.06765803694725037,0.1249837875366211,0.0,0.9713096618652344,0.0,0.0,-0.23781827092170715,-0.03786332532763481,0.7834445834159851,0.0,0.0,0.0,-5.301820755004883,-0.41722267866134644,0.7073641419410706,0.4200000464916229,1.0,3.6001674743602052e-06,-2.2912513486517128e-06,-2.2022591394943447e-07,0.00026572938077151775,0.00026644972967915237,-0.00010398100130259991,-0.0017226784257218242,0.004188738763332367,-0.00012773544585797936,-0.37837356328964233,0.5168316960334778,1.0204694271087646,-1.6532008647918701,3.9568910598754883,-4.22396993637085,0.3659732937812805,0.7045480608940125,0.42000001668930054,-1.0101653337478638,2.999999761581421,-0.3684830069541931,-3.000000238418579,-0.033842768520116806,-0.044534217566251755,-0.05457855388522148,-0.06400775909423828,-0.8885139226913452,-0.9017855525016785,-0.8874503970146179,-0.8434723615646362
0.21666666666666667,0.07217481732368469,0.13360771536827087,0.0,0.966522753238678,0.0,0.0,-0.2565808594226837,0.29173263907432556,0.4275890588760376,0.0,0.0,0.0,-1.1462289094924927,-0.41722267866134644,0.7073641419410706,0.4200000464916229,0.9999999403953552,3.6397746043803636e-06,-2.2620124582317658e-06,2.2243006014832645e-07,0.0002668745000846684,0.0002675439463928342,-0.00010411837138235569,-0.0017403594683855772,0.004211117513477802,-0.00012783844431396574,-0.4074398875236511,0.5763424634933472,0.9433890581130981,-1.496190071105957,3.412189483642578,-5.03780460357666,0.3659732937812805,0.7045480608940125,0.42000001668930054,-0.9601607322692871,2.999999523162842,-0.4185112714767456,-3.0000011920928955,-0.04777393862605095,-0.05813783407211304,-0.06745551526546478,-0.07580174505710602,-0.9847977757453918,-0.93703693151474,-0.8541144728660583,-0.7575830817222595
0.23333333333333334,0.07089174538850784,0.14486919343471527,0.0,0.9575741291046143,0.0,0.0,-0.28818705677986145,-0.0613664835691452,0.6535223722457886,0.0,0.0,0.0,-4.6724700927734375,-0.41722264885902405,0.7073641419410706,0.4200000464916229,1.0,3.420889697736129e-06,-2.3168940970208496e-06,2.955453055619728e-07,0.0002668016531970352,0.0002680399629753083,-0.00010442547500133514,-0.001743792206980288,0.004206985235214233,-0.00012899565626867115,-0.4271151125431061,0.6265299320220947,0.852908730506897,-0.8539700508117676,2.7988975048065186,-5.564147472381592,0.3659732937812805,0.7045480608940125,0.42000001668930054,-0.9101500511169434,2.999976396560669,-0.4685412049293518,-2.9999985694885254,-0.06470265239477158,-0.07486496865749359,-0.08407439291477203,-0.09235920757055283,-0.7706039547920227,-0.7984814643859863,-0.8307695388793945,-0.8635133504867554
0.25,0.07497019320726395,0.15093998610973358,0.0,0.9534158110618591,0.0,0.0,-0.3016592264175415,0.24611057341098785,0.2785284221172333,0.0,0.0,0.0,-0.6234210729598999,-0.41722267866134644,0.7073641419410706,0.4200000464916229,0.9999999403953552,3.347767460581963e-06,-2.2592523691855604e-06,1.8078976893320942e-07,0.0002668780507519841,0.0002679115568753332,-0.0001043954398483038,-0.0017404912505298853,0.0042082685977220535,-0.00012870298814959824,-0.442658007144928,0.6642738580703735,0.7577834129333496,-0.675581693649292,1.8615531921386719,-5.916362285614014,0.3659732937812805,0.7045480608940125,0.42000001668930054,-0.8601393699645996,3.0,-0.5185720324516296,-2.999999761581421,-0.07734012603759766,-0.08723542094230652,-0.09630995243787766,-0.10455076396465302,-0.9893102049827576,-0.9239732027053833,-0.8626537322998047,-0.8113685846328735
0.26666666666666666,0.07429322600364685,0.15385796129703522,0.0,0.944959282875061,0.0,0.0,-0.32718798518180847,-0.1381443291902542,0.1308966875076294,0.0,0.0,0.0,-4.106371879577637,-0.41722267866134644,0.7073641419410706,0.4200000464916229,0.9999999403953552,3.5358500554139027e-06,-2.3003628939477494e-06,-1.2691810979958973e-07,0.0002660175377968699,0.00026712199905887246,-0.00010419590398669243,-0.0017316390294581652,0.004192817956209183,-0.00012849165068473667,-0.4482744634151459,0.6897106170654297,0.6577930450439453,0.10241086781024933,1.1339561939239502,-5.8480939865112305,0.3659732937812805,0.7045480608940125,0.42000001668930054,-0.8101294040679932,2.9999988079071045,-0.5686021447181702,-3.000000476837158,-0.0948924645781517,-0.10455771535634995,-0.11346546560525894,-0.12156470865011215,-1.0132601261138916,-1.0099409818649292,-1.0074201822280884,-1.0054259300231934
0.2833333333333333,0.07038582116365433,0.15404336154460907,0.0,0.9425757527351379,0.0,0.0,-0.3339924216270447,-0.2194223403930664,-0.046109095215797424,0.0,0.0,0.0,0.13401173055171967,-0.41722267866134644,0.7073642015457153,0.4200000464916229,1.0,3.5936495805799495e-06,-2.2626638838119106e-06,-5.6601077602635996e-08,0.0002670458925422281,0.0002677502343431115,-0.00010416866280138493,-0.00174320035148412,0.004214099608361721,-0.00012789093307219446,-0.4459289312362671,0.7020963430404663,0.5663113594055176,0.2801840901374817,0.525680661201477,-5.3157758712768555,0.3659732937812805,0.7045480608940125,0.42000001668930054,-0.7601206302642822,2.999997854232788,-0.6186317801475525,-2.9999964237213135,-0.11106221377849579,-0.12071636319160461,-0.12964826822280884,-0.13778939843177795,-0.9625173211097717,-0.9606550931930542,-0.960518479347229,-0.9616925120353699
0.3,0.06465006619691849,0.15143463015556335,0.0,0.935832679271698,0.0,0.0,-0.3524446189403534,-0.39578086137771606,-0.20234864950180054,0.0,0.0,0.0,-3.2076339721679688,-0.41722264885902405,0.7073641419410706,0.4200000464916229,0.9999999403953552,3.72519070879207e-06,-2.2360841285262723e-06,3.828263288596645e-07,0.0002647961082402617,0.0002667298831511289,-0.0001045397948473692,-0.0017189446371048689,0.004166670609265566,-0.0001301669835811481,-0.43644535541534424,0.7101010680198669,0.4763442277908325,0.9026129245758057,0.3386669158935547,-5.2679443359375,0.3659732937812805,0.7045480608940125,0.42000001668930054,-0.7101125121116638,3.0000016689300537,-0.6686595678329468,-2.9999985694885254,-0.1282898336648941,-0.13780957460403442,-0.1466405987739563,-0.1547025442123413,-1.0073013305664062,-1.0055220127105713,-1.0041654109954834,-1.003079891204834
0.31666666666666665,0.05658411979675293,0.14649173617362976,0.0,0.9352808594703674,0.0,0.0,-0.3539063632488251,-0.5192902684211731,-0.33648625016212463,0.0,0.0,0.0,0.7495656609535217,-0.41722267866134644,0.7073641419410706,0.4200000464916229,0.9999999403953552,3.5578991628426593e-06,-2.2789590730099007e-06,2.282979494339088e-07,0.0002659846213646233,0.00026658602291718125,-0.00010399054735898972,-0.0017241252353414893,0.0041935560293495655,-0.00012769702880177647,-0.4293121099472046,0.7136409282684326,0.42754828929901123,0.13741014897823334,-0.06170426681637764,-0.2636743485927582,0.3659732937812805,0.7045480608940125,0.42000001668930054,-0.6601075530052185,2.999967336654663,-0.7190698385238647,-2.999359607696533,-0.14161629974842072,-0.15143677592277527,-0.1602209359407425,-0.1678408533334732,-0.4280008375644684,-0.4862018823623657,-0.49713215231895447,-0.455400675535202
0.3333333333333333,0.046244505792856216,0.13929983973503113,0.0,0.9294217228889465,0.0,0.0,-0.3690192997455597,-0.6688157320022583,-0.47119733691215515,0.0,0.0,0.0,-2.8414690494537354,-0.415635883808136,0.7095555663108826,0.4200003743171692,0.9998414516448975,-4.528967110672966e-06,-9.52076334215235e-07,-0.017806796357035637,0.07730352133512497,0.1059931069612503,-0.00023305127979256213,0.012258711270987988,-0.0009403508738614619,-1.6244845390319824,-0.42795291543006897,0.7147458791732788,0.42471230030059814,0.21090027689933777,0.06261153519153595,-0.19182153046131134,0.3659732937812805,0.7045480608940125,0.42000001668930054,-0.6101018786430359,2.999999761581421,-0.7691609263420105,-2.9999802112579346,-0.14932307600975037,-0.15923702716827393,-0.1673617959022522,-0.17350763082504272,-0.5297365188598633,-0.48059725761413574,-0.39225733280181885,-0.26270022988319397
0.35,0.03370675817131996,0.12984006106853485,0.0,0.9296494126319885,0.0,0.0,-0.36844542622566223,-0.7901683449745178,-0.607227623462677,0.0,0.0,0.0,1.0186094045639038,-0.41320401430130005,0.7129746079444885,0.4200000464916229,0.9986552000045776,-1.273430029868905e-06,6.7024138843407854e-06,-0.05184267833828926,0.21111232042312622,0.3214913010597229,-0.00014210342487785965,0.006015243474394083,-0.004240155220031738,-8.279358863830566,-0.4232773780822754,0.7184574604034424,0.42171022295951843,0.3567337393760681,0.3418372869491577,-0.14910051226615906,0.3659732937812805,0.7045480608940125,0.42000001668930054,-0.5600968599319458,2.9999704360961914,-0.8192041516304016,-2.9999985694885254,-0.15918949246406555,-0.16755135357379913,-0.1735709011554718,-0.17705291509628296,-0.5765751004219055,-0.461832731962204,-0.3193742632865906,-0.14978161454200745
0.36666666666666664,0.02381618320941925,0.11781221628189087,0.0,0.9244754314422607,0.0,0.0,-0.38124167919158936,-0.5039834976196289,-0.7695451974868774,0.0,0.0,0.0,-2.522783041000366,-0.40926238894462585,0.7186744213104248,0.42000043392181396,0.9927149415016174,-1.2105886526114773e-05,1.2771452020388097e-05,-0.12048598378896713,0.2725270092487335,0.37729108333587646,-0.0006407806649804115,0.026209088042378426,-0.008850975893437862,-9.30263614654541,-0.4161127209663391,0.7231309413909912,0.41991376876831055,0.557903528213501,0.35725799202919006,-0.08513499796390533,0.3659732937812805,0.7045480608940125,0.42000001668930054,-0.5100920796394348,2.999986410140991,-0.8692586421966553,-2.9999797344207764,-0.16951052844524384,-0.17535656690597534,-0.17844192683696747,-0.17860917747020721,-0.5888157486915588,-0.41998323798179626,-0.2300388664007187,-0.02216210775077343
0.3833333333333333,0.01192514132708311,0.10409542918205261,0.0,0.9071252942085266,0.0,0.0,-0.4208606779575348,-0.723884105682373,-0.8799975514411926,0.0,0.0,0.0,-6.085882186889648,-0.4002486765384674,0.7296503782272339,0.42040279507637024,0.9835679531097412,-0.008466765284538269,-0.0003972783451899886,-0.18033869564533234,0.9013931155204773,1.0463595390319824,0.10584378242492676,-3.3313848972320557,-1.7463488578796387,-5.538427352905273,-0.4047315716743469,0.7328885793685913,0.42087501287460327,0.840104341506958,0.9533814191818237,0.11109641939401627,0.3659732937812805,0.7045480608940125,0.42000001668930054,-0.46003690361976624,3.000021457672119,-0.91926109790802,-2.999995231628418,-0.18051263689994812,-0.18322895467281342,-0.18286225199699402,-0.17932608723640442,-0.48665866255760193,-0.3320178985595703,-0.15761299431324005,0.03275451436638832
0.4,0.0034740185365080833,0.08724799007177353,0.0,0.8756581544876099,0.0,0.0,-0.4829314649105072,-0.45559555292129517,-1.0519462823867798,0.0,0.0,0.0,-9.07202434539795,-0.370259165763855,0.7563841342926025,0.42260539531707764,0.9711989760398865,-0.0006846163887530565,-0.03191325068473816,-0.23612162470817566,2.8777942657470703,1.916529655456543,0.3962756097316742,-4.833086967468262,-2.5991413593292236,8.603116989135742,-0.37516510486602783,0.7588170766830444,0.4229188561439514,2.747565984725952,2.168013334274292,0.2596161663532257,0.3659732937812805,0.7045480608940125,0.42000001668930054,-0.41005879640579224,2.888821840286255,-0.9605041146278381,-2.0064537525177,-0.18976464867591858,-0.1892411708831787,-0.18539150059223175,-0.17822469770908356,-0.638616144657135,-0.4062834084033966,-0.16603513062000275,0.07485335320234299
0.4166666666666667,-0.002461346797645092,0.07519939541816711,0.0,0.8271257877349854,0.0,0.0,-0.5620168447494507,-0.27640119194984436,-0.7344118356704712,0.0,0.0,0.0,-11.813359260559082,-0.2991279661655426,0.7965133190155029,0.4284127652645111,0.9517183303833008,0.05623936280608177,-0.06804196536540985,-0.2940060496330261,5.7085185050964355,2.875227212905884,0.26959046721458435,27.188945770263672,-16.88351821899414,5.320497512817383,-0.30353909730911255,0.8005353212356567,0.4284727871417999,5.33831262588501,2.951827049255371,0.50596684217453,0.3659732937812805,0.7045480608940125,0.42000001668930054,-0.3843541443347931,0.802803099155426,-0.9192379713058472,2.995729923248291,-0.20470432937145233,-0.2012294977903366,-0.192239448428154,-0.18028225004673004,-0.5739225149154663,-0.59508216381073,-0.3494050204753876,-0.1277526468038559
0.43333333333333335,-0.0060915048234164715,0.06613755226135254,0.0,0.78690105676651,0.0,0.0,-0.6170791983604431,-0.12651780247688293,-0.4978460669517517,0.0,0.0,0.0,-7.020129680633545,-0.20869052410125732,0.8402539491653442,0.4380185902118683,0.91133052110672,0.13160443305969238,-0.10606317967176437,-0.375376433134079,5.74066686630249,1.7296133041381836,0.7771285176277161,1.9595603942871094,-5.5486674308776855,9.462580680847168,-0.213681161403656,0.8457538485527039,0.4380427598953247,5.620903491973877,2.4079692363739014,0.5962726473808289,0.3659732937812805,0.7045480608940125,0.42000001668930054,-0.3707318902015686,0.833978533744812,-0.8692193031311035,2.9995229244232178,-0.2163795828819275,-0.21219521760940552,-0.19922353327274323,-0.18387310206890106,-0.6478506326675415,-0.5858170390129089,-0.37844181060791016,-0.21052904427051544
0.45,-0.011077865958213806,0.05982379615306854,0.0,0.7669034600257874,0.0,0.0,-0.6417624354362488,-0.28769293427467346,-0.3078896403312683,0.0,0.0,0.0,-2.493974208831787,-0.11331482976675034,0.8684688806533813,0.4498525559902191,0.8582857251167297,0.14334411919116974,-0.11769423633813858,-0.4784831404685974,5.964452266693115,0.969802737236023,0.6637127995491028,1.0580049753189087,-17.487438201904297,-5.440096855163574,-0.11841495335102081,0.8757427930831909,0.449093759059906,5.858311653137207,1.2003964185714722,0.7845878601074219,0.3659732937812805,0.7045480608940125,0.42000001668930054,-0.35553959012031555,0.886864960193634,-0.8950359225273132,-3.000002861022949,-0.22948230803012848,-0.22283798456192017,-0.205684095621109,-0.18682588636875153,-0.7260465025901794,-0.5594367384910583,-0.3191629946231842,-0.11210012435913086
0.4666666666666667,-0.016306739300489426,0.04934799671173096,0.0,0.7386228442192078,0.0,0.0,-0.6741188764572144,-0.3062286972999573,-0.622296154499054,0.0,0.0,0.0,-5.947139263153076,-0.016748882830142975,0.8782229423522949,0.45821866393089294,0.8243616819381714,0.12029024958610535,-0.11902713030576706,-0.5401763319969177,6.024203300476074,-0.7960269451141357,0.2942744493484497,-8.353861808776855,-19.591344833374023,17.243635177612305,-0.019817860797047615,0.8873293399810791,0.4584018886089325,6.01666784286499,0.016714975237846375,0.5740628242492676,0.3659732937812805,0.7045480608940125,0.42000001668930054,-0.34173744916915894,0.7105824947357178,-0.9450599551200867,-3.000004291534424,-0.2379223257303238,-0.22820797562599182,-0.20723499357700348,-0.18501833081245422,-0.6309983134269714,-0.37311679124832153,-0.10001255571842194,0.14323653280735016
0.48333333333333334,-0.019673356786370277,0.043913908302783966,0.0,0.7236413955688477,0.0,0.0,-0.6901761293411255,-0.16667883098125458,-0.2690410017967224,0.0,0.0,0.0,-1.4528753757476807,0.07693193852901459,0.8683560490608215,0.46463248133659363,0.7656041979789734,0.09095332026481628,-0.12348590791225433,-0.6247630715370178,5.169156551361084,-1.813668966293335,0.21334326267242432,-8.243953704833984,-10.036070823669434,25.03249740600586,0.07476919144392014,0.8784595727920532,0.46547457575798035,5.483262538909912,-0.9025061130523682,0.43596577644348145,0.3659732937812805,0.7045480608940125,0.42000001668930054,-0.33106058835983276,0.4869227409362793,-0.9950839877128601,-3.000002384185791,-0.23995603621006012,-0.23822535574436188,-0.21265727281570435,-0.18650144338607788,-0.034192606806755066,-0.461161345243454,-0.2525680363178253,-0.08204623311758041
0.5,-0.01984550803899765,0.03552316501736641,0.0,0.7008934020996094,0.0,0.0,-0.7132660746574402,0.05320344492793083,-0.5298513770103455,0.0,0.0,0.0,-4.685169219970703,0.15848082304000854,0.8489030599594116,0.46569880843162537,0.7283423542976379,0.06678231805562973,-0.10806571692228317,-0.6733343601226807,4.3157124519348145,-2.2110435962677,-0.12040358781814575,-5.279941082000732,-3.302746534347534,18.060270309448242,0.15755759179592133,0.8583357930183411,0.46692898869514465,4.619812965393066,-1.603164792060852,-0.02592693269252777,0.3659732937812805,0.7045480608940125,0.42000001668930054,-0.32164058089256287,0.6039329171180725,-1.045106291770935,-3.0000009536743164,-0.23896773159503937,-0.23998093605041504,-0.21447177231311798,-0.18629349768161774,-0.026731036603450775,0.003955165855586529,-0.08343389630317688,0.021984346210956573
0.5166666666666666,-0.01727410964667797,0.030932387337088585,0.0,0.6915282607078552,0.0,0.0,-0.7223494052886963,0.19540224969387054,-0.228240504860878,0.0,0.0,0.0,-0.4957662522792816,0.22649142146110535,0.8188560009002686,0.46097347140312195,0.6783720254898071,0.019997984170913696,-0.09762773662805557,-0.7279286980628967,3.2837321758270264,-2.5459210872650146,-0.3782150149345398,-2.4713799953460693,1.3660058975219727,19.65314483642578,0.2257278561592102,0.8278435468673706,0.46302908658981323,3.763782024383545,-1.9781742095947266,-0.36387068033218384,0.3659732937812805,0.7045480608940125,0.42000001668930054,-0.30930885672569275,0.744795024394989,-1.0951284170150757,-3.00000262260437,-0.23981954157352448,-0.23960687220096588,-0.21622243523597717,-0.1869417428970337,0.04176109656691551,0.0929795578122139,-0.0030201005283743143,-4.496012593335763e-07
0.5333333333333333,-0.016172416508197784,0.02950230985879898,0.0,0.6744447350502014,0.0,0.0,-0.738325297832489,0.005685648415237665,-0.008745791390538216,0.0,0.0,0.0,-3.6757619380950928,0.2811492085456848,0.787013053894043,0.4499032199382782,0.6531316041946411,-0.022078219801187515,-0.07488337904214859,-0.753209114074707,2.5533227920532227,-2.541607618331909,-0.6979925036430359,-0.786893904209137,0.09769347310066223,25.107864379882812,0.28132957220077515,0.7954114675521851,0.4523276090621948,3.0588064193725586,-1.9805963039398193,-0.7784074544906616,0.3659732937812805,0.7045480608940125,0.42000001668930054,-0.2965969741344452,0.6458614468574524,-1.1451505422592163,-2.9999992847442627,-0.23701603710651398,-0.23642635345458984,-0.21548913419246674,-0.18741177022457123,0.22726643085479736,0.24843889474868774,0.07849908620119095,-0.043301552534103394
0.55,-0.013412781991064548,0.023579908534884453,0.0,0.6699426174163818,0.0,0.0,-0.7424128651618958,0.16400238871574402,-0.2873503267765045,0.0,0.0,0.0,0.21545496582984924,0.32419830560684204,0.7554633617401123,0.43381181359291077,0.6073251366615295,-0.08613502234220505,-0.07150665670633316,-0.7865263223648071,1.684781551361084,-2.337019681930542,-0.9694647789001465,-4.8175225257873535,3.6426432132720947,16.369121551513672,0.3239920437335968,0.7634792327880859,0.4377032518386841,2.1233434677124023,-1.9413528442382812,-0.911758542060852,0.3659732937812805,0.7045480608940125,0.42000001668930054,-0.2848711907863617,0.6694226861000061,-1.195172667503357,-3.0000011920928955,-0.2280483990907669,-0.22774122655391693,-0.21048232913017273,-0.1856333315372467,0.39140039682388306,0.41824397444725037,0.22623580694198608,0.033427536487579346
0.5666666666666667,-0.009121899493038654,0.023024171590805054,0.0,0.6559032201766968,0.0,0.0,-0.7548449635505676,0.33992117643356323,-0.03230491653084755,0.0,0.0,0.0,-2.9808733463287354,0.3507249057292938,0.7334791421890259,0.42414745688438416,0.5949916243553162,-0.07824739068746567,-0.019788939505815506,-0.799669086933136,0.8389676809310913,-1.0942978858947754,0.053107913583517075,1.071537971496582,2.847182273864746,24.922040939331055,0.3502649664878845,0.7395965456962585,0.4269391894340515,1.0927882194519043,-0.9046646356582642,0.11520224809646606,0.3659732937812805,0.7045480608940125,0.42000001668930054,-0.26965609192848206,1.0090222358703613,-1.245093822479248,-3.00075101852417,-0.2209387570619583,-0.22094550728797913,-0.20752203464508057,-0.186640664935112,0.5780541300773621,0.5054236650466919,0.2340281903743744,-0.047361958771944046
0.5833333333333334,-0.004724820610135794,0.018054699525237083,0.0,0.6551012992858887,0.0,0.0,-0.7555410265922546,0.2019500732421875,-0.24451643228530884,0.0,0.0,0.0,0.7195769548416138,0.36744222044944763,0.7201920747756958,0.4225671887397766,0.5564650893211365,-0.05385619401931763,-0.028890468180179596,-0.8286201357841492,0.7582349181175232,-0.9143575429916382,-0.2290688008069992,0.8449839949607849,-9.731369018554688,-6.071048259735107,0.36350947618484497,0.7247830629348755,0.4263404607772827,0.562511682510376,-0.9717419147491455,-0.21353018283843994,0.3659732937812805,0.7045480608940125,0.42000001668930054,-0.2517786920070648,1.4050085544586182,-1.2070722579956055,2.9983160495758057,-0.2093222588300705,-0.21042808890342712,-0.2013690173625946,-0.18526571989059448,0.4774567782878876,0.467808336019516,0.2636970281600952,0.017223702743649483
0.6,0.0005312366411089897,0.017515938729047775,0.0,0.6442519426345825,0.0,0.0,-0.7648133039474487,0.35499146580696106,0.012630979530513287,0.0,0.0,0.0,-2.5233585834503174,0.3731403350830078,0.711454451084137,0.422879695892334,0.5675862431526184,-0.05324191972613335,0.0008231427054852247,-0.8215901851654053,0.2945181131362915,-0.6958091855049133,0.03240444138646126,-6.036995887756348,-1.0300822257995605,18.495811462402344,0.3696296215057373,0.715161919593811,0.4261985421180725,0.1753602921962738,-0.3045198321342468,0.09640476852655411,0.3659732937812805,0.7045480608940125,0.42000001668930054,-0.2376375049352646,0.15596334636211395,-1.227981448173523,-2.9998273849487305,-0.20159399509429932,-0.20343530178070068,-0.19804072380065918,-0.18629463016986847,0.5230758190155029,0.45019590854644775,0.2166236788034439,-0.05976694077253342
0.6166666666666667,0.007853829301893711,0.013585126958787441,0.0,0.6463761925697327,0.0,0.0,-0.7630189061164856,0.48239490389823914,-0.23615039885044098,0.0,0.0,0.0,1.2187482118606567,0.3757651746273041,0.7064003348350525,0.42234912514686584,0.596907377243042,-0.04214102029800415,0.006868806201964617,-0.8011732697486877,0.0657871663570404,-0.29399052262306213,-0.03297321870923042,2.199732542037964,-0.307381808757782,0.2832086682319641,0.37077081203460693,0.709589421749115,0.4251774549484253,-0.10343480110168457,-0.3246909976005554,-0.08471991866827011,0.3659732937812805,0.7045480608940125,0.42000001668930054,-0.2746552526950836,-2.999990463256836,-1.1920702457427979,2.999821186065674,-0.19155912101268768,-0.19450557231903076,-0.1926881968975067,-0.1853187382221222,0.45003801584243774,0.4261631369590759,0.2641180753707886,0.04706175625324249
0.6333333333333333,0.013721665367484093,0.012595740146934986,0.0,0.6674814224243164,0.0,0.0,-0.7446264028549194,0.28143301606178284,-0.0313294492661953,0.0,0.0,0.0,4.447872161865234,0.3753281831741333,0.7025615572929382,0.42062675952911377,0.584683895111084,-0.01242886483669281,-0.009018085896968842,-0.8111158609390259,-0.1124291941523552,-0.13848274946212769,-0.06351496279239655,3.138535261154175,-0.9427120089530945,-4.383121490478516,0.3677862882614136,0.7063087224960327,0.42632824182510376,-0.23577241599559784,-0.0444105863571167,0.13896925747394562,0.3659732937812805,0.7045480608940125,0.42000001668930054,-0.3246324062347412,-2.9999759197235107,-1.2131956815719604,-2.9988763332366943,-0.18544043600559235,-0.18859609961509705,-0.18898849189281464,-0.18471617996692657,0.4136558771133423,0.3896389305591583,0.26190367341041565,0.083596371114254
0.65,0.019909538328647614,0.009079723618924618,0.0,0.6754505038261414,0.0,0.0,-0.7374053597450256,0.40423840284347534,-0.24871793389320374,0.0,0.0,0.0,0.23712049424648285,0.3731692135334015,0.7010510563850403,0.4200001657009125,0.5881773829460144,-1.8667955373530276e-05,-4.226035343890544e-06,-0.8087319731712341,-0.10303151607513428,-0.049075622111558914,-0.0008828338468447328,0.02491733618080616,-0.02213090844452381,-1.169370412826538,0.3655785918235779,0.7079348564147949,0.42973023653030396,-0.1341383010149002,0.1105266585946083,0.2496701031923294,0.3659732937812805,0.7045480608940125,0.42000001668930054,-0.3746679723262787,-2.999412775039673,-1.2631609439849854,-2.9999942779541016,-0.1790340691804886,-0.1821163147687912,-0.18380101025104523,-0.1815396100282669,0.3372853696346283,0.3732154369354248,0.3437594175338745,0.275261789560318
0.6666666666666666,0.02806251123547554,0.002460138639435172,0.0,0.6618331074714661,0.0,0.0,-0.7496512532234192,0.5305119752883911,-0.46663689613342285,0.0,0.0,0.0,-3.054809093475342,0.3720947802066803,0.7005947232246399,0.42000025510787964,0.5863217711448669,2.6631443688529544e-05,2.0582603610819206e-05,-0.8100781440734863,-0.032278914004564285,-0.020563503727316856,-0.0009952824329957366,-0.04383176192641258,-0.005337341222912073,-0.7366096377372742,0.36416852474212646,0.7098574638366699,0.4371122419834137,-0.03623248636722565,0.08648481965065002,0.7596458196640015,0.3659732937812805,0.7045480608940125,0.42000001668930054,-0.4246825575828552,-2.9999256134033203,-1.3131792545318604,-3.000000238418579,-0.17557768523693085,-0.17759253084659576,-0.17904378473758698,-0.17713329195976257,0.13921454548835754,0.22378453612327576,0.2709258496761322,0.2861272692680359
0.6833333333333333,0.03928729146718979,7.732093945378438e-05,0.0,0.626663863658905,0.0,0.0,-0.7792896628379822,0.6715995073318481,-0.09853001683950424,0.0,0.0,0.0,-6.3683037757873535,0.3720572888851166,0.7005772590637207,0.41999998688697815,0.5857171416282654,-4.526614194588774e-09,-3.066299996135058e-06,-0.8105154633522034,1.4991281204856932e-05,-0.00011812199954874814,-3.7408899515867233e-06,0.0007169163436628878,-0.006454384885728359,-0.0005994164384901524,0.3704109787940979,0.7074002027511597,0.45709726214408875,0.849114179611206,-0.2631967067718506,1.7104052305221558,0.3659732937812805,0.7045480608940125,0.42000001668930054,-0.47469568252563477,-2.99990177154541,-1.3631975650787354,-2.999990463256836,-0.17935025691986084,-0.17902573943138123,-0.17861612141132355,-0.17539040744304657,-0.23906780779361725,-0.10663516819477081,0.008432038128376007,0.09565176069736481
0.7,0.05271771550178528,-2.0932053303113207e-05,0.0,0.6070808172225952,0.0,0.0,-0.794640064239502,0.8399057388305664,0.0591001957654953,0.0,0.0,0.0,-1.9499473571777344,0.3720572888851166,0.700577437877655,0.41999995708465576,0.5857173204421997,-1.1738513876480283e-06,-5.615577265416505e-06,-0.8105153441429138,0.00012097153376089409,-0.0003994796716142446,-7.923739030957222e-05,0.009829597547650337,-0.002684006467461586,-0.0008768074330873787,0.3865576386451721,0.7072404623031616,0.48711666464805603,0.9777064919471741,0.193918839097023,1.9037667512893677,0.3659732937812805,0.7045480608940125,0.42000001668930054,-0.4983440041542053,-0.07772208005189896,-1.4132158756256104,-3.000000238418579,-0.18196097016334534,-0.18050363659858704,-0.17910312116146088,-0.17527392506599426,-0.0795845091342926,-0.06095585227012634,-0.04626990482211113,-0.052996017038822174
0.7166666666666667,0.06304571032524109,0.002494914922863245,0.0,0.6129412651062012,0.0,0.0,-0.7901284694671631,0.5350846648216248,0.18849441409111023,0.0,0.0,0.0,1.7838810682296753,0.3720572888851166,0.700577437877655,0.41999995708465576,0.5857174396514893,-1.1837031479444704e-06,-5.650563252856955e-06,-0.8105153441429138,0.0001210669579450041,-0.00040088166133500636,-7.954752072691917e-05,0.009861349128186703,-0.0026867943815886974,-0.0008787590195424855,0.40303540229797363,0.7117462158203125,0.5122416019439697,0.8820711374282837,0.3243825435638428,1.1695195436477661,0.3659732937812805,0.7045480608940125,0.42000001668930054,-0.4804939031600952,2.0210049152374268,-1.4270573854446411,1.003004789352417,-0.18136653304100037,-0.17989449203014374,-0.17846424877643585,-0.17493422329425812,0.12727168202400208,0.11663562804460526,0.10877059400081635,0.08104480803012848
0.7333333333333333,0.06785343587398529,-0.0007241154671646655,0.0,0.6065027117729187,0.0,0.0,-0.7950814366340637,0.316345751285553,-0.19410340487957,0.0,0.0,0.0,-1.7006092071533203,0.3720572888851166,0.700577437877655,0.41999995708465576,0.5857173204421997,-1.1723983561751083e-06,-5.7199854381906334e-06,-0.8105154037475586,0.00011937884846702218,-0.0004000633489340544,-7.948442362248898e-05,0.009834795258939266,-0.0026811405550688505,-0.0008733845315873623,0.4111737608909607,0.7187377214431763,0.5260715484619141,0.040038593113422394,0.23913873732089996,0.5976831912994385,0.3659732937812805,0.7045480608940125,0.42000001668930054,-0.4592525064945221,0.6329379677772522,-1.3780072927474976,3.0,-0.17317134141921997,-0.17279165983200073,-0.17235586047172546,-0.17009471356868744,0.20409756898880005,0.20902863144874573,0.21427388489246368,0.19461648166179657
0.75,0.07038038969039917,0.0009771481854841113,0.0,0.6132569313049316,0.0,0.0,-0.7898834943771362,0.09236378222703934,0.14257065951824188,0.0,0.0,0.0,1.8120296001434326,0.3720572888851166,0.7005773782730103,0.41999995708465576,0.5857174396514893,-1.4221096762412344e-06,-5.7646566347102635e-06,-0.8105152249336243,0.00012147142842877656,-0.00040098046883940697,-7.954752072691917e-05,0.0098650511354208,-0.0026873601600527763,-0.0008799151401035488,0.4109509587287903,0.7217828035354614,0.5326611995697021,-0.02700503170490265,0.24279257655143738,0.21394355595111847,0.3659732937812805,0.7045480608940125,0.42000001668930054,-0.4485805928707123,0.6389812231063843,-1.3965339660644531,-3.0,-0.17323684692382812,-0.1721048206090927,-0.17096154391765594,-0.1684805005788803,0.07097040116786957,0.09385170042514801,0.115704245865345,0.11088916659355164
0.7666666666666666,0.07381394505500793,-0.0015407486353069544,0.0,0.6069632172584534,0.0,0.0,-0.7947298884391785,0.16710439324378967,-0.06214559078216553,0.0,0.0,0.0,-1.6376160383224487,0.3720572888851166,0.700577437877655,0.41999995708465576,0.5857174396514893,-1.1771986692110659e-06,-5.67500455872505e-06,-0.810515284538269,0.00012136854638811201,-0.000400597375119105,-7.952586747705936e-05,0.009854048490524292,-0.002685761544853449,-0.0008792527951300144,0.40692856907844543,0.7253093719482422,0.5287877917289734,-0.5861409902572632,0.11414987593889236,-0.4612727463245392,0.3659732937812805,0.7045480608940125,0.42000001668930054,-0.45382747054100037,-1.1171259880065918,-1.3580971956253052,2.9999711513519287,-0.16926944255828857,-0.16825197637081146,-0.1672108918428421,-0.16521798074245453,0.0059490203857421875,0.04828116297721863,0.08789889514446259,0.10055483132600784
0.7833333333333333,0.07935843616724014,0.0022553233429789543,0.0,0.6146657466888428,0.0,0.0,-0.7887876629829407,0.30724266171455383,0.15293380618095398,0.0,0.0,0.0,1.8437249660491943,0.3720572888851166,0.700577437877655,0.41999995708465576,0.5857173204421997,-1.155642166850157e-06,-5.7431116147199646e-06,-0.8105153441429138,0.00011948061728617176,-0.0004000993794761598,-7.948419079184532e-05,0.009836026467382908,-0.0026812960859388113,-0.0008736801100894809,0.3980923295021057,0.7247719764709473,0.5213436484336853,-0.3544091284275055,0.04133530706167221,-0.4444824457168579,0.3659732937812805,0.7045480608940125,0.42000001668930054,-0.4945802688598633,-3.0,-1.3769854307174683,-3.0000009536743164,-0.17288324236869812,-0.170451357960701,-0.16799338161945343,-0.16498056054115295,0.06089450791478157,0.07594536989927292,0.1040845438838005,0.12395446002483368
0.8,0.0855155661702156,0.0009103402844630182,0.0,0.608862578868866,0.0,0.0,-0.7932757139205933,0.40266546607017517,-0.09602216631174088,0.0,0.0,0.0,-1.8050127029418945,0.3720572888851166,0.700577437877655,0.41999995708465576,0.5857174396514893,-1.203429746965412e-06,-5.587118721450679e-06,-0.8105152249336243,0.0001209330148412846,-0.0004007844836451113,-7.953494787216187e-05,0.009858388453722,-0.0026860602665692568,-0.000878283055499196,0.39590907096862793,0.7237540483474731,0.5099698901176453,0.029468383640050888,-0.24863320589065552,-0.7369507551193237,0.3659732937812805,0.7045480608940125,0.42000001668930054,-0.544590950012207,-3.000000238418579,-1.4270037412643433,-3.0000011920928955,-0.17061875760555267,-0.16790805757045746,-0.1648397296667099,-0.1612139642238617,0.004812801722437143,0.06573621183633804,0.14793607592582703,0.23233085870742798
0.8166666666666667,0.09374561905860901,-0.003308705985546112,0.0,0.581486701965332,0.0,0.0,-0.813555896282196,0.5370809435844421,-0.31555527448654175,0.0,0.0,0.0,-5.013240814208984,0.3720572888851166,0.700577437877655,0.41999995708465576,0.5857174396514893,-1.1416783536333241e-06,-5.833448994962964e-06,-0.8105153441429138,0.00012055839761160314,-0.00040049373637884855,-7.951352745294571e-05,0.009849554859101772,-0.002683887956663966,-0.0008769436972215772,0.4001008868217468,0.7169298529624939,0.5038822293281555,0.4997639060020447,-0.5004231929779053,0.13276967406272888,0.3659732937812805,0.7045480608940125,0.42000001668930054,-0.5946031212806702,-2.999958038330078,-1.4770220518112183,-2.9999988079071045,-0.1724836826324463,-0.16858559846878052,-0.1639745980501175,-0.1587413102388382,-0.14384281635284424,-0.0755014568567276,0.01385269220918417,0.10888013243675232
0.8333333333333334,0.1051793247461319,-0.003807965200394392,0.0,0.5679952502250671,0.0,0.0,-0.8230318427085876,0.6850403547286987,-0.01676061749458313,0.0,0.0,0.0,-0.8987027406692505,0.3720572888851166,0.700577437877655,0.41999995708465576,0.5857173204421997,-1.171126768895192e-06,-5.712985057471087e-06,-0.810515284538269,0.00012153227726230398,-0.0004004881193395704,-7.951422594487667e-05,0.009850683622062206,-0.0026813882868736982,-0.0008792736334726214,0.4076302647590637,0.7147742509841919,0.5107120275497437,0.4695759415626526,0.22326718270778656,0.610407829284668,0.3659732937812805,0.7045480608940125,0.42000001668930054,-0.6138396859169006,0.4123785197734833,-1.5270403623580933,-3.000000238418579,-0.1762879341840744,-0.17176727950572968,-0.1662837564945221,-0.16013890504837036,-0.03008737787604332,-0.07599278539419174,-0.10684025287628174,-0.13165168464183807
0.85,0.11282709985971451,-0.0026421123184263706,0.0,0.5804609060287476,0.0,0.0,-0.8142881393432617,0.3798742890357971,0.11265341937541962,0.0,0.0,0.0,2.678352117538452,0.3720572888851166,0.700577437877655,0.41999995708465576,0.5857174396514893,-1.1387977565391338e-06,-5.798592155770166e-06,-0.8105152249336243,0.00012050911027472466,-0.0004005209484603256,-7.952051237225533e-05,0.009850041940808296,-0.002684727543964982,-0.0008768981206230819,0.4169890880584717,0.7206268310546875,0.5157040953636169,0.5647711753845215,0.39386433362960815,0.025549016892910004,0.3659732937812805,0.7045480608940125,0.42000001668930054,-0.5943761467933655,1.78678560256958,-1.4882328510284424,3.000000238418579,-0.1744401603937149,-0.1710839867591858,-0.16652561724185944,-0.16118359565734863,0.16642895340919495,0.09369717538356781,0.03157459571957588,-0.025032104924321175
0.8666666666666667,0.11592470109462738,-0.005680130794644356,0.0,0.5793517231941223,0.0,0.0,-0.8150776624679565,0.14587076008319855,-0.25143641233444214,0.0,0.0,0.0,-1.1660915613174438,0.3720572888851166,0.700577437877655,0.41999995708465576,0.5857173800468445,-1.179105765913846e-06,-5.680246886186069e-06,-0.810515284538269,0.00012143191997893155,-0.00040044976049102843,-7.951376028358936e-05,0.00984951015561819,-0.0026811447460204363,-0.0008789670537225902,0.42289993166923523,0.7247482538223267,0.5120305418968201,0.13586075603961945,0.09115758538246155,-0.30113115906715393,0.3659732937812805,0.7045480608940125,0.42000001668930054,-0.599452018737793,-2.058882474899292,-1.4381802082061768,2.9999992847442627,-0.1701078712940216,-0.16802389919757843,-0.16460883617401123,-0.16033776104450226,0.17038869857788086,0.12242168188095093,0.07683070003986359,0.03118298202753067
0.8833333333333333,0.11629077047109604,-0.003801573533564806,0.0,0.5895674824714661,0.0,0.0,-0.8077191114425659,-0.023397253826260567,0.24473056197166443,0.0,0.0,0.0,2.3855834007263184,0.3720572888851166,0.700577437877655,0.41999995708465576,0.585717499256134,-1.1577167242649011e-06,-5.767849415860837e-06,-0.8105152249336243,0.0001204081199830398,-0.0004004819202236831,-7.951841689646244e-05,0.009848657995462418,-0.0026845221873372793,-0.0008765962556935847,0.4257805645465851,0.7253916263580322,0.5062596797943115,0.19927307963371277,0.04388809949159622,-0.37408682703971863,0.3659732937812805,0.7045480608940125,0.42000001668930054,-0.6139538884162903,0.14011846482753754,-1.4555695056915283,-2.999999761581421,-0.1731286346912384,-0.17047397792339325,-0.16652312874794006,-0.1618027538061142,-0.2678992450237274,-0.20921838283538818,-0.1528608500957489,-0.1013457328081131
