vladlanda/robotic-transformer/data/env_000_episode_0126.csv
sim_time_s,robot_box_x,robot_box_y,robot_box_z,robot_box_quat_w,robot_box_quat_x,robot_box_quat_y,robot_box_quat_z,robot_box_linvel_x,robot_box_linvel_y,robot_box_linvel_z,robot_box_angvel_x,robot_box_angvel_y,robot_box_angvel_z,cube_world_x,cube_world_y,cube_world_z,cube_quat_w,cube_quat_x,cube_quat_y,cube_quat_z,cube_linvel_x,cube_linvel_y,cube_linvel_z,cube_angvel_x,cube_angvel_y,cube_angvel_z,endpoint_world_x,endpoint_world_y,endpoint_world_z,endpoint_linvel_x,endpoint_linvel_y,endpoint_linvel_z,target_cube_world_x,target_cube_world_y,target_cube_world_z,gripper_actual_pos_rad_gp_leftgearjoint,gripper_actual_vel_rad_s_gp_leftgearjoint,gripper_actual_pos_rad_gp_rotatingjoint,gripper_actual_vel_rad_s_gp_rotatingjoint,motor_angle_rad_joint1,motor_angle_rad_joint2,motor_angle_rad_joint3,motor_angle_rad_joint4,motor_speed_rad_s_joint1,motor_speed_rad_s_joint2,motor_speed_rad_s_joint3,motor_speed_rad_s_joint4
0.0,0.0,0.0,0.0,1.0,0.0,0.0,0.0,0.0,0.0,0.0,0.0,0.0,0.0,-0.4364171028137207,0.6632415056228638,0.41999998688697815,1.0,0.0,0.0,0.0,0.0,0.0,0.0,0.0,0.0,0.0,3.42540442943573e-06,-0.005000244826078415,1.313499927520752,0.0,0.0,0.0,0.45330098271369934,0.6687458157539368,0.42000001668930054,-1.5707999467849731,0.0,0.0,0.0,0.0,0.0,0.0,0.0,0.0,0.0,0.0,0.0
0.016666666666666666,0.0028778850100934505,0.0021806680597364902,0.0,0.9998081922531128,0.0,0.0,0.019586581736803055,0.24087215960025787,0.18240931630134583,0.0,0.0,0.0,3.1418697834014893,-0.43641722202301025,0.6632412075996399,0.41999998688697815,1.0,3.279964630564791e-06,-8.339746386809566e-07,8.465587342243452e-08,-1.9833529222523794e-05,0.00017983045836444944,-6.132945418357849e-05,0.0009432713268324733,-0.004689474124461412,-0.00031981561915017664,-0.007110234349966049,0.003379564033821225,1.3159373998641968,-0.8143353462219238,0.9868683815002441,0.18095196783542633,0.45330098271369934,0.6687458157539368,0.42000001668930054,-1.5301095247268677,3.0000011920928955,-0.04584788903594017,-2.9999992847442627,0.0008691533003002405,0.0007963840034790337,0.0007110277656465769,0.0006108740926720202,0.11094217747449875,0.09756709635257721,0.08334315568208694,0.06823883205652237
0.03333333333333333,0.008960967883467674,0.006801888346672058,0.0,0.9997960329055786,0.0,0.0,0.020196838304400444,0.4070207178592682,0.31530746817588806,0.0,0.0,0.0,-0.8691297173500061,-0.4364173412322998,0.6632411479949951,0.4200000464916229,1.0,3.3908354453160428e-06,-2.1324485715012997e-06,-3.710144014235084e-08,0.00026357831666246057,0.00026937946677207947,-0.00010509486310184002,-0.0017707672668620944,0.004130808170884848,-0.000135478752781637,-0.027547216042876244,0.025972314178943634,1.3166310787200928,-1.591443419456482,1.6121699810028076,-0.08091139048337936,0.45330098271369934,0.6687458157539368,0.42000001668930054,-1.4800903797149658,3.0000009536743164,-0.09588772058486938,-3.0000009536743164,0.0029901613015681505,0.002652794122695923,0.0022773873060941696,0.001860863296315074,0.1642247587442398,0.13976997137069702,0.11383052915334702,0.08631425350904465
0.05,0.017727838829159737,0.013768117874860764,0.0,0.999383270740509,0.0,0.0,0.03511475399136543,0.5933868288993835,0.46491435170173645,0.0,0.0,0.0,2.651484251022339,-0.4364173710346222,0.6632412075996399,0.4200000464916229,1.0,3.765139354072744e-06,-2.2119161258160602e-06,5.630195420991413e-09,0.0002653095289133489,0.00026691411039792,-0.00010440382175147533,-0.0017242460744455457,0.004177400842308998,-0.00012949357915204018,-0.0596645325422287,0.053623348474502563,1.311730146408081,-2.187286376953125,1.738889455795288,-0.4679068326950073,0.45330098271369934,0.6687458157539368,0.42000001668930054,-1.4300720691680908,2.999999761581421,-0.145926371216774,-2.9999992847442627,0.005701244808733463,0.004909631330519915,0.004045896232128143,0.0031051672995090485,0.19271253049373627,0.1558089554309845,0.11703137308359146,0.07629692554473877
0.06666666666666667,0.029036279767751694,0.023058993741869926,0.0,0.9994542002677917,0.0,0.0,0.03303397819399834,0.7199548482894897,0.595059871673584,0.0,0.0,0.0,-1.2080219984054565,-0.4364173710346222,0.6632411479949951,0.4200000464916229,0.9999999403953552,3.4067529668391217e-06,-2.2856381747260457e-06,4.300985096961085e-07,0.00026702662580646574,0.00026791892014443874,-0.00010437914170324802,-0.001740677747875452,0.004211848136037588,-0.0001285130565520376,-0.0982903242111206,0.08735353499650955,1.2992784976959229,-2.4606189727783203,2.19465970993042,-1.0006396770477295,0.45330098271369934,0.6687458157539368,0.42000001668930054,-1.3800537586212158,3.0000016689300537,-0.19594071805477142,-3.0000009536743164,0.008315857499837875,0.006844319868832827,0.005261895712465048,0.0035628420300781727,0.1550009846687317,0.10495053231716156,0.0528714656829834,-1.6763806343078613e-08
0.08333333333333333,0.04351930692791939,0.03446854278445244,0.0,0.9999955892562866,0.0,0.0,0.002963332226499915,0.9373415112495422,0.7266979813575745,0.0,0.0,0.0,-4.5318403244018555,-0.4364173710346222,0.6632411479949951,0.4200000464916229,1.0,3.697281499626115e-06,-2.1890098196308827e-06,-2.632294240356714e-07,0.00026389621780253947,0.00026586363674141467,-0.00010433816350996494,-0.0017081034602597356,0.004150185268372297,-0.00012991165567655116,-0.13844455778598785,0.12825866043567657,1.2798320055007935,-2.3852713108062744,2.580264091491699,-1.3236531019210815,0.45330098271369934,0.6687458157539368,0.42000001668930054,-1.3300237655639648,2.999997615814209,-0.16729359328746796,3.0000007152557373,0.010156014934182167,0.007733413018286228,0.005161243490874767,0.0024488240014761686,0.08971215784549713,0.02358202449977398,-0.04468788951635361,-0.11410409212112427
0.1,0.05223001539707184,0.049789030104875565,0.0,0.9999464750289917,0.0,0.0,-0.010346784256398678,0.3841005861759186,0.9962725043296814,0.0,0.0,0.0,-0.5810500979423523,-0.4364173710346222,0.6632411479949951,0.4200000464916229,0.9999999403953552,3.6203855415806174e-06,-2.265273224111297e-06,1.7462159007664013e-07,0.0002667683002073318,0.00026740814791992307,-0.0001040794886648655,-0.0017385776154696941,0.004209164995700121,-0.00012775571667589247,-0.17970111966133118,0.16610345244407654,1.2564305067062378,-2.400233745574951,2.2499840259552,-1.4201966524124146,0.45330098271369934,0.6687458157539368,0.42000001668930054,-1.2800229787826538,3.000001907348633,-0.1989399939775467,-2.999999523162842,0.005177378188818693,0.0020048993173986673,-0.0013696005335077643,-0.004926745314151049,-0.42270779609680176,-0.47326356172561646,-0.526432454586029,-0.5818124413490295
0.11666666666666667,0.05607464537024498,0.065983347594738,0.0,0.9993372559547424,0.0,0.0,-0.036401208490133286,0.25219449400901794,0.9379568696022034,0.0,0.0,0.0,-3.8692729473114014,-0.4364173710346222,0.6632411479949951,0.4200000464916229,1.0,3.7983813854225446e-06,-2.2628894384979503e-06,-1.5019897148249584e-07,0.00026373917353339493,0.00026566049200482666,-0.00010429113171994686,-0.0017053951742127538,0.004147559404373169,-0.00012979967868886888,-0.21784844994544983,0.20723086595535278,1.2327871322631836,-2.1902825832366943,2.704514980316162,-1.4065624475479126,0.45330098271369934,0.6687458157539368,0.42000001668930054,-1.230009913444519,3.000001907348633,-0.24895459413528442,-3.000000476837158,-0.0018148771487176418,-0.006232187617570162,-0.010859050787985325,-0.01567097380757332,-0.3149612843990326,-0.4163419008255005,-0.5160406231880188,-0.6137608885765076
0.13333333333333333,0.05935010313987732,0.07920564711093903,0.0,0.999042272567749,0.0,0.0,-0.043754879385232925,0.13672035932540894,0.7344998717308044,0.0,0.0,0.0,0.36306384205818176,-0.4364173710346222,0.6632412075996399,0.4200000464916229,0.9999999403953552,3.55046631739242e-06,-2.229890242233523e-06,2.9291771852513193e-07,0.00026703221374191344,0.00026779237668961287,-0.00010416773147881031,-0.0017439918592572212,0.0042135524563491344,-0.00012800241529475898,-0.2582685351371765,0.2513774633407593,1.2056134939193726,-2.474724292755127,2.743011951446533,-1.8261290788650513,0.45330098271369934,0.6687458157539368,0.42000001668930054,-1.1799936294555664,2.9999897480010986,-0.2148723304271698,3.0,-0.005307292565703392,-0.011619550175964832,-0.018073609098792076,-0.02464110776782036,-0.20411959290504456,-0.31509801745414734,-0.42113205790519714,-0.5220969915390015
0.15,0.06821542978286743,0.08792343735694885,0.0,0.9979285597801208,0.0,0.0,-0.06433169543743134,0.6872078776359558,0.43262872099876404,0.0,0.0,0.0,-3.4220690727233887,-0.4364173412322998,0.6632411479949951,0.4200000464916229,1.0,3.332185997351189e-06,-2.1020589429099346e-06,1.3131703724411636e-07,0.0002673070121090859,0.00026859756326302886,-0.00010459567420184612,-0.0017497788649052382,0.0042156740091741085,-0.00012928353680763394,-0.2967243194580078,0.30130404233932495,1.1735891103744507,-2.1971230506896973,3.171841621398926,-2.066542863845825,0.45330098271369934,0.6687458157539368,0.42000001668930054,-1.1300033330917358,3.0000007152557373,-0.24623173475265503,-2.9999992847442627,-0.00507671944797039,-0.013595047406852245,-0.02214965969324112,-0.030710836872458458,0.027168141677975655,-0.09954236447811127,-0.2200930416584015,-0.3345005512237549
0.16666666666666666,0.07523945719003677,0.0940837487578392,0.0,0.9936177134513855,0.0,0.0,-0.11280009150505066,0.2538706362247467,0.3423229455947876,0.0,0.0,0.0,-6.544997692108154,-0.4364173710346222,0.6632411479949951,0.4200000464916229,1.0,3.7372556107584387e-06,-2.2332371827360475e-06,-1.8763917353226134e-07,0.00026432928279973567,0.00026626777253113687,-0.00010445783846080303,-0.0017118602991104126,0.004157558549195528,-0.00013001644401811063,-0.330453485250473,0.36086514592170715,1.1324653625488281,-1.8066074848175049,3.8633217811584473,-2.807727813720703,0.45330098271369934,0.6687458157539368,0.42000001668930054,-1.0878936052322388,2.093248128890991,-0.212197408080101,2.999999761581421,-0.010173012502491474,-0.02009173110127449,-0.02997071109712124,-0.03978676348924637,-0.5924694538116455,-0.6337293982505798,-0.6723659634590149,-0.7090087532997131
0.18333333333333332,0.0753277838230133,0.10351480543613434,0.0,0.9823580384254456,0.0,0.0,-0.18700991570949554,0.02408301644027233,0.5097638368606567,0.0,0.0,0.0,-9.644201278686523,-0.4364173710346222,0.6632412075996399,0.4200000464916229,0.9999999403953552,3.660216407297412e-06,-2.302346501892316e-06,2.5286328764195787e-07,0.00026690843515098095,0.00026760369655676186,-0.00010412652045488358,-0.00174131547100842,0.004211504012346268,-0.00012787082232534885,-0.35914382338523865,0.4289323687553406,1.0761687755584717,-1.506974697113037,4.381094455718994,-3.675588607788086,0.45330098271369934,0.6687458157539368,0.42000001668930054,-1.0413120985031128,2.999998092651367,-0.24357497692108154,-2.999999523162842,-0.024534352123737335,-0.034606240689754486,-0.04464743658900261,-0.05462788790464401,-0.6738476157188416,-0.7115045189857483,-0.7490636110305786,-0.784471333026886
0.2,0.08125371485948563,0.113580122590065,0.0,0.9706791043281555,0.0,0.0,-0.2403789907693863,0.29223817586898804,0.6227620244026184,0.0,0.0,0.0,-5.363326072692871,-0.4364173710346222,0.6632411479949951,0.4200000464916229,1.0,3.5907664823753294e-06,-2.3004322429187596e-06,1.387437009725545e-07,0.00026654673274606466,0.00026732226251624525,-0.00010424060747027397,-0.0017326197121292353,0.004203468095511198,-0.0001282063458347693,-0.3883731961250305,0.4950519800186157,1.0076689720153809,-1.4743452072143555,4.004430770874023,-4.610287666320801,0.45330098271369934,0.6687458157539368,0.42000001668930054,-0.9913163781166077,2.9967854022979736,-0.2936023771762848,-3.000001907348633,-0.03451809659600258,-0.044842418283224106,-0.05513329431414604,-0.06533894687891006,-0.8869853019714355,-0.840975821018219,-0.7976130247116089,-0.7563580274581909
0.21666666666666667,0.08200576901435852,0.1251181960105896,0.0,0.9659242630004883,0.0,0.0,-0.25882488489151,0.022085508331656456,0.7569214701652527,0.0,0.0,0.0,-1.2251710891723633,-0.4364173710346222,0.6632412075996399,0.4200000464916229,1.0,3.6068583995074732e-06,-2.2610586256632814e-06,1.9633484171777127e-08,0.00026447203708812594,0.00026558362878859043,-0.00010396563448011875,-0.001708743628114462,0.004164293874055147,-0.0001283248420804739,-0.416799396276474,0.5490046739578247,0.9256618022918701,-1.489044189453125,3.051717758178711,-5.23710298538208,0.45330098271369934,0.6687458157539368,0.42000001668930054,-0.9413071274757385,2.999999523162842,-0.34363165497779846,-2.9999983310699463,-0.04993261769413948,-0.06029586121439934,-0.07060495018959045,-0.0803324282169342,-0.8660611510276794,-0.8691225051879883,-0.8724846839904785,-0.8830174207687378
0.23333333333333334,0.08104825764894485,0.13377745449543,0.0,0.9571827054023743,0.0,0.0,-0.28948450088500977,-0.10181756317615509,0.4430668354034424,0.0,0.0,0.0,-4.697099208831787,-0.4364173412322998,0.6632411479949951,0.4200000464916229,0.9999999403953552,3.742156877706293e-06,-2.227542609034572e-06,4.5892250000179047e-07,0.0002647509681992233,0.00026671559317037463,-0.00010453537106513977,-0.0017190451035276055,0.004165756516158581,-0.00013019356993027031,-0.43933364748954773,0.5979447364807129,0.832461953163147,-1.0787317752838135,2.710615634918213,-5.850766181945801,0.45330098271369934,0.6687458157539368,0.42000001668930054,-0.8912964463233948,3.0000007152557373,-0.3936627209186554,-2.999999523162842,-0.06520722061395645,-0.07529749721288681,-0.08533697575330734,-0.09491809457540512,-0.9732930064201355,-0.9368202686309814,-0.9009690880775452,-0.8730257749557495
0.25,0.08089753240346909,0.13941358029842377,0.0,0.9534905552864075,0.0,0.0,-0.30142295360565186,0.07012932002544403,0.22083550691604614,0.0,0.0,0.0,-0.4077669382095337,-0.4364173710346222,0.6632411479949951,0.4200000464916229,1.0,3.3943140351766488e-06,-2.282112973261974e-06,1.33633321297566e-07,0.0002667937951628119,0.0002679391473066062,-0.00010439474135637283,-0.0017417421331629157,0.004206571727991104,-0.00012884227908216417,-0.45654529333114624,0.632581889629364,0.732593297958374,-0.7806840538978577,1.6146464347839355,-6.104192733764648,0.45330098271369934,0.6687458157539368,0.42000001668930054,-0.8412861227989197,2.9999899864196777,-0.4436943829059601,-2.9999992847442627,-0.08152040094137192,-0.09155918657779694,-0.10138475894927979,-0.11073734611272812,-0.9731846451759338,-0.9640304446220398,-0.9528180360794067,-0.9416180849075317
0.26666666666666666,0.07671298086643219,0.1418905109167099,0.0,0.9457311034202576,0.0,0.0,-0.32495033740997314,-0.34544405341148376,0.08483200520277023,0.0,0.0,0.0,-3.8308167457580566,-0.4364173710346222,0.6632412075996399,0.4200000464916229,1.0,3.6832957448496018e-06,-2.3101708848116687e-06,2.1012019146837702e-07,0.00026479153893887997,0.0002662580518517643,-0.00010421173647046089,-0.0017168201738968492,0.004168934654444456,-0.00012909606448374689,-0.46335741877555847,0.65040522813797,0.627698540687561,0.033550962805747986,0.5537102222442627,-6.23090934753418,0.45330098271369934,0.6687458157539368,0.42000001668930054,-0.791277289390564,3.0000033378601074,-0.49372556805610657,-2.999999761581421,-0.0992182195186615,-0.10897339880466461,-0.11858673393726349,-0.1277749091386795,-1.003147840499878,-1.0023635625839233,-1.001768708229065,-1.001296043395996
0.2833333333333333,0.07438395172357559,0.1411159187555313,0.0,0.9438192248344421,0.0,0.0,-0.33046215772628784,-0.025980371981859207,-0.09747060388326645,0.0,0.0,0.0,0.22349125146865845,-0.4364173710346222,0.6632411479949951,0.4200000464916229,1.0,3.3067838103306713e-06,-2.212570507253986e-06,2.6257987428834895e-07,0.00026660895673558116,0.0002674504357855767,-0.00010424456559121609,-0.0017353360308334231,0.004204529337584972,-0.0001282836019527167,-0.46256282925605774,0.6563975811004639,0.5299943685531616,0.2513747811317444,0.11755165457725525,-5.525411128997803,0.45330098271369934,0.6687458157539368,0.42000001668930054,-0.741268515586853,3.000000238418579,-0.5437552332878113,-3.0000009536743164,-0.11604183912277222,-0.12576526403427124,-0.13536807894706726,-0.14455780386924744,-1.0069599151611328,-1.0052543878555298,-1.0039528608322144,-1.002915859222412
0.3,0.0700201466679573,0.13830529153347015,0.0,0.9372561573982239,0.0,0.0,-0.34864145517349243,-0.2589055597782135,-0.23433871567249298,0.0,0.0,0.0,-3.132798910140991,-0.4364173710346222,0.6632411479949951,0.4200000464916229,1.0,3.640822797024157e-06,-2.3780603441991843e-06,-4.194113500943786e-07,0.0002660947502590716,0.00026721262838691473,-0.00010421243496239185,-0.0017329666297882795,0.004194220993667841,-0.00012849632184952497,-0.4514176547527313,0.6574901342391968,0.4413621425628662,1.0087963342666626,0.12433194369077682,-5.072984218597412,0.45330098271369934,0.6687458157539368,0.42000001668930054,-0.6912609934806824,2.9999942779541016,-0.5937829613685608,-3.0000011920928955,-0.13357748091220856,-0.1430942863225937,-0.15255990624427795,-0.16165105998516083,-0.8606866002082825,-0.8929552435874939,-0.9232829213142395,-0.9505351185798645
0.31666666666666665,0.06409551203250885,0.13291513919830322,0.0,0.93682861328125,0.0,0.0,-0.3497886657714844,-0.3929057717323303,-0.36205267906188965,0.0,0.0,0.0,0.7927882671356201,-0.43638214468955994,0.6626562476158142,0.42000576853752136,0.9998975992202759,-8.08085169410333e-05,-7.889918924774975e-05,-0.014306625351309776,0.009702038019895554,0.007339556701481342,-0.007265253458172083,0.06874486804008484,0.20113395154476166,2.269345283508301,-0.44480496644973755,0.6605134010314941,0.4155958890914917,0.19689667224884033,0.25728148221969604,-0.02814919874072075,0.45330098271369934,0.6687458157539368,0.42000001668930054,-0.6414653062820435,2.9498956203460693,-0.6441924571990967,-2.8185012340545654,-0.1402861773967743,-0.15057921409606934,-0.16065187752246857,-0.17014452815055847,-0.10794709622859955,-0.1828537881374359,-0.2346726357936859,-0.2579955458641052
0.3333333333333333,0.05581254884600639,0.12528376281261444,0.0,0.9313106536865234,0.0,0.0,-0.364225834608078,-0.5472766757011414,-0.4997318685054779,0.0,0.0,0.0,-2.7411398887634277,-0.43637946248054504,0.6626524925231934,0.41999998688697815,0.9998975992202759,5.480056643136777e-06,-4.480646566662472e-06,-0.014306680299341679,0.00046727919834665954,0.0003479065198916942,-0.00011631217785179615,-0.0010808126535266638,0.009061964228749275,-0.00020442735694814473,-0.4423345923423767,0.6680128574371338,0.42554521560668945,0.3454345762729645,0.6632312536239624,-0.09908352047204971,0.45330098271369934,0.6687458157539368,0.42000001668930054,-0.5914573669433594,2.999983787536621,-0.6942592263221741,-2.9998412132263184,-0.1416558027267456,-0.15284523367881775,-0.1633763462305069,-0.17282429337501526,-0.23675714433193207,-0.24563050270080566,-0.233437180519104,-0.19812892377376556
0.35,0.04517815262079239,0.11542575806379318,0.0,0.9318297505378723,0.0,0.0,-0.3628956973552704,-0.6778029799461365,-0.6295813918113708,0.0,0.0,0.0,1.1100198030471802,-0.43100792169570923,0.6738624572753906,0.4200402498245239,0.9936574697494507,0.0009554318967275321,-0.00022197574435267597,-0.11244510859251022,0.3864404559135437,0.7773544192314148,-0.022440355271100998,-0.9927750825881958,0.10942324995994568,-4.469031810760498,-0.43682944774627686,0.6783287525177002,0.4236282408237457,0.43161147832870483,0.7080155611038208,-0.11451546102762222,0.45330098271369934,0.6687458157539368,0.42000001668930054,-0.5414524674415588,2.999999523162842,-0.7442864775657654,-2.99993896484375,-0.14753367006778717,-0.1579892486333847,-0.1674337238073349,-0.17544148862361908,-0.40734246373176575,-0.32544782757759094,-0.22322414815425873,-0.10197968035936356
0.36666666666666664,0.03228483721613884,0.10334860533475876,0.0,0.9267348051071167,0.0,0.0,-0.3757161796092987,-0.8174844980239868,-0.7639142870903015,0.0,0.0,0.0,-2.5881218910217285,-0.4234982132911682,0.6877754926681519,0.4200000762939453,0.9895423054695129,4.5011147449258715e-05,5.521535513253184e-07,-0.1442427933216095,0.5716744065284729,0.9754056930541992,-0.0008922192500904202,-0.041487663984298706,0.0038487149868160486,-4.428806304931641,-0.42705607414245605,0.6906739473342896,0.4224723279476166,0.7529847621917725,0.854769229888916,-0.0468442440032959,0.45330098271369934,0.6687458157539368,0.42000001668930054,-0.4914478659629822,2.999964475631714,-0.7943346500396729,-3.0000007152557373,-0.15488949418067932,-0.16360147297382355,-0.1709238439798355,-0.1764707714319229,-0.4416523277759552,-0.31779178977012634,-0.17177638411521912,-0.006851221434772015
0.3833333333333333,0.022016488015651703,0.08856949955224991,0.0,0.9103469252586365,0.0,0.0,-0.4138459861278534,-0.5419175624847412,-0.9390060901641846,0.0,0.0,0.0,-5.816948413848877,-0.4105130136013031,0.7078153491020203,0.42038676142692566,0.9835482835769653,0.009468243457376957,-0.0015812190249562263,-0.18039022386074066,1.015457272529602,1.474765658378601,0.09248439967632294,4.121309757232666,-1.7309693098068237,-4.912973403930664,-0.4115673303604126,0.7083966732025146,0.4232010841369629,1.1681272983551025,1.3451093435287476,0.10886305570602417,0.45330098271369934,0.6687458157539368,0.42000001668930054,-0.44144418835639954,2.9999966621398926,-0.8443869948387146,-2.9999969005584717,-0.16214841604232788,-0.16848847270011902,-0.1730148196220398,-0.17541055381298065,-0.39619383215904236,-0.2438790649175644,-0.06554936617612839,0.13415659964084625
0.4,0.015855081379413605,0.0706777349114418,0.0,0.8801727294921875,0.0,0.0,-0.4746535122394562,-0.30230265855789185,-1.1305347681045532,0.0,0.0,0.0,-8.975931167602539,-0.37789303064346313,0.7376605272293091,0.4243883192539215,0.9722387790679932,0.02372237853705883,-0.03240959346294403,-0.2305179089307785,2.962578535079956,2.5079147815704346,0.3109469413757324,20.27033805847168,-10.514155387878418,3.65748929977417,-0.37919825315475464,0.7387847900390625,0.4270016551017761,2.7857861518859863,2.316253423690796,0.4924691319465637,0.45330098271369934,0.6687458157539368,0.42000001668930054,-0.399544894695282,1.5649663209915161,-0.876714289188385,-1.0218982696533203,-0.1709560751914978,-0.17400680482387543,-0.17487956583499908,-0.17336402833461761,-0.5836052298545837,-0.3580203950405121,-0.1152670606970787,0.13727480173110962
0.4166666666666667,0.011856884695589542,0.05792597308754921,0.0,0.8330870866775513,0.0,0.0,-0.5531418323516846,-0.19906897842884064,-0.6331334710121155,0.0,0.0,0.0,-11.748745918273926,-0.305675745010376,0.7833332419395447,0.4324418008327484,0.9510601758956909,0.09385019540786743,-0.07180450856685638,-0.2855182886123657,5.654471397399902,2.689664840698242,0.5822049975395203,3.908867359161377,-8.19296932220459,12.16822338104248,-0.3074968159198761,0.7839094400405884,0.43514859676361084,5.474645614624023,3.191105842590332,0.6338797807693481,0.45330098271369934,0.6687458157539368,0.42000001668930054,-0.3809460401535034,1.1783251762390137,-0.832380473613739,2.999439001083374,-0.18658001720905304,-0.18654264509677887,-0.1820155680179596,-0.17532235383987427,-0.9127687215805054,-0.8532670140266418,-0.534304141998291,-0.23988746106624603
0.43333333333333335,0.004081615246832371,0.05258109048008919,0.0,0.7918383479118347,0.0,0.0,-0.610730767250061,-0.5833714008331299,-0.3170509934425354,0.0,0.0,0.0,-7.1719818115234375,-0.21159231662750244,0.8248701691627502,0.4450717270374298,0.9079757332801819,0.1357177346944809,-0.09177791327238083,-0.3856651186943054,6.060142517089844,1.6902066469192505,0.8803353905677795,11.628412246704102,-5.6879730224609375,15.893620491027832,-0.21335506439208984,0.8270912766456604,0.4473682641983032,5.860991477966309,2.2591042518615723,0.8117729425430298,0.45330098271369934,0.6687458157539368,0.42000001668930054,-0.36184853315353394,1.1492798328399658,-0.8589981198310852,-3.00000262260437,-0.20074057579040527,-0.2010117471218109,-0.19592691957950592,-0.18405498564243317,-0.6404106616973877,-0.6944969296455383,-0.7521440982818604,-0.5347931981086731
0.45,0.000666930282022804,0.04002058506011963,0.0,0.7700759172439575,0.0,0.0,-0.6379522681236267,-0.06463105976581573,-0.9173604249954224,0.0,0.0,0.0,-3.067934036254883,-0.10540241003036499,0.8545717000961304,0.4571906328201294,0.8365764021873474,0.15208794176578522,-0.10033245384693146,-0.5166646838188171,6.927610397338867,0.9410796165466309,0.6371493339538574,0.9693308472633362,-9.546975135803223,-3.4286727905273438,-0.10911554098129272,0.8579022288322449,0.4580686092376709,6.594641208648682,1.2293736934661865,0.6514472961425781,0.45330098271369934,0.6687458157539368,0.42000001668930054,-0.3420799672603607,1.099915623664856,-0.9090221524238586,-2.9999783039093018,-0.2060314565896988,-0.20652352273464203,-0.2017504870891571,-0.18651345372200012,-0.22781860828399658,-0.1798100471496582,-0.14062781631946564,0.06899061799049377
0.4666666666666667,-0.00369284744374454,0.029407614842057228,0.0,0.7404007315635681,0.0,0.0,-0.6721657514572144,-0.3056084215641022,-0.5763119459152222,0.0,0.0,0.0,-6.151816368103027,0.005251295864582062,0.8650948405265808,0.46666595339775085,0.7858959436416626,0.1454612910747528,-0.11402082443237305,-0.5900914072990417,6.703671932220459,-0.5636117458343506,0.5493282079696655,-5.419370174407959,-16.098224639892578,17.623172760009766,0.002795063890516758,0.8705852627754211,0.4685191512107849,6.902884483337402,0.3049296438694,0.7231789827346802,0.45330098271369934,0.6687458157539368,0.42000001668930054,-0.32611945271492004,0.7204404473304749,-0.9590461850166321,-3.00000262260437,-0.2135724127292633,-0.2122960090637207,-0.2061132937669754,-0.18758225440979004,-0.42748984694480896,-0.31712618470191956,-0.23502211272716522,-0.08427462726831436
0.48333333333333334,-0.00634897081181407,0.02351340837776661,0.0,0.7255368232727051,0.0,0.0,-0.6881833076477051,-0.09403739869594574,-0.26356613636016846,0.0,0.0,0.0,-1.4342728853225708,0.11292730271816254,0.8571246266365051,0.4764462113380432,0.6953190565109253,0.17871896922588348,-0.06994333118200302,-0.6926028728485107,5.594269752502441,-1.6854538917541504,0.583412766456604,9.20244312286377,13.098634719848633,20.652734756469727,0.1107904314994812,0.8640734553337097,0.47557640075683594,6.418141841888428,-1.064863681793213,0.28556472063064575,0.45330098271369934,0.6687458157539368,0.42000001668930054,-0.31565168499946594,0.43766894936561584,-1.0090705156326294,-2.9994101524353027,-0.22341765463352203,-0.21919025480747223,-0.2106625735759735,-0.18940259516239166,-0.617177426815033,-0.40534403920173645,-0.23639698326587677,-0.08195360004901886
0.5,-0.0055066910572350025,0.016001299023628235,0.0,0.7033758163452148,0.0,0.0,-0.7108181715011597,0.1062854453921318,-0.5215227603912354,0.0,0.0,0.0,-4.626515865325928,0.20602405071258545,0.8329169154167175,0.48014727234840393,0.6330274939537048,0.241738423705101,-0.006819290574640036,-0.7353857159614563,4.897957801818848,-2.5129873752593994,-0.4830540120601654,-27.95241928100586,18.813148498535156,1.5240837335586548,0.20557901263237,0.8407599925994873,0.47589588165283203,5.279912948608398,-1.8511059284210205,0.06804531067609787,0.45330098271369934,0.6687458157539368,0.42000001668930054,-0.3088292181491852,0.275687575340271,-1.0590933561325073,-3.000002145767212,-0.23276464641094208,-0.22462666034698486,-0.2129172831773758,-0.189189150929451,-0.5403538942337036,-0.2837826609611511,-0.07147584855556488,0.07431855797767639
0.5166666666666666,-0.005708443932235241,0.0121610127389431,0.0,0.6945939660072327,0.0,0.0,-0.7194019556045532,-0.04468851909041405,-0.16261348128318787,0.0,0.0,0.0,-0.3327651917934418,0.2866586148738861,0.7968294024467468,0.4753371775150299,0.5091446042060852,0.2433241456747055,-0.02022170089185238,-0.8253218531608582,4.5238728523254395,-2.1892387866973877,-0.4823808968067169,6.7223992347717285,-7.252434253692627,-24.832059860229492,0.28206944465637207,0.8041214942932129,0.47117501497268677,3.987401008605957,-2.3969385623931885,-0.47043275833129883,0.45330098271369934,0.6687458157539368,0.42000001668930054,-0.30014586448669434,1.0172096490859985,-1.109115481376648,-2.99994158744812,-0.23994043469429016,-0.2311946153640747,-0.21572577953338623,-0.1897708773612976,0.000319845654303208,-0.2816135287284851,-0.11404049396514893,-0.04722394049167633
0.5333333333333333,-0.00404771976172924,0.004840024281293154,0.0,0.6771419644355774,0.0,0.0,-0.7358523607254028,0.12061440944671631,-0.5061014294624329,0.0,0.0,0.0,-3.729229688644409,0.3492893874645233,0.7609412670135498,0.46201029419898987,0.5007648468017578,0.17841167747974396,0.014864456839859486,-0.8468664884567261,3.4743223190307617,-2.230055332183838,-0.8269347548484802,3.8938710689544678,10.37183952331543,-5.687012195587158,0.3466998338699341,0.7670413255691528,0.45924293994903564,3.4988455772399902,-2.2554726600646973,-0.9176890850067139,0.45330098271369934,0.6687458157539368,0.42000001668930054,-0.2768702507019043,1.7310279607772827,-1.1591376066207886,-2.999953269958496,-0.2356163114309311,-0.23145060241222382,-0.2145523726940155,-0.18890564143657684,0.31467074155807495,0.0805090144276619,0.12547120451927185,0.05922803655266762
0.55,8.977510879049078e-05,0.0014081206172704697,0.0,0.6722397804260254,0.0,0.0,-0.7403334975242615,0.27313292026519775,-0.1775970607995987,0.0,0.0,0.0,0.1396583914756775,0.3997229039669037,0.7218431234359741,0.4455850422382355,0.44993555545806885,0.15487465262413025,0.02084590308368206,-0.8792821764945984,2.5208826065063477,-3.03934383392334,-1.083136796951294,-18.35295867919922,-6.879058361053467,12.677063941955566,0.3977818489074707,0.7274047136306763,0.4433133006095886,2.6789770126342773,-2.3077330589294434,-0.9588519334793091,0.45330098271369934,0.6687458157539368,0.42000001668930054,-0.2614171504974365,0.15910612046718597,-1.2091597318649292,-3.000001907348633,-0.2335837334394455,-0.23208457231521606,-0.21451592445373535,-0.1901712566614151,0.23102480173110962,0.06918761134147644,0.046577088534832,-0.08892074972391129
0.5666666666666667,0.006391325034201145,0.0011259624734520912,0.0,0.6586678624153137,0.0,0.0,-0.7524337768554688,0.42723536491394043,0.044360075145959854,0.0,0.0,0.0,-3.0614943504333496,0.4371376037597656,0.6873828768730164,0.42362430691719055,0.4385349154472351,0.12954317033290863,-0.001677351538091898,-0.8893271684646606,1.5955605506896973,-1.3686189651489258,-1.1846197843551636,-12.20661735534668,-10.33637523651123,4.245493412017822,0.4358104467391968,0.6951557397842407,0.42447367310523987,1.5369945764541626,-1.2785693407058716,-0.21119938790798187,0.45330098271369934,0.6687458157539368,0.42000001668930054,-0.25961753726005554,0.4313353896141052,-1.259289026260376,-2.9998483657836914,-0.22779887914657593,-0.2293749898672104,-0.21337154507637024,-0.19223181903362274,0.45956718921661377,0.27390193939208984,0.13921275734901428,-0.07861169427633286
0.5833333333333334,0.014889141544699669,0.003166662761941552,0.0,0.6580443978309631,0.0,0.0,-0.7529791593551636,0.5384595990180969,0.23263372480869293,0.0,0.0,0.0,0.8222489953041077,0.4536439776420593,0.6740703582763672,0.42743855714797974,0.4400535821914673,0.14756175875663757,0.006212559528648853,-0.8857424855232239,0.42058420181274414,-1.2623571157455444,0.14710095524787903,-19.179113388061523,-12.169548034667969,5.802107810974121,0.44978252053260803,0.6809566020965576,0.42947620153427124,0.5656033158302307,-0.8299261331558228,0.05036424845457077,0.45330098271369934,0.6687458157539368,0.42000001668930054,-0.2617560923099518,-0.5036269426345825,-1.230640172958374,2.9971790313720703,-0.2186126559972763,-0.22307372093200684,-0.20973283052444458,-0.1924377828836441,0.5268169045448303,0.38396206498146057,0.2143091857433319,-0.023104112595319748
0.6,0.023208769038319588,0.000833071768283844,0.0,0.645481288433075,0.0,0.0,-0.7637760639190674,0.472727507352829,-0.2659721374511719,0.0,0.0,0.0,-3.054673194885254,0.46051397919654846,0.6622200012207031,0.42510977387428284,0.46943941712379456,0.09532463550567627,-0.016786664724349976,-0.8776434063911438,0.12945608794689178,-0.5050236582756042,-0.2399606704711914,2.005035877227783,11.530095100402832,1.5971139669418335,0.4578414261341095,0.6726661324501038,0.425354540348053,0.12866079807281494,-0.06525580585002899,0.2506968080997467,0.45330098271369934,0.6687458157539368,0.42000001668930054,-0.30067819356918335,-2.9999101161956787,-1.2515803575515747,-2.9985508918762207,-0.20367775857448578,-0.2108139842748642,-0.20160986483097076,-0.1893845796585083,0.9999145269393921,0.9097829461097717,0.6276929974555969,0.29975032806396484
0.6166666666666667,0.032676804810762405,0.0009431689977645874,0.0,0.6443937420845032,0.0,0.0,-0.7646938562393188,0.5711596608161926,0.10418751090765,0.0,0.0,0.0,0.7150781154632568,0.4616379737854004,0.6556606292724609,0.42082861065864563,0.477959543466568,0.005803780164569616,0.012233062647283077,-0.8782774209976196,0.04112580046057701,-0.2600577473640442,-0.15970756113529205,-9.58531379699707,12.747648239135742,1.1531405448913574,0.4600229859352112,0.6711279153823853,0.42865973711013794,0.18615102767944336,-0.05493337661027908,0.18278227746486664,0.45330098271369934,0.6687458157539368,0.42000001668930054,-0.33165931701660156,-0.8808022141456604,-1.3015614748001099,-2.9999232292175293,-0.1900051087141037,-0.19821317493915558,-0.19331702589988708,-0.1861068159341812,0.736277163028717,0.6771634221076965,0.4263137876987457,0.138759046792984
0.6333333333333333,0.043138280510902405,-7.650974293937907e-05,0.0,0.6320865750312805,0.0,0.0,-0.7748977541923523,0.6599993705749512,-0.12821020185947418,0.0,0.0,0.0,-2.8820960521698,0.46140256524086,0.654243528842926,0.4200006425380707,0.5094494819641113,-3.168003968312405e-05,-7.33965789549984e-05,-0.8605004549026489,-0.11345501244068146,0.04581383615732193,-0.002291603945195675,0.2229170799255371,-0.016680404543876648,4.255725383758545,0.45909130573272705,0.6729785203933716,0.4283803701400757,-0.23870313167572021,0.20828399062156677,-0.021920982748270035,0.45330098271369934,0.6687458157539368,0.42000001668930054,-0.3725757300853729,-2.999990463256836,-1.2633376121520996,2.99983549118042,-0.17853613197803497,-0.18753021955490112,-0.1865285485982895,-0.18375512957572937,0.6762772798538208,0.6378822326660156,0.4186351001262665,0.17001841962337494
0.65,0.05593084916472435,0.0018275253241881728,0.0,0.6321853995323181,0.0,0.0,-0.7748171091079712,0.7851285338401794,0.1503552347421646,0.0,0.0,0.0,0.9556357860565186,0.459561824798584,0.6552231907844543,0.42000022530555725,0.5285201668739319,2.1615032892441377e-06,7.03653677192051e-06,-0.8489207029342651,-0.13416284322738647,0.10221844911575317,-0.0002446201106067747,-0.008506812155246735,-0.0022479589097201824,1.4392828941345215,0.45584195852279663,0.6769072413444519,0.43005305528640747,-0.1511591374874115,0.36207592487335205,0.13396525382995605,0.45330098271369934,0.6687458157539368,0.42000001668930054,-0.4226032495498657,-2.9996321201324463,-1.2836989164352417,-2.9999032020568848,-0.17065556347370148,-0.18009702861309052,-0.18240824341773987,-0.1833937019109726,0.46293556690216064,0.41479337215423584,0.20548854768276215,-0.02593514882028103
0.6666666666666666,0.06566483527421951,-0.0007964863907545805,0.0,0.6551051139831543,0.0,0.0,-0.755537748336792,0.509412944316864,-0.20073392987251282,0.0,0.0,0.0,4.276413440704346,0.45774760842323303,0.6566923260688782,0.4200219511985779,0.5320167541503906,0.0002976750547531992,-0.00047127410653047264,-0.8467336297035217,-0.1217258870601654,0.10013039410114288,0.007545205298811197,-0.1633741855621338,-0.3400603234767914,-0.5277756452560425,0.4540308713912964,0.6813884973526001,0.4324461817741394,-0.13884970545768738,0.17877139151096344,0.1686122566461563,0.45330098271369934,0.6687458157539368,0.42000001668930054,-0.47265154123306274,-2.9999983310699463,-1.3336683511734009,-2.9984405040740967,-0.16211619973182678,-0.17195482552051544,-0.17710718512535095,-0.18122582137584686,0.3579811751842499,0.38278865814208984,0.27318161725997925,0.14748695492744446
0.6833333333333333,0.0756799504160881,-0.005629430990666151,0.0,0.6628347039222717,0.0,0.0,-0.7487657070159912,0.6221139430999756,-0.3898909389972687,0.0,0.0,0.0,0.18247540295124054,0.45642760396003723,0.6577802896499634,0.4200000464916229,0.5299423336982727,1.9149793217820843e-07,-1.2928225601172016e-07,-0.8480336666107178,-0.06168799102306366,0.05076605826616287,-4.060508217662573e-06,-0.00018280441872775555,0.00012796002556569874,-0.1931590884923935,0.4531897008419037,0.6845278739929199,0.43648678064346313,-0.02007623203098774,0.13646288216114044,0.30184003710746765,0.45330098271369934,0.6687458157539368,0.42000001668930054,-0.5226705074310303,-2.9999988079071045,-1.3836437463760376,-2.999906539916992,-0.1575843095779419,-0.1663466989994049,-0.17228931188583374,-0.17729295790195465,0.2562483251094818,0.3498314321041107,0.35036224126815796,0.3529023230075836
0.7,0.08736713230609894,-0.014015069231390953,0.0,0.6479113101959229,0.0,0.0,-0.7617157697677612,0.7338212728500366,-0.5783038139343262,0.0,0.0,0.0,-3.259878396987915,0.45615893602371216,0.6580019593238831,0.4200000464916229,0.5296750068664551,-7.511863486797665e-07,1.3704514003620716e-06,-0.8482006788253784,0.0014507162850350142,-0.0010654585203155875,-6.729946471750736e-05,-0.0024646709207445383,-0.00230151554569602,0.0017552014905959368,0.4569903314113617,0.6890221834182739,0.44855284690856934,0.46808257699012756,0.342560738325119,1.2420454025268555,0.45330098271369934,0.6687458157539368,0.42000001668930054,-0.572682797908783,-2.999981164932251,-1.4336621761322021,-2.9999990463256836,-0.15612559020519257,-0.16306926310062408,-0.16849608719348907,-0.17289860546588898,-0.007633976638317108,0.11139753460884094,0.16521161794662476,0.22630344331264496
0.7166666666666667,0.1032363772392273,-0.016828902065753937,0.0,0.609952449798584,0.0,0.0,-0.7924380302429199,1.036397099494934,-0.033259067684412,0.0,0.0,0.0,-6.92604398727417,0.45615869760513306,0.6580023765563965,0.41999995708465576,0.5296754240989685,-1.7395110489815124e-06,-5.170002168597421e-06,-0.8482003211975098,2.466530895617325e-05,-0.0003697691427078098,-7.026875391602516e-05,0.009965616278350353,-0.0034485154319554567,-0.0010501501383259892,0.4738229215145111,0.6874192357063293,0.47508907318115234,1.6432647705078125,-0.48172426223754883,2.0482492446899414,0.45330098271369934,0.6687458157539368,0.42000001668930054,-0.6226934790611267,-2.999664545059204,-1.4836804866790771,-2.9999516010284424,-0.16576579213142395,-0.16888973116874695,-0.1714705377817154,-0.17302429676055908,-0.7954798936843872,-0.5218333601951599,-0.2972338795661926,-0.07433441281318665
0.7333333333333333,0.11533381044864655,-0.015923667699098587,0.0,0.5853869318962097,0.0,0.0,-0.8107540607452393,0.6087175607681274,-0.10356757044792175,0.0,0.0,0.0,-2.368678331375122,0.45615866780281067,0.6580023169517517,0.41999995708465576,0.5296754240989685,-1.6666590454406105e-06,-5.285040970193222e-06,-0.8482004404067993,2.8741233109030873e-05,-0.00036363524850457907,-6.835232488811016e-05,0.0098295658826828,-0.0034946065861731768,-0.0010435221483930945,0.4983556866645813,0.6833667755126953,0.509387731552124,1.4127273559570312,-0.0327807255089283,2.0328853130340576,0.45330098271369934,0.6687458157539368,0.42000001668930054,-0.6406662464141846,0.5390565395355225,-1.5336986780166626,-2.9999992847442627,-0.17529207468032837,-0.1751151978969574,-0.1750437468290329,-0.17395082116127014,-0.18430930376052856,-0.10300155729055405,-0.04705362766981125,0.01577116921544075
0.75,0.12182486057281494,-0.015852678567171097,0.0,0.5886407494544983,0.0,0.0,-0.808394730091095,0.3127121329307556,0.05325056612491608,0.0,0.0,0.0,1.3535048961639404,0.45615866780281067,0.6580023169517517,0.41999995708465576,0.5296751856803894,-1.7337026747554773e-06,-5.510550636245171e-06,-0.8482005596160889,3.261392703279853e-05,-0.000363530358299613,-6.818934343755245e-05,0.009832143783569336,-0.0035025698598474264,-0.0010517366463318467,0.5192060470581055,0.6843862533569336,0.5364102721214294,0.9883923530578613,0.12205012142658234,1.3025649785995483,0.45330098271369934,0.6687458157539368,0.42000001668930054,-0.6089208126068115,2.9999914169311523,-1.4988025426864624,2.999999761581421,-0.1765933334827423,-0.17538407444953918,-0.17457304894924164,-0.17263472080230713,0.003545258194208145,0.052083324640989304,0.08786927908658981,0.12761148810386658
0.7666666666666666,0.12425047904253006,-0.018956290557980537,0.0,0.5819352269172668,0.0,0.0,-0.8132351040840149,0.11133693158626556,-0.2912552058696747,0.0,0.0,0.0,-2.155533790588379,0.45615866780281067,0.6580023169517517,0.41999995708465576,0.529675304889679,-1.8366615677223308e-06,-5.405970114225056e-06,-0.8482004404067993,2.804563700919971e-05,-0.00036342418752610683,-6.830529309809208e-05,0.009823956526815891,-0.0034917769953608513,-0.001041398965753615,0.5286496877670288,0.6873190402984619,0.552528440952301,0.14139187335968018,0.19849316775798798,0.7699230909347534,0.45330098271369934,0.6687458157539368,0.42000001668930054,-0.5700021386146545,1.746424674987793,-1.4487537145614624,2.999999523162842,-0.17550918459892273,-0.17367742955684662,-0.17240238189697266,-0.16998876631259918,0.0704086422920227,0.10614024102687836,0.1339276283979416,0.1582755595445633
0.7833333333333333,0.12389703840017319,-0.017457542940974236,0.0,0.5871695876121521,0.0,0.0,-0.8094639182090759,-0.0639617070555687,0.22138115763664246,0.0,0.0,0.0,1.6696035861968994,0.45615869760513306,0.6580023169517517,0.41999995708465576,0.5296753644943237,-1.8318032743991353e-06,-5.4518282013305e-06,-0.8482004404067993,2.9652939701918513e-05,-0.00036346822162158787,-6.825546734035015e-05,0.009827331639826298,-0.0034959353506565094,-0.0010449346154928207,0.5271623134613037,0.6895583868026733,0.5633474588394165,-0.26794570684432983,0.17566396296024323,0.5513011813163757,0.45330098271369934,0.6687458157539368,0.42000001668930054,-0.526045560836792,3.0000007152557373,-1.465938925743103,-3.0000007152557373,-0.1796216368675232,-0.17621643841266632,-0.17356035113334656,-0.1699921041727066,-0.28444477915763855,-0.1947667896747589,-0.11523717641830444,-0.051918141543865204
0.8,0.12431659549474716,-0.019038744270801544,0.0,0.5803929567337036,0.0,0.0,-0.8143365383148193,0.07411357015371323,-0.20478521287441254,0.0,0.0,0.0,-2.008777618408203,0.45615869760513306,0.6580023169517517,0.41999995708465576,0.5296754240989685,-1.8396278846921632e-06,-5.370947746996535e-06,-0.8482003211975098,2.951275382656604e-05,-0.00036367043503560126,-6.8300636485219e-05,0.009832627139985561,-0.003499502083286643,-0.0010452887509018183,0.5160548686981201,0.6928945779800415,0.5650040507316589,-1.0454758405685425,0.19154931604862213,-0.152581587433815,0.45330098271369934,0.6687458157539368,0.42000001668930054,-0.5069916248321533,-0.4321897625923157,-1.4273089170455933,3.000000238418579,-0.18066811561584473,-0.17647820711135864,-0.17308974266052246,-0.1689838469028473,0.0411372147500515,0.07255923748016357,0.10444566607475281,0.12587589025497437
0.8166666666666667,0.12633837759494781,-0.016572728753089905,0.0,0.5848824381828308,0.0,0.0,-0.8111180663108826,0.11307116597890854,0.07556493580341339,0.0,0.0,0.0,1.168053388595581,0.45615869760513306,0.6580023169517517,0.41999995708465576,0.5296754837036133,-1.7254252497878042e-06,-5.400218469731044e-06,-0.8482003211975098,2.9484490369213745e-05,-0.00036366432323120534,-6.831041537225246e-05,0.009832101874053478,-0.003499278100207448,-0.0010452631395310163,0.5009498000144958,0.6963106393814087,0.5615614056587219,-0.6126078367233276,0.4192320704460144,-0.25709283351898193,0.45330098271369934,0.6687458157539368,0.42000001668930054,-0.49368321895599365,1.8258756399154663,-1.4449161291122437,-3.0,-0.18394140899181366,-0.17886939644813538,-0.17452728748321533,-0.16963374614715576,0.08861368149518967,0.052480682730674744,0.033544134348630905,0.017486711964011192
0.8333333333333334,0.12959147989749908,-0.018208622932434082,0.0,0.5967452526092529,0.0,0.0,-0.8024307489395142,0.2599259912967682,-0.14175641536712646,0.0,0.0,0.0,2.145751476287842,0.45615869760513306,0.6580023169517517,0.41999995708465576,0.5296754240989685,-1.721967123557988e-06,-5.628907729260391e-06,-0.8482003808021545,3.4245855204062536e-05,-0.00036367756547406316,-6.817816756665707e-05,0.009837845340371132,-0.0035091189201921225,-0.001056017354130745,0.491571843624115,0.701439380645752,0.556613564491272,-0.5129372477531433,0.1854267120361328,-0.24146446585655212,0.45330098271369934,0.6687458157539368,0.42000001668930054,-0.5089693069458008,-3.0,-1.406345009803772,3.0,-0.1828843653202057,-0.17812223732471466,-0.17373713850975037,-0.16871409118175507,0.013383469544351101,0.01453320775181055,0.0390230230987072,0.06968920677900314
0.85,0.13534699380397797,-0.022292740643024445,0.0,0.5927891731262207,0.0,0.0,-0.8053576946258545,0.3806760013103485,-0.30461418628692627,0.0,0.0,0.0,-1.505724549293518,0.45615869760513306,0.6580023169517517,0.41999995708465576,0.5296753644943237,-1.7734691937221214e-06,-5.1755223466898315e-06,-0.8482005000114441,2.9630795324919745e-05,-0.00036371598253026605,-6.828806363046169e-05,0.009834627620875835,-0.003501488361507654,-0.0010458908509463072,0.48803144693374634,0.7028127908706665,0.5491857528686523,0.07877160608768463,-0.033746156841516495,-0.47389137744903564,0.45330098271369934,0.6687458157539368,0.42000001668930054,-0.5589788556098938,-2.999998092651367,-1.4243443012237549,-2.9999992847442627,-0.18381614983081818,-0.17863105237483978,-0.1733524203300476,-0.16727031767368317,-0.05279242992401123,-0.012094935402274132,0.05972254276275635,0.14403779804706573
0.8666666666666667,0.14368106424808502,-0.02503247745335102,0.0,0.5672168731689453,0.0,0.0,-0.8235684633255005,0.5515843629837036,-0.047907207161188126,0.0,0.0,0.0,-4.577108383178711,0.45615869760513306,0.6580023169517517,0.41999995708465576,0.5296753644943237,-1.744339897413738e-06,-5.3059075071359985e-06,-0.8482003808021545,2.9776872906950302e-05,-0.0003637299232650548,-6.828573532402515e-05,0.009835219010710716,-0.0035019468050450087,-0.0010460122721269727,0.49265778064727783,0.6995627284049988,0.5438787937164307,0.47258704900741577,-0.3207310438156128,-0.03026840090751648,0.45330098271369934,0.6687458157539368,0.42000001668930054,-0.6089819073677063,-2.999988555908203,-1.4743626117706299,-3.000000476837158,-0.18533959984779358,-0.17976050078868866,-0.17350997030735016,-0.1662147492170334,-0.10840349644422531,-0.09619606286287308,-0.048266589641571045,0.014540598727762699
0.8833333333333333,0.15432560443878174,-0.023122107610106468,0.0,0.5572409629821777,0.0,0.0,-0.8303508162498474,0.6747828722000122,0.17984937131404877,0.0,0.0,0.0,-0.46493664383888245,0.45615869760513306,0.6580023169517517,0.41999995708465576,0.5296754240989685,-1.8951603806272033e-06,-5.5982113735808525e-06,-0.8482003808021545,2.9855818866053596e-05,-0.0003636754408944398,-6.82855024933815e-05,0.009833332151174545,-0.003501096973195672,-0.0010460808407515287,0.5002831220626831,0.6980211734771729,0.5457037687301636,0.3913184106349945,0.06654989719390869,0.2355131208896637,0.45330098271369934,0.6687458157539368,0.42000001668930054,-0.627630352973938,0.4753403067588806,-1.5243809223175049,-3.0,-0.1864030659198761,-0.18129561841487885,-0.17499692738056183,-0.16743852198123932,-0.005505405366420746,-0.06578526645898819,-0.10126572847366333,-0.12738119065761566
0.9,0.16084767878055573,-0.026490628719329834,0.0,0.5734809041023254,0.0,0.0,-0.8192189335823059,0.3907374143600464,-0.26777929067611694,0.0,0.0,0.0,3.0420632362365723,0.45615869760513306,0.6580023169517517,0.41999995708465576,0.5296752452850342,-1.7649060737312539e-06,-5.209089977142867e-06,-0.8482005596160889,2.9602879294543527e-05,-0.00036375998752191663,-6.828876212239265e-05,0.00983603298664093,-0.003502495586872101,-0.0010459456825628877,0.5066145658493042,0.7024761438369751,0.5466768741607666,0.30574920773506165,0.23159314692020416,-0.1349758505821228,0.45330098271369934,0.6687458157539368,0.42000001668930054,-0.6168941855430603,0.7791904807090759,-1.485580563545227,3.000000238418579,-0.17988470196723938,-0.1766456812620163,-0.1718689352273941,-0.16568168997764587,0.2620725631713867,0.19035044312477112,0.12990804016590118,0.06993401050567627
