vladlanda/robotic-transformer/data/env_000_episode_0220.csv
sim_time_s,robot_box_x,robot_box_y,robot_box_z,robot_box_quat_w,robot_box_quat_x,robot_box_quat_y,robot_box_quat_z,robot_box_linvel_x,robot_box_linvel_y,robot_box_linvel_z,robot_box_angvel_x,robot_box_angvel_y,robot_box_angvel_z,cube_world_x,cube_world_y,cube_world_z,cube_quat_w,cube_quat_x,cube_quat_y,cube_quat_z,cube_linvel_x,cube_linvel_y,cube_linvel_z,cube_angvel_x,cube_angvel_y,cube_angvel_z,endpoint_world_x,endpoint_world_y,endpoint_world_z,endpoint_linvel_x,endpoint_linvel_y,endpoint_linvel_z,target_cube_world_x,target_cube_world_y,target_cube_world_z,gripper_actual_pos_rad_gp_leftgearjoint,gripper_actual_vel_rad_s_gp_leftgearjoint,gripper_actual_pos_rad_gp_rotatingjoint,gripper_actual_vel_rad_s_gp_rotatingjoint,motor_angle_rad_joint1,motor_angle_rad_joint2,motor_angle_rad_joint3,motor_angle_rad_joint4,motor_speed_rad_s_joint1,motor_speed_rad_s_joint2,motor_speed_rad_s_joint3,motor_speed_rad_s_joint4
0.0,0.0,0.0,0.0,1.0,0.0,0.0,0.0,0.0,0.0,0.0,0.0,0.0,0.0,-0.39181217551231384,0.6620707511901855,0.41999998688697815,1.0,0.0,0.0,0.0,0.0,0.0,0.0,0.0,0.0,0.0,3.42540442943573e-06,-0.005000244826078415,1.313499927520752,0.0,0.0,0.0,0.3712185025215149,0.6933225989341736,0.42000001668930054,-1.5707999467849731,0.0,0.0,0.0,0.0,0.0,0.0,0.0,0.0,0.0,0.0,0.0
0.016666666666666666,0.0028778850100934505,0.0021806680597364902,0.0,0.9998081922531128,0.0,0.0,0.019586581736803055,0.24087215960025787,0.18240931630134583,0.0,0.0,0.0,3.1418697834014893,-0.3918122947216034,0.6620704531669617,0.41999998688697815,1.0,3.279964630564791e-06,-8.339746386809566e-07,8.465587342243452e-08,-1.9833529222523794e-05,0.00017983045836444944,-6.132945418357849e-05,0.0009432713268324733,-0.004689474124461412,-0.00031981561915017664,-0.007110234349966049,0.003379564033821225,1.3159373998641968,-0.8143353462219238,0.9868683815002441,0.18095196783542633,0.3712185025215149,0.6933225989341736,0.42000001668930054,-1.5301095247268677,3.0000011920928955,-0.04584788903594017,-2.9999992847442627,0.0008691533003002405,0.0007963840034790337,0.0007110277656465769,0.0006108740926720202,0.11094217747449875,0.09756709635257721,0.08334315568208694,0.06823883205652237
0.03333333333333333,0.00896097719669342,0.006801910698413849,0.0,0.9997960329055786,0.0,0.0,0.020196840167045593,0.40702104568481445,0.3153086304664612,0.0,0.0,0.0,-0.8691302537918091,-0.39181241393089294,0.6620703935623169,0.4200000464916229,1.0,3.3908179375430336e-06,-2.132458348569344e-06,-3.7097745320124886e-08,0.00026357852038927376,0.00026937833172269166,-0.00010509369894862175,-0.0017707126680761576,0.004130884539335966,-0.0001354814594378695,-0.027548745274543762,0.026029296219348907,1.3166223764419556,-1.5915231704711914,1.6149303913116455,-0.08203791081905365,0.3712185025215149,0.6933225989341736,0.42000001668930054,-1.4800903797149658,3.000002861022949,-0.09588772058486938,-3.0000016689300537,0.002990148728713393,0.0026527750305831432,0.002277362858876586,0.0018608345417305827,0.1642221361398697,0.13976691663265228,0.11382713168859482,0.08631042391061783
0.05,0.01783730834722519,0.013563764281570911,0.0,0.9999774694442749,0.0,0.0,0.006712284404784441,0.5961659550666809,0.4448922872543335,0.0,0.0,0.0,-2.003129720687866,-0.39181244373321533,0.6620704531669617,0.4200000464916229,1.0,3.7651293496310245e-06,-2.2119379536889028e-06,5.6273887771851605e-09,0.0002653067058417946,0.00026691422681324184,-0.00010440615005791187,-0.0017243530601263046,0.00417736079543829,-0.00012949267693329602,-0.05803017318248749,0.0557660236954689,1.3118183612823486,-2.0217556953430176,1.9329047203063965,-0.4594954252243042,0.3712185025215149,0.6933225989341736,0.42000001668930054,-1.4300720691680908,3.000002145767212,-0.14592641592025757,-3.0000009536743164,0.0057580797001719475,0.0049442569725215435,0.0040581910870969296,0.003095435444265604,0.19318249821662903,0.15437714755535126,0.11368575692176819,0.07101262360811234
0.06666666666666667,0.02918366529047489,0.022674839943647385,0.0,0.9999125599861145,0.0,0.0,0.013222129084169865,0.7291507720947266,0.5895495414733887,0.0,0.0,0.0,1.8033130168914795,-0.39181244373321533,0.6620703935623169,0.4200000464916229,0.9999999403953552,3.406754103707499e-06,-2.2856077066535363e-06,4.300980265270482e-07,0.0002670255198609084,0.0002679179306142032,-0.0001043803058564663,-0.001740670995786786,0.004211848136037588,-0.00012850687198806554,-0.0967915952205658,0.08710768818855286,1.3003151416778564,-2.497476100921631,1.97434663772583,-0.8962047100067139,0.3712185025215149,0.6933225989341736,0.42000001668930054,-1.3800499439239502,3.0000009536743164,-0.1704370677471161,-0.17012855410575867,0.008238828741014004,0.006747919600456953,0.0051457881927490234,0.0034274221397936344,0.14851872622966766,0.09968925267457962,0.04881324991583824,-0.004205031786113977
0.08333333333333333,0.04273294657468796,0.03319627046585083,0.0,0.9999903440475464,0.0,0.0,0.004388954024761915,0.8596022129058838,0.6898694038391113,0.0,0.0,0.0,-1.9932808876037598,-0.39181244373321533,0.6620703935623169,0.4200000464916229,1.0,3.697269221447641e-06,-2.188940243286197e-06,-2.6321629320591455e-07,0.00026389610138721764,0.0002658638986758888,-0.00010433932766318321,-0.0017081708647310734,0.004150133114308119,-0.00012991161202080548,-0.13488665223121643,0.12538233399391174,1.2832865715026855,-2.1369802951812744,2.505384683609009,-1.119308590888977,0.3712185025215149,0.6933225989341736,0.42000001668930054,-1.3300366401672363,3.0000009536743164,-0.21119536459445953,-2.999999523162842,0.009263400919735432,0.006742663681507111,0.004070179536938667,0.0012404974550008774,0.016744794324040413,-0.06025220826268196,-0.13934943079948425,-0.22054195404052734
0.1,0.05080316588282585,0.04582276940345764,0.0,0.9993477463722229,0.0,0.0,-0.03611193597316742,0.35090845823287964,0.8126922845840454,0.0,0.0,0.0,-5.816856384277344,-0.39181244373321533,0.6620703935623169,0.4200000464916229,0.9999999403953552,3.6203723539074417e-06,-2.2652432107861387e-06,1.7462606649587542e-07,0.00026676998822949827,0.00026740916655398905,-0.0001040794886648655,-0.0017386159161105752,0.0042092096991837025,-0.00012775268987752497,-0.1695995330810547,0.17061521112918854,1.2608050107955933,-2.0709855556488037,2.812694787979126,-1.4950764179229736,0.3712185025215149,0.6933225989341736,0.42000001668930054,-1.2800164222717285,2.999992609024048,-0.17735327780246735,2.9999992847442627,0.004117588046938181,0.0007028314867056906,-0.0029071264434605837,-0.00672137551009655,-0.4219028055667877,-0.47224321961402893,-0.5246444344520569,-0.5793789625167847
0.11666666666666667,0.0552198551595211,0.059784334152936935,0.0,0.9983537197113037,0.0,0.0,-0.05735684558749199,0.3281818926334381,0.8518586158752441,0.0,0.0,0.0,-1.128635287284851,-0.39181244373321533,0.6620703935623169,0.4200000464916229,1.0,3.7983443235134473e-06,-2.2628721580986166e-06,-1.5019327292975504e-07,0.00026374091976322234,0.0002656608703546226,-0.00010428996756672859,-0.0017054241616278887,0.004147560801357031,-0.00012980113388039172,-0.2089775949716568,0.21178528666496277,1.23661470413208,-2.4287471771240234,2.5148770809173584,-1.4029943943023682,0.3712185025215149,0.6933225989341736,0.42000001668930054,-1.2300266027450562,3.0000007152557373,-0.20893670618534088,-3.000000476837158,-0.0011407819110900164,-0.0058707669377326965,-0.010783975012600422,-0.015891406685113907,-0.08509499579668045,-0.2028079330921173,-0.31669026613235474,-0.42660677433013916
0.13333333333333333,0.0666341558098793,0.07074910402297974,0.0,0.9960120916366577,0.0,0.0,-0.08921808749437332,0.7190564274787903,0.6590045094490051,0.0,0.0,0.0,-4.529590129852295,-0.39181244373321533,0.6620704531669617,0.4200000464916229,0.9999999403953552,3.550494056980824e-06,-2.2298402200249257e-06,2.929137679075211e-07,0.00026703279581852257,0.0002677927550394088,-0.00010417005978524685,-0.0017440064111724496,0.00421349098905921,-0.00012799979595001787,-0.2459288388490677,0.26069360971450806,1.210921049118042,-2.0406908988952637,3.3365445137023926,-1.739366888999939,0.3712185025215149,0.6933225989341736,0.42000001668930054,-1.1800066232681274,2.9999945163726807,-0.1750938445329666,2.999999523162842,-2.7267053155810572e-05,-0.007057426497340202,-0.014188277535140514,-0.021426936611533165,-0.11324497312307358,-0.22852805256843567,-0.3402016758918762,-0.4480469524860382
0.15,0.07350733876228333,0.0792294517159462,0.0,0.9889395236968994,0.0,0.0,-0.14831946790218353,0.37559786438941956,0.4694695770740509,0.0,0.0,0.0,-7.948374271392822,-0.39181244373321533,0.6620703935623169,0.4200000464916229,0.9999999403953552,3.3380551940354053e-06,-2.242888285763911e-06,-2.8010754604679278e-08,0.0002667464141268283,0.00026758297462947667,-0.00010427739471197128,-0.0017367892432957888,0.0042068264447152615,-0.00012831403000745922,-0.2784639000892639,0.3189879059791565,1.1766436100006104,-1.7708684206008911,3.7960736751556396,-2.320645809173584,0.3712185025215149,0.6933225989341736,0.42000001668930054,-1.139331579208374,1.9373401403427124,-0.20674031972885132,-2.999999523162842,-0.007649834733456373,-0.01592395268380642,-0.024260131642222404,-0.0326673723757267,-0.5033282041549683,-0.5699816346168518,-0.633826732635498,-0.6950054168701172
0.16666666666666666,0.07688618451356888,0.08919448405504227,0.0,0.9827679991722107,0.0,0.0,-0.18484321236610413,0.15344910323619843,0.6096020936965942,0.0,0.0,0.0,-3.206205368041992,-0.39181244373321533,0.6620704531669617,0.4200000464916229,0.9999999403953552,3.6477645153354388e-06,-2.307274144186522e-06,3.529925152179203e-08,0.00026726932264864445,0.0002680148754734546,-0.0001041884534060955,-0.0017472195904701948,0.004217570647597313,-0.000127984574646689,-0.31421732902526855,0.3781117796897888,1.1304783821105957,-2.0699005126953125,3.745962142944336,-3.1668577194213867,0.3712185025215149,0.6933225989341736,0.42000001668930054,-1.0949159860610962,2.999999761581421,-0.25676417350769043,-3.000000238418579,-0.017603527754545212,-0.026591677218675613,-0.0355832539498806,-0.04459233582019806,-0.6090307831764221,-0.6373029351234436,-0.6617632508277893,-0.6827407479286194
0.18333333333333332,0.08384650945663452,0.09557628631591797,0.0,0.9724097847938538,0.0,0.0,-0.23327936232089996,0.502959132194519,0.38975387811660767,0.0,0.0,0.0,-6.672850608825684,-0.39181244373321533,0.6620703935623169,0.4200000464916229,0.9999999403953552,3.2904786166909616e-06,-2.1938897134532453e-06,-2.792105249227461e-07,0.00026678101858124137,0.00026776143931783736,-0.00010434072464704514,-0.0017391619039699435,0.0042070201598107815,-0.00012845500896219164,-0.34706246852874756,0.4432207942008972,1.070061445236206,-1.6579790115356445,4.131437301635742,-4.105307579040527,0.3712185025215149,0.6933225989341736,0.42000001668930054,-1.0449129343032837,3.000000476837158,-0.30679193139076233,-3.000000476837158,-0.02628198266029358,-0.035644564777612686,-0.04495135694742203,-0.05422388017177582,-0.697491466999054,-0.6800665259361267,-0.6613923907279968,-0.6420804262161255
0.2,0.08706198632717133,0.10462189465761185,0.0,0.9652456641197205,0.0,0.0,-0.26134416460990906,0.15120966732501984,0.5364053845405579,0.0,0.0,0.0,-2.2397098541259766,-0.39181244373321533,0.6620703935623169,0.4200000464916229,1.0,3.280698592789122e-06,-2.2191520656633656e-06,1.5949687792726763e-07,0.00026627854094840586,0.0002674016577657312,-0.0001042510848492384,-0.0017356991302222013,0.004197761882096529,-0.00012865323515143245,-0.3763290345668793,0.5036532878875732,0.9939220547676086,-1.5195057392120361,3.5612406730651855,-4.879621505737305,0.3712185025215149,0.6933225989341736,0.42000001668930054,-0.9949060678482056,3.000002861022949,-0.35681840777397156,-3.0000007152557373,-0.04151519760489464,-0.05096539482474327,-0.06003900244832039,-0.06816274672746658,-0.8736086487770081,-0.8834332227706909,-0.869658350944519,-0.8051556348800659
0.21666666666666667,0.08813831210136414,0.11032941937446594,0.0,0.9540843963623047,0.0,0.0,-0.2995380163192749,0.03223790228366852,0.24105419218540192,0.0,0.0,0.0,-5.640380382537842,-0.39181244373321533,0.6620704531669617,0.4200000464916229,1.0,3.6131289107288467e-06,-2.270098320877878e-06,2.2102773300503031e-07,0.00026712726685218513,0.0002678176388144493,-0.00010414118878543377,-0.0017445299308747053,0.004215225111693144,-0.00012786460865754634,-0.39938968420028687,0.5614827871322632,0.905637264251709,-1.0624877214431763,3.347578763961792,-5.623322486877441,0.3712185025215149,0.6933225989341736,0.42000001668930054,-0.9448956847190857,3.0000014305114746,-0.40684768557548523,-3.0000016689300537,-0.05687917023897171,-0.06631123274564743,-0.07486391067504883,-0.08180711418390274,-0.9342886805534363,-0.9283530712127686,-0.8846272826194763,-0.8111121654510498
0.23333333333333334,0.08595599234104156,0.11751919984817505,0.0,0.947887122631073,0.0,0.0,-0.31860628724098206,-0.2450803816318512,0.4562147855758667,0.0,0.0,0.0,-1.2300053834915161,-0.39181244373321533,0.6620703935623169,0.4200000464916229,1.0,3.3818575957411667e-06,-2.290973952767672e-06,2.7281259917799616e-07,0.00026691483799368143,0.00026780000189319253,-0.00010433257557451725,-0.0017395805334672332,0.004209765233099461,-0.0001284360041609034,-0.4173109531402588,0.6066336035728455,0.8080004453659058,-0.8225787878036499,2.3249738216400146,-6.035934925079346,0.3712185025215149,0.6933225989341736,0.42000001668930054,-0.8948850035667419,3.000002861022949,-0.4568783640861511,-2.9999990463256836,-0.07324486970901489,-0.08266622573137283,-0.09118381887674332,-0.09796170890331268,-0.9908279776573181,-0.991988480091095,-0.9929355978965759,-0.9900410771369934
0.25,0.08634212613105774,0.12097521871328354,0.0,0.9377509355545044,0.0,0.0,-0.34730851650238037,0.0665227547287941,0.15303297340869904,0.0,0.0,0.0,-4.302621364593506,-0.39181241393089294,0.6620703935623169,0.4200000464916229,0.9999999403953552,3.7065874494146556e-06,-2.222986267952365e-06,-2.2550398171006236e-07,0.00026424622046761215,0.00026656605768948793,-0.00010457751341164112,-0.0017168939812108874,0.004155486822128296,-0.00013062988000456244,-0.42780810594558716,0.6417328119277954,0.7016990184783936,-0.26897260546684265,1.7211060523986816,-6.567399978637695,0.3712185025215149,0.6933225989341736,0.42000001668930054,-0.8448743224143982,2.9999988079071045,-0.5069092512130737,-3.0000007152557373,-0.08903639018535614,-0.09851031005382538,-0.10701646655797958,-0.11373834311962128,-0.9930473566055298,-0.9939173460006714,-0.9946107268333435,-0.99211585521698
0.26666666666666666,0.08353068679571152,0.12212179601192474,0.0,0.9342727065086365,0.0,0.0,-0.35655927658081055,-0.22944192588329315,0.03531680256128311,0.0,0.0,0.0,-0.21349014341831207,-0.39181244373321533,0.6620703935623169,0.4200000464916229,0.9999999403953552,3.7197082747297827e-06,-2.4034441139519913e-06,-1.830746896303026e-07,0.0002662326442077756,0.0002672917617019266,-0.00010425853542983532,-0.0017327014356851578,0.004196543712168932,-0.00012851170322392136,-0.42993906140327454,0.65717613697052,0.5962328910827637,0.17902803421020508,0.30776721239089966,-6.091436862945557,0.3712185025215149,0.6933225989341736,0.42000001668930054,-0.7948653101921082,2.999999523162842,-0.5569389462471008,-3.00000262260437,-0.10665819048881531,-0.1158764511346817,-0.12419210374355316,-0.1307670921087265,-1.0053826570510864,-1.0040521621704102,-1.0030364990234375,-1.002231240272522
0.2833333333333333,0.07697408646345139,0.12113586813211441,0.0,0.9259170293807983,0.0,0.0,-0.3777269124984741,-0.3719548285007477,-0.13857503235340118,0.0,0.0,0.0,-3.511728048324585,-0.39181244373321533,0.6620704531669617,0.4200000464916229,0.9999999403953552,3.584110345400404e-06,-2.315385700057959e-06,7.404764090779281e-08,0.0002652206749189645,0.00026455355691723526,-0.00010317307896912098,-0.0017021505627781153,0.004185084719210863,-0.00012499569857027382,-0.42049551010131836,0.6596716642379761,0.4994191825389862,0.8712654113769531,0.06085237115621567,-5.4825615882873535,0.3712185025215149,0.6933225989341736,0.42000001668930054,-0.7448565363883972,2.9999969005584717,-0.606967568397522,-3.000001907348633,-0.12377025187015533,-0.13286809623241425,-0.1411242038011551,-0.1476738005876541,-0.8525510430335999,-0.8858265280723572,-0.9178476333618164,-0.948578417301178
0.3,0.06923183798789978,0.1171950101852417,0.0,0.9245424270629883,0.0,0.0,-0.3810791075229645,-0.4962005019187927,-0.27700749039649963,0.0,0.0,0.0,0.5166876316070557,-0.39181244373321533,0.6620703935623169,0.4200000464916229,1.0,3.7243103179207537e-06,-2.2717667889082804e-06,9.635199660351645e-08,0.00026312642148695886,0.0002652582770679146,-0.00010438216850161552,-0.0016961309593170881,0.004134850110858679,-0.00013027526438236237,-0.4066723585128784,0.663790225982666,0.4130192995071411,0.9502336978912354,0.23140016198158264,-4.807538986206055,0.3712185025215149,0.6933225989341736,0.42000001668930054,-0.69484943151474,3.000000238418579,-0.656994104385376,-3.0000011920928955,-0.14079764485359192,-0.14982351660728455,-0.15804095566272736,-0.16456937789916992,-1.0181701183319092,-1.0138111114501953,-1.0104694366455078,-1.0077749490737915
0.31666666666666665,0.0593864805996418,0.11100300401449203,0.0,0.933600902557373,0.0,0.0,-0.3583146333694458,-0.6397034525871277,-0.4145597517490387,0.0,0.0,0.0,3.857565402984619,-0.39181244373321533,0.6620703935623169,0.4200000464916229,1.0,3.6662911497842288e-06,-2.3923955723148538e-06,1.679903647300307e-07,0.0002660205354914069,0.00026706920471042395,-0.00010418705642223358,-0.0017310219118371606,0.004193420056253672,-0.00012849805352743715,-0.40910470485687256,0.6671493649482727,0.4244026839733124,-0.2649170160293579,0.061227064579725266,-0.21392084658145905,0.3712185025215149,0.6933225989341736,0.42000001668930054,-0.6449475884437561,2.999847173690796,-0.707510232925415,-3.0000298023223877,-0.14165835082530975,-0.15171432495117188,-0.16059599816799164,-0.1673559993505478,-0.1974191814661026,-0.2122010439634323,-0.21285927295684814,-0.19868862628936768
0.3333333333333333,0.0495542474091053,0.10242708772420883,0.0,0.9361858367919922,0.0,0.0,-0.35150545835494995,-0.6645729541778564,-0.538050651550293,0.0,0.0,0.0,-0.10280177742242813,-0.39181244373321533,0.6620704531669617,0.4200000464916229,1.0,3.5338491670700023e-06,-2.2181723124958808e-06,-1.310263400000622e-07,0.00026698739384301007,0.0002675939176697284,-0.00010410021059215069,-0.0017412103479728103,0.0042132046073675156,-0.0001277265400858596,-0.4089229702949524,0.6662789583206177,0.42107343673706055,0.2043384611606598,-0.18927212059497833,-0.21175168454647064,0.3712185025215149,0.6933225989341736,0.42000001668930054,-0.5949416756629944,2.9984395503997803,-0.7575445175170898,-2.9995334148406982,-0.14725539088249207,-0.1563723236322403,-0.16407336294651031,-0.16945333778858185,-0.5439900755882263,-0.4130030572414398,-0.2690940201282501,-0.11795065551996231
0.35,0.038750965148210526,0.09188693761825562,0.0,0.9284208416938782,0.0,0.0,-0.3715302348136902,-0.6305186152458191,-0.685114860534668,0.0,0.0,0.0,-3.5672495365142822,-0.39011839032173157,0.6639053225517273,0.42046159505844116,0.9998903870582581,-0.011495829559862614,-6.44345590217199e-08,-0.009326562285423279,0.40308433771133423,0.30741482973098755,0.09024885296821594,-4.662560939788818,0.14014200866222382,-11.765544891357422,-0.40244758129119873,0.6680660247802734,0.42133721709251404,0.531254768371582,0.316942423582077,0.08564148843288422,0.3712185025215149,0.6933225989341736,0.42000001668930054,-0.5449469089508057,2.9978744983673096,-0.8075485825538635,-2.9999141693115234,-0.15765592455863953,-0.16401471197605133,-0.1686818152666092,-0.17088013887405396,-0.5675134658813477,-0.39939960837364197,-0.2121618539094925,-0.014415668323636055
0.36666666666666664,0.028640296310186386,0.07895556092262268,0.0,0.915168821811676,0.0,0.0,-0.40307071805000305,-0.5969770550727844,-0.8149228096008301,0.0,0.0,0.0,-4.344501972198486,-0.3805433213710785,0.6727266311645508,0.4210209250450134,0.9873991012573242,-0.025923768058419228,0.0035903281532227993,-0.156070277094841,0.7844277024269104,0.7668811678886414,0.03176528215408325,-1.646995186805725,0.2036585509777069,-23.419485092163086,-0.3901594281196594,0.6784860491752625,0.42296308279037476,0.9678881168365479,0.9376530647277832,0.09510520100593567,0.3712185025215149,0.6933225989341736,0.42000001668930054,-0.49492961168289185,2.9994304180145264,-0.8575671911239624,-2.9999783039093018,-0.1677115112543106,-0.17098361253738403,-0.17223231494426727,-0.1708461195230484,-0.565995454788208,-0.3795672357082367,-0.17368218302726746,0.04114258661866188
0.3833333333333333,0.021900314837694168,0.06330980360507965,0.0,0.8911978602409363,0.0,0.0,-0.4536148011684418,-0.32959499955177307,-0.9937720894813538,0.0,0.0,0.0,-7.551920413970947,-0.3593214452266693,0.6939898729324341,0.4217126965522766,0.9737426042556763,-0.0401921346783638,0.004586458671838045,-0.22402863204479218,1.7226567268371582,1.6998744010925293,0.06989985704421997,-3.0989294052124023,0.8647913932800293,-8.169063568115234,-0.36693766713142395,0.6989929676055908,0.42466434836387634,1.8933615684509277,1.5649876594543457,0.15949463844299316,0.3712185025215149,0.6933225989341736,0.42000001668930054,-0.44489696621894836,2.9999992847442627,-0.9075829386711121,-3.000000476837158,-0.17676670849323273,-0.17679399251937866,-0.17445586621761322,-0.16933320462703705,-0.500618040561676,-0.30252647399902344,-0.08613361418247223,0.13657554984092712
0.4,0.017908358946442604,0.05158954858779907,0.0,0.8513906598091125,0.0,0.0,-0.5245321393013,-0.15975193679332733,-0.6863599419593811,0.0,0.0,0.0,-10.396921157836914,-0.3050592243671417,0.7307560443878174,0.4236297905445099,0.959649920463562,0.005388695280998945,-0.024226361885666847,-0.2800999879837036,4.596136569976807,2.6428802013397217,-0.012443971820175648,30.338054656982422,-22.89282989501953,0.7724952697753906,-0.30955690145492554,0.7343404293060303,0.42647993564605713,4.402162075042725,2.6939187049865723,0.24640384316444397,0.3712185025215149,0.6933225989341736,0.42000001668930054,-0.39937400817871094,1.895655632019043,-0.8706744313240051,2.994428873062134,-0.19034045934677124,-0.1864064633846283,-0.17931848764419556,-0.16964368522167206,-0.5981398224830627,-0.4640919268131256,-0.23139378428459167,-0.013980709947645664
0.4166666666666667,0.014859948307275772,0.04330968111753464,0.0,0.7931243181228638,0.0,0.0,-0.6090598106384277,-0.15688320994377136,-0.4340009391307831,0.0,0.0,0.0,-13.134984970092773,-0.20855766534805298,0.7783076763153076,0.42853909730911255,0.9327124357223511,0.08579035848379135,-0.06942382454872131,-0.3433188498020172,7.1907758712768555,2.6465516090393066,0.43764573335647583,8.486927032470703,-12.36683177947998,13.915548324584961,-0.21294614672660828,0.782389760017395,0.4315599799156189,6.932110786437988,3.1306333541870117,0.41524016857147217,0.3712185025215149,0.6933225989341736,0.42000001668930054,-0.3784404993057251,1.1033012866973877,-0.820655882358551,2.9979968070983887,-0.20318695902824402,-0.19628380239009857,-0.18513289093971252,-0.1718573123216629,-0.7551368474960327,-0.5843754410743713,-0.37232521176338196,-0.19425982236862183
0.43333333333333335,0.01006090734153986,0.039609264582395554,0.0,0.7432493567466736,0.0,0.0,-0.6690144538879395,-0.3043256402015686,-0.17347592115402222,0.0,0.0,0.0,-8.103493690490723,-0.09579385817050934,0.8164762854576111,0.4371209740638733,0.8833348751068115,0.11682284623384476,-0.08606614917516708,-0.4457179307937622,6.8483476638793945,1.1618049144744873,0.7568116188049316,16.13800048828125,-3.364896297454834,21.373397827148438,-0.10065856575965881,0.8224818706512451,0.43977904319763184,6.720802307128906,1.7933646440505981,0.5585881471633911,0.3712185025215149,0.6933225989341736,0.42000001668930054,-0.3612057566642761,0.9700980186462402,-0.8474398255348206,-3.000002861022949,-0.21743842959403992,-0.20924964547157288,-0.19373658299446106,-0.17684306204319,-0.8254671096801758,-0.7370953559875488,-0.5001773834228516,-0.3091680705547333
0.45,0.008374925702810287,0.030135883018374443,0.0,0.7137199640274048,0.0,0.0,-0.7004311680793762,0.006111778784543276,-0.7219021916389465,0.0,0.0,0.0,-4.170958995819092,0.013097960501909256,0.8353246450424194,0.4463571608066559,0.8324139714241028,0.12077254056930542,-0.08178191632032394,-0.5346145629882812,6.302197456359863,-0.3072778582572937,0.36636632680892944,6.137652397155762,-1.999145269393921,26.400890350341797,0.007734389975667,0.8436880111694336,0.4489213526248932,6.416420936584473,0.6353706121444702,0.6860238313674927,0.3712185025215149,0.6933225989341736,0.42000001668930054,-0.3451240360736847,0.8236122131347656,-0.897463858127594,-3.0000016689300537,-0.22782739996910095,-0.21747463941574097,-0.19798117876052856,-0.1778116077184677,-0.5206202268600464,-0.36230215430259705,-0.12723024189472198,0.07099538296461105
0.4666666666666667,0.0041819685138762,0.025315087288618088,0.0,0.7073118686676025,0.0,0.0,-0.7069016098976135,-0.2014053910970688,-0.20600810647010803,0.0,0.0,0.0,-0.10198871046304703,0.10859844833612442,0.8338035941123962,0.45359107851982117,0.758813738822937,0.09651914238929749,-0.07903960347175598,-0.6392483115196228,5.226190567016602,-1.2192776203155518,0.48466843366622925,33.975006103515625,25.599363327026367,-3.579901933670044,0.10222582519054413,0.8447651267051697,0.45808616280555725,5.088142395019531,-0.3807333707809448,0.40690338611602783,0.3712185025215149,0.6933225989341736,0.42000001668930054,-0.333734929561615,0.5002661943435669,-0.9474878907203674,-2.9977006912231445,-0.24001111090183258,-0.22857823967933655,-0.20443962514400482,-0.1803765445947647,-0.03500412032008171,-0.6578511595726013,-0.4386439323425293,-0.25438985228538513
0.48333333333333334,0.003435821970924735,0.019029123708605766,0.0,0.6925172209739685,0.0,0.0,-0.7214013338088989,0.014386987313628197,-0.41464152932167053,0.0,0.0,0.0,-3.2916088104248047,0.18624882400035858,0.82011878490448,0.45580199360847473,0.7027643322944641,0.09515760838985443,-0.07124527543783188,-0.7014209628105164,3.7361397743225098,-2.1164326667785645,0.029447654262185097,-8.391207695007324,-0.536190390586853,38.93824768066406,0.18093690276145935,0.8318626880645752,0.46125924587249756,4.615022659301758,-1.2279952764511108,0.11520791053771973,0.3712185025215149,0.6933225989341736,0.42000001668930054,-0.32931777834892273,0.1363094598054886,-0.9975119233131409,-2.998753309249878,-0.24004068970680237,-0.23778896033763885,-0.21019354462623596,-0.1831490844488144,-0.04681902751326561,-0.4979100227355957,-0.2922194302082062,-0.11157820373773575
0.5,0.005645970348268747,0.01610639877617359,0.0,0.6904835104942322,0.0,0.0,-0.7233481407165527,0.16084390878677368,-0.13582931458950043,0.0,0.0,0.0,0.5483177900314331,0.25101447105407715,0.7957558035850525,0.4532100260257721,0.6622272729873657,0.07697700709104538,-0.06410428881645203,-0.7425766587257385,3.1028614044189453,-2.0350759029388428,-0.250301331281662,-2.6677541732788086,11.953668594360352,11.509305953979492,0.24676725268363953,0.806623101234436,0.4593639373779297,3.653858184814453,-1.7007912397384644,-0.2713555693626404,0.3712185025215149,0.6933225989341736,0.42000001668930054,-0.32423752546310425,0.4579826295375824,-1.0475341081619263,-2.9983184337615967,-0.23977941274642944,-0.23971830308437347,-0.21630607545375824,-0.18699315190315247,0.05890395864844322,0.07676432281732559,-0.24542197585105896,-0.1824387162923813
0.5166666666666666,0.010227058082818985,0.01007779035717249,0.0,0.6780952215194702,0.0,0.0,-0.7349740266799927,0.3218470811843872,-0.4071587324142456,0.0,0.0,0.0,-2.8240461349487305,0.3035393953323364,0.7664684653282166,0.43935635685920715,0.5865259170532227,-0.03471359610557556,-0.12384150922298431,-0.7996534705162048,2.765244722366333,-1.9227994680404663,-1.105818748474121,-20.099294662475586,10.262093544006348,-17.91278839111328,0.29837870597839355,0.7808183431625366,0.4506813883781433,2.6607842445373535,-1.6292779445648193,-0.6817408800125122,0.3712185025215149,0.6933225989341736,0.42000001668930054,-0.3110712766647339,1.0958077907562256,-1.097556233406067,-2.999861240386963,-0.2350381463766098,-0.23500388860702515,-0.21715842187404633,-0.18823698163032532,0.26039445400238037,0.28932029008865356,-0.009908968582749367,-0.07150272279977798
0.5333333333333333,0.013274730183184147,0.007156485691666603,0.0,0.6785126328468323,0.0,0.0,-0.7345887422561646,0.10378596186637878,-0.13969583809375763,0.0,0.0,0.0,0.8607344031333923,0.3393455445766449,0.7374293208122253,0.4241844415664673,0.5652823448181152,-0.0694742351770401,-0.06460533291101456,-0.8194237947463989,1.9525467157363892,-1.7032368183135986,-0.2739117443561554,5.328001022338867,1.5022317171096802,36.88314437866211,0.33753660321235657,0.7505983114242554,0.43554091453552246,1.5853502750396729,-1.6303046941757202,-0.5840027928352356,0.3712185025215149,0.6933225989341736,0.42000001668930054,-0.2923814058303833,0.9071733355522156,-1.1475783586502075,-3.000026226043701,-0.23234090209007263,-0.23132824897766113,-0.2177673578262329,-0.19030897319316864,0.285686731338501,0.3209170401096344,0.06293391436338425,-0.07549335062503815
0.55,0.016831684857606888,0.0020150465425103903,0.0,0.6678164005279541,0.0,0.0,-0.7443259954452515,0.25796082615852356,-0.38897523283958435,0.0,0.0,0.0,-2.5164954662323,0.36021384596824646,0.7209306955337524,0.4221678376197815,0.5623338222503662,-0.03870829567313194,0.006633099168539047,-0.8259772062301636,0.828275203704834,-1.0565619468688965,0.3198181688785553,-3.1656458377838135,11.372878074645996,13.68885612487793,0.35785403847694397,0.7314640283584595,0.4323451817035675,0.7539770007133484,-0.8299773931503296,0.1896299123764038,0.3712185025215149,0.6933225989341736,0.42000001668930054,-0.27819862961769104,0.8414378762245178,-1.1975890398025513,-2.9994051456451416,-0.22418725490570068,-0.2233816236257553,-0.2144271731376648,-0.1902790516614914,0.4830175042152405,0.47506630420684814,0.2256135493516922,0.010964438319206238
0.5666666666666667,0.022718271240592003,-0.000665826431941241,0.0,0.669895350933075,0.0,0.0,-0.7424555420875549,0.3894772529602051,-0.09910756349563599,0.0,0.0,0.0,1.1519145965576172,0.37104541063308716,0.7071399688720703,0.4211660921573639,0.5596780180931091,-0.020745035260915756,0.0029341503977775574,-0.8284452557563782,0.43304988741874695,-1.363508939743042,0.27078548073768616,-2.689535617828369,10.23923397064209,19.626855850219727,0.3685488700866699,0.71642005443573,0.4315372705459595,0.3833801746368408,-0.7184127569198608,0.040451690554618835,0.3712185025215149,0.6933225989341736,0.42000001668930054,-0.2670786380767822,0.3062576353549957,-1.165636658668518,3.000006914138794,-0.21713222563266754,-0.2164083868265152,-0.21112941205501556,-0.19069799780845642,0.4520571231842041,0.439357191324234,0.2363288402557373,2.2682878864088707e-07
0.5833333333333334,0.02626982145011425,-6.56187257845886e-05,0.0,0.661466121673584,0.0,0.0,-0.7499750256538391,0.15758027136325836,0.09533210843801498,0.0,0.0,0.0,-2.2284748554229736,0.37564271688461304,0.6995734572410583,0.4210890829563141,0.5726604461669922,-0.015666324645280838,0.022391196340322495,-0.819337010383606,-0.021995406597852707,-0.5438265800476074,0.08959528058767319,1.9751790761947632,4.439822196960449,1.2400803565979004,0.37163418531417847,0.7070733308792114,0.43035244941711426,0.002178782597184181,-0.46205708384513855,-0.27907794713974,0.3712185025215149,0.6933225989341736,0.42000001668930054,-0.27471625804901123,-0.8495348691940308,-1.1874855756759644,-2.9997305870056152,-0.20803676545619965,-0.20820870995521545,-0.20649603009223938,-0.190513476729393,0.5686492323875427,0.5058062672615051,0.303963303565979,0.027068475261330605
0.6,0.030974773690104485,-0.004282460547983646,0.0,0.6652461290359497,0.0,0.0,-0.7466241121292114,0.2554113566875458,-0.2464287132024765,0.0,0.0,0.0,1.3787868022918701,0.37408679723739624,0.6925445199012756,0.42146065831184387,0.5857780575752258,-0.02301718108355999,0.025476163253188133,-0.8097438216209412,-0.2720615863800049,-0.18867413699626923,0.04509057104587555,-0.5511482954025269,1.5958616733551025,2.3568778038024902,0.36998867988586426,0.7019907236099243,0.4277692437171936,-0.24830295145511627,-0.16347262263298035,0.15696707367897034,0.3712185025215149,0.6933225989341736,0.42000001668930054,-0.29312193393707275,-1.325341820716858,-1.2374478578567505,-2.9996864795684814,-0.19503958523273468,-0.19667653739452362,-0.19835135340690613,-0.18724359571933746,0.6377986669540405,0.5897646546363831,0.4439637064933777,0.19217067956924438
0.6166666666666667,0.03724532946944237,-0.0038407559040933847,0.0,0.6574329137802124,0.0,0.0,-0.7535130381584167,0.43340858817100525,0.01718028448522091,0.0,0.0,0.0,-2.0405638217926025,0.37068796157836914,0.6903073191642761,0.4212757647037506,0.5930004715919495,-0.01994653046131134,0.02335638925433159,-0.8046159744262695,-0.13223306834697723,-0.06649474799633026,-0.002971997018903494,-1.0452661514282227,-0.6999235153198242,-1.2275632619857788,0.3677472174167633,0.7007114887237549,0.42800337076187134,-0.051844317466020584,0.012091310694813728,-0.010979991406202316,0.3712185025215149,0.6933225989341736,0.42000001668930054,-0.3376787602901459,-2.9966983795166016,-1.2092353105545044,2.9997713565826416,-0.18592612445354462,-0.18843674659729004,-0.19224286079406738,-0.1851252168416977,0.6783072352409363,0.5872918367385864,0.4427330791950226,0.186803936958313
0.6333333333333333,0.045637328177690506,-0.000985092599876225,0.0,0.6624142527580261,0.0,0.0,-0.7491377592086792,0.537484347820282,0.23092854022979736,0.0,0.0,0.0,1.6895759105682373,0.36880505084991455,0.689664900302887,0.42005881667137146,0.586915910243988,-0.000630210037343204,0.0009499686420895159,-0.8096470236778259,-0.10254599899053574,-0.01830051839351654,-0.0849667340517044,-1.356049656867981,-4.19092321395874,-0.86215740442276,0.36691275238990784,0.7026276588439941,0.42990362644195557,-0.0363394133746624,0.21059304475784302,0.15285946428775787,0.3712185025215149,0.6933225989341736,0.42000001668930054,-0.3876713812351227,-2.999957799911499,-1.2304192781448364,-2.999936819076538,-0.1758963018655777,-0.18010787665843964,-0.18623819947242737,-0.18332958221435547,0.5520791411399841,0.4456474184989929,0.31275272369384766,0.06396597623825073
0.65,0.051731519401073456,-0.0028498966712504625,0.0,0.6880866885185242,0.0,0.0,-0.7256284952163696,0.3475870192050934,-0.16543999314308167,0.0,0.0,0.0,5.013905048370361,0.3686271607875824,0.6897003650665283,0.42000049352645874,0.5864877700805664,-3.935316271963529e-05,-1.4063100934436079e-05,-0.8099579811096191,-0.0024091002997010946,-0.0027574091218411922,-0.0011010164162144065,0.011397241614758968,-0.011389493942260742,0.012542414478957653,0.36501699686050415,0.7057622671127319,0.4331856966018677,-0.23306503891944885,0.10047600418329239,0.20736262202262878,0.3712185025215149,0.6933225989341736,0.42000001668930054,-0.43767133355140686,-2.9999825954437256,-1.2804027795791626,-2.9995100498199463,-0.1644180566072464,-0.17015878856182098,-0.17800623178482056,-0.17865753173828125,0.4902106821537018,0.46445977687835693,0.4367843568325043,0.29924219846725464
0.6666666666666666,0.05861630290746689,-0.00759345106780529,0.0,0.6981729865074158,0.0,0.0,-0.7159290909767151,0.43837106227874756,-0.32114049792289734,0.0,0.0,0.0,0.6233065128326416,0.36862459778785706,0.6896975636482239,0.41999998688697815,0.5864911079406738,-2.4122100512613542e-06,-4.103706032765331e-06,-0.8099556565284729,4.3482621549628675e-05,-0.00035403791116550565,-9.348895400762558e-05,0.008664567954838276,-0.0029537053778767586,-0.000651306239888072,0.36263853311538696,0.7080275416374207,0.43745625019073486,-0.135696142911911,0.0894760712981224,0.30517810583114624,0.3712185025215149,0.6933225989341736,0.42000001668930054,-0.4876808822154999,-2.999657392501831,-1.3303871154785156,-2.9999327659606934,-0.15936324000358582,-0.16448184847831726,-0.1714927703142166,-0.17297010123729706,0.23621866106987,0.31239911913871765,0.4123913049697876,0.42170411348342896
0.6833333333333333,0.06727226823568344,-0.015115701593458652,0.0,0.686574399471283,0.0,0.0,-0.727059543132782,0.5570980310440063,-0.5158703327178955,0.0,0.0,0.0,-2.7910192012786865,0.36862462759017944,0.6896976232528687,0.41999998688697815,0.5864909887313843,-3.035001554962946e-06,-4.647679361369228e-06,-0.8099557161331177,2.7069399948231876e-05,-0.0003554120776243508,-9.954278357326984e-05,0.008641182444989681,-0.0030794418416917324,-0.0006190014537423849,0.36464494466781616,0.7114373445510864,0.4495154023170471,0.35069549083709717,0.2704974412918091,1.2339329719543457,0.3712185025215149,0.6933225989341736,0.42000001668930054,-0.5376933217048645,-2.999979257583618,-1.3804054260253906,-2.999999523162842,-0.15793529152870178,-0.16151103377342224,-0.16648215055465698,-0.1673039346933365,0.0063436138443648815,0.10939319431781769,0.24624818563461304,0.30701136589050293
0.7,0.07970495522022247,-0.01687151938676834,0.0,0.6530911326408386,0.0,0.0,-0.7572792768478394,0.8212437033653259,0.032319966703653336,0.0,0.0,0.0,-6.430809497833252,0.36862462759017944,0.6896975636482239,0.41999998688697815,0.5864912271499634,-2.726377488215803e-06,-4.484886176214786e-06,-0.8099555373191833,3.125180955976248e-05,-0.0003554414724931121,-9.809690527617931e-05,0.008656029589474201,-0.0030430012848228216,-0.0006279631634242833,0.37969017028808594,0.7112354040145874,0.47581392526626587,1.5196523666381836,-0.24726726114749908,2.0502073764801025,0.3712185025215149,0.6933225989341736,0.42000001668930054,-0.5877049565315247,-2.9998221397399902,-1.4304237365722656,-2.999974489212036,-0.16650588810443878,-0.16680888831615448,-0.16798937320709229,-0.16628360748291016,-0.6965545415878296,-0.4656192362308502,-0.20360182225704193,-0.012374715879559517
0.7166666666666667,0.089200459420681,-0.013058432377874851,0.0,0.6315578818321228,0.0,0.0,-0.7753287553787231,0.4845646023750305,-0.009445673786103725,0.0,0.0,0.0,-1.9302555322647095,0.36862462759017944,0.6896975636482239,0.41999998688697815,0.5864912867546082,-2.7001522084901808e-06,-4.416071533341892e-06,-0.8099554181098938,3.134697544737719e-05,-0.00035564275458455086,-9.814836084842682e-05,0.008660810068249702,-0.0030475130770355463,-0.0006284732953645289,0.4019351005554199,0.7097834944725037,0.5116713643074036,1.3311436176300049,0.1627850979566574,2.1451430320739746,0.3712185025215149,0.6933225989341736,0.42000001668930054,-0.60712730884552,0.3900708854198456,-1.4804420471191406,-2.9999990463256836,-0.17701123654842377,-0.17415191233158112,-0.1717236340045929,-0.16752152144908905,-0.1246962621808052,-0.0792197734117508,3.003515303134918e-08,0.03179420530796051
0.7333333333333333,0.093929722905159,-0.011380263604223728,0.0,0.6371008157730103,0.0,0.0,-0.7707805037498474,0.21247585117816925,0.15066073834896088,0.0,0.0,0.0,1.7050162553787231,0.36862459778785706,0.6896975636482239,0.41999998688697815,0.5864911079406738,-2.84867519440013e-06,-4.485990302782739e-06,-0.8099555969238281,2.7159887395100668e-05,-0.00035528585431165993,-9.93113499134779e-05,0.008643686771392822,-0.0030808665324002504,-0.0006193576846271753,0.4212294816970825,0.7124203443527222,0.5418834686279297,0.8552735447883606,0.17413045465946198,1.526228427886963,0.3712185025215149,0.6933225989341736,0.42000001668930054,-0.5787320137023926,2.783778190612793,-1.4438058137893677,2.9999985694885254,-0.1775207370519638,-0.17420901358127594,-0.17079316079616547,-0.16628742218017578,0.051548123359680176,0.06489270180463791,0.10669954866170883,0.11156127601861954
0.75,0.0944996103644371,-0.014460686594247818,0.0,0.630847692489624,0.0,0.0,-0.7759066820144653,0.08277498185634613,-0.202926367521286,0.0,0.0,0.0,-1.6845736503601074,0.36862459778785706,0.6896976232528687,0.41999998688697815,0.586491048336029,-2.709792852328974e-06,-4.578939297061879e-06,-0.8099557161331177,2.9635699320351705e-05,-0.00035506670246832073,-9.863707236945629e-05,0.008638857863843441,-0.003055811394006014,-0.0006238478235900402,0.42859286069869995,0.7169501781463623,0.5609951019287109,-0.015920773148536682,0.13802143931388855,0.8993178009986877,0.3712185025215149,0.6933225989341736,0.42000001668930054,-0.5418974161148071,1.7020903825759888,-1.393753170967102,3.0,-0.17197781801223755,-0.16919268667697906,-0.16586944460868835,-0.1619562953710556,0.16054493188858032,0.16992242634296417,0.1968061774969101,0.19172635674476624
0.7666666666666666,0.09364258497953415,-0.012170824222266674,0.0,0.637367308139801,0.0,0.0,-0.7705601453781128,-0.08166515082120895,0.1585490107536316,0.0,0.0,0.0,1.7792212963104248,0.36862462759017944,0.6896976232528687,0.41999998688697815,0.586491048336029,-2.7027545002056286e-06,-4.49008985015098e-06,-0.8099556565284729,2.7410462280386128e-05,-0.0003545497602317482,-9.918841533362865e-05,0.008620555512607098,-0.0030672322027385235,-0.0006184129160828888,0.4243473410606384,0.7179156541824341,0.5734636187553406,-0.37027081847190857,0.13303788006305695,0.6105825901031494,0.3712185025215149,0.6933225989341736,0.42000001668930054,-0.5013440847396851,3.0000016689300537,-1.3437501192092896,2.999999761581421,-0.17337477207183838,-0.16971169412136078,-0.1653633415699005,-0.16099019348621368,0.04111718386411667,0.054908886551856995,0.07708930969238281,0.07271074503660202
0.7833333333333333,0.0909065306186676,-0.012393021024763584,0.0,0.6320816278457642,0.0,0.0,-0.774901807308197,-0.24768711626529694,-0.038819264620542526,0.0,0.0,0.0,-1.6526498794555664,0.36862462759017944,0.6896975636482239,0.41999998688697815,0.5864912867546082,-2.8653478238993557e-06,-4.323400844441494e-06,-0.8099554777145386,2.7914238671655767e-05,-0.0003549333196133375,-9.900890290737152e-05,0.008635470643639565,-0.003068198449909687,-0.0006201521609909832,0.41149991750717163,0.7194942235946655,0.5772005915641785,-1.1485850811004639,0.011723071336746216,0.01121361181139946,0.3712185025215149,0.6933225989341736,0.42000001668930054,-0.47914543747901917,-0.08632482588291168,-1.293697476387024,3.0,-0.17255744338035583,-0.16869771480560303,-0.1640479862689972,-0.15973876416683197,-0.005121966358274221,0.019593169912695885,0.046995099633932114,0.05465938150882721
0.8,0.08998700231313705,-0.009983640164136887,0.0,0.6384214162826538,0.0,0.0,-0.7696869969367981,0.005600148346275091,0.21169115602970123,0.0,0.0,0.0,1.7191665172576904,0.36862459778785706,0.6896976232528687,0.41999998688697815,0.5864909887313843,-2.8592282887984766e-06,-4.516945864452282e-06,-0.8099556565284729,2.6256329874740914e-05,-0.00035477770143188536,-9.96061135083437e-05,0.008624299429357052,-0.003083890536800027,-0.0006165074300952256,0.3978540301322937,0.7207049131393433,0.5767606496810913,-0.5241886973381042,0.15001919865608215,-0.01665620505809784,0.3712185025215149,0.6933225989341736,0.42000001668930054,-0.4662855863571167,1.4825628995895386,-1.313685417175293,-3.0,-0.17264404892921448,-0.16870428621768951,-0.16383446753025055,-0.15944574773311615,0.053104545921087265,0.03535991162061691,0.02973540686070919,0.024726655334234238
0.8166666666666667,0.09176217019557953,-0.01082698255777359,0.0,0.6324008703231812,0.0,0.0,-0.7746412754058838,0.13664895296096802,-0.06930939853191376,0.0,0.0,0.0,-1.82099187374115,0.36862462759017944,0.6896975636482239,0.41999998688697815,0.5864912867546082,-2.541963112889789e-06,-4.34073808719404e-06,-0.8099555373191833,3.067177385673858e-05,-0.0003550321562215686,-9.820563718676567e-05,0.008642895147204399,-0.0030426306184381247,-0.0006258973153308034,0.39073580503463745,0.7228301763534546,0.5721365213394165,-0.37662357091903687,0.019269267097115517,-0.35439547896385193,0.3712185025215149,0.6933225989341736,0.42000001668930054,-0.4867267608642578,-3.000000476837158,-1.2754831314086914,3.0,-0.16930463910102844,-0.16612739861011505,-0.16179607808589935,-0.15782521665096283,0.11569099128246307,0.09354531764984131,0.08121541887521744,0.07610095292329788
0.8333333333333334,0.09557782113552094,-0.013590339571237564,0.0,0.6380096673965454,0.0,0.0,-0.7700283527374268,0.27762097120285034,-0.25143805146217346,0.0,0.0,0.0,1.698141098022461,0.36862459778785706,0.6896976232528687,0.41999998688697815,0.5864909887313843,-2.70388113676745e-06,-4.692534275818616e-06,-0.8099556565284729,2.93761240754975e-05,-0.00035531437606550753,-9.87853854894638e-05,0.008644630201160908,-0.0030620896723121405,-0.0006237952620722353,0.38921332359313965,0.7217121720314026,0.5676922798156738,0.171855628490448,-0.13205991685390472,-0.15827696025371552,0.3712185025215149,0.6933225989341736,0.42000001668930054,-0.5299381613731384,-2.217275381088257,-1.2957686185836792,-3.0,-0.16908080875873566,-0.16556859016418457,-0.1607389599084854,-0.15611079335212708,-0.026566660031676292,0.01546312216669321,0.06800970435142517,0.1331869661808014
0.85,0.10171766579151154,-0.019466359168291092,0.0,0.6317628622055054,0.0,0.0,-0.7751616835594177,0.40716877579689026,-0.4131215214729309,0.0,0.0,0.0,-1.8594378232955933,0.36862462759017944,0.6896976232528687,0.41999998688697815,0.5864909887313843,-2.705528913793387e-06,-4.36151412941399e-06,-0.8099556565284729,2.6205760150332935e-05,-0.00035399399348534644,-9.969878010451794e-05,0.008595199324190617,-0.00307459756731987,-0.0006155540468171239,0.3956679403781891,0.7163355946540833,0.5602430105209351,0.5929627418518066,-0.49528634548187256,-0.5314490795135498,0.3712185025215149,0.6933225989341736,0.42000001668930054,-0.5758784413337708,-2.9999985694885254,-1.3457869291305542,-2.999999523162842,-0.17079132795333862,-0.16609551012516022,-0.15987949073314667,-0.15360219776630402,-0.10164867341518402,-0.01153959333896637,0.09110768139362335,0.21137727797031403
0.8666666666666667,0.1109556183218956,-0.021590199321508408,0.0,0.6036341786384583,0.0,0.0,-0.7972614169120789,0.5821740031242371,-0.13665148615837097,0.0,0.0,0.0,-5.02383279800415,0.36862462759017944,0.6896976232528687,0.41999998688697815,0.5864909887313843,-2.8855117761850124e-06,-4.503446234593866e-06,-0.8099556565284729,2.7385904104448855e-05,-0.0003547728410921991,-9.92426648736e-05,0.008626768365502357,-0.0030708899721503258,-0.0006187611725181341,0.40871068835258484,0.7059314250946045,0.5537552833557129,1.0437523126602173,-0.6059811115264893,-0.10918226093053818,0.3712185025215149,0.6933225989341736,0.42000001668930054,-0.6109070777893066,-1.3194544315338135,-1.3958052396774292,-3.000000238418579,-0.17498242855072021,-0.16895528137683868,-0.16125980019569397,-0.15324249863624573,-0.08620386570692062,-0.06740602850914001,-0.0383087694644928,0.010129905305802822
0.8833333333333333,0.1175827756524086,-0.02213973179459572,0.0,0.5914022922515869,0.0,0.0,-0.8063766956329346,0.31603509187698364,0.012382850050926208,0.0,0.0,0.0,-0.8001605272293091,0.36862462759017944,0.6896975636482239,0.41999998688697815,0.5864912271499634,-2.712760078793508e-06,-4.371894647192676e-06,-0.8099555969238281,3.0820803658571094e-05,-0.0003552596317604184,-9.820843115448952e-05,0.008649597875773907,-0.003045235760509968,-0.0006266323034651577,0.4239003658294678,0.7000631093978882,0.5539296865463257,0.7507631778717041,-0.17742982506752014,0.08250463008880615,0.3712185025215149,0.6933225989341736,0.42000001668930054,-0.606168270111084,1.6278841495513916,-1.4458235502243042,-3.0000009536743164,-0.17434051632881165,-0.16868899762630463,-0.16127076745033264,-0.15323680639266968,0.1303412914276123,0.07448376715183258,0.019436169415712357,-0.0206618569791317
