vladlanda/robotic-transformer/data/env_000_episode_0079.csv
sim_time_s,robot_box_x,robot_box_y,robot_box_z,robot_box_quat_w,robot_box_quat_x,robot_box_quat_y,robot_box_quat_z,robot_box_linvel_x,robot_box_linvel_y,robot_box_linvel_z,robot_box_angvel_x,robot_box_angvel_y,robot_box_angvel_z,cube_world_x,cube_world_y,cube_world_z,cube_quat_w,cube_quat_x,cube_quat_y,cube_quat_z,cube_linvel_x,cube_linvel_y,cube_linvel_z,cube_angvel_x,cube_angvel_y,cube_angvel_z,endpoint_world_x,endpoint_world_y,endpoint_world_z,endpoint_linvel_x,endpoint_linvel_y,endpoint_linvel_z,target_cube_world_x,target_cube_world_y,target_cube_world_z,gripper_actual_pos_rad_gp_leftgearjoint,gripper_actual_vel_rad_s_gp_leftgearjoint,gripper_actual_pos_rad_gp_rotatingjoint,gripper_actual_vel_rad_s_gp_rotatingjoint,motor_angle_rad_joint1,motor_angle_rad_joint2,motor_angle_rad_joint3,motor_angle_rad_joint4,motor_speed_rad_s_joint1,motor_speed_rad_s_joint2,motor_speed_rad_s_joint3,motor_speed_rad_s_joint4
0.0,0.0,0.0,0.0,1.0,0.0,0.0,0.0,0.0,0.0,0.0,0.0,0.0,0.0,-0.3401780128479004,0.674490749835968,0.41999998688697815,1.0,0.0,0.0,0.0,0.0,0.0,0.0,0.0,0.0,0.0,3.42540442943573e-06,-0.005000244826078415,1.313499927520752,0.0,0.0,0.0,0.4709319472312927,0.6838502883911133,0.42000001668930054,-1.5707999467849731,0.0,0.0,0.0,0.0,0.0,0.0,0.0,0.0,0.0,0.0,0.0
0.016666666666666666,0.0028825951740145683,0.0021374893840402365,0.0,0.999850869178772,0.0,0.0,-0.017269562929868698,0.23950894176959991,0.17969411611557007,0.0,0.0,0.0,-3.145664930343628,-0.34017813205718994,0.6744904518127441,0.41999998688697815,1.0,3.2799905511637917e-06,-8.339794135281409e-07,8.465515577427141e-08,-1.9833774786093272e-05,0.00017983047291636467,-6.132945418357849e-05,0.0009432245860807598,-0.004689525347203016,-0.00031981084612198174,-0.0069887395948171616,0.0040755970403552055,1.3159308433532715,-0.7945983409881592,1.0440990924835205,0.17932693660259247,0.4709319472312927,0.6838502883911133,0.42000001668930054,-1.5301094055175781,3.0000030994415283,-0.04586787894368172,-2.999999761581421,0.0008691456168889999,0.000795444124378264,0.0007095804321579635,0.0006100833415985107,0.11046534776687622,0.09702974557876587,0.08273309469223022,0.06752373278141022
0.03333333333333333,0.00888876337558031,0.006708476692438126,0.0,0.99983811378479,0.0,0.0,-0.01799270138144493,0.4028712809085846,0.3135199248790741,0.0,0.0,0.0,0.862021267414093,-0.3401782512664795,0.6744903922080994,0.4200000464916229,1.0,3.3908531804627273e-06,-2.132488134520827e-06,-3.710428941872124e-08,0.0002635785494931042,0.0002693783608265221,-0.00010509602725505829,-0.0017707846127450466,0.004130862653255463,-0.00013547409616876394,-0.026469849050045013,0.02561408281326294,1.3167974948883057,-1.4746239185333252,1.572579264640808,-0.0541963055729866,0.4709319472312927,0.6838502883911133,0.42000001668930054,-1.4800901412963867,3.000002145767212,-0.09590765833854675,-3.0000007152557373,0.0029261738527566195,0.0025828126817941666,0.002201674273237586,0.0017800488276407123,0.15896746516227722,0.13430483639240265,0.10815579444169998,0.08040738850831985
0.05,0.01754818856716156,0.01350080780684948,0.0,0.9994528293609619,0.0,0.0,-0.03307672590017319,0.5820038914680481,0.4501692056655884,0.0,0.0,0.0,-2.641331434249878,-0.3401782810688019,0.6744904518127441,0.4200000464916229,1.0,3.7651284401363228e-06,-2.2118861124909017e-06,5.622759147172474e-09,0.00026530996547080576,0.00026691515813581645,-0.00010440382175147533,-0.00172425655182451,0.004177390597760677,-0.00012948956282343715,-0.05335050821304321,0.057400427758693695,1.312502145767212,-1.7262771129608154,2.196873188018799,-0.42996588349342346,0.4709319472312927,0.6838502883911133,0.42000001668930054,-1.4300718307495117,2.999999523162842,-0.14592130482196808,-3.0,0.005309490021318197,0.004417711403220892,0.0034540859051048756,0.0024142309557646513,0.1579056978225708,0.1121283546090126,0.06448904424905777,0.014883668161928654
0.06666666666666667,0.02973504178225994,0.02276732213795185,0.0,0.9972304105758667,0.0,0.0,-0.07437393069267273,0.791129469871521,0.6009918451309204,0.0,0.0,0.0,-5.865489482879639,-0.3401782810688019,0.6744903922080994,0.4200000464916229,0.9999999403953552,3.406779342185473e-06,-2.285526988998754e-06,4.300881926155853e-07,0.00026702668401412666,0.00026791810523718596,-0.00010437914170324802,-0.0017406379338353872,0.004211799707263708,-0.00012850595521740615,-0.08350952714681625,0.09774346649646759,1.3022630214691162,-1.8650500774383545,2.6051158905029297,-0.7884371280670166,0.4709319472312927,0.6838502883911133,0.42000001668930054,-1.380048155784607,3.000000238418579,-0.11241327971220016,2.999999523162842,0.007624177262187004,0.005912130232900381,0.0040893047116696835,0.0021503909956663847,0.1382821649312973,0.08205487579107285,0.023770375177264214,-0.03663013130426407
0.08333333333333333,0.03636021539568901,0.03666942939162254,0.0,0.9951233267784119,0.0,0.0,-0.09863825142383575,0.24493761360645294,0.931280791759491,0.0,0.0,0.0,-1.9110568761825562,-0.3401782810688019,0.6744903922080994,0.4200000464916229,0.9999999403953552,3.6260987599234795e-06,-2.3352677089860663e-06,3.032194797469856e-07,0.00026614003581926227,0.0002668494707904756,-0.00010405294597148895,-0.001728319562971592,0.004196429159492254,-0.00012790538312401623,-0.11692023277282715,0.1378154456615448,1.2862741947174072,-1.9450950622558594,2.468573570251465,-1.0495085716247559,0.4709319472312927,0.6838502883911133,0.42000001668930054,-1.3300453424453735,3.0000009536743164,-0.14439961314201355,-3.0000009536743164,0.003875938942655921,0.0015414919471368194,-0.0009556562872603536,-0.003624959150329232,-0.344562292098999,-0.38744235038757324,-0.4329696595668793,-0.48143625259399414
0.1,0.047327782958745956,0.04680144041776657,0.0,0.9907962679862976,0.0,0.0,-0.1353616863489151,0.6930869817733765,0.5847521424293518,0.0,0.0,0.0,-4.977843761444092,-0.3401782810688019,0.6744903922080994,0.4200000464916229,1.0,3.422146846787655e-06,-2.30855562222132e-06,1.7962889842237928e-07,0.0002668158267624676,0.00026800387422554195,-0.00010440708138048649,-0.001743036205880344,0.00420708442106843,-0.00012890443031210452,-0.1466689556837082,0.182393878698349,1.2688300609588623,-1.6710734367370605,3.0163204669952393,-1.124532699584961,0.4709319472312927,0.6838502883911133,0.42000001668930054,-1.2800346612930298,2.9999985694885254,-0.19441714882850647,-3.000000476837158,0.00399183901026845,2.8652870241785422e-05,-0.004090073052793741,-0.008375627920031548,-0.12850235402584076,-0.21754977107048035,-0.3070470988750458,-0.3968874216079712
0.11666666666666667,0.05560886114835739,0.05784938856959343,0.0,0.9878406524658203,0.0,0.0,-0.15546976029872894,0.42938151955604553,0.7155261635780334,0.0,0.0,0.0,-1.1365370750427246,-0.3401782810688019,0.6744904518127441,0.4200000464916229,1.0,3.7115689792699413e-06,-2.332697931706207e-06,2.574186908077536e-07,0.0002648586523719132,0.0002663538616616279,-0.00010423408821225166,-0.001718218787573278,0.004170075990259647,-0.00012914866965729743,-0.17974257469177246,0.23137956857681274,1.2471014261245728,-2.094334125518799,3.029722213745117,-1.4415342807769775,0.4709319472312927,0.6838502883911133,0.42000001668930054,-1.2300195693969727,2.999990463256836,-0.1606234908103943,3.0000009536743164,0.001194201991893351,-0.004285876639187336,-0.009903261438012123,-0.01566719263792038,-0.1643640249967575,-0.2570149302482605,-0.3474642038345337,-0.4355628788471222
0.13333333333333333,0.06307923048734665,0.06650194525718689,0.0,0.982515275478363,0.0,0.0,-0.18618188798427582,0.3805379271507263,0.46709561347961426,0.0,0.0,0.0,-4.576263904571533,-0.3401782810688019,0.6744903922080994,0.4200000464916229,0.9999999403953552,3.4248023439431563e-06,-2.3019676973490277e-06,1.55990974803899e-07,0.00026707074721343815,0.00026811487623490393,-0.0001044438686221838,-0.0017434153705835342,0.004212110303342342,-0.0001287730992771685,-0.2110489010810852,0.2852676510810852,1.2216521501541138,-1.7002215385437012,3.4291019439697266,-1.6355664730072021,0.4709319472312927,0.6838502883911133,0.42000001668930054,-1.1800274848937988,3.000002384185791,-0.19235876202583313,-3.0000014305114746,-0.0006063515320420265,-0.00788918323814869,-0.01525065302848816,-0.02269725315272808,-0.1808169037103653,-0.2846416234970093,-0.3848240077495575,-0.48122888803482056
0.15,0.06926931440830231,0.07254090160131454,0.0,0.9696872234344482,0.0,0.0,-0.24434950947761536,0.2979254722595215,0.28383395075798035,0.0,0.0,0.0,-7.936072826385498,-0.3401782810688019,0.6744903922080994,0.4200000464916229,1.0,3.7139620872039814e-06,-2.2077986159274587e-06,-1.6908892064293468e-07,0.0002635350974742323,0.0002653622650541365,-0.00010421848855912685,-0.0017012546304613352,0.004144175443798304,-0.00012960522144567221,-0.2384510338306427,0.34820497035980225,1.186565637588501,-1.4930156469345093,4.097127914428711,-2.528869867324829,0.4709319472312927,0.6838502883911133,0.42000001668930054,-1.135917067527771,2.3132193088531494,-0.15860682725906372,2.9999992847442627,-0.004876801278442144,-0.01353734266012907,-0.02221624180674553,-0.03092104196548462,-0.3925844728946686,-0.4453102648258209,-0.4952518045902252,-0.5425963997840881
0.16666666666666666,0.07650812715291977,0.07945335656404495,0.0,0.9594770669937134,0.0,0.0,-0.28178671002388,0.4812023341655731,0.441878080368042,0.0,0.0,0.0,-3.428194522857666,-0.3401782810688019,0.6744903922080994,0.4200000464916229,0.9999999403953552,3.63843651030038e-06,-2.278771944475011e-06,2.7007371272702585e-07,0.0002668274973984808,0.0002675004070624709,-0.00010410207323729992,-0.0017399153439328074,0.004210097715258598,-0.00012781354598701,-0.2683686912059784,0.4131861925125122,1.135735034942627,-1.6189014911651611,4.060425281524658,-3.4775328636169434,0.4709319472312927,0.6838502883911133,0.42000001668930054,-1.087245225906372,3.000002384185791,-0.19031380116939545,-2.999999761581421,-0.01416871603578329,-0.023059792816638947,-0.031944483518600464,-0.04083792865276337,-0.6263749003410339,-0.6202564835548401,-0.6131179928779602,-0.605451762676239
0.18333333333333332,0.08139511942863464,0.08916077017784119,0.0,0.9451473355293274,0.0,0.0,-0.32664433121681213,0.21998122334480286,0.6444315910339355,0.0,0.0,0.0,-6.466552734375,-0.3401782810688019,0.6744903922080994,0.4200000464916229,1.0,3.3865092063933844e-06,-2.3002239686320536e-06,1.4393610570095916e-07,0.00026674469700083137,0.0002678720047697425,-0.00010436843149363995,-0.0017412101151421666,0.004205914679914713,-0.0001287828345084563,-0.29479512572288513,0.4815754294395447,1.0700154304504395,-1.2936999797821045,4.188994407653809,-4.348177909851074,0.4709319472312927,0.6838502883911133,0.42000001668930054,-1.0372368097305298,3.000000238418579,-0.24034036695957184,-2.9999992847442627,-0.02674977108836174,-0.035362545400857925,-0.04394078627228737,-0.05250927433371544,-0.8181823492050171,-0.7914474010467529,-0.7630674839019775,-0.7336387634277344
0.2,0.09015410393476486,0.09512635320425034,0.0,0.9354654550552368,0.0,0.0,-0.353418231010437,0.5325621366500854,0.26878994703292847,0.0,0.0,0.0,-2.205575942993164,-0.3401782810688019,0.6744904518127441,0.4200000464916229,1.0,3.675592324725585e-06,-2.326503590666107e-06,2.2113523812095082e-07,0.00026484555564820766,0.0002663125633262098,-0.00010421546176075935,-0.0017177078407257795,0.004169898107647896,-0.00012909245560877025,-0.3185287117958069,0.5445345640182495,0.9915837049484253,-1.1402099132537842,3.63394832611084,-5.089885711669922,0.4709319472312927,0.6838502883911133,0.42000001668930054,-0.987226665019989,3.000000238418579,-0.29036781191825867,-3.000000238418579,-0.03850206732749939,-0.04652540013194084,-0.05450236424803734,-0.06246944144368172,-0.8677618503570557,-0.8011614680290222,-0.7358226776123047,-0.6725204586982727
0.21666666666666667,0.09326716512441635,0.10452253371477127,0.0,0.9209651350975037,0.0,0.0,-0.38964495062828064,0.18861164152622223,0.5484095215797424,0.0,0.0,0.0,-5.617551326751709,-0.3401782810688019,0.6744903922080994,0.4200000464916229,1.0,3.322369366287603e-06,-2.2079589143686462e-06,2.742768288044317e-07,0.00026662732125259936,0.0002674952265806496,-0.00010426435619592667,-0.0017357958713546395,0.004204710014164448,-0.0001283393648918718,-0.33369356393814087,0.597636342048645,0.8978091478347778,-0.5800852179527283,2.9097461700439453,-5.8909149169921875,0.4709319472312927,0.6838502883911133,0.42000001668930054,-0.9372163414955139,2.9999992847442627,-0.34039804339408875,-3.0000011920928955,-0.05452372133731842,-0.06253371387720108,-0.07051721215248108,-0.07844141870737076,-0.694540798664093,-0.7390460968017578,-0.7828477025032043,-0.8236777186393738
0.23333333333333334,0.09533548355102539,0.10859936475753784,0.0,0.9128330945968628,0.0,0.0,-0.4083329141139984,0.015649890527129173,0.23816397786140442,0.0,0.0,0.0,-1.2803208827972412,-0.3401782810688019,0.6744903922080994,0.4200000464916229,1.0,3.6565743357641622e-06,-2.3733584839646937e-06,-4.0767665154817223e-07,0.00026611756766214967,0.0002672596601769328,-0.00010423432104289532,-0.0017335788579657674,0.004194698762148619,-0.00012854607484769076,-0.3468970060348511,0.6359541416168213,0.7992260456085205,-0.5436099767684937,1.8170592784881592,-6.040236473083496,0.4709319472312927,0.6838502883911133,0.42000001668930054,-0.8872056603431702,3.0000030994415283,-0.39042970538139343,-2.99999737739563,-0.06560755521059036,-0.0740552693605423,-0.08247269690036774,-0.09080099314451218,-0.9204661846160889,-0.8942506909370422,-0.8707272410392761,-0.8491592407226562
0.25,0.09275522083044052,0.11677724123001099,0.0,0.9170262813568115,0.0,0.0,-0.3988267183303833,-0.22199797630310059,0.591745913028717,0.0,0.0,0.0,2.33768367767334,-0.3401782810688019,0.6744904518127441,0.4200000464916229,1.0,3.6305725643615006e-06,-2.2425567749451147e-06,1.1221782614256881e-08,0.0002667990338522941,0.0002670611720532179,-0.00010390859097242355,-0.0017342250794172287,0.004210473503917456,-0.00012702550156973302,-0.36063843965530396,0.6545138359069824,0.6998940706253052,-0.8398619890213013,0.38161376118659973,-5.842217445373535,0.4709319472312927,0.6838502883911133,0.42000001668930054,-0.8371952772140503,2.999974250793457,-0.4404613673686981,-2.9999990463256836,-0.0826556608080864,-0.09098626673221588,-0.09932392090559006,-0.10756739228963852,-0.9953938126564026,-0.9965385794639587,-0.997492253780365,-0.9982923865318298
0.26666666666666666,0.09463006258010864,0.11901023983955383,0.0,0.9152639508247375,0.0,0.0,-0.40285471081733704,0.08495082706212997,0.006809609942138195,0.0,0.0,0.0,-1.2311102151870728,-0.3401782512664795,0.6744903922080994,0.4200000464916229,0.9999999403953552,3.740199190360727e-06,-2.2362416984833544e-06,4.4997000259172637e-07,0.0002647960209287703,0.0002667310182005167,-0.00010454165749251842,-0.0017190045909956098,0.004166723228991032,-0.00013016752200201154,-0.37133583426475525,0.662803053855896,0.6001890897750854,-0.4240992069244385,0.20527483522891998,-5.922471046447754,0.4709319472312927,0.6838502883911133,0.42000001668930054,-0.7871864438056946,2.9999966621398926,-0.4904918670654297,-3.0,-0.09477321803569794,-0.10369903594255447,-0.11261368542909622,-0.12132421135902405,-0.9103443026542664,-0.9066215753555298,-0.9037421345710754,-0.8977482318878174
0.2833333333333333,0.09234648197889328,0.11922705173492432,0.0,0.9187685251235962,0.0,0.0,-0.39479660987854004,-0.21509289741516113,-0.01540330983698368,0.0,0.0,0.0,1.923362374305725,-0.3401782810688019,0.6744903922080994,0.4200000464916229,1.0,3.3916567190317437e-06,-2.2910930965736043e-06,1.2460451159768127e-07,0.0002667719090823084,0.00026789281400851905,-0.00010437355376780033,-0.0017412637826055288,0.004206368234008551,-0.0001287830382352695,-0.3722151517868042,0.6694962382316589,0.5096464157104492,0.2738177180290222,0.5078409910202026,-4.889918327331543,0.4709319472312927,0.6838502883911133,0.42000001668930054,-0.7371786236763,3.000001907348633,-0.5405204892158508,-3.000000476837158,-0.11284525692462921,-0.12145798653364182,-0.13012005388736725,-0.13860933482646942,-1.0252519845962524,-1.0190798044204712,-1.0143688917160034,-1.010608434677124
0.3,0.08718322962522507,0.11712410300970078,0.0,0.9159519076347351,0.0,0.0,-0.40128806233406067,-0.3205476403236389,-0.1879432201385498,0.0,0.0,0.0,-1.6885885000228882,-0.3401782810688019,0.6744904518127441,0.4200000464916229,1.0,3.68071960110683e-06,-2.3190264073491562e-06,2.0110041987209115e-07,0.00026479086955077946,0.00026625796454027295,-0.00010421173647046089,-0.0017167659243568778,0.004168913699686527,-0.0001290974614676088,-0.3607194721698761,0.6754330396652222,0.4279865622520447,1.0171043872833252,0.21678674221038818,-4.888352394104004,0.4709319472312927,0.6838502883911133,0.42000001668930054,-0.6871716976165771,2.999995231628418,-0.5905472040176392,-3.000000476837158,-0.12993671000003815,-0.1384011059999466,-0.1469571739435196,-0.15535221993923187,-1.0000052452087402,-1.000002384185791,-1.0000004768371582,-0.9949281215667725
0.31666666666666665,0.0803600549697876,0.11235915124416351,0.0,0.919615626335144,0.0,0.0,-0.39281946420669556,-0.45299968123435974,-0.32554352283477783,0.0,0.0,0.0,1.9800546169281006,-0.33980870246887207,0.6735104322433472,0.4200000464916229,0.9998232126235962,-1.5240649418046814e-06,-1.7823113012127578e-06,-0.018798235803842545,0.04222957044839859,-0.10147907584905624,-1.8564285710453987e-05,0.000843853922560811,8.764922677073628e-05,-3.917933702468872,-0.3602181077003479,0.6787817478179932,0.4252646267414093,0.09944385290145874,0.19244258105754852,-0.2945687472820282,0.4709319472312927,0.6838502883911133,0.42000001668930054,-0.6371670365333557,2.999983787536621,-0.6409703493118286,-3.0000011920928955,-0.13881075382232666,-0.14653660356998444,-0.15411508083343506,-0.16126441955566406,-0.5778353214263916,-0.5063844323158264,-0.4229491353034973,-0.32713621854782104
0.3333333333333333,0.07126937061548233,0.10532904416322708,0.0,0.9168596267700195,0.0,0.0,-0.39920976758003235,-0.5875146985054016,-0.46141692996025085,0.0,0.0,0.0,-1.770220398902893,-0.33766424655914307,0.6745865941047668,0.4201297163963318,0.9985339641571045,0.003213531570509076,-3.9616574213141575e-05,-0.05403243750333786,0.3230360746383667,0.3106011152267456,0.028923705220222473,1.5104427337646484,-0.15229538083076477,-8.123618125915527,-0.35546401143074036,0.682924211025238,0.42145806550979614,0.44223353266716003,0.3551400303840637,-0.1821288913488388,0.4709319472312927,0.6838502883911133,0.42000001668930054,-0.5871620178222656,2.9999728202819824,-0.6910398602485657,-2.9999825954437256,-0.14936695992946625,-0.1554516851902008,-0.16112090647220612,-0.16610614955425262,-0.6256802678108215,-0.5125877857208252,-0.3813855051994324,-0.23365329205989838
0.35,0.05997718498110771,0.095986507833004,0.0,0.9203523397445679,0.0,0.0,-0.3910902738571167,-0.7181031107902527,-0.5994808673858643,0.0,0.0,0.0,1.9752140045166016,-0.3308497369289398,0.6814733743667603,0.4200001657009125,0.9901560544967651,1.2334156963333953e-05,-2.6377980248071253e-05,-0.1399679183959961,0.475943922996521,0.48639050126075745,-0.00036835181526839733,-0.017059503123164177,0.032404497265815735,-12.37427806854248,-0.347450852394104,0.6909477710723877,0.41941964626312256,0.5425593852996826,0.5697815418243408,0.01852099597454071,0.4709319472312927,0.6838502883911133,0.42000001668930054,-0.5371294021606445,2.9999890327453613,-0.7410618662834167,-2.99997878074646,-0.16049297153949738,-0.1642797440290451,-0.16730575263500214,-0.1693524420261383,-0.6338910460472107,-0.48589399456977844,-0.31604599952697754,-0.1280188262462616
0.36666666666666664,0.05206965655088425,0.0839075967669487,0.0,0.9176467657089233,0.0,0.0,-0.3973970413208008,-0.38978731632232666,-0.7722017765045166,0.0,0.0,0.0,-1.7401890754699707,-0.3221223056316376,0.6903647184371948,0.42011356353759766,0.9803545475006104,-0.0028009514790028334,0.0005275086150504649,-0.19722279906272888,0.6465438008308411,0.651745080947876,0.035958778113126755,-1.6726678609848022,0.6587689518928528,-4.041557788848877,-0.3362579941749573,0.6992361545562744,0.4204816222190857,0.8269216418266296,0.5164520740509033,0.07557422667741776,0.4709319472312927,0.6838502883911133,0.42000001668930054,-0.48707351088523865,2.9999663829803467,-0.7910670042037964,-2.999980926513672,-0.17062105238437653,-0.1716429591178894,-0.17148247361183167,-0.17000199854373932,-0.550552487373352,-0.374817430973053,-0.17335015535354614,0.0483420193195343
0.3833333333333333,0.04196469858288765,0.07026724517345428,0.0,0.902308464050293,0.0,0.0,-0.4310910105705261,-0.6854902505874634,-0.8432799577713013,0.0,0.0,0.0,-5.383888244628906,-0.3066507577896118,0.705223798751831,0.4214159846305847,0.9705070853233337,-0.03536919876933098,0.008122921921312809,-0.23832537233829498,1.227677345275879,1.1371058225631714,0.11743798106908798,-5.500863075256348,2.539292573928833,-6.939894676208496,-0.31798267364501953,0.7118923664093018,0.42212823033332825,1.3749072551727295,1.048100471496582,0.12658794224262238,0.4709319472312927,0.6838502883911133,0.42000001668930054,-0.43701043725013733,2.9999866485595703,-0.8410744667053223,-2.9999773502349854,-0.18110425770282745,-0.1788940578699112,-0.17506401240825653,-0.16958490014076233,-0.5658908486366272,-0.37987619638442993,-0.16744033992290497,0.06470490992069244
0.4,0.034810226410627365,0.05365315452218056,0.0,0.8723871111869812,0.0,0.0,-0.48881566524505615,-0.3831724226474762,-1.042980432510376,0.0,0.0,0.0,-8.58522891998291,-0.2721141576766968,0.7274318933486938,0.42515087127685547,0.9553892016410828,-0.03991889953613281,-0.02444026991724968,-0.2916172742843628,3.022087335586548,1.3535699844360352,0.22316265106201172,30.931032180786133,-18.276260375976562,9.247840881347656,-0.2826843857765198,0.7356281876564026,0.4245031476020813,2.9122276306152344,1.7877719402313232,0.3771947920322418,0.4709319472312927,0.6838502883911133,0.42000001668930054,-0.39462193846702576,1.6432677507400513,-0.8910971879959106,-3.0000033378601074,-0.18994438648223877,-0.18450544774532318,-0.17703375220298767,-0.16762538254261017,-0.591376006603241,-0.3711834251880646,-0.13083241879940033,0.12112724781036377
0.4166666666666667,0.029881896451115608,0.04214451462030411,0.0,0.8251753449440002,0.0,0.0,-0.5648766756057739,-0.2481793463230133,-0.5660178065299988,0.0,0.0,0.0,-11.539790153503418,-0.1972319632768631,0.7592048048973083,0.42946258187294006,0.9344511032104492,0.02393185906112194,-0.0747896358370781,-0.3473251461982727,6.062938213348389,1.6926815509796143,0.34000149369239807,7.241004943847656,-10.280552864074707,20.49072265625,-0.20680846273899078,0.7686744928359985,0.4285469651222229,5.808170318603516,2.33998966217041,0.32590895891189575,0.4709319472312927,0.6838502883911133,0.42000001668930054,-0.3772684931755066,0.7205039262771606,-0.8540445566177368,2.9997401237487793,-0.20534339547157288,-0.19652488827705383,-0.18372595310211182,-0.16919076442718506,-0.8834350109100342,-0.7985325455665588,-0.4861350357532501,-0.1974698305130005
0.43333333333333335,0.02826174907386303,0.0337805449962616,0.0,0.7868903875350952,0.0,0.0,-0.6170927882194519,-0.03869757428765297,-0.46306708455085754,0.0,0.0,0.0,-6.5767388343811035,-0.10165044665336609,0.792343020439148,0.435546338558197,0.8946815133094788,0.02595970593392849,-0.14827567338943481,-0.4205775260925293,5.993017673492432,1.4894826412200928,0.3733561336994171,26.707992553710938,-30.121723175048828,-1.7734366655349731,-0.1100744754076004,0.8057663440704346,0.4360194206237793,5.964868068695068,1.9065278768539429,0.5516564846038818,0.4709319472312927,0.6838502883911133,0.42000001668930054,-0.3658159673213959,0.7308392524719238,-0.8805487751960754,-3.000002145767212,-0.21549294888973236,-0.20749256014823914,-0.19085533916950226,-0.17288491129875183,-0.5086003541946411,-0.5497499704360962,-0.37037980556488037,-0.21727243065834045
0.45,0.029772764071822166,0.028779800981283188,0.0,0.7696786522865295,0.0,0.0,-0.6384314894676208,0.14448395371437073,-0.24710680544376373,0.0,0.0,0.0,-2.180036783218384,-0.003375861793756485,0.813503623008728,0.4445962607860565,0.8313084244728088,0.04418889433145523,-0.1565711796283722,-0.5314686298370361,5.834512710571289,0.08225052803754807,0.8126920461654663,-1.341640591621399,-1.9800496101379395,10.780155181884766,-0.010131442919373512,0.8291316032409668,0.44435054063796997,6.17704963684082,0.886315107345581,0.5723291635513306,0.4709319472312927,0.6838502883911133,0.42000001668930054,-0.3525620400905609,0.7331559062004089,-0.9305727481842041,-2.9974653720855713,-0.22511786222457886,-0.21675583720207214,-0.1970316469669342,-0.17644841969013214,-0.5542305111885071,-0.498445600271225,-0.3277758061885834,-0.18527758121490479
0.4666666666666667,0.030041106045246124,0.018390828743577003,0.0,0.7434123754501343,0.0,0.0,-0.6688333749771118,0.029267875477671623,-0.588744580745697,0.0,0.0,0.0,-5.605881214141846,0.09332266449928284,0.8180586099624634,0.45134952664375305,0.7804517149925232,0.03887418285012245,-0.15089678764343262,-0.6054866313934326,5.544513702392578,-1.203573226928711,0.7564454674720764,-6.3724045753479,12.385013580322266,11.939602851867676,0.08930595219135284,0.8362742066383362,0.45155632495880127,6.022871971130371,-0.24492189288139343,0.4007713794708252,0.4709319472312927,0.6838502883911133,0.42000001668930054,-0.3412911295890808,0.5586651563644409,-0.9805967807769775,-2.998347043991089,-0.2285889983177185,-0.21957726776599884,-0.1978820413351059,-0.17562517523765564,-0.4299567639827728,-0.29733726382255554,-0.12793098390102386,0.017990071326494217
0.48333333333333334,0.0332772471010685,0.01279065664857626,0.0,0.7292494177818298,0.0,0.0,-0.6842479705810547,0.18768379092216492,-0.3555428981781006,0.0,0.0,0.0,-1.2062296867370605,0.18392439186573029,0.8041282892227173,0.4538865089416504,0.6973214149475098,-0.06981310248374939,-0.2195756882429123,-0.6787159442901611,4.841574192047119,-1.7707252502441406,0.414899080991745,-7.212628364562988,-16.98790168762207,15.282069206237793,0.18192191421985626,0.8253954648971558,0.45919477939605713,5.313504219055176,-0.9570708870887756,0.36453869938850403,0.4709319472312927,0.6838502883911133,0.42000001668930054,-0.33241453766822815,0.3679189682006836,-1.0306196212768555,-3.000002145767212,-0.2371564656496048,-0.2255096286535263,-0.20124712586402893,-0.1769067794084549,-0.3001962900161743,-0.1899803876876831,-0.11029654741287231,-0.0545688234269619
0.5,0.03419812023639679,0.00984974019229412,0.0,0.7094889879226685,0.0,0.0,-0.7047165632247925,0.0014600248541682959,-0.10069198161363602,0.0,0.0,0.0,-4.266226768493652,0.26355159282684326,0.7830016613006592,0.45245885848999023,0.6218348145484924,-0.12439253181219101,-0.2192317396402359,-0.7414751052856445,3.9193899631500244,-2.2898941040039062,0.3148091733455658,6.673423767089844,8.55648136138916,39.764923095703125,0.2632601857185364,0.8055908679962158,0.4601893424987793,4.6966633796691895,-1.5434850454330444,-0.21610037982463837,0.4709319472312927,0.6838502883911133,0.42000001668930054,-0.3284568786621094,0.039249155670404434,-1.080641746520996,-2.9981894493103027,-0.24000436067581177,-0.2280067354440689,-0.20314756035804749,-0.1784779131412506,-0.05278550460934639,-0.12195409089326859,-0.10881245881319046,-0.11053847521543503
0.5166666666666666,0.036146897822618484,0.01059018075466156,0.0,0.7034197449684143,0.0,0.0,-0.7107747197151184,0.15310217440128326,0.09491226822137833,0.0,0.0,0.0,-0.06008352339267731,0.32983750104904175,0.7556583285331726,0.44577494263648987,0.5400298237800598,-0.1597185581922531,-0.20719358325004578,-0.7999552488327026,3.1402812004089355,-1.8988137245178223,-0.10616234689950943,0.605070173740387,23.17298698425293,-2.8690853118896484,0.3302758038043976,0.7778826951980591,0.455041766166687,3.6107048988342285,-1.8805711269378662,-0.5518144369125366,0.4709319472312927,0.6838502883911133,0.42000001668930054,-0.33056071400642395,-0.3746778666973114,-1.1306638717651367,-2.993842601776123,-0.23934614658355713,-0.22879531979560852,-0.20445287227630615,-0.18047550320625305,0.11523102223873138,0.041317589581012726,-0.03309684991836548,-0.11641154438257217
0.5333333333333333,0.040771663188934326,0.006981089245527983,0.0,0.6877697706222534,0.0,0.0,-0.7259289026260376,0.3267070949077606,-0.2170117348432541,0.0,0.0,0.0,-3.302539110183716,0.3839022219181061,0.7297754883766174,0.4316326379776001,0.4695388078689575,-0.17084567248821259,-0.1904848963022232,-0.8450209498405457,2.7364559173583984,-1.6125733852386475,-1.03544020652771,-0.3665587604045868,2.0232176780700684,-4.687014102935791,0.38378047943115234,0.7516393661499023,0.4414955973625183,2.8525357246398926,-1.6281507015228271,-0.9968713521957397,0.4709319472312927,0.6838502883911133,0.42000001668930054,-0.327229380607605,0.854589581489563,-1.1806859970092773,-2.9999074935913086,-0.23220813274383545,-0.22373399138450623,-0.20190654695034027,-0.18045073747634888,0.33443835377693176,0.241769477725029,0.09353518486022949,-0.05796944722533226
0.55,0.04817182570695877,0.008224494755268097,0.0,0.6854987144470215,0.0,0.0,-0.7280738353729248,0.46242648363113403,0.06900654733181,0.0,0.0,0.0,0.5541914701461792,0.4226512610912323,0.7130324244499207,0.42259374260902405,0.47400766611099243,-0.010608361102640629,-0.01912480592727661,-0.8802490234375,2.2116239070892334,-0.8373792767524719,-0.3598250448703766,22.977190017700195,-19.708099365234375,-3.8662967681884766,0.42133185267448425,0.7257652282714844,0.4276549220085144,1.8346589803695679,-1.3831725120544434,-0.8536121845245361,0.4709319472312927,0.6838502883911133,0.42000001668930054,-0.3050214946269989,1.7908051013946533,-1.230708122253418,-2.9999988079071045,-0.22865331172943115,-0.22137625515460968,-0.20202109217643738,-0.18308818340301514,0.4063124358654022,0.2838763892650604,0.07498881220817566,-0.1280742585659027
0.5666666666666667,0.05741898715496063,0.005009058862924576,0.0,0.6727818846702576,0.0,0.0,-0.7398408651351929,0.5870476961135864,-0.21771851181983948,0.0,0.0,0.0,-2.9250059127807617,0.44426414370536804,0.7039411664009094,0.420134037733078,0.47826993465423584,0.005520528648048639,0.00020239187870174646,-0.8781955242156982,0.7625957727432251,-1.4300627708435059,0.2854401767253876,-25.964574813842773,-18.839590072631836,17.271026611328125,0.4429783225059509,0.7151086330413818,0.4246687889099121,0.8308759331703186,-0.3751195967197418,-0.10794531553983688,0.4709319472312927,0.6838502883911133,0.42000001668930054,-0.27340734004974365,1.3815486431121826,-1.1926203966140747,3.0000102519989014,-0.21783101558685303,-0.21344797313213348,-0.1984676718711853,-0.1836213618516922,0.5418626666069031,0.40039142966270447,0.15846092998981476,-0.06915506720542908
0.5833333333333334,0.06409945338964462,0.005033072549849749,0.0,0.6726441383361816,0.0,0.0,-0.7399661540985107,0.33251968026161194,0.022488627582788467,0.0,0.0,0.0,0.8637580871582031,0.4550279676914215,0.6939001083374023,0.42041975259780884,0.5079221725463867,-0.005125038791447878,0.008182916790246964,-0.8613487482070923,0.7378053069114685,-1.0041922330856323,-0.044957175850868225,-4.336694717407227,-5.4424262046813965,15.99810791015625,0.45226049423217773,0.704964280128479,0.424652636051178,0.3842971622943878,-0.6583389639854431,-0.29031673073768616,0.4709319472312927,0.6838502883911133,0.42000001668930054,-0.2997324466705322,-2.8078150749206543,-1.2143852710723877,-3.0000178813934326,-0.21079502999782562,-0.2082098126411438,-0.19678916037082672,-0.1852869689464569,0.46769553422927856,0.3543509244918823,0.1323966085910797,-0.07608538866043091
0.6,0.07145413756370544,0.008245045319199562,0.0,0.6616674065589905,0.0,0.0,-0.7497974634170532,0.4534796178340912,0.229274719953537,0.0,0.0,0.0,-2.6960203647613525,0.4594813883304596,0.6878464221954346,0.42046409845352173,0.5349225997924805,-0.009915695525705814,-0.0047690062783658504,-0.8448293209075928,0.2840738594532013,0.06764320284128189,0.11781279742717743,-2.490543842315674,3.6422722339630127,3.342677354812622,0.4568250775337219,0.702564537525177,0.426286518573761,0.28871259093284607,0.06435056030750275,0.15733464062213898,0.4709319472312927,0.6838502883911133,0.42000001668930054,-0.32630252838134766,-0.6279398202896118,-1.264311671257019,-2.9984610080718994,-0.20148448646068573,-0.20152033865451813,-0.19433031976222992,-0.18663188815116882,0.7030075788497925,0.5132027268409729,0.23321904242038727,-0.015732496976852417
0.6166666666666667,0.080447718501091,0.006818954832851887,0.0,0.6627210974693298,0.0,0.0,-0.7488663196563721,0.5292797088623047,-0.11080369353294373,0.0,0.0,0.0,1.0649217367172241,0.463439017534256,0.6889306306838989,0.4210951030254364,0.5516791939735413,-0.021387411281466484,-0.006297428626567125,-0.8337582349777222,0.11822763085365295,0.05597586929798126,0.016293542459607124,0.6964649558067322,0.932733416557312,1.5840057134628296,0.4582192301750183,0.7026875019073486,0.4271172285079956,-0.09627044200897217,-0.04138050973415375,-0.021462414413690567,0.4709319472312927,0.6838502883911133,0.42000001668930054,-0.3686497211456299,-2.9999096393585205,-1.2613619565963745,2.8433494567871094,-0.18749426305294037,-0.1905757039785385,-0.1879126876592636,-0.18427367508411407,0.7174766063690186,0.5833927392959595,0.35947728157043457,0.1563335657119751
0.6333333333333333,0.09202321618795395,0.009492327459156513,0.0,0.6852462291717529,0.0,0.0,-0.7283114790916443,0.7188854217529297,0.15877653658390045,0.0,0.0,0.0,4.483065605163574,0.4637000560760498,0.6895803213119507,0.4203348457813263,0.5536904335021973,-0.006736292969435453,-0.004713369533419609,-0.8326819539070129,-0.040272053331136703,0.04120882228016853,-0.03735356032848358,1.7291736602783203,-0.6068536043167114,-0.8960525989532471,0.45628201961517334,0.7024081945419312,0.42888373136520386,-0.09130991995334625,0.11451771855354309,0.1743144392967224,0.4709319472312927,0.6838502883911133,0.42000001668930054,-0.4186362028121948,-3.0001847743988037,-1.2829669713974,-2.996952533721924,-0.17970220744609833,-0.1842731535434723,-0.1845267415046692,-0.18352903425693512,0.561859667301178,0.4478656053543091,0.2570641040802002,0.08511713892221451
0.65,0.10080347955226898,0.008506636135280132,0.0,0.6939253807067871,0.0,0.0,-0.720046877861023,0.4239061176776886,-0.12032129615545273,0.0,0.0,0.0,0.37797796726226807,0.4631846845149994,0.6897318959236145,0.42004159092903137,0.5511621832847595,0.000575701822526753,-0.0008660448947921395,-0.8343974351882935,-0.05596441030502319,0.023371871560811996,0.020546361804008484,-0.3993544578552246,-0.9458281993865967,-0.2786112129688263,0.4555572271347046,0.7046202421188354,0.4328117072582245,-0.0813300758600235,0.09539754688739777,0.2830527722835541,0.4709319472312927,0.6838502883911133,0.42000001668930054,-0.46864229440689087,-2.9996516704559326,-1.3329358100891113,-2.999898910522461,-0.17107070982456207,-0.1767486035823822,-0.17919272184371948,-0.1800415813922882,0.4346553385257721,0.4191552996635437,0.34704554080963135,0.29445087909698486
0.6666666666666666,0.10910758376121521,0.0037846278864890337,0.0,0.6811574101448059,0.0,0.0,-0.7321370244026184,0.5388250350952148,-0.35496360063552856,0.0,0.0,0.0,-2.963947296142578,0.4629312753677368,0.6898375749588013,0.4200001358985901,0.5507071614265442,9.619917364034336e-06,-2.2324938981910236e-05,-0.834698498249054,0.002045515226200223,-0.0016081425128504634,-0.0009445397881790996,0.00818043202161789,0.02191476710140705,-0.0034659274388104677,0.45846545696258545,0.7074915170669556,0.44129419326782227,0.38685518503189087,0.18604663014411926,0.8431400060653687,0.4709319472312927,0.6838502883911133,0.42000001668930054,-0.5186549425125122,-2.999997615814209,-1.3829542398452759,-3.000000238418579,-0.166213259100914,-0.1715787947177887,-0.17449091374874115,-0.17548160254955292,0.2022365778684616,0.24918688833713531,0.25708985328674316,0.2835421860218048
0.6833333333333333,0.12122033536434174,0.004235348664224148,0.0,0.6464093327522278,0.0,0.0,-0.7629908323287964,0.6868565082550049,0.01250323187559843,0.0,0.0,0.0,-6.369672775268555,0.4629330635070801,0.6898359656333923,0.4200000464916229,0.5507063865661621,-6.147713804693922e-08,-2.8427032248146133e-06,-0.8346989154815674,3.01633062917972e-05,-0.0002673478447832167,-7.370044477283955e-05,0.007036722730845213,-0.0022617122158408165,-0.0006967412773519754,0.47143131494522095,0.7073765397071838,0.4619770646095276,1.3137848377227783,-0.04491285979747772,1.7186646461486816,0.4709319472312927,0.6838502883911133,0.42000001668930054,-0.5686674118041992,-2.999992609024048,-1.4329725503921509,-2.999999523162842,-0.17104969918727875,-0.17413167655467987,-0.1753694862127304,-0.1745150089263916,-0.20191189646720886,-0.08696278929710388,0.0023641465231776237,0.10552260279655457
0.7,0.13409975171089172,0.00762461731210351,0.0,0.6256703734397888,0.0,0.0,-0.7800875306129456,0.8299617767333984,0.18336288630962372,0.0,0.0,0.0,-2.1476070880889893,0.4629330337047577,0.6898359060287476,0.4200000464916229,0.5507065653800964,2.903903748574521e-07,-2.807130840665195e-06,-0.8346988558769226,5.219775266596116e-05,-0.00025047289091162384,-7.895147427916527e-05,0.006451422348618507,-0.0019614265765994787,-0.0007139211520552635,0.49294257164001465,0.7102246284484863,0.4930819272994995,1.339646816253662,0.3475976884365082,1.995178461074829,0.4709319472312927,0.6838502883911133,0.42000001668930054,-0.5888590216636658,0.30879446864128113,-1.4829908609390259,-3.000000238418579,-0.17495067417621613,-0.17666904628276825,-0.1769472360610962,-0.17499694228172302,-0.09337043017148972,-0.07617875933647156,-0.07904595881700516,-0.07472635060548782
0.7166666666666667,0.1443130373954773,0.011354696936905384,0.0,0.6302685141563416,0.0,0.0,-0.7763772010803223,0.5413891077041626,0.31773823499679565,0.0,0.0,0.0,1.6043864488601685,0.4629330337047577,0.6898359060287476,0.4200000464916229,0.5507064461708069,2.9897918807364476e-07,-2.6601931040204363e-06,-0.8346989154815674,5.121435606270097e-05,-0.0002502198040019721,-7.877219468355179e-05,0.006449074484407902,-0.001972970785573125,-0.0007112019811756909,0.51386559009552,0.7158898115158081,0.5193570852279663,1.090863823890686,0.33302760124206543,1.2384825944900513,0.4709319472312927,0.6838502883911133,0.42000001668930054,-0.562202513217926,2.661716938018799,-1.4486887454986572,2.9999990463256836,-0.17471294105052948,-0.17625266313552856,-0.17662914097309113,-0.17471273243427277,0.03819200024008751,0.052727289497852325,0.0518890842795372,0.05038446933031082
0.7333333333333333,0.1497029960155487,0.010683995671570301,0.0,0.623217761516571,0.0,0.0,-0.7820483446121216,0.3320070803165436,-0.05451617017388344,0.0,0.0,0.0,-1.8435691595077515,0.4629330337047577,0.6898359060287476,0.4200000464916229,0.5507066249847412,3.0118155791569734e-07,-2.61762443187763e-06,-0.8346987962722778,5.012051769881509e-05,-0.0002504681469872594,-7.855077274143696e-05,0.006461800541728735,-0.0019867171067744493,-0.0007091122097335756,0.5256507396697998,0.7235994338989258,0.5338766574859619,0.22975660860538483,0.3331699073314667,0.6282765865325928,0.4709319472312927,0.6838502883911133,0.42000001668930054,-0.5356436967849731,0.6778073310852051,-1.3986399173736572,3.000000238418579,-0.169127956032753,-0.17110148072242737,-0.17212064564228058,-0.17087723314762115,0.1179807037115097,0.1485954374074936,0.1627815067768097,0.16516894102096558
0.75,0.15246626734733582,0.01493257936090231,0.0,0.6291713714599609,0.0,0.0,-0.7772666215896606,0.11255642026662827,0.27556201815605164,0.0,0.0,0.0,1.6808209419250488,0.4629330337047577,0.6898359656333923,0.4200000464916229,0.5507063269615173,2.3594597564624564e-07,-2.8965971523575718e-06,-0.8346990942955017,5.1419301598798484e-05,-0.0002514475490897894,-7.884996011853218e-05,0.0064796521328389645,-0.0019772357773035765,-0.0007140409434214234,0.5253998041152954,0.7279201745986938,0.5415050387382507,-0.14013764262199402,0.3474650979042053,0.3050999939441681,0.4709319472312927,0.6838502883911133,0.42000001668930054,-0.5092015862464905,2.331195116043091,-1.4167754650115967,-2.9999992847442627,-0.17118923366069794,-0.17185083031654358,-0.17188377678394318,-0.1699913889169693,-0.014043672941625118,0.032545849680900574,0.0631750226020813,0.07460237294435501
0.7666666666666666,0.15217672288417816,0.014198476448655128,0.0,0.623494029045105,0.0,0.0,-0.7818281054496765,-0.05466555804014206,-0.12084197998046875,0.0,0.0,0.0,-1.7770768404006958,0.4629330337047577,0.6898359060287476,0.4200000464916229,0.5507065057754517,1.215747573724002e-07,-2.636184945004061e-06,-0.8346989750862122,4.7005709348013625e-05,-0.0002537131367716938,-7.795658893883228e-05,0.0065629868768155575,-0.002039308426901698,-0.0007091840379871428,0.5164567232131958,0.7337766885757446,0.540154218673706,-0.9339659810066223,0.3290312588214874,-0.2771420180797577,0.4709319472312927,0.6838502883911133,0.42000001668930054,-0.5015691518783569,-1.122663140296936,-1.3782845735549927,3.000000238418579,-0.16944248974323273,-0.1696448177099228,-0.16944341361522675,-0.16763430833816528,0.11662835627794266,0.14590883255004883,0.1617480367422104,0.1563868522644043
0.7833333333333333,0.15397650003433228,0.019003553315997124,0.0,0.6304957270622253,0.0,0.0,-0.7761927247047424,0.04252487048506737,0.29492902755737305,0.0,0.0,0.0,1.8458526134490967,0.4629330337047577,0.6898359656333923,0.4200000464916229,0.5507064461708069,1.492886383402947e-07,-2.790682856357307e-06,-0.8346989750862122,4.715949762612581e-05,-0.00025353304226882756,-7.800804451107979e-05,0.006556767504662275,-0.002037497702986002,-0.0007092588930390775,0.5022655129432678,0.7375518083572388,0.5343829393386841,-0.6429452896118164,0.41002732515335083,-0.37847644090652466,0.4709319472312927,0.6838502883911133,0.42000001668930054,-0.4980762004852295,1.3276504278182983,-1.3968205451965332,-3.0,-0.1745096743106842,-0.17305965721607208,-0.17146292328834534,-0.1687031090259552,-0.09685949981212616,-0.061371009796857834,-0.031645480543375015,-0.01912740245461464
0.8,0.15621225535869598,0.019673803821206093,0.0,0.6252516508102417,0.0,0.0,-0.7804232239723206,0.21729153394699097,0.01878645457327366,0.0,0.0,0.0,-1.5859094858169556,0.4629330337047577,0.6898359060287476,0.4200000464916229,0.5507065057754517,1.2542051308628288e-07,-2.715652271945146e-06,-0.8346989750862122,4.726504994323477e-05,-0.0002536675601731986,-7.800082676112652e-05,0.006560590583831072,-0.0020357128232717514,-0.0007096217595972121,0.4911534786224365,0.7427654266357422,0.5242589712142944,-0.7062439918518066,0.10470384359359741,-0.6778310537338257,0.4709319472312927,0.6838502883911133,0.42000001668930054,-0.5195523500442505,-3.0000009536743164,-1.3583837747573853,3.000000476837158,-0.1743738353252411,-0.17254690825939178,-0.17055906355381012,-0.16759540140628815,-0.1345764845609665,-0.07321365922689438,-0.009487668052315712,0.042564600706100464
0.8166666666666667,0.16131791472434998,0.01713539846241474,0.0,0.6091557145118713,0.0,0.0,-0.7930506467819214,0.3510291278362274,-0.2211095094680786,0.0,0.0,0.0,-2.974876642227173,0.4629330337047577,0.6898359060287476,0.4200000464916229,0.5507065057754517,3.01819170545059e-07,-2.8203260171721922e-06,-0.8346988558769226,5.205620618653484e-05,-0.0002503364812582731,-7.89593905210495e-05,0.00644752336665988,-0.0019640596583485603,-0.0007133377948775887,0.485268771648407,0.7438215017318726,0.5154545903205872,-0.012571591883897781,0.02212320640683174,-0.2791992127895355,0.4709319472312927,0.6838502883911133,0.42000001668930054,-0.5695618391036987,-2.999985456466675,-1.3772813081741333,-3.000000238418579,-0.17773005366325378,-0.17479246854782104,-0.1715501844882965,-0.16743119060993195,-0.21084627509117126,-0.1467844694852829,-0.06941505521535873,0.006789951119571924
0.8333333333333334,0.16925756633281708,0.01647210493683815,0.0,0.5836416482925415,0.0,0.0,-0.8120113611221313,0.5205366611480713,0.027088047936558723,0.0,0.0,0.0,-4.265520095825195,0.4629330337047577,0.6898359060287476,0.4200000464916229,0.5507066249847412,3.0198981448847917e-07,-2.7394316930440255e-06,-0.8346989154815674,5.253054041531868e-05,-0.0002501237904652953,-7.905438542366028e-05,0.00643965182825923,-0.001957255881279707,-0.0007139006047509611,0.48856598138809204,0.7441504001617432,0.5123751759529114,0.4127066433429718,-0.0033668354153633118,-0.015285041183233261,0.4709319472312927,0.6838502883911133,0.42000001668930054,-0.6041451692581177,-1.271317958831787,-1.4272996187210083,-2.999995231628418,-0.18190278112888336,-0.17814701795578003,-0.17376506328582764,-0.16842280328273773,-0.21879225969314575,-0.18649587035179138,-0.13138215243816376,-0.06702644377946854
0.85,0.17910458147525787,0.0140298530459404,0.0,0.5748205184936523,0.0,0.0,-0.8182795643806458,0.623343288898468,-0.18911851942539215,0.0,0.0,0.0,-0.3253025412559509,0.4629330337047577,0.6898359656333923,0.4200000464916229,0.5507062673568726,4.135023914386693e-07,-2.7704716103471583e-06,-0.8346990346908569,4.74179869343061e-05,-0.00025453115813434124,-7.809814997017384e-05,0.006580862682312727,-0.002040310064330697,-0.0007120582740753889,0.49441730976104736,0.7478046417236328,0.5132781267166138,0.2106301486492157,0.3017587959766388,0.08862362802028656,0.4709319472312927,0.6838502883911133,0.42000001668930054,-0.5989392399787903,1.6374266147613525,-1.4773179292678833,-3.0,-0.18269966542720795,-0.179036483168602,-0.17444725334644318,-0.16878831386566162,-0.07189583033323288,-0.0774654820561409,-0.0722605362534523,-0.06644213944673538
0.8666666666666667,0.18601670861244202,0.008254974149167538,0.0,0.5897421836853027,0.0,0.0,-0.8075915575027466,0.3374791145324707,-0.4561777412891388,0.0,0.0,0.0,2.908737897872925,0.4629330337047577,0.6898359656333923,0.4200000464916229,0.550706148147583,2.5342077947243524e-07,-2.620483428472653e-06,-0.8346991539001465,4.60171140730381e-05,-0.00025491658016107976,-7.778964936733246e-05,0.006599391810595989,-0.002057404723018408,-0.0007094758911989629,0.4996839761734009,0.7507524490356445,0.5130980610847473,0.3818274140357971,0.09405657649040222,-0.07216227054595947,0.4709319472312927,0.6838502883911133,0.42000001668930054,-0.6012651324272156,-1.6334245204925537,-1.4386544227600098,3.000000476837158,-0.1853180080652237,-0.18109627068042755,-0.17579883337020874,-0.16945946216583252,-0.14154626429080963,-0.09769606590270996,-0.04543148726224899,0.005111653357744217
