vladlanda/robotic-transformer/data/env_000_episode_0070.csv
sim_time_s,robot_box_x,robot_box_y,robot_box_z,robot_box_quat_w,robot_box_quat_x,robot_box_quat_y,robot_box_quat_z,robot_box_linvel_x,robot_box_linvel_y,robot_box_linvel_z,robot_box_angvel_x,robot_box_angvel_y,robot_box_angvel_z,cube_world_x,cube_world_y,cube_world_z,cube_quat_w,cube_quat_x,cube_quat_y,cube_quat_z,cube_linvel_x,cube_linvel_y,cube_linvel_z,cube_angvel_x,cube_angvel_y,cube_angvel_z,endpoint_world_x,endpoint_world_y,endpoint_world_z,endpoint_linvel_x,endpoint_linvel_y,endpoint_linvel_z,target_cube_world_x,target_cube_world_y,target_cube_world_z,gripper_actual_pos_rad_gp_leftgearjoint,gripper_actual_vel_rad_s_gp_leftgearjoint,gripper_actual_pos_rad_gp_rotatingjoint,gripper_actual_vel_rad_s_gp_rotatingjoint,motor_angle_rad_joint1,motor_angle_rad_joint2,motor_angle_rad_joint3,motor_angle_rad_joint4,motor_speed_rad_s_joint1,motor_speed_rad_s_joint2,motor_speed_rad_s_joint3,motor_speed_rad_s_joint4
0.0,0.0,0.0,0.0,1.0,0.0,0.0,0.0,0.0,0.0,0.0,0.0,0.0,0.0,-0.3446264863014221,0.6890593767166138,0.41999998688697815,1.0,0.0,0.0,0.0,0.0,0.0,0.0,0.0,0.0,0.0,3.42540442943573e-06,-0.005000244826078415,1.313499927520752,0.0,0.0,0.0,0.3709007203578949,0.6328974962234497,0.42000001668930054,-1.5707999467849731,0.0,0.0,0.0,0.0,0.0,0.0,0.0,0.0,0.0,0.0,0.0
0.016666666666666666,0.0028973633889108896,0.002012931974604726,0.0,0.9999484419822693,0.0,0.0,0.010154413059353828,0.24271346628665924,0.17671923339366913,0.0,0.0,0.0,1.9955748319625854,-0.34462660551071167,0.6890590786933899,0.41999998688697815,1.0,3.2799905511637917e-06,-8.339794135281409e-07,8.465515577427141e-08,-1.9833774786093272e-05,0.00017983047291636467,-6.132945418357849e-05,0.0009432245860807598,-0.004689525347203016,-0.00031981084612198174,-0.007071966305375099,0.003626073943451047,1.315942406654358,-0.8115058541297913,0.9982823729515076,0.1811232566833496,0.3709007203578949,0.6328974962234497,0.42000001668930054,-1.5301092863082886,3.0000038146972656,-0.04585758224129677,-3.000000238418579,0.0008772582514211535,0.0008037724765017629,0.0007175405626185238,0.0006168606341816485,0.11143583804368973,0.09802499413490295,0.08376890420913696,0.06862542033195496
0.03333333333333333,0.008702301420271397,0.006655020639300346,0.0,0.9999929666519165,0.0,0.0,0.003753057913854718,0.41249629855155945,0.32014596462249756,0.0,0.0,0.0,-1.601425290107727,-0.3446267247200012,0.6890590190887451,0.4200000464916229,1.0,3.3908531804627273e-06,-2.132488134520827e-06,-3.710428941872124e-08,0.0002635785494931042,0.0002693783608265221,-0.00010509602725505829,-0.0017707846127450466,0.004130862653255463,-0.00013547409616876394,-0.026939503848552704,0.02680209092795849,1.3165292739868164,-1.5327643156051636,1.671464443206787,-0.07938617467880249,0.3709007203578949,0.6328974962234497,0.42000001668930054,-1.4800900220870972,3.000001907348633,-0.0958973839879036,-3.0,0.0028941775672137737,0.002557196654379368,0.002182139316573739,0.0017661727033555508,0.16715088486671448,0.141882985830307,0.1151491031050682,0.08685123920440674
0.05,0.01825457252562046,0.013875826261937618,0.0,0.9995763301849365,0.0,0.0,-0.029105497524142265,0.6370869874954224,0.47979557514190674,0.0,0.0,0.0,-4.7935662269592285,-0.3446267545223236,0.6890590786933899,0.4200000464916229,1.0,3.7651284401363228e-06,-2.2118861124909017e-06,5.622759147172474e-09,0.00026530996547080576,0.00026691515813581645,-0.00010440382175147533,-0.00172425655182451,0.004177390597760677,-0.00012948956282343715,-0.05548669770359993,0.05861151963472366,1.3120441436767578,-1.8668878078460693,2.097858428955078,-0.4389702081680298,0.3709007203578949,0.6328974962234497,0.42000001668930054,-1.4300717115402222,2.9999983310699463,-0.14590004086494446,-2.9999992847442627,0.005917694885283709,0.005065993405878544,0.004142079968005419,0.003141868393868208,0.20558351278305054,0.16453176736831665,0.1215820237994194,0.07664404064416885
0.06666666666666667,0.03079519420862198,0.02353590913116932,0.0,0.9990864396095276,0.0,0.0,-0.04273487627506256,0.7865663170814514,0.6262571215629578,0.0,0.0,0.0,-0.6451979875564575,-0.3446267545223236,0.6890590190887451,0.4200000464916229,0.9999999403953552,3.406779342185473e-06,-2.285526988998754e-06,4.300881926155853e-07,0.00026702668401412666,0.00026791810523718596,-0.00010437914170324802,-0.0017406379338353872,0.004211799707263708,-0.00012850595521740615,-0.08971089869737625,0.09254740178585052,1.3025445938110352,-2.077449321746826,2.1572089195251465,-0.6955007314682007,0.3709007203578949,0.6328974962234497,0.42000001668930054,-1.3800445795059204,2.9999988079071045,-0.11234127730131149,3.0,0.008439216762781143,0.006780854891985655,0.005011198576539755,0.0031222195830196142,0.12440771609544754,0.06519126147031784,0.0037890798412263393,-0.05978009104728699
0.08333333333333333,0.03723553568124771,0.030813461169600487,0.0,0.9974478483200073,0.0,0.0,-0.07139902561903,0.2533320188522339,0.3648524284362793,0.0,0.0,0.0,-4.3805623054504395,-0.3446267545223236,0.6890590190887451,0.4200000464916229,1.0,3.6973510759708006e-06,-2.1889595700486097e-06,-2.632473012909031e-07,0.00026389595586806536,0.0002658632874954492,-0.0001043388620018959,-0.0017081330297514796,0.004150238819420338,-0.00012991279072593898,-0.118921659886837,0.1320314258337021,1.2898614406585693,-1.455928087234497,2.6199917793273926,-0.7719807624816895,0.3709007203578949,0.6328974962234497,0.42000001668930054,-1.3300408124923706,2.9999985694885254,-0.14437323808670044,-3.0,0.004494748543947935,0.001969494391232729,-0.0007216465892270207,-0.003588859224691987,-0.36247682571411133,-0.4279385805130005,-0.4962240159511566,-0.5674740076065063
0.1,0.047095365822315216,0.041235122829675674,0.0,0.9915478825569153,0.0,0.0,-0.12974104285240173,0.597004771232605,0.6342988014221191,0.0,0.0,0.0,-7.829422473907471,-0.3446267545223236,0.6890590190887451,0.4200000464916229,0.9999999403953552,3.62046125701454e-06,-2.2652770894637797e-06,1.745990232393524e-07,0.0002667673397809267,0.00026740715838968754,-0.0001040794886648655,-0.0017385382670909166,0.004209098871797323,-0.0001277524424949661,-0.14442960917949677,0.1813650280237198,1.2715156078338623,-1.6493313312530518,3.219399929046631,-1.3069723844528198,0.3709007203578949,0.6328974962234497,0.42000001668930054,-1.2800252437591553,2.9975204467773438,-0.11087023466825485,3.0000009536743164,0.0016672832425683737,-0.002227979013696313,-0.006300714332610369,-0.010562526062130928,-0.275969922542572,-0.3386521339416504,-0.40241539478302,-0.4673171043395996
0.11666666666666667,0.05557561293244362,0.05309257283806801,0.0,0.9865302443504333,0.0,0.0,-0.16357886791229248,0.4529421627521515,0.7538954615592957,0.0,0.0,0.0,-2.8842835426330566,-0.3446267545223236,0.6890590190887451,0.4200000464916229,1.0,3.7984573282301426e-06,-2.262856924062362e-06,-1.5021495869405044e-07,0.00026374036679044366,0.000265661277808249,-0.00010429229587316513,-0.001705389702692628,0.004147546831518412,-0.000129798921989277,-0.1792108416557312,0.23070821166038513,1.2493785619735718,-2.1504993438720703,3.063732624053955,-1.4232922792434692,0.3709007203578949,0.6328974962234497,0.42000001668930054,-1.2300348281860352,3.000002384185791,-0.14286570250988007,-3.000000476837158,-0.000846287002786994,-0.006240418180823326,-0.011780994944274426,-0.017477495595812798,-0.1520213484764099,-0.2449008971452713,-0.3349480628967285,-0.4220121204853058
0.13333333333333333,0.061267491430044174,0.06302406638860703,0.0,0.9782384037971497,0.0,0.0,-0.20748405158519745,0.29459047317504883,0.5368683934211731,0.0,0.0,0.0,-6.221374988555908,-0.3446267545223236,0.6890590786933899,0.4200000464916229,0.9999999403953552,3.5505674986779923e-06,-2.2298811472865054e-06,2.928988749317796e-07,0.0002670325629878789,0.0002677947923075408,-0.00010417005978524685,-0.0017441295785829425,0.004213639069348574,-0.00012800269178114831,-0.21134182810783386,0.2865142226219177,1.2231361865997314,-1.6248631477355957,3.7060210704803467,-1.7124472856521606,0.3709007203578949,0.6328974962234497,0.42000001668930054,-1.1800166368484497,2.999995231628418,-0.10935856401920319,3.0000009536743164,-0.0037477752193808556,-0.010873058810830116,-0.018080035224556923,-0.025375617668032646,-0.22881723940372467,-0.3321753740310669,-0.4314427673816681,-0.5264827013015747
0.15,0.06472263485193253,0.06902317702770233,0.0,0.9727107286453247,0.0,0.0,-0.23202119767665863,0.155660480260849,0.27458563446998596,0.0,0.0,0.0,-1.8313066959381104,-0.3446267247200012,0.6890590190887451,0.4200000464916229,1.0,3.3323158277198672e-06,-2.1020741769461893e-06,1.3129495357588894e-07,0.00026730698300525546,0.0002685973886400461,-0.00010459753684699535,-0.0017497893422842026,0.0042156679555773735,-0.00012928378419019282,-0.24445736408233643,0.34442633390426636,1.1877726316452026,-1.962274193763733,3.6043243408203125,-2.521428108215332,0.3709007203578949,0.6328974962234497,0.42000001668930054,-1.143746256828308,1.4575581550598145,-0.14136570692062378,-3.0000011920928955,-0.007585772778838873,-0.016155965626239777,-0.024730011820793152,-0.033315010368824005,-0.26559874415397644,-0.33203092217445374,-0.3940139710903168,-0.45167797803878784
0.16666666666666666,0.07009758055210114,0.07601815462112427,0.0,0.963421642780304,0.0,0.0,-0.26799023151397705,0.31942543387413025,0.45957502722740173,0.0,0.0,0.0,-5.244614601135254,-0.3446267545223236,0.6890590190887451,0.4200000464916229,1.0,3.7374031762738014e-06,-2.2332269509206526e-06,-1.876583866078363e-07,0.00026432963204570115,0.000266269693383947,-0.00010446016676723957,-0.0017119431868195534,0.004157555289566517,-0.00013001271872781217,-0.2755914330482483,0.40921324491500854,1.1375837326049805,-1.6819753646850586,4.120492935180664,-3.4535908699035645,0.3709007203578949,0.6328974962234497,0.42000001668930054,-1.0972764492034912,3.0000014305114746,-0.12418156117200851,2.9999990463256836,-0.014467966742813587,-0.023587483912706375,-0.032662928104400635,-0.04170779138803482,-0.5822201371192932,-0.5824079513549805,-0.5812646746635437,-0.5792795419692993
0.18333333333333332,0.07287275791168213,0.08414566516876221,0.0,0.9579241275787354,0.0,0.0,-0.28702154755592346,0.09329303354024887,0.5258558392524719,0.0,0.0,0.0,-0.8254910707473755,-0.3446267545223236,0.6890590786933899,0.4200000464916229,0.9999999403953552,3.6603628359443974e-06,-2.302359689565492e-06,2.52847314641258e-07,0.0002669092209544033,0.00026760256150737405,-0.0001041253563016653,-0.0017412835732102394,0.004211553372442722,-0.00012787102605216205,-0.30580008029937744,0.47289198637008667,1.0747795104980469,-1.5954034328460693,3.7738037109375,-4.060620307922363,0.3709007203578949,0.6328974962234497,0.42000001668930054,-1.0472750663757324,3.0,-0.15610060095787048,-2.999999523162842,-0.025249265134334564,-0.03420831263065338,-0.04309399425983429,-0.051930204033851624,-0.6920638680458069,-0.6737316250801086,-0.6537768840789795,-0.6328421831130981
0.2,0.07827900350093842,0.08892901241779327,0.0,0.9496609568595886,0.0,0.0,-0.3132795989513397,0.41148772835731506,0.18246705830097198,0.0,0.0,0.0,-3.9981071949005127,-0.3446267545223236,0.6890590190887451,0.4200000464916229,1.0,3.5909113194065867e-06,-2.3004156446404522e-06,1.3872801218894892e-07,0.00026654769317246974,0.0002673235139809549,-0.00010424060747027397,-0.0017326237866654992,0.004203386604785919,-0.00012819955009035766,-0.3292553424835205,0.5367602109909058,0.9995047450065613,-1.1663501262664795,3.7524402141571045,-4.900508880615234,0.3709007203578949,0.6328974962234497,0.42000001668930054,-0.9972681999206543,3.000002384185791,-0.20612843334674835,-2.999999761581421,-0.03768720105290413,-0.046008385717868805,-0.05425442010164261,-0.06246091425418854,-0.8307879567146301,-0.7736954689025879,-0.7177071571350098,-0.6635032296180725
0.21666666666666667,0.0790107324719429,0.09681735187768936,0.0,0.9328398704528809,0.0,0.0,-0.3602913022041321,0.04862554371356964,0.46689024567604065,0.0,0.0,0.0,-6.7259955406188965,-0.3446267545223236,0.6890590786933899,0.4200000464916229,1.0,3.607003463912406e-06,-2.2610099676967366e-06,1.9621262836722053e-08,0.0002644715132191777,0.00026558490935713053,-0.00010396563448011875,-0.0017088435124605894,0.004164247307926416,-0.00012832065112888813,-0.34260129928588867,0.5945961475372314,0.9082778692245483,-0.37790703773498535,3.2955820560455322,-5.738014221191406,0.3709007203578949,0.6328974962234497,0.42000001668930054,-0.9472581744194031,2.9999992847442627,-0.25615912675857544,-3.000000238418579,-0.054164737462997437,-0.06240416690707207,-0.07057243585586548,-0.07868259400129318,-0.7256863117218018,-0.7656720876693726,-0.8056914806365967,-0.8432855010032654
0.23333333333333334,0.08505725860595703,0.0994659885764122,0.0,0.9215853214263916,0.0,0.0,-0.3881758749485016,0.371406227350235,0.09066157788038254,0.0,0.0,0.0,-2.2566206455230713,-0.3446267247200012,0.6890590190887451,0.4200000464916229,0.9999999403953552,3.742284661711892e-06,-2.2275266928772908e-06,4.589204536387115e-07,0.00026475160848349333,0.00026671282830648124,-0.00010453304275870323,-0.00171882554423064,0.004165722988545895,-0.0001301881711697206,-0.35257604718208313,0.6394529342651367,0.8110353350639343,-0.31137579679489136,2.2925610542297363,-6.046872615814209,0.3709007203578949,0.6328974962234497,0.42000001668930054,-0.8972474932670593,2.9999992847442627,-0.30619165301322937,-3.0000016689300537,-0.06538882106542587,-0.07378388941287994,-0.08214215189218521,-0.09044736623764038,-0.9157845973968506,-0.8732492327690125,-0.8352378010749817,-0.8007348775863647
0.25,0.08556865900754929,0.10635272413492203,0.0,0.9233989715576172,0.0,0.0,-0.3838416337966919,0.03403191268444061,0.365150511264801,0.0,0.0,0.0,1.3702137470245361,-0.3446267545223236,0.6890590190887451,0.4200000464916229,1.0,3.3944668302865466e-06,-2.2821172933618072e-06,1.336286601372194e-07,0.00026679367874749005,0.0002679389144759625,-0.00010439474135637283,-0.0017417257186025381,0.004206514917314053,-0.00012883533781860024,-0.3605949878692627,0.6622065305709839,0.7139650583267212,-0.386616051197052,0.7594909071922302,-5.559024810791016,0.3709007203578949,0.6328974962234497,0.42000001668930054,-0.8472369909286499,2.9999818801879883,-0.35622426867485046,-2.999999523162842,-0.0823923870921135,-0.09064973890781403,-0.09893862903118134,-0.10721205174922943,-0.6807394623756409,-0.7443799376487732,-0.8040571808815002,-0.8579807877540588
0.26666666666666666,0.0849178358912468,0.10758984088897705,0.0,0.9191849827766418,0.0,0.0,-0.39382609724998474,-0.1268715113401413,0.09011548012495041,0.0,0.0,0.0,-2.080630302429199,-0.3446267545223236,0.6890590786933899,0.4200000464916229,1.0,3.683521072161966e-06,-2.3101358692656504e-06,2.1009377348946146e-07,0.0002647914516273886,0.0002662584010977298,-0.00010421173647046089,-0.0017169081838801503,0.004168983548879623,-0.00012909200449939817,-0.36512601375579834,0.6777739524841309,0.6212763786315918,-0.029738672077655792,0.7792440056800842,-5.40621280670166,0.3709007203578949,0.6328974962234497,0.42000001668930054,-0.7972279787063599,3.0000030994415283,-0.40625640749931335,-2.999999523162842,-0.09415758401155472,-0.10353170335292816,-0.11285081505775452,-0.1220489963889122,-1.0322308540344238,-1.02422034740448,-1.0181219577789307,-1.0132890939712524
0.2833333333333333,0.08135179430246353,0.1072397455573082,0.0,0.9216657876968384,0.0,0.0,-0.3879846930503845,-0.25925683975219727,-0.06773364543914795,0.0,0.0,0.0,1.5954792499542236,-0.3446267545223236,0.6890590190887451,0.4200000464916229,1.0,3.307066890556598e-06,-2.212535264334292e-06,2.6255446528011817e-07,0.00026660817093215883,0.0002674499119166285,-0.00010424223728477955,-0.0017352099530398846,0.004204348661005497,-0.0001282771409023553,-0.36517027020454407,0.6883206367492676,0.5360163450241089,0.14647457003593445,0.4353005886077881,-4.965461730957031,0.3709007203578949,0.6328974962234497,0.42000001668930054,-0.7472192049026489,2.999999523162842,-0.4562864303588867,-3.0000014305114746,-0.11121571063995361,-0.12049385160207748,-0.129744291305542,-0.13889139890670776,-1.0067218542099,-1.0050687789916992,-1.0038105249404907,-1.002807378768921
0.3,0.07541704922914505,0.10439080744981766,0.0,0.9180066585540771,0.0,0.0,-0.39656496047973633,-0.40587252378463745,-0.21348796784877777,0.0,0.0,0.0,-1.987739086151123,-0.3446267545223236,0.6890590190887451,0.4200000464916229,1.0,3.6565252230502665e-06,-2.2969290967012057e-06,-2.4498103812220506e-07,0.0002653322007972747,0.0002659547026269138,-0.00010385178029537201,-0.001716420752927661,0.004181907512247562,-0.000127459890791215,-0.3567866086959839,0.6914126873016357,0.4504801630973816,0.833187460899353,-0.08100232481956482,-5.1445112228393555,0.3709007203578949,0.6328974962234497,0.42000001668930054,-0.6972118020057678,2.999990701675415,-0.5063153505325317,-3.0000011920928955,-0.1284952014684677,-0.1376037746667862,-0.1467251032590866,-0.15577025711536407,-1.0000146627426147,-1.0000072717666626,-1.0000028610229492,-1.0000004768371582
0.31666666666666665,0.06722084432840347,0.09919131547212601,0.0,0.9207507371902466,0.0,0.0,-0.39015141129493713,-0.531711757183075,-0.3514116108417511,0.0,0.0,0.0,1.7245243787765503,-0.3446267545223236,0.6890590786933899,0.4200000464916229,0.9999999403953552,3.6509104575088713e-06,-2.304588178958511e-06,1.9766633840845316e-07,0.0002669171371962875,0.0002675950527191162,-0.00010412209667265415,-0.001741163432598114,0.004211817868053913,-0.00012785132275894284,-0.35009247064590454,0.6917606592178345,0.42098212242126465,0.3171345591545105,0.1712125539779663,-0.14967946708202362,0.3709007203578949,0.6328974962234497,0.42000001668930054,-0.6473228335380554,3.0000669956207275,-0.5568749308586121,-2.7848119735717773,-0.1382676213979721,-0.14745979011058807,-0.15649127960205078,-0.16522200405597687,-0.3338038921356201,-0.3327075242996216,-0.3104417622089386,-0.26219087839126587
0.3333333333333333,0.056821949779987335,0.09161396324634552,0.0,0.917288601398468,0.0,0.0,-0.3982231020927429,-0.667284369468689,-0.4972037374973297,0.0,0.0,0.0,-1.9748362302780151,-0.3422609567642212,0.6928750276565552,0.4216060936450958,0.9977481961250305,0.002152223140001297,0.04181862622499466,-0.05239351838827133,0.09780527651309967,0.1355738490819931,0.00957675464451313,0.04337640479207039,0.5160203576087952,-2.453953266143799,-0.34781956672668457,0.693923830986023,0.4245903789997101,0.21875156462192535,0.07308445125818253,-0.17147818207740784,0.3709007203578949,0.6328974962234497,0.42000001668930054,-0.5973166823387146,2.99998140335083,-0.6069543957710266,-2.9999589920043945,-0.14369401335716248,-0.15244990587234497,-0.1606467217206955,-0.16808739304542542,-0.4247661530971527,-0.3623638153076172,-0.2800781726837158,-0.1760185956954956
0.35,0.044250793755054474,0.08173280954360962,0.0,0.9201748371124268,0.0,0.0,-0.39150771498680115,-0.793851375579834,-0.6322468519210815,0.0,0.0,0.0,1.7984981536865234,-0.339619904756546,0.695931077003479,0.42104077339172363,0.9951539635658264,0.0027709014248102903,0.026544274762272835,-0.09463756531476974,0.2516287863254547,0.23902039229869843,-0.03252783790230751,-0.298278272151947,-1.6322227716445923,-10.638693809509277,-0.34321320056915283,0.6969386339187622,0.42198559641838074,0.33456215262413025,0.26334506273269653,-0.12448596209287643,0.3709007203578949,0.6328974962234497,0.42000001668930054,-0.5473117828369141,2.9999184608459473,-0.6570010185241699,-2.9999921321868896,-0.15183009207248688,-0.15899096429347992,-0.16526921093463898,-0.17046138644218445,-0.4793546199798584,-0.36837658286094666,-0.23896685242652893,-0.09157221019268036
0.36666666666666664,0.030459430068731308,0.06957733631134033,0.0,0.9168269634246826,0.0,0.0,-0.39928480982780457,-0.8828320503234863,-0.7706419229507446,0.0,0.0,0.0,-1.9676991701126099,-0.33572280406951904,0.6997306942939758,0.420005202293396,0.9851016402244568,0.00018898368580266833,-2.9373137294896878e-05,-0.17197269201278687,0.29335522651672363,0.28089457750320435,-0.0004109895962756127,0.021970190107822418,-0.00910470075905323,-10.295428276062012,-0.3357735872268677,0.7001699805259705,0.42056804895401,0.5686054825782776,0.20987196266651154,-0.07762070745229721,0.3709007203578949,0.6328974962234497,0.42000001668930054,-0.4973071217536926,2.999962568283081,-0.7070552110671997,-2.9999475479125977,-0.16049805283546448,-0.16534541547298431,-0.16897566616535187,-0.1712152510881424,-0.4860760271549225,-0.3367757201194763,-0.167498379945755,0.01925237476825714
0.3833333333333333,0.019244108349084854,0.05469728633761406,0.0,0.9014827609062195,0.0,0.0,-0.4328150153160095,-0.5971518158912659,-0.9449214339256287,0.0,0.0,0.0,-5.276674270629883,-0.3273402154445648,0.7071177959442139,0.42032870650291443,0.9683367013931274,0.005462527275085449,-0.003548571141436696,-0.24956272542476654,0.84758460521698,0.7129301428794861,0.05854538828134537,-3.2722434997558594,-3.3982484340667725,-4.587644577026367,-0.3239983022212982,0.706418514251709,0.42067310214042664,0.8721840381622314,0.5525777339935303,0.07881079614162445,0.3709007203578949,0.6328974962234497,0.42000001668930054,-0.4473024606704712,2.9999606609344482,-0.757114827632904,-2.9997165203094482,-0.16778339445590973,-0.17005887627601624,-0.17071670293807983,-0.16964088380336761,-0.3561010956764221,-0.20291189849376678,-0.02467450313270092,0.17489378154277802
0.4,0.012105882167816162,0.03676753491163254,0.0,0.8721202611923218,0.0,0.0,-0.48929163813591003,-0.3555031418800354,-1.1334259510040283,0.0,0.0,0.0,-8.470905303955078,-0.299302875995636,0.7237882018089294,0.42323917150497437,0.9564417004585266,-0.008850296027958393,-0.03403957188129425,-0.2897967994213104,2.676598072052002,1.3948984146118164,0.12402506172657013,19.351598739624023,-14.50485610961914,2.250248670578003,-0.29651591181755066,0.7226963043212891,0.42354005575180054,2.5865678787231445,1.4441657066345215,0.3802711069583893,0.3709007203578949,0.6328974962234497,0.42000001668930054,-0.4005112648010254,2.1073920726776123,-0.8071541786193848,-3.0000007152557373,-0.1750308722257614,-0.17411915957927704,-0.1711990237236023,-0.16624531149864197,-0.4785494804382324,-0.2541228234767914,-0.01048338320106268,0.24581268429756165
0.4166666666666667,0.007299484219402075,0.02398156374692917,0.0,0.8255230188369751,0.0,0.0,-0.5643684267997742,-0.2463526725769043,-0.6371789574623108,0.0,0.0,0.0,-11.415220260620117,-0.2288597822189331,0.7520801424980164,0.4274308383464813,0.9361593723297119,0.03965258598327637,-0.08174566924571991,-0.3396333158016205,5.787410259246826,1.6015565395355225,0.306830495595932,12.462074279785156,-14.443016052246094,15.749459266662598,-0.22634772956371307,0.7506293654441833,0.42833346128463745,5.490660667419434,2.0851521492004395,0.35825854539871216,0.3709007203578949,0.6328974962234497,0.42000001668930054,-0.3791984021663666,0.9902799129486084,-0.7745153307914734,3.0005037784576416,-0.18994340300559998,-0.1850380003452301,-0.1765015572309494,-0.1661113053560257,-0.8961891531944275,-0.751227080821991,-0.41560831665992737,-0.10252434760332108
0.43333333333333335,-0.0009799053659662604,0.018511943519115448,0.0,0.7859559655189514,0.0,0.0,-0.6182824969291687,-0.6273193359375,-0.31387773156166077,0.0,0.0,0.0,-6.819952011108398,-0.13820454478263855,0.7821942567825317,0.43702635169029236,0.8940091729164124,0.07009610533714294,-0.1123993918299675,-0.428019255399704,5.576746463775635,1.2731157541275024,0.7315922379493713,13.256319046020508,-5.703081130981445,6.59995698928833,-0.13613030314445496,0.7812942266464233,0.43780213594436646,5.4419403076171875,1.5989176034927368,0.6782348155975342,0.3709007203578949,0.6328974962234497,0.42000001668930054,-0.3602542281150818,1.3066911697387695,-0.8018372654914856,-3.0000007152557373,-0.2037082016468048,-0.19923518598079681,-0.18754763901233673,-0.17230352759361267,-0.6140573620796204,-0.6687390208244324,-0.6165964007377625,-0.3954606354236603
0.45,-0.00506324227899313,0.005995556712150574,0.0,0.766220211982727,0.0,0.0,-0.6425780653953552,-0.10682062059640884,-0.9156994819641113,0.0,0.0,0.0,-2.730487823486328,-0.04346689209342003,0.8010682463645935,0.4506758153438568,0.8441503047943115,0.07934632897377014,-0.08952081203460693,-0.5225901007652283,5.563581466674805,-0.14105798304080963,0.5984108448028564,0.7748493552207947,0.25369513034820557,35.91542434692383,-0.04243241250514984,0.8010754585266113,0.448846697807312,5.883513927459717,0.6912368535995483,0.8894505500793457,0.3709007203578949,0.6328974962234497,0.42000001668930054,-0.33588117361068726,1.2556508779525757,-0.8518614172935486,-3.0000040531158447,-0.20828844606876373,-0.20423784852027893,-0.19163961708545685,-0.17318305373191833,-0.18755897879600525,-0.15721495449543,-0.07167570292949677,0.12228471785783768
0.4666666666666667,-0.010088654235005379,-0.0046651954762637615,0.0,0.7382715344429016,0.0,0.0,-0.6745036244392395,-0.3412263095378876,-0.5764933228492737,0.0,0.0,0.0,-5.824971675872803,0.05010508373379707,0.8019259572029114,0.4613324701786041,0.7850403785705566,0.07898294180631638,-0.08875922858715057,-0.6079431772232056,5.261353015899658,-1.364165186882019,0.8174237012863159,13.20220947265625,-4.136392593383789,28.800214767456055,0.05001513659954071,0.8030978441238403,0.45989328622817993,5.579133033752441,-0.2897445857524872,0.6120175123214722,0.3709007203578949,0.6328974962234497,0.42000001668930054,-0.31700965762138367,0.7494556903839111,-0.9018862843513489,-3.00000262260437,-0.21388468146324158,-0.20863083004951477,-0.19438225030899048,-0.17303074896335602,-0.3105355203151703,-0.22669617831707,-0.13873954117298126,-0.0031493850983679295
0.48333333333333334,-0.013225129805505276,-0.010992381721735,0.0,0.7245457768440247,0.0,0.0,-0.6892266273498535,-0.11987440288066864,-0.29237377643585205,0.0,0.0,0.0,-1.2678637504577637,0.1358063817024231,0.7901792526245117,0.4684722423553467,0.702410101890564,0.05173582211136818,-0.10862084478139877,-0.701530396938324,4.496155261993408,-1.4664779901504517,0.3980875611305237,-1.4636454582214355,-0.5593929886817932,10.469425201416016,0.13346892595291138,0.7923000454902649,0.4682420492172241,4.780801296234131,-1.035975694656372,0.42375755310058594,0.3709007203578949,0.6328974962234497,0.42000001668930054,-0.3064339756965637,0.6029295921325684,-0.9519103169441223,-3.0000014305114746,-0.2188476175069809,-0.21203088760375977,-0.1965038925409317,-0.1735173612833023,-0.26078614592552185,-0.1607714593410492,-0.09743023663759232,-0.036364197731018066
0.5,-0.012897081673145294,-0.01687413826584816,0.0,0.7034211158752441,0.0,0.0,-0.7107732892036438,0.07498793303966522,-0.40032312273979187,0.0,0.0,0.0,-4.52977991104126,0.20662543177604675,0.7687464356422424,0.47053030133247375,0.6679641008377075,0.03642987832427025,-0.09872026741504669,-0.7367163896560669,3.543971538543701,-2.0138800144195557,-0.02763865888118744,-7.87925910949707,-2.5958139896392822,19.720199584960938,0.20467478036880493,0.7719531059265137,0.4711436927318573,3.9892263412475586,-1.5084187984466553,0.10306078940629959,0.3709007203578949,0.6328974962234497,0.42000001668930054,-0.2919749319553375,0.824315071105957,-1.001934289932251,-3.0000030994415283,-0.22316765785217285,-0.2144368439912796,-0.19779956340789795,-0.1740228235721588,-0.25721311569213867,-0.123149074614048,-0.04884270578622818,-0.009870251640677452
0.5166666666666666,-0.013325560837984085,-0.01989099755883217,0.0,0.6963734030723572,0.0,0.0,-0.7176796197891235,-0.05333361774682999,-0.08973759412765503,0.0,0.0,0.0,-0.14313790202140808,0.264566034078598,0.7413783669471741,0.468639612197876,0.6361181735992432,0.01306825503706932,-0.07103455066680908,-0.7682037353515625,2.787935972213745,-2.1251144409179688,-0.255982369184494,-7.167670249938965,-0.6351908445358276,12.525568962097168,0.2628420293331146,0.7437562942504883,0.46959176659584045,3.162917375564575,-1.8390318155288696,-0.17101603746414185,0.3709007203578949,0.6328974962234497,0.42000001668930054,-0.2786312997341156,0.7457773089408875,-1.0519564151763916,-3.0000007152557373,-0.22698816657066345,-0.2163119614124298,-0.19884195923805237,-0.17500868439674377,-0.1466386616230011,-0.05484231188893318,-0.035976797342300415,-0.07272513210773468
0.5333333333333333,-0.011775204911828041,-0.026517298072576523,0.0,0.6800708174705505,0.0,0.0,-0.7331464290618896,0.11487326771020889,-0.43686801195144653,0.0,0.0,0.0,-3.5483086109161377,0.3117150664329529,0.7139595150947571,0.4591354727745056,0.6142913699150085,-0.012928161770105362,-0.04837266728281975,-0.787489116191864,2.2101898193359375,-1.9848908185958862,-0.7646167874336243,-6.333863258361816,0.16910158097743988,14.680414199829102,0.31013208627700806,0.715847373008728,0.4605703353881836,2.589261054992676,-1.6909749507904053,-0.7086873054504395,0.3709007203578949,0.6328974962234497,0.42000001668930054,-0.2646726369857788,0.8077802062034607,-1.1019785404205322,-3.0000014305114746,-0.22374925017356873,-0.2128734290599823,-0.19639575481414795,-0.17447687685489655,0.22959937155246735,0.22856369614601135,0.15238262712955475,0.014677864499390125
0.55,-0.007761482149362564,-0.028835255652666092,0.0,0.6761175990104675,0.0,0.0,-0.7367937564849854,0.2670723497867584,-0.12967664003372192,0.0,0.0,0.0,0.24728327989578247,0.3470400273799896,0.6851260662078857,0.4438512623310089,0.5846298933029175,-0.046291645616292953,-0.02667210064828396,-0.8095390796661377,1.5525665283203125,-1.9035040140151978,-0.9781180620193481,6.662698268890381,-1.5192259550094604,11.006220817565918,0.3454670310020447,0.6867122650146484,0.44560372829437256,1.8974685668945312,-1.715923547744751,-1.0567679405212402,0.3709007203578949,0.6328974962234497,0.42000001668930054,-0.24887296557426453,1.1226451396942139,-1.1520006656646729,-3.0000007152557373,-0.221989706158638,-0.21098986268043518,-0.19567857682704926,-0.17604559659957886,0.26387083530426025,0.21886733174324036,0.10231088846921921,-0.07700495421886444
0.5666666666666667,-0.0015595844015479088,-0.028977850452065468,0.0,0.6629520654678345,0.0,0.0,-0.7486618757247925,0.41879063844680786,0.08862698823213577,0.0,0.0,0.0,-2.9714338779449463,0.37307989597320557,0.6619348526000977,0.41934341192245483,0.5492644906044006,-0.10136111825704575,-0.06834086775779724,-0.826658308506012,1.3003904819488525,-1.2387899160385132,-1.6031181812286377,-7.959845066070557,-8.093780517578125,-4.735160827636719,0.36990097165107727,0.6627960801124573,0.4235759377479553,1.0903079509735107,-1.2687371969223022,-1.4512765407562256,0.3709007203578949,0.6328974962234497,0.42000001668930054,-0.23417304456233978,0.8997714519500732,-1.116648554801941,2.9986252784729004,-0.21539324522018433,-0.20633193850517273,-0.19397485256195068,-0.17818103730678558,0.44737136363983154,0.29640811681747437,0.08951277285814285,-0.16648901998996735
0.5833333333333334,0.006995259318500757,-0.032844871282577515,0.0,0.6623969078063965,0.0,0.0,-0.7491530776023865,0.5110315084457397,-0.2409435361623764,0.0,0.0,0.0,0.8256266713142395,0.379791259765625,0.6578466892242432,0.4231856167316437,0.555144727230072,-0.06487275660037994,-0.023064810782670975,-0.828899085521698,0.08587467670440674,-0.5850160121917725,0.2604481279850006,5.137020111083984,11.542905807495117,9.979303359985352,0.37615054845809937,0.6565156579017639,0.4260393977165222,0.07143809646368027,-0.23882625997066498,0.0797252357006073,0.3709007203578949,0.6328974962234497,0.42000001668930054,-0.2125231772661209,1.0812270641326904,-1.1376006603240967,-2.996964931488037,-0.2030470222234726,-0.19724871218204498,-0.1888178288936615,-0.17751792073249817,0.6225482225418091,0.4571633040904999,0.2501271367073059,0.0051122200675308704
0.6,0.012885389849543571,-0.03283366933465004,0.0,0.6515060663223267,0.0,0.0,-0.7586434483528137,0.311706006526947,0.03181743621826172,0.0,0.0,0.0,-2.6068289279937744,0.38001370429992676,0.6535967588424683,0.4216859042644501,0.5964581966400146,-0.03527453914284706,-0.026758922263979912,-0.8014220595359802,-0.06773713231086731,-0.3944619596004486,-0.14281034469604492,7.557682991027832,-2.8005006313323975,7.540297985076904,0.37618571519851685,0.6524831056594849,0.42474859952926636,-0.008034653961658478,-0.17098450660705566,-0.0905444324016571,0.3709007203578949,0.6328974962234497,0.42000001668930054,-0.23263144493103027,-2.631237268447876,-1.0998584032058716,2.9997713565826416,-0.1948830932378769,-0.1916041076183319,-0.18629352748394012,-0.17868630588054657,0.49739885330200195,0.34401875734329224,0.1601545512676239,-0.053432952612638474
0.6166666666666667,0.019652551040053368,-0.029685046523809433,0.0,0.6533165574073792,0.0,0.0,-0.757084846496582,0.419418066740036,0.22990620136260986,0.0,0.0,0.0,1.1936169862747192,0.37880223989486694,0.6482706069946289,0.4200000762939453,0.6209422945976257,5.013675377085747e-07,1.7441627733205678e-06,-0.7838561534881592,-0.06125445291399956,-0.26048216223716736,-6.8346853367984295e-06,3.420668872422539e-05,-0.00028266076697036624,1.367788314819336,0.3752850890159607,0.6512720584869385,0.4258621633052826,-0.055252429097890854,-0.012148596346378326,0.13567747175693512,0.3709007203578949,0.6328974962234497,0.42000001668930054,-0.28156226873397827,-2.9992752075195312,-1.1224162578582764,-2.9999074935913086,-0.18747487664222717,-0.18664422631263733,-0.1841706931591034,-0.17979861795902252,0.5019469857215881,0.34609201550483704,0.1716454178094864,-0.022112758830189705
0.6333333333333333,0.02813052013516426,-0.031093042343854904,0.0,0.6754836440086365,0.0,0.0,-0.7373749613761902,0.5067870020866394,-0.12766027450561523,0.0,0.0,0.0,4.642359256744385,0.37776508927345276,0.6451242566108704,0.42000022530555725,0.6233882904052734,1.153239281848073e-05,-2.578019666543696e-05,-0.7819124460220337,-0.12111903727054596,-0.11592504382133484,-0.0005915290676057339,0.01826501078903675,0.027614055201411247,-2.254236936569214,0.3736196756362915,0.6531908512115479,0.4280906915664673,-0.17205692827701569,0.1653086543083191,0.16412368416786194,0.3709007203578949,0.6328974962234497,0.42000001668930054,-0.33158522844314575,-3.0000011920928955,-1.1723941564559937,-2.999058961868286,-0.17550410330295563,-0.17763027548789978,-0.17835144698619843,-0.17741405963897705,0.6752827167510986,0.5238566994667053,0.3583469092845917,0.17798247933387756
0.65,0.03851405903697014,-0.03487910330295563,0.0,0.6845122575759888,0.0,0.0,-0.7290013432502747,0.6490867733955383,-0.30211979150772095,0.0,0.0,0.0,0.43504494428634644,0.37641528248786926,0.6439141035079956,0.4200000464916229,0.6109304428100586,-1.5849440160309314e-06,-1.112395807467692e-06,-0.7916841506958008,-0.06630727648735046,-0.05754642188549042,-9.21392347663641e-05,0.001999115338549018,-0.0025107322726398706,-1.6965882778167725,0.37232545018196106,0.6555612087249756,0.4317970871925354,-0.06220081076025963,0.1340823471546173,0.25530165433883667,0.3709007203578949,0.6328974962234497,0.42000001668930054,-0.38161322474479675,-2.999969244003296,-1.2223634719848633,-2.9998984336853027,-0.1671091765165329,-0.17081275582313538,-0.17323128879070282,-0.17415332794189453,0.4933893382549286,0.4275195300579071,0.3591420352458954,0.285167932510376
0.6666666666666666,0.05062013491988182,-0.04172331094741821,0.0,0.6713069677352905,0.0,0.0,-0.7411794066429138,0.7551488280296326,-0.5070663690567017,0.0,0.0,0.0,-3.0297951698303223,0.3759569823741913,0.6435859203338623,0.41999998688697815,0.6047947406768799,-2.4902631139411824e-06,3.912396550731501e-06,-0.7963813543319702,-0.013686969876289368,-0.008020044304430485,-0.00012106134090572596,0.005481536500155926,0.001730950316414237,-0.5303383469581604,0.372753381729126,0.6571210622787476,0.4376120865345001,0.10021038353443146,0.035486020147800446,0.5624110102653503,0.3709007203578949,0.6328974962234497,0.42000001668930054,-0.4316273629665375,-3.0000014305114746,-1.272382378578186,-3.0000011920928955,-0.1616676300764084,-0.16561433672904968,-0.1682361215353012,-0.16939091682434082,0.24498321115970612,0.26943284273147583,0.29961350560188293,0.33076831698417664
0.6833333333333333,0.066585011780262,-0.043400395661592484,0.0,0.6356169581413269,0.0,0.0,-0.7720045447349548,1.0368279218673706,0.032612379640340805,0.0,0.0,0.0,-6.696735858917236,0.37595659494400024,0.6435863375663757,0.42000001668930054,0.6047950387001038,-1.7270770058530616e-06,-4.665423148253467e-06,-0.7963811755180359,8.916285150917247e-05,-0.0003509503148961812,-8.760788477957249e-05,0.008314362727105618,-0.0025281354319304228,-0.0005926989833824337,0.3817276358604431,0.6520810127258301,0.4550435543060303,1.082783579826355,-0.5560395121574402,1.6368649005889893,0.3709007203578949,0.6328974962234497,0.42000001668930054,-0.48164039850234985,-2.9999101161956787,-1.322400689125061,-2.999990701675415,-0.1670684516429901,-0.16879700124263763,-0.16918115317821503,-0.1681864708662033,-0.5388059616088867,-0.3606029450893402,-0.18148218095302582,-0.009230231866240501
0.7,0.07854988425970078,-0.04184494540095329,0.0,0.6132699847221375,0.0,0.0,-0.7898733615875244,0.6292729377746582,-0.02358449064195156,0.0,0.0,0.0,-2.2026469707489014,0.37595662474632263,0.6435863375663757,0.41999998688697815,0.6047948002815247,-2.5610127067920985e-06,-4.482621534407372e-06,-0.7963812351226807,6.078819933463819e-05,-0.0003633256710600108,-0.00010050414130091667,0.008489254862070084,-0.0027004533912986517,-0.00053354975534603,0.3993546962738037,0.6492447853088379,0.4844818413257599,1.1011130809783936,0.0818832665681839,1.822730541229248,0.3709007203578949,0.6328974962234497,0.42000001668930054,-0.505129337310791,-0.05326784774661064,-1.372418999671936,-3.0,-0.17165148258209229,-0.1719088852405548,-0.1707894504070282,-0.16835209727287292,0.036581940948963165,0.023298196494579315,0.014711694791913033,0.008026068098843098
0.7166666666666667,0.08554457873106003,-0.04041961953043938,0.0,0.6174421310424805,0.0,0.0,-0.786616325378418,0.34425708651542664,0.13306745886802673,0.0,0.0,0.0,1.5094242095947266,0.37595662474632263,0.6435863375663757,0.41999998688697815,0.6047949194908142,-2.6667380552680697e-06,-4.288739546609577e-06,-0.7963812351226807,5.8891895605484024e-05,-0.000362686172593385,-0.00010102358646690845,0.008466431871056557,-0.0027194819413125515,-0.0005294083384796977,0.4162628650665283,0.65346360206604,0.5082970857620239,0.8258641958236694,0.3460845649242401,1.0987728834152222,0.3709007203578949,0.6328974962234497,0.42000001668930054,-0.48673394322395325,2.0608201026916504,-1.3497003316879272,2.999999523162842,-0.16965951025485992,-0.1703319400548935,-0.16955702006816864,-0.16743400692939758,0.18269768357276917,0.1512635350227356,0.12173793464899063,0.09232141077518463
0.7333333333333333,0.0882677435874939,-0.04298481345176697,0.0,0.6101617813110352,0.0,0.0,-0.7922767996788025,0.14226779341697693,-0.2000773698091507,0.0,0.0,0.0,-1.98313307762146,0.37595662474632263,0.6435863375663757,0.41999998688697815,0.6047948002815247,-2.6696013719629264e-06,-4.266216365067521e-06,-0.7963812351226807,5.8783527492778376e-05,-0.00036261146306060255,-0.00010103941895067692,0.008464161306619644,-0.002719717100262642,-0.0005290951230563223,0.42386698722839355,0.6587861180305481,0.5207648277282715,0.05088412016630173,0.21774737536907196,0.5506097078323364,0.3709007203578949,0.6328974962234497,0.42000001668930054,-0.4619137644767761,0.9894587993621826,-1.299649953842163,2.9999990463256836,-0.16494600474834442,-0.16623511910438538,-0.1660914123058319,-0.1646333634853363,0.15548238158226013,0.1532142460346222,0.1446719616651535,0.1283000409603119
0.75,0.0880441889166832,-0.04020252078771591,0.0,0.615894615650177,0.0,0.0,-0.7878285646438599,-0.06411276012659073,0.29592183232307434,0.0,0.0,0.0,1.7575223445892334,0.37595662474632263,0.6435863375663757,0.41999998688697815,0.6047947406768799,-2.558052528911503e-06,-4.251162408763776e-06,-0.7963812947273254,5.7916917285183445e-05,-0.0003628642298281193,-0.00010123290121555328,0.008472198620438576,-0.002726617967709899,-0.0005271573318168521,0.42150819301605225,0.6614317297935486,0.5263748168945312,-0.2982892096042633,0.17308278381824493,0.14375804364681244,0.3709007203578949,0.6328974962234497,0.42000001668930054,-0.43925371766090393,1.6547603607177734,-1.3195323944091797,-2.999999761581421,-0.1677289456129074,-0.16784954071044922,-0.16677042841911316,-0.164658784866333,-0.2204650640487671,-0.1393645703792572,-0.07487006485462189,-0.029660290107131004
0.7666666666666666,0.0901438444852829,-0.04117656126618385,0.0,0.6091753244400024,0.0,0.0,-0.7930355668067932,0.23481667041778564,-0.18323779106140137,0.0,0.0,0.0,-2.076702117919922,0.37595662474632263,0.6435863375663757,0.41999998688697815,0.6047948002815247,-2.531046675358084e-06,-4.598850409820443e-06,-0.7963812351226807,6.0767368267988786e-05,-0.0003631382714956999,-0.00010045478120446205,0.00848507322371006,-0.002701228717342019,-0.0005334263551048934,0.4138645827770233,0.6631342172622681,0.5218175649642944,-0.6359312534332275,0.030246183276176453,-0.4671475291252136,0.3709007203578949,0.6328974962234497,0.42000001668930054,-0.4395831823348999,-1.4280545711517334,-1.2813148498535156,3.000000476837158,-0.16736464202404022,-0.16692695021629333,-0.16550350189208984,-0.16327986121177673,0.11765196919441223,0.13687404990196228,0.14385364949703217,0.13825123012065887
0.7833333333333333,0.08990328758955002,-0.03973601758480072,0.0,0.6143589019775391,0.0,0.0,-0.78902667760849,-0.14350861310958862,0.06883254647254944,0.0,0.0,0.0,1.6580814123153687,0.37595662474632263,0.6435863375663757,0.41999998688697815,0.6047949194908142,-2.668865136001841e-06,-4.218834419589257e-06,-0.7963811755180359,5.860178134753369e-05,-0.0003625491226557642,-0.00010108132846653461,0.008461937308311462,-0.002720633754506707,-0.000528621778357774,0.403818279504776,0.6632139682769775,0.5129919052124023,-0.4947950839996338,0.066728375852108,-0.5807594656944275,0.3709007203578949,0.6328974962234497,0.42000001668930054,-0.4735207259654999,-2.519296169281006,-1.3015069961547852,-2.999999761581421,-0.16952306032180786,-0.1680585741996765,-0.16578055918216705,-0.16290326416492462,-0.03364013507962227,-6.984919309616089e-10,0.03210349380970001,0.056541744619607925
0.8,0.09012490510940552,-0.040846869349479675,0.0,0.6088980436325073,0.0,0.0,-0.7932484745979309,0.06464719027280807,-0.11847641319036484,0.0,0.0,0.0,-1.6598899364471436,0.37595662474632263,0.6435863375663757,0.41999998688697815,0.6047950387001038,-2.664295379872783e-06,-4.363329026091378e-06,-0.7963811755180359,6.008198033669032e-05,-0.00036276140599511564,-0.00010069319978356361,0.008470465429127216,-0.002707343315705657,-0.0005320780910551548,0.3984050154685974,0.6614060401916504,0.49915921688079834,-0.15580691397190094,-0.26249629259109497,-0.8703489303588867,0.3709007203578949,0.6328974962234497,0.42000001668930054,-0.52311772108078,-3.000000238418579,-1.3515253067016602,-2.9999992847442627,-0.1709456443786621,-0.16854752600193024,-0.16524764895439148,-0.16136106848716736,-0.12154914438724518,-0.03969714418053627,0.05101877823472023,0.14490409195423126
0.8166666666666667,0.093233622610569,-0.045069579035043716,0.0,0.5826753973960876,0.0,0.0,-0.8127049803733826,0.23470155894756317,-0.31323280930519104,0.0,0.0,0.0,-4.832611083984375,0.37595662474632263,0.6435863375663757,0.41999998688697815,0.6047948002815247,-2.5534895939927083e-06,-4.491893378144596e-06,-0.7963813543319702,6.052996832295321e-05,-0.0003631680447142571,-0.0001005453523248434,0.008485096506774426,-0.0027031046338379383,-0.0005330775748007,0.40032505989074707,0.6544115543365479,0.490747332572937,0.4185056686401367,-0.5003036856651306,-0.00457482784986496,0.3709007203578949,0.6328974962234497,0.42000001668930054,-0.5731301307678223,-2.9999616146087646,-1.4015436172485352,-2.999999761581421,-0.17473876476287842,-0.1709286868572235,-0.16604197025299072,-0.16047677397727966,-0.25073888897895813,-0.1734398603439331,-0.08461564034223557,0.011787890456616879
0.8333333333333334,0.0991983562707901,-0.046615730971097946,0.0,0.5722270011901855,0.0,0.0,-0.8200952410697937,0.38935166597366333,-0.027993833646178246,0.0,0.0,0.0,-0.4684954285621643,0.37595662474632263,0.6435863375663757,0.41999998688697815,0.6047950983047485,-2.537711907280027e-06,-4.261596131982515e-06,-0.7963810563087463,5.8697041822597384e-05,-0.00036290253046900034,-0.00010105478577315807,0.00847377348691225,-0.0027209126856178045,-0.0005291837151162326,0.4078580141067505,0.6524593234062195,0.49638140201568604,0.47569942474365234,0.16191093623638153,0.6224175691604614,0.3709007203578949,0.6328974962234497,0.42000001668930054,-0.593161940574646,0.32491064071655273,-1.4515619277954102,-3.0000009536743164,-0.17870664596557617,-0.17439357936382294,-0.16879940032958984,-0.16236412525177002,-0.1473892480134964,-0.16737867891788483,-0.1752469539642334,-0.17166230082511902
0.85,0.10210387408733368,-0.04743020236492157,0.0,0.586973249912262,0.0,0.0,-0.8096063137054443,0.12161252647638321,0.024386733770370483,0.0,0.0,0.0,2.9704463481903076,0.37595662474632263,0.6435863375663757,0.41999998688697815,0.6047947406768799,-2.5347128485009307e-06,-4.589301170199178e-06,-0.796381413936615,5.996487016091123e-05,-0.0003633051528595388,-0.00010072533041238785,0.00848821084946394,-0.0027113284450024366,-0.0005319829215295613,0.41859352588653564,0.6563301086425781,0.5027631521224976,0.7265657782554626,0.2145354151725769,0.180209219455719,0.3709007203578949,0.6328974962234497,0.42000001668930054,-0.5932398438453674,-0.2826523184776306,-1.4129691123962402,3.000000238418579,-0.17804963886737823,-0.17434431612491608,-0.16912244260311127,-0.16282325983047485,0.05971411243081093,0.03432884067296982,0.02205730974674225,0.02310078591108322
0.8666666666666667,0.10210984200239182,-0.051189012825489044,0.0,0.5872694849967957,0.0,0.0,-0.809391438961029,-0.044471368193626404,-0.2225816547870636,0.0,0.0,0.0,-0.781488835811615,0.37595662474632263,0.6435863375663757,0.41999998688697815,0.6047947406768799,-2.451405862302636e-06,-4.523928510025144e-06,-0.7963812947273254,6.269359437283128e-05,-0.0003647124394774437,-0.00010004406794905663,0.008536046370863914,-0.002691980917006731,-0.0005388524732552469,0.42806723713874817,0.6565871834754944,0.5015774965286255,0.344558984041214,-0.14004114270210266,-0.1388484537601471,0.3709007203578949,0.6328974962234497,0.42000001668930054,-0.627935528755188,-3.000000476837158,-1.4308370351791382,-3.0,-0.1763053834438324,-0.17296014726161957,-0.16794052720069885,-0.16167443990707397,-0.025609610602259636,-0.012794858776032925,0.0035257008858025074,0.02358192577958107
0.8833333333333333,0.10493399947881699,-0.04916117340326309,0.0,0.6001415848731995,0.0,0.0,-0.7998937964439392,0.1513826847076416,0.18470411002635956,0.0,0.0,0.0,2.6947617530822754,0.37595662474632263,0.6435863375663757,0.41999998688697815,0.6047946214675903,-2.5373935841344064e-06,-4.51244613941526e-06,-0.7963813543319702,6.050552474334836e-05,-0.00036306423135101795,-0.00010052882134914398,0.008482326753437519,-0.002703548176214099,-0.0005328254192136228,0.4349430203437805,0.6538691520690918,0.5015540719032288,0.4855650067329407,-0.06805501878261566,0.1498994082212448,0.3709007203578949,0.6328974962234497,0.42000001668930054,-0.6667777895927429,-1.7390577793121338,-1.4808553457260132,-3.000000476837158,-0.18100452423095703,-0.1766049861907959,-0.17047566175460815,-0.16305851936340332,-0.1600891798734665,-0.12448088079690933,-0.07902268320322037,-0.024026554077863693
