vladlanda/robotic-transformer/data/env_000_episode_0074.csv
sim_time_s,robot_box_x,robot_box_y,robot_box_z,robot_box_quat_w,robot_box_quat_x,robot_box_quat_y,robot_box_quat_z,robot_box_linvel_x,robot_box_linvel_y,robot_box_linvel_z,robot_box_angvel_x,robot_box_angvel_y,robot_box_angvel_z,cube_world_x,cube_world_y,cube_world_z,cube_quat_w,cube_quat_x,cube_quat_y,cube_quat_z,cube_linvel_x,cube_linvel_y,cube_linvel_z,cube_angvel_x,cube_angvel_y,cube_angvel_z,endpoint_world_x,endpoint_world_y,endpoint_world_z,endpoint_linvel_x,endpoint_linvel_y,endpoint_linvel_z,target_cube_world_x,target_cube_world_y,target_cube_world_z,gripper_actual_pos_rad_gp_leftgearjoint,gripper_actual_vel_rad_s_gp_leftgearjoint,gripper_actual_pos_rad_gp_rotatingjoint,gripper_actual_vel_rad_s_gp_rotatingjoint,motor_angle_rad_joint1,motor_angle_rad_joint2,motor_angle_rad_joint3,motor_angle_rad_joint4,motor_speed_rad_s_joint1,motor_speed_rad_s_joint2,motor_speed_rad_s_joint3,motor_speed_rad_s_joint4
0.0,0.0,0.0,0.0,1.0,0.0,0.0,0.0,0.0,0.0,0.0,0.0,0.0,0.0,-0.4508526921272278,0.742734432220459,0.41999998688697815,1.0,0.0,0.0,0.0,0.0,0.0,0.0,0.0,0.0,0.0,3.42540442943573e-06,-0.005000244826078415,1.313499927520752,0.0,0.0,0.0,0.4152110517024994,0.6771284341812134,0.42000001668930054,-1.5707999467849731,0.0,0.0,0.0,0.0,0.0,0.0,0.0,0.0,0.0,0.0,0.0
0.016666666666666666,0.0028778850100934505,0.0021806680597364902,0.0,0.9998081922531128,0.0,0.0,0.019586581736803055,0.24087215960025787,0.18240931630134583,0.0,0.0,0.0,3.1418697834014893,-0.45085281133651733,0.7427341341972351,0.41999998688697815,1.0,3.2799832752061775e-06,-8.339598593920527e-07,8.465660528145236e-08,-1.9833856640616432e-05,0.00017983021098189056,-6.132945418357849e-05,0.0009432561928406358,-0.004689492750912905,-0.0003198107879143208,-0.007110234349966049,0.003379564033821225,1.3159373998641968,-0.8143353462219238,0.9868683815002441,0.18095196783542633,0.4152110517024994,0.6771284341812134,0.42000001668930054,-1.5301095247268677,3.0000011920928955,-0.04584788903594017,-2.9999992847442627,0.0008691533003002405,0.0007963840034790337,0.0007110277656465769,0.0006108740926720202,0.11094217747449875,0.09756709635257721,0.08334315568208694,0.06823883205652237
0.03333333333333333,0.008960993029177189,0.00680197961628437,0.0,0.9997960329055786,0.0,0.0,0.02019684948027134,0.40702205896377563,0.3153081238269806,0.0,0.0,0.0,-0.8691311478614807,-0.4508529305458069,0.7427340745925903,0.4200000464916229,1.0,3.39081861966406e-06,-2.1323587588994997e-06,-3.7098015326364475e-08,0.0002635778218973428,0.00026937888469547033,-0.00010509602725505829,-0.0017707271035760641,0.0041307792998850346,-0.000135479771415703,-0.027553066611289978,0.026194769889116287,1.3165967464447021,-1.59141206741333,1.6159747838974,-0.08496110141277313,0.4152110517024994,0.6771284341812134,0.42000001668930054,-1.4800903797149658,3.0,-0.09588771313428879,-3.0000007152557373,0.0029901107773184776,0.0026527224108576775,0.002277292078360915,0.0018607487436383963,0.1642160415649414,0.13975980877876282,0.11381886154413223,0.0863010436296463
0.05,0.017726147547364235,0.013768096454441547,0.0,0.9993837475776672,0.0,0.0,0.03510081768035889,0.5933554768562317,0.46492016315460205,0.0,0.0,0.0,2.6517579555511475,-0.4508529603481293,0.7427341341972351,0.4200000464916229,1.0,3.7651011552952696e-06,-2.211860646639252e-06,5.627989185796878e-09,0.0002653094124980271,0.0002669160021468997,-0.00010440382175147533,-0.001724356785416603,0.004177444614470005,-0.00012949653319083154,-0.059677351266145706,0.054270826280117035,1.3115427494049072,-2.187458038330078,1.7827754020690918,-0.48379385471343994,0.4152110517024994,0.6771284341812134,0.42000001668930054,-1.4300720691680908,3.000002145767212,-0.1459263563156128,-3.000000476837158,0.005699180997908115,0.004907552152872086,0.004043806344270706,0.003103173803538084,0.19256018102169037,0.15565358102321625,0.1168743297457695,0.07613727450370789
0.06666666666666667,0.029034292325377464,0.02305929735302925,0.0,0.9994545578956604,0.0,0.0,0.03302319720387459,0.7199419736862183,0.5950819849967957,0.0,0.0,0.0,-1.2075241804122925,-0.4508529603481293,0.7427340745925903,0.4200000464916229,0.9999999403953552,3.4066856642311905e-06,-2.285570644744439e-06,4.3010911099372606e-07,0.0002670253161340952,0.00026791737764142454,-0.0001043803058564663,-0.0017406119732186198,0.00421169912442565,-0.0001285049074795097,-0.09658785909414291,0.08935575187206268,1.299323558807373,-2.269949197769165,2.310720443725586,-0.9553413391113281,0.4152110517024994,0.6771284341812134,0.42000001668930054,-1.3800537586212158,2.9999988079071045,-0.19596369564533234,-3.000000238418579,0.008103268221020699,0.006560387555509806,0.004906360059976578,0.0031354210805147886,0.13044460117816925,0.0730333998799324,0.013568027876317501,-0.04801712930202484
0.08333333333333333,0.034402430057525635,0.03569566458463669,0.0,1.0,0.0,0.0,-0.0001696175750112161,0.18987663090229034,0.8246005773544312,0.0,0.0,0.0,-4.930850505828857,-0.4508529603481293,0.7427340745925903,0.4200000464916229,1.0,3.697233296406921e-06,-2.188905909861205e-06,-2.632205280406197e-07,0.0002638972655404359,0.0002658648299984634,-0.00010433932766318321,-0.0017081781988963485,0.004150175489485264,-0.0001299079303862527,-0.1321207582950592,0.13213497400283813,1.279433012008667,-2.0469765663146973,2.69382381439209,-1.3402631282806396,0.4152110517024994,0.6771284341812134,0.42000001668930054,-1.3300267457962036,2.9999961853027344,-0.1758681684732437,2.999997854232788,0.004640563856810331,0.002424701349809766,4.641436316887848e-05,-0.0025040502659976482,-0.30591320991516113,-0.35249099135398865,-0.40165090560913086,-0.45366179943084717
0.1,0.04404478147625923,0.049648068845272064,0.0,0.9998865723609924,0.0,0.0,-0.015061204321682453,0.6749609112739563,0.8508665561676025,0.0,0.0,0.0,-0.6930850148200989,-0.4508529603481293,0.7427340745925903,0.4200000464916229,0.9999999403953552,3.620323695940897e-06,-2.2652016014035325e-06,1.7462710388826963e-07,0.00026676853303797543,0.00026740931207314134,-0.00010408111847937107,-0.0017386870458722115,0.004209219943732023,-0.00012775413051713258,-0.16827429831027985,0.1733730137348175,1.259026050567627,-2.138367176055908,2.5288820266723633,-1.2072339057922363,0.4152110517024994,0.6771284341812134,0.42000001668930054,-1.2800307273864746,3.0000014305114746,-0.20745787024497986,-2.9999992847442627,0.004481150768697262,0.000678584910929203,-0.003285708138719201,-0.007418596185743809,0.010312440805137157,-0.09671622514724731,-0.20281477272510529,-0.3079765737056732
0.11666666666666667,0.051614388823509216,0.06570667773485184,0.0,0.9991133809089661,0.0,0.0,-0.04210081696510315,0.45759838819503784,1.024554967880249,0.0,0.0,0.0,-3.92702579498291,-0.4508529603481293,0.7427340745925903,0.4200000464916229,1.0,3.7983124911988853e-06,-2.2628069018537644e-06,-1.5018966337265738e-07,0.00026374083245173097,0.0002656609285622835,-0.00010428996756672859,-0.0017054348718374968,0.004147587344050407,-0.00012980068277101964,-0.2007862627506256,0.2208237498998642,1.2388784885406494,-1.768535852432251,3.172255516052246,-1.1894936561584473,0.4152110517024994,0.6771284341812134,0.42000001668930054,-1.2300074100494385,2.9999916553497314,-0.17362795770168304,3.0000011920928955,0.0025687976740300655,-0.003144831396639347,-0.008991430513560772,-0.014977321028709412,-0.06892656534910202,-0.2031865268945694,-0.33424463868141174,-0.46192559599876404
0.13333333333333333,0.056743767112493515,0.08168613910675049,0.0,0.9955238103866577,0.0,0.0,-0.09451122581958771,0.24895058572292328,0.9099071621894836,0.0,0.0,0.0,-7.123300075531006,-0.4508529603481293,0.7427341341972351,0.4200000464916229,0.9999999403953552,3.5504449442669284e-06,-2.2298161184153287e-06,2.929312472588208e-07,0.00026703299954533577,0.00026779333711601794,-0.00010416889563202858,-0.0017439204966649413,0.0042134677059948444,-0.00012800132390111685,-0.23019567131996155,0.2752463221549988,1.2187683582305908,-1.7385426759719849,3.385190486907959,-1.2833290100097656,0.4152110517024994,0.6771284341812134,0.42000001668930054,-1.1955554485321045,1.255590558052063,-0.20528331398963928,-2.999999761581421,0.000378932774765417,-0.007526639383286238,-0.015496593900024891,-0.0235338993370533,-0.20207415521144867,-0.3210979998111725,-0.43587982654571533,-0.54625403881073
0.15,0.05823437497019768,0.09805617481470108,0.0,0.9920233488082886,0.0,0.0,-0.12605418264865875,0.015764804556965828,1.036952018737793,0.0,0.0,0.0,-2.741809606552124,-0.4508529603481293,0.7427340745925903,0.4200000464916229,0.9999999403953552,3.338016085763229e-06,-2.242931941509596e-06,-2.8007173469291047e-08,0.00026674638502299786,0.00026758009335026145,-0.00010427739471197128,-0.0017367539694532752,0.004206934943795204,-0.0001283090969081968,-0.26801079511642456,0.3293263912200928,1.1917753219604492,-2.390625476837158,3.4486823081970215,-1.939833164215088,0.4152110517024994,0.6771284341812134,0.42000001668930054,-1.1533492803573608,2.999999523162842,-0.19103141129016876,2.9999992847442627,-0.004171812906861305,-0.013677711598575115,-0.02316700480878353,-0.03264104202389717,-0.3407541811466217,-0.41278570890426636,-0.4801444411277771,-0.542837381362915
0.16666666666666666,0.05866938456892967,0.11222019791603088,0.0,0.985360324382782,0.0,0.0,-0.1704845428466797,-0.04419219493865967,0.7741989493370056,0.0,0.0,0.0,-6.248373031616211,-0.4508529603481293,0.7427341341972351,0.4200000464916229,0.9999999403953552,3.647753374025342e-06,-2.3073766897141468e-06,3.52799673919435e-08,0.00026727019576355815,0.00026801356580108404,-0.00010418915189802647,-0.0017472523031756282,0.0042176819406449795,-0.00012798176612704992,-0.3041130304336548,0.39006656408309937,1.1583093404769897,-1.8832054138183594,3.9185330867767334,-2.112330198287964,0.4152110517024994,0.6771284341812134,0.42000001668930054,-1.1072046756744385,2.536486864089966,-0.22255173325538635,-2.9999990463256836,-0.009911281056702137,-0.02074156329035759,-0.03146885335445404,-0.04209468886256218,-0.43772128224372864,-0.5081962943077087,-0.573948860168457,-0.6350104808807373
0.18333333333333332,0.0621650367975235,0.12727530300617218,0.0,0.9802981019020081,0.0,0.0,-0.1975238174200058,0.16483475267887115,0.8914674520492554,0.0,0.0,0.0,-2.235656261444092,-0.4508529603481293,0.7427340745925903,0.4200000464916229,0.9999999403953552,3.290531140009989e-06,-2.1940636543149594e-06,-2.792413624774781e-07,0.0002667777589522302,0.00026776056620292366,-0.0001043418888002634,-0.0017391181318089366,0.004206972662359476,-0.0001284603786189109,-0.3395731747150421,0.4527786672115326,1.1141726970672607,-2.0825655460357666,3.8796143531799316,-3.1284661293029785,0.4152110517024994,0.6771284341812134,0.42000001668930054,-1.076555609703064,1.2280335426330566,-0.2725801467895508,-3.0,-0.01738160289824009,-0.028788266703486443,-0.040031932294368744,-0.05112125724554062,-0.6891785860061646,-0.6683111786842346,-0.6465908288955688,-0.6246913075447083
0.2,0.061308667063713074,0.14352402091026306,0.0,0.9715429544448853,0.0,0.0,-0.23686355352401733,-0.07732167094945908,1.035554051399231,0.0,0.0,0.0,-5.6443634033203125,-0.4508529603481293,0.7427340745925903,0.4200000464916229,1.0,3.2807629395392723e-06,-2.2193819404492388e-06,1.5945569487030298e-07,0.0002662795886863023,0.00026739935856312513,-0.00010425341315567493,-0.0017357543110847473,0.004197920672595501,-0.00012865042663179338,-0.3744634985923767,0.5192309617996216,1.0557265281677246,-1.9123249053955078,4.148739814758301,-3.8230326175689697,0.4152110517024994,0.6771284341812134,0.42000001668930054,-1.0316249132156372,3.0000014305114746,-0.32260656356811523,-3.0000009536743164,-0.03177632391452789,-0.04249458760023117,-0.05303940176963806,-0.06343312561511993,-0.8626065254211426,-0.820841908454895,-0.7778332829475403,-0.7342501878738403
0.21666666666666667,0.0648256316781044,0.15626101195812225,0.0,0.9662505388259888,0.0,0.0,-0.2576042413711548,0.24409876763820648,0.6674104332923889,0.0,0.0,0.0,-1.4618192911148071,-0.4508529603481293,0.7427341341972351,0.4200000464916229,1.0,3.6131407341599697e-06,-2.270311142638093e-06,2.2099521856944193e-07,0.0002671261609066278,0.0002678180462680757,-0.00010414235293865204,-0.0017445959383621812,0.004215223249047995,-0.0001278642303077504,-0.407936692237854,0.5829099416732788,0.9840719699859619,-1.7805399894714355,3.755377769470215,-4.750290870666504,0.4152110517024994,0.6771284341812134,0.42000001668930054,-0.981622576713562,3.000001907348633,-0.3726329803466797,-3.000000238418579,-0.04568914324045181,-0.05521455779671669,-0.06457924097776413,-0.07382085174322128,-0.972499430179596,-0.8665720224380493,-0.7635159492492676,-0.6643734574317932
0.23333333333333334,0.06263963133096695,0.1716821938753128,0.0,0.9564608335494995,0.0,0.0,-0.2918607294559479,-0.22386088967323303,0.9042856693267822,0.0,0.0,0.0,-5.145853519439697,-0.4508529603481293,0.7427340745925903,0.4200000464916229,1.0,3.381852138772956e-06,-2.2912070107850013e-06,2.727820742620679e-07,0.00026691562379710376,0.00026779892505146563,-0.00010433327406644821,-0.0017395723843947053,0.004209770355373621,-0.00012843351578339934,-0.4331015348434448,0.6394155621528625,0.8980417251586914,-1.2282097339630127,3.1703853607177734,-5.3275604248046875,0.4152110517024994,0.6771284341812134,0.42000001668930054,-0.9316125512123108,3.00000262260437,-0.42266225814819336,-2.999999761581421,-0.06208232045173645,-0.07155454158782959,-0.0809081494808197,-0.09006891399621964,-0.8320762515068054,-0.8560457825660706,-0.8808141946792603,-0.9043195843696594
0.25,0.06568457186222076,0.18188336491584778,0.0,0.9512860178947449,0.0,0.0,-0.30830979347229004,0.20479027926921844,0.5163536071777344,0.0,0.0,0.0,-0.9599757194519043,-0.4508529305458069,0.7427340745925903,0.4200000464916229,0.9999999403953552,3.7065965443616733e-06,-2.2232363789953524e-06,-2.255265485473501e-07,0.0002642490726429969,0.0002665685024112463,-0.00010457751341164112,-0.0017169822240248322,0.004155580885708332,-0.00013062749349046499,-0.4543069899082184,0.6850849390029907,0.8056260943412781,-1.0036120414733887,2.393930435180664,-5.836328029632568,0.4152110517024994,0.6771284341812134,0.42000001668930054,-0.8816036581993103,2.999997138977051,-0.4726928472518921,-3.0000007152557373,-0.07373123615980148,-0.08319186419248581,-0.0925627201795578,-0.10174842178821564,-0.9236246347427368,-0.8670216202735901,-0.8146674633026123,-0.7662373185157776
0.26666666666666666,0.06418459862470627,0.18859708309173584,0.0,0.9416106343269348,0.0,0.0,-0.33670371770858765,-0.19257135689258575,0.35797393321990967,0.0,0.0,0.0,-4.491860389709473,-0.4508529603481293,0.7427340745925903,0.4200000464916229,0.9999999403953552,3.7196994071564404e-06,-2.4037206003413303e-06,-1.8309671645511116e-07,0.0002662344486452639,0.00026729251840151846,-0.00010425853542983532,-0.0017327005043625832,0.004196553491055965,-0.0001285115140490234,-0.466094970703125,0.718082070350647,0.704181432723999,-0.3264157176017761,1.5634474754333496,-6.14350700378418,0.4152110517024994,0.6771284341812134,0.42000001668930054,-0.8315933346748352,3.0000014305114746,-0.5227239727973938,-2.9999992847442627,-0.09082459658384323,-0.10015010833740234,-0.10941509902477264,-0.11848070472478867,-1.0024232864379883,-1.0018168687820435,-1.0013571977615356,-1.0009938478469849
0.2833333333333333,0.05925972759723663,0.19208702445030212,0.0,0.9379735589027405,0.0,0.0,-0.3467068672180176,-0.2752288579940796,0.13137947022914886,0.0,0.0,0.0,-0.26223233342170715,-0.4508529603481293,0.7427341341972351,0.4200000464916229,0.9999999403953552,3.5840987493429566e-06,-2.3157008399721235e-06,7.40310852620496e-08,0.00026522029656916857,0.00026455282932147384,-0.00010317121632397175,-0.0017021652311086655,0.004185096826404333,-0.00012499587319325656,-0.46971970796585083,0.7328850030899048,0.6033697128295898,-0.009906768798828125,0.4419959783554077,-6.031588077545166,0.4152110517024994,0.6771284341812134,0.42000001668930054,-0.7815845012664795,2.99999737739563,-0.57275390625,-3.0000007152557373,-0.10728701204061508,-0.11645235121250153,-0.12554852664470673,-0.13446344435214996,-0.9932010769844055,-0.9712055325508118,-0.9447705745697021,-0.9191521406173706
0.3,0.05249246954917908,0.192335307598114,0.0,0.9300422072410583,0.0,0.0,-0.3674527704715729,-0.4550180733203888,-0.029733991250395775,0.0,0.0,0.0,-3.57403302192688,-0.4508529603481293,0.7427340745925903,0.4200000464916229,1.0,3.724303724084166e-06,-2.272135816383525e-06,9.633961184363216e-08,0.0002631265379022807,0.0002652588300406933,-0.00010437984019517899,-0.0016960501670837402,0.004134803079068661,-0.00013027882960159332,-0.46566760540008545,0.7407457828521729,0.5042206048965454,0.5664249062538147,0.3550199866294861,-5.642480850219727,0.4152110517024994,0.6771284341812134,0.42000001668930054,-0.7315757274627686,2.999997138977051,-0.6227826476097107,-2.9999992847442627,-0.12442335486412048,-0.13348805904388428,-0.14251787960529327,-0.15138445794582367,-1.017958641052246,-1.0135855674743652,-1.0102583169937134,-1.0075972080230713
0.31666666666666665,0.04349259287118912,0.19006888568401337,0.0,0.9286269545555115,0.0,0.0,-0.37101486325263977,-0.5744337439537048,-0.17917408049106598,0.0,0.0,0.0,0.47922250628471375,-0.4508529603481293,0.7427340745925903,0.4200000464916229,1.0,3.6663211631093873e-06,-2.392760961811291e-06,1.6796634838556201e-07,0.0002660207392182201,0.00026706935022957623,-0.00010418589226901531,-0.0017311557894572616,0.004193556495010853,-0.00012849409540649503,-0.4549393653869629,0.7418860197067261,0.41260892152786255,0.8496169447898865,-0.29987749457359314,-5.429600715637207,0.4152110517024994,0.6771284341812134,0.42000001668930054,-0.6815688014030457,2.9999849796295166,-0.6728094220161438,-3.0000007152557373,-0.1413753777742386,-0.15034157037734985,-0.15930072963237762,-0.16811436414718628,-0.9999212026596069,-0.9998867511749268,-0.9996747970581055,-0.9996246099472046
0.3333333333333333,0.03224692493677139,0.18527424335479736,0.0,0.9374523162841797,0.0,0.0,-0.3481137156486511,-0.7217739820480347,-0.3321065902709961,0.0,0.0,0.0,3.797706127166748,-0.45094022154808044,0.7432339191436768,0.4201778471469879,0.9998779296875,2.950758789665997e-05,0.004459179472178221,-0.014969980344176292,-0.021727584302425385,0.06519407033920288,0.0058862799778580666,-0.006376734469085932,0.3006899058818817,-4.239316463470459,-0.45935386419296265,0.7461559772491455,0.42703500390052795,-0.44894206523895264,0.14576047658920288,-0.17127510905265808,0.4152110517024994,0.6771284341812134,0.42000001668930054,-0.6316807270050049,2.9999983310699463,-0.7233654856681824,-2.999746561050415,-0.1397317498922348,-0.15076978504657745,-0.16133242845535278,-0.17115195095539093,-0.06424343585968018,-0.14135591685771942,-0.19765029847621918,-0.22726410627365112
0.35,0.018584532663226128,0.17812485992908478,0.0,0.9397755265235901,0.0,0.0,-0.3417922556400299,-0.8592194318771362,-0.46976035833358765,0.0,0.0,0.0,-0.17314472794532776,-0.451291561126709,0.7437765002250671,0.42000001668930054,0.999653160572052,4.8188449000008404e-06,1.5922364582365844e-06,-0.026335909962654114,-0.012154382653534412,0.014304707758128643,-0.0001730943622533232,-0.0063065290451049805,-0.0016825897619128227,-0.6243526339530945,-0.462851881980896,0.7450194954872131,0.42377495765686035,-0.02081558108329773,-0.22692187130451202,-0.22858716547489166,0.4152110517024994,0.6771284341812134,0.42000001668930054,-0.5816753506660461,2.9999845027923584,-0.7733969688415527,-2.9999725818634033,-0.14381705224514008,-0.15484027564525604,-0.16502468287944794,-0.17404621839523315,-0.3623993694782257,-0.29869726300239563,-0.2141631543636322,-0.10740214586257935
0.36666666666666664,0.00916480366140604,0.1679273396730423,0.0,0.9323613047599792,0.0,0.0,-0.36152786016464233,-0.6190975308418274,-0.6393634676933289,0.0,0.0,0.0,-3.3091471195220947,-0.4512557089328766,0.7437730431556702,0.42000138759613037,0.9996165633201599,-0.00013629284512717277,0.0001660482375882566,-0.027689285576343536,0.20048972964286804,0.24492810666561127,0.012766729108989239,0.8759880065917969,-0.30993494391441345,-0.9988560080528259,-0.4602503776550293,0.7466898560523987,0.4208706021308899,0.25956013798713684,0.1928737461566925,-0.1269848346710205,0.4152110517024994,0.6771284341812134,0.42000001668930054,-0.5316704511642456,2.997924566268921,-0.8234379887580872,-2.9999215602874756,-0.14879435300827026,-0.1585405319929123,-0.16706091165542603,-0.17401985824108124,-0.5189995765686035,-0.3810110092163086,-0.22156104445457458,-0.04203080013394356
0.3833333333333333,-0.004465032834559679,0.15639562904834747,0.0,0.9301605820655823,0.0,0.0,-0.3671528995037079,-0.8844029307365417,-0.7144407629966736,0.0,0.0,0.0,0.5909004807472229,-0.4449595808982849,0.750756561756134,0.4200730323791504,0.9942795038223267,-0.0018320672679692507,6.011325604049489e-05,-0.10679340362548828,0.5548659563064575,0.6149761080741882,0.025247884914278984,-1.2556785345077515,0.12680819630622864,-15.45180892944336,-0.4540055990219116,0.75401771068573,0.4207475781440735,0.4920375347137451,0.7111000418663025,0.08161040395498276,0.4152110517024994,0.6771284341812134,0.42000001668930054,-0.48165151476860046,3.0000016689300537,-0.8734601140022278,-2.9999659061431885,-0.16056790947914124,-0.16706044971942902,-0.17199116945266724,-0.1750796139240265,-0.7110781669616699,-0.5024718642234802,-0.2736233174800873,-0.02855147048830986
0.4,-0.014275092631578445,0.14211918413639069,0.0,0.9235897064208984,0.0,0.0,-0.3833823502063751,-0.5283950567245483,-0.8983778357505798,0.0,0.0,0.0,-2.974992513656616,-0.4348842203617096,0.7617967128753662,0.42033785581588745,0.9781545996665955,-0.008288577198982239,0.0010955174220725894,-0.20771029591560364,0.9901719093322754,0.624749481678009,0.29540130496025085,-11.333127975463867,-0.7228927612304688,-7.634799003601074,-0.44229698181152344,0.7656691074371338,0.42288488149642944,0.879875659942627,0.6745332479476929,0.14679044485092163,0.4152110517024994,0.6771284341812134,0.42000001668930054,-0.43159812688827515,2.9880216121673584,-0.9234683513641357,-2.997758626937866,-0.1698831468820572,-0.17279770970344543,-0.17374968528747559,-0.17254093289375305,-0.5233683586120605,-0.2839611768722534,-0.020659957081079483,0.2603205740451813
0.4166666666666667,-0.023290328681468964,0.12572290003299713,0.0,0.9048304557800293,0.0,0.0,-0.4257720112800598,-0.5469369292259216,-1.0206630229949951,0.0,0.0,0.0,-6.4647955894470215,-0.4133304953575134,0.7782912850379944,0.4244105815887451,0.964299738407135,-0.04822156950831413,-0.03545142337679863,-0.25796082615852356,1.4843499660491943,1.2589722871780396,0.843046247959137,54.0654296875,2.1453704833984375,-2.1925039291381836,-0.4218214452266693,0.782162070274353,0.42742010951042175,1.6201764345169067,1.2087818384170532,0.32177019119262695,0.4152110517024994,0.6771284341812134,0.42000001668930054,-0.38973167538642883,1.4411265850067139,-0.9734904766082764,-3.00000262260437,-0.17893067002296448,-0.17799386382102966,-0.1747342199087143,-0.16906560957431793,-0.5134608149528503,-0.29986411333084106,-0.06950756162405014,0.1711212545633316
0.43333333333333335,-0.029333805665373802,0.1065405011177063,0.0,0.8716073036193848,0.0,0.0,-0.490204781293869,-0.2904738187789917,-1.2051063776016235,0.0,0.0,0.0,-9.466176986694336,-0.36908233165740967,0.8058503270149231,0.4323865473270416,0.9540032148361206,-0.003593074856325984,-0.0729399248957634,-0.2907654047012329,4.239671230316162,2.2558329105377197,0.8595982789993286,28.499675750732422,-24.16795539855957,-34.871158599853516,-0.3770693838596344,0.8107051849365234,0.434908390045166,3.562056541442871,2.1018872261047363,0.5896718502044678,0.4152110517024994,0.6771284341812134,0.42000001668930054,-0.3752177953720093,0.8322606682777405,-0.9363171458244324,2.9976577758789062,-0.18943335115909576,-0.1843058168888092,-0.17673185467720032,-0.16676107048988342,-0.6458941102027893,-0.38646912574768066,-0.12799863517284393,0.12096723914146423
0.45,-0.032825157046318054,0.09304526448249817,0.0,0.8219001889228821,0.0,0.0,-0.5696315169334412,-0.16548816859722137,-0.6710248589515686,0.0,0.0,0.0,-11.958863258361816,-0.2857908308506012,0.8448167443275452,0.44255688786506653,0.9278796315193176,0.06521258503198624,-0.1146894246339798,-0.34875914454460144,6.808181285858154,2.5965123176574707,1.0781195163726807,34.14120101928711,-21.322118759155273,-36.04744338989258,-0.29333609342575073,0.8503183126449585,0.4452798366546631,6.013548851013184,2.5213890075683594,0.647202730178833,0.4152110517024994,0.6771284341812134,0.42000001668930054,-0.3613354563713074,0.8520157933235168,-0.8862897753715515,2.9963226318359375,-0.2049623727798462,-0.19635844230651855,-0.1836102157831192,-0.16895534098148346,-0.8787186145782471,-0.7985599040985107,-0.5089081525802612,-0.25794005393981934
0.4666666666666667,-0.039887502789497375,0.08705088496208191,0.0,0.7803853154182434,0.0,0.0,-0.6252989172935486,-0.543834924697876,-0.3554014265537262,0.0,0.0,0.0,-7.094821453094482,-0.18509860336780548,0.8744025826454163,0.4560004770755768,0.8879918456077576,0.08618470281362534,-0.1260841339826584,-0.4337572753429413,6.678084850311279,1.2741777896881104,1.3426668643951416,30.645919799804688,-11.46569538116455,-35.381614685058594,-0.1910688877105713,0.8825217485427856,0.45904964208602905,6.028133392333984,1.3950058221817017,0.7882487773895264,0.4152110517024994,0.6771284341812134,0.42000001668930054,-0.347919762134552,0.784065306186676,-0.9128578901290894,-3.0000011920928955,-0.2189721018075943,-0.21069973707199097,-0.19623377919197083,-0.17682592570781708,-0.6305466294288635,-0.6835876107215881,-0.70140540599823,-0.4798731207847595
0.48333333333333334,-0.041457753628492355,0.07323455810546875,0.0,0.7596799731254578,0.0,0.0,-0.6502971649169922,-0.004294011741876602,-0.9707629084587097,0.0,0.0,0.0,-2.924996852874756,-0.07749269157648087,0.8912715315818787,0.46856755018234253,0.8466907739639282,0.08043546229600906,-0.10219502449035645,-0.515946626663208,7.334402084350586,-0.14505663514137268,1.0121241807937622,15.414820671081543,-28.34255599975586,-48.28177261352539,-0.08178460597991943,0.9003989696502686,0.47150513529777527,6.538003921508789,0.34246373176574707,0.6804483532905579,0.4152110517024994,0.6771284341812134,0.42000001668930054,-0.33528438210487366,0.6697781682014465,-0.9628819227218628,-3.0000014305114746,-0.22289475798606873,-0.21522901952266693,-0.20092257857322693,-0.17838498950004578,-0.19362278282642365,-0.16016846895217896,-0.11478451639413834,0.08159715682268143
0.5,-0.04490597918629646,0.061754535883665085,0.0,0.730610191822052,0.0,0.0,-0.6827948093414307,-0.25038766860961914,-0.5513038039207458,0.0,0.0,0.0,-5.791257858276367,0.03319312259554863,0.8884313702583313,0.47759896516799927,0.769875168800354,0.06783143430948257,-0.10122393071651459,-0.6264541149139404,6.951855659484863,-1.053886890411377,0.9163309931755066,25.155658721923828,8.507292747497559,-35.777984619140625,0.029501337558031082,0.8984951972961426,0.4818257689476013,6.5766706466674805,-0.6543147563934326,0.43529456853866577,0.4152110517024994,0.6771284341812134,0.42000001668930054,-0.3243127167224884,0.6594582200050354,-1.0129061937332153,-2.9991989135742188,-0.22897914052009583,-0.22002971172332764,-0.20454002916812897,-0.1791023463010788,-0.43795260787010193,-0.339444100856781,-0.2615870237350464,-0.12139800190925598
0.5166666666666666,-0.046567995101213455,0.05566049739718437,0.0,0.717011034488678,0.0,0.0,-0.6970618367195129,-0.03510235995054245,-0.2865384519100189,0.0,0.0,0.0,-1.2220629453659058,0.13457117974758148,0.8679327368736267,0.48250657320022583,0.7100760340690613,0.04282120615243912,-0.09406183660030365,-0.6964988112449646,5.873064994812012,-2.326817512512207,0.7353395223617554,21.036516189575195,-12.080121040344238,-35.912200927734375,0.13312631845474243,0.8789888620376587,0.4881433844566345,5.635921001434326,-1.6904112100601196,0.09184248745441437,0.4152110517024994,0.6771284341812134,0.42000001668930054,-0.31555309891700745,0.4612613916397095,-1.062928318977356,-3.0000007152557373,-0.23697081208229065,-0.22588850557804108,-0.20882827043533325,-0.18141569197177887,-0.42763468623161316,-0.2946743667125702,-0.20740556716918945,-0.12821967899799347
0.5333333333333333,-0.04481956362724304,0.046939726918935776,0.0,0.6949536204338074,0.0,0.0,-0.7190545797348022,0.16425713896751404,-0.5634250044822693,0.0,0.0,0.0,-4.532069206237793,0.2214403748512268,0.8363703489303589,0.48030591011047363,0.6593043804168701,0.01714176870882511,-0.08321986347436905,-0.7470597624778748,4.856301307678223,-2.879744291305542,0.16207273304462433,27.468387603759766,4.860198974609375,-29.499881744384766,0.2212272435426712,0.8483018279075623,0.48727554082870483,4.737031936645508,-2.189359664916992,-0.34144720435142517,0.4152110517024994,0.6771284341812134,0.42000001668930054,-0.30860546231269836,0.3733225166797638,-1.1129504442214966,-2.99891996383667,-0.24001477658748627,-0.22805655002593994,-0.2098059505224228,-0.18168456852436066,-0.030998211354017258,-0.16792301833629608,-0.07430191338062286,-0.033596038818359375
0.55,-0.04379768297076225,0.042395081371068954,0.0,0.6862495541572571,0.0,0.0,-0.7273661494255066,0.004182083066552877,-0.19451065361499786,0.0,0.0,0.0,-0.3132539391517639,0.290315717458725,0.7946866750717163,0.4722321331501007,0.6236826181411743,-0.02418956533074379,-0.06371145695447922,-0.7787011861801147,3.766556978225708,-3.2294256687164307,-0.14361189305782318,11.409420013427734,-12.30671501159668,-34.20047378540039,0.29231011867523193,0.8060736656188965,0.4804496765136719,3.6050333976745605,-2.6287426948547363,-0.6939384937286377,0.4152110517024994,0.6771284341812134,0.42000001668930054,-0.3046576678752899,0.20339062809944153,-1.1629725694656372,-3.000000238418579,-0.23992477357387543,-0.23248513042926788,-0.21253348886966705,-0.18393737077713013,-0.0014390385476872325,-0.12030355632305145,-0.07301388680934906,-0.10776140540838242
0.5666666666666667,-0.041553910821676254,0.041666094213724136,0.0,0.6702524423599243,0.0,0.0,-0.7421332001686096,0.1825156807899475,0.026491893455386162,0.0,0.0,0.0,-3.4972333908081055,0.345270574092865,0.7541123032569885,0.456515908241272,0.6028353571891785,-0.055315885692834854,-0.03335779905319214,-0.7952463626861572,3.0251669883728027,-2.8265256881713867,-0.7008001208305359,22.65448760986328,-1.8792579174041748,-24.44754981994629,0.3490687906742096,0.7646226286888123,0.46469369530677795,2.941185474395752,-2.403597116470337,-1.2687177658081055,0.4152110517024994,0.6771284341812134,0.42000001668930054,-0.3001638352870941,0.3575468957424164,-1.2129946947097778,-3.00000262260437,-0.23752281069755554,-0.23250702023506165,-0.21299609541893005,-0.1861688196659088,0.24793080985546112,0.10053733736276627,0.024900611490011215,-0.13327541947364807
0.5833333333333334,-0.035858891904354095,0.03615014627575874,0.0,0.6667871475219727,0.0,0.0,-0.7452481985092163,0.4030129015445709,-0.48473888635635376,0.0,0.0,0.0,0.37477177381515503,0.3866574764251709,0.7159480452537537,0.43555667996406555,0.5858703255653381,-0.075811006128788,0.015195256099104881,-0.8067079186439514,2.0501039028167725,-2.9792838096618652,-1.0779532194137573,3.590846061706543,-3.265918016433716,-31.115615844726562,0.3916083872318268,0.7247880697250366,0.44261956214904785,1.9141335487365723,-2.206857204437256,-1.4482344388961792,0.4152110517024994,0.6771284341812134,0.42000001668930054,-0.2921670079231262,0.47185537219047546,-1.2630168199539185,-2.9999988079071045,-0.22823800146579742,-0.22601066529750824,-0.2087954431772232,-0.18562662601470947,0.6966599225997925,0.528903067111969,0.3526744246482849,0.09393463283777237
0.6,-0.028583882376551628,0.03375706076622009,0.0,0.6536295413970947,0.0,0.0,-0.7568145990371704,0.45886579155921936,-0.009949546307325363,0.0,0.0,0.0,-2.9875521659851074,0.4126841425895691,0.6930160522460938,0.4215446412563324,0.6278305649757385,-0.021545816212892532,0.027654685080051422,-0.7775600552558899,1.0515056848526,-0.946510374546051,-0.2479105293750763,-4.320943832397461,-13.918330192565918,12.048498153686523,0.4172927141189575,0.698455274105072,0.42464035749435425,0.8916741609573364,-0.7835646867752075,-0.06818874180316925,0.4152110517024994,0.6771284341812134,0.42000001668930054,-0.2820710837841034,0.7294148206710815,-1.2249183654785156,2.9942619800567627,-0.21762242913246155,-0.21833424270153046,-0.2045930027961731,-0.1861225813627243,0.680015504360199,0.49504515528678894,0.25983431935310364,-0.03868551552295685
0.6166666666666667,-0.021942095831036568,0.02957560308277607,0.0,0.6525962352752686,0.0,0.0,-0.7577058672904968,0.36570391058921814,-0.23060773313045502,0.0,0.0,0.0,0.6896617412567139,0.4229477643966675,0.6808491945266724,0.4220828711986542,0.6384707689285278,-0.03539296239614487,0.03689173236489296,-0.7679461240768433,0.4289205074310303,-0.7687377333641052,0.027003595605492592,-0.9715617895126343,0.5186466574668884,-3.180565595626831,0.42682546377182007,0.686485767364502,0.4262145757675171,0.23968534171581268,-0.753604531288147,0.14894025027751923,0.4152110517024994,0.6771284341812134,0.42000001668930054,-0.29760831594467163,-2.2513277530670166,-1.2455493211746216,-2.999561071395874,-0.20579828321933746,-0.20896491408348083,-0.1989048719406128,-0.18516303598880768,0.49386152625083923,0.41313445568084717,0.23780372738838196,-0.0027106767520308495
0.6333333333333333,-0.014485221356153488,0.028512632474303246,0.0,0.6417205929756165,0.0,0.0,-0.7669385075569153,0.48739516735076904,-0.010284248739480972,0.0,0.0,0.0,-2.575793743133545,0.4272911250591278,0.673623263835907,0.42066657543182373,0.658172070980072,-0.012214569374918938,-0.00753797497600317,-0.752730667591095,0.13025887310504913,-0.18275269865989685,-0.10264883935451508,-3.208824634552002,-7.070788860321045,7.069094181060791,0.43115004897117615,0.6815767288208008,0.42864540219306946,0.2932072579860687,-0.08573447167873383,0.15213632583618164,0.4152110517024994,0.6771284341812134,0.42000001668930054,-0.3172057867050171,-0.2929602861404419,-1.2955001592636108,-2.998521566390991,-0.19574087858200073,-0.20103804767131805,-0.19469967484474182,-0.1854855716228485,0.7073493599891663,0.5574010014533997,0.3069985508918762,0.0177459679543972
0.65,-0.0050919135101139545,0.03054935298860073,0.0,0.6438049077987671,0.0,0.0,-0.7651897072792053,0.5942280292510986,0.21641618013381958,0.0,0.0,0.0,1.2283819913864136,0.427519828081131,0.6714348793029785,0.42024123668670654,0.6730141639709473,-0.0021080258302390575,-0.004192820750176907,-0.7396146655082703,-0.0878816619515419,-0.02119242213666439,-0.008293259888887405,2.149751901626587,-2.0985662937164307,-0.06492152065038681,0.4310589134693146,0.6800245642662048,0.4277442395687103,-0.1940845549106598,-0.03430195152759552,-0.06743115186691284,0.4152110517024994,0.6771284341812134,0.42000001668930054,-0.33180463314056396,-1.3520759344100952,-1.2591552734375,2.9992003440856934,-0.18513986468315125,-0.19259127974510193,-0.1901676505804062,-0.18544317781925201,0.5818622708320618,0.4726130962371826,0.2535063624382019,0.0029813055880367756
0.6666666666666666,0.006260652560740709,0.028014227747917175,0.0,0.6338188648223877,0.0,0.0,-0.7734814882278442,0.6919714212417603,-0.14084729552268982,0.0,0.0,0.0,-2.509575128555298,0.4269987642765045,0.6711731553077698,0.4200001060962677,0.6732077598571777,8.816764420771506e-06,-1.0019181218012818e-06,-0.7394532561302185,-0.005982312373816967,-0.002728673629462719,-0.0003619555209297687,-0.02037651091814041,0.01654007099568844,-0.04605524614453316,0.4305247664451599,0.6837143898010254,0.4297218322753906,-0.18433336913585663,0.36475706100463867,0.2236364185810089,0.4152110517024994,0.6771284341812134,0.42000001668930054,-0.3748750686645508,-2.99999737739563,-1.2791529893875122,-2.999691963195801,-0.17026761174201965,-0.17993630468845367,-0.18199636042118073,-0.1820947229862213,0.728094756603241,0.6734724044799805,0.44474881887435913,0.19532771408557892
0.6833333333333333,0.019427848979830742,0.030392397195100784,0.0,0.6361686587333679,0.0,0.0,-0.7715499997138977,0.8351472616195679,0.13880443572998047,0.0,0.0,0.0,1.2584590911865234,0.4257154166698456,0.6729684472084045,0.4204774796962738,0.6773953437805176,-0.00887307059019804,-0.008166806772351265,-0.7355203032493591,-0.07511797547340393,0.10702824592590332,0.001998460153117776,-0.10104535520076752,0.008840395137667656,0.6785204410552979,0.4278808832168579,0.688720703125,0.4330322742462158,-0.07813408225774765,0.3314622640609741,0.18716806173324585,0.4152110517024994,0.6771284341812134,0.42000001668930054,-0.42489829659461975,-2.999804735183716,-1.3291504383087158,-2.9999780654907227,-0.16212797164916992,-0.17212894558906555,-0.17721475660800934,-0.18069323897361755,0.5133983492851257,0.4738859534263611,0.28896865248680115,0.0876774713397026
0.7,0.030042126774787903,0.027476653456687927,0.0,0.6610189080238342,0.0,0.0,-0.7503692507743835,0.5602980852127075,-0.1857604831457138,0.0,0.0,0.0,4.5535712242126465,0.42420631647109985,0.6747059226036072,0.42026421427726746,0.6761606931686401,-7.977044333529193e-06,-0.004737582057714462,-0.736738920211792,-0.12294331938028336,0.12164004892110825,0.028488192707300186,-0.20307272672653198,-1.3092023134231567,-1.2526841163635254,0.4265376329421997,0.6932722926139832,0.43607449531555176,-0.13615663349628448,0.1846301406621933,0.1831384003162384,0.4152110517024994,0.6771284341812134,0.42000001668930054,-0.47493502497673035,-2.999941349029541,-1.3791234493255615,-2.9988341331481934,-0.152475506067276,-0.16287796199321747,-0.17054106295108795,-0.17684949934482574,0.3459199070930481,0.37915652990341187,0.29350557923316956,0.1901160180568695
0.7166666666666667,0.0407237634062767,0.021986735984683037,0.0,0.6701851487159729,0.0,0.0,-0.7421939373016357,0.673262357711792,-0.3757689893245697,0.0,0.0,0.0,0.4471786320209503,0.4226232171058655,0.6762803792953491,0.42000025510787964,0.6704651713371277,-2.990707798744552e-06,-2.419156771793496e-06,-0.741940975189209,-0.07474315166473389,0.07474976778030396,-4.5873457565903664e-05,0.0015894609969109297,-0.0007878047763369977,-0.6821981072425842,0.4261799156665802,0.6963380575180054,0.4403305649757385,-0.035386860370635986,0.15580643713474274,0.2991170883178711,0.4152110517024994,0.6771284341812134,0.42000001668930054,-0.5249426364898682,-2.9979004859924316,-1.429093599319458,-2.9979782104492188,-0.1483531892299652,-0.15741057693958282,-0.16531771421432495,-0.17201261222362518,0.1761682629585266,0.2996494770050049,0.34673449397087097,0.39111950993537903
0.7333333333333333,0.05318368598818779,0.013677475042641163,0.0,0.6567954421043396,0.0,0.0,-0.7540687918663025,0.780144453048706,-0.5610513091087341,0.0,0.0,0.0,-3.053342580795288,0.4220851957798004,0.6768184900283813,0.4200000464916229,0.6689667105674744,4.230526329251916e-08,-2.7554989401323837e-08,-0.7432923913002014,-0.017099259421229362,0.017007337883114815,-3.6231940612196922e-06,-6.295413913903758e-05,0.00017778825713321567,-0.11147797107696533,0.4301937222480774,0.700707197189331,0.4515957832336426,0.48466816544532776,0.3105578124523163,1.1564301252365112,0.4152110517024994,0.6771284341812134,0.42000001668930054,-0.5749543905258179,-2.9999802112579346,-1.4791117906570435,-2.9999988079071045,-0.14809434115886688,-0.1548449993133545,-0.1614534854888916,-0.16684074699878693,-0.07190457731485367,0.07599003612995148,0.17680807411670685,0.2803661823272705
0.75,0.06970759481191635,0.01112205907702446,0.0,0.6204208135604858,0.0,0.0,-0.7842690944671631,1.0731618404388428,-0.017773445695638657,0.0,0.0,0.0,-6.719196319580078,0.42208483815193176,0.67681884765625,0.41999998688697815,0.6689667105674744,-1.954753088284633e-07,-5.985618372505996e-06,-0.7432922720909119,0.0002289809926878661,-0.00039245199877768755,-9.353877976536751e-05,0.007826438173651695,-0.0003043976903427392,-0.00029755590367130935,0.4475819766521454,0.6991830468177795,0.47702860832214355,1.6579930782318115,-0.43723270297050476,2.0128843784332275,0.4152110517024994,0.6771284341812134,0.42000001668930054,-0.6249632239341736,-2.9997658729553223,-1.5291301012039185,-2.999966621398926,-0.15873345732688904,-0.1612636297941208,-0.16432414948940277,-0.16622969508171082,-0.8430845141410828,-0.5506148934364319,-0.28946051001548767,-0.03388373926281929
0.7666666666666666,0.08253616094589233,0.012439131736755371,0.0,0.5972049832344055,0.0,0.0,-0.8020886778831482,0.6475760340690613,-0.09140216559171677,0.0,0.0,0.0,-2.2072057723999023,0.4220848083496094,0.67681884765625,0.41999998688697815,0.6689668893814087,1.423923094989732e-07,-5.621930085908389e-06,-0.7432920932769775,0.0002609996299725026,-0.000399902171920985,-9.328033775091171e-05,0.008186335675418377,-1.1140587957925163e-05,-0.0003729063319042325,0.473671019077301,0.6966317892074585,0.5120221972465515,1.597806692123413,0.08027346432209015,2.1348562240600586,0.4152110517024994,0.6771284341812134,0.42000001668930054,-0.6429165005683899,0.5462539196014404,-1.579148292541504,-3.0,-0.16867245733737946,-0.1679513156414032,-0.1679549664258957,-0.16687089204788208,-0.17342889308929443,-0.1081203892827034,-0.042226050049066544,0.027726640924811363
0.7833333333333333,0.08974859118461609,0.012766199186444283,0.0,0.6014043092727661,0.0,0.0,-0.7989448308944702,0.3566398322582245,0.06966347247362137,0.0,0.0,0.0,1.5013169050216675,0.422084778547287,0.67681884765625,0.41999998688697815,0.6689670085906982,-7.906333365781393e-10,-5.57460725758574e-06,-0.7432920336723328,0.0002611326926853508,-0.0004006749368272722,-9.343167766928673e-05,0.00820141565054655,-1.4175819160300307e-05,-0.00037268121377564967,0.4960297644138336,0.6992748975753784,0.5415030717849731,1.0160411596298218,0.22236275672912598,1.4830453395843506,0.4152110517024994,0.6771284341812134,0.42000001668930054,-0.611012876033783,2.9999873638153076,-1.5429232120513916,3.000000238418579,-0.16986878216266632,-0.168370321393013,-0.16751326620578766,-0.1655123382806778,0.009875643067061901,0.04210176691412926,0.0812583640217781,0.12166009098291397
0.8,0.09281553328037262,0.009548356756567955,0.0,0.594079852104187,0.0,0.0,-0.8044060468673706,0.15069256722927094,-0.27143165469169617,0.0,0.0,0.0,-2.031994104385376,0.4220848083496094,0.67681884765625,0.41999998688697815,0.6689669489860535,1.572603451904797e-07,-5.544536634261021e-06,-0.7432920932769775,0.0002612800453789532,-0.00040062624611891806,-9.341374970972538e-05,0.008200052194297314,-8.924566827772651e-06,-0.0003728553419932723,0.505486011505127,0.7045628428459167,0.5600826740264893,0.0927465409040451,0.3438716530799866,0.9086464643478394,0.4152110517024994,0.6771284341812134,0.42000001668930054,-0.566249430179596,2.387380599975586,-1.492870569229126,2.9999985694885254,-0.1682271510362625,-0.16644287109375,-0.16517062485218048,-0.16277256608009338,0.06710685044527054,0.09189938008785248,0.1230643019080162,0.1486782282590866
0.8166666666666667,0.09286616742610931,0.01150965690612793,0.0,0.5996341705322266,0.0,0.0,-0.8002742528915405,-0.04509339854121208,0.24983257055282593,0.0,0.0,0.0,1.7174307107925415,0.4220848083496094,0.67681884765625,0.41999998688697815,0.6689667105674744,1.0286945695270333e-07,-5.363218406273518e-06,-0.7432923316955566,0.00026272726245224476,-0.000400400604121387,-9.337766095995903e-05,0.008202199824154377,7.68928111938294e-06,-0.00037648133002221584,0.5008722543716431,0.7092248201370239,0.5739551186561584,-0.5622836351394653,0.3232937455177307,0.7779058218002319,0.4152110517024994,0.6771284341812134,0.42000001668930054,-0.5177340507507324,3.000000476837158,-1.460044026374817,1.0779447555541992,-0.17243218421936035,-0.16923730075359344,-0.1665373295545578,-0.16295184195041656,-0.28913751244544983,-0.2079511433839798,-0.12590815126895905,-0.059916902333498
0.8333333333333334,0.09095092862844467,0.010590052232146263,0.0,0.5933031439781189,0.0,0.0,-0.8049790859222412,-0.15089134871959686,-0.1553533375263214,0.0,0.0,0.0,-1.8722461462020874,0.4220848083496094,0.67681884765625,0.41999998688697815,0.6689668893814087,1.6385421020004287e-07,-5.645504188578343e-06,-0.7432921528816223,0.0002619344450067729,-0.0004008144896943122,-9.346078149974346e-05,0.0082069868221879,-5.476645128510427e-06,-0.0003744626883417368,0.48523086309432983,0.7144324779510498,0.5798279047012329,-1.3163864612579346,0.2808057367801666,0.11896519362926483,0.4152110517024994,0.6771284341812134,0.42000001668930054,-0.4947560727596283,-0.002431972650811076,-1.4109081029891968,2.999999523162842,-0.17456020414829254,-0.17047439515590668,-0.16679967939853668,-0.16244575381278992,-0.05199430510401726,-0.006610908079892397,0.045129917562007904,0.08541639149188995
0.85,0.09161094576120377,0.01323876716196537,0.0,0.5989184975624084,0.0,0.0,-0.8008099794387817,-0.013905790634453297,0.09433460980653763,0.0,0.0,0.0,1.270993709564209,0.4220848083496094,0.67681884765625,0.41999998688697815,0.6689668893814087,1.856076323747402e-07,-5.339213203114923e-06,-0.7432921528816223,0.0002632279065437615,-0.0004011670534964651,-9.352038614451885e-05,0.008218523114919662,9.775383659871295e-06,-0.00037709911703132093,0.46589916944503784,0.7185453176498413,0.581528902053833,-0.8862063884735107,0.48133420944213867,0.08935143053531647,0.4152110517024994,0.6771284341812134,0.42000001668930054,-0.4759301543235779,2.067817449569702,-1.4288326501846313,-2.999999523162842,-0.17826782166957855,-0.17318019270896912,-0.16836825013160706,-0.16305093467235565,0.12073076516389847,0.08175260573625565,0.06430267542600632,0.05151991918683052
0.8666666666666667,0.09292623400688171,0.011584127321839333,0.0,0.5908179879188538,0.0,0.0,-0.8068048357963562,0.13701075315475464,-0.08812451362609863,0.0,0.0,0.0,-2.0246975421905518,0.4220848083496094,0.67681884765625,0.41999998688697815,0.6689667701721191,1.377010221403907e-07,-5.719538876292063e-06,-0.7432922124862671,0.0002607472997624427,-0.0003999189066234976,-9.329873137176037e-05,0.008184374310076237,-1.2778966265614145e-05,-0.00037217605859041214,0.4518844485282898,0.7253721952438354,0.5800725221633911,-0.8262341022491455,0.23217090964317322,-0.11418423801660538,0.4152110517024994,0.6771284341812134,0.42000001668930054,-0.48863399028778076,-3.000000476837158,-1.390305995941162,3.0000009536743164,-0.17559674382209778,-0.17123188078403473,-0.16672979295253754,-0.16158181428909302,-0.005609539337456226,-0.0070808883756399155,0.014246216043829918,0.041703421622514725
0.8833333333333333,0.09689072519540787,0.008521830663084984,0.0,0.5957611203193665,0.0,0.0,-0.8031616806983948,0.27752283215522766,-0.25687894225120544,0.0,0.0,0.0,1.565514087677002,0.4220848083496094,0.67681884765625,0.41999998688697815,0.6689670085906982,1.3996965719798027e-07,-5.650325874739792e-06,-0.7432920336723328,0.0002611925301607698,-0.00040019454900175333,-9.335041977465153e-05,0.008191689848899841,-9.676411536929663e-06,-0.00037306913873180747,0.44208866357803345,0.7279703617095947,0.5796616077423096,-0.3715565502643585,0.11730154603719711,0.09430181980133057,0.4152110517024994,0.6771284341812134,0.42000001668930054,-0.518731951713562,-0.7793394327163696,-1.408619999885559,-2.999999761581421,-0.17721779644489288,-0.1722940057516098,-0.16686052083969116,-0.16068463027477264,-0.09137532860040665,-0.04887479171156883,0.016533344984054565,0.08899274468421936
0.9,0.10298086702823639,0.0024770954623818398,0.0,0.5885193347930908,0.0,0.0,-0.8084831237792969,0.4081875681877136,-0.41610875725746155,0.0,0.0,0.0,-1.9831736087799072,0.4220848083496094,0.67681884765625,0.41999998688697815,0.6689667701721191,1.2090025336419785e-07,-5.474660611071158e-06,-0.7432922124862671,0.0002624640183057636,-0.000400157761760056,-9.333482012152672e-05,0.008196253329515457,6.078993010305567e-06,-0.0003760171530302614,0.4400123357772827,0.7268874645233154,0.5778017044067383,0.141087606549263,-0.24143442511558533,-0.11960671842098236,0.4152110517024994,0.6771284341812134,0.42000001668930054,-0.5575727820396423,-2.9999969005584717,-1.3701509237289429,3.0000007152557373,-0.1794789433479309,-0.17357522249221802,-0.1667403131723404,-0.15899725258350372,-0.13813301920890808,-0.06327389925718307,0.03675742819905281,0.14745858311653137
0.9166666666666666,0.11182007193565369,-0.0012879559071734548,0.0,0.5604455471038818,0.0,0.0,-0.8281912803649902,0.5826875567436218,-0.15638315677642822,0.0,0.0,0.0,-5.012012481689453,0.4220848083496094,0.67681884765625,0.41999998688697815,0.6689669489860535,1.6232768018653587e-07,-5.5785531003493816e-06,-0.7432920336723328,0.0002616599667817354,-0.00040056134457699955,-9.341677650809288e-05,0.008201021701097488,-6.897732419020031e-06,-0.00037396373227238655,0.4459863305091858,0.7217183113098145,0.5771267414093018,0.5585358738899231,-0.37548649311065674,0.1824062168598175,0.4152110517024994,0.6771284341812134,0.42000001668930054,-0.5780577063560486,0.27496033906936646,-1.3888449668884277,-2.9999992847442627,-0.18184351921081543,-0.17534860968589783,-0.16749967634677887,-0.15853101015090942,-0.1137198954820633,-0.10266130417585373,-0.0697338879108429,-0.025575583800673485
0.9333333333333333,0.11807738989591599,-0.0024647798854857683,0.0,0.5477398633956909,0.0,0.0,-0.83664870262146,0.2879229485988617,-0.02872345596551895,0.0,0.0,0.0,-0.8008931875228882,0.4220848083496094,0.67681884765625,0.41999998688697815,0.6689668893814087,2.2049729864193068e-07,-5.532443083211547e-06,-0.7432920932769775,0.0002632818359415978,-0.00040034553967416286,-9.336555376648903e-05,0.008202927187085152,1.5232762052619364e-05,-0.0003777786041609943,0.45447295904159546,0.7190685272216797,0.5807185173034668,0.4031178951263428,-0.023283887654542923,0.20621168613433838,0.4152110517024994,0.6771284341812134,0.42000001668930054,-0.5523344874382019,2.5882296562194824,-1.3504290580749512,2.999999761581421,-0.1809835582971573,-0.17501679062843323,-0.16740074753761292,-0.15850740671157837,0.15178421139717102,0.09143108874559402,0.04313535988330841,-1.7811544239521027e-08
