vladlanda/robotic-transformer/data/env_000_episode_0167.csv
sim_time_s,robot_box_x,robot_box_y,robot_box_z,robot_box_quat_w,robot_box_quat_x,robot_box_quat_y,robot_box_quat_z,robot_box_linvel_x,robot_box_linvel_y,robot_box_linvel_z,robot_box_angvel_x,robot_box_angvel_y,robot_box_angvel_z,cube_world_x,cube_world_y,cube_world_z,cube_quat_w,cube_quat_x,cube_quat_y,cube_quat_z,cube_linvel_x,cube_linvel_y,cube_linvel_z,cube_angvel_x,cube_angvel_y,cube_angvel_z,endpoint_world_x,endpoint_world_y,endpoint_world_z,endpoint_linvel_x,endpoint_linvel_y,endpoint_linvel_z,target_cube_world_x,target_cube_world_y,target_cube_world_z,gripper_actual_pos_rad_gp_leftgearjoint,gripper_actual_vel_rad_s_gp_leftgearjoint,gripper_actual_pos_rad_gp_rotatingjoint,gripper_actual_vel_rad_s_gp_rotatingjoint,motor_angle_rad_joint1,motor_angle_rad_joint2,motor_angle_rad_joint3,motor_angle_rad_joint4,motor_speed_rad_s_joint1,motor_speed_rad_s_joint2,motor_speed_rad_s_joint3,motor_speed_rad_s_joint4
0.0,0.0,0.0,0.0,1.0,0.0,0.0,0.0,0.0,0.0,0.0,0.0,0.0,0.0,-0.3904440701007843,0.7629443407058716,0.41999998688697815,1.0,0.0,0.0,0.0,0.0,0.0,0.0,0.0,0.0,0.0,3.42540442943573e-06,-0.005000244826078415,1.313499927520752,0.0,0.0,0.0,0.3717399835586548,0.7305300831794739,0.42000001668930054,-1.5707999467849731,0.0,0.0,0.0,0.0,0.0,0.0,0.0,0.0,0.0,0.0,0.0
0.016666666666666666,0.0028779052663594484,0.002180654788389802,0.0,0.9998081922531128,0.0,0.0,0.01958507113158703,0.24087253212928772,0.18240877985954285,0.0,0.0,0.0,3.1418697834014893,-0.39044418931007385,0.7629440426826477,0.41999998688697815,1.0,3.279964630564791e-06,-8.339746386809566e-07,8.465587342243452e-08,-1.9833529222523794e-05,0.00017983045836444944,-6.132945418357849e-05,0.0009432713268324733,-0.004689474124461412,-0.00031981561915017664,-0.007110351696610451,0.0033796948846429586,1.3159375190734863,-0.8143347501754761,0.9868698120117188,0.18095152080059052,0.3717399835586548,0.7305300831794739,0.42000001668930054,-1.5301095247268677,3.0000011920928955,-0.045847900211811066,-3.000000476837158,0.0008691689581610262,0.0007963983807712793,0.0007110401638783514,0.0006108852685429156,0.1109420508146286,0.0975671112537384,0.08334313333034515,0.06823889166116714
0.03333333333333333,0.008961096405982971,0.006802074611186981,0.0,0.9997960329055786,0.0,0.0,0.020195351913571358,0.4070456326007843,0.3153158724308014,0.0,0.0,0.0,-0.8691087961196899,-0.3904443085193634,0.7629439830780029,0.4200000464916229,1.0,3.3907890610862523e-06,-2.132393774445518e-06,-3.709030593768148e-08,0.0002635782875586301,0.00026937786606140435,-0.00010509765706956387,-0.0017707186052575707,0.004130848217755556,-0.00013548022252507508,-0.026939626783132553,0.026323042809963226,1.3166697025299072,-1.5219708681106567,1.6200170516967773,-0.07608111202716827,0.3717399835586548,0.7305300831794739,0.42000001668930054,-1.4800902605056763,3.0000016689300537,-0.09588775038719177,-3.0000011920928955,0.0029236117843538523,0.0025625373236835003,0.002163412282243371,0.001723201829008758,0.15620970726013184,0.12929509580135345,0.10089455544948578,0.07092062383890152
0.05,0.018472658470273018,0.013905670493841171,0.0,0.9999774098396301,0.0,0.0,-0.006721219979226589,0.636351466178894,0.472430944442749,0.0,0.0,0.0,-4.073518753051758,-0.3904443383216858,0.7629440426826477,0.4200000464916229,1.0,3.7651125239790417e-06,-2.211909304605797e-06,5.615670151115637e-09,0.00026530897594057024,0.0002669153909664601,-0.00010440615005791187,-0.0017242893809452653,0.00417743856087327,-0.0001294967223657295,-0.05477491393685341,0.058002009987831116,1.3124499320983887,-1.8250384330749512,2.106323719024658,-0.4189912676811218,0.3717399835586548,0.7305300831794739,0.42000001668930054,-1.4300719499588013,3.0000007152557373,-0.14592644572257996,-3.000000238418579,0.0056923022493720055,0.004769270773977041,0.003773733740672469,0.0027016852982342243,0.1858920305967331,0.14180193841457367,0.09579445421695709,0.047799013555049896
0.06666666666666667,0.03078824281692505,0.02339559979736805,0.0,0.999883770942688,0.0,0.0,-0.015245987102389336,0.7726390957832336,0.616219699382782,0.0,0.0,0.0,-0.037949107587337494,-0.3904443383216858,0.7629439830780029,0.4200000464916229,0.9999999403953552,3.4067415981553495e-06,-2.285610207763966e-06,4.300852367578045e-07,0.0002670248504728079,0.00026791688287630677,-0.00010437914170324802,-0.0017406237311661243,0.004211748018860817,-0.00012850160419475287,-0.08850330859422684,0.09214840829372406,1.3030959367752075,-2.089521884918213,2.1562130451202393,-0.6946121454238892,0.3717399835586548,0.7305300831794739,0.42000001668930054,-1.3800498247146606,3.000000476837158,-0.1681300401687622,0.08234971016645432,0.007878945209085941,0.006142755970358849,0.0042931316420435905,0.002325922017917037,0.10776891559362411,0.05001472309231758,-0.009883240796625614,-0.07198307663202286
0.08333333333333333,0.03682286664843559,0.03676697984337807,0.0,0.9992344975471497,0.0,0.0,-0.03912001848220825,0.22700348496437073,0.8756484985351562,0.0,0.0,0.0,-3.8091602325439453,-0.3904443383216858,0.7629439830780029,0.4200000464916229,1.0,3.6972521684219828e-06,-2.1889734398428118e-06,-2.6323630208935356e-07,0.0002638957812450826,0.0002658642188180238,-0.00010433932766318321,-0.0017081927508115768,0.004150208085775375,-0.00012991396943107247,-0.11805231869220734,0.13251614570617676,1.2893165349960327,-1.4842376708984375,2.68843936920166,-0.8829455375671387,0.3717399835586548,0.7305300831794739,0.42000001668930054,-1.3300437927246094,3.0000009536743164,-0.21347001194953918,-3.0000014305114746,0.003375716507434845,0.0008318793261423707,-0.0018794180359691381,-0.004766114987432957,-0.3985576629638672,-0.4599834978580475,-0.5241547226905823,-0.5913149118423462
0.1,0.046683263033628464,0.051720909774303436,0.0,0.9958904385566711,0.0,0.0,-0.09056588262319565,0.7374029755592346,0.9040830135345459,0.0,0.0,0.0,-6.966381549835205,-0.3904443383216858,0.7629439830780029,0.4200000464916229,0.9999999403953552,3.6203418858349323e-06,-2.26525662583299e-06,1.7461363199799962e-07,0.00026676771813072264,0.000267407187493518,-0.0001040794886648655,-0.0017384879756718874,0.0042090388014912605,-0.00012775236973538995,-0.1431799829006195,0.17936775088310242,1.2751386165618896,-1.533981204032898,2.959423542022705,-0.8761900663375854,0.3717399835586548,0.7305300831794739,0.42000001668930054,-1.280025601387024,2.9999966621398926,-0.1984744668006897,3.000000476837158,0.0010885079391300678,-0.003060869872570038,-0.007380958646535873,-0.01187979243695736,-0.05293751507997513,-0.15903620421886444,-0.264092355966568,-0.36802971363067627
0.11666666666666667,0.05499369278550148,0.0644579753279686,0.0,0.9924724102020264,0.0,0.0,-0.12246852368116379,0.5446322560310364,0.6812645792961121,0.0,0.0,0.0,-2.581606864929199,-0.3904443383216858,0.7629439830780029,0.4200000464916229,1.0,3.7983406855346402e-06,-2.2628419173997827e-06,-1.5020927435216436e-07,0.0002637402212712914,0.00026566023007035255,-0.00010428996756672859,-0.001705443486571312,0.004147546365857124,-0.0001297972776228562,-0.17262621223926544,0.22587338089942932,1.2592065334320068,-1.7315900325775146,2.9888014793395996,-0.9390397071838379,0.3717399835586548,0.7305300831794739,0.42000001668930054,-1.2300869226455688,2.9833474159240723,-0.2299075871706009,-3.0,-0.0023611553478986025,-0.008123667910695076,-0.014032624661922455,-0.02009594812989235,-0.092371866106987,-0.21090592443943024,-0.3259428143501282,-0.43729180097579956
0.13333333333333333,0.060913778841495514,0.07790762931108475,0.0,0.9866236448287964,0.0,0.0,-0.16301466524600983,0.28404030203819275,0.8534761071205139,0.0,0.0,0.0,-5.697490692138672,-0.3904443383216858,0.7629440426826477,0.4200000464916229,0.9999999403953552,3.5504526749718934e-06,-2.229838401035522e-06,2.92903592935545e-07,0.0002670336689334363,0.00026779345353133976,-0.00010417122393846512,-0.0017440557712689042,0.004213644191622734,-0.0001280014985240996,-0.20098456740379333,0.2800164222717285,1.241241455078125,-1.56953763961792,3.6003050804138184,-1.2419581413269043,0.3717399835586548,0.7305300831794739,0.42000001668930054,-1.1800752878189087,2.9999895095825195,-0.1959635466337204,3.000000238418579,-0.005480019375681877,-0.01313572283834219,-0.020865565165877342,-0.02867431566119194,-0.2592098116874695,-0.3623540997505188,-0.46100330352783203,-0.5549989938735962
0.15,0.06290650367736816,0.09304368495941162,0.0,0.9817574620246887,0.0,0.0,-0.19013769924640656,0.03637219965457916,0.9735561013221741,0.0,0.0,0.0,-2.074815511703491,-0.3904443383216858,0.7629439830780029,0.4200000464916229,0.9999999403953552,3.3380681543349056e-06,-2.242904201921192e-06,-2.80383520845362e-08,0.00026674623950384557,0.000267581082880497,-0.00010427739471197128,-0.0017367617692798376,0.004206853918731213,-0.00012831280764658004,-0.23291993141174316,0.3377332091331482,1.2160649299621582,-2.011056900024414,3.5351598262786865,-1.7667399644851685,0.3717399835586548,0.7305300831794739,0.42000001668930054,-1.1530330181121826,0.44595199823379517,-0.2274235188961029,-3.0000007152557373,-0.01085755880922079,-0.019970085471868515,-0.0290705393999815,-0.0381617471575737,-0.39035144448280334,-0.458228200674057,-0.5210995674133301,-0.5789188742637634
0.16666666666666666,0.06972550600767136,0.10523854941129684,0.0,0.9732683897018433,0.0,0.0,-0.22967083752155304,0.4927660822868347,0.7033222913742065,0.0,0.0,0.0,-5.578388214111328,-0.3904443383216858,0.7629440426826477,0.4200000464916229,0.9999999403953552,3.6478249967331067e-06,-2.3072980184224434e-06,3.525462588527262e-08,0.0002672682167030871,0.0002680141478776932,-0.00010418612509965897,-0.0017472227336838841,0.00421749847009778,-0.0001279825810343027,-0.26489320397377014,0.4033132791519165,1.1820192337036133,-1.7492790222167969,4.334506034851074,-2.4157233238220215,0.3717399835586548,0.7305300831794739,0.42000001668930054,-1.1126611232757568,3.000002384185791,-0.2774326801300049,-3.0000014305114746,-0.014223418198525906,-0.024531569331884384,-0.03473998233675957,-0.044851358979940414,-0.34478849172592163,-0.3817600607872009,-0.4153641164302826,-0.44569146633148193
0.18333333333333332,0.07136428356170654,0.11954395473003387,0.0,0.9679233431816101,0.0,0.0,-0.2512456178665161,0.06659933924674988,0.8451849222183228,0.0,0.0,0.0,-1.4621899127960205,-0.3904443383216858,0.7629439830780029,0.4200000464916229,0.9999999403953552,3.2905484204093227e-06,-2.19394087253022e-06,-2.7926759571528237e-07,0.00026677915593609214,0.00026775928563438356,-0.00010433956049382687,-0.0017390865832567215,0.004206973593682051,-0.00012845573655795306,-0.2985614538192749,0.4698367118835449,1.1326079368591309,-1.935685634613037,4.107346534729004,-3.291003704071045,0.3717399835586548,0.7305300831794739,0.42000001668930054,-1.0755305290222168,1.548731803894043,-0.3274543285369873,-3.000000476837158,-0.026566721498966217,-0.03689540550112724,-0.04671289026737213,-0.056275442242622375,-0.6345757842063904,-0.680743932723999,-0.6750672459602356,-0.6467155814170837
0.2,0.07694429904222488,0.13131767511367798,0.0,0.9586888551712036,0.0,0.0,-0.2844568192958832,0.36873599886894226,0.6369781494140625,0.0,0.0,0.0,-4.8639068603515625,-0.3904443383216858,0.7629439830780029,0.4200000464916229,1.0,3.2807649859023513e-06,-2.219233238065499e-06,1.594273868477103e-07,0.00026627976330928504,0.000267400115262717,-0.0001042510848492384,-0.0017358354525640607,0.004197914153337479,-0.00012865106691606343,-0.3291408121585846,0.540268063545227,1.072285771369934,-1.6006786823272705,4.338404655456543,-3.975313663482666,0.3717399835586548,0.7305300831794739,0.42000001668930054,-1.0289055109024048,3.0000007152557373,-0.37747979164123535,-3.000000238418579,-0.03695041313767433,-0.04769546911120415,-0.057237736880779266,-0.06623281538486481,-0.7787699699401855,-0.7671254873275757,-0.7239030003547668,-0.6683534383773804
0.21666666666666667,0.07807297259569168,0.14509157836437225,0.0,0.9540223479270935,0.0,0.0,-0.29973557591438293,0.03352828323841095,0.8289411664009094,0.0,0.0,0.0,-0.8485876321792603,-0.3904443383216858,0.7629440426826477,0.4200000464916229,1.0,3.613171202232479e-06,-2.2701251509715803e-06,2.2096426732787222e-07,0.0002671248512342572,0.00026781641645357013,-0.00010414118878543377,-0.0017444950062781572,0.0042151533998548985,-0.0001278652489418164,-0.3565540313720703,0.6055073738098145,0.9970588684082031,-1.4494080543518066,3.814507007598877,-4.850298881530762,0.3717399835586548,0.7305300831794739,0.42000001668930054,-0.9788994789123535,2.999999761581421,-0.4275047481060028,-3.0000009536743164,-0.05235235393047333,-0.06318146735429764,-0.07276701927185059,-0.08110709488391876,-0.866879403591156,-0.8747612237930298,-0.886001467704773,-0.8540339469909668
0.23333333333333334,0.07750027626752853,0.15465758740901947,0.0,0.9449091553688049,0.0,0.0,-0.3273327350616455,-0.07780280709266663,0.4805086851119995,0.0,0.0,0.0,-4.362956523895264,-0.3904443383216858,0.7629439830780029,0.4200000464916229,1.0,3.381893066034536e-06,-2.290935526616522e-06,2.72741203843907e-07,0.00026691603125073016,0.0002678006130736321,-0.00010433257557451725,-0.001739594736136496,0.004209807142615318,-0.00012843935110140592,-0.37906399369239807,0.6671179533004761,0.9092926383018494,-1.1228128671646118,3.486794948577881,-5.6200995445251465,0.3717399835586548,0.7305300831794739,0.42000001668930054,-0.9288907051086426,2.999998092651367,-0.47753214836120605,-3.000000238418579,-0.06668068468570709,-0.07729630917310715,-0.08676183223724365,-0.09443273395299911,-0.884831428527832,-0.849887490272522,-0.8227654099464417,-0.7720476388931274
0.25,0.07920068502426147,0.16564828157424927,0.0,0.9409106373786926,0.0,0.0,-0.33865487575531006,0.07377947866916656,0.6913943290710449,0.0,0.0,0.0,-0.4370120167732239,-0.3904443085193634,0.7629439830780029,0.4200000464916229,0.9999999403953552,3.7065622109366814e-06,-2.222981265731505e-06,-2.2555772716259526e-07,0.00026424723910167813,0.000266568356892094,-0.00010457751341164112,-0.001717002596706152,0.0041555180214345455,-0.00013063121878076345,-0.39782172441482544,0.714751124382019,0.8103969097137451,-0.9269992113113403,2.3467230796813965,-6.211374282836914,0.3717399835586548,0.7305300831794739,0.42000001668930054,-0.8788803815841675,3.0000011920928955,-0.5275615453720093,-3.0000009536743164,-0.08313187956809998,-0.09312019497156143,-0.10174358636140823,-0.10816878825426102,-1.0003165006637573,-1.0001107454299927,-0.9999997615814209,-0.969741940498352
0.26666666666666666,0.07752542942762375,0.17431136965751648,0.0,0.9321292638778687,0.0,0.0,-0.3621257245540619,-0.1262415498495102,0.43952977657318115,0.0,0.0,0.0,-3.8349709510803223,-0.3904443383216858,0.7629439830780029,0.4200000464916229,0.9999999403953552,3.7196462017163867e-06,-2.403447979304474e-06,-1.8313724581275892e-07,0.0002662329061422497,0.0002672921400517225,-0.00010425853542983532,-0.0017327220411971211,0.004196553491055965,-0.0001285112666664645,-0.40905171632766724,0.7470235824584961,0.7004497051239014,-0.38442087173461914,1.5559914112091064,-6.763187885284424,0.3717399835586548,0.7305300831794739,0.42000001668930054,-0.8288702964782715,2.999999523162842,-0.5775913000106812,-2.9999990463256836,-0.09963627904653549,-0.10960506647825241,-0.11817333847284317,-0.12453446537256241,-0.9929543733596802,-0.9941258430480957,-0.9882906079292297,-0.9770917892456055
0.2833333333333333,0.0734248012304306,0.17890214920043945,0.0,0.9300966858863831,0.0,0.0,-0.36731478571891785,-0.28647249937057495,0.2141115963459015,0.0,0.0,0.0,0.29734763503074646,-0.3904443383216858,0.7629440426826477,0.4200000464916229,0.9999999403953552,3.5840309919876745e-06,-2.3154766495281365e-06,7.399254542406197e-08,0.00026522090774960816,0.0002645533240865916,-0.00010317121632397175,-0.0017020802479237318,0.004185076337307692,-0.00012500105367507786,-0.4138273596763611,0.7623580098152161,0.5885611772537231,-0.0437040813267231,0.3462250828742981,-6.6311774253845215,0.3717399835586548,0.7305300831794739,0.42000001668930054,-0.7788614630699158,2.999995708465576,-0.627621054649353,-2.9999983310699463,-0.11649142950773239,-0.12638160586357117,-0.1348906010389328,-0.14119325578212738,-0.9959291815757751,-0.9967053532600403,-0.9973345398902893,-0.9978634715080261
0.3,0.06661326438188553,0.18032832443714142,0.0,0.9233308434486389,0.0,0.0,-0.3840053975582123,-0.46453481912612915,0.039994314312934875,0.0,0.0,0.0,-3.0010175704956055,-0.3904443383216858,0.7629439830780029,0.4200000464916229,1.0,3.724227326529217e-06,-2.271912762807915e-06,9.629899011542875e-08,0.00026312650879845023,0.000265258364379406,-0.00010438216850161552,-0.0016960541252046824,0.004134918563067913,-0.00013028219109401107,-0.4088214635848999,0.7649928331375122,0.48047128319740295,0.665873646736145,-0.09547556936740875,-6.161124229431152,0.3717399835586548,0.7305300831794739,0.42000001668930054,-0.7288527488708496,3.0000014305114746,-0.6776487827301025,-2.9999985694885254,-0.13411374390125275,-0.14378787577152252,-0.1521328240633011,-0.1583051234483719,-1.0131123065948486,-1.009918212890625,-1.0074783563613892,-1.0055208206176758
0.31666666666666665,0.057587798684835434,0.17915694415569305,0.0,0.9232748746871948,0.0,0.0,-0.3841400146484375,-0.5764775276184082,-0.11826329678297043,0.0,0.0,0.0,0.8755627870559692,-0.39044421911239624,0.7629430294036865,0.41999974846839905,0.9999999403953552,1.9088512999587692e-05,-3.7102310557202145e-07,3.090692189289257e-06,0.0011533203069120646,0.0018528088694438338,-0.0004373158735688776,-0.028786994516849518,0.019935796037316322,-0.010432429611682892,-0.40334707498550415,0.7659358978271484,0.4277634620666504,0.1500089466571808,-0.04618635028600693,-0.2919906675815582,0.3717399835586548,0.7305300831794739,0.42000001668930054,-0.6788474917411804,2.9999778270721436,-0.7280810475349426,-2.9995224475860596,-0.1459168791770935,-0.15583567321300507,-0.16427624225616455,-0.17034731805324554,-0.33451220393180847,-0.37346699833869934,-0.3940729796886444,-0.39245954155921936
0.3333333333333333,0.046416472643613815,0.17529311776161194,0.0,0.9177705645561218,0.0,0.0,-0.39711108803749084,-0.7199099063873291,-0.27569064497947693,0.0,0.0,0.0,-2.632080316543579,-0.38909152150154114,0.7651546001434326,0.4200134575366974,0.9997648596763611,0.00029224352329038084,4.4608932512346655e-05,-0.02168196253478527,0.20286285877227783,0.31571173667907715,0.006465383805334568,0.4152567982673645,-0.07027463614940643,-5.805877685546875,-0.402157187461853,0.7714536786079407,0.4252700209617615,0.15291301906108856,0.36402803659439087,-0.1871848851442337,0.3717399835586548,0.7305300831794739,0.42000001668930054,-0.628840982913971,2.999990701675415,-0.7781729102134705,-3.000000476837158,-0.15114238858222961,-0.1613892763853073,-0.1698380559682846,-0.17557567358016968,-0.34291383624076843,-0.33729538321495056,-0.31665465235710144,-0.2819962799549103
0.35,0.03307196870446205,0.16891910135746002,0.0,0.9186670780181885,0.0,0.0,-0.395032674074173,-0.8382729887962341,-0.42403915524482727,0.0,0.0,0.0,1.2005318403244019,-0.38476693630218506,0.7713670134544373,0.42000019550323486,0.996810793876648,3.179069608449936e-06,-7.393783744191751e-05,-0.07980065047740936,0.29536083340644836,0.4086507558822632,-0.00026657278067432344,-0.009982561692595482,0.007947638630867004,-7.582716464996338,-0.3974689245223999,0.7782294750213623,0.4219375252723694,0.4124469459056854,0.4343358278274536,-0.18704409897327423,0.3717399835586548,0.7305300831794739,0.42000001668930054,-0.5788358449935913,2.999980926513672,-0.828212320804596,-2.999999523162842,-0.15916164219379425,-0.16820940375328064,-0.17525234818458557,-0.1794489324092865,-0.5202776789665222,-0.4099804162979126,-0.28956139087677,-0.16539736092090607
0.36666666666666664,0.02334003522992134,0.15948931872844696,0.0,0.9138149619102478,0.0,0.0,-0.4061307907104492,-0.5038460493087769,-0.6159837245941162,0.0,0.0,0.0,-2.3067703247070312,-0.3800106644630432,0.7778308987617493,0.4200001657009125,0.9903240203857422,-1.1804893802036531e-05,1.7399503121851012e-05,-0.13877393305301666,0.3572463095188141,0.45587390661239624,-0.0009484331822022796,0.11564808338880539,-0.08520160615444183,-9.277504920959473,-0.3896501660346985,0.7845048308372498,0.419435054063797,0.5238414406776428,0.45965826511383057,0.001775205135345459,0.3717399835586548,0.7305300831794739,0.42000001668930054,-0.5288309454917908,2.9983246326446533,-0.878267228603363,-2.975966453552246,-0.1679151952266693,-0.17470639944076538,-0.17932257056236267,-0.1810576319694519,-0.4851153492927551,-0.3338587284088135,-0.17423735558986664,-0.015487956814467907
0.3833333333333333,0.011907784268260002,0.14842933416366577,0.0,0.9148369431495667,0.0,0.0,-0.4038234353065491,-0.7558403015136719,-0.6842968463897705,0.0,0.0,0.0,1.5362411737442017,-0.36955711245536804,0.7898896932601929,0.42054346203804016,0.9767299890518188,-0.013092572800815105,0.0020827562548220158,-0.2140626162290573,0.8677283525466919,0.9762619733810425,0.07734496891498566,-2.428074598312378,-1.3443324565887451,-7.605781555175781,-0.37838035821914673,0.7963725328445435,0.41996216773986816,0.8192968368530273,0.9420053362846375,0.06787428259849548,0.3717399835586548,0.7305300831794739,0.42000001668930054,-0.4788022041320801,2.9995310306549072,-0.9282817244529724,-3.0000100135803223,-0.17846371233463287,-0.1819264441728592,-0.18310363590717316,-0.18147480487823486,-0.6121357679367065,-0.4063759446144104,-0.19381849467754364,0.013825574889779091
0.4,0.003928861580789089,0.13461700081825256,0.0,0.9106475710868835,0.0,0.0,-0.41318395733833313,-0.41751664876937866,-0.8685346841812134,0.0,0.0,0.0,-2.146632671356201,-0.3541048765182495,0.8069416880607605,0.421033650636673,0.9615218043327332,-0.025522664189338684,0.006999169010668993,-0.2734505832195282,1.4184556007385254,0.6701470017433167,0.3108900785446167,-13.15025520324707,3.0205931663513184,-13.58082103729248,-0.36113089323043823,0.8117029666900635,0.4219391345977783,1.2296888828277588,0.8950135707855225,0.1398104429244995,0.3717399835586548,0.7305300831794739,0.42000001668930054,-0.4287453889846802,2.958038330078125,-0.9782896041870117,-2.9974281787872314,-0.18628354370594025,-0.18631885945796967,-0.18386317789554596,-0.17860393226146698,-0.44195473194122314,-0.21490393579006195,0.02510216273367405,0.26478156447410583
0.4166666666666667,-0.004266818985342979,0.11883155256509781,0.0,0.8933519124984741,0.0,0.0,-0.4493577480316162,-0.5537939667701721,-0.9767734408378601,0.0,0.0,0.0,-5.768477916717529,-0.3290218710899353,0.8229859471321106,0.42636269330978394,0.9414606094360352,-0.04019453749060631,-0.011226250790059566,-0.33452990651130676,2.034590721130371,1.115726113319397,0.32990896701812744,23.345043182373047,-14.759140968322754,7.19215202331543,-0.3351207375526428,0.8292422294616699,0.4266231656074524,1.8049025535583496,1.15958571434021,0.584600567817688,0.3717399835586548,0.7305300831794739,0.42000001668930054,-0.39084917306900024,1.2409628629684448,-1.0283117294311523,-3.000000476837158,-0.19435320794582367,-0.1907031238079071,-0.18439066410064697,-0.175323024392128,-0.4595071077346802,-0.2526184320449829,-0.03797309473156929,0.1718168407678604
0.43333333333333335,-0.010499362833797932,0.10027605295181274,0.0,0.8611837029457092,0.0,0.0,-0.508293867111206,-0.303688645362854,-1.170660138130188,0.0,0.0,0.0,-8.851123809814453,-0.28612932562828064,0.8461383581161499,0.4357849359512329,0.9220602512359619,0.00021780890529043972,-0.044338081032037735,-0.3844982087612152,3.7496581077575684,1.1582285165786743,0.9260372519493103,-1.0202343463897705,0.27643999457359314,10.862253189086914,-0.29126080870628357,0.8522690534591675,0.43582579493522644,3.492178440093994,1.6725494861602783,0.7274704575538635,0.3717399835586548,0.7305300831794739,0.42000001668930054,-0.37495145201683044,0.9941979050636292,-1.020990014076233,3.0000007152557373,-0.20330308377742767,-0.1957886517047882,-0.1855900138616562,-0.17283733189105988,-0.5790296196937561,-0.3260059058666229,-0.07804306596517563,0.15120939910411835
0.45,-0.014275193214416504,0.08714554458856583,0.0,0.811738908290863,0.0,0.0,-0.5840204954147339,-0.18377968668937683,-0.6525624394416809,0.0,0.0,0.0,-11.649986267089844,-0.2050330638885498,0.8737698793411255,0.4484530985355377,0.8926947116851807,0.04466689005494118,-0.07214464992284775,-0.4426015019416809,6.22498893737793,1.1297965049743652,0.8926932215690613,10.587119102478027,-13.353283882141113,26.70723533630371,-0.20963841676712036,0.880481481552124,0.4485952854156494,6.108197212219238,1.9029860496520996,0.9420999884605408,0.3717399835586548,0.7305300831794739,0.42000001668930054,-0.358115017414093,0.9883134365081787,-1.0120564699172974,-1.4858241081237793,-0.21844621002674103,-0.20701313018798828,-0.19165240228176117,-0.1744031459093094,-0.9046242833137512,-0.7711787223815918,-0.47128623723983765,-0.2210783064365387
0.4666666666666667,-0.021243009716272354,0.08192535489797592,0.0,0.7692264914512634,0.0,0.0,-0.6389761567115784,-0.5574566721916199,-0.3518502712249756,0.0,0.0,0.0,-6.989377975463867,-0.1074206754565239,0.8913047313690186,0.4648782014846802,0.8451298475265503,0.10301799327135086,-0.08896324783563614,-0.516941249370575,5.785208702087402,-0.18125483393669128,0.989335298538208,-3.1899635791778564,-22.584556579589844,27.466127395629883,-0.11075983941555023,0.899502158164978,0.46510839462280273,5.876136779785156,0.7539256811141968,1.065027117729187,0.3717399835586548,0.7305300831794739,0.42000001668930054,-0.34386003017425537,0.7294715046882629,-0.9832370281219482,2.9935386180877686,-0.2330993413925171,-0.22187179327011108,-0.20377425849437714,-0.1818641722202301,-0.5852869153022766,-0.6586388945579529,-0.6236214637756348,-0.4167556166648865
0.48333333333333334,-0.02382599748671055,0.06842277199029922,0.0,0.7484038472175598,0.0,0.0,-0.663243293762207,-0.024027295410633087,-0.9728050827980042,0.0,0.0,0.0,-2.8049654960632324,-0.007908914238214493,0.8957831859588623,0.47910571098327637,0.7823200821876526,0.11099535971879959,-0.09215052425861359,-0.6059401035308838,5.870635032653809,-1.0593180656433105,0.8900562524795532,9.966063499450684,-4.762609004974365,20.010404586791992,-0.011740378104150295,0.9045190811157227,0.47938188910484314,6.078813552856445,-0.28726544976234436,0.8102428913116455,0.3717399835586548,0.7305300831794739,0.42000001668930054,-0.3306654989719391,0.7448863387107849,-1.0077331066131592,-3.0000011920928955,-0.23599329590797424,-0.22574594616889954,-0.20721004903316498,-0.18249402940273285,-0.0699017345905304,-0.07281763106584549,-0.015368114225566387,0.1523137390613556
0.5,-0.02756563387811184,0.057055454701185226,0.0,0.7196751236915588,0.0,0.0,-0.6943109631538391,-0.26506608724594116,-0.5502732992172241,0.0,0.0,0.0,-5.655813217163086,0.08884432911872864,0.883335292339325,0.4870564937591553,0.7087646126747131,0.07962971925735474,-0.12370087951421738,-0.6899346113204956,5.27227783203125,-1.3945401906967163,0.12493116408586502,-34.87986373901367,-0.18940934538841248,14.720357894897461,0.08438141644001007,0.8939995765686035,0.4899298846721649,5.792125225067139,-1.025254249572754,0.5837366580963135,0.3717399835586548,0.7305300831794739,0.42000001668930054,-0.3190775215625763,0.593582272529602,-1.0577555894851685,-3.000000476837158,-0.23917922377586365,-0.22852277755737305,-0.20908093452453613,-0.182234525680542,-0.22033493220806122,-0.18553699553012848,-0.145945742726326,-0.06321821361780167
0.5166666666666666,-0.029421135783195496,0.051090486347675323,0.0,0.7066745162010193,0.0,0.0,-0.7075387835502625,-0.04481649771332741,-0.275829941034317,0.0,0.0,0.0,-1.0818278789520264,0.17496097087860107,0.8574899435043335,0.48790615797042847,0.6073397994041443,-0.0009611021378077567,-0.17734356224536896,-0.7743943333625793,4.574654579162598,-2.113311529159546,0.1381242424249649,-3.2841644287109375,10.514917373657227,-2.232799768447876,0.16985702514648438,0.8711483478546143,0.49483776092529297,4.697924613952637,-1.754899501800537,0.05397751182317734,0.3717399835586548,0.7305300831794739,0.42000001668930054,-0.3084358274936676,0.5831931829452515,-1.107777714729309,-2.9990100860595703,-0.2399417906999588,-0.2321213334798813,-0.2119680941104889,-0.1841622143983841,-0.0024304096587002277,-0.13264310359954834,-0.1111830621957779,-0.09749846160411835
0.5333333333333333,-0.027853574603796005,0.049191057682037354,0.0,0.6865690350532532,0.0,0.0,-0.7270646095275879,0.14628590643405914,-0.053075481206178665,0.0,0.0,0.0,-4.260490894317627,0.24439699947834015,0.8296576142311096,0.4823462963104248,0.5677793025970459,-0.030523190274834633,-0.15715020895004272,-0.8074643611907959,3.7151474952697754,-1.7903276681900024,-0.4831046164035797,-2.283496379852295,7.325497627258301,-7.268526554107666,0.24061369895935059,0.8425472974777222,0.48979079723358154,3.8256378173828125,-1.8355176448822021,-0.5499002933502197,0.3717399835586548,0.7305300831794739,0.42000001668930054,-0.2955666780471802,0.9523733258247375,-1.1577998399734497,-2.999964952468872,-0.2382824569940567,-0.23272521793842316,-0.21308009326457977,-0.18608622252941132,0.20016752183437347,0.07196705043315887,0.004294584039598703,-0.09411823749542236
0.55,-0.022586725652217865,0.04264220595359802,0.0,0.678580641746521,0.0,0.0,-0.7345259189605713,0.30001741647720337,-0.3530661463737488,0.0,0.0,0.0,-0.36701682209968567,0.2996864318847656,0.7999425530433655,0.46973276138305664,0.5349645018577576,-0.06750442832708359,-0.13355980813503265,-0.8315154314041138,2.691608190536499,-2.164372682571411,-0.7835713624954224,-7.688901424407959,11.80072021484375,-4.375348091125488,0.2972305417060852,0.811830997467041,0.47745633125305176,2.8444223403930664,-1.973961353302002,-0.8898419141769409,0.3717399835586548,0.7305300831794739,0.42000001668930054,-0.278359979391098,0.8751623034477234,-1.2078219652175903,-2.99954891204834,-0.23020301759243011,-0.22686152160167694,-0.20910589396953583,-0.18468378484249115,0.34176111221313477,0.27701690793037415,0.19017580151557922,0.04503822326660156
0.5666666666666667,-0.016068095341324806,0.04102111980319023,0.0,0.6609786152839661,0.0,0.0,-0.7504047155380249,0.44324320554733276,-0.035133421421051025,0.0,0.0,0.0,-3.7214128971099854,0.33953434228897095,0.7711465954780579,0.44943878054618835,0.5192041993141174,-0.10890167951583862,-0.12162557989358902,-0.8389127850532532,1.8632131814956665,-2.1473605632781982,-1.2773618698120117,-4.26003360748291,10.744174003601074,5.806942939758301,0.33776605129241943,0.7822730541229248,0.4577101469039917,2.061011791229248,-1.6605689525604248,-1.364271879196167,0.3717399835586548,0.7305300831794739,0.42000001668930054,-0.26682060956954956,0.4537622928619385,-1.2578327655792236,-2.999551296234131,-0.22461210191249847,-0.2224787473678589,-0.20670755207538605,-0.18526457250118256,0.3979001045227051,0.31718170642852783,0.16838271915912628,-0.04152994230389595
0.5833333333333334,-0.006895632948726416,0.04194282740354538,0.0,0.6573962569236755,0.0,0.0,-0.7535450458526611,0.5809117555618286,0.1328294575214386,0.0,0.0,0.0,0.36452510952949524,0.3670276999473572,0.7433200478553772,0.42398297786712646,0.5075845718383789,-0.16010798513889313,-0.10080298781394958,-0.8405724167823792,1.1605242490768433,-1.89536714553833,-1.5205533504486084,-1.2599217891693115,11.934297561645508,2.0687031745910645,0.36610910296440125,0.7540777921676636,0.4322895407676697,1.3041720390319824,-1.623051643371582,-1.6085684299468994,0.3717399835586548,0.7305300831794739,0.42000001668930054,-0.2596192955970764,0.4324067533016205,-1.3021379709243774,-2.3359017372131348,-0.21727025508880615,-0.21668587625026703,-0.2038295418024063,-0.1862773299217224,0.4423680603504181,0.3516490161418915,0.16438019275665283,-0.08205036073923111
0.6,-0.0005928230239078403,0.03794749453663826,0.0,0.6427112817764282,0.0,0.0,-0.766108512878418,0.38149261474609375,-0.27763503789901733,0.0,0.0,0.0,-3.0719220638275146,0.37913331389427185,0.7361944913864136,0.42289501428604126,0.5440123081207275,-0.05146998167037964,-0.03306270018219948,-0.8368441462516785,0.31183725595474243,-0.707509458065033,0.001007287297397852,-2.6827073097229004,2.7711181640625,8.633249282836914,0.37574464082717896,0.7428750991821289,0.42745423316955566,0.30585479736328125,-0.4733511209487915,-0.09467813372612,0.3717399835586548,0.7305300831794739,0.42000001668930054,-0.24775388836860657,0.9354801177978516,-1.261384129524231,3.000051975250244,-0.20318390429019928,-0.20406711101531982,-0.19588342308998108,-0.18370763957500458,0.5502954125404358,0.6215531826019287,0.37820956110954285,0.08498472720384598
0.6166666666666667,0.002905371831730008,0.03822151944041252,0.0,0.6413251757621765,0.0,0.0,-0.7672691941261292,0.14457054436206818,0.04128493741154671,0.0,0.0,0.0,0.5904549956321716,0.38120508193969727,0.728860080242157,0.4231693744659424,0.561272382736206,-0.06103365495800972,-0.008472366258502007,-0.8253341317176819,0.009884411469101906,-0.3907454013824463,0.07053360342979431,4.191534519195557,4.410846710205078,2.9681899547576904,0.37769725918769836,0.7349123954772949,0.42821699380874634,-0.00933191366493702,-0.32453644275665283,0.0876864492893219,0.3717399835586548,0.7305300831794739,0.42000001668930054,-0.24907514452934265,-0.729565441608429,-1.2815940380096436,-3.000126838684082,-0.19824564456939697,-0.1975492537021637,-0.19251315295696259,-0.18436457216739655,0.3560441732406616,0.40617671608924866,0.20720215141773224,-0.039369847625494
0.6333333333333333,0.007276588119566441,0.03586553409695625,0.0,0.6288256049156189,0.0,0.0,-0.7775463461875916,0.2734290361404419,-0.1846987009048462,0.0,0.0,0.0,-2.7338051795959473,0.3803013563156128,0.727307140827179,0.4220287501811981,0.5836334228515625,-0.03710959479212761,0.0015642408980056643,-0.8111672401428223,-0.15754497051239014,-0.18703672289848328,-0.12098026275634766,4.238725662231445,-3.1760551929473877,15.783429145812988,0.37633752822875977,0.7330535650253296,0.426350474357605,-0.27272406220436096,0.04392019286751747,-0.12179271131753922,0.3717399835586548,0.7305300831794739,0.42000001668930054,-0.25193214416503906,0.15582773089408875,-1.243423342704773,2.990649938583374,-0.19115012884140015,-0.19020938873291016,-0.1884756237268448,-0.1843225359916687,0.3836180567741394,0.3928731679916382,0.22051356732845306,0.009460799396038055
0.65,0.013563185930252075,0.03630684316158295,0.0,0.6301985383033752,0.0,0.0,-0.7764340043067932,0.3990522027015686,0.06566522270441055,0.0,0.0,0.0,1.1072592735290527,0.37753087282180786,0.7277994155883789,0.42128702998161316,0.6282071471214294,-0.021799420937895775,0.00984230823814869,-0.777678370475769,-0.15522055327892303,0.0807960033416748,-0.06626495718955994,3.245297908782959,-1.0253911018371582,8.216523170471191,0.3738461136817932,0.7332693338394165,0.42718592286109924,-0.10105130076408386,0.053327444940805435,0.12541989982128143,0.3717399835586548,0.7305300831794739,0.42000001668930054,-0.29100432991981506,-2.9996442794799805,-1.263847827911377,-2.9998600482940674,-0.1865883320569992,-0.1856120079755783,-0.18630805611610413,-0.18513651192188263,0.33145543932914734,0.2998616695404053,0.15044638514518738,-0.0258540790528059
0.6666666666666666,0.02185988798737526,0.035808954387903214,0.0,0.6534685492515564,0.0,0.0,-0.7569536566734314,0.544769823551178,-0.07033557444810867,0.0,0.0,0.0,4.700949192047119,0.375395268201828,0.7286657094955444,0.420002818107605,0.6570668816566467,-7.307680789381266e-06,-2.4413153369096108e-05,-0.7538322806358337,-0.08067847043275833,0.02485531009733677,-0.0007685493910685182,-0.03483770787715912,0.010906326584517956,2.2079265117645264,0.3721132278442383,0.7355088591575623,0.42965447902679443,-0.1309247612953186,0.19100022315979004,0.182460218667984,0.3717399835586548,0.7305300831794739,0.42000001668930054,-0.3409961462020874,-2.9999916553497314,-1.313820719718933,-2.998856782913208,-0.17854991555213928,-0.17866356670856476,-0.18190766870975494,-0.18360082805156708,0.5516766309738159,0.4734724164009094,0.3318611979484558,0.17537029087543488
0.6833333333333333,0.03197324648499489,0.032421890646219254,0.0,0.6632815003395081,0.0,0.0,-0.7483699917793274,0.6364118456840515,-0.23811978101730347,0.0,0.0,0.0,0.4999825954437256,0.373831182718277,0.7294526100158691,0.42000067234039307,0.6574675440788269,2.092067234116257e-06,3.003642405019491e-06,-0.7534827589988708,-0.08006580173969269,0.03749359771609306,-0.0006512535619549453,-0.01566617749631405,-0.003365886863321066,-0.030505448579788208,0.37046390771865845,0.7385399341583252,0.4338386654853821,-0.12055748701095581,0.1571240872144699,0.2751546800136566,0.3717399835586548,0.7305300831794739,0.42000001668930054,-0.391010046005249,-2.9890711307525635,-1.363789677619934,-3.000007152557373,-0.17123344540596008,-0.1719788908958435,-0.17646411061286926,-0.17953155934810638,0.3546469509601593,0.353189617395401,0.3359200358390808,0.314480185508728
0.7,0.04378160461783409,0.026148101314902306,0.0,0.6502178311347961,0.0,0.0,-0.7597478032112122,0.7422780990600586,-0.44369053840637207,0.0,0.0,0.0,-2.975510835647583,0.37339913845062256,0.7296561002731323,0.4200000464916229,0.6574263572692871,6.931018106115516e-07,-9.015928981170873e-08,-0.7535187602043152,-0.005743115674704313,0.00267745996825397,-3.3463584259152412e-06,-0.00019554272876121104,0.00014117997488938272,-0.0012855225941166282,0.37001755833625793,0.7412284016609192,0.4429498612880707,0.08318807929754257,0.132096529006958,0.9279538989067078,0.3717399835586548,0.7305300831794739,0.42000001668930054,-0.4410242736339569,-2.999983787536621,-1.4138078689575195,-2.9999992847442627,-0.16794373095035553,-0.16826757788658142,-0.17230120301246643,-0.17493529617786407,0.1106928214430809,0.15489432215690613,0.21497641503810883,0.2761073708534241
0.7166666666666667,0.05857231840491295,0.02414608746767044,0.0,0.6149857640266418,0.0,0.0,-0.7885382175445557,0.8778119087219238,-0.07835351675748825,0.0,0.0,0.0,-6.326480865478516,0.37339887022972107,0.7296562790870667,0.4200000464916229,0.6574265360832214,1.037019615068857e-06,-3.2680920867278473e-06,-0.7535186409950256,0.00022880479809828103,-0.00025631740572862327,-9.364308789372444e-05,0.004693462047725916,0.0009236850892193615,-0.00041378242895007133,0.37971770763397217,0.7386432886123657,0.4653118848800659,1.1250500679016113,-0.29220902919769287,1.8254293203353882,0.3717399835586548,0.7305300831794739,0.42000001668930054,-0.4910373389720917,-2.9998538494110107,-1.4638261795043945,-2.9999847412109375,-0.17246457934379578,-0.17102491855621338,-0.17288196086883545,-0.1733604520559311,-0.27799272537231445,-0.18058520555496216,-0.047204189002513885,0.08854780346155167
0.7333333333333333,0.070346400141716,0.02323741652071476,0.0,0.5949251651763916,0.0,0.0,-0.8037810921669006,0.6280089616775513,-0.00832835678011179,0.0,0.0,0.0,-1.986335039138794,0.3733988404273987,0.7296563386917114,0.4200000464916229,0.6574265360832214,6.698001584481972e-07,-3.758851562452037e-06,-0.7535186409950256,0.00022174566402100027,-0.00028328155167400837,-0.0001053730957210064,0.005240470636636019,0.0002821739763021469,-0.0004131184541620314,0.40077149868011475,0.7383041381835938,0.49645179510116577,1.2422972917556763,0.18694496154785156,1.912002444267273,0.3717399835586548,0.7305300831794739,0.42000001668930054,-0.5140223503112793,-0.008515920490026474,-1.5138444900512695,-3.000000238418579,-0.17441308498382568,-0.1724768877029419,-0.1731540709733963,-0.17240223288536072,-0.02919347956776619,-0.04461897909641266,-0.018145689740777016,0.009162269532680511
0.75,0.07722160220146179,0.02476547099649906,0.0,0.6004303097724915,0.0,0.0,-0.7996770739555359,0.33649516105651855,0.1378636211156845,0.0,0.0,0.0,1.6883478164672852,0.3733988404273987,0.7296563982963562,0.4200000464916229,0.6574265956878662,8.354382430297846e-07,-3.734326128324028e-06,-0.7535185217857361,0.00022508577967528254,-0.0002835757622960955,-0.00010628695599734783,0.0052337939850986,0.0003270012675784528,-0.00041981437243521214,0.4193045496940613,0.7430428266525269,0.5221953392028809,0.896277129650116,0.3424057960510254,1.2356295585632324,0.3717399835586548,0.7305300831794739,0.42000001668930054,-0.4946776032447815,2.126678705215454,-1.4780062437057495,3.000000476837158,-0.17335627973079681,-0.1718658208847046,-0.1722516566514969,-0.17119894921779633,0.12576620280742645,0.09517841786146164,0.10840241611003876,0.12001723796129227
0.7666666666666666,0.08000917732715607,0.022440262138843536,0.0,0.5940633416175842,0.0,0.0,-0.8044182658195496,0.12759724259376526,-0.21791212260723114,0.0,0.0,0.0,-1.87289559841156,0.3733988404273987,0.7296563982963562,0.4200000464916229,0.6574264764785767,6.014393534314877e-07,-3.792763436649693e-06,-0.7535187005996704,0.00021900692081544548,-0.0002833540493156761,-0.00010442337952554226,0.005257684271782637,0.00025256717344745994,-0.0004070177092216909,0.4270349144935608,0.7478442788124084,0.5359249711036682,0.02670327201485634,0.2191208451986313,0.589910626411438,0.3717399835586548,0.7305300831794739,0.42000001668930054,-0.4672808051109314,1.216477394104004,-1.4279536008834839,3.0,-0.17029236257076263,-0.169229194521904,-0.1693558692932129,-0.16812096536159515,0.15284886956214905,0.14665043354034424,0.17703786492347717,0.19821065664291382
0.7833333333333333,0.0796721950173378,0.024929853156208992,0.0,0.6002345681190491,0.0,0.0,-0.7998239994049072,-0.06755519658327103,0.28170153498649597,0.0,0.0,0.0,1.8051880598068237,0.3733988106250763,0.7296563982963562,0.4200000464916229,0.6574265956878662,4.818722345589777e-07,-3.895531335729174e-06,-0.7535185813903809,0.00021718013158533722,-0.00028200173983350396,-0.00010422640480101109,0.005234845448285341,0.00022775657998863608,-0.00040434481343254447,0.4264253079891205,0.7505738139152527,0.544044554233551,-0.08857320249080658,0.2005504071712494,0.4062557816505432,0.3717399835586548,0.7305300831794739,0.42000001668930054,-0.4424934685230255,1.6960457563400269,-1.445543885231018,-2.999999761581421,-0.1731313169002533,-0.17108413577079773,-0.16975489258766174,-0.16735661029815674,-0.22401678562164307,-0.1599920690059662,-0.07115022093057632,-0.0015174696454778314
0.8,0.08139748871326447,0.0249346736818552,0.0,0.5944240093231201,0.0,0.0,-0.8041517734527588,0.11331196874380112,0.015393541194498539,0.0,0.0,0.0,-1.5734765529632568,0.3733988404273987,0.7296563982963562,0.4200000464916229,0.6574267148971558,5.964566867078247e-07,-3.7087172586325323e-06,-0.7535184621810913,0.0002192048414144665,-0.0002834073966369033,-0.00010444410145282745,0.005257737822830677,0.0002555018290877342,-0.00040734026697464287,0.4201178550720215,0.7526171207427979,0.5437250137329102,-0.7231491804122925,0.004836831241846085,-0.23186741769313812,0.3717399835586548,0.7305300831794739,0.42000001668930054,-0.4421307444572449,-1.3880411386489868,-1.4069690704345703,3.0,-0.17417892813682556,-0.17148539423942566,-0.16908304393291473,-0.1658637374639511,-0.16545189917087555,-0.09861606359481812,-0.009393943473696709,0.06335389614105225
0.8166666666666667,0.08506890386343002,0.02586919628083706,0.0,0.6014175415039062,0.0,0.0,-0.7989348769187927,0.22119557857513428,0.00889177992939949,0.0,0.0,0.0,1.7448164224624634,0.3733988106250763,0.7296563386917114,0.4200000464916229,0.6574265360832214,7.739482157376187e-07,-3.7244410577841336e-06,-0.7535185813903809,0.00022433215053752065,-0.0002830366720445454,-0.0001061554066836834,0.005225858651101589,0.0003188651171512902,-0.00041857591713778675,0.4111775755882263,0.7521786093711853,0.540311336517334,-0.339915931224823,0.022838395088911057,-0.1438230723142624,0.3717399835586548,0.7305300831794739,0.42000001668930054,-0.48293331265449524,-2.999988555908203,-1.4249646663665771,-2.999999523162842,-0.17656637728214264,-0.17283904552459717,-0.16893553733825684,-0.164346843957901,0.03681090101599693,0.059197887778282166,0.1168883889913559,0.1776382029056549
0.8333333333333334,0.08986510336399078,0.023625973612070084,0.0,0.5952562093734741,0.0,0.0,-0.8035359382629395,0.3238534927368164,-0.19745060801506042,0.0,0.0,0.0,-1.821860432624817,0.3733988106250763,0.7296563982963562,0.4200000464916229,0.6574264764785767,7.592452107019199e-07,-3.535190444381442e-06,-0.7535185813903809,0.00022385256306733936,-0.0002828601573128253,-0.00010604993440210819,0.005223265383392572,0.0003120536857750267,-0.0004177249502390623,0.4091755747795105,0.7503833770751953,0.5344133377075195,0.10164377838373184,-0.22625961899757385,-0.3658178448677063,0.3717399835586548,0.7305300831794739,0.42000001668930054,-0.5329421758651733,-2.9999966621398926,-1.4749829769134521,-3.000000238418579,-0.17696811258792877,-0.17250493168830872,-0.16725914180278778,-0.1612147092819214,-0.020586082711815834,0.03687085956335068,0.13016848266124725,0.23271934688091278
0.85,0.09717924892902374,0.018517740070819855,0.0,0.5673556327819824,0.0,0.0,-0.8234728574752808,0.47816240787506104,-0.39986440539360046,0.0,0.0,0.0,-5.001652240753174,0.3733988106250763,0.7296563982963562,0.4200000464916229,0.657426655292511,5.93208312693605e-07,-3.8458729250123724e-06,-0.7535184621810913,0.00022182438988238573,-0.00028202342218719423,-0.00010560499504208565,0.005214058328419924,0.0002872388286050409,-0.0004140961682423949,0.4140057861804962,0.7427549362182617,0.5323140621185303,0.5146621465682983,-0.6069125533103943,0.24680264294147491,0.3717399835586548,0.7305300831794739,0.42000001668930054,-0.5829490423202515,-2.9999754428863525,-1.5250012874603271,-3.000000238418579,-0.17923201620578766,-0.17355570197105408,-0.16657622158527374,-0.15867005288600922,-0.1368890404701233,-0.06834624707698822,0.027782952412962914,0.13141222298145294
0.8666666666666667,0.10732734203338623,0.01596091315150261,0.0,0.5547451972961426,0.0,0.0,-0.8320202827453613,0.6343144774436951,-0.09430854022502899,0.0,0.0,0.0,-0.7599250674247742,0.3733988106250763,0.7296563386917114,0.4200000464916229,0.6574263572692871,7.677097073610639e-07,-3.841978923446732e-06,-0.75351881980896,0.00022548696142621338,-0.0002828457218129188,-0.00010649021714925766,0.005216637160629034,0.0003351967316120863,-0.00042101083090528846,0.4208800792694092,0.7378541231155396,0.5395709276199341,0.34099966287612915,-0.04201885685324669,0.5681096315383911,0.3717399835586548,0.7305300831794739,0.42000001668930054,-0.6026426553726196,0.3618970215320587,-1.5750195980072021,-2.999999523162842,-0.18171289563179016,-0.17554105818271637,-0.1677149534225464,-0.15887975692749023,-0.021421976387500763,-0.049895502626895905,-0.06172695755958557,-0.06867174059152603
0.8833333333333333,0.11411194503307343,0.015867793932557106,0.0,0.5680550336837769,0.0,0.0,-0.8229905366897583,0.3294580280780792,0.03371446579694748,0.0,0.0,0.0,2.7679033279418945,0.3733988106250763,0.7296563982963562,0.4200000464916229,0.6574264764785767,6.026039045536891e-07,-3.946117431041785e-06,-0.7535186409950256,0.00022248820459935814,-0.00028199932421557605,-0.00010583596304059029,0.005209852941334248,0.0002945970627479255,-0.0004155700153205544,0.4276800751686096,0.7406673431396484,0.5451309680938721,0.3966515064239502,0.2800298035144806,0.12648174166679382,0.3717399835586548,0.7305300831794739,0.42000001668930054,-0.5747095346450806,2.7580230236053467,-1.5360743999481201,2.999999761581421,-0.17904449999332428,-0.1740027219057083,-0.1670660376548767,-0.15901868045330048,0.24248376488685608,0.16102874279022217,0.08875914663076401,0.02046421356499195
0.9,0.11620985716581345,0.011485635302960873,0.0,0.5676004886627197,0.0,0.0,-0.8233041167259216,0.09174425154924393,-0.3273316025733948,0.0,0.0,0.0,-1.0861124992370605,0.3733988404273987,0.7296563982963562,0.4200000464916229,0.6574265956878662,5.860327405571297e-07,-3.760891786441789e-06,-0.7535185217857361,0.00021947301866021007,-0.00028348021442070603,-0.00010451627895236015,0.005257976241409779,0.00025852557155303657,-0.0004078691708855331,0.4312741160392761,0.743987500667572,0.5451016426086426,0.03560744971036911,0.08350663632154465,0.015882164239883423,0.3717399835586548,0.7305300831794739,0.42000001668930054,-0.56508868932724,-1.2630765438079834,-1.4860203266143799,3.000000238418579,-0.17287351191043854,-0.16944009065628052,-0.16400335729122162,-0.15738782286643982,0.27274373173713684,0.20180760324001312,0.13169370591640472,0.06155415251851082
