vladlanda/robotic-transformer/data/env_000_episode_0172.csv
sim_time_s,robot_box_x,robot_box_y,robot_box_z,robot_box_quat_w,robot_box_quat_x,robot_box_quat_y,robot_box_quat_z,robot_box_linvel_x,robot_box_linvel_y,robot_box_linvel_z,robot_box_angvel_x,robot_box_angvel_y,robot_box_angvel_z,cube_world_x,cube_world_y,cube_world_z,cube_quat_w,cube_quat_x,cube_quat_y,cube_quat_z,cube_linvel_x,cube_linvel_y,cube_linvel_z,cube_angvel_x,cube_angvel_y,cube_angvel_z,endpoint_world_x,endpoint_world_y,endpoint_world_z,endpoint_linvel_x,endpoint_linvel_y,endpoint_linvel_z,target_cube_world_x,target_cube_world_y,target_cube_world_z,gripper_actual_pos_rad_gp_leftgearjoint,gripper_actual_vel_rad_s_gp_leftgearjoint,gripper_actual_pos_rad_gp_rotatingjoint,gripper_actual_vel_rad_s_gp_rotatingjoint,motor_angle_rad_joint1,motor_angle_rad_joint2,motor_angle_rad_joint3,motor_angle_rad_joint4,motor_speed_rad_s_joint1,motor_speed_rad_s_joint2,motor_speed_rad_s_joint3,motor_speed_rad_s_joint4
0.0,0.0,0.0,0.0,1.0,0.0,0.0,0.0,0.0,0.0,0.0,0.0,0.0,0.0,-0.3828467130661011,0.7004018425941467,0.41999998688697815,1.0,0.0,0.0,0.0,0.0,0.0,0.0,0.0,0.0,0.0,3.42540442943573e-06,-0.005000244826078415,1.313499927520752,0.0,0.0,0.0,0.4348541498184204,0.6938382983207703,0.42000001668930054,-1.5707999467849731,0.0,0.0,0.0,0.0,0.0,0.0,0.0,0.0,0.0,0.0,0.0
0.016666666666666666,0.0028795315884053707,0.0021788126323372126,0.0,0.9998120069503784,0.0,0.0,0.019388219341635704,0.24092093110084534,0.18233948945999146,0.0,0.0,0.0,3.1418306827545166,-0.3828468322753906,0.7004015445709229,0.41999998688697815,1.0,3.279964630564791e-06,-8.339746386809566e-07,8.465587342243452e-08,-1.9833529222523794e-05,0.00017983045836444944,-6.132945418357849e-05,0.0009432713268324733,-0.004689474124461412,-0.00031981561915017664,-0.007109610363841057,0.0033845535945147276,1.3159377574920654,-0.8141613006591797,0.9870617985725403,0.18095813691616058,0.4348541498184204,0.6938382983207703,0.42000001668930054,-1.5301095247268677,3.000000476837158,-0.045848384499549866,-2.999999523162842,0.0008699359023012221,0.0007965872646309435,0.0007111350423656404,0.0006109859677962959,0.11094144731760025,0.09757956117391586,0.0833575651049614,0.06825222820043564
0.03333333333333333,0.008962959982454777,0.00679903756827116,0.0,0.9998000264167786,0.0,0.0,0.01999826543033123,0.4070412218570709,0.31524309515953064,0.0,0.0,0.0,-0.8691060543060303,-0.3828469514846802,0.7004014849662781,0.4200000464916229,1.0,3.3908354453160428e-06,-2.1324485715012997e-06,-3.710144014235084e-08,0.00026357831666246057,0.00026937946677207947,-0.00010509486310184002,-0.0017707672668620944,0.004130808170884848,-0.000135478752781637,-0.027546048164367676,0.02627062052488327,1.316587209701538,-1.5907652378082275,1.6168818473815918,-0.08624478429555893,0.4348541498184204,0.6938382983207703,0.42000001668930054,-1.4800903797149658,3.0000007152557373,-0.09588821232318878,-3.0000007152557373,0.0029904518742114305,0.0026527082081884146,0.0022772345691919327,0.001860697171650827,0.16418300569057465,0.1397395133972168,0.11380182951688766,0.08628405630588531
0.05,0.01847257651388645,0.013899186626076698,0.0,0.999976396560669,0.0,0.0,-0.006871627643704414,0.6362492442131042,0.4722828269004822,0.0,0.0,0.0,-4.074090480804443,-0.38284698128700256,0.7004015445709229,0.4200000464916229,1.0,3.7651125239790417e-06,-2.211879063906963e-06,5.622505128144439e-09,0.000265308452071622,0.0002669153327587992,-0.00010440615005791187,-0.001724260626360774,0.004177352879196405,-0.00012949221127200872,-0.05717157572507858,0.0576225146651268,1.3118503093719482,-1.9500732421875,2.0718517303466797,-0.46438583731651306,0.4348541498184204,0.6938382983207703,0.42000001668930054,-1.4300720691680908,3.0,-0.14592689275741577,-2.999999523162842,0.006013171747326851,0.005173759069293737,0.004262047354131937,0.0032736826688051224,0.207147017121315,0.16679127514362335,0.1245124563574791,0.08023422211408615
0.06666666666666667,0.030788294970989227,0.02338743954896927,0.0,0.9998812079429626,0.0,0.0,-0.015411687083542347,0.7726001143455505,0.6161257028579712,0.0,0.0,0.0,-0.03820617124438286,-0.38284698128700256,0.7004014849662781,0.4200000464916229,0.9999999403953552,3.4066883927152958e-06,-2.285532218593289e-06,4.300976286231162e-07,0.0002670241810847074,0.00026791772688739,-0.00010438147000968456,-0.00174069800414145,0.00421178387477994,-0.00012850729399360716,-0.0932609960436821,0.09128300845623016,1.3012465238571167,-2.2433724403381348,2.136737108230591,-0.7975321412086487,0.4348541498184204,0.6938382983207703,0.42000001668930054,-1.3800461292266846,2.999999523162842,-0.1555865854024887,1.4580597877502441,0.00860678032040596,0.007008327171206474,0.005297193303704262,0.0034682571422308683,0.13540391623973846,0.08037131279706955,0.023180268704891205,-0.036225542426109314
0.08333333333333333,0.03691406920552254,0.03673926368355751,0.0,0.9992284178733826,0.0,0.0,-0.039274897426366806,0.22580645978450775,0.8761192560195923,0.0,0.0,0.0,-3.8100733757019043,-0.38284698128700256,0.7004014849662781,0.4200000464916229,0.9999999403953552,3.626031229941873e-06,-2.3352447442448465e-06,3.032197639640799e-07,0.0002661392209120095,0.0002668500819709152,-0.00010405294597148895,-0.0017282416811212897,0.00419628107920289,-0.00012790791515726596,-0.12561719119548798,0.13095274567604065,1.2858099937438965,-1.6678032875061035,2.6271538734436035,-0.9808125495910645,0.4348541498184204,0.6938382983207703,0.42000001668930054,-1.3300397396087646,2.999999523162842,-0.19556528329849243,-2.9999990463256836,0.004656251519918442,0.0022797309793531895,-0.0002635222626850009,-0.0029823246877640486,-0.36667999625205994,-0.4265812635421753,-0.48926374316215515,-0.5549672245979309
0.1,0.046714428812265396,0.05171685293316841,0.0,0.9958828091621399,0.0,0.0,-0.09065030515193939,0.7363098859786987,0.9044249653816223,0.0,0.0,0.0,-6.968874454498291,-0.38284698128700256,0.7004014849662781,0.4200000464916229,1.0,3.4220790894323727e-06,-2.3084901386027923e-06,1.7962952369998675e-07,0.00026681559393182397,0.0002680041070561856,-0.00010440824553370476,-0.001743067754432559,0.004207110498100519,-0.0001289140636799857,-0.15509822964668274,0.1770959347486496,1.26886785030365,-1.8588435649871826,2.9247469902038574,-1.1052989959716797,0.4348541498184204,0.6938382983207703,0.42000001668930054,-1.2800220251083374,3.0000030994415283,-0.19061873853206635,3.0,0.002966851694509387,-0.0009453945676796138,-0.005029246676713228,-0.009293632581830025,-0.004859535023570061,-0.1059257835149765,-0.20600563287734985,-0.3050451874732971
0.11666666666666667,0.05522198602557182,0.06377986073493958,0.0,0.9924784898757935,0.0,0.0,-0.12241935729980469,0.5384533405303955,0.6858883500099182,0.0,0.0,0.0,-2.580364227294922,-0.38284698128700256,0.7004015445709229,0.4200000464916229,1.0,3.7115073610038962e-06,-2.3326228983933106e-06,2.57426904681779e-07,0.00026485775015316904,0.0002663534542080015,-0.00010423525236546993,-0.0017181745497509837,0.004170077387243509,-0.0001291574299102649,-0.18906019628047943,0.22271108627319336,1.249354600906372,-1.963620901107788,2.929879665374756,-1.1537885665893555,0.4348541498184204,0.6938382983207703,0.42000001668930054,-1.2300329208374023,3.0000009536743164,-0.22210372984409332,-2.999999761581421,0.0006524432683363557,-0.004906656686216593,-0.01061178557574749,-0.01647154986858368,-0.05412815883755684,-0.17440083622932434,-0.2914051413536072,-0.40495723485946655
0.13333333333333333,0.06162407621741295,0.07310932129621506,0.0,0.9864733815193176,0.0,0.0,-0.16392144560813904,0.31451475620269775,0.48393937945365906,0.0,0.0,0.0,-5.755213260650635,-0.38284698128700256,0.7004014849662781,0.4200000464916229,0.9999999403953552,3.4247434541612165e-06,-2.301918129887781e-06,1.559943285656118e-07,0.00026707028155215085,0.0002681135665625334,-0.00010444503277540207,-0.0017433665925636888,0.0042120604775846004,-0.00012877194967586547,-0.22038647532463074,0.2769560217857361,1.226088523864746,-1.7513147592544556,3.6335928440093994,-1.6083447933197021,0.4348541498184204,0.6938382983207703,0.42000001668930054,-1.1800190210342407,2.9999964237213135,-0.18819399178028107,2.999999761581421,-0.0016199727542698383,-0.009058983996510506,-0.016580065712332726,-0.024189790710806847,-0.2154509574174881,-0.3162080943584442,-0.41311612725257874,-0.5060557126998901
0.15,0.06388577073812485,0.08317261934280396,0.0,0.9799935221672058,0.0,0.0,-0.19902929663658142,0.06740507483482361,0.6499471664428711,0.0,0.0,0.0,-3.6350557804107666,-0.38284698128700256,0.7004014849662781,0.4200000464916229,1.0,3.713894102475024e-06,-2.207782927143853e-06,-1.690906259455005e-07,0.000263532972894609,0.0002653604024089873,-0.00010421779006719589,-0.0017012703465297818,0.004144108854234219,-0.00012960596359334886,-0.2545459568500519,0.3348703980445862,1.1942490339279175,-2.0495505332946777,3.583065986633301,-2.226081609725952,0.4348541498184204,0.6938382983207703,0.42000001668930054,-1.1448568105697632,1.3362942934036255,-0.21971650421619415,-3.000000476837158,-0.0067231967113912106,-0.015574895776808262,-0.024432949721813202,-0.03330286219716072,-0.37210237979888916,-0.43793389201164246,-0.49934154748916626,-0.556355893611908
0.16666666666666666,0.06959659606218338,0.09512107074260712,0.0,0.9682518243789673,0.0,0.0,-0.24997684359550476,0.35727229714393616,0.7666271328926086,0.0,0.0,0.0,-7.098755836486816,-0.38284698128700256,0.7004014849662781,0.4200000464916229,0.9999999403953552,3.638363523350563e-06,-2.2787546640756773e-06,2.7007297376258066e-07,0.00026682831230573356,0.0002675004070624709,-0.00010410277172923088,-0.0017399663338437676,0.004210250452160835,-0.00012781910481862724,-0.2886359989643097,0.399675190448761,1.1506999731063843,-1.8979538679122925,4.153428077697754,-3.004336357116699,0.4348541498184204,0.6938382983207703,0.42000001668930054,-1.099100112915039,2.9999992847442627,-0.2697203457355499,-2.9999988079071045,-0.01228085346519947,-0.022073404863476753,-0.03179926052689552,-0.041466064751148224,-0.49065810441970825,-0.513625979423523,-0.5337884426116943,-0.5514050722122192
0.18333333333333332,0.0722586140036583,0.10487725585699081,0.0,0.9595270752906799,0.0,0.0,-0.28161635994911194,0.13150011003017426,0.5217465758323669,0.0,0.0,0.0,-2.775315523147583,-0.38284698128700256,0.7004014849662781,0.4200000464916229,1.0,3.386441903785453e-06,-2.3001909994491143e-06,1.4392985292488447e-07,0.00026674664695747197,0.00026787363458424807,-0.00010437029413878918,-0.0017413290916010737,0.004206034820526838,-0.00012878714187536389,-0.32186007499694824,0.4655975103378296,1.0919255018234253,-1.7020626068115234,4.120591640472412,-3.919412612915039,0.4348541498184204,0.6938382983207703,0.42000001668930054,-1.049099326133728,3.0000014305114746,-0.3197472095489502,-3.0000009536743164,-0.023502787575125694,-0.03303011879324913,-0.042468950152397156,-0.0518377348780632,-0.7057941555976868,-0.678163468837738,-0.6494991779327393,-0.6204639077186584
0.2,0.07439359277486801,0.11584153771400452,0.0,0.9458338618278503,0.0,0.0,-0.3246510624885559,0.12763670086860657,0.6683021783828735,0.0,0.0,0.0,-6.269796371459961,-0.38284698128700256,0.7004015445709229,0.4200000464916229,1.0,3.67552570423868e-06,-2.326474941583001e-06,2.211330638601794e-07,0.0002648457884788513,0.0002663124760147184,-0.00010421779006719589,-0.0017177596455439925,0.004169980529695749,-0.00012909664656035602,-0.34779369831085205,0.5343544483184814,1.0195438861846924,-1.2670109272003174,4.14973258972168,-4.654019355773926,0.4348541498184204,0.6938382983207703,0.42000001668930054,-0.9990925192832947,2.9999990463256836,-0.36977267265319824,-2.9999992847442627,-0.03730158507823944,-0.0460960790514946,-0.054796893149614334,-0.06343670934438705,-0.8329147696495056,-0.7888844013214111,-0.7443590760231018,-0.700080931186676
0.21666666666666667,0.07885725051164627,0.12291409075260162,0.0,0.9377216100692749,0.0,0.0,-0.3473876714706421,0.3704368472099304,0.29981890320777893,0.0,0.0,0.0,-1.7499525547027588,-0.38284698128700256,0.7004014849662781,0.4200000464916229,1.0,3.3223188893316546e-06,-2.207966417699936e-06,2.742777382991335e-07,0.0002666293876245618,0.0002674947609193623,-0.00010426202788949013,-0.0017357135657221079,0.004204758442938328,-0.00012833744403906167,-0.3708146810531616,0.5955367088317871,0.9351856708526611,-1.1116278171539307,3.4466094970703125,-5.400495529174805,0.4348541498184204,0.6938382983207703,0.42000001668930054,-0.9490837454795837,3.0,-0.4198009669780731,-3.0000014305114746,-0.05280012637376785,-0.06099661812186241,-0.06852930784225464,-0.07578471302986145,-0.9188452959060669,-0.9126794934272766,-0.8438512086868286,-0.7480434775352478
0.23333333333333334,0.07895863056182861,0.13312552869319916,0.0,0.9238534569740295,0.0,0.0,-0.3827464282512665,0.002232684288173914,0.5856859087944031,0.0,0.0,0.0,-5.272562503814697,-0.38284698128700256,0.7004014849662781,0.4200000464916229,1.0,3.656558874354232e-06,-2.373421239099116e-06,-4.07681653769032e-07,0.0002661168109625578,0.00026725910720415413,-0.00010423432104289532,-0.0017335852608084679,0.004194697830826044,-0.00012854808301199228,-0.3842484951019287,0.6439822912216187,0.8371210098266602,-0.46883824467658997,2.5203704833984375,-6.061342716217041,0.4348541498184204,0.6938382983207703,0.42000001668930054,-0.89907306432724,2.9999983310699463,-0.46983107924461365,-3.000000238418579,-0.06965745240449905,-0.07770916819572449,-0.08515322953462601,-0.09233229607343674,-0.692851185798645,-0.746543824672699,-0.7968969941139221,-0.8423112630844116
0.25,0.08379616588354111,0.13749423623085022,0.0,0.9165495038032532,0.0,0.0,-0.3999212384223938,0.282713919878006,0.19496284425258636,0.0,0.0,0.0,-1.0630691051483154,-0.38284698128700256,0.7004015445709229,0.4200000464916229,1.0,3.6305639241618337e-06,-2.242603613922256e-06,1.1206775951677628e-08,0.00026679999427869916,0.0002670604735612869,-0.00010390859097242355,-0.0017342414939776063,0.0042106076143682,-0.00012702932872343808,-0.3946841359138489,0.6764432191848755,0.7357144355773926,-0.40463942289352417,1.445635199546814,-6.188023567199707,0.4348541498184204,0.6938382983207703,0.42000001668930054,-0.849062442779541,2.9999992847442627,-0.5198616981506348,-2.999999761581421,-0.08072187006473541,-0.08908107131719589,-0.09684731066226959,-0.10433313995599747,-0.9221410751342773,-0.8839988112449646,-0.850907564163208,-0.8211448788642883
0.26666666666666666,0.08306510001420975,0.1460857391357422,0.0,0.9222272038459778,0.0,0.0,-0.3866484463214874,-0.04440949484705925,0.46698233485221863,0.0,0.0,0.0,2.490184783935547,-0.3828469514846802,0.7004014849662781,0.4200000464916229,0.9999999403953552,3.740145530173322e-06,-2.2362976324075134e-06,4.499700310134358e-07,0.0002647962246555835,0.00026673031970858574,-0.00010454049333930016,-0.0017189658246934414,0.004166740458458662,-0.00013016746379435062,-0.4035693407058716,0.687606930732727,0.6394935846328735,-0.5296183824539185,0.13190858066082,-5.354225158691406,0.4348541498184204,0.6938382983207703,0.42000001668930054,-0.7990533113479614,2.9999992847442627,-0.5698913931846619,-2.9999983310699463,-0.09783980250358582,-0.10607115179300308,-0.1137794479727745,-0.12123926728963852,-0.7057775259017944,-0.7734708189964294,-0.8370394110679626,-0.893118143081665
0.2833333333333333,0.08113832026720047,0.14905118942260742,0.0,0.9211642146110535,0.0,0.0,-0.38917413353919983,-0.20364736020565033,0.18576006591320038,0.0,0.0,0.0,-1.104854941368103,-0.38284698128700256,0.7004014849662781,0.4200000464916229,1.0,3.3916744541784283e-06,-2.291099690410192e-06,1.245939671434826e-07,0.0002667730441316962,0.00026789261028170586,-0.0001043747179210186,-0.001741221291013062,0.00420632166787982,-0.00012878607958555222,-0.40959930419921875,0.6947886943817139,0.5503914952278137,-0.07258440554141998,0.372126042842865,-5.108478546142578,0.4348541498184204,0.6938382983207703,0.42000001668930054,-0.7490445375442505,3.0000016689300537,-0.6199201941490173,-3.000002145767212,-0.11031342297792435,-0.11960384994745255,-0.1283201426267624,-0.1366744339466095,-1.0329374074935913,-1.0248552560806274,-1.0186978578567505,-1.0137900114059448
0.3,0.07611984014511108,0.15018315613269806,0.0,0.9261512160301208,0.0,0.0,-0.37715238332748413,-0.34751376509666443,0.028475414961576462,0.0,0.0,0.0,2.390716552734375,-0.38284698128700256,0.7004015445709229,0.4200000464916229,1.0,3.680724148580339e-06,-2.319047325727297e-06,2.0107752618514496e-07,0.0002647917135618627,0.00026625802274793386,-0.00010421290062367916,-0.0017169015482068062,0.0041690124198794365,-0.00012909753422718495,-0.40837863087654114,0.7021726369857788,0.46873152256011963,0.3076264262199402,0.4026913046836853,-4.820998191833496,0.4348541498184204,0.6938382983207703,0.42000001668930054,-0.6990417838096619,2.999999523162842,-0.6699468493461609,-3.0000033378601074,-0.12734100222587585,-0.13653595745563507,-0.14518345892429352,-0.15348610281944275,-1.0039225816726685,-1.0029733180999756,-1.0022486448287964,-1.0016676187515259
0.31666666666666665,0.06879106909036636,0.14887608587741852,0.0,0.9247410297393799,0.0,0.0,-0.38059696555137634,-0.4835893511772156,-0.12117543071508408,0.0,0.0,0.0,-1.327383041381836,-0.38284698128700256,0.7004014849662781,0.4200000464916229,1.0,3.3042595077859005e-06,-2.2214348973648157e-06,2.535415148940956e-07,0.00026660808362066746,0.00026745093055069447,-0.00010424340143799782,-0.0017352963332086802,0.004204468801617622,-0.0001282812445424497,-0.40449637174606323,0.7063460350036621,0.4252149760723114,0.08322028815746307,-0.010581564158201218,-0.24874207377433777,0.4348541498184204,0.6938382983207703,0.42000001668930054,-0.6490371227264404,2.999988079071045,-0.7203644514083862,-3.000455617904663,-0.1405562162399292,-0.149505615234375,-0.15777236223220825,-0.16552022099494934,-0.5595434308052063,-0.5209348797798157,-0.46454596519470215,-0.3868037164211273
0.3333333333333333,0.059238411486148834,0.1450912058353424,0.0,0.9291523098945618,0.0,0.0,-0.36969709396362305,-0.6187097430229187,-0.2691211700439453,0.0,0.0,0.0,2.26362943649292,-0.3825880289077759,0.7029066681861877,0.41999998688697815,0.9989095330238342,4.355481166840036e-07,8.694056305103004e-06,-0.04668709263205528,0.07257816195487976,0.35670027136802673,-9.746067371452227e-05,0.006348127033561468,-0.00197942485101521,-12.789266586303711,-0.4033348560333252,0.7127412557601929,0.4215505123138428,0.20493200421333313,0.5063860416412354,-0.20547990500926971,0.4348541498184204,0.6938382983207703,0.42000001668930054,-0.5990315675735474,2.9999852180480957,-0.7704145312309265,-3.0000011920928955,-0.15105724334716797,-0.15860992670059204,-0.16517139971256256,-0.17086263000965118,-0.6365395188331604,-0.5283812880516052,-0.40159398317337036,-0.2540658712387085
0.35,0.049092818051576614,0.13879747688770294,0.0,0.9274008870124817,0.0,0.0,-0.374068945646286,-0.6278131008148193,-0.422709584236145,0.0,0.0,0.0,-1.4853897094726562,-0.38109275698661804,0.7089029550552368,0.4199987053871155,0.991010308265686,0.00011346138489898294,-3.38662248395849e-05,-0.1337854415178299,0.13656935095787048,0.41816678643226624,0.04045381769537926,-2.1736271381378174,0.4323033392429352,2.876864433288574,-0.39922869205474854,0.7187876105308533,0.4214668571949005,0.312089204788208,0.3810761570930481,0.18429765105247498,0.4348541498184204,0.6938382983207703,0.42000001668930054,-0.5490247011184692,2.9992072582244873,-0.8204547166824341,-2.9999594688415527,-0.16270342469215393,-0.16783957183361053,-0.171657994389534,-0.17426475882530212,-0.6634314060211182,-0.504324197769165,-0.32575467228889465,-0.1274181306362152
0.36666666666666664,0.03716936334967613,0.13013587892055511,0.0,0.9311807155609131,0.0,0.0,-0.36455798149108887,-0.7578819394111633,-0.5580294728279114,0.0,0.0,0.0,2.222543478012085,-0.3749910295009613,0.7202374935150146,0.42108434438705444,0.9850526452064514,-0.027423705905675888,0.004475015681236982,-0.16999779641628265,0.5524899363517761,0.8743125796318054,0.04485946521162987,-2.2270724773406982,0.6672970056533813,-6.808303356170654,-0.3914051949977875,0.7294507026672363,0.422703355550766,0.6351385116577148,0.8547024726867676,-0.0013805218040943146,0.4348541498184204,0.6938382983207703,0.42000001668930054,-0.4990197718143463,2.999990940093994,-0.870478630065918,-3.000000476837158,-0.17409992218017578,-0.17621636390686035,-0.1766783595085144,-0.1756071299314499,-0.6336990594863892,-0.44801968336105347,-0.24214376509189606,-0.017430223524570465
0.3833333333333333,0.028795020654797554,0.11870873719453812,0.0,0.9293445944786072,0.0,0.0,-0.3692135214805603,-0.41576871275901794,-0.7323976755142212,0.0,0.0,0.0,-1.511040449142456,-0.3647477328777313,0.7356917262077332,0.4203152358531952,0.9761652946472168,-0.007317893207073212,0.0020106693264096975,-0.21689562499523163,0.6298599243164062,0.9386534094810486,-0.07479000836610794,3.65413761138916,-1.5063271522521973,-5.880362510681152,-0.3775411546230316,0.7433841228485107,0.4216192960739136,0.9529715776443481,0.7771000266075134,0.11149654537439346,0.4348541498184204,0.6938382983207703,0.42000001668930054,-0.4489607810974121,2.999985933303833,-0.9204874038696289,-2.9999799728393555,-0.18343374133110046,-0.18229863047599792,-0.17914904654026031,-0.17414860427379608,-0.4569389522075653,-0.2604531943798065,-0.04228728264570236,0.1944124400615692
0.4,0.017972905188798904,0.10570121556520462,0.0,0.9158144593238831,0.0,0.0,-0.4016016125679016,-0.7358084917068481,-0.8049647212028503,0.0,0.0,0.0,-5.148656368255615,-0.34545886516571045,0.7520167827606201,0.42309024930000305,0.9624965786933899,-0.04773908481001854,-0.0023109589237719774,-0.26705029606819153,1.499626874923706,0.9105340242385864,0.14294667541980743,31.050268173217773,-14.839654922485352,14.513473510742188,-0.35704946517944336,0.7608541250228882,0.42393845319747925,1.550355076789856,1.2445054054260254,0.28433477878570557,0.4348541498184204,0.6938382983207703,0.42000001668930054,-0.401513934135437,2.1351490020751953,-0.9705070853233337,-2.9998860359191895,-0.19263240694999695,-0.18801718950271606,-0.1810578852891922,-0.17198769748210907,-0.5330104827880859,-0.3315523862838745,-0.11332322657108307,0.11728432774543762
0.4166666666666667,0.01024248544126749,0.08974889665842056,0.0,0.8886171579360962,0.0,0.0,-0.4586496651172638,-0.4269699156284332,-1.000146508216858,0.0,0.0,0.0,-8.354098320007324,-0.3115074932575226,0.7757052779197693,0.4293031692504883,0.9456754922866821,-0.04206635057926178,-0.01099885068833828,-0.3221914768218994,2.85945725440979,1.3137108087539673,0.4024786949157715,18.784427642822266,6.114914894104004,-1.5534543991088867,-0.32174152135849,0.7852383852005005,0.4285580515861511,2.688671112060547,1.7141729593276978,0.5863326787948608,0.4348541498184204,0.6938382983207703,0.42000001668930054,-0.3784468472003937,1.282667875289917,-0.9515787363052368,2.99656343460083,-0.20030167698860168,-0.1924818456172943,-0.18207065761089325,-0.16938316822052002,-0.5101311802864075,-0.29829755425453186,-0.0755540281534195,0.1520669013261795
0.43333333333333335,0.0045040384866297245,0.07875873893499374,0.0,0.8450283408164978,0.0,0.0,-0.5347215533256531,-0.2976900339126587,-0.5357741713523865,0.0,0.0,0.0,-11.27466869354248,-0.24114105105400085,0.807197093963623,0.43717148900032043,0.9226166009902954,0.018859077244997025,-0.05507194250822067,-0.38130027055740356,5.757631301879883,1.7331722974777222,0.5402210354804993,11.987552642822266,-13.577351570129395,20.038042068481445,-0.25035524368286133,0.8180373907089233,0.4359697699546814,5.491272926330566,2.3379130363464355,0.5426693558692932,0.4348541498184204,0.6938382983207703,0.42000001668930054,-0.36116206645965576,0.8517029285430908,-0.9015702605247498,2.9956016540527344,-0.21495960652828217,-0.20293258130550385,-0.18755494058132172,-0.17022404074668884,-0.8810263872146606,-0.6944631338119507,-0.40576401352882385,-0.148416206240654
0.45,0.002419492229819298,0.07102633267641068,0.0,0.7915437817573547,0.0,0.0,-0.6111124157905579,-0.061103615909814835,-0.4332514703273773,0.0,0.0,0.0,-11.184378623962402,-0.145314022898674,0.8419941067695618,0.44582781195640564,0.8809327483177185,0.056342627853155136,-0.08598282933235168,-0.46194154024124146,6.347282886505127,1.3513317108154297,0.7374261617660522,18.886676788330078,-7.795562267303467,28.256763458251953,-0.15326160192489624,0.8549007773399353,0.4447740912437439,6.286592483520508,2.142122983932495,0.5947309136390686,0.4348541498184204,0.6938382983207703,0.42000001668930054,-0.34794116020202637,0.7899962067604065,-0.9275999069213867,-3.0000016689300537,-0.22409914433956146,-0.2126857340335846,-0.19375425577163696,-0.173395037651062,-0.43872302770614624,-0.4890368580818176,-0.33873212337493896,-0.22145976126194
0.4666666666666667,-0.0020630285143852234,0.06708743423223495,0.0,0.7500287890434265,0.0,0.0,-0.6614052057266235,-0.24113716185092926,-0.16103358566761017,0.0,0.0,0.0,-6.347122669219971,-0.043497323989868164,0.8640965819358826,0.4568338394165039,0.8166126012802124,0.08408086746931076,-0.09401138126850128,-0.5632370710372925,5.995739459991455,-0.14742712676525116,0.7422729134559631,5.9930219650268555,-9.119786262512207,35.82411575317383,-0.05043287202715874,0.879734992980957,0.45549196004867554,6.3294453620910645,1.0292928218841553,0.6861292719841003,0.4348541498184204,0.6938382983207703,0.42000001668930054,-0.3360646069049835,0.5308068990707397,-0.9775989651679993,-3.000002384185791,-0.23529888689517975,-0.2228977233171463,-0.200689896941185,-0.17780014872550964,-0.6041216850280762,-0.540336549282074,-0.37986597418785095,-0.2603609263896942
0.48333333333333334,-0.001982904737815261,0.057807616889476776,0.0,0.7307623624801636,0.0,0.0,-0.6826319098472595,-0.003516320837661624,-0.5485895276069641,0.0,0.0,0.0,-2.2168896198272705,0.05679022893309593,0.8699541687965393,0.46615511178970337,0.7493866086006165,0.08233709633350372,-0.07827024906873703,-0.652314305305481,5.394955158233643,-1.5139509439468384,0.5379784107208252,-14.317625999450684,-7.988572597503662,32.13500213623047,0.051424525678157806,0.886988639831543,0.4651196300983429,6.09666109085083,-0.2803494930267334,0.6949770450592041,0.4348541498184204,0.6938382983207703,0.42000001668930054,-0.3295924663543701,0.0657200813293457,-1.0276219844818115,-3.000002861022949,-0.24005553126335144,-0.22701217234134674,-0.20232976973056793,-0.17752118408679962,-0.332363486289978,-0.38147321343421936,-0.1677848994731903,0.010343348607420921
0.5,-0.0054669491946697235,0.053619131445884705,0.0,0.7030678987503052,0.0,0.0,-0.7111227512359619,-0.19726742804050446,-0.2377215474843979,0.0,0.0,0.0,-5.456569194793701,0.14965441823005676,0.8557804226875305,0.4707103371620178,0.6762542724609375,0.05744116008281708,-0.07980119436979294,-0.7300769686698914,4.956508159637451,-2.245072603225708,0.17167448997497559,-8.845741271972656,-8.222845077514648,36.16565704345703,0.14516925811767578,0.8735542893409729,0.4717824459075928,5.678500652313232,-1.2040870189666748,0.24827435612678528,0.4348541498184204,0.6938382983207703,0.42000001668930054,-0.3313595950603485,-0.34796327352523804,-1.0776441097259521,-3.0000007152557373,-0.23965592682361603,-0.23565328121185303,-0.2074413150548935,-0.17967861890792847,0.043460551649332047,-0.3451765179634094,-0.18996861577033997,-0.06017808988690376
0.5166666666666666,-0.006261307280510664,0.05200152099132538,0.0,0.6907670497894287,0.0,0.0,-0.7230773568153381,0.008566882461309433,0.01318254042416811,0.0,0.0,0.0,-0.8456488251686096,0.2323637306690216,0.8287062644958496,0.4678981602191925,0.5761588215827942,-0.024033814668655396,-0.12134504318237305,-0.80792236328125,4.40250301361084,-2.0842933654785156,0.11476445943117142,-3.8592097759246826,12.762301445007324,-1.5952190160751343,0.2285453975200653,0.8491621017456055,0.4730689525604248,4.522893905639648,-1.7750211954116821,-0.16417555510997772,0.4348541498184204,0.6938382983207703,0.42000001668930054,-0.3334384262561798,0.006784948520362377,-1.1276662349700928,-2.9996767044067383,-0.2387363314628601,-0.2396896332502365,-0.20980052649974823,-0.18074049055576324,0.08460953086614609,-0.14146335422992706,-0.09805400669574738,-0.07496372610330582
0.5333333333333333,-0.003898380324244499,0.04764585942029953,0.0,0.6702190637588501,0.0,0.0,-0.7421633005142212,0.16498051583766937,-0.2868310809135437,0.0,0.0,0.0,-4.231175899505615,0.2996026873588562,0.7990493178367615,0.4600578546524048,0.5277979373931885,-0.05038955435156822,-0.10374430567026138,-0.8415030241012573,3.580413579940796,-2.171020030975342,-0.23997434973716736,-2.380964994430542,22.166656494140625,-0.45427778363227844,0.2981175482273102,0.8203927278518677,0.46613478660583496,3.7574076652526855,-1.891218662261963,-0.7103664875030518,0.4348541498184204,0.6938382983207703,0.42000001668930054,-0.3275705575942993,0.4653378129005432,-1.1776883602142334,-2.9971842765808105,-0.23388247191905975,-0.23797835409641266,-0.20863473415374756,-0.18035201728343964,0.2724163234233856,0.15484341979026794,0.09026509523391724,0.011130626313388348
0.55,0.0010076428297907114,0.04717298224568367,0.0,0.6628478169441223,0.0,0.0,-0.7487541437149048,0.3177817761898041,0.0031678734812885523,0.0,0.0,0.0,-0.16390486061573029,0.35251128673553467,0.7658898234367371,0.44671061635017395,0.48306798934936523,-0.08986616134643555,-0.07710964977741241,-0.8675386905670166,2.5938050746917725,-2.682483434677124,-0.6646702885627747,2.3946337699890137,6.8810133934021,3.327397584915161,0.3530123829841614,0.7869988679885864,0.4532783627510071,2.8566291332244873,-2.003568172454834,-0.9426506757736206,0.4348541498184204,0.6938382983207703,0.42000001668930054,-0.31917092204093933,0.3504575490951538,-1.227710485458374,-2.9997823238372803,-0.23139238357543945,-0.23624871671199799,-0.20822767913341522,-0.18149417638778687,0.24603970348834991,0.2146403193473816,0.08133266866207123,-0.058770664036273956
0.5666666666666667,0.007931015454232693,0.04341285675764084,0.0,0.6461329460144043,0.0,0.0,-0.7632248401641846,0.46048426628112793,-0.26674097776412964,0.0,0.0,0.0,-3.5025782585144043,0.3932654857635498,0.736208438873291,0.4265943169593811,0.4901062846183777,-0.14030496776103973,-0.07173389941453934,-0.8573006391525269,2.0387821197509766,-1.6228257417678833,-1.380375862121582,-4.83596134185791,5.137858867645264,-0.1678238958120346,0.3941648006439209,0.7568772435188293,0.4330008625984192,2.046764612197876,-1.71895170211792,-1.360386848449707,0.4348541498184204,0.6938382983207703,0.42000001668930054,-0.3120024502277374,0.8434430360794067,-1.2777173519134521,-2.9999983310699463,-0.22462879121303558,-0.23011839389801025,-0.2053416669368744,-0.18183982372283936,0.4057425260543823,0.3909316062927246,0.17172537744045258,-0.04465590789914131
0.5833333333333334,0.017041951417922974,0.0430138036608696,0.0,0.6428430080413818,0.0,0.0,-0.7659979462623596,0.5904223322868347,0.021324697881937027,0.0,0.0,0.0,0.4600582420825958,0.4147036671638489,0.7217246294021606,0.42372146248817444,0.47550246119499207,-0.07277889549732208,-0.0007311132503673434,-0.8766983151435852,0.8665919303894043,-0.9359297752380371,-0.01213943213224411,5.965301990509033,0.6279387474060059,10.824835777282715,0.4139607548713684,0.7378885746002197,0.4276962876319885,0.7676438093185425,-0.7922823429107666,0.01225125789642334,0.4348541498184204,0.6938382983207703,0.42000001668930054,-0.2949811518192291,1.2337875366210938,-1.2434791326522827,3.0000011920928955,-0.21853382885456085,-0.22415579855442047,-0.20335769653320312,-0.1836256980895996,0.4634612798690796,0.43329066038131714,0.15173575282096863,-0.10909008234739304
0.6,0.02364090271294117,0.03842735290527344,0.0,0.6291717290878296,0.0,0.0,-0.7772663235664368,0.32784077525138855,-0.31152820587158203,0.0,0.0,0.0,-2.9229018688201904,0.42455407977104187,0.713597297668457,0.4222458302974701,0.5100710391998291,-0.04385271295905113,-0.007104718592017889,-0.8589842319488525,0.286921888589859,-0.6534279584884644,0.18479712307453156,9.140901565551758,9.155640602111816,13.511816024780273,0.42235347628593445,0.7278962731361389,0.4266074597835541,0.1541282832622528,-0.5128140449523926,-0.08896340429782867,0.4348541498184204,0.6938382983207703,0.42000001668930054,-0.2914493680000305,-0.379899799823761,-1.2001254558563232,2.234800338745117,-0.2078399360179901,-0.21417367458343506,-0.19850033521652222,-0.18347325921058655,0.5312920212745667,0.5294821262359619,0.24995657801628113,-0.007401365786790848
0.6166666666666667,0.028039833530783653,0.03811262920498848,0.0,0.6285015940666199,0.0,0.0,-0.7778082489967346,0.18816418945789337,-0.013368816114962101,0.0,0.0,0.0,0.6775779724121094,0.4250980019569397,0.7059987187385559,0.42322397232055664,0.5264609456062317,-0.04737038537859917,0.031656671315431595,-0.8482880592346191,-0.09743869304656982,-0.6343295574188232,0.22273297607898712,5.591685771942139,9.640360832214355,5.748234272003174,0.4227614998817444,0.7195255756378174,0.4269859790802002,-0.07597082108259201,-0.3319224715232849,0.10243072360754013,0.4348541498184204,0.6938382983207703,0.42000001668930054,-0.2897389829158783,0.14166642725467682,-1.227952003479004,-2.99481201171875,-0.20303824543952942,-0.20849642157554626,-0.19664059579372406,-0.18512564897537231,0.3582775890827179,0.3926294445991516,0.15179093182086945,-0.06628868728876114
0.6333333333333333,0.03291656821966171,0.034244269132614136,0.0,0.61602783203125,0.0,0.0,-0.7877243757247925,0.3056451976299286,-0.26922884583473206,0.0,0.0,0.0,-2.802250385284424,0.42379260063171387,0.704965353012085,0.4217517077922821,0.5602571964263916,-0.03048519603908062,0.008554930798709393,-0.8277133107185364,-0.20416131615638733,-0.38598865270614624,0.040064699947834015,8.729144096374512,5.194138526916504,13.878727912902832,0.42008301615715027,0.7172035574913025,0.425376832485199,-0.3320009112358093,0.02445688098669052,-0.10656489431858063,0.4348541498184204,0.6938382983207703,0.42000001668930054,-0.28714418411254883,0.10658813267946243,-1.1899431943893433,2.996427059173584,-0.1946028470993042,-0.2000034898519516,-0.19248220324516296,-0.18486879765987396,0.4884965121746063,0.49967074394226074,0.25755631923675537,0.03990186005830765
0.65,0.039884619414806366,0.03328343853354454,0.0,0.6170857548713684,0.0,0.0,-0.7868959307670593,0.44509583711624146,-0.0006795735680498183,0.0,0.0,0.0,1.0434633493423462,0.4217158257961273,0.7055869102478027,0.422353595495224,0.6047988533973694,-0.030248582363128662,0.035092417150735855,-0.7950294017791748,-0.0872807502746582,0.11471529304981232,0.07350828498601913,5.91121768951416,3.5760552883148193,6.533124923706055,0.41758325695991516,0.7168338298797607,0.42638319730758667,-0.07354384660720825,0.005198963452130556,0.13268446922302246,0.4348541498184204,0.6938382983207703,0.42000001668930054,-0.32661980390548706,-3.00004506111145,-1.2112045288085938,-2.999959707260132,-0.1884559690952301,-0.19361959397792816,-0.18977904319763184,-0.18542809784412384,0.40490567684173584,0.3971373438835144,0.17179889976978302,-0.027783678844571114
0.6666666666666666,0.04880265146493912,0.03524203225970268,0.0,0.6396579146385193,0.0,0.0,-0.7686597108840942,0.5748733878135681,0.21426250040531158,0.0,0.0,0.0,4.351341724395752,0.42017027735710144,0.7072864770889282,0.4222109913825989,0.6351938247680664,-0.02904248610138893,0.044046804308891296,-0.7705486416816711,-0.10921456664800644,0.09770279377698898,-0.0329100601375103,-0.6811138987541199,-1.34368896484375,2.719994068145752,0.4159291982650757,0.718234658241272,0.4289790391921997,-0.12779797613620758,0.14304161071777344,0.1919294148683548,0.4348541498184204,0.6938382983207703,0.42000001668930054,-0.37658900022506714,-2.9999845027923584,-1.2611676454544067,-2.9983816146850586,-0.18113070726394653,-0.1867210417985916,-0.18652895092964172,-0.18534201383590698,0.4483337104320526,0.4180508553981781,0.21438363194465637,0.039303191006183624
0.6833333333333333,0.059741053730249405,0.03302327170968056,0.0,0.6490145325660706,0.0,0.0,-0.7607760429382324,0.652029812335968,-0.1365068554878235,0.0,0.0,0.0,0.41818684339523315,0.4184437394142151,0.7086321115493774,0.42039772868156433,0.6461718082427979,-0.006029428448528051,0.00692148320376873,-0.7631366848945618,-0.10399527847766876,0.07170149683952332,-0.1261017918586731,-1.1883116960525513,-6.733396530151367,1.0893967151641846,0.4156152606010437,0.7221721410751343,0.43364325165748596,-0.04291480779647827,0.17618298530578613,0.33744025230407715,0.4348541498184204,0.6938382983207703,0.42000001668930054,-0.42659053206443787,-2.9999940395355225,-1.311138391494751,-2.999913215637207,-0.16903255879878998,-0.17555731534957886,-0.17870254814624786,-0.1802511364221573,0.6082519888877869,0.6056265234947205,0.478676438331604,0.3849923610687256
0.7,0.0716407373547554,0.02815539389848709,0.0,0.6351215243339539,0.0,0.0,-0.7724122405052185,0.7712644338607788,-0.3252456784248352,0.0,0.0,0.0,-3.051389217376709,0.41791555285453796,0.7087936997413635,0.42000001668930054,0.6466503739356995,-5.316967872204259e-06,-3.0397491173062008e-06,-0.7627864480018616,-2.2541931684827432e-05,-0.00048336866893805563,-0.00025050551630556583,0.00102912075817585,0.006004800088703632,0.002062272746115923,0.41913288831710815,0.7256340384483337,0.4440009891986847,0.4410944879055023,0.13818493485450745,1.011617660522461,0.4348541498184204,0.6938382983207703,0.42000001668930054,-0.4766034781932831,-2.9999961853027344,-1.3611568212509155,-3.0,-0.16156445443630219,-0.1676386147737503,-0.17207995057106018,-0.17442232370376587,0.24044454097747803,0.308731347322464,0.2884323000907898,0.2933724820613861
0.7166666666666667,0.08740527182817459,0.028534529730677605,0.0,0.5983805656433105,0.0,0.0,-0.8012120127677917,0.9051242470741272,0.046007029712200165,0.0,0.0,0.0,-6.479183673858643,0.4179149866104126,0.7087934613227844,0.42000001668930054,0.6466508507728577,-1.761803559929831e-06,-5.042715201852843e-06,-0.7627861499786377,0.00013875019794795662,-0.0003709826269187033,-9.992043487727642e-05,0.007849469780921936,-0.0015052101807668805,-0.0003202486550435424,0.43500739336013794,0.722834050655365,0.46691030263900757,1.5435091257095337,-0.3009059727191925,1.8286997079849243,0.4348541498184204,0.6938382983207703,0.42000001668930054,-0.5266160368919373,-2.999886989593506,-1.4111751317977905,-2.9999890327453613,-0.164939746260643,-0.16860651969909668,-0.1718924343585968,-0.17280198633670807,-0.1783444583415985,-0.04768911004066467,0.02592070773243904,0.11645831167697906
0.7333333333333333,0.09924247115850449,0.029929017648100853,0.0,0.5762878060340881,0.0,0.0,-0.8172468543052673,0.6312710046768188,0.09438212215900421,0.0,0.0,0.0,-2.207566976547241,0.4179149866104126,0.7087934613227844,0.42000001668930054,0.6466509103775024,-1.854427750913601e-06,-4.417111540533369e-06,-0.7627860307693481,0.00013412303815130144,-0.00036866706795990467,-0.00010059354826807976,0.007783586159348488,-0.0015439417911693454,-0.00030998175498098135,0.4613581895828247,0.7221556901931763,0.4978855848312378,1.5289092063903809,0.16401571035385132,1.8826584815979004,0.4348541498184204,0.6938382983207703,0.42000001668930054,-0.5483277440071106,0.13466249406337738,-1.4611934423446655,-2.9999992847442627,-0.16576898097991943,-0.16815747320652008,-0.17092587053775787,-0.17111919820308685,0.05337940901517868,0.08382256329059601,0.07737269997596741,0.0775163322687149
0.75,0.10622596740722656,0.03311172500252724,0.0,0.5803913474082947,0.0,0.0,-0.8143376708030701,0.37261444330215454,0.28306859731674194,0.0,0.0,0.0,1.440295696258545,0.4179149866104126,0.7087934613227844,0.42000001668930054,0.6466509103775024,-1.8391535832051886e-06,-4.500699105847161e-06,-0.7627860903739929,0.00013415588182397187,-0.00036904201260767877,-0.00010070251300930977,0.007791345473378897,-0.0015448732301592827,-0.0003099593741353601,0.4835394322872162,0.7269749641418457,0.5238528251647949,1.0267360210418701,0.32242023944854736,1.2765103578567505,0.4348541498184204,0.6938382983207703,0.42000001668930054,-0.5257419347763062,2.362539529800415,-1.4835692644119263,0.06682521104812622,-0.16397583484649658,-0.16594445705413818,-0.16875053942203522,-0.1689528077840805,0.031163007020950317,0.07707259804010391,0.10056605935096741,0.11801663786172867
0.7666666666666666,0.10954471677541733,0.032474301755428314,0.0,0.574500322341919,0.0,0.0,-0.8185043931007385,0.14733023941516876,-0.13289102911949158,0.0,0.0,0.0,-2.1065621376037598,0.4179149866104126,0.7087934613227844,0.42000001668930054,0.6466509699821472,-1.711744971544249e-06,-4.538379471341614e-06,-0.7627860307693481,0.00013471170677803457,-0.0003687951248139143,-0.00010046805255115032,0.007786814589053392,-0.001534991548396647,-0.0003111361002083868,0.4926985204219818,0.7332262992858887,0.5386705994606018,0.07462753355503082,0.42778727412223816,0.6749767065048218,0.4348541498184204,0.6938382983207703,0.42000001668930054,-0.48536261916160583,2.4410111904144287,-1.4359582662582397,2.9999992847442627,-0.16176411509513855,-0.16319610178470612,-0.16572777926921844,-0.1658206582069397,0.16195225715637207,0.1917056143283844,0.20996694266796112,0.21355143189430237
0.7833333333333333,0.10972615331411362,0.03576137498021126,0.0,0.579598069190979,0.0,0.0,-0.8149024844169617,-0.030973000451922417,0.34942618012428284,0.0,0.0,0.0,1.6208758354187012,0.4179149866104126,0.7087934613227844,0.42000001668930054,0.6466508507728577,-1.8495690028430545e-06,-4.45211844635196e-06,-0.7627860307693481,0.000134136964334175,-0.0003688695724122226,-0.00010065571404993534,0.00778763135895133,-0.0015443881275132298,-0.0003099517780356109,0.48905688524246216,0.7404558658599854,0.5503356456756592,-0.4802916646003723,0.49979376792907715,0.724087119102478,0.4348541498184204,0.6938382983207703,0.42000001668930054,-0.4376583993434906,3.0000009536743164,-1.4534040689468384,-3.000000238418579,-0.16441737115383148,-0.1643773913383484,-0.16562950611114502,-0.16484041512012482,-0.24818062782287598,-0.15448705852031708,-0.06891017407178879,-0.010252983309328556
0.8,0.10754094272851944,0.0367167666554451,0.0,0.5734306573867798,0.0,0.0,-0.8192541003227234,-0.19698607921600342,0.026492398232221603,0.0,0.0,0.0,-1.6616926193237305,0.4179149866104126,0.7087934613227844,0.42000001668930054,0.6466509699821472,-1.7653126178629464e-06,-4.518286004895344e-06,-0.7627859115600586,0.0001362514594802633,-0.000369422254152596,-0.00010019750334322453,0.007804682478308678,-0.0015178907196968794,-0.00031433129333890975,0.474111944437027,0.7468999624252319,0.5559086799621582,-1.3160288333892822,0.2746843993663788,0.14612829685211182,0.4348541498184204,0.6938382983207703,0.42000001668930054,-0.42557406425476074,-1.1974234580993652,-1.414806842803955,3.000000238418579,-0.1670638769865036,-0.16559815406799316,-0.16543146967887878,-0.16362722218036652,-0.20399892330169678,-0.10130809247493744,0.004986035171896219,0.08669808506965637
0.8166666666666667,0.10748005658388138,0.03565606847405434,0.0,0.5801734924316406,0.0,0.0,-0.81449294090271,0.04389147832989693,-0.14100857079029083,0.0,0.0,0.0,1.7876417636871338,0.4179149866104126,0.7087934613227844,0.42000001668930054,0.6466509103775024,-1.8479532855053549e-06,-4.42798227595631e-06,-0.7627860307693481,0.00013405219942796975,-0.00036883342545479536,-0.00010067503899335861,0.0077866376377642155,-0.0015454808017238975,-0.00030978149152360857,0.4551098346710205,0.7514628171920776,0.5579183101654053,-0.9760092496871948,0.30449214577674866,0.1419200897216797,0.4348541498184204,0.6938382983207703,0.42000001668930054,-0.43676310777664185,-0.22039437294006348,-1.4326566457748413,-3.0,-0.17170077562332153,-0.16825000941753387,-0.165945902466774,-0.16237640380859375,-0.22260180115699768,-0.11531567573547363,0.006989766377955675,0.11130185425281525
0.8333333333333334,0.1098129004240036,0.031738512217998505,0.0,0.5743829011917114,0.0,0.0,-0.8185867667198181,0.19001099467277527,-0.2822900712490082,0.0,0.0,0.0,-1.7275385856628418,0.4179149866104126,0.7087934613227844,0.42000001668930054,0.6466509699821472,-1.7297123804382863e-06,-4.6522754928446375e-06,-0.7627859711647034,0.00013515760656446218,-0.00036899669794365764,-0.00010039214976131916,0.0077929189428687096,-0.0015309989685192704,-0.00031213738839142025,0.4421626329421997,0.753395676612854,0.5561387538909912,-0.5315757989883423,-0.030014224350452423,-0.15860286355018616,0.4348541498184204,0.6938382983207703,0.42000001668930054,-0.4746326208114624,-2.999999761581421,-1.3941174745559692,2.999999523162842,-0.17608436942100525,-0.17064747214317322,-0.16598960757255554,-0.16027264297008514,-0.25658226013183594,-0.12978972494602203,0.023853560909628868,0.16927261650562286
0.85,0.11611899733543396,0.031009076163172722,0.0,0.5452141165733337,0.0,0.0,-0.8382968306541443,0.3187207579612732,0.011743641458451748,0.0,0.0,0.0,-5.00495719909668,0.4179149866104126,0.7087934613227844,0.42000001668930054,0.646651029586792,-1.855957066254632e-06,-4.57542591902893e-06,-0.7627859115600586,0.00013332140224520117,-0.00036844072747044265,-0.00010078423656523228,0.007775541860610247,-0.0015525250928476453,-0.0003082134062424302,0.43786153197288513,0.7455839514732361,0.5554637908935547,0.09940250217914581,-0.6534809470176697,0.2480306625366211,0.4348541498184204,0.6938382983207703,0.42000001668930054,-0.5246394276618958,-2.9999501705169678,-1.4123815298080444,-2.9999983310699463,-0.18430843949317932,-0.1762147843837738,-0.1684562861919403,-0.1597861647605896,-0.3107968866825104,-0.20556429028511047,-0.06612688302993774,0.07361674308776855
0.8666666666666667,0.12370862811803818,0.031944453716278076,0.0,0.5342332720756531,0.0,0.0,-0.8453370928764343,0.4904044270515442,0.11399193853139877,0.0,0.0,0.0,-0.5434138774871826,0.4179149866104126,0.7087934613227844,0.42000001668930054,0.6466509103775024,-1.8578780327516142e-06,-4.475811238080496e-06,-0.7627859711647034,0.00013303267769515514,-0.00036813897895626724,-0.00010077981278300285,0.007768116891384125,-0.0015546499053016305,-0.0003076332504861057,0.44381701946258545,0.7402474880218506,0.5616799592971802,0.4599570035934448,-0.14899791777133942,0.46817636489868164,0.4348541498184204,0.6938382983207703,0.42000001668930054,-0.5463405251502991,0.1374940723180771,-1.4623998403549194,-3.000000476837158,-0.18577010929584503,-0.17744681239128113,-0.1688501238822937,-0.1592717468738556,0.024777254089713097,-0.01298137754201889,-0.018029557541012764,-0.020764151588082314
0.8833333333333333,0.12748315930366516,0.027682021260261536,0.0,0.5497620105743408,0.0,0.0,-0.835321307182312,0.22366344928741455,-0.3375506103038788,0.0,0.0,0.0,2.8968122005462646,0.4179149866104126,0.7087934613227844,0.42000001668930054,0.646651029586792,-1.764802732395765e-06,-4.5448086893884465e-06,-0.7627858519554138,0.00013634322385769337,-0.00036946331965737045,-0.00010017817839980125,0.007806101813912392,-0.0015167092205956578,-0.00031451674294658005,0.4526514708995819,0.7418088912963867,0.566664457321167,0.5532377362251282,0.11098107695579529,0.0834491178393364,0.4348541498184204,0.6938382983207703,0.42000001668930054,-0.5338552594184875,1.254021167755127,-1.4237759113311768,3.000000238418579,-0.17888684570789337,-0.17212608456611633,-0.16461081802845,-0.15606555342674255,0.3524739444255829,0.27973949909210205,0.2273295819759369,0.1716240644454956
0.9,0.12904174625873566,0.02758919820189476,0.0,0.5496723651885986,0.0,0.0,-0.8353803157806396,0.045830998569726944,0.16682009398937225,0.0,0.0,0.0,-1.0136467218399048,0.4179149866104126,0.7087934613227844,0.42000001668930054,0.6466509699821472,-1.8393237724012579e-06,-4.457175691641169e-06,-0.7627859711647034,0.0001341504539595917,-0.00036889268085360527,-0.00010066083632409573,0.0077882190234959126,-0.0015444755554199219,-0.0003099868190474808,0.4606891870498657,0.7395198941230774,0.565759539604187,0.465282142162323,-0.2561827600002289,-0.032342761754989624,0.4348541498184204,0.6938382983207703,0.42000001668930054,-0.5435959696769714,-2.121943950653076,-1.3737232685089111,3.0000009536743164,-0.17861582338809967,-0.17213188111782074,-0.16467894613742828,-0.15634745359420776,-0.09698662906885147,-0.09931660443544388,-0.09283652156591415,-0.0969759076833725
