vladlanda/robotic-transformer/data/env_000_episode_0127.csv
sim_time_s,robot_box_x,robot_box_y,robot_box_z,robot_box_quat_w,robot_box_quat_x,robot_box_quat_y,robot_box_quat_z,robot_box_linvel_x,robot_box_linvel_y,robot_box_linvel_z,robot_box_angvel_x,robot_box_angvel_y,robot_box_angvel_z,cube_world_x,cube_world_y,cube_world_z,cube_quat_w,cube_quat_x,cube_quat_y,cube_quat_z,cube_linvel_x,cube_linvel_y,cube_linvel_z,cube_angvel_x,cube_angvel_y,cube_angvel_z,endpoint_world_x,endpoint_world_y,endpoint_world_z,endpoint_linvel_x,endpoint_linvel_y,endpoint_linvel_z,target_cube_world_x,target_cube_world_y,target_cube_world_z,gripper_actual_pos_rad_gp_leftgearjoint,gripper_actual_vel_rad_s_gp_leftgearjoint,gripper_actual_pos_rad_gp_rotatingjoint,gripper_actual_vel_rad_s_gp_rotatingjoint,motor_angle_rad_joint1,motor_angle_rad_joint2,motor_angle_rad_joint3,motor_angle_rad_joint4,motor_speed_rad_s_joint1,motor_speed_rad_s_joint2,motor_speed_rad_s_joint3,motor_speed_rad_s_joint4
0.0,0.0,0.0,0.0,1.0,0.0,0.0,0.0,0.0,0.0,0.0,0.0,0.0,0.0,-0.46648943424224854,0.6564709544181824,0.41999998688697815,1.0,0.0,0.0,0.0,0.0,0.0,0.0,0.0,0.0,0.0,3.42540442943573e-06,-0.005000244826078415,1.313499927520752,0.0,0.0,0.0,0.37351447343826294,0.6722210049629211,0.42000001668930054,-1.5707999467849731,0.0,0.0,0.0,0.0,0.0,0.0,0.0,0.0,0.0,0.0,0.0
0.016666666666666666,0.0028778850100934505,0.0021806680597364902,0.0,0.9998081922531128,0.0,0.0,0.019586581736803055,0.24087215960025787,0.18240931630134583,0.0,0.0,0.0,3.1418697834014893,-0.4664895534515381,0.6564706563949585,0.41999998688697815,1.0,3.2799832752061775e-06,-8.339598593920527e-07,8.465660528145236e-08,-1.9833856640616432e-05,0.00017983021098189056,-6.132945418357849e-05,0.0009432561928406358,-0.004689492750912905,-0.0003198107879143208,-0.007110234349966049,0.003379564033821225,1.3159373998641968,-0.8143353462219238,0.9868683815002441,0.18095196783542633,0.37351447343826294,0.6722210049629211,0.42000001668930054,-1.5301095247268677,3.0000011920928955,-0.04584788903594017,-2.9999992847442627,0.0008691533003002405,0.0007963840034790337,0.0007110277656465769,0.0006108740926720202,0.11094217747449875,0.09756709635257721,0.08334315568208694,0.06823883205652237
0.03333333333333333,0.008960122242569923,0.006808165926486254,0.0,0.9997948408126831,0.0,0.0,0.02025599591434002,0.4070948362350464,0.31533926725387573,0.0,0.0,0.0,-0.8708505034446716,-0.46648967266082764,0.6564705967903137,0.4200000464916229,1.0,3.3908236218849197e-06,-2.1324740373529494e-06,-3.7087911408661967e-08,0.0002635786950122565,0.00026937879738397896,-0.00010509719140827656,-0.0017707741353660822,0.004130927845835686,-0.00013548358401749283,-0.02754094824194908,0.025685932487249374,1.3166742324829102,-1.5909364223480225,1.5958490371704102,-0.07568108290433884,0.37351447343826294,0.6722210049629211,0.42000001668930054,-1.4800903797149658,3.000002145767212,-0.09588771313428879,-3.0000011920928955,0.0029895275365561247,0.0026522695552557707,0.0022769656497985125,0.001860536402091384,0.16427195072174072,0.13981659710407257,0.11387649923563004,0.08635855466127396
0.05,0.01775914989411831,0.01377978827804327,0.0,0.9993730187416077,0.0,0.0,0.0354062058031559,0.5939983129501343,0.4651901125907898,0.0,0.0,0.0,2.6460843086242676,-0.46648970246315,0.6564706563949585,0.4200000464916229,1.0,3.7651166167051997e-06,-2.2119024833955336e-06,5.637348365894468e-09,0.0002653102274052799,0.00026691530365496874,-0.0001044049859046936,-0.0017243424663320184,0.004177475813776255,-0.00012949523807037622,-0.0596703439950943,0.0530419759452343,1.311894416809082,-2.187713861465454,1.7221565246582031,-0.4594009518623352,0.37351447343826294,0.6722210049629211,0.42000001668930054,-1.4300720691680908,3.0000040531158447,-0.1459263563156128,-2.9999988079071045,0.00571335107088089,0.004921291954815388,0.004057085607200861,0.0031162730883806944,0.19291052222251892,0.1560135781764984,0.11724089831113815,0.0764983519911766
0.06666666666666667,0.029077406972646713,0.02307496964931488,0.0,0.9994459748268127,0.0,0.0,0.03328254818916321,0.7205448150634766,0.5952916741371155,0.0,0.0,0.0,-1.2131547927856445,-0.46648970246315,0.6564705967903137,0.4200000464916229,0.9999999403953552,3.4067338674503844e-06,-2.2856738723930903e-06,4.301002434203838e-07,0.0002670263347681612,0.0002679180761333555,-0.00010437914170324802,-0.001740648876875639,0.004211838357150555,-0.00012851078645326197,-0.09856629371643066,0.08627155423164368,1.2995827198028564,-2.4801993370056152,2.154508113861084,-0.9891881942749023,0.37351447343826294,0.6722210049629211,0.42000001668930054,-1.3800537586212158,3.0000035762786865,-0.19596369564533234,-3.0000007152557373,0.008367515169084072,0.006905886344611645,0.005333326756954193,0.0036434640642255545,0.15831126272678375,0.10883962363004684,0.057337626814842224,0.003729696851223707
0.08333333333333333,0.037446148693561554,0.03534242883324623,0.0,0.998929500579834,0.0,0.0,0.04625808447599411,0.38088423013687134,0.8025412559509277,0.0,0.0,0.0,2.577009916305542,-0.46648970246315,0.6564705967903137,0.4200000464916229,0.9999999403953552,3.6260375964047853e-06,-2.335399813091499e-06,3.0323869282256055e-07,0.0002661397447809577,0.0002668508095666766,-0.00010405457578599453,-0.0017283371416851878,0.004196438007056713,-0.00012790974869858474,-0.14348885416984558,0.12019273638725281,1.2777812480926514,-2.8217368125915527,1.9895195960998535,-1.5564850568771362,0.37351447343826294,0.6722210049629211,0.42000001668930054,-1.3300288915634155,2.999999523162842,-0.21561075747013092,0.36330124735832214,0.0074768951162695885,0.005410003010183573,0.0031887846998870373,0.0008037484367378056,-0.14220024645328522,-0.17950397729873657,-0.21908828616142273,-0.2611943483352661
0.1,0.04735330119729042,0.049250513315200806,0.0,0.9990540742874146,0.0,0.0,0.04348461329936981,0.6804413795471191,0.8582407236099243,0.0,0.0,0.0,-1.2820992469787598,-0.46648970246315,0.6564705967903137,0.4200000464916229,1.0,3.4220713587274076e-06,-2.3086856799636735e-06,1.7965174947676132e-07,0.0002668143715709448,0.00026800335035659373,-0.00010440708138048649,-0.0017429604195058346,0.0042070322670042515,-0.00012891279766336083,-0.18623346090316772,0.15838900208473206,1.2511974573135376,-2.4074888229370117,2.4539523124694824,-1.6576859951019287,0.37351447343826294,0.6722210049629211,0.42000001668930054,-1.2800198793411255,3.0000014305114746,-0.25987985730171204,-2.999999761581421,0.005901672877371311,0.0027371400501579046,-0.0006063277833163738,-0.004139787517488003,-0.09485524147748947,-0.1800885945558548,-0.26606088876724243,-0.35278773307800293
0.11666666666666667,0.0556860975921154,0.06503893435001373,0.0,0.9999282956123352,0.0,0.0,0.011973738670349121,0.5365353226661682,1.0192266702651978,0.0,0.0,0.0,-4.41494607925415,-0.46648970246315,0.6564706563949585,0.4200000464916229,1.0,3.7114145925443154e-06,-2.3327797862293664e-06,2.5745856646608445e-07,0.00026485841954126954,0.0002663533086888492,-0.0001042329240590334,-0.0017181563889607787,0.004170076455920935,-0.0001291552762268111,-0.22557762265205383,0.20344841480255127,1.2232680320739746,-2.366788148880005,2.79042649269104,-1.6638693809509277,0.37351447343826294,0.6722210049629211,0.42000001668930054,-1.2299975156784058,2.9999921321868896,-0.22578509151935577,2.9999988079071045,0.0034852277021855116,-0.0012846187455579638,-0.006221655290573835,-0.011336674913764,-0.02177848480641842,-0.1418484002351761,-0.25920161604881287,-0.3736818730831146
0.13333333333333333,0.06136496365070343,0.07867327332496643,0.0,0.9999995231628418,0.0,0.0,0.000986398896202445,0.2544283866882324,0.7347589731216431,0.0,0.0,0.0,-0.2538388967514038,-0.46648970246315,0.6564705967903137,0.4200000464916229,1.0,3.33562343257654e-06,-2.231935468444135e-06,3.113336504156905e-07,0.0002666971704456955,0.00026759487809613347,-0.00010428461246192455,-0.001737144310027361,0.004205835517495871,-0.00012839905684813857,-0.26809805631637573,0.24490346014499664,1.1954925060272217,-2.52054762840271,2.5305869579315186,-1.708374261856079,0.37351447343826294,0.6722210049629211,0.42000001668930054,-1.180010437965393,3.0,-0.25702103972435,-2.9999992847442627,0.002016090787947178,-0.0047846450470387936,-0.011690235696732998,-0.018708469346165657,-0.1565299928188324,-0.2744114100933075,-0.38826674222946167,-0.497923880815506
0.15,0.0630858764052391,0.0888509675860405,0.0,0.9997633695602417,0.0,0.0,-0.02175281010568142,0.0467299185693264,0.5240212082862854,0.0,0.0,0.0,-3.5343844890594482,-0.46648970246315,0.6564705967903137,0.4200000464916229,1.0,3.5188593301427318e-06,-2.2830813577456865e-06,-3.625297324560961e-07,0.00026618369156494737,0.0002673570706974715,-0.00010425481013953686,-0.001734902267344296,0.00419566361233592,-0.00012860818242188543,-0.30866920948028564,0.2929767370223999,1.161843180656433,-2.3359506130218506,3.146101951599121,-2.313746452331543,0.37351447343826294,0.6722210049629211,0.42000001668930054,-1.1299930810928345,2.9999897480010986,-0.222930446267128,3.0,-0.002154764486476779,-0.01077184546738863,-0.019414685666561127,-0.02808973751962185,-0.331264466047287,-0.4249683618545532,-0.5139851570129395,-0.5983337759971619
0.16666666666666666,0.06186654791235924,0.09978937357664108,0.0,0.9974583983421326,0.0,0.0,-0.0712510496377945,-0.1533580720424652,0.7083600759506226,0.0,0.0,0.0,-6.748224258422852,-0.46648970246315,0.6564705967903137,0.4200000464916229,1.0,3.6665835523308488e-06,-2.3391182821796974e-06,-3.149922918055381e-07,0.000265958602540195,0.00026667420752346516,-0.00010403734631836414,-0.001725313370116055,0.0041927797719836235,-0.00012778645032085478,-0.3460310697555542,0.350175678730011,1.1197214126586914,-2.0505638122558594,3.6852784156799316,-2.761758804321289,0.37351447343826294,0.6722210049629211,0.42000001668930054,-1.0875754356384277,2.128234624862671,-0.2542351186275482,-3.0000009536743164,-0.009667922742664814,-0.01971806026995182,-0.029708100482821465,-0.03964543715119362,-0.5517126321792603,-0.6223070025444031,-0.6880254745483398,-0.7489672899246216
0.18333333333333332,0.06580416858196259,0.11395957320928574,0.0,0.9946614503860474,0.0,0.0,-0.1031920462846756,0.37255847454071045,0.9018374085426331,0.0,0.0,0.0,-2.783025026321411,-0.46648970246315,0.6564705967903137,0.4200000464916229,1.0,3.8143025449244305e-06,-2.399538061581552e-06,-2.702604433579836e-07,0.00026549160247668624,0.0002661106991581619,-0.00010391208343207836,-0.0017177729168906808,0.004184826277196407,-0.0001275383838219568,-0.3840683102607727,0.4071875810623169,1.0671138763427734,-2.1669371128082275,3.5114803314208984,-3.5348305702209473,0.37351447343826294,0.6722210049629211,0.42000001668930054,-1.0440869331359863,2.9799745082855225,-0.3042643964290619,-3.000001907348633,-0.01596986874938011,-0.027015697211027145,-0.03791636973619461,-0.0486847460269928,-0.36784982681274414,-0.40530186891555786,-0.4384744465351105,-0.46782612800598145
0.2,0.06670790910720825,0.12492141127586365,0.0,0.9887986183166504,0.0,0.0,-0.1492556780576706,0.0844038650393486,0.6262475848197937,0.0,0.0,0.0,-6.2900071144104,-0.46648970246315,0.6564705967903137,0.4200000464916229,1.0,3.600026275307755e-06,-2.291248847541283e-06,-2.2018376455434918e-07,0.00026572984643280506,0.000266450661001727,-0.00010398216545581818,-0.0017227132339030504,0.004188770893961191,-0.0001277342380490154,-0.4184721112251282,0.4670560657978058,1.0018848180770874,-1.7756956815719604,3.8178727626800537,-4.156338691711426,0.37351447343826294,0.6722210049629211,0.42000001668930054,-0.9940842390060425,3.0000009536743164,-0.3542921543121338,-3.0000011920928955,-0.028669575229287148,-0.03949302062392235,-0.05014926940202713,-0.06066624075174332,-0.7394342422485352,-0.7311521768569946,-0.720720112323761,-0.7088334560394287
0.21666666666666667,0.0656815841794014,0.13225886225700378,0.0,0.9846723079681396,0.0,0.0,-0.17441442608833313,-0.1933019906282425,0.3597434163093567,0.0,0.0,0.0,-1.8138840198516846,-0.46648970246315,0.6564705967903137,0.4200000464916229,0.9999999403953552,3.6396340874489397e-06,-2.261995177832432e-06,2.2247850495205057e-07,0.0002668734814506024,0.0002675438590813428,-0.00010411953553557396,-0.0017403041711077094,0.00421100901439786,-0.00012783636339008808,-0.44913139939308167,0.52241450548172,0.9264073371887207,-1.5540521144866943,3.1818408966064453,-4.898896217346191,0.37351447343826294,0.6722210049629211,0.42000001668930054,-0.94408118724823,3.000002384185791,-0.40432119369506836,-3.000000476837158,-0.042865075170993805,-0.05312802642583847,-0.0631185844540596,-0.07279923558235168,-0.9740889668464661,-0.9687284827232361,-0.9416018724441528,-0.8494950532913208
0.23333333333333334,0.0643792450428009,0.1399649977684021,0.0,0.977859616279602,0.0,0.0,-0.20926211774349213,-0.009290940128266811,0.5099593997001648,0.0,0.0,0.0,-5.124258041381836,-0.46648967266082764,0.6564705967903137,0.4200000464916229,1.0,3.420655730224098e-06,-2.3168222469394095e-06,2.9560155212493555e-07,0.00026680054725147784,0.00026803911896422505,-0.00010442500934004784,-0.0017437870847061276,0.004206916783004999,-0.00012899587454739958,-0.47359585762023926,0.5721405744552612,0.837471067905426,-1.15985107421875,2.8070600032806396,-5.610109329223633,0.37351447343826294,0.6722210049629211,0.42000001668930054,-0.8940705060958862,3.0000007152557373,-0.45435142517089844,-3.0,-0.05949893221259117,-0.06971728801727295,-0.07965746521949768,-0.08927631378173828,-0.9900702238082886,-0.9918086528778076,-0.9931464791297913,-0.9943506717681885
0.25,0.062000539153814316,0.1453397572040558,0.0,0.9743942618370056,0.0,0.0,-0.22484619915485382,-0.19174672663211823,0.2491670846939087,0.0,0.0,0.0,-0.8690378665924072,-0.46648970246315,0.6564705967903137,0.4200000464916229,0.9999999403953552,3.3475421332695987e-06,-2.259183929709252e-06,1.8084595865275332e-07,0.00026687770150601864,0.00026791056734509766,-0.00010439311154186726,-0.0017404124373570085,0.004208188038319349,-0.00012870164937339723,-0.49200013279914856,0.6081986427307129,0.7412911057472229,-0.7963203191757202,1.7890911102294922,-5.931145668029785,0.37351447343826294,0.6722210049629211,0.42000001668930054,-0.844059944152832,2.999998092651367,-0.5043821334838867,-2.9999992847442627,-0.0761406347155571,-0.08632311224937439,-0.09623534232378006,-0.10582002252340317,-0.9921396374702454,-0.9935297966003418,-0.9946019053459167,-0.9954560399055481
0.26666666666666666,0.05654743313789368,0.14718405902385712,0.0,0.9677992463111877,0.0,0.0,-0.25172334909439087,-0.38229113817214966,0.05807508900761604,0.0,0.0,0.0,-4.1726393699646,-0.46648970246315,0.6564705967903137,0.4200000464916229,0.9999999403953552,3.5356324588065036e-06,-2.300284677403397e-06,-1.2685352146490914e-07,0.00026601881836540997,0.00026712307590059936,-0.00010419590398669243,-0.0017317290185019374,0.004192897584289312,-0.00012848891492467374,-0.5002593994140625,0.6326916217803955,0.6388869285583496,-0.08053985983133316,1.14424467086792,-6.19926643371582,0.37351447343826294,0.6722210049629211,0.42000001668930054,-0.7940508127212524,2.9999983310699463,-0.554412305355072,-2.999999761581421,-0.09343163669109344,-0.10344605147838593,-0.1132294088602066,-0.12271212041378021,-0.9999860525131226,-0.9999626278877258,-0.9998244047164917,-0.9993538856506348
0.2833333333333333,0.05386825278401375,0.14605475962162018,0.0,0.9659256339073181,0.0,0.0,-0.2588198184967041,-0.08801160752773285,-0.10182451456785202,0.0,0.0,0.0,0.09759879112243652,-0.46648970246315,0.6564706563949585,0.4200000464916229,1.0,3.593411747715436e-06,-2.2626422833127435e-06,-5.654019830103607e-08,0.0002670468529686332,0.0002677511074580252,-0.0001041668001562357,-0.00174311688169837,0.004214034881442785,-0.00012789410538971424,-0.49976658821105957,0.64737868309021,0.5400192737579346,0.3336265981197357,0.6761676073074341,-5.642889499664307,0.37351447343826294,0.6722210049629211,0.42000001668930054,-0.7440420389175415,3.000002145767212,-0.6044416427612305,-3.0000011920928955,-0.11050565540790558,-0.12042053788900375,-0.13013623654842377,-0.13955840468406677,-1.012717366218567,-1.009555459022522,-1.0071475505828857,-1.005237102508545
0.3,0.04752066731452942,0.14302434027194977,0.0,0.9602785110473633,0.0,0.0,-0.27904343605041504,-0.48229530453681946,-0.21699152886867523,0.0,0.0,0.0,-3.402240514755249,-0.46648967266082764,0.6564705967903137,0.4200000464916229,0.9999999403953552,3.7249899378366536e-06,-2.236043428638368e-06,3.828652097581653e-07,0.00026479840744286776,0.000266731163719669,-0.00010454049333930016,-0.001718939165584743,0.004166668280959129,-0.00013016429147683084,-0.48684120178222656,0.6548020839691162,0.44978535175323486,1.232485294342041,0.3303366005420685,-5.129065036773682,0.37351447343826294,0.6722210049629211,0.42000001668930054,-0.6940342783927917,3.0000007152557373,-0.6544693112373352,-2.9999992847442627,-0.12871934473514557,-0.1382615566253662,-0.14769235253334045,-0.15688775479793549,-1.0083649158477783,-1.0063139200210571,-1.0047444105148315,-1.003491759300232
0.31666666666666665,0.039817504584789276,0.13767088949680328,0.0,0.9595649838447571,0.0,0.0,-0.28148728609085083,-0.49010804295539856,-0.3622061014175415,0.0,0.0,0.0,0.6491348147392273,-0.46648970246315,0.6564705967903137,0.4200000464916229,0.9999999403953552,3.557759555405937e-06,-2.2788840396970045e-06,2.2830772650195286e-07,0.00026598613476380706,0.0002665847714524716,-0.00010399054735898972,-0.001724142930470407,0.00419359328225255,-0.000127691455418244,-0.4778815507888794,0.6593824625015259,0.4200851023197174,0.3652992248535156,0.24718743562698364,-0.14228105545043945,0.37351447343826294,0.6722210049629211,0.42000001668930054,-0.6442881226539612,2.984058141708374,-0.7050293684005737,-2.8118197917938232,-0.13717125356197357,-0.14724108576774597,-0.15691432356834412,-0.1659146547317505,-0.32778629660606384,-0.32965993881225586,-0.3040778338909149,-0.24324606359004974
0.3333333333333333,0.029881982132792473,0.1300634890794754,0.0,0.9546660780906677,0.0,0.0,-0.2976788580417633,-0.6466237306594849,-0.49798327684402466,0.0,0.0,0.0,-2.908689260482788,-0.4655044376850128,0.6594421863555908,0.42056339979171753,0.997806191444397,0.0007256240933202207,0.01396335568279028,-0.0647084191441536,0.12671510875225067,0.31440815329551697,0.03748393431305885,0.6577054262161255,1.319236397743225,-12.39367389678955,-0.4749809205532074,0.6655356287956238,0.4234398603439331,0.29353785514831543,0.4257539212703705,-0.14582687616348267,0.37351447343826294,0.6722210049629211,0.42000001668930054,-0.5942797660827637,3.0000016689300537,-0.7550947666168213,-2.999967098236084,-0.14214269816875458,-0.15199165046215057,-0.1609758585691452,-0.1687195599079132,-0.382225900888443,-0.3379113972187042,-0.27112144231796265,-0.17795026302337646
0.35,0.017650993540883064,0.12016109377145767,0.0,0.9546559453010559,0.0,0.0,-0.29771125316619873,-0.7720828056335449,-0.6379384994506836,0.0,0.0,0.0,0.9229253530502319,-0.46081340312957764,0.6678403615951538,0.4202450215816498,0.9892715811729431,0.0008517639944329858,0.005940252915024757,-0.14596427977085114,0.45809710025787354,0.7563228011131287,-0.0071787284687161446,0.08464182168245316,-0.2425377070903778,-4.134779453277588,-0.46861106157302856,0.6751725673675537,0.42129528522491455,0.4400753378868103,0.680558443069458,-0.10225815325975418,0.37351447343826294,0.6722210049629211,0.42000001668930054,-0.5442748069763184,2.999987840652466,-0.8051307201385498,-2.999966859817505,-0.14971648156642914,-0.15826931595802307,-0.165597066283226,-0.1712941825389862,-0.46297016739845276,-0.368875652551651,-0.2543468773365021,-0.11902797967195511
0.36666666666666664,0.00888401921838522,0.10760707408189774,0.0,0.9502782821655273,0.0,0.0,-0.31140193343162537,-0.4421958029270172,-0.7986037135124207,0.0,0.0,0.0,-2.5768635272979736,-0.45329052209854126,0.6801275610923767,0.4200005829334259,0.985273003578186,-5.5796303058741614e-05,3.096934233326465e-05,-0.17098820209503174,0.4925838112831116,0.7844809293746948,-0.002629666356369853,0.13344141840934753,-0.057402610778808594,-3.968491792678833,-0.45985788106918335,0.6855487823486328,0.4209910035133362,0.6437095999717712,0.6435056924819946,0.08840619027614594,0.37351447343826294,0.6722210049629211,0.42000001668930054,-0.4942359924316406,2.9999897480010986,-0.8551580309867859,-2.9999918937683105,-0.15768833458423615,-0.16409525275230408,-0.16890603303909302,-0.17174069583415985,-0.4627789855003357,-0.3088999092578888,-0.13339704275131226,0.060811202973127365
0.3833333333333333,-0.003079632529988885,0.09333805739879608,0.0,0.9357447624206543,0.0,0.0,-0.35267794132232666,-0.8166423439979553,-0.8829951286315918,0.0,0.0,0.0,-6.177433490753174,-0.4395093619823456,0.6985847353935242,0.4209457337856293,0.9771231412887573,-0.02188526839017868,0.002501960378140211,-0.21153044700622559,1.191727638244629,1.4534722566604614,0.06727912276983261,-1.1889880895614624,-3.3242204189300537,-5.830742359161377,-0.4453446567058563,0.7019835710525513,0.42261412739753723,1.1389291286468506,1.375901460647583,0.10882894694805145,0.37351447343826294,0.6722210049629211,0.42000001668930054,-0.44419029355049133,3.0000247955322266,-0.9051690101623535,-2.9999940395355225,-0.16800899803638458,-0.1713835746049881,-0.17283278703689575,-0.1720513105392456,-0.608786404132843,-0.4274211823940277,-0.22788049280643463,-0.015186204575002193
0.4,-0.011549334041774273,0.07620016485452652,0.0,0.9080318808555603,0.0,0.0,-0.41890111565589905,-0.487865149974823,-1.0716434717178345,0.0,0.0,0.0,-9.34281063079834,-0.406455397605896,0.7285639643669128,0.4241500198841095,0.9658738374710083,0.01392287015914917,-0.03564675524830818,-0.2561699151992798,3.020872116088867,2.304966688156128,0.13985872268676758,30.595481872558594,-15.89642333984375,9.573343276977539,-0.4123098850250244,0.7328685522079468,0.42521288990974426,2.84598445892334,2.247832775115967,0.40086761116981506,0.37351447343826294,0.6722210049629211,0.42000001668930054,-0.39967694878578186,1.8368091583251953,-0.8709648251533508,2.9941470623016357,-0.1783103346824646,-0.17806728184223175,-0.17563289403915405,-0.1708153486251831,-0.7644915580749512,-0.4876372814178467,-0.19939957559108734,0.0910964235663414
0.4166666666666667,-0.018147744238376617,0.06369590014219284,0.0,0.8643237948417664,0.0,0.0,-0.5029357075691223,-0.2949400544166565,-0.7651850581169128,0.0,0.0,0.0,-11.973775863647461,-0.3333016335964203,0.7724605798721313,0.4294092059135437,0.9430802464485168,0.08272353559732437,-0.07931426167488098,-0.31219494342803955,5.702113628387451,2.7164688110351562,0.414985716342926,8.284204483032227,-10.359058380126953,17.288969039916992,-0.33887407183647156,0.7771774530410767,0.43062886595726013,5.467825412750244,3.2041640281677246,0.38572028279304504,0.37351447343826294,0.6722210049629211,0.42000001668930054,-0.37939804792404175,0.942443311214447,-0.820929765701294,2.9985435009002686,-0.19391928613185883,-0.1919146180152893,-0.1838485151529312,-0.17318637669086456,-0.6051916480064392,-0.6718760132789612,-0.44161924719810486,-0.1577141135931015
0.43333333333333335,-0.020448286086320877,0.05351344496011734,0.0,0.8259079456329346,0.0,0.0,-0.5638049840927124,-0.0827854722738266,-0.5511394739151001,0.0,0.0,0.0,-7.3352885246276855,-0.24020594358444214,0.820318341255188,0.438327431678772,0.8968731164932251,0.12554305791854858,-0.10805731266736984,-0.4100989103317261,6.015366554260254,1.964528203010559,0.825893223285675,-4.477696418762207,-1.0669879913330078,1.8001341819763184,-0.24600520730018616,0.8268367052078247,0.43931034207344055,5.843421459197998,2.6286182403564453,0.5411746501922607,0.37351447343826294,0.6722210049629211,0.42000001668930054,-0.36471790075302124,0.9070176482200623,-0.838844895362854,-2.9996228218078613,-0.20535822212696075,-0.20346170663833618,-0.19176912307739258,-0.1769709587097168,-0.6914495825767517,-0.6553596258163452,-0.4531199634075165,-0.23697726428508759
0.45,-0.025897251442074776,0.04817324876785278,0.0,0.8058536052703857,0.0,0.0,-0.5921148061752319,-0.2830730378627777,-0.2460017055273056,0.0,0.0,0.0,-2.701892852783203,-0.14224696159362793,0.8496679067611694,0.44999396800994873,0.8438419103622437,0.14970791339874268,-0.09368900954723358,-0.5066957473754883,5.921245098114014,0.4351542890071869,0.9245944619178772,0.7215873003005981,13.404462814331055,12.135405540466309,-0.14729131758213043,0.8583738207817078,0.44928473234176636,6.206573009490967,1.3198431730270386,0.6564401388168335,0.37351447343826294,0.6722210049629211,0.42000001668930054,-0.3486233949661255,0.8887272477149963,-0.8888689279556274,-2.9997451305389404,-0.22056911885738373,-0.21700650453567505,-0.20081637799739838,-0.1815548688173294,-0.791841447353363,-0.738385021686554,-0.48209646344184875,-0.2307164967060089
0.4666666666666667,-0.026388294994831085,0.0378839336335659,0.0,0.778316855430603,0.0,0.0,-0.6278716921806335,-0.05752529203891754,-0.6551385521888733,0.0,0.0,0.0,-6.129443645477295,-0.04214486852288246,0.8601977825164795,0.45754724740982056,0.7816920280456543,0.13845787942409515,-0.08671188354492188,-0.601887047290802,5.897177696228027,-0.7646341323852539,0.23778122663497925,-10.781671524047852,-20.111217498779297,22.4079532623291,-0.04668077826499939,0.8714332580566406,0.457158625125885,6.045539855957031,0.10197118669748306,0.5205212235450745,0.37351447343826294,0.6722210049629211,0.42000001668930054,-0.33496448397636414,0.6620978713035583,-0.9388936758041382,-3.000004529953003,-0.22855554521083832,-0.22368666529655457,-0.20369631052017212,-0.18071117997169495,-0.5937217473983765,-0.4195736050605774,-0.14845098555088043,0.10959186404943466
0.48333333333333334,-0.03009585291147232,0.03295282647013664,0.0,0.7623116970062256,0.0,0.0,-0.6472100615501404,-0.191628560423851,-0.2088456153869629,0.0,0.0,0.0,-1.7883026599884033,0.055478278547525406,0.8505409359931946,0.4619661867618561,0.6929661631584167,0.08806783705949783,-0.12891428172588348,-0.7038629055023193,5.2288737297058105,-1.6768485307693481,0.20263133943080902,-22.448925018310547,-1.1208833456039429,33.17159652709961,0.05021897703409195,0.8638641834259033,0.46455541253089905,5.9304399490356445,-0.9000722169876099,0.4485952854156494,0.37351447343826294,0.6722210049629211,0.42000001668930054,-0.32610127329826355,0.2864034175872803,-0.9889177083969116,-2.9993643760681152,-0.23998098075389862,-0.2339874655008316,-0.20923705399036407,-0.18204984068870544,-0.02927752584218979,-0.6504659056663513,-0.4111999273300171,-0.21124869585037231
0.5,-0.030947629362344742,0.02480832114815712,0.0,0.7392955422401428,0.0,0.0,-0.6733810901641846,-0.0006025336915627122,-0.5015239715576172,0.0,0.0,0.0,-4.936788082122803,0.14432987570762634,0.8272530436515808,0.46145689487457275,0.6143456101417542,0.018002940341830254,-0.15627151727676392,-0.773197591304779,5.0143842697143555,-1.928853988647461,-0.04404376074671745,-4.758080959320068,5.528632640838623,1.7649457454681396,0.13916653394699097,0.8440297842025757,0.4677009582519531,4.946235656738281,-1.6943522691726685,0.03920474275946617,0.37351447343826294,0.6722210049629211,0.42000001668930054,-0.3205714225769043,0.345838338136673,-1.0389403104782104,-3.0000011920928955,-0.2382860630750656,-0.24002023041248322,-0.21256756782531738,-0.18280509114265442,-0.05301820486783981,-0.013963270001113415,-0.19781123101711273,-0.04921235516667366
0.5166666666666666,-0.029031457379460335,0.020297953858971596,0.0,0.729279100894928,0.0,0.0,-0.684216320514679,0.14302687346935272,-0.2299862504005432,0.0,0.0,0.0,-0.7086446285247803,0.21827231347560883,0.7936744689941406,0.4580942988395691,0.5542013645172119,-0.014422684907913208,-0.1334916651248932,-0.8214820623397827,4.132756233215332,-2.369919776916504,-0.12148133665323257,-4.67249059677124,10.680313110351562,4.375950336456299,0.21529337763786316,0.8109619617462158,0.46519598364830017,4.132291316986084,-2.206418991088867,-0.3650314211845398,0.37351447343826294,0.6722210049629211,0.42000001668930054,-0.31623518466949463,0.34080973267555237,-1.088962435722351,-2.9996869564056396,-0.2398090362548828,-0.23971226811408997,-0.21590103209018707,-0.1844026744365692,0.07022055238485336,0.09779852628707886,-0.06821377575397491,-0.044121257960796356
0.5333333333333333,-0.02469218522310257,0.018604589626193047,0.0,0.7116208076477051,0.0,0.0,-0.7025637626647949,0.3072666823863983,-0.01903470605611801,0.0,0.0,0.0,-3.913177490234375,0.2804239094257355,0.7588136196136475,0.44685736298561096,0.5110642910003662,-0.05531669035553932,-0.10892913490533829,-0.8508158922195435,3.367633581161499,-2.402012586593628,-0.65083909034729,-0.6740593314170837,6.788937568664551,4.2142157554626465,0.2795111835002899,0.7767558097839355,0.45471635460853577,3.4633030891418457,-2.0602059364318848,-0.8654951453208923,0.37351447343826294,0.6722210049629211,0.42000001668930054,-0.3070152699947357,0.6426094770431519,-1.1389845609664917,-3.0000009536743164,-0.23620443046092987,-0.23611976206302643,-0.2157907485961914,-0.18531332910060883,0.31095099449157715,0.30223214626312256,0.070891834795475,-0.054761797189712524
0.55,-0.017263201996684074,0.01311404537409544,0.0,0.7057932615280151,0.0,0.0,-0.7084178328514099,0.4288766384124756,-0.3330526351928711,0.0,0.0,0.0,-0.04145360738039017,0.32909607887268066,0.7245833873748779,0.43073058128356934,0.471037894487381,-0.09629759937524796,-0.08590298146009445,-0.8726228475570679,2.261138916015625,-2.4732320308685303,-0.8253136277198792,4.572684288024902,13.108527183532715,3.1490187644958496,0.3299892544746399,0.7418869137763977,0.4389180541038513,2.49074125289917,-2.0923943519592285,-1.052878975868225,0.37351447343826294,0.6722210049629211,0.42000001668930054,-0.2996428310871124,0.330293744802475,-1.1890066862106323,-2.999239444732666,-0.22715386748313904,-0.22738738358020782,-0.21124635636806488,-0.18387334048748016,0.5092754364013672,0.5126898884773254,0.27615222334861755,0.06583598256111145
0.5666666666666667,-0.009906461462378502,0.011638723313808441,0.0,0.6904948353767395,0.0,0.0,-0.7233373522758484,0.4447830319404602,-0.07537227869033813,0.0,0.0,0.0,-3.3248934745788574,0.3615795075893402,0.701349139213562,0.4219857156276703,0.470724493265152,-0.04672525078058243,-0.021207716315984726,-0.8807867169380188,1.427695870399475,-1.1288081407546997,0.0941242128610611,-12.353521347045898,1.446825623512268,5.945895671844482,0.36147549748420715,0.7157014608383179,0.4283907115459442,1.3081448078155518,-1.0225962400436401,0.003167431801557541,0.37351447343826294,0.6722210049629211,0.42000001668930054,-0.2915257215499878,0.6251333951950073,-1.1539729833602905,3.000009298324585,-0.21848754584789276,-0.21913188695907593,-0.20720542967319489,-0.183960422873497,0.6877124309539795,0.6156079769134521,0.33075347542762756,0.036961834877729416
0.5833333333333334,-0.005450394470244646,0.009415987879037857,0.0,0.6885036826133728,0.0,0.0,-0.7252328395843506,0.20051243901252747,-0.17342150211334229,0.0,0.0,0.0,0.5651291012763977,0.37660932540893555,0.6836939454078674,0.4224751889705658,0.47524285316467285,-0.05097493901848793,-0.010039660148322582,-0.8783193826675415,0.34656062722206116,-1.360130786895752,0.33186107873916626,9.559781074523926,14.213582992553711,7.736510753631592,0.375993013381958,0.6973391771316528,0.4295662045478821,0.4421544373035431,-0.9712391495704651,0.1892181634902954,0.37351447343826294,0.6722210049629211,0.42000001668930054,-0.2803698480129242,0.6058704257011414,-1.1761033535003662,-2.996936559677124,-0.20903238654136658,-0.2101682424545288,-0.20219308137893677,-0.18350359797477722,0.5290669202804565,0.5140936374664307,0.299898236989975,0.02941729873418808
0.6,-0.0004707843763753772,0.009001328609883785,0.0,0.6776499152183533,0.0,0.0,-0.7353846430778503,0.3463718593120575,0.05165252089500427,0.0,0.0,0.0,-2.6312508583068848,0.38296452164649963,0.6737339496612549,0.42164337635040283,0.5002416968345642,-0.031814418733119965,-0.004560751840472221,-0.865289032459259,0.06930974125862122,-0.7612153887748718,0.2922384440898895,4.9596405029296875,12.257265090942383,12.063502311706543,0.38092124462127686,0.6862260699272156,0.42890438437461853,0.0847271978855133,-0.3742790222167969,-0.00980881042778492,0.37351447343826294,0.6722210049629211,0.42000001668930054,-0.27350008487701416,0.3304443359375,-1.138281226158142,3.0000054836273193,-0.1984872668981552,-0.20080216228961945,-0.19694578647613525,-0.1833726316690445,0.6552284359931946,0.5681651830673218,0.32144731283187866,0.00745991338044405
0.6166666666666667,0.006839791778475046,0.005941045470535755,0.0,0.6789978742599487,0.0,0.0,-0.7341402173042297,0.4679259955883026,-0.20691761374473572,0.0,0.0,0.0,1.1097044944763184,0.3825310468673706,0.6673785448074341,0.4218842685222626,0.5156495571136475,-0.025523176416754723,0.03899509087204933,-0.8555311560630798,-0.1833326816558838,-0.3882894814014435,0.014517511241137981,2.455183506011963,1.19864022731781,-1.5499262809753418,0.37858858704566956,0.6797523498535156,0.4274810552597046,-0.35501599311828613,-0.27297499775886536,0.17381048202514648,0.37351447343826294,0.6722210049629211,0.42000001668930054,-0.30626896023750305,-2.9999842643737793,-1.1605534553527832,-2.9985175132751465,-0.1868368536233902,-0.1904776692390442,-0.19037888944149017,-0.18184296786785126,0.5785040259361267,0.5284847021102905,0.3463555872440338,0.0800553411245346
0.6333333333333333,0.016084857285022736,0.006400917191058397,0.0,0.6749908924102783,0.0,0.0,-0.7378260493278503,0.5748733878135681,0.06264355033636093,0.0,0.0,0.0,-1.5086091756820679,0.3800329267978668,0.6628793478012085,0.4221735894680023,0.5294880867004395,-0.03245929628610611,0.03776194900274277,-0.8468546271324158,0.050289906561374664,-0.02975887432694435,0.1755821257829666,-2.323809862136841,6.38641881942749,-0.6085200309753418,0.3773680627346039,0.6794052124023438,0.4303390383720398,0.12394234538078308,0.1395747810602188,0.17989103496074677,0.37351447343826294,0.6722210049629211,0.42000001668930054,-0.34625571966171265,-1.8529267311096191,-1.2104835510253906,-2.9975318908691406,-0.17780381441116333,-0.18261009454727173,-0.1855013370513916,-0.18128491938114166,0.6520994305610657,0.54823899269104,0.354144424200058,0.08465839177370071
0.65,0.027209676802158356,0.00306319841183722,0.0,0.6829178929328918,0.0,0.0,-0.7304951548576355,0.695124089717865,-0.21371975541114807,0.0,0.0,0.0,2.13944935798645,0.38047683238983154,0.6627562046051025,0.42364105582237244,0.5401807427406311,-0.060074836015701294,0.04637319594621658,-0.8381199836730957,-0.008016192354261875,0.00394967058673501,0.06377802044153214,-0.4404396414756775,2.4854586124420166,3.912337064743042,0.37654346227645874,0.6810142993927002,0.4336584508419037,-0.1559828370809555,0.023963525891304016,0.21641407907009125,0.37351447343826294,0.6722210049629211,0.42000001668930054,-0.3944890797138214,-2.9998114109039307,-1.260466456413269,-2.9991209506988525,-0.16611765325069427,-0.1723928600549698,-0.17805542051792145,-0.17790065705776215,0.5216320753097534,0.483162522315979,0.375315397977829,0.18588994443416595
0.6666666666666666,0.03566388040781021,0.003263937309384346,0.0,0.6801264882087708,0.0,0.0,-0.7330947518348694,0.4434433877468109,0.04161548987030983,0.0,0.0,0.0,-1.5976264476776123,0.3803507685661316,0.662773609161377,0.4232713282108307,0.5558306574821472,-0.05345485359430313,0.04683787003159523,-0.8282517790794373,-0.005880703683942556,-0.000180631730472669,-0.05074543505907059,1.0384321212768555,-1.7299141883850098,1.5060102939605713,0.3766004741191864,0.6824265718460083,0.4375526010990143,0.03203447163105011,0.1384902447462082,0.26566407084465027,0.37351447343826294,0.6722210049629211,0.42000001668930054,-0.44448134303092957,-2.9989569187164307,-1.3104206323623657,-2.9990649223327637,-0.15955793857574463,-0.16616715490818024,-0.17304284870624542,-0.17535312473773956,0.43656620383262634,0.40997588634490967,0.3446391522884369,0.2107372134923935
0.6833333333333333,0.04453616961836815,0.00023019684886094183,0.0,0.6869584918022156,0.0,0.0,-0.7266966700553894,0.5500093102455139,-0.2228788435459137,0.0,0.0,0.0,1.984560489654541,0.37980222702026367,0.6627069711685181,0.4214695692062378,0.5658273100852966,-0.02140064164996147,0.031003672629594803,-0.8236626982688904,-0.05978110432624817,0.014629554003477097,-0.11078960448503494,-2.349252700805664,-5.87239408493042,-0.3528447151184082,0.37607818841934204,0.6843124628067017,0.4469131827354431,-0.08007297664880753,0.08486748486757278,0.8809409737586975,0.37351447343826294,0.6722210049629211,0.42000001668930054,-0.4944932460784912,-3.0000016689300537,-1.3604391813278198,-2.999999761581421,-0.15371643006801605,-0.160133957862854,-0.16725178062915802,-0.17084422707557678,0.1919422149658203,0.245559424161911,0.2835167348384857,0.264148473739624
0.7,0.054913125932216644,-0.005492075812071562,0.0,0.6822534203529358,0.0,0.0,-0.7311157584190369,0.6541506052017212,-0.4061707854270935,0.0,0.0,0.0,-1.71574068069458,0.37895306944847107,0.6629856824874878,0.420000284910202,0.565432071685791,-0.00010589672456262633,8.83756292751059e-05,-0.8247948884963989,-0.013704526238143444,0.006534258835017681,-0.005041402764618397,-0.03509113937616348,-0.09177205711603165,0.0174383744597435,0.38052988052368164,0.6853834390640259,0.4585201144218445,0.560684084892273,0.010831072926521301,0.6991184949874878,0.37351447343826294,0.6722210049629211,0.42000001668930054,-0.5445058345794678,-3.000001907348633,-1.4104574918746948,-2.9999990463256836,-0.1521303951740265,-0.15720690786838531,-0.16303402185440063,-0.16613410413265228,0.06287391483783722,0.16262948513031006,0.26911434531211853,0.33546972274780273
0.7166666666666667,0.06752180308103561,-0.01321452297270298,0.0,0.6568422317504883,0.0,0.0,-0.7540280222892761,0.7941855788230896,-0.5600003004074097,0.0,0.0,0.0,-4.939178943634033,0.37893930077552795,0.6629904508590698,0.4200000464916229,0.5654500722885132,8.957371164797223e-07,-2.7708586003427627e-06,-0.8247825503349304,0.00013273616787046194,-0.00025021255714818835,-8.836062625050545e-05,0.005960652604699135,-0.0008255235734395683,-0.0007991980528458953,0.3954281806945801,0.6851933598518372,0.47753292322158813,1.2267849445343018,-0.029485229402780533,1.701401948928833,0.37351447343826294,0.6722210049629211,0.42000001668930054,-0.5945173501968384,-2.999985694885254,-1.4604758024215698,-2.999999761581421,-0.1545162796974182,-0.157441183924675,-0.1609257310628891,-0.16228985786437988,-0.21515190601348877,-0.07645469158887863,0.07788603752851486,0.20018425583839417
0.7333333333333333,0.08337177336215973,-0.016566988080739975,0.0,0.6442747116088867,0.0,0.0,-0.7647941708564758,0.9001321792602539,-0.14501482248306274,0.0,0.0,0.0,-0.9594306349754333,0.37893930077552795,0.6629904508590698,0.4200000464916229,0.5654498934745789,1.1112662434697995e-07,-2.8751273930538446e-06,-0.82478266954422,7.637511589564383e-05,-0.00025727105094119906,-8.399900980293751e-05,0.006379916798323393,-0.00174415553919971,-0.0007019828190095723,0.414945125579834,0.6881448030471802,0.5098409652709961,1.1516854763031006,0.47858718037605286,2.109823226928711,0.37351447343826294,0.6722210049629211,0.42000001668930054,-0.6137576103210449,0.4098811149597168,-1.5104941129684448,-2.9999985694885254,-0.16195428371429443,-0.16266880929470062,-0.16376744210720062,-0.1633421629667282,-0.2831830680370331,-0.2273029237985611,-0.15883447229862213,-0.12076892703771591
0.75,0.0954023152589798,-0.017979277297854424,0.0,0.6551867127418518,0.0,0.0,-0.7554669976234436,0.6544970870018005,-0.045759785920381546,0.0,0.0,0.0,2.5677316188812256,0.37893933057785034,0.6629904508590698,0.4200000464916229,0.5654500126838684,1.208033495458949e-07,-3.140145054203458e-06,-0.8247826099395752,7.72638013586402e-05,-0.00025721051497384906,-8.41550063341856e-05,0.006374008487910032,-0.0017322951462119818,-0.0007036835886538029,0.43541431427001953,0.6930696964263916,0.5377165079116821,1.173464059829712,0.21180833876132965,1.3468043804168701,0.37351447343826294,0.6722210049629211,0.42000001668930054,-0.5851412415504456,2.7901525497436523,-1.4717329740524292,2.999997854232788,-0.16477711498737335,-0.16479851305484772,-0.1649349480867386,-0.1639590710401535,-0.10825520008802414,-0.06792593002319336,-0.01236280519515276,0.02016410045325756
0.7666666666666666,0.1027400866150856,-0.02396412007510662,0.0,0.6537322402000427,0.0,0.0,-0.7567259669303894,0.41171973943710327,-0.3488519787788391,0.0,0.0,0.0,-1.1822820901870728,0.37893930077552795,0.6629904508590698,0.4200000464916229,0.5654500126838684,2.444659799039073e-07,-3.1274221328203566e-06,-0.8247826099395752,7.982822717167437e-05,-0.00025762314908206463,-8.473126217722893e-05,0.006369936279952526,-0.001705585396848619,-0.0007103401003405452,0.4490676522254944,0.6972097158432007,0.5542130470275879,0.37547725439071655,0.07799415290355682,0.7786234617233276,0.37351447343826294,0.6722210049629211,0.42000001668930054,-0.5591041445732117,0.5124257206916809,-1.4216803312301636,3.0000011920928955,-0.1626332849264145,-0.1625247299671173,-0.1622857004404068,-0.16125933825969696,-0.0637042447924614,-0.00839056447148323,0.05538814142346382,0.09538418799638748
0.7833333333333333,0.10689307749271393,-0.025462383404374123,0.0,0.662886917591095,0.0,0.0,-0.7487195134162903,0.20054805278778076,-0.05070386454463005,0.0,0.0,0.0,2.2460758686065674,0.37893930077552795,0.6629904508590698,0.4200000464916229,0.5654500126838684,1.2488359857343312e-07,-2.9601985715999035e-06,-0.8247826099395752,7.62438285164535e-05,-0.0002572235534898937,-8.392147719860077e-05,0.0063799647614359856,-0.0017438569338992238,-0.0007014613365754485,0.45386460423469543,0.6968438625335693,0.5628136396408081,0.2463243454694748,0.002616181969642639,0.3084869384765625,0.37351447343826294,0.6722210049629211,0.42000001668930054,-0.5311030149459839,2.639643430709839,-1.4393597841262817,-3.0000009536743164,-0.1655607670545578,-0.16418589651584625,-0.16257649660110474,-0.16056539118289948,-0.08277741819620132,-0.029748665168881416,0.03021707572042942,0.07131627947092056
0.8,0.1075049415230751,-0.024810874834656715,0.0,0.658863365650177,0.0,0.0,-0.7522626519203186,0.0011881341924890876,0.18179546296596527,0.0,0.0,0.0,-1.5352282524108887,0.37893930077552795,0.6629905104637146,0.4200000464916229,0.5654503703117371,3.7119446005817736e-07,-2.8939407457073685e-06,-0.8247823119163513,7.377975271083415e-05,-0.00026197609258815646,-8.341902866959572e-05,0.006514448206871748,-0.0017968586180359125,-0.0007051363354548812,0.4518517553806305,0.6981481313705444,0.5631273984909058,-0.4891963005065918,0.07652753591537476,-0.10435560345649719,0.37351447343826294,0.6722210049629211,0.42000001668930054,-0.5120174884796143,-0.12543998658657074,-1.4008064270019531,2.999999761581421,-0.16582468152046204,-0.16412599384784698,-0.162021204829216,-0.15971103310585022,-0.056416675448417664,-0.03852800279855728,-0.011183180846273899,0.006914862897247076
0.8166666666666667,0.10555946826934814,-0.026333272457122803,0.0,0.6662815809249878,0.0,0.0,-0.7457002401351929,-0.1448313146829605,-0.1716376543045044,0.0,0.0,0.0,1.990958333015442,0.37893933057785034,0.6629904508590698,0.4200000464916229,0.5654498338699341,2.5970788897211605e-07,-2.7849130219692597e-06,-0.82478266954422,7.251161150634289e-05,-0.0002603456377983093,-8.309213444590569e-05,0.006481369026005268,-0.00180119089782238,-0.0006985816871747375,0.44189101457595825,0.6997299194335938,0.5616536736488342,-0.7330018877983093,0.11755670607089996,-0.06936688721179962,0.37351447343826294,0.6722210049629211,0.42000001668930054,-0.5012053847312927,1.2908402681350708,-1.4189144372940063,-3.0,-0.16412852704524994,-0.16248294711112976,-0.16031275689601898,-0.15806704759597778,0.08533596247434616,0.08199971169233322,0.0825495794415474,0.07507974654436111
0.8333333333333334,0.10527939349412918,-0.024640394374728203,0.0,0.6617269515991211,0.0,0.0,-0.7497448921203613,0.02903534099459648,0.1012306660413742,0.0,0.0,0.0,-1.544827938079834,0.37893933057785034,0.6629905104637146,0.4200000464916229,0.5654503107070923,2.3784309632901568e-07,-3.194376859028125e-06,-0.8247823715209961,7.090909639373422e-05,-0.00026172411162406206,-8.284533396363258e-05,0.00652372557669878,-0.0018300755182281137,-0.0006982804043218493,0.42955800890922546,0.7027707099914551,0.5555062294006348,-0.6320327520370483,0.2589227259159088,-0.4766300320625305,0.37351447343826294,0.6722210049629211,0.42000001668930054,-0.49903589487075806,-0.8447425961494446,-1.3804194927215576,2.999999761581421,-0.16543027758598328,-0.1637382209300995,-0.1613750010728836,-0.1589544713497162,0.059627752751111984,0.025842491537332535,0.0075701274909079075,-0.0020156120881438255
0.85,0.10745570808649063,-0.026507943868637085,0.0,0.6684854626655579,0.0,0.0,-0.7437252402305603,0.1781691163778305,-0.15117716789245605,0.0,0.0,0.0,1.8114821910858154,0.37893930077552795,0.6629904508590698,0.4200000464916229,0.5654497742652893,2.39093026266346e-07,-3.1270076306100236e-06,-0.8247826099395752,7.516593905165792e-05,-0.0002607776550576091,-8.371099829673767e-05,0.006477097049355507,-0.00177410535980016,-0.0007054928573779762,0.41931408643722534,0.705907940864563,0.5509152412414551,-0.6152334213256836,0.11778409779071808,-0.06629657745361328,0.37351447343826294,0.6722210049629211,0.42000001668930054,-0.5319426655769348,-2.898860454559326,-1.3989272117614746,-3.0,-0.16429226100444794,-0.16292260587215424,-0.16062182188034058,-0.15809936821460724,-0.03102543018758297,-0.02479071542620659,-0.005270335823297501,0.02437673509120941
0.8666666666666667,0.11195117980241776,-0.030861185863614082,0.0,0.6631975173950195,0.0,0.0,-0.7484444379806519,0.31175461411476135,-0.32847627997398376,0.0,0.0,0.0,-1.7037853002548218,0.37893930077552795,0.6629904508590698,0.4200000464916229,0.565450131893158,1.1868386451396873e-07,-3.0212941055651754e-06,-0.8247824311256409,7.598643423989415e-05,-0.00025760085554793477,-8.386070840060711e-05,0.006391183938831091,-0.0017485566204413772,-0.0007015304290689528,0.4153621196746826,0.7065442204475403,0.5431708097457886,0.09107354283332825,-0.06873072683811188,-0.6457488536834717,0.37351447343826294,0.6722210049629211,0.42000001668930054,-0.5723329782485962,-1.993705153465271,-1.4489455223083496,-2.999999761581421,-0.165904700756073,-0.16391776502132416,-0.16071470081806183,-0.15704289078712463,-0.09484642744064331,-0.03374878317117691,0.04648058861494064,0.14428727328777313
0.8833333333333333,0.11959225684404373,-0.03440593555569649,0.0,0.6365392804145813,0.0,0.0,-0.7712442278862,0.47513285279273987,-0.2608996331691742,0.0,0.0,0.0,-5.099268913269043,0.37893930077552795,0.6629904508590698,0.4200000464916229,0.5654497742652893,2.4463383851980325e-07,-3.159766265525832e-06,-0.82478266954422,7.542880484834313e-05,-0.00026054156478494406,-8.374452590942383e-05,0.006469088140875101,-0.0017697266303002834,-0.000705677317455411,0.41925108432769775,0.702630877494812,0.5355823636054993,0.4675544500350952,-0.2703781723976135,-0.13512642681598663,0.37351447343826294,0.6722210049629211,0.42000001668930054,-0.6162912249565125,-2.9999845027923584,-1.4989638328552246,-2.999999761581421,-0.1709345132112503,-0.1675349622964859,-0.16270337998867035,-0.1571980118751526,-0.18508963286876678,-0.13527323305606842,-0.0730641558766365,0.0027501899749040604
0.9,0.12910141050815582,-0.03568911552429199,0.0,0.6248060464859009,0.0,0.0,-0.780780017375946,0.6118467450141907,-0.020228363573551178,0.0,0.0,0.0,-0.7579413652420044,0.37893930077552795,0.6629904508590698,0.4200000464916229,0.565450131893158,9.029177761021856e-08,-2.867612920454121e-06,-0.8247823715209961,7.619030657224357e-05,-0.000257601379416883,-8.39086715131998e-05,0.0063900998793542385,-0.0017462652176618576,-0.0007019324693828821,0.42625248432159424,0.7029824256896973,0.5371686220169067,0.404570996761322,0.24992619454860687,0.2767232358455658,0.37351447343826294,0.6722210049629211,0.42000001668930054,-0.6346977949142456,0.5033871531486511,-1.5489821434020996,-3.000000238418579,-0.17333045601844788,-0.16990624368190765,-0.16488821804523468,-0.1589871048927307,-0.06551118940114975,-0.11097706854343414,-0.15010598301887512,-0.1781928688287735
