vladlanda/robotic-transformer/data/env_000_episode_0078.csv
sim_time_s,robot_box_x,robot_box_y,robot_box_z,robot_box_quat_w,robot_box_quat_x,robot_box_quat_y,robot_box_quat_z,robot_box_linvel_x,robot_box_linvel_y,robot_box_linvel_z,robot_box_angvel_x,robot_box_angvel_y,robot_box_angvel_z,cube_world_x,cube_world_y,cube_world_z,cube_quat_w,cube_quat_x,cube_quat_y,cube_quat_z,cube_linvel_x,cube_linvel_y,cube_linvel_z,cube_angvel_x,cube_angvel_y,cube_angvel_z,endpoint_world_x,endpoint_world_y,endpoint_world_z,endpoint_linvel_x,endpoint_linvel_y,endpoint_linvel_z,target_cube_world_x,target_cube_world_y,target_cube_world_z,gripper_actual_pos_rad_gp_leftgearjoint,gripper_actual_vel_rad_s_gp_leftgearjoint,gripper_actual_pos_rad_gp_rotatingjoint,gripper_actual_vel_rad_s_gp_rotatingjoint,motor_angle_rad_joint1,motor_angle_rad_joint2,motor_angle_rad_joint3,motor_angle_rad_joint4,motor_speed_rad_s_joint1,motor_speed_rad_s_joint2,motor_speed_rad_s_joint3,motor_speed_rad_s_joint4
0.0,0.0,0.0,0.0,1.0,0.0,0.0,0.0,0.0,0.0,0.0,0.0,0.0,0.0,-0.4056774079799652,0.6609256267547607,0.41999998688697815,1.0,0.0,0.0,0.0,0.0,0.0,0.0,0.0,0.0,0.0,3.42540442943573e-06,-0.005000244826078415,1.313499927520752,0.0,0.0,0.0,0.45677050948143005,0.6427140235900879,0.42000001668930054,-1.5707999467849731,0.0,0.0,0.0,0.0,0.0,0.0,0.0,0.0,0.0,0.0,0.0
0.016666666666666666,0.0028778850100934505,0.0021806680597364902,0.0,0.9998081922531128,0.0,0.0,0.019586581736803055,0.24087215960025787,0.18240931630134583,0.0,0.0,0.0,3.1418697834014893,-0.40567752718925476,0.6609253287315369,0.41999998688697815,1.0,3.279964630564791e-06,-8.339746386809566e-07,8.465587342243452e-08,-1.9833529222523794e-05,0.00017983045836444944,-6.132945418357849e-05,0.0009432713268324733,-0.004689474124461412,-0.00031981561915017664,-0.007110234349966049,0.003379564033821225,1.3159373998641968,-0.8143353462219238,0.9868683815002441,0.18095196783542633,0.45677050948143005,0.6427140235900879,0.42000001668930054,-1.5301095247268677,3.0000011920928955,-0.04584788903594017,-2.9999992847442627,0.0008691533003002405,0.0007963840034790337,0.0007110277656465769,0.0006108740926720202,0.11094217747449875,0.09756709635257721,0.08334315568208694,0.06823883205652237
0.03333333333333333,0.008960978128015995,0.006801914889365435,0.0,0.9997960329055786,0.0,0.0,0.020196840167045593,0.407021164894104,0.3153087794780731,0.0,0.0,0.0,-0.8691303730010986,-0.4056776463985443,0.6609252691268921,0.4200000464916229,1.0,3.3908179375430336e-06,-2.132458348569344e-06,-3.7097745320124886e-08,0.00026357852038927376,0.00026937833172269166,-0.00010509369894862175,-0.0017707126680761576,0.004130884539335966,-0.0001354814594378695,-0.027549035847187042,0.026037942618131638,1.3166208267211914,-1.59153413772583,1.6153442859649658,-0.08218895643949509,0.45677050948143005,0.6427140235900879,0.42000001668930054,-1.4800904989242554,3.0,-0.09588772058486938,-3.0,0.0029901464004069567,0.0026527729351073503,0.0022773602977395058,0.0018608307000249624,0.16422192752361298,0.1397666186094284,0.1138267070055008,0.08630993217229843
0.05,0.01711925119161606,0.013703168369829655,0.0,0.9998169541358948,0.0,0.0,0.019133055582642555,0.5272440314292908,0.45627355575561523,0.0,0.0,0.0,0.23950418829917908,-0.4056776762008667,0.6609253287315369,0.4200000464916229,1.0,3.7651293496310245e-06,-2.2119379536889028e-06,5.6273887771851605e-09,0.0002653067058417946,0.00026691422681324184,-0.00010440615005791187,-0.0017243530601263046,0.00417736079543829,-0.00012949267693329602,-0.058714982122182846,0.05487299710512161,1.3115490674972534,-2.1043691635131836,1.8281363248825073,-0.48506197333335876,0.45677050948143005,0.6427140235900879,0.42000001668930054,-1.4300721883773804,3.000002861022949,-0.14592638611793518,-3.0000014305114746,0.005470838863402605,0.004685546271502972,0.0038281825836747885,0.0028940157499164343,0.16818560659885406,0.13190479576587677,0.09377030283212662,0.05366190895438194
0.06666666666666667,0.028104031458497047,0.022787822410464287,0.0,0.9999997019767761,0.0,0.0,-0.0007878119358792901,0.7240685820579529,0.5868103504180908,0.0,0.0,0.0,-3.2196950912475586,-0.4056776762008667,0.6609252691268921,0.4200000464916229,0.9999999403953552,3.406754103707499e-06,-2.2856077066535363e-06,4.300980265270482e-07,0.0002670255198609084,0.0002679179306142032,-0.0001043803058564663,-0.001740670995786786,0.004211848136037588,-0.00012850687198806554,-0.09520081430673599,0.08996093273162842,1.2997628450393677,-2.2818098068237305,2.304455280303955,-0.918725311756134,0.45677050948143005,0.6427140235900879,0.42000001668930054,-1.3800500631332397,2.9999992847442627,-0.18062999844551086,-1.280808448791504,0.007940872572362423,0.006438379641622305,0.004825430456548929,0.003096050349995494,0.1532738208770752,0.09989029914140701,0.0444948785007,-0.01298143807798624
0.08333333333333333,0.03794578090310097,0.03473657742142677,0.0,0.9999925494194031,0.0,0.0,-0.003864660393446684,0.541480302810669,0.7730839252471924,0.0,0.0,0.0,0.6956720352172852,-0.4056776762008667,0.6609252691268921,0.4200000464916229,1.0,3.697269221447641e-06,-2.188940243286197e-06,-2.6321629320591455e-07,0.00026389610138721764,0.0002658638986758888,-0.00010433932766318321,-0.0017081708647310734,0.004150133114308119,-0.00012991161202080548,-0.13551855087280273,0.12609326839447021,1.281237006187439,-2.434351921081543,2.198054790496826,-1.249825119972229,0.45677050948143005,0.6427140235900879,0.42000001668930054,-1.3300317525863647,3.0000007152557373,-0.19952461123466492,-0.9995009303092957,0.007468665950000286,0.0051511600613594055,0.002682436490431428,5.4000545787857845e-05,-0.09294909983873367,-0.14901837706565857,-0.2071443647146225,-0.267467200756073
0.1,0.04906827211380005,0.0450567901134491,0.0,0.9997795224189758,0.0,0.0,-0.02099686488509178,0.7720892429351807,0.5315295457839966,0.0,0.0,0.0,-2.8360252380371094,-0.4056776762008667,0.6609252691268921,0.4200000464916229,0.9999999403953552,3.6203723539074417e-06,-2.2652432107861387e-06,1.7462606649587542e-07,0.00026676998822949827,0.00026740916655398905,-0.0001040794886648655,-0.0017386159161105752,0.0042092096991837025,-0.00012775268987752497,-0.17291198670864105,0.1679883897304535,1.2587811946868896,-2.1205506324768066,2.7721314430236816,-1.4272626638412476,0.45677050948143005,0.6427140235900879,0.42000001668930054,-1.2800095081329346,2.9999983310699463,-0.1866975873708725,2.249990940093994,0.005386446602642536,0.0018801799742504954,-0.00180536019615829,-0.005679462105035782,-0.1612410992383957,-0.242758646607399,-0.32568806409835815,-0.40997031331062317
0.11666666666666667,0.05758561193943024,0.056003522127866745,0.0,0.9978386759757996,0.0,0.0,-0.065711110830307,0.5645471811294556,0.6890612840652466,0.0,0.0,0.0,-5.920981407165527,-0.4056776762008667,0.6609252691268921,0.4200000464916229,1.0,3.7983443235134473e-06,-2.2628721580986166e-06,-1.5019327292975504e-07,0.00026374091976322234,0.0002656608703546226,-0.00010428996756672859,-0.0017054241616278887,0.004147560801357031,-0.00012980113388039172,-0.20694324374198914,0.21594882011413574,1.2344560623168945,-2.0015690326690674,2.977198600769043,-1.4129581451416016,0.45677050948143005,0.6427140235900879,0.42000001668930054,-1.230017900466919,3.000000476837158,-0.22256773710250854,-3.0000009536743164,-0.00013902105274610221,-0.004976953845471144,-0.010003171861171722,-0.015227057039737701,-0.17315825819969177,-0.28413501381874084,-0.39297357201576233,-0.49949705600738525
0.13333333333333333,0.06443839520215988,0.06541144847869873,0.0,0.9961804151535034,0.0,0.0,-0.0873190313577652,0.35240840911865234,0.46156108379364014,0.0,0.0,0.0,-1.4963417053222656,-0.4056776762008667,0.6609253287315369,0.4200000464916229,0.9999999403953552,3.550494056980824e-06,-2.2298402200249257e-06,2.929137679075211e-07,0.00026703279581852257,0.0002677927550394088,-0.00010417005978524685,-0.0017440064111724496,0.00421349098905921,-0.00012799979595001787,-0.2453308403491974,0.26241010427474976,1.2071728706359863,-2.2675819396972656,2.9405903816223145,-1.8498468399047852,0.45677050948143005,0.6427140235900879,0.42000001668930054,-1.1800038814544678,2.9999921321868896,-0.18861748278141022,3.0000007152557373,-0.0037605692632496357,-0.010383358225226402,-0.017138391733169556,-0.02403300255537033,-0.26477834582328796,-0.3632851839065552,-0.4580541253089905,-0.5490254759788513
0.15,0.06747592240571976,0.0751456469297409,0.0,0.9928818345069885,0.0,0.0,-0.11910355091094971,0.11823177337646484,0.635772705078125,0.0,0.0,0.0,-4.636717796325684,-0.4056776762008667,0.6609252691268921,0.4200000464916229,0.9999999403953552,3.3380551940354053e-06,-2.242888285763911e-06,-2.8010754604679278e-08,0.0002667464141268283,0.00026758297462947667,-0.00010427739471197128,-0.0017367892432957888,0.0042068264447152615,-0.00012831403000745922,-0.2819928526878357,0.31448444724082947,1.1736397743225098,-2.0510058403015137,3.349118709564209,-2.2063965797424316,0.45677050948143005,0.6427140235900879,0.42000001668930054,-1.130011796951294,3.0000011920928955,-0.2201593667268753,-3.0000007152557373,-0.009792742319405079,-0.018007658421993256,-0.026277346536517143,-0.03460870310664177,-0.4369657635688782,-0.5226157903671265,-0.6035385727882385,-0.6797466278076172
0.16666666666666666,0.07544218748807907,0.08502981811761856,0.0,0.9835191965103149,0.0,0.0,-0.18080374598503113,0.6228446364402771,0.5595740079879761,0.0,0.0,0.0,-8.497450828552246,-0.4056776762008667,0.6609253287315369,0.4200000464916229,0.9999999403953552,3.6477645153354388e-06,-2.307274144186522e-06,3.529925152179203e-08,0.00026726932264864445,0.0002680148754734546,-0.0001041884534060955,-0.0017472195904701948,0.004217570647597313,-0.000127984574646689,-0.3149144649505615,0.37666475772857666,1.128711223602295,-1.785238265991211,4.017217636108398,-3.120905876159668,0.45677050948143005,0.6427140235900879,0.42000001668930054,-1.0874671936035156,2.141110420227051,-0.2701656222343445,-3.0,-0.015247853472828865,-0.024799738079309464,-0.034323032945394516,-0.04382742568850517,-0.3341952860355377,-0.3945290148258209,-0.45048990845680237,-0.5023629665374756
0.18333333333333332,0.08174245804548264,0.09141988307237625,0.0,0.9745484590530396,0.0,0.0,-0.22417694330215454,0.2556557059288025,0.407395601272583,0.0,0.0,0.0,-3.998847723007202,-0.4056776762008667,0.6609252691268921,0.4200000464916229,0.9999999403953552,3.2904786166909616e-06,-2.1938897134532453e-06,-2.792105249227461e-07,0.00026678101858124137,0.00026776143931783736,-0.00010434072464704514,-0.0017391619039699435,0.0042070201598107815,-0.00012845500896219164,-0.3471490144729614,0.43917784094810486,1.0690032243728638,-1.6144609451293945,3.962259292602539,-4.019321441650391,0.45677050948143005,0.6427140235900879,0.42000001668930054,-1.0400378704071045,2.9999988079071045,-0.3201814591884613,-3.000000476837158,-0.025097621604800224,-0.03478395938873291,-0.0444052629172802,-0.05398412048816681,-0.8299934267997742,-0.7949689030647278,-0.7598342299461365,-0.7255539298057556
0.2,0.0832219123840332,0.0994328111410141,0.0,0.9617708921432495,0.0,0.0,-0.2738553285598755,0.019678251817822456,0.5312244892120361,0.0,0.0,0.0,-6.933966636657715,-0.4056776762008667,0.6609252691268921,0.4200000464916229,1.0,3.280698592789122e-06,-2.2191520656633656e-06,1.5949687792726763e-07,0.00026627854094840586,0.0002674016577657312,-0.0001042510848492384,-0.0017356991302222013,0.004197761882096529,-0.00012865323515143245,-0.37526607513427734,0.5036496520042419,0.9955397844314575,-1.4048813581466675,3.913806200027466,-4.761852264404297,0.45677050948143005,0.6427140235900879,0.42000001668930054,-0.9900310039520264,3.0000016689300537,-0.37020787596702576,-3.0,-0.039645545184612274,-0.04949037358164787,-0.05849311128258705,-0.06744229793548584,-0.9449626207351685,-0.9364475607872009,-0.8895893692970276,-0.8421652913093567
0.21666666666666667,0.08616502583026886,0.10936890542507172,0.0,0.9525563716888428,0.0,0.0,-0.3043622076511383,0.23282261192798615,0.6548788547515869,0.0,0.0,0.0,-2.758942127227783,-0.4056776762008667,0.6609253287315369,0.4200000464916229,1.0,3.6131289107288467e-06,-2.270098320877878e-06,2.2102773300503031e-07,0.00026712726685218513,0.0002678176388144493,-0.00010414118878543377,-0.0017445299308747053,0.004215225111693144,-0.00012786460865754634,-0.40095603466033936,0.5594722628593445,0.9102674722671509,-1.2419832944869995,3.1269049644470215,-5.484653472900391,0.45677050948143005,0.6427140235900879,0.42000001668930054,-0.9400222301483154,3.0000011920928955,-0.420236736536026,-3.000000476837158,-0.055543068796396255,-0.06518595665693283,-0.07370975613594055,-0.08160068094730377,-0.9850943684577942,-0.9823176860809326,-0.9813779592514038,-0.9094589352607727
0.23333333333333334,0.08741132915019989,0.11681225150823593,0.0,0.9524301886558533,0.0,0.0,-0.30475693941116333,0.014435515739023685,0.3664504885673523,0.0,0.0,0.0,1.0781700611114502,-0.4056776762008667,0.6609252691268921,0.4200000464916229,1.0,3.3818575957411667e-06,-2.290973952767672e-06,2.7281259917799616e-07,0.00026691483799368143,0.00026780000189319253,-0.00010433257557451725,-0.0017395805334672332,0.004209765233099461,-0.0001284360041609034,-0.4237740635871887,0.5997602939605713,0.8160883188247681,-1.2014098167419434,1.9382941722869873,-5.823890209197998,0.45677050948143005,0.6427140235900879,0.42000001668930054,-0.8900115489959717,2.999992609024048,-0.4702669680118561,-3.000000238418579,-0.07204096764326096,-0.08163866400718689,-0.09003383666276932,-0.09781809151172638,-0.9886319041252136,-0.9906668663024902,-0.9778480529785156,-0.9660733342170715
0.25,0.08530707657337189,0.11989983916282654,0.0,0.9484773874282837,0.0,0.0,-0.3168449103832245,-0.18136407434940338,0.12973898649215698,0.0,0.0,0.0,-2.3641788959503174,-0.4056776463985443,0.6609252691268921,0.4200000464916229,0.9999999403953552,3.7065874494146556e-06,-2.222986267952365e-06,-2.2550398171006236e-07,0.00026424622046761215,0.00026656605768948793,-0.00010457751341164112,-0.0017168939812108874,0.004155486822128296,-0.00013062988000456244,-0.43851715326309204,0.6291908025741577,0.7137652635574341,-0.5771738290786743,1.4209792613983154,-6.2672014236450195,0.45677050948143005,0.6427140235900879,0.42000001668930054,-0.840001106262207,3.0,-0.5202972888946533,-2.99999737739563,-0.0888199508190155,-0.09835998713970184,-0.10671479254961014,-0.11446603387594223,-0.9937393665313721,-0.99488365650177,-0.9957770109176636,-0.9965013265609741
0.26666666666666666,0.08005017787218094,0.11996252089738846,0.0,0.9371750354766846,0.0,0.0,-0.348859578371048,-0.3677862882614136,-0.04392792284488678,0.0,0.0,0.0,-5.128876209259033,-0.4056776762008667,0.6609252691268921,0.4200000464916229,0.9999999403953552,3.7197082747297827e-06,-2.4034441139519913e-06,-1.830746896303026e-07,0.0002662326442077756,0.0002672917617019266,-0.00010425853542983532,-0.0017327014356851578,0.004196543712168932,-0.00012851170322392136,-0.441487193107605,0.647730827331543,0.6083076596260071,0.2628304958343506,0.747416615486145,-6.256313323974609,0.45677050948143005,0.6427140235900879,0.42000001668930054,-0.7899922728538513,3.0000009536743164,-0.5703269839286804,-2.9999990463256836,-0.10623299330472946,-0.11558704078197479,-0.1238005980849266,-0.1314404457807541,-1.0075523853302002,-1.005680799484253,-1.004256010055542,-1.0031213760375977
0.2833333333333333,0.07689839601516724,0.11695902794599533,0.0,0.9316775798797607,0.0,0.0,-0.36328619718551636,-0.1675991266965866,-0.21824218332767487,0.0,0.0,0.0,-0.6093433499336243,-0.4056776762008667,0.6609253287315369,0.4200000464916229,0.9999999403953552,3.584110345400404e-06,-2.315385700057959e-06,7.404764090779281e-08,0.0002652206749189645,0.00026455355691723526,-0.00010317307896912098,-0.0017021505627781153,0.004185084719210863,-0.00012499569857027382,-0.43750590085983276,0.6586199998855591,0.5104108452796936,0.5159518122673035,0.37086594104766846,-5.483696937561035,0.45677050948143005,0.6427140235900879,0.42000001668930054,-0.7399834990501404,3.0000009536743164,-0.6203557252883911,-3.0,-0.12341031432151794,-0.1326703429222107,-0.14080409705638885,-0.1483815610408783,-1.0473737716674805,-1.0358290672302246,-1.027018666267395,-1.0199668407440186
0.3,0.07064226269721985,0.11268629878759384,0.0,0.9369526505470276,0.0,0.0,-0.3494563698768616,-0.4638708829879761,-0.2778777778148651,0.0,0.0,0.0,2.965981960296631,-0.4056776762008667,0.6609252691268921,0.4200000464916229,1.0,3.7243103179207537e-06,-2.2717667889082804e-06,9.635199660351645e-08,0.00026312642148695886,0.0002652582770679146,-0.00010438216850161552,-0.0016961309593170881,0.004134850110858679,-0.00013027526438236237,-0.42761924862861633,0.6612821221351624,0.4264322817325592,0.7808068990707397,-0.07828597724437714,-4.804716110229492,0.45677050948143005,0.6427140235900879,0.42000001668930054,-0.6900037527084351,3.000000238418579,-0.6703822016716003,-3.0000007152557373,-0.1410835236310959,-0.15009663999080658,-0.1580469310283661,-0.16548152267932892,-1.0071941614151,-1.0054644346237183,-1.0041395425796509,-1.0030726194381714
0.31666666666666665,0.062187112867832184,0.10616883635520935,0.0,0.9370711445808411,0.0,0.0,-0.3491384983062744,-0.5044847726821899,-0.44402244687080383,0.0,0.0,0.0,-0.9275457262992859,-0.40503570437431335,0.659741222858429,0.42000001668930054,0.9996731281280518,-8.959991077972518e-07,-2.1010389446018962e-06,-0.025565285235643387,0.054579559713602066,-0.10954543948173523,-1.5259021893143654e-05,0.0006345651927404106,0.00012878983397968113,-4.462395668029785,-0.42843008041381836,0.6622183322906494,0.42561399936676025,0.10602852702140808,-0.00964226946234703,-0.2265704870223999,0.45677050948143005,0.6427140235900879,0.42000001668930054,-0.6399990916252136,2.99997878074646,-0.7208069562911987,-2.999990224838257,-0.1508573591709137,-0.15919405221939087,-0.16613511741161346,-0.17214883863925934,-0.5674248337745667,-0.5024064779281616,-0.41980889439582825,-0.3148545026779175
0.3333333333333333,0.052167635411024094,0.09725405275821686,0.0,0.9422082901000977,0.0,0.0,-0.33502766489982605,-0.6535692811012268,-0.5773370265960693,0.0,0.0,0.0,2.609592914581299,-0.4043005406856537,0.658700168132782,0.4200000464916229,0.9989370703697205,-3.8167041793712997e-07,1.7642412331042578e-07,-0.04609405994415283,0.038915183395147324,-0.04429350048303604,-3.0782539397478104e-05,0.0013611511094495654,-0.0007603301201015711,-2.1229233741760254,-0.4237568974494934,0.6680721044540405,0.4224391579627991,0.4299771785736084,0.6377936601638794,-0.1298079788684845,0.45677050948143005,0.6427140235900879,0.42000001668930054,-0.5899936556816101,2.9999821186065674,-0.77085280418396,-2.999972343444824,-0.16119419038295746,-0.1678445041179657,-0.17277273535728455,-0.17637676000595093,-0.5998327136039734,-0.48461952805519104,-0.3475775122642517,-0.18459951877593994
0.35,0.03974994271993637,0.08604341745376587,0.0,0.9414653182029724,0.0,0.0,-0.3371099531650543,-0.7874797582626343,-0.7124417424201965,0.0,0.0,0.0,-1.222114086151123,-0.3980702757835388,0.6646605134010315,0.4206311106681824,0.9889352321624756,0.01587408408522606,-0.002321578562259674,-0.14747756719589233,0.3834840953350067,0.3682692050933838,0.0051831998862326145,0.26161912083625793,-0.05419192463159561,-12.75706958770752,-0.4153623580932617,0.675203800201416,0.4204130172729492,0.7020856142044067,0.44450700283050537,-0.12886184453964233,0.45677050948143005,0.6427140235900879,0.42000001668930054,-0.5399888157844543,3.0000014305114746,-0.8208920955657959,-3.000000238418579,-0.17142704129219055,-0.17570585012435913,-0.17786723375320435,-0.17825698852539062,-0.5941458344459534,-0.42912235856056213,-0.2415400892496109,-0.028999455273151398
0.36666666666666664,0.030177626758813858,0.07220088690519333,0.0,0.9307303428649902,0.0,0.0,-0.3657062351703644,-0.4989493489265442,-0.8809462189674377,0.0,0.0,0.0,-4.495299339294434,-0.3871503472328186,0.6754785776138306,0.4203583002090454,0.9816184639930725,-0.008768807165324688,0.0014988601906225085,-0.19064630568027496,0.8272041082382202,0.8337132334709167,0.09168421477079391,-4.283051013946533,1.5856926441192627,-4.855530738830566,-0.40269505977630615,0.6848026514053345,0.4202633500099182,0.8978015184402466,0.7599201202392578,0.11462276428937912,0.45677050948143005,0.6427140235900879,0.42000001668930054,-0.48995593190193176,2.999997854232788,-0.8709152936935425,-2.9999618530273438,-0.1803920865058899,-0.18185077607631683,-0.1807958483695984,-0.17754581570625305,-0.4586605727672577,-0.2904973030090332,-0.09969355165958405,0.11502006649971008
0.3833333333333333,0.018556255847215652,0.05647153779864311,0.0,0.9074105620384216,0.0,0.0,-0.4202452003955841,-0.8328405618667603,-0.9590510129928589,0.0,0.0,0.0,-8.047082901000977,-0.3653368651866913,0.6970118880271912,0.4222927689552307,0.9715669751167297,-0.02255760133266449,-0.018024878576397896,-0.2349972277879715,1.7394845485687256,1.707559585571289,0.19853296875953674,-0.43888190388679504,-3.9951257705688477,-6.199749946594238,-0.38023197650909424,0.7051838636398315,0.4224347472190857,1.852867841720581,1.6371548175811768,0.24060511589050293,0.45677050948143005,0.6427140235900879,0.42000001668930054,-0.4399350583553314,3.000001907348633,-0.9209333658218384,-2.999884843826294,-0.18988429009914398,-0.18817532062530518,-0.18362069129943848,-0.17653949558734894,-0.6110840439796448,-0.41063737869262695,-0.19435414671897888,0.036922637373209
0.4,0.009211432188749313,0.03816288337111473,0.0,0.8682166934013367,0.0,0.0,-0.49618518352508545,-0.5046610236167908,-1.1434472799301147,0.0,0.0,0.0,-10.970136642456055,-0.310702383518219,0.7318236231803894,0.4276396334171295,0.9485951066017151,0.03255530074238777,-0.059450916945934296,-0.30914875864982605,4.685647010803223,2.0209693908691406,0.7233590483665466,-15.853080749511719,0.20700262486934662,16.630451202392578,-0.32547834515571594,0.7418663501739502,0.4268164038658142,4.404452323913574,2.675374984741211,0.43049657344818115,0.45677050948143005,0.6427140235900879,0.42000001668930054,-0.3934406340122223,2.4080710411071777,-0.8839395046234131,3.000000238418579,-0.20223300158977509,-0.19600310921669006,-0.18684999644756317,-0.17515595257282257,-0.8203860521316528,-0.5179007053375244,-0.21929697692394257,0.07011379301548004
0.4166666666666667,0.0026435726322233677,0.02499706856906414,0.0,0.8104146122932434,0.0,0.0,-0.5858567357063293,-0.31401896476745605,-0.8234889507293701,0.0,0.0,0.0,-13.477949142456055,-0.2129863202571869,0.7724094390869141,0.4363875091075897,0.9169142842292786,0.09680713713169098,-0.10029803216457367,-0.3739474415779114,7.13096284866333,2.634000062942505,0.4517323970794678,22.304874420166016,-23.09559440612793,-2.920203685760498,-0.22624289989471436,0.7863605618476868,0.4350951910018921,7.1444993019104,2.902228832244873,0.613553524017334,0.45677050948143005,0.6427140235900879,0.42000001668930054,-0.3721357583999634,0.7177711725234985,-0.8338967561721802,2.9963972568511963,-0.21744738519191742,-0.20990464091300964,-0.19564414024353027,-0.17830416560173035,-0.5236325263977051,-0.6105296611785889,-0.4607285261154175,-0.20179495215415955
0.43333333333333335,-0.0002504989388398826,0.014057517983019352,0.0,0.7593747973442078,0.0,0.0,-0.6506534218788147,-0.1230803057551384,-0.5928956270217896,0.0,0.0,0.0,-8.767156600952148,-0.09907667338848114,0.8051891922950745,0.44719383120536804,0.8764799237251282,0.1337345689535141,-0.12807244062423706,-0.4444044828414917,7.026447296142578,0.8929545283317566,0.7699370980262756,-6.42266845703125,-12.597857475280762,11.184395790100098,-0.10928314924240112,0.8233011960983276,0.44650405645370483,7.021047592163086,1.4879257678985596,0.733027458190918,0.45677050948143005,0.6427140235900879,0.42000001668930054,-0.36016520857810974,0.5745500922203064,-0.8460394740104675,-2.999082088470459,-0.2299778163433075,-0.22181721031665802,-0.20415766537189484,-0.18230874836444855,-0.7563201189041138,-0.6722440719604492,-0.47247469425201416,-0.23335851728916168
0.45,-0.004891773220151663,0.008062921464443207,0.0,0.7289247512817383,0.0,0.0,-0.6845937967300415,-0.2900053858757019,-0.33377891778945923,0.0,0.0,0.0,-4.145944118499756,0.011621575802564621,0.8143488764762878,0.4568936228752136,0.8231168985366821,0.12417598068714142,-0.1314910501241684,-0.538301944732666,6.575620651245117,-0.4230627119541168,0.5538967847824097,28.02466583251953,-17.393457412719727,18.87615966796875,0.004572650417685509,0.835524320602417,0.45719170570373535,6.681151390075684,0.0017454922199249268,0.5895848274230957,0.45677050948143005,0.6427140235900879,0.42000001668930054,-0.34820860624313354,0.7526698708534241,-0.8960646986961365,-3.0000030994415283,-0.24001894891262054,-0.23621873557567596,-0.21406430006027222,-0.1875344067811966,-0.013221235014498234,-0.8260716795921326,-0.5753747224807739,-0.32578110694885254
0.4666666666666667,-0.006303119473159313,-0.0024902059230953455,0.0,0.7214553952217102,0.0,0.0,-0.6924608945846558,-0.10320014506578445,-0.5927746295928955,0.0,0.0,0.0,-0.31977060437202454,0.11232955753803253,0.8042629957199097,0.4627697467803955,0.7615331411361694,0.10227002948522568,-0.12828825414180756,-0.6270169615745544,5.45451021194458,-1.610293984413147,0.34701505303382874,-19.8409423828125,-5.525467395782471,5.170225620269775,0.10952307283878326,0.8283436298370361,0.46422719955444336,5.732560634613037,-1.1085162162780762,0.3449500799179077,0.45677050948143005,0.6427140235900879,0.42000001668930054,-0.3371557891368866,0.5284610986709595,-0.9460895657539368,-2.9999916553497314,-0.23883062601089478,-0.23925109207630157,-0.219713494181633,-0.1895846575498581,-0.16116352379322052,-0.08774463087320328,-0.3287947177886963,-0.101268470287323
0.48333333333333334,-0.005962139926850796,-0.008196676149964333,0.0,0.7051882743835449,0.0,0.0,-0.7090200781822205,0.06879547983407974,-0.2740635573863983,0.0,0.0,0.0,-3.6752007007598877,0.1982777714729309,0.7804083824157715,0.4634420573711395,0.695906400680542,0.06560862064361572,-0.13494578003883362,-0.7022815942764282,4.664455890655518,-1.9890421628952026,0.05957692489027977,-16.466737747192383,6.494046211242676,-5.593937397003174,0.1996181607246399,0.8055860996246338,0.4659039378166199,5.232555389404297,-1.760835886001587,-0.10174490511417389,0.45677050948143005,0.6427140235900879,0.42000001668930054,-0.32868140935897827,0.36217084527015686,-0.9961135983467102,-2.999227285385132,-0.23994849622249603,-0.23987321555614471,-0.22500266134738922,-0.19203607738018036,0.029335618019104004,0.056999582797288895,-0.1934739649295807,-0.0914526879787445
0.5,-0.002562496345490217,-0.01101790089160204,0.0,0.7025873064994812,0.0,0.0,-0.7115975022315979,0.23502951860427856,-0.10495377331972122,0.0,0.0,0.0,0.4341322183609009,0.2743701934814453,0.7480902075767517,0.4592786729335785,0.6243693232536316,0.021207362413406372,-0.12920542061328888,-0.7700772881507874,3.8008360862731934,-2.563321590423584,-0.30296841263771057,-13.62870979309082,8.980698585510254,7.27903413772583,0.27949491143226624,0.7723701000213623,0.461787611246109,4.469929218292236,-2.2816851139068604,-0.35024309158325195,0.45677050948143005,0.6427140235900879,0.42000001668930054,-0.32354819774627686,0.16832056641578674,-1.0461360216140747,-2.9995062351226807,-0.238346129655838,-0.23767751455307007,-0.22658316791057587,-0.19315685331821442,0.13934731483459473,0.18910154700279236,-0.01084552239626646,-0.04609822481870651
0.5166666666666666,0.003143942216411233,-0.01075708121061325,0.0,0.6908449530601501,0.0,0.0,-0.7230029702186584,0.3899312913417816,0.1017979308962822,0.0,0.0,0.0,-2.817732810974121,0.3376731276512146,0.7144426107406616,0.4478899836540222,0.5744497776031494,-0.021396005526185036,-0.126249760389328,-0.8084619045257568,2.64949369430542,-2.731523275375366,-0.5968437194824219,0.742825984954834,0.13332659006118774,45.494171142578125,0.3449510633945465,0.7372710704803467,0.4508054852485657,3.6199734210968018,-2.1687090396881104,-0.8608172535896301,0.45677050948143005,0.6427140235900879,0.42000001668930054,-0.32257601618766785,-0.1410830020904541,-1.0961581468582153,-2.9997944831848145,-0.23362576961517334,-0.23279695212841034,-0.2252761423587799,-0.1938554346561432,0.3146236836910248,0.323948472738266,0.12704050540924072,-0.04333268851041794
0.5333333333333333,0.012213959358632565,-0.014463388361036777,0.0,0.691216766834259,0.0,0.0,-0.722647488117218,0.6220142245292664,-0.42454102635383606,0.0,0.0,0.0,0.9960610270500183,0.38737261295318604,0.6822957992553711,0.43193021416664124,0.5115486979484558,-0.06763985753059387,-0.11432081460952759,-0.8489249348640442,1.482898473739624,-2.5980372428894043,-0.747822105884552,0.2191251516342163,5.623169898986816,49.82001495361328,0.39430877566337585,0.7027596235275269,0.4349161982536316,2.6616902351379395,-2.0752980709075928,-1.0163218975067139,0.45677050948143005,0.6427140235900879,0.42000001668930054,-0.32660287618637085,-0.5099088549613953,-1.146180272102356,-2.999180316925049,-0.22308459877967834,-0.22287148237228394,-0.21903780102729797,-0.19176827371120453,0.7539311051368713,0.7065869569778442,0.4917975068092346,0.19901394844055176
0.55,0.01818348467350006,-0.01539345271885395,0.0,0.6815973520278931,0.0,0.0,-0.7317274212837219,0.3210446834564209,0.0012465912150219083,0.0,0.0,0.0,-2.1861934661865234,0.4216916263103485,0.6623817086219788,0.4239920377731323,0.4535961151123047,-0.05781516432762146,-0.060139939188957214,-0.8872941732406616,1.530155062675476,-1.0316956043243408,-0.10855109244585037,7.105244159698486,-8.676010131835938,6.045309066772461,0.4241970181465149,0.6794105768203735,0.4255463182926178,1.3371593952178955,-1.0643310546875,-0.18088069558143616,0.45677050948143005,0.6427140235900879,0.42000001668930054,-0.33609539270401,-0.3546207845211029,-1.1869698762893677,-1.929583191871643,-0.21305745840072632,-0.2134610116481781,-0.21258877217769623,-0.19015684723854065,0.5783712863922119,0.532699465751648,0.3709792494773865,0.07031526416540146
0.5666666666666667,0.02478913404047489,-0.013291777111589909,0.0,0.685631275177002,0.0,0.0,-0.7279490232467651,0.4289156496524811,0.212502583861351,0.0,0.0,0.0,1.5323443412780762,0.44105491042137146,0.6484583616256714,0.4221963584423065,0.43221160769462585,0.01726553402841091,-0.04876972734928131,-0.9002869129180908,0.6623467206954956,-0.6428571939468384,-0.0228277575224638,1.0369378328323364,-1.5544124841690063,1.9168144464492798,0.44035226106643677,0.6644944548606873,0.4256293773651123,0.7114832997322083,-0.6896679401397705,0.17406345903873444,0.45677050948143005,0.6427140235900879,0.42000001668930054,-0.32813891768455505,1.1599719524383545,-1.2361594438552856,-2.9995100498199463,-0.20377226173877716,-0.20504818856716156,-0.20660121738910675,-0.18924272060394287,0.5605677962303162,0.49935382604599,0.3636077046394348,0.053067468106746674
0.5833333333333334,0.03319432958960533,-0.013861799612641335,0.0,0.6784172654151917,0.0,0.0,-0.7346767783164978,0.5305135250091553,-0.08974920958280563,0.0,0.0,0.0,-2.125171661376953,0.45036107301712036,0.6410298943519592,0.42136287689208984,0.4602878987789154,0.016402414068579674,-0.03127545490860939,-0.8870669007301331,0.4407106041908264,-0.31649455428123474,-0.029095640406012535,0.9707947373390198,1.2686026096343994,4.669613838195801,0.4491230249404907,0.6581995487213135,0.42488041520118713,0.3038817048072815,-0.2622550427913666,-0.05151447653770447,0.45677050948143005,0.6427140235900879,0.42000001668930054,-0.3396214246749878,-2.238373279571533,-1.1981170177459717,2.9998385906219482,-0.1925099641084671,-0.19519244134426117,-0.199105903506279,-0.18716742098331451,0.6458525061607361,0.5702974200248718,0.45005080103874207,0.13754841685295105
0.6,0.04387229308485985,-0.011039678007364273,0.0,0.6827313303947449,0.0,0.0,-0.7306694984436035,0.6590486168861389,0.1800348162651062,0.0,0.0,0.0,1.5877114534378052,0.45503711700439453,0.6370781064033508,0.4207507371902466,0.47928792238235474,0.009119860827922821,-0.016522357240319252,-0.8774548172950745,0.10063300281763077,-0.11867979913949966,0.0313405767083168,-1.7201502323150635,-1.9840689897537231,3.4550540447235107,0.4510940909385681,0.6544054746627808,0.4266243875026703,0.004989448934793472,-0.05666682496666908,0.18072441220283508,0.45677050948143005,0.6427140235900879,0.42000001668930054,-0.38732030987739563,-2.9951963424682617,-1.2192692756652832,-2.998988151550293,-0.18465469777584076,-0.18830449879169464,-0.19370417296886444,-0.1864781677722931,0.5649918913841248,0.47264137864112854,0.3641766607761383,0.06850963085889816
0.6166666666666667,0.05620089918375015,-0.012286433950066566,0.0,0.6756780743598938,0.0,0.0,-0.7371968030929565,0.762113630771637,-0.10125117748975754,0.0,0.0,0.0,-2.1293516159057617,0.4560418426990509,0.6361270546913147,0.42027345299720764,0.5001178979873657,0.003450690768659115,-0.00588215934112668,-0.8659303784370422,-0.011941076256334782,0.04311106353998184,-0.01785498484969139,0.48259684443473816,0.7718709707260132,3.308356523513794,0.45277297496795654,0.6585507988929749,0.4300500750541687,0.02782503515481949,0.3517926335334778,0.2260592132806778,0.45677050948143005,0.6427140235900879,0.42000001668930054,-0.4373333752155304,-3.0000007152557373,-1.2692221403121948,-2.9988183975219727,-0.172278493642807,-0.17803850769996643,-0.1855950504541397,-0.18346740305423737,0.6640692353248596,0.5575301051139832,0.4549693465232849,0.18114468455314636
0.6333333333333333,0.07058413326740265,-0.009922252036631107,0.0,0.6800432801246643,0.0,0.0,-0.7331719994544983,0.8815932869911194,0.16458003222942352,0.0,0.0,0.0,1.6136959791183472,0.45566219091415405,0.636776864528656,0.42000022530555725,0.5107642412185669,1.028546989800816e-06,1.1755754712794442e-05,-0.859720766544342,-0.028062891215085983,0.04057174548506737,-0.0002854258636943996,-0.009084835648536682,-0.00988204125314951,0.8786225318908691,0.45225122570991516,0.6629108190536499,0.43328046798706055,0.006607562303543091,0.29705727100372314,0.19799542427062988,0.45677050948143005,0.6427140235900879,0.42000001668930054,-0.48734748363494873,-2.999969482421875,-1.3192147016525269,-2.9999961853027344,-0.16438908874988556,-0.17147789895534515,-0.18020373582839966,-0.18196235597133636,0.4934956133365631,0.40261876583099365,0.3277568221092224,0.10190021246671677
0.65,0.08231957256793976,-0.011941744014620781,0.0,0.7050802111625671,0.0,0.0,-0.7091276049613953,0.6352337598800659,-0.16474390029907227,0.0,0.0,0.0,4.930469036102295,0.45427000522613525,0.6376916170120239,0.42024582624435425,0.5087510347366333,0.0031735983211547136,-0.005274111870676279,-0.8608916401863098,-0.16627731919288635,0.06173234432935715,0.043022241443395615,-1.0328614711761475,-1.8999806642532349,-0.8456611037254333,0.4507260322570801,0.6656351089477539,0.43636196851730347,-0.19618777930736542,0.10550182312726974,0.18926078081130981,0.45677050948143005,0.6427140235900879,0.42000001668930054,-0.5373624563217163,-3.000000476837158,-1.3691836595535278,-2.9986720085144043,-0.15614274144172668,-0.16424210369586945,-0.17367200553417206,-0.17847944796085358,0.3298324644565582,0.3173291087150574,0.3235166072845459,0.19741836190223694
0.6666666666666666,0.09426474571228027,-0.017434312030673027,0.0,0.7155026793479919,0.0,0.0,-0.6986100077629089,0.7487407326698303,-0.3791831135749817,0.0,0.0,0.0,0.7486472129821777,0.4520474970340729,0.6385131478309631,0.4201023578643799,0.5043287873268127,0.0012682166416198015,-0.0021964488551020622,-0.8635079264640808,-0.12231649458408356,0.044854432344436646,-0.025683997198939323,0.6359859704971313,1.1396499872207642,-0.5607547163963318,0.45025500655174255,0.6689489483833313,0.44088464975357056,-0.037057191133499146,0.19875216484069824,0.30661773681640625,0.45677050948143005,0.6427140235900879,0.42000001668930054,-0.5873583555221558,-2.9967548847198486,-1.4191479682922363,-2.9997403621673584,-0.1522500067949295,-0.15970301628112793,-0.16800034046173096,-0.1735251545906067,0.17330613732337952,0.25645047426223755,0.37519213557243347,0.40026938915252686
0.6833333333333333,0.10795537382364273,-0.02579304203391075,0.0,0.7043740153312683,0.0,0.0,-0.7098290324211121,0.852752685546875,-0.5735663175582886,0.0,0.0,0.0,-2.7963473796844482,0.45109838247299194,0.6388445496559143,0.4200000464916229,0.5026773810386658,1.7813644603847933e-07,-2.2572355362626695e-07,-0.8644741177558899,-0.033889953047037125,0.01199544407427311,-3.159511834383011e-06,0.000234757928410545,5.986537871649489e-05,-0.12839733064174652,0.45554471015930176,0.6747108101844788,0.4521467387676239,0.6055241823196411,0.40495800971984863,1.1471750736236572,0.45677050948143005,0.6427140235900879,0.42000001668930054,-0.6373693346977234,-2.999983072280884,-1.4691661596298218,-3.0,-0.15199124813079834,-0.15772642195224762,-0.16367319226264954,-0.16815392673015594,-0.06884823739528656,0.04838480427861214,0.2044495940208435,0.2954044044017792
0.7,0.12503065168857574,-0.028610844165086746,0.0,0.6716114282608032,0.0,0.0,-0.7409035563468933,1.0956614017486572,-0.03390391543507576,0.0,0.0,0.0,-6.424963474273682,0.4510984420776367,0.6388450264930725,0.41999995708465576,0.5026776194572449,-6.27920462648035e-06,-5.202569354878506e-06,-0.8644738793373108,-0.0002650665701366961,-0.0002730157575570047,-0.00015776394866406918,0.004072937648743391,-0.008953318931162357,-0.0009751016623340547,0.47431647777557373,0.6768344640731812,0.47747159004211426,1.6810301542282104,-0.14558956027030945,2.0178866386413574,0.45677050948143005,0.6427140235900879,0.42000001668930054,-0.6873762011528015,-2.9998741149902344,-1.5191844701766968,-2.999980926513672,-0.1623210906982422,-0.16431495547294617,-0.16597658395767212,-0.16718289256095886,-0.8287568688392639,-0.5579095482826233,-0.25757554173469543,-0.00982590951025486
0.7166666666666667,0.13885796070098877,-0.026133105158805847,0.0,0.6508269309997559,0.0,0.0,-0.7592260837554932,0.730369508266449,-0.06603656709194183,0.0,0.0,0.0,-1.9413940906524658,0.45109838247299194,0.6388447880744934,0.41999998688697815,0.5026775598526001,-3.038562226720387e-06,-3.547407914084033e-06,-0.8644738793373108,-8.909673488233238e-05,-0.0002874210476875305,-8.071563206613064e-05,0.008003978990018368,-0.0035640434361994267,-0.000729270395822823,0.5002020597457886,0.6774926781654358,0.5138345956802368,1.6408708095550537,0.24876824021339417,2.2824931144714355,0.45677050948143005,0.6427140235900879,0.42000001668930054,-0.7030209302902222,0.8043268918991089,-1.5692027807235718,-2.9999985694885254,-0.1741165816783905,-0.17325201630592346,-0.17096009850502014,-0.16896486282348633,-0.23960983753204346,-0.20871667563915253,-0.11213859915733337,-0.041911184787750244
0.7333333333333333,0.14773666858673096,-0.024981673806905746,0.0,0.656330406665802,0.0,0.0,-0.7544735670089722,0.4598093032836914,0.12014050781726837,0.0,0.0,0.0,1.743733286857605,0.45109838247299194,0.6388447880744934,0.41999998688697815,0.5026776790618896,-3.1759673220221885e-06,-3.3797946343838703e-06,-0.8644738793373108,-8.941843407228589e-05,-0.00028805516194552183,-8.095381781458855e-05,0.008020912297070026,-0.003572643268853426,-0.0007308662170544267,0.5206279754638672,0.6810707449913025,0.5454753637313843,0.7981693744659424,0.23321807384490967,1.6167585849761963,0.45677050948143005,0.6427140235900879,0.42000001668930054,-0.6661741733551025,2.9999852180480957,-1.5302796363830566,3.000000238418579,-0.17711207270622253,-0.17579276859760284,-0.1721436083316803,-0.1691148430109024,-0.08630262315273285,-0.06997345387935638,-0.01106463372707367,0.03388737887144089
0.75,0.15203151106834412,-0.028965985402464867,0.0,0.6503560543060303,0.0,0.0,-0.759629487991333,0.26989710330963135,-0.2527470588684082,0.0,0.0,0.0,-1.6636255979537964,0.45109838247299194,0.6388447880744934,0.41999998688697815,0.5026775598526001,-3.169646561218542e-06,-3.411337274883408e-06,-0.8644738793373108,-9.048970969161019e-05,-0.00028804285102523863,-8.122995495796204e-05,0.008020403794944286,-0.003580210031941533,-0.000729070627130568,0.5273699164390564,0.6885764598846436,0.5657263994216919,-0.11812515556812286,0.3527846932411194,0.9424309730529785,0.45677050948143005,0.6427140235900879,0.42000001668930054,-0.6299283504486084,1.4574075937271118,-1.4802231788635254,3.000000238418579,-0.17300550639629364,-0.1722530871629715,-0.16860929131507874,-0.1656816154718399,0.054885122925043106,0.07105322927236557,0.10588456690311432,0.13239406049251556
0.7666666666666666,0.1537647247314453,-0.027676135301589966,0.0,0.6569610238075256,0.0,0.0,-0.7539244890213013,0.06506994366645813,0.10730297863483429,0.0,0.0,0.0,1.8131362199783325,0.45109838247299194,0.6388447880744934,0.41999998688697815,0.5026772618293762,-3.168918510709773e-06,-3.4508823318901705e-06,-0.8644741177558899,-9.064919868251309e-05,-0.00028854311676695943,-8.153379894793034e-05,0.008030415512621403,-0.0035825578961521387,-0.0007309628999792039,0.5192835330963135,0.6927943229675293,0.5786101818084717,-0.7050478458404541,0.3106992244720459,0.637719452381134,0.45677050948143005,0.6427140235900879,0.42000001668930054,-0.5877389311790466,2.999999761581421,-1.4302048683166504,2.999999761581421,-0.17579206824302673,-0.1740603744983673,-0.16935265064239502,-0.16553756594657898,-0.05683920904994011,-0.030592596158385277,-0.004804267548024654,0.016181280836462975
0.7833333333333333,0.15296855568885803,-0.029634660109877586,0.0,0.6514423489570618,0.0,0.0,-0.7586981058120728,-0.07618959248065948,-0.1888018101453781,0.0,0.0,0.0,-1.7855995893478394,0.45109838247299194,0.6388447880744934,0.41999998688697815,0.5026776790618896,-3.1446882076124894e-06,-3.482080046524061e-06,-0.8644739389419556,-8.922642155084759e-05,-0.0002880125248339027,-8.08460172265768e-05,0.008020990528166294,-0.003572935238480568,-0.0007309414213523269,0.5015875101089478,0.6984732151031494,0.5822958946228027,-1.4345612525939941,0.2925294041633606,-0.03326420858502388,0.45677050948143005,0.6427140235900879,0.42000001668930054,-0.5691658854484558,-0.484179824590683,-1.380150318145752,3.000000238418579,-0.17474761605262756,-0.1728781908750534,-0.16812722384929657,-0.16427648067474365,0.08614017069339752,0.0974111258983612,0.09662271291017532,0.09661446511745453
0.8,0.15433895587921143,-0.027578288689255714,0.0,0.6572397351264954,0.0,0.0,-0.7536816000938416,0.023617595434188843,0.13474078476428986,0.0,0.0,0.0,1.5276618003845215,0.45109841227531433,0.6388447880744934,0.41999998688697815,0.5026777386665344,-3.1490687888435787e-06,-3.5028863294428447e-06,-0.864473819732666,-8.911878103390336e-05,-0.0002880246320273727,-8.081202395260334e-05,0.008021494373679161,-0.003573077032342553,-0.0007311782101169229,0.48017072677612305,0.7024352550506592,0.5806269645690918,-1.0539871454238892,0.44694381952285767,-0.12356241047382355,0.45677050948143005,0.6427140235900879,0.42000001668930054,-0.5541889071464539,2.0481536388397217,-1.3406974077224731,1.8060258626937866,-0.17623202502727509,-0.17387330532073975,-0.16890381276607513,-0.1647985726594925,0.12034318596124649,0.08585122972726822,0.03977913409471512,0.0065439362078905106
0.8166666666666667,0.15657542645931244,-0.028749480843544006,0.0,0.651261568069458,0.0,0.0,-0.7588533163070679,0.18035931885242462,-0.10800867527723312,0.0,0.0,0.0,-1.7354029417037964,0.45109838247299194,0.6388447880744934,0.41999998688697815,0.5026775598526001,-3.173848426740733e-06,-3.586039156289189e-06,-0.8644738793373108,-9.107012738240883e-05,-0.0002882004773709923,-8.147465996444225e-05,0.008023233152925968,-0.0035847630351781845,-0.0007288102060556412,0.4613986611366272,0.7077571749687195,0.5751504898071289,-1.2124955654144287,0.10510130226612091,-0.3816109895706177,0.45677050948143005,0.6427140235900879,0.42000001668930054,-0.5643283128738403,-2.8318257331848145,-1.2909188270568848,3.0000007152557373,-0.17462676763534546,-0.17264924943447113,-0.16825230419635773,-0.16445349156856537,-0.02102266438305378,-0.008791156113147736,-0.01070627011358738,0.002585060428828001
0.8333333333333334,0.16112227737903595,-0.03252652287483215,0.0,0.6572834253311157,0.0,0.0,-0.7536434531211853,0.31646305322647095,-0.2944696843624115,0.0,0.0,0.0,1.7793543338775635,0.45109838247299194,0.6388447880744934,0.41999998688697815,0.5026776790618896,-3.1929191663948586e-06,-3.4019606118818047e-06,-0.8644738793373108,-8.937172970036045e-05,-0.0002880447427742183,-8.092704229056835e-05,0.008020984008908272,-0.003572811372578144,-0.0007308831554837525,0.44907963275909424,0.7091156244277954,0.5701886415481567,-0.3124517798423767,0.11877487599849701,-0.16603907942771912,0.45677050948143005,0.6427140235900879,0.42000001668930054,-0.582616925239563,0.3735711872577667,-1.3109537363052368,-2.9999985694885254,-0.17646723985671997,-0.17371277511119843,-0.16873076558113098,-0.16404135525226593,-0.10681433230638504,-0.05196593329310417,-0.0051130251958966255,0.06409616023302078
0.85,0.16787487268447876,-0.03913305327296257,0.0,0.6515511870384216,0.0,0.0,-0.7586047053337097,0.4435561001300812,-0.4581041634082794,0.0,0.0,0.0,-1.8022090196609497,0.45109838247299194,0.6388447880744934,0.41999998688697815,0.5026775598526001,-3.14789213007316e-06,-3.4307422538404353e-06,-0.8644738793373108,-9.059485455509275e-05,-0.00028802771703340113,-8.126324974000454e-05,0.008019897155463696,-0.0035798735916614532,-0.0007288196356967092,0.44774875044822693,0.7086187601089478,0.5655004382133484,0.17553114891052246,-0.17307861149311066,-0.20955701172351837,0.45677050948143005,0.6427140235900879,0.42000001668930054,-0.6129214763641357,-2.9999969005584717,-1.2727640867233276,3.000000476837158,-0.17947815358638763,-0.17546561360359192,-0.16930437088012695,-0.16302278637886047,-0.18379901349544525,-0.09481735527515411,-0.008607679978013039,0.10348030924797058
0.8666666666666667,0.17740227282047272,-0.042697131633758545,0.0,0.6248528957366943,0.0,0.0,-0.7807425260543823,0.6124071478843689,-0.18718861043453217,0.0,0.0,0.0,-4.956320762634277,0.45109838247299194,0.6388447880744934,0.41999998688697815,0.5026772618293762,-3.170097443216946e-06,-3.4638328543223906e-06,-0.8644741177558899,-9.059648436959833e-05,-0.00028852280229330063,-8.150539360940456e-05,0.008030164986848831,-0.0035822605714201927,-0.0007309584761969745,0.45545268058776855,0.7044590711593628,0.5646761059761047,0.7507748603820801,-0.25724509358406067,0.2449728399515152,0.45677050948143005,0.6427140235900879,0.42000001668930054,-0.6381747126579285,-0.24754734337329865,-1.2931077480316162,-2.9999985694885254,-0.18428638577461243,-0.17897392809391022,-0.1715306043624878,-0.1635279357433319,-0.2078068107366562,-0.1638667732477188,-0.11848082393407822,-0.04490990191698074
0.8833333333333333,0.18891748785972595,-0.04306422919034958,0.0,0.6135224103927612,0.0,0.0,-0.7896773219108582,0.7390761971473694,0.05220472440123558,0.0,0.0,0.0,-0.7307702302932739,0.45109838247299194,0.6388447880744934,0.41999998688697815,0.5026776790618896,-3.145924438285874e-06,-3.4950819554069312e-06,-0.8644739389419556,-8.922667620936409e-05,-0.0002880133397411555,-8.08460172265768e-05,0.0080209756270051,-0.0035729478113353252,-0.0007309498032554984,0.4663677215576172,0.702694296836853,0.5693120956420898,0.5359041094779968,-0.0010294131934642792,0.30628496408462524,0.45677050948143005,0.6427140235900879,0.42000001668930054,-0.6174356341362,2.481476068496704,-1.2660084962844849,2.999999761581421,-0.18686078488826752,-0.18140992522239685,-0.17384503781795502,-0.16531185805797577,-0.08881161361932755,-0.11174564063549042,-0.13945716619491577,-0.14721514284610748
