vladlanda/robotic-transformer/data/env_000_episode_0265.csv
sim_time_s,robot_box_x,robot_box_y,robot_box_z,robot_box_quat_w,robot_box_quat_x,robot_box_quat_y,robot_box_quat_z,robot_box_linvel_x,robot_box_linvel_y,robot_box_linvel_z,robot_box_angvel_x,robot_box_angvel_y,robot_box_angvel_z,cube_world_x,cube_world_y,cube_world_z,cube_quat_w,cube_quat_x,cube_quat_y,cube_quat_z,cube_linvel_x,cube_linvel_y,cube_linvel_z,cube_angvel_x,cube_angvel_y,cube_angvel_z,endpoint_world_x,endpoint_world_y,endpoint_world_z,endpoint_linvel_x,endpoint_linvel_y,endpoint_linvel_z,target_cube_world_x,target_cube_world_y,target_cube_world_z,gripper_actual_pos_rad_gp_leftgearjoint,gripper_actual_vel_rad_s_gp_leftgearjoint,gripper_actual_pos_rad_gp_rotatingjoint,gripper_actual_vel_rad_s_gp_rotatingjoint,motor_angle_rad_joint1,motor_angle_rad_joint2,motor_angle_rad_joint3,motor_angle_rad_joint4,motor_speed_rad_s_joint1,motor_speed_rad_s_joint2,motor_speed_rad_s_joint3,motor_speed_rad_s_joint4
0.0,0.0,0.0,0.0,1.0,0.0,0.0,0.0,0.0,0.0,0.0,0.0,0.0,0.0,-0.4347584843635559,0.703640878200531,0.41999998688697815,1.0,0.0,0.0,0.0,0.0,0.0,0.0,0.0,0.0,0.0,3.42540442943573e-06,-0.005000244826078415,1.313499927520752,0.0,0.0,0.0,0.39847084879875183,0.6553241014480591,0.42000001668930054,-1.5707999467849731,0.0,0.0,0.0,0.0,0.0,0.0,0.0,0.0,0.0,0.0,0.0
0.016666666666666666,0.0028778850100934505,0.0021806680597364902,0.0,0.9998081922531128,0.0,0.0,0.019586581736803055,0.24087215960025787,0.18240931630134583,0.0,0.0,0.0,3.1418697834014893,-0.43475860357284546,0.7036405801773071,0.41999998688697815,1.0,3.279964630564791e-06,-8.339746386809566e-07,8.465587342243452e-08,-1.9833529222523794e-05,0.00017983045836444944,-6.132945418357849e-05,0.0009432713268324733,-0.004689474124461412,-0.00031981561915017664,-0.007110234349966049,0.003379564033821225,1.3159373998641968,-0.8143353462219238,0.9868683815002441,0.18095196783542633,0.39847084879875183,0.6553241014480591,0.42000001668930054,-1.5301095247268677,3.0000011920928955,-0.04584788903594017,-2.9999992847442627,0.0008691533003002405,0.0007963840034790337,0.0007110277656465769,0.0006108740926720202,0.11094217747449875,0.09756709635257721,0.08334315568208694,0.06823883205652237
0.03333333333333333,0.008960975334048271,0.006801933981478214,0.0,0.9997960329055786,0.0,0.0,0.020196836441755295,0.40702128410339355,0.31530869007110596,0.0,0.0,0.0,-0.869130551815033,-0.434758722782135,0.7036405205726624,0.4200000464916229,1.0,3.3908354453160428e-06,-2.1324485715012997e-06,-3.710144014235084e-08,0.00026357831666246057,0.00026937946677207947,-0.00010509486310184002,-0.0017707672668620944,0.004130808170884848,-0.000135478752781637,-0.027549710124731064,0.02607693523168564,1.3166148662567139,-1.5915110111236572,1.615570068359375,-0.08279220014810562,0.39847084879875183,0.6553241014480591,0.42000001668930054,-1.4800903797149658,3.0000007152557373,-0.09588771313428879,-3.000000476837158,0.002990138018503785,0.0026527615264058113,0.0022773442324250937,0.001860811491496861,0.16422080993652344,0.1397653967142105,0.11382527649402618,0.08630820363759995
0.05,0.017709268257021904,0.013763059861958027,0.0,0.9993895888328552,0.0,0.0,0.03493470698595047,0.5929180383682251,0.46473294496536255,0.0,0.0,0.0,2.654618740081787,-0.4347587525844574,0.7036405801773071,0.4200000464916229,1.0,3.765139354072744e-06,-2.2119161258160602e-06,5.630195420991413e-09,0.0002653095289133489,0.00026691411039792,-0.00010440382175147533,-0.0017242460744455457,0.004177400842308998,-0.00012949357915204018,-0.05965835228562355,0.05381128191947937,1.311675786972046,-2.1871166229248047,1.7436964511871338,-0.4704548716545105,0.39847084879875183,0.6553241014480591,0.42000001668930054,-1.4300720691680908,3.000002384185791,-0.145926371216774,-3.0000016689300537,0.005693979095667601,0.004902701824903488,0.004039311781525612,0.0030993223190307617,0.19258365035057068,0.15567940473556519,0.11690264940261841,0.07615981996059418
0.06666666666666667,0.029010331258177757,0.023051099851727486,0.0,0.9994593262672424,0.0,0.0,0.032879386097192764,0.7195120453834534,0.5949045419692993,0.0,0.0,0.0,-1.2049063444137573,-0.4347587525844574,0.7036405205726624,0.4200000464916229,0.9999999403953552,3.4067529668391217e-06,-2.2856381747260457e-06,4.300985096961085e-07,0.00026702662580646574,0.00026791892014443874,-0.00010437914170324802,-0.001740677747875452,0.004211848136037588,-0.0001285130565520376,-0.09728141129016876,0.0880742073059082,1.299516201019287,-2.350135326385498,2.2509756088256836,-0.9629279971122742,0.39847084879875183,0.6553241014480591,0.42000001668930054,-1.3800537586212158,3.0,-0.19594725966453552,-2.999999761581421,0.008172200061380863,0.006657415069639683,0.005031627137213945,0.00328916497528553,0.13929027318954468,0.08475654572248459,0.028178494423627853,-0.0305193979293108
0.08333333333333333,0.03438781574368477,0.035683952271938324,0.0,1.0,0.0,0.0,-0.0002565833565313369,0.18930412828922272,0.8246268033981323,0.0,0.0,0.0,-4.928686141967773,-0.4347587525844574,0.7036405205726624,0.4200000464916229,0.9999999403953552,3.62606829185097e-06,-2.335380486329086e-06,3.0323212740768213e-07,0.0002661412872839719,0.00026685078046284616,-0.00010405294597148895,-0.001728333649225533,0.00419644033536315,-0.0001279062998946756,-0.1347125768661499,0.12993168830871582,1.278975009918213,-2.181675910949707,2.637101650238037,-1.4037295579910278,0.39847084879875183,0.6553241014480591,0.42000001668930054,-1.3300268650054932,2.999997615814209,-0.16218191385269165,2.9999992847442627,0.004923456348478794,0.0027923656161874533,0.0004993659094907343,-0.0019654110074043274,-0.2898505628108978,-0.3327261805534363,-0.3781612813472748,-0.4264405369758606
0.1,0.04401906207203865,0.04962997883558273,0.0,0.9998884797096252,0.0,0.0,-0.014932388439774513,0.6742645502090454,0.8505831360816956,0.0,0.0,0.0,-0.6939957141876221,-0.4347587525844574,0.7036405205726624,0.4200000464916229,1.0,3.4221370697196107e-06,-2.3086815872375155e-06,1.796389312858082e-07,0.00026681539020501077,0.00026800509658642113,-0.00010440591722726822,-0.0017431024461984634,0.004207069985568523,-0.00012891364167444408,-0.17334136366844177,0.16962775588035583,1.2572801113128662,-2.300513744354248,2.4128732681274414,-1.2968461513519287,0.39847084879875183,0.6553241014480591,0.42000001668930054,-1.2800296545028687,3.0,-0.19386684894561768,-2.999999523162842,0.005098555702716112,0.001434706267900765,-0.0023879583459347486,-0.006379636470228434,0.03419505059719086,-0.07001585513353348,-0.17334295809268951,-0.27573537826538086
0.11666666666666667,0.05173404887318611,0.06141313537955284,0.0,0.9991183876991272,0.0,0.0,-0.04198075085878372,0.4624689519405365,0.6568838953971863,0.0,0.0,0.0,-3.9118618965148926,-0.4347587525844574,0.7036405801773071,0.4200000464916229,1.0,3.711518957061344e-06,-2.332746134925401e-06,2.574393818122189e-07,0.0002648587978910655,0.00026635429821908474,-0.00010423408821225166,-0.0017181973671540618,0.0041701472364366055,-0.0001291576772928238,-0.2079257369041443,0.2164231240749359,1.2344725131988525,-1.8778026103973389,3.164414882659912,-1.3833519220352173,0.39847084879875183,0.6553241014480591,0.42000001668930054,-1.2300055027008057,2.9999918937683105,-0.16010496020317078,3.0000007152557373,0.0036909787449985743,-0.001860736170783639,-0.007542883977293968,-0.013364717364311218,-0.044319793581962585,-0.17720364034175873,-0.3070175349712372,-0.43357789516448975
0.13333333333333333,0.05661088228225708,0.07428991794586182,0.0,0.9956041574478149,0.0,0.0,-0.09366054832935333,0.2233894318342209,0.8233239650726318,0.0,0.0,0.0,-7.005465030670166,-0.4347587525844574,0.7036405205726624,0.4200000464916229,0.9999999403953552,3.4247466373926727e-06,-2.302080702065723e-06,1.5600794256442896e-07,0.0002670696994755417,0.0002681137702893466,-0.0001044438686221838,-0.0017433431930840015,0.0042120348662137985,-0.00012877548579126596,-0.2399328202009201,0.2704155743122101,1.210484504699707,-1.9143826961517334,3.3434486389160156,-1.5571132898330688,0.39847084879875183,0.6553241014480591,0.42000001668930054,-1.1914124488830566,1.7097491025924683,-0.19185476005077362,-2.9999992847442627,0.0016595384804531932,-0.006033203098922968,-0.01378993596881628,-0.021616406738758087,-0.197462260723114,-0.31237608194351196,-0.4231627285480499,-0.5296497941017151
0.15,0.05827147513628006,0.08566612750291824,0.0,0.9922388792037964,0.0,0.0,-0.12434608489274979,0.05551297962665558,0.5869450569152832,0.0,0.0,0.0,-2.6225030422210693,-0.4347587525844574,0.7036405205726624,0.4200000464916229,1.0,3.713895694090752e-06,-2.2079168502386892e-06,-1.6907364397411584e-07,0.0002635339042171836,0.00026536150835454464,-0.00010422081686556339,-0.0017013062024489045,0.004144124686717987,-0.00012960462481714785,-0.2784285545349121,0.3235139846801758,1.178639531135559,-2.3027632236480713,3.3890669345855713,-2.2414422035217285,0.39847084879875183,0.6553241014480591,0.42000001668930054,-1.146347999572754,2.9999990463256836,-0.1854923814535141,2.999999523162842,-0.0024783979170024395,-0.011782844550907612,-0.02107289806008339,-0.03035341203212738,-0.3006977140903473,-0.377588152885437,-0.4499645233154297,-0.5178968906402588
0.16666666666666666,0.05790528655052185,0.09726472198963165,0.0,0.9860106706619263,0.0,0.0,-0.1666821390390396,-0.1298762857913971,0.7399921417236328,0.0,0.0,0.0,-5.927567005157471,-0.4347587525844574,0.7036405205726624,0.4200000464916229,0.9999999403953552,3.6383539736561943e-06,-2.278940200994839e-06,2.700881793771259e-07,0.0002668279630597681,0.00026750098913908005,-0.00010410090908408165,-0.0017400282667949796,0.004210173152387142,-0.00012781485565938056,-0.3144558072090149,0.3833417594432831,1.1390314102172852,-1.9259700775146484,3.838019609451294,-2.5248289108276367,0.39847084879875183,0.6553241014480591,0.42000001668930054,-1.096679925918579,2.9315202236175537,-0.21705378592014313,-2.999999761581421,-0.009112958796322346,-0.019647149369120598,-0.030086474493145943,-0.04043716937303543,-0.5083891153335571,-0.5710324048995972,-0.629143476486206,-0.6827947497367859
0.18333333333333332,0.061510227620601654,0.11090391874313354,0.0,0.9815147519111633,0.0,0.0,-0.1913866400718689,0.17112912237644196,0.8357664942741394,0.0,0.0,0.0,-1.8947898149490356,-0.4347587525844574,0.7036405205726624,0.4200000464916229,1.0,3.386442813280155e-06,-2.3004331524134614e-06,1.4394974812148575e-07,0.00026674536638893187,0.0002678722084965557,-0.00010437029413878918,-0.0017412299057468772,0.004205992445349693,-0.00012878747656941414,-0.3501981794834137,0.44404810667037964,1.0895569324493408,-2.0490567684173584,3.684904098510742,-3.424531936645508,0.39847084879875183,0.6553241014480591,0.42000001668930054,-1.0600064992904663,1.556566834449768,-0.2670819163322449,-2.9999990463256836,-0.015330055728554726,-0.0266799908131361,-0.03785780072212219,-0.04887476935982704,-0.6165155172348022,-0.6101670861244202,-0.6020690202713013,-0.5927973389625549
0.2,0.06101834774017334,0.12161380797624588,0.0,0.9735043048858643,0.0,0.0,-0.22866860032081604,-0.05460812896490097,0.606893002986908,0.0,0.0,0.0,-5.2896528244018555,-0.4347587525844574,0.7036405801773071,0.4200000464916229,1.0,3.6755052406078903e-06,-2.326723233636585e-06,2.2115256115284865e-07,0.00026484549744054675,0.0002663145714905113,-0.00010421895422041416,-0.0017177033005282283,0.004169865511357784,-0.00012909747601952404,-0.3824910521507263,0.5076285004615784,1.0258939266204834,-1.6744163036346436,3.9500718116760254,-4.167448997497559,0.39847084879875183,0.6553241014480591,0.42000001668930054,-1.0134135484695435,2.999994993209839,-0.31710848212242126,-3.000000238418579,-0.028651563450694084,-0.0397154837846756,-0.05028097331523895,-0.060693081468343735,-0.8560694456100464,-0.844110369682312,-0.7943916916847229,-0.7454307675361633
0.21666666666666667,0.06207701563835144,0.13361786305904388,0.0,0.9689759016036987,0.0,0.0,-0.24715517461299896,0.12623409926891327,0.73314368724823,0.0,0.0,0.0,-1.1642202138900757,-0.4347587525844574,0.7036405205726624,0.4200000464916229,1.0,3.3222572710656095e-06,-2.2081776478444226e-06,2.7429024385128287e-07,0.00026662927120923996,0.00026749641983769834,-0.00010426202788949013,-0.0017358721233904362,0.0042048306204378605,-0.00012833892833441496,-0.41200822591781616,0.5655511617660522,0.9493426084518433,-1.5769686698913574,3.2789371013641357,-4.956110954284668,0.39847084879875183,0.6553241014480591,0.42000001668930054,-0.9634090662002563,3.000000476837158,-0.36713680624961853,-2.9999988079071045,-0.044456351548433304,-0.055250972509384155,-0.06513077765703201,-0.0743861272931099,-0.9432671666145325,-0.9350512027740479,-0.9231981039047241,-0.8582597374916077
0.23333333333333334,0.06178491935133934,0.14272324740886688,0.0,0.9608145356178284,0.0,0.0,-0.27719199657440186,-0.07407357543706894,0.4743424952030182,0.0,0.0,0.0,-4.594141960144043,-0.4347587525844574,0.7036405205726624,0.4200000464916229,1.0,3.6564526908478e-06,-2.3736010916763917e-06,-4.0766275333226076e-07,0.0002661167527548969,0.0002672596601769328,-0.00010423432104289532,-0.0017335143638774753,0.0041946242563426495,-0.0001285518374061212,-0.4352121949195862,0.61848384141922,0.860124409198761,-1.1021958589553833,2.9964003562927246,-5.613164901733398,0.39847084879875183,0.6553241014480591,0.42000001668930054,-0.9133983850479126,3.000002145767212,-0.4171670377254486,-3.000000238418579,-0.06088104844093323,-0.07162868976593018,-0.08146325498819351,-0.09059217572212219,-0.9886746406555176,-0.9908608794212341,-0.9925482273101807,-0.9825684428215027
0.25,0.05826720595359802,0.15052607655525208,0.0,0.9573547840118408,0.0,0.0,-0.28891485929489136,-0.2557215690612793,0.46033406257629395,0.0,0.0,0.0,-0.45701199769973755,-0.4347587525844574,0.7036405801773071,0.4200000464916229,1.0,3.630446599345305e-06,-2.242833488708129e-06,1.1232739183242302e-08,0.0002667997614480555,0.00026705898926593363,-0.00010390509851276875,-0.0017341489437967539,0.004210493993014097,-0.00012702637468464673,-0.4541624188423157,0.6578593254089355,0.7635716199874878,-0.927139937877655,1.9403033256530762,-5.958461761474609,0.39847084879875183,0.6553241014480591,0.42000001668930054,-0.8633877038955688,3.0000009536743164,-0.4671980142593384,-3.0,-0.07722056657075882,-0.0879521295428276,-0.09774784743785858,-0.1068330928683281,-0.9880469441413879,-0.9901134371757507,-0.9822018146514893,-0.9701603055000305
0.26666666666666666,0.05766059085726738,0.15451784431934357,0.0,0.9506417512893677,0.0,0.0,-0.3102905750274658,0.031118787825107574,0.16925513744354248,0.0,0.0,0.0,-3.4100208282470703,-0.434758722782135,0.7036405205726624,0.4200000464916229,0.9999999403953552,3.7399906887003453e-06,-2.2365486529452028e-06,4.5000140858064697e-07,0.0002647956134751439,0.0002667304943315685,-0.00010454049333930016,-0.001718976185657084,0.004166697151958942,-0.00013017040328122675,-0.4660223424434662,0.6854304075241089,0.6580653190612793,-0.364519327878952,1.2735180854797363,-6.503144264221191,0.39847084879875183,0.6553241014480591,0.42000001668930054,-0.813378095626831,2.9999990463256836,-0.5172290802001953,-2.99999737739563,-0.09385477751493454,-0.10454338043928146,-0.11428836733102798,-0.12332387268543243,-0.9956875443458557,-0.9959157705307007,-0.9961020946502686,-0.9962688088417053
0.2833333333333333,0.0539005771279335,0.15586720407009125,0.0,0.9498472213745117,0.0,0.0,-0.3127143979072571,-0.2956191301345825,0.050122953951358795,0.0,0.0,0.0,0.6613302826881409,-0.4347587525844574,0.7036405205726624,0.4200000464916229,1.0,3.3915084713953547e-06,-2.291397777298698e-06,1.246272489652256e-07,0.0002667707158252597,0.00026789307594299316,-0.0001043747179210186,-0.001741324202157557,0.004206291865557432,-0.00012878513371106237,-0.4679180383682251,0.6966618299484253,0.5561068058013916,0.22884906828403473,0.2617354094982147,-5.7670183181762695,0.39847084879875183,0.6553241014480591,0.42000001668930054,-0.7633693218231201,3.000002384185791,-0.5672587156295776,-3.000000476837158,-0.11171447485685349,-0.1221105307340622,-0.1316370666027069,-0.1405029445886612,-1.011034607887268,-1.008302927017212,-1.0062226057052612,-1.0045688152313232
0.3,0.04675823822617531,0.15505222976207733,0.0,0.9446540474891663,0.0,0.0,-0.32806822657585144,-0.40598973631858826,-0.11859153211116791,0.0,0.0,0.0,-2.748666524887085,-0.4347587525844574,0.7036405801773071,0.4200000464916229,1.0,3.680589315990801e-06,-2.319327450095443e-06,2.0111419019031018e-07,0.00026478979270905256,0.00026625863392837346,-0.00010421290062367916,-0.001716940081678331,0.004168967716395855,-0.00012910025543533266,-0.45755651593208313,0.700595498085022,0.4630272388458252,0.9579651355743408,0.28838545083999634,-5.404761791229248,0.39847084879875183,0.6553241014480591,0.42000001668930054,-0.7133610844612122,2.9999940395355225,-0.6172865629196167,-3.00000262260437,-0.12861716747283936,-0.13892588019371033,-0.14841784536838531,-0.1572728157043457,-0.9246277809143066,-0.93802809715271,-0.9524250030517578,-0.9659923911094666
0.31666666666666665,0.038568686693906784,0.1513746678829193,0.0,0.945148766040802,0.0,0.0,-0.3266402781009674,-0.5297116637229919,-0.25862744450569153,0.0,0.0,0.0,1.0867223739624023,-0.43474817276000977,0.703479528427124,0.4200998842716217,0.9999943971633911,0.0023800653871148825,-0.00015974206326063722,-0.0023233843967318535,0.00013978159404359758,-0.09549673646688461,0.06327661126852036,3.4021334648132324,0.2836354076862335,-2.444101333618164,-0.4488978981971741,0.7048205137252808,0.42773574590682983,0.026075949892401695,-0.06905682384967804,-0.1575717180967331,0.39847084879875183,0.6553241014480591,0.42000001668930054,-0.6633977293968201,2.992377281188965,-0.6677409410476685,-2.9938199520111084,-0.1370011419057846,-0.14795012772083282,-0.15784655511379242,-0.16681067645549774,-0.19993939995765686,-0.23812194168567657,-0.25433996319770813,-0.24217894673347473
0.3333333333333333,0.02808252163231373,0.14541161060333252,0.0,0.9406349658966064,0.0,0.0,-0.33941981196403503,-0.6778491735458374,-0.39918509125709534,0.0,0.0,0.0,-2.5121543407440186,-0.4346782863140106,0.7023841738700867,0.42026087641716003,0.9999147057533264,0.006561600603163242,-7.973084575496614e-05,-0.011289739981293678,0.004199893679469824,-0.05431343615055084,-0.007590610068291426,-0.3856818675994873,0.006168530322611332,-0.8372594118118286,-0.44960808753967285,0.7067965865135193,0.42523571848869324,0.10448046028614044,0.13672839105129242,-0.18949608504772186,0.39847084879875183,0.6553241014480591,0.42000001668930054,-0.6133914589881897,2.999990940093994,-0.7177923321723938,-2.999979019165039,-0.14170263707637787,-0.15265516936779022,-0.1622348427772522,-0.17047297954559326,-0.3531268239021301,-0.3167414367198944,-0.2658589780330658,-0.19617529213428497
0.35,0.01539786346256733,0.1371290534734726,0.0,0.9417093396186829,0.0,0.0,-0.3364276587963104,-0.7999493479728699,-0.5368475317955017,0.0,0.0,0.0,1.3161239624023438,-0.43221744894981384,0.7058758735656738,0.4200006425380707,0.9986839890480042,-1.3511601537175011e-05,-5.1143862947355956e-05,-0.05128456652164459,0.2790569067001343,0.3835783898830414,-0.0006017638370394707,0.03367964178323746,-0.005375413689762354,-8.016925811767578,-0.44574475288391113,0.7116782665252686,0.4221958518028259,0.3382643461227417,0.4237159192562103,-0.15501153469085693,0.39847084879875183,0.6553241014480591,0.42000001668930054,-0.5633863806724548,2.999990701675415,-0.7678253650665283,-3.0000011920928955,-0.14914976060390472,-0.15873970091342926,-0.16674219071865082,-0.17313961684703827,-0.47085505723953247,-0.3633700907230377,-0.2445853352546692,-0.11234749108552933
0.36666666666666664,0.005788769572973251,0.1261688619852066,0.0,0.937829315662384,0.0,0.0,-0.34709683060646057,-0.49652940034866333,-0.7047218680381775,0.0,0.0,0.0,-2.2202656269073486,-0.4278632700443268,0.7117869853973389,0.41999995708465576,0.9939622282981873,3.949827259930316e-06,6.028077223163564e-06,-0.1097223237156868,0.31886225938796997,0.410869300365448,-0.0009186946554109454,0.0766507089138031,-0.06270281970500946,-8.343104362487793,-0.43859654664993286,0.717374324798584,0.4201790690422058,0.5525784492492676,0.3846038281917572,-0.07538444548845291,0.39847084879875183,0.6553241014480591,0.42000001668930054,-0.5133811235427856,3.003761053085327,-0.817878782749176,-2.9808316230773926,-0.15821367502212524,-0.1653302013874054,-0.1706535667181015,-0.17415542900562286,-0.5467269420623779,-0.3750152885913849,-0.19181211292743683,0.0026039264630526304
0.3833333333333333,-0.0064990343526005745,0.11357251554727554,0.0,0.9229557514190674,0.0,0.0,-0.3849060535430908,-0.7163795828819275,-0.8565568923950195,0.0,0.0,0.0,-5.769596576690674,-0.4191395342350006,0.7219357490539551,0.4203571379184723,0.981642484664917,-0.008868509903550148,0.0011341925710439682,-0.19052055478096008,0.9040771722793579,0.9726486206054688,0.1005263477563858,-4.774916172027588,1.5225882530212402,-5.002880096435547,-0.42686760425567627,0.7269699573516846,0.42136090993881226,0.8497024774551392,0.9146506786346436,0.10686181485652924,0.39847084879875183,0.6553241014480591,0.42000001668930054,-0.4633232653141022,2.999738931655884,-0.8678820729255676,-2.9999287128448486,-0.16962185502052307,-0.17331808805465698,-0.17501524090766907,-0.17470113933086395,-0.43207404017448425,-0.2741004526615143,-0.09919644147157669,0.09298019111156464
0.4,-0.014892429113388062,0.09745951741933823,0.0,0.8950405120849609,0.0,0.0,-0.4459848701953888,-0.4739740192890167,-1.0118200778961182,0.0,0.0,0.0,-8.805638313293457,-0.392056405544281,0.7463126182556152,0.4226301610469818,0.9721302390098572,-0.02564067952334881,-0.014418725855648518,-0.23258861899375916,2.0104079246520996,2.3045942783355713,-0.024847857654094696,16.33045196533203,-17.081966400146484,-15.151132583618164,-0.40085867047309875,0.7512098550796509,0.4232015907764435,2.439429998397827,1.9826369285583496,0.2317095696926117,0.39847084879875183,0.6553241014480591,0.42000001668930054,-0.4133472144603729,2.9727823734283447,-0.9179001450538635,-3.000001907348633,-0.17806310951709747,-0.1785297691822052,-0.1767224222421646,-0.17265664041042328,-0.5755628347396851,-0.3457741141319275,-0.10274776071310043,0.1500483602285385
0.4166666666666667,-0.020233117043972015,0.07880759984254837,0.0,0.8509076833724976,0.0,0.0,-0.5253152251243591,-0.23989422619342804,-1.2116161584854126,0.0,0.0,0.0,-11.560079574584961,-0.3261255621910095,0.7865918874740601,0.42606741189956665,0.9475466012954712,0.031629689037799835,-0.05863417312502861,-0.31259727478027344,5.437830448150635,2.3912646770477295,0.5742827653884888,-9.834309577941895,-1.5093512535095215,15.051871299743652,-0.33477941155433655,0.7928401231765747,0.4265846610069275,5.087007999420166,2.976155996322632,0.3132638931274414,0.39847084879875183,0.6553241014480591,0.42000001668930054,-0.376310795545578,1.6455416679382324,-0.8809537887573242,3.000396490097046,-0.19197289645671844,-0.18718275427818298,-0.1801430583000183,-0.17098064720630646,-0.8517840504646301,-0.5310401916503906,-0.22080639004707336,0.07160955667495728
0.43333333333333335,-0.023414740338921547,0.06519565731287003,0.0,0.7870236039161682,0.0,0.0,-0.616922914981842,-0.1373331993818283,-0.6836079359054565,0.0,0.0,0.0,-14.347978591918945,-0.2187076359987259,0.8281847834587097,0.4342970848083496,0.9114109873771667,0.10330372303724289,-0.09821264445781708,-0.38602158427238464,8.000338554382324,2.365856885910034,0.6135120391845703,13.297744750976562,-10.405316352844238,4.109923839569092,-0.22771009802818298,0.8371577858924866,0.43485116958618164,7.566166877746582,2.42742657661438,0.6149387359619141,0.39847084879875183,0.6553241014480591,0.42000001668930054,-0.3610260784626007,0.8104925751686096,-0.8309128284454346,2.9992356300354004,-0.2082076221704483,-0.20239651203155518,-0.19105002284049988,-0.17566928267478943,-0.922107994556427,-0.9088242053985596,-0.7859297394752502,-0.41640588641166687
0.45,-0.029492447152733803,0.05940677225589752,0.0,0.7274069786071777,0.0,0.0,-0.6862062811851501,-0.5053641200065613,-0.3552863597869873,0.0,0.0,0.0,-9.719780921936035,-0.0974159836769104,0.8486417531967163,0.44463470578193665,0.8634641170501709,0.13226120173931122,-0.10811000317335129,-0.4746037423610687,7.4871721267700195,0.12472167611122131,0.8223834037780762,5.974859237670898,-2.792329788208008,4.534214496612549,-0.10501377284526825,0.8603062629699707,0.445426344871521,7.099428653717041,0.6145442724227905,0.6567564010620117,0.39847084879875183,0.6553241014480591,0.42000001668930054,-0.3500654995441437,0.5825554728507996,-0.8576647639274597,-3.0000011920928955,-0.22333835065364838,-0.2175718992948532,-0.20636996626853943,-0.18757055699825287,-0.664804220199585,-0.7209576368331909,-0.7769209742546082,-0.6955451965332031
0.4666666666666667,-0.03250296041369438,0.04618137329816818,0.0,0.6880490183830261,0.0,0.0,-0.7256641983985901,-0.047322988510131836,-0.9727343320846558,0.0,0.0,0.0,-5.6200270652771,0.021133586764335632,0.8505530953407288,0.4547710120677948,0.8065342903137207,0.1384088546037674,-0.09629051387310028,-0.566633403301239,7.015524387359619,-1.4338886737823486,0.5153248310089111,-0.9763858914375305,-11.134810447692871,22.161705017089844,0.013752013444900513,0.8638134002685547,0.45532017946243286,7.07497501373291,-0.4768809974193573,0.6204871535301208,0.39847084879875183,0.6553241014480591,0.42000001668930054,-0.34044989943504333,0.4322352707386017,-0.9076891541481018,-3.000002145767212,-0.23101021349430084,-0.22499187290668488,-0.21369503438472748,-0.1931954026222229,-0.3746488392353058,-0.3042084276676178,-0.24905987083911896,-0.131231889128685
0.48333333333333334,-0.03635043278336525,0.03453906252980232,0.0,0.6734751462936401,0.0,0.0,-0.7392098307609558,-0.25259852409362793,-0.6060237884521484,0.0,0.0,0.0,-1.2381309270858765,0.12696616351604462,0.8333942294120789,0.4609173536300659,0.735117495059967,0.1328423172235489,-0.07874836027622223,-0.66011643409729,6.007931232452393,-2.0057389736175537,0.2463427186012268,-5.017127513885498,-7.016078472137451,7.556285858154297,0.12051020562648773,0.8499007225036621,0.46190145611763,5.664643287658691,-1.2480757236480713,0.22479403018951416,0.39847084879875183,0.6553241014480591,0.42000001668930054,-0.33726927638053894,-0.06028088927268982,-0.9577131867408752,-3.0000016689300537,-0.2395741492509842,-0.23147176206111908,-0.21857430040836334,-0.19609004259109497,-0.4316503703594208,-0.31362104415893555,-0.23070549964904785,-0.15123580396175385
0.5,-0.037983689457178116,0.028142457827925682,0.0,0.6523666381835938,0.0,0.0,-0.757903516292572,-0.03768593445420265,-0.3003365695476532,0.0,0.0,0.0,-4.226327419281006,0.21282175183296204,0.806702733039856,0.45942845940589905,0.6900861263275146,0.11769063770771027,-0.0705522820353508,-0.710599958896637,4.273664474487305,-2.9267446994781494,-0.2990034520626068,-16.434307098388672,-9.607044219970703,30.35041618347168,0.20829278230667114,0.8229162693023682,0.4611136019229889,4.963091850280762,-2.0465431213378906,-0.14255286753177643,0.39847084879875183,0.6553241014480591,0.42000001668930054,-0.33940374851226807,-0.258810818195343,-1.0077369213104248,-3.0000014305114746,-0.2400219440460205,-0.23828482627868652,-0.22361035645008087,-0.1997102051973343,-0.044937025755643845,-0.3540707230567932,-0.23380951583385468,-0.15333856642246246
0.5166666666666666,-0.036547496914863586,0.026157798245549202,0.0,0.646206796169281,0.0,0.0,-0.76316237449646,0.11826666444540024,-0.053153276443481445,0.0,0.0,0.0,-0.02003704383969307,0.2840309739112854,0.7707122564315796,0.45219290256500244,0.6282683610916138,0.0921693742275238,-0.0557488277554512,-0.7705035209655762,3.6518964767456055,-2.373694896697998,-0.5509911179542542,-1.6765421628952026,1.4030014276504517,-1.8661807775497437,0.2803681790828705,0.7866355776786804,0.4541262984275818,3.8370935916900635,-2.3592543601989746,-0.5877140760421753,0.39847084879875183,0.6553241014480591,0.42000001668930054,-0.3397412896156311,0.23963198065757751,-1.0577590465545654,-3.000000238418579,-0.2399136871099472,-0.23987746238708496,-0.22755931317806244,-0.20290832221508026,0.03408496454358101,0.05183820426464081,-0.1439332515001297,-0.14544770121574402
0.5333333333333333,-0.03235528618097305,0.019644176587462425,0.0,0.629370391368866,0.0,0.0,-0.777105450630188,0.2656364440917969,-0.3862907290458679,0.0,0.0,0.0,-3.4626779556274414,0.34024107456207275,0.7352315783500671,0.43691426515579224,0.5746790170669556,0.06419044733047485,-0.04450780898332596,-0.814642608165741,2.7546768188476562,-2.551036834716797,-0.9535074234008789,-1.1280425786972046,7.391897678375244,1.050005555152893,0.3369508385658264,0.7507106065750122,0.4393143653869629,2.8714919090270996,-2.178884506225586,-1.0656511783599854,0.39847084879875183,0.6553241014480591,0.42000001668930054,-0.32646334171295166,1.1269237995147705,-1.107781171798706,-3.000000476837158,-0.2339412122964859,-0.23431184887886047,-0.22574198246002197,-0.20249833166599274,0.28833532333374023,0.30384284257888794,0.1241031140089035,0.026749713346362114
0.55,-0.026056168600916862,0.018115101382136345,0.0,0.6260727643966675,0.0,0.0,-0.7797646522521973,0.41670703887939453,-0.08324538916349411,0.0,0.0,0.0,0.3597505986690521,0.3785642981529236,0.7010009288787842,0.4203554391860962,0.5398411154747009,0.0024806263390928507,0.009566639550030231,-0.8417088389396667,1.6060243844985962,-1.7651968002319336,0.03002747893333435,-8.097951889038086,-12.444893836975098,3.574568033218384,0.37679988145828247,0.7149320840835571,0.4218413531780243,1.4844194650650024,-1.6505827903747559,-0.102057546377182,0.39847084879875183,0.6553241014480591,0.42000001668930054,-0.30944404006004333,0.8456665873527527,-1.1578037738800049,-3.0000178813934326,-0.23176851868629456,-0.23134809732437134,-0.22505296766757965,-0.20354433357715607,0.2811850309371948,0.2950770854949951,0.15010102093219757,0.010112633928656578
0.5666666666666667,-0.02150353044271469,0.011725206859409809,0.0,0.6115029454231262,0.0,0.0,-0.7912421226501465,0.1856916844844818,-0.40023157000541687,0.0,0.0,0.0,-2.830362558364868,0.39854803681373596,0.6819924712181091,0.421143501996994,0.5381358861923218,-0.016300709918141365,0.022117970511317253,-0.8424100875854492,0.6551259160041809,-1.5665537118911743,0.14813902974128723,8.158868789672852,8.916702270507812,7.708762168884277,0.39584028720855713,0.6948490142822266,0.42300358414649963,0.7185903787612915,-1.053290843963623,0.14322839677333832,0.39847084879875183,0.6553241014480591,0.42000001668930054,-0.29563820362091064,0.7293516397476196,-1.207804560661316,-2.995765447616577,-0.22208864986896515,-0.22226540744304657,-0.2188679277896881,-0.20061148703098297,0.42712903022766113,0.4353751242160797,0.31677424907684326,0.14337550103664398
0.5833333333333334,-0.01583680883049965,0.010174102149903774,0.0,0.6113689541816711,0.0,0.0,-0.7913456559181213,0.35569366812705994,-0.07148845493793488,0.0,0.0,0.0,0.7855083346366882,0.4065486788749695,0.6657566428184509,0.42083877325057983,0.5449560880661011,-0.011431987397372723,0.018665017560124397,-0.838178813457489,0.14432986080646515,-1.18779718875885,0.21078184247016907,6.9249773025512695,11.137626647949219,6.924722194671631,0.4032677412033081,0.677828848361969,0.42301690578460693,0.20249730348587036,-0.7230343818664551,0.12267175316810608,0.39847084879875183,0.6553241014480591,0.42000001668930054,-0.28627389669418335,0.35362088680267334,-1.189945101737976,3.000007390975952,-0.21765057742595673,-0.2174064964056015,-0.21546906232833862,-0.2000037431716919,0.38362574577331543,0.3696817457675934,0.26280760765075684,0.06479645520448685
0.6,-0.008392483927309513,0.007457673083990812,0.0,0.5989141464233398,0.0,0.0,-0.8008131980895996,0.49174171686172485,-0.21681369841098785,0.0,0.0,0.0,-2.877218723297119,0.4073261022567749,0.6598254442214966,0.42179256677627563,0.565979540348053,-0.025913050398230553,0.03839050605893135,-0.8231170773506165,-0.15233683586120605,-0.2254718840122223,0.15027379989624023,3.039245128631592,8.288528442382812,2.5529465675354004,0.40304455161094666,0.6711016893386841,0.42437314987182617,-0.1488267183303833,-0.17520618438720703,0.18960119783878326,0.39847084879875183,0.6553241014480591,0.42000001668930054,-0.2891206741333008,-0.343934565782547,-1.2114547491073608,-2.9977240562438965,-0.20732314884662628,-0.20833325386047363,-0.208853080868721,-0.19744068384170532,0.6998412013053894,0.6109633445739746,0.46387121081352234,0.21281707286834717
0.6166666666666667,0.0008592128870077431,0.007266894448548555,0.0,0.599371075630188,0.0,0.0,-0.800471305847168,0.5960997939109802,0.06277956068515778,0.0,0.0,0.0,0.9778711795806885,0.4045651853084564,0.656448483467102,0.42301756143569946,0.5802606344223022,-0.04774954915046692,0.06693712621927261,-0.8102695941925049,-0.16912992298603058,-0.19058270752429962,0.04563095048069954,0.8638827204704285,2.926898956298828,2.1004981994628906,0.39939820766448975,0.6683082580566406,0.4240148067474365,-0.23705363273620605,-0.11314060539007187,-0.04009957239031792,0.39847084879875183,0.6553241014480591,0.42000001668930054,-0.31961676478385925,-2.9997220039367676,-1.177979588508606,2.9996936321258545,-0.19742567837238312,-0.19974346458911896,-0.20231138169765472,-0.19476968050003052,0.5654881000518799,0.49113646149635315,0.3831755220890045,0.16209468245506287
0.6333333333333333,0.010087256319820881,0.010533640161156654,0.0,0.6228535175323486,0.0,0.0,-0.7823385000228882,0.5442813038825989,0.25693851709365845,0.0,0.0,0.0,4.379942893981934,0.4020228087902069,0.6536566019058228,0.422703355550766,0.5911355018615723,-0.04330829903483391,0.05875574052333832,-0.8032626509666443,-0.14863520860671997,-0.15828722715377808,-0.03946096450090408,-0.740067720413208,-2.2868590354919434,1.3230890035629272,0.39718347787857056,0.6688758134841919,0.42632225155830383,-0.1441372036933899,0.11948936432600021,0.22801423072814941,0.39847084879875183,0.6553241014480591,0.42000001668930054,-0.3696766495704651,-2.998682975769043,-1.1991569995880127,-2.9993855953216553,-0.18841038644313812,-0.1919572353363037,-0.19608066976070404,-0.19192290306091309,0.5753698348999023,0.49447697401046753,0.4031798243522644,0.2043619602918625
0.65,0.020583322271704674,0.009315626695752144,0.0,0.6323861479759216,0.0,0.0,-0.7746533155441284,0.6015865206718445,-0.0713934600353241,0.0,0.0,0.0,0.4136584997177124,0.39954450726509094,0.6515280604362488,0.4210355281829834,0.5972027778625488,-0.015414629131555557,0.020585794001817703,-0.8016778230667114,-0.1506948471069336,-0.11719436198472977,-0.11946623772382736,-1.955574870109558,-6.441370487213135,0.529618501663208,0.3967873454093933,0.6730147004127502,0.43141117691993713,-0.051330581307411194,0.2412191480398178,0.34883320331573486,0.39847084879875183,0.6553241014480591,0.42000001668930054,-0.41969695687294006,-3.0000011920928955,-1.2491225004196167,-2.999648332595825,-0.17480559647083282,-0.1797025054693222,-0.1855887770652771,-0.18478648364543915,0.6717709898948669,0.6746441721916199,0.6243879199028015,0.4806717038154602
0.6666666666666666,0.031927455216646194,0.005879412870854139,0.0,0.6182381510734558,0.0,0.0,-0.785990834236145,0.7295055985450745,-0.24653221666812897,0.0,0.0,0.0,-3.120147943496704,0.39844968914985657,0.6516376733779907,0.4200185239315033,0.5969590544700623,0.00014657397696282715,-0.00019298768893349916,-0.8022716641426086,-0.007357548922300339,-0.012881827540695667,-0.019665155559778214,0.2316356748342514,0.8680073022842407,0.4656606912612915,0.39931344985961914,0.6765880584716797,0.4402879476547241,0.35866037011146545,0.1548738181591034,0.8320291042327881,0.39847084879875183,0.6553241014480591,0.42000001668930054,-0.46971020102500916,-2.9999911785125732,-1.2991408109664917,-2.9999990463256836,-0.1669224202632904,-0.17122477293014526,-0.17709802091121674,-0.17773006856441498,0.3051658272743225,0.37179937958717346,0.4183640480041504,0.3838355541229248
0.6833333333333333,0.0471036396920681,0.005132024176418781,0.0,0.6033344864845276,0.0,0.0,-0.7974882125854492,0.9955470561981201,0.060239002108573914,0.0,0.0,0.0,-1.7785848379135132,0.39845871925354004,0.6516352295875549,0.42000001668930054,0.5969594120979309,2.5988009610955487e-07,-3.700429260788951e-06,-0.8022714257240295,7.94876686995849e-05,-0.00012754753697663546,-4.493352025747299e-05,-0.0007462991634383798,-0.0031002818141132593,-0.0005970321362838149,0.4073747396469116,0.6798456907272339,0.46175485849380493,0.6484988927841187,0.2616083025932312,1.7983801364898682,0.39847084879875183,0.6553241014480591,0.42000001668930054,-0.5197227597236633,-3.0,-1.3491591215133667,-3.0000007152557373,-0.16710758209228516,-0.16972136497497559,-0.1740645170211792,-0.17444773018360138,-0.13008905947208405,-0.028736021369695663,0.07386843860149384,0.10672736912965775
0.7,0.058497000485658646,0.0013447608798742294,0.0,0.6100789308547974,0.0,0.0,-0.7923406362533569,0.5897455811500549,-0.3199613094329834,0.0,0.0,0.0,1.8772501945495605,0.39845871925354004,0.6516351699829102,0.4200000464916229,0.5969590544700623,4.3318536313563527e-07,-3.254799366914085e-06,-0.8022716641426086,0.00013526948168873787,-0.00027243615477345884,-9.482726454734802e-05,0.006136865355074406,-0.001108155702240765,-0.0006549517856910825,0.4213488698005676,0.6839137077331543,0.49128258228302,0.9574565887451172,0.15661783516407013,1.779172658920288,0.39847084879875183,0.6553241014480591,0.42000001668930054,-0.5697296261787415,-3.000000238418579,-1.3991774320602417,-3.000000476837158,-0.16706204414367676,-0.16793964803218842,-0.1703125238418579,-0.16970610618591309,-0.018865641206502914,0.10320306569337845,0.248627707362175,0.34349173307418823
0.7166666666666667,0.0697820708155632,0.0002791075094137341,0.0,0.6047418117523193,0.0,0.0,-0.7964215874671936,0.7237471342086792,-0.0024628587998449802,0.0,0.0,0.0,-1.8247851133346558,0.39845871925354004,0.6516351699829102,0.4200000464916229,0.5969592928886414,3.3918462349902256e-07,-3.1210825000016484e-06,-0.8022714257240295,0.00012889114441350102,-0.00027419146499596536,-9.352178312838078e-05,0.006215429399162531,-0.0011967314640060067,-0.0006428311462514102,0.4385985732078552,0.6849151849746704,0.5163400769233704,1.120051383972168,-0.006807707250118256,1.4064140319824219,0.39847084879875183,0.6553241014480591,0.42000001668930054,-0.6191010475158691,-2.894338369369507,-1.4491957426071167,-3.0,-0.1686176210641861,-0.16756857931613922,-0.16752903163433075,-0.16523587703704834,-0.017637617886066437,0.07423024624586105,0.19989894330501556,0.28922680020332336
0.7333333333333333,0.08301416039466858,-0.004268405959010124,0.0,0.6058336496353149,0.0,0.0,-0.7955913543701172,0.8008329272270203,-0.30171236395835876,0.0,0.0,0.0,1.223970651626587,0.39845871925354004,0.6516351699829102,0.4200000464916229,0.5969594120979309,3.2504328828508733e-07,-3.158924528179341e-06,-0.8022714257240295,0.00012895234976895154,-0.00027416457305662334,-9.35231801122427e-05,0.006214510649442673,-0.001195615972392261,-0.000642917410004884,0.4557497501373291,0.6867318153381348,0.5415809750556946,0.8703370094299316,0.13153229653835297,1.693577766418457,0.39847084879875183,0.6553241014480591,0.42000001668930054,-0.6539706587791443,-1.3921715021133423,-1.4992140531539917,-2.9999988079071045,-0.1658395528793335,-0.16389897465705872,-0.1624409705400467,-0.15929536521434784,0.14270667731761932,0.19596745073795319,0.27590644359588623,0.3208827078342438
0.75,0.09395071119070053,-0.005781865678727627,0.0,0.6306084394454956,0.0,0.0,-0.7761011123657227,0.5957473516464233,-0.06686005741357803,0.0,0.0,0.0,4.5600905418396,0.39845871925354004,0.6516351699829102,0.4200000464916229,0.5969589948654175,3.02293301501777e-07,-3.0530359254044015e-06,-0.8022717833518982,0.000128789251903072,-0.00027473046793602407,-9.349104948341846e-05,0.006228948477655649,-0.0012009713100269437,-0.0006429872009903193,0.4691048264503479,0.6868212223052979,0.5648783445358276,0.7927446961402893,-0.008659802377223969,1.1886882781982422,0.39847084879875183,0.6553241014480591,0.42000001668930054,-0.6576662063598633,0.7631821036338806,-1.461844801902771,2.999999761581421,-0.1655423492193222,-0.16224566102027893,-0.15905804932117462,-0.15477195382118225,0.13862289488315582,0.19403325021266937,0.27151408791542053,0.31851112842559814
0.7666666666666666,0.1008569523692131,-0.010465611703693867,0.0,0.6401469707489014,0.0,0.0,-0.768252432346344,0.31639811396598816,-0.30312150716781616,0.0,0.0,0.0,0.42592984437942505,0.39845871925354004,0.6516351699829102,0.4200000464916229,0.5969591736793518,3.8067560126364697e-07,-3.100472895312123e-06,-0.8022714853286743,0.00012940343003720045,-0.0002740592753980309,-9.36251599341631e-05,0.0062097590416669846,-0.001189380418509245,-0.0006437930860556662,0.47483527660369873,0.6867882013320923,0.5805373191833496,-0.1028146743774414,-0.012070370838046074,0.8191096186637878,0.39847084879875183,0.6553241014480591,0.42000001668930054,-0.6618741750717163,-1.1036651134490967,-1.411789059638977,2.9999992847442627,-0.16312342882156372,-0.15901869535446167,-0.15473663806915283,-0.14985376596450806,0.11680059880018234,0.16442091763019562,0.22376331686973572,0.25304076075553894
0.7833333333333333,0.10391601920127869,-0.010287067852914333,0.0,0.659357488155365,0.0,0.0,-0.7518295645713806,0.15701672434806824,0.007740245200693607,0.0,0.0,0.0,3.7364156246185303,0.39845871925354004,0.6516351699829102,0.4200000464916229,0.5969592928886414,3.2059449495136505e-07,-3.135707629553508e-06,-0.8022714853286743,0.00012882765440735966,-0.0002741818898357451,-9.349128231406212e-05,0.00621564406901598,-0.0011970869963988662,-0.0006426561740227044,0.4717476963996887,0.6850717067718506,0.5926991701126099,-0.14845021069049835,-0.0640077143907547,0.6525302529335022,0.39847084879875183,0.6553241014480591,0.42000001668930054,-0.6520856022834778,2.001659870147705,-1.4296590089797974,-3.0,-0.1645488739013672,-0.15909455716609955,-0.153344064950943,-0.14749343693256378,0.06586264818906784,0.10420949012041092,0.15221360325813293,0.17838460206985474
0.8,0.10425573587417603,-0.014424671418964863,0.0,0.6639641523361206,0.0,0.0,-0.7477644085884094,-0.0038091628812253475,-0.29609233140945435,0.0,0.0,0.0,-0.3085380494594574,0.39845871925354004,0.6516351699829102,0.4200000464916229,0.5969593524932861,3.1231138564180583e-07,-3.1748993478686316e-06,-0.8022713661193848,0.00012899527791887522,-0.00027421675622463226,-9.353272616863251e-05,0.006215672940015793,-0.0011953319190070033,-0.0006430643843486905,0.4635705351829529,0.6862089037895203,0.599480152130127,-0.8370816707611084,0.10408540815114975,0.3007837235927582,0.39847084879875183,0.6553241014480591,0.42000001668930054,-0.6402631998062134,-0.385580837726593,-1.391136646270752,2.999999761581421,-0.1609753519296646,-0.15555237233638763,-0.14969150722026825,-0.14401404559612274,0.21317540109157562,0.201907217502594,0.19560787081718445,0.17370250821113586
0.8166666666666667,0.10598982870578766,-0.01435807440429926,0.0,0.677616536617279,0.0,0.0,-0.7354153990745544,0.13569070398807526,-0.008563843555748463,0.0,0.0,0.0,2.8500733375549316,0.39845871925354004,0.6516351699829102,0.4200000464916229,0.5969589352607727,3.0130215122881054e-07,-3.071889523198479e-06,-0.8022717237472534,0.00012897000124212354,-0.00027475343085825443,-9.353435598313808e-05,0.006228427402675152,-0.0011989385820925236,-0.0006434140377677977,0.4516019821166992,0.6875425577163696,0.6048146486282349,-0.4828212857246399,0.17030155658721924,0.378853440284729,0.39847084879875183,0.6553241014480591,0.42000001668930054,-0.6212547421455383,2.409986734390259,-1.341118335723877,3.000000238418579,-0.15982279181480408,-0.15440654754638672,-0.14844359457492828,-0.14283478260040283,0.23852282762527466,0.190746009349823,0.1555846482515335,0.12071412801742554
0.8333333333333334,0.10608216375112534,-0.017740940675139427,0.0,0.6769487261772156,0.0,0.0,-0.7360301613807678,-0.03301886096596718,-0.23078031837940216,0.0,0.0,0.0,-1.0658202171325684,0.39845871925354004,0.6516351699829102,0.4200000464916229,0.5969593524932861,3.383054831829213e-07,-3.111067599093076e-06,-0.8022714853286743,0.0001287529885303229,-0.00027415627846494317,-9.347335435450077e-05,0.006215534172952175,-0.0011977594112977386,-0.0006424508756026626,0.44272273778915405,0.6898089647293091,0.609968364238739,-0.634264349937439,0.034357719123363495,0.3822983503341675,0.39847084879875183,0.6553241014480591,0.42000001668930054,-0.6238321661949158,-2.3075079917907715,-1.2910656929016113,3.0,-0.1564297080039978,-0.15184082090854645,-0.14651714265346527,-0.1415024697780609,0.10681799054145813,0.07263565808534622,0.04654507339000702,0.023047268390655518
0.85,0.10778333246707916,-0.018092766404151917,0.0,0.6861135363578796,0.0,0.0,-0.727494478225708,0.14399464428424835,0.03914342448115349,0.0,0.0,0.0,2.1818435192108154,0.39845871925354004,0.6516351699829102,0.4200000464916229,0.5969594120979309,3.242234640765673e-07,-3.148870518998592e-06,-0.8022713661193848,0.00012895124382339418,-0.00027416402008384466,-9.352434426546097e-05,0.006214578170329332,-0.0011955677764490247,-0.0006429065833799541,0.4373333156108856,0.6886953115463257,0.6141347885131836,0.02104288339614868,-0.07178118824958801,0.18063408136367798,0.39847084879875183,0.6553241014480591,0.42000001668930054,-0.6320576071739197,1.0377488136291504,-1.3110817670822144,-2.999999523162842,-0.1558874398469925,-0.15153248608112335,-0.14627549052238464,-0.14121656119823456,0.10470637679100037,0.07868804782629013,0.06653675436973572,0.06740724295377731
0.8666666666666667,0.11175117641687393,-0.02138764038681984,0.0,0.6830201148986816,0.0,0.0,-0.7303995490074158,0.27634865045547485,-0.231530100107193,0.0,0.0,0.0,-1.34104585647583,0.39845871925354004,0.6516351699829102,0.4200000464916229,0.5969589948654175,3.0149695362524653e-07,-3.043058086404926e-06,-0.8022717237472534,0.00012878862617071718,-0.00027472732472233474,-9.34898853302002e-05,0.006228822283446789,-0.0012009370839223266,-0.0006429802160710096,0.4366479516029358,0.6892179846763611,0.6135370135307312,-0.14722073078155518,-0.00353342667222023,-0.09605778008699417,0.39847084879875183,0.6553241014480591,0.42000001668930054,-0.6330564022064209,-0.981072723865509,-1.2728943824768066,2.9999990463256836,-0.15262043476104736,-0.1490965187549591,-0.14446793496608734,-0.13980329036712646,0.10947542637586594,0.0762898325920105,0.0501762256026268,0.03474241495132446
