vladlanda/robotic-transformer/data/env_000_episode_0153.csv
sim_time_s,robot_box_x,robot_box_y,robot_box_z,robot_box_quat_w,robot_box_quat_x,robot_box_quat_y,robot_box_quat_z,robot_box_linvel_x,robot_box_linvel_y,robot_box_linvel_z,robot_box_angvel_x,robot_box_angvel_y,robot_box_angvel_z,cube_world_x,cube_world_y,cube_world_z,cube_quat_w,cube_quat_x,cube_quat_y,cube_quat_z,cube_linvel_x,cube_linvel_y,cube_linvel_z,cube_angvel_x,cube_angvel_y,cube_angvel_z,endpoint_world_x,endpoint_world_y,endpoint_world_z,endpoint_linvel_x,endpoint_linvel_y,endpoint_linvel_z,target_cube_world_x,target_cube_world_y,target_cube_world_z,gripper_actual_pos_rad_gp_leftgearjoint,gripper_actual_vel_rad_s_gp_leftgearjoint,gripper_actual_pos_rad_gp_rotatingjoint,gripper_actual_vel_rad_s_gp_rotatingjoint,motor_angle_rad_joint1,motor_angle_rad_joint2,motor_angle_rad_joint3,motor_angle_rad_joint4,motor_speed_rad_s_joint1,motor_speed_rad_s_joint2,motor_speed_rad_s_joint3,motor_speed_rad_s_joint4
0.0,0.0,0.0,0.0,1.0,0.0,0.0,0.0,0.0,0.0,0.0,0.0,0.0,0.0,-0.35957232117652893,0.6311891078948975,0.41999998688697815,1.0,0.0,0.0,0.0,0.0,0.0,0.0,0.0,0.0,0.0,3.42540442943573e-06,-0.005000244826078415,1.313499927520752,0.0,0.0,0.0,0.37121880054473877,0.7131873369216919,0.42000001668930054,-1.5707999467849731,0.0,0.0,0.0,0.0,0.0,0.0,0.0,0.0,0.0,0.0,0.0
0.016666666666666666,0.002881408203393221,0.002176362555474043,0.0,0.9998167753219604,0.0,0.0,0.019142331555485725,0.2409740835428238,0.18225513398647308,0.0,0.0,0.0,3.141805648803711,-0.3595724403858185,0.6311888098716736,0.41999998688697815,1.0,3.279964630564791e-06,-8.339746386809566e-07,8.465587342243452e-08,-1.9833529222523794e-05,0.00017983045836444944,-6.132945418357849e-05,0.0009432713268324733,-0.004689474124461412,-0.00031981561915017664,-0.007108600810170174,0.003390514524653554,1.3159382343292236,-0.8139816522598267,0.9872654676437378,0.1809626668691635,0.37121880054473877,0.7131873369216919,0.42000001668930054,-1.5301094055175781,3.0000033378601074,-0.04584890604019165,-2.999999761581421,0.0008701531914994121,0.0007968113641254604,0.000711382192093879,0.0006112410919740796,0.11095371842384338,0.09759150445461273,0.08336795121431351,0.06826215982437134
0.03333333333333333,0.008965174667537212,0.006795221008360386,0.0,0.9998049139976501,0.0,0.0,0.01975230686366558,0.4070636034011841,0.3151684105396271,0.0,0.0,0.0,-0.8690704107284546,-0.35957255959510803,0.6311887502670288,0.4200000464916229,1.0,3.3908179375430336e-06,-2.132458348569344e-06,-3.7097745320124886e-08,0.00026357852038927376,0.00026937833172269166,-0.00010509369894862175,-0.0017707126680761576,0.004130884539335966,-0.0001354814594378695,-0.027527470141649246,0.025982262566685677,1.3166346549987793,-1.5901191234588623,1.6127216815948486,-0.0805477723479271,0.37121880054473877,0.7131873369216919,0.42000001668930054,-1.4800900220870972,3.0000014305114746,-0.09588874131441116,-3.0000011920928955,0.002990404609590769,0.002652734285220504,0.0022773246746510267,0.0018608529353514314,0.16417250037193298,0.13973312079906464,0.11379784345626831,0.08628388494253159
0.05,0.018471354618668556,0.013887830078601837,0.0,0.9999759197235107,0.0,0.0,-0.006941792089492083,0.6361334919929504,0.47196587920188904,0.0,0.0,0.0,-4.075100421905518,-0.3595725893974304,0.6311888098716736,0.4200000464916229,1.0,3.7651902857760433e-06,-2.2119197637948673e-06,5.609367637049445e-09,0.00026530938339419663,0.00026691678795032203,-0.00010440615005791187,-0.0017243892652913928,0.004177466034889221,-0.00012949809024576098,-0.057230930775403976,0.05640891194343567,1.3121978044509888,-1.9582326412200928,1.9738717079162598,-0.4310397505760193,0.37121880054473877,0.7131873369216919,0.42000001668930054,-1.4300717115402222,2.9999988079071045,-0.14590728282928467,-3.0000007152557373,0.0060099284164607525,0.005171576980501413,0.004260870162397623,0.0032735015265643597,0.20702394843101501,0.16674582660198212,0.12454083561897278,0.08033408969640732
0.06666666666666667,0.03077489323914051,0.02336927317082882,0.0,0.9998819828033447,0.0,0.0,-0.015364226885139942,0.7723196744918823,0.6157572269439697,0.0,0.0,0.0,-0.04056648164987564,-0.3595725893974304,0.6311887502670288,0.4200000464916229,0.9999999403953552,3.406832092878176e-06,-2.28558906201215e-06,4.300801492718165e-07,0.0002670248504728079,0.0002679176686797291,-0.0001043803058564663,-0.00174071139190346,0.00421183044090867,-0.00012850876373704523,-0.09518735110759735,0.0880899727344513,1.3016729354858398,-2.4300291538238525,1.999683141708374,-0.8187366127967834,0.37121880054473877,0.7131873369216919,0.42000001668930054,-1.3800443410873413,3.000000238418579,-0.12007175385951996,3.000000238418579,0.008784866891801357,0.0072542293928563595,0.005611019674688578,0.0038501955568790436,0.15689639747142792,0.10818950831890106,0.057346828281879425,0.004294438287615776
0.08333333333333333,0.045535746961832047,0.030647674575448036,0.0,0.9992740750312805,0.0,0.0,-0.038095440715551376,0.9493434429168701,0.3778402805328369,0.0,0.0,0.0,-3.5416159629821777,-0.3595725893974304,0.6311887502670288,0.4200000464916229,1.0,3.6973397072870284e-06,-2.18897503145854e-06,-2.6324283908252255e-07,0.00026389575214125216,0.000265863083768636,-0.00010433816350996494,-0.001708182506263256,0.004150256514549255,-0.00012991153926122934,-0.13058750331401825,0.12623265385627747,1.2874388694763184,-1.8663105964660645,2.5426673889160156,-0.8718031048774719,0.37121880054473877,0.7131873369216919,0.42000001668930054,-1.3300365209579468,3.0000016689300537,-0.15205349028110504,-2.999999523162842,0.009931334294378757,0.007282566744834185,0.004479567985981703,0.0015158138703554869,0.015519761480391026,-0.06997513025999069,-0.1577986776828766,-0.2478410303592682
0.1,0.05439644306898117,0.040301769971847534,0.0,0.9959852695465088,0.0,0.0,-0.0895174890756607,0.392135888338089,0.6604735851287842,0.0,0.0,0.0,-7.29292106628418,-0.3595725893974304,0.6311887502670288,0.4200000464916229,0.9999999403953552,3.6204189655109076e-06,-2.2651970539300237e-06,1.7461321988321288e-07,0.00026676736888475716,0.0002674079150892794,-0.0001040794886648655,-0.001738528604619205,0.004209060221910477,-0.00012775698269251734,-0.16409553587436676,0.1714191734790802,1.2670186758041382,-2.0842974185943604,2.882498264312744,-1.4859898090362549,0.37121880054473877,0.7131873369216919,0.42000001668930054,-1.2800180912017822,2.9999918937683105,-0.11851491779088974,2.999999761581421,0.0037230008747428656,0.00030276388861238956,-0.0033252756111323833,-0.007170411292463541,-0.48732084035873413,-0.5235432982444763,-0.5623230338096619,-0.6039227843284607
0.11666666666666667,0.06508230417966843,0.05264761671423912,0.0,0.9924335479736328,0.0,0.0,-0.12278291583061218,0.8425664901733398,0.6883487701416016,0.0,0.0,0.0,-2.84079647064209,-0.3595725893974304,0.6311887502670288,0.4200000464916229,1.0,3.798416400968563e-06,-2.2627416456089122e-06,-1.5020985699720768e-07,0.00026374010485596955,0.00026566069573163986,-0.00010429113171994686,-0.001705370144918561,0.00414750212803483,-0.0001298012211918831,-0.20433583855628967,0.2134404480457306,1.2394907474517822,-2.4224820137023926,2.637810707092285,-1.7726949453353882,0.37121880054473877,0.7131873369216919,0.42000001668930054,-1.2300196886062622,3.000000238418579,-0.15046745538711548,-3.0000009536743164,-0.002863346366211772,-0.007166717201471329,-0.011693369597196579,-0.016454752534627914,-0.1890231966972351,-0.2728244662284851,-0.3550242781639099,-0.4355810880661011
0.13333333333333333,0.07539324462413788,0.061161965131759644,0.0,0.985901415348053,0.0,0.0,-0.16732732951641083,0.6997379064559937,0.5034365653991699,0.0,0.0,0.0,-6.035974502563477,-0.3595725893974304,0.6311888098716736,0.4200000464916229,0.9999999403953552,3.5505045161698945e-06,-2.2297124360193266e-06,2.9290509928614483e-07,0.0002670330286491662,0.000267792638624087,-0.00010417005978524685,-0.0017440036172047257,0.004213502164930105,-0.00012799850082956254,-0.24163947999477386,0.2620573937892914,1.2067430019378662,-1.9805091619491577,3.337376117706299,-2.060403347015381,0.37121880054473877,0.7131873369216919,0.42000001668930054,-1.1799997091293335,3.000002861022949,-0.11845207214355469,2.9999990463256836,-0.0086436178535223,-0.014296291396021843,-0.020138122141361237,-0.026181574910879135,-0.20591405034065247,-0.3175041079521179,-0.4245786666870117,-0.5269964337348938
0.15,0.08475248515605927,0.06682969629764557,0.0,0.9817787408828735,0.0,0.0,-0.1900276094675064,0.4987896680831909,0.2726017236709595,0.0,0.0,0.0,-1.6300173997879028,-0.3595725893974304,0.6311887502670288,0.4200000464916229,0.9999999403953552,3.3380501918145455e-06,-2.242820528408629e-06,-2.8022322240417452e-08,0.00026674597756937146,0.0002675814612302929,-0.00010427739471197128,-0.0017367637483403087,0.0042068837210536,-0.00012831276399083436,-0.2780948579311371,0.31459733843803406,1.1664822101593018,-2.0760436058044434,3.3456740379333496,-2.7717843055725098,0.37121880054473877,0.7131873369216919,0.42000001668930054,-1.1300050020217896,2.9999988079071045,-0.15040035545825958,-2.999999523162842,-0.012958165258169174,-0.02017068862915039,-0.02748977765440941,-0.034928202629089355,-0.3161090612411499,-0.39095643162727356,-0.4610612690448761,-0.5265415906906128
0.16666666666666666,0.09012773633003235,0.07192811369895935,0.0,0.9749857783317566,0.0,0.0,-0.22226719558238983,0.2489895075559616,0.3374651372432709,0.0,0.0,0.0,-4.720666885375977,-0.3595725893974304,0.6311888098716736,0.4200000464916229,0.9999999403953552,3.647779067250667e-06,-2.307212753294152e-06,3.527146219539645e-08,0.00026726859505288303,0.0002680137986317277,-0.00010418682359158993,-0.0017473286716267467,0.0042176577262580395,-0.00012798354146070778,-0.3118525445461273,0.37350553274154663,1.1124207973480225,-1.8506882190704346,3.704822063446045,-3.647078514099121,0.37121880054473877,0.7131873369216919,0.42000001668930054,-1.0799999237060547,2.999999761581421,-0.1257006824016571,3.000000476837158,-0.02022436074912548,-0.02837171033024788,-0.036543574184179306,-0.044757116585969925,-0.5149810314178467,-0.5525817275047302,-0.5856475830078125,-0.6145111322402954
0.18333333333333332,0.09707583487033844,0.07893526554107666,0.0,0.9597978591918945,0.0,0.0,-0.2806922197341919,0.45703619718551636,0.5058063864707947,0.0,0.0,0.0,-8.03321361541748,-0.3595725893974304,0.6311887502670288,0.4200000464916229,0.9999999403953552,3.290514769105357e-06,-2.1938158170087263e-06,-2.7924590995098697e-07,0.0002667787193786353,0.0002677605953067541,-0.0001043414231389761,-0.0017390446737408638,0.004206892102956772,-0.00012845569290220737,-0.33870112895965576,0.4401182532310486,1.0431151390075684,-1.2413278818130493,4.174017429351807,-4.545326232910156,0.37121880054473877,0.7131873369216919,0.42000001668930054,-1.0299915075302124,3.0000011920928955,-0.15764573216438293,-2.9999988079071045,-0.031182197853922844,-0.03951215371489525,-0.047817450016736984,-0.056123409420251846,-0.7990323305130005,-0.7847121953964233,-0.7688291668891907,-0.7519339323043823
0.2,0.10241062939167023,0.08481379598379135,0.0,0.9481291174888611,0.0,0.0,-0.31788545846939087,0.26797398924827576,0.29480621218681335,0.0,0.0,0.0,-3.554187059402466,-0.3595725893974304,0.6311887502670288,0.4200000464916229,1.0,3.280726787124877e-06,-2.219165025962866e-06,1.5945686016038962e-07,0.0002662799961399287,0.0002674010756891221,-0.0001042510848492384,-0.0017357835313305259,0.004197876434773207,-0.00012865287135355175,-0.3603599965572357,0.5016321539878845,0.9607478380203247,-0.9124367237091064,3.591390371322632,-5.295604705810547,0.37121880054473877,0.7131873369216919,0.42000001668930054,-0.9799816012382507,2.99999737739563,-0.20767511427402496,-3.0,-0.04661266505718231,-0.05445801466703415,-0.061896711587905884,-0.06935594230890274,-0.967889130115509,-0.9413290023803711,-0.8734405040740967,-0.8077427744865417
0.21666666666666667,0.10368301719427109,0.09167440235614777,0.0,0.9445129632949829,0.0,0.0,-0.32847410440444946,-0.001960254507139325,0.45042675733566284,0.0,0.0,0.0,-0.40315553545951843,-0.3595725893974304,0.6311888098716736,0.4200000464916229,1.0,3.613114131439943e-06,-2.270080813104869e-06,2.2099777652329067e-07,0.0002671255497261882,0.00026781627093441784,-0.0001041400246322155,-0.0017444631084799767,0.004215197172015905,-0.00012786380830220878,-0.37877917289733887,0.5505168437957764,0.8695403337478638,-0.9234389066696167,2.519942045211792,-5.6534647941589355,0.37121880054473877,0.7131873369216919,0.42000001668930054,-0.9299709796905518,2.9999985694885254,-0.2577067017555237,-3.0,-0.06299950182437897,-0.07078393548727036,-0.07821431010961533,-0.08494717627763748,-0.9875457286834717,-0.9864726662635803,-0.9778527021408081,-0.9689733982086182
0.23333333333333334,0.10867120325565338,0.09438522905111313,0.0,0.9360894560813904,0.0,0.0,-0.3517620265483856,0.33948826789855957,0.10245327651500702,0.0,0.0,0.0,-3.5750694274902344,-0.3595725893974304,0.6311887502670288,0.4200000464916229,1.0,3.381833721505245e-06,-2.29093961934268e-06,2.727813352976227e-07,0.00026691294624470174,0.00026779971085488796,-0.00010433141142129898,-0.0017395353643223643,0.004209678154438734,-0.00012843581498600543,-0.39021036028862,0.5915275812149048,0.7693444490432739,-0.3919690251350403,2.114461660385132,-6.228549003601074,0.37121880054473877,0.7131873369216919,0.42000001668930054,-0.879960298538208,2.9999945163726807,-0.3077393174171448,-3.000001907348633,-0.07815814018249512,-0.08599148690700531,-0.09333977103233337,-0.09999874979257584,-0.9908139705657959,-0.9921800494194031,-0.9932714104652405,-0.9941791296005249
0.25,0.10849720239639282,0.10118526965379715,0.0,0.9341081380844116,0.0,0.0,-0.35699018836021423,-0.003625154495239258,0.35975000262260437,0.0,0.0,0.0,0.2513926029205322,-0.35957255959510803,0.6311887502670288,0.4200000464916229,0.9999999403953552,3.7065449305373477e-06,-2.222977173005347e-06,-2.2551901679435105e-07,0.0002642468025442213,0.0002665686479303986,-0.00010457751341164112,-0.0017169659258797765,0.004155547823756933,-0.00013063880032859743,-0.3927830457687378,0.6104059219360352,0.6687207221984863,0.09361164271831512,0.5193029642105103,-5.788527488708496,0.37121880054473877,0.7131873369216919,0.42000001668930054,-0.8299508094787598,2.999972105026245,-0.35777178406715393,-2.9999983310699463,-0.09577227383852005,-0.10331042855978012,-0.11046110093593597,-0.11698122322559357,-0.6952223777770996,-0.7535123229026794,-0.808657169342041,-0.8588041663169861
0.26666666666666666,0.1075604259967804,0.10283257812261581,0.0,0.9270212650299072,0.0,0.0,-0.37500879168510437,-0.134247824549675,0.052155833691358566,0.0,0.0,0.0,-3.1432952880859375,-0.3595725893974304,0.6311887502670288,0.4200000464916229,0.9999999403953552,3.7196000448602717e-06,-2.403485495960922e-06,-1.8307810023543425e-07,0.0002662320912349969,0.00026729173259809613,-0.00010425853542983532,-0.0017327233217656612,0.0041965520940721035,-0.00012851424980908632,-0.3894931674003601,0.6212790012359619,0.5723596811294556,0.41853392124176025,0.5667932629585266,-5.57713508605957,0.37121880054473877,0.7131873369216919,0.42000001668930054,-0.7799420356750488,3.0000016689300537,-0.4078029692173004,-3.0000035762786865,-0.1081804558634758,-0.11668571829795837,-0.12476186454296112,-0.13214652240276337,-0.9142050743103027,-0.9559626579284668,-0.9966694116592407,-1.0004163980484009
0.2833333333333333,0.1029750406742096,0.102842777967453,0.0,0.9268956184387207,0.0,0.0,-0.375319242477417,-0.31306466460227966,-0.03793492913246155,0.0,0.0,0.0,0.8458799719810486,-0.3595725893974304,0.6311888098716736,0.4200000464916229,0.9999999403953552,3.5840146210830426e-06,-2.31546050599718e-06,7.404324975368581e-08,0.00026522012194618583,0.0002645521017257124,-0.00010317075066268444,-0.0017020526574924588,0.004185048397630453,-0.0001249978959094733,-0.38209015130996704,0.6293544769287109,0.48474353551864624,0.5837461948394775,0.33821290731430054,-4.944475173950195,0.37121880054473877,0.7131873369216919,0.42000001668930054,-0.7299337387084961,3.0000007152557373,-0.4578321576118469,-3.0000014305114746,-0.12562675774097443,-0.13395676016807556,-0.1418999433517456,-0.14918091893196106,-1.010919213294983,-1.008267879486084,-1.0062406063079834,-1.0046156644821167
0.3,0.0960584506392479,0.10046625137329102,0.0,0.9217758774757385,0.0,0.0,-0.3877231776714325,-0.4679219126701355,-0.18787282705307007,0.0,0.0,0.0,-2.617872476577759,-0.3595725893974304,0.6311887502670288,0.4200000464916229,1.0,3.724180714925751e-06,-2.2719079879607307e-06,9.637297893050345e-08,0.0002631253737490624,0.0002652592374943197,-0.00010437984019517899,-0.0016960874199867249,0.004134821705520153,-0.00013027869863435626,-0.36658716201782227,0.6322439312934875,0.4008198380470276,1.2652268409729004,-0.03290855512022972,-4.968242168426514,0.37121880054473877,0.7131873369216919,0.42000001668930054,-0.6799268126487732,2.999995470046997,-0.5078596472740173,-3.0000007152557373,-0.14292852580547333,-0.1510915607213974,-0.1589076668024063,-0.16608814895153046,-1.0013999938964844,-1.0010656118392944,-1.0008081197738647,-1.0006009340286255
0.31666666666666665,0.0869089812040329,0.09566353261470795,0.0,0.922751784324646,0.0,0.0,-0.3853948712348938,-0.5916123986244202,-0.34008195996284485,0.0,0.0,0.0,1.166025996208191,-0.3595725893974304,0.6311887502670288,0.4200000464916229,1.0,3.6661228932644008e-06,-2.3925063032947946e-06,1.6801759272766503e-07,0.00026602187426760793,0.00026706981589086354,-0.00010418705642223358,-0.0017310723196715117,0.004193500615656376,-0.00012849830090999603,-0.3679623603820801,0.6371974945068359,0.42286360263824463,-0.030814990401268005,0.5013980865478516,-0.16295067965984344,0.37121880054473877,0.7131873369216919,0.42000001668930054,-0.6300953030586243,2.999768018722534,-0.5584028363227844,-2.9993011951446533,-0.14625684916973114,-0.1539459228515625,-0.16098161041736603,-0.16703151166439056,-0.5306877493858337,-0.4449043869972229,-0.3407338559627533,-0.21779412031173706
0.3333333333333333,0.0755791962146759,0.08837151527404785,0.0,0.918145477771759,0.0,0.0,-0.39624351263046265,-0.7254745960235596,-0.4781571924686432,0.0,0.0,0.0,-2.476194381713867,-0.3582366406917572,0.6344468593597412,0.4204256236553192,0.9983091950416565,0.0004851069243159145,0.010576010681688786,-0.05715437978506088,0.029241155833005905,0.12428566068410873,0.01504138857126236,0.07812709361314774,0.7767079472541809,-4.702830791473389,-0.36797454953193665,0.6397887468338013,0.4245340824127197,0.1007373183965683,0.10604876279830933,0.20112164318561554,0.37121880054473877,0.7131873369216919,0.42000001668930054,-0.5800902843475342,2.9999945163726807,-0.6084288954734802,-3.000000476837158,-0.15479983389377594,-0.1607750803232193,-0.16580228507518768,-0.16956686973571777,-0.49101191759109497,-0.3726191818714142,-0.23954766988754272,-0.09397761523723602
0.35,0.06730891764163971,0.07830249518156052,0.0,0.9195247888565063,0.0,0.0,-0.3930319845676422,-0.37846651673316956,-0.6565956473350525,0.0,0.0,0.0,1.3179818391799927,-0.35680168867111206,0.6398295760154724,0.42098838090896606,0.9936918616294861,-0.0086922412738204,0.014815736562013626,-0.11082116514444351,0.14352978765964508,0.6108494997024536,0.01944725401699543,-0.3687904477119446,-1.174255132675171,-3.8649330139160156,-0.36645281314849854,0.6458685398101807,0.4260634183883667,0.15194089710712433,0.5555249452590942,-0.030676115304231644,0.37121880054473877,0.7131873369216919,0.42000001668930054,-0.5300853252410889,2.999927282333374,-0.6584547162055969,-2.9999818801879883,-0.16302521526813507,-0.16670545935630798,-0.16920539736747742,-0.1702689528465271,-0.43410754203796387,-0.29796674847602844,-0.14873723685741425,0.009691814891994
0.36666666666666664,0.057583630084991455,0.06660841405391693,0.0,0.9145604372024536,0.0,0.0,-0.4044492244720459,-0.6615201830863953,-0.7261549234390259,0.0,0.0,0.0,-2.4556915760040283,-0.35254189372062683,0.652130126953125,0.4200038015842438,0.9898110628128052,-3.925882265320979e-05,4.957093915436417e-05,-0.14238646626472473,0.4276200830936432,0.9246726632118225,-0.004311437252908945,0.21533353626728058,-0.06275992840528488,-4.843234062194824,-0.3587167263031006,0.6563223600387573,0.42250877618789673,0.7126842737197876,0.7587123513221741,-0.3636281192302704,0.37121880054473877,0.7131873369216919,0.42000001668930054,-0.4800807535648346,2.9999754428863525,-0.7084788084030151,-3.000000476837158,-0.1727244257926941,-0.17343363165855408,-0.17276710271835327,-0.17056173086166382,-0.5803582072257996,-0.39297187328338623,-0.19483457505702972,0.00793865043669939
0.3833333333333333,0.05083265155553818,0.052136629819869995,0.0,0.8970191478729248,0.0,0.0,-0.44199174642562866,-0.3564544916152954,-0.9109320640563965,0.0,0.0,0.0,-5.7931952476501465,-0.3432854413986206,0.6696898341178894,0.4200718402862549,0.9837435483932495,-0.0018168139504268765,0.00017338847101200372,-0.17956924438476562,0.9660147428512573,1.0294640064239502,0.25162506103515625,-12.143265724182129,3.934067964553833,-6.0533905029296875,-0.3435138761997223,0.6701282262802124,0.42108380794525146,1.100013256072998,0.935125470161438,0.16936981678009033,0.37121880054473877,0.7131873369216919,0.42000001668930054,-0.42998334765434265,2.9845314025878906,-0.7584719657897949,-2.9972612857818604,-0.18009807169437408,-0.17781014740467072,-0.1738475114107132,-0.1681589037179947,-0.4006345868110657,-0.21059347689151764,0.00012928075739182532,0.22379320859909058
0.4,0.04730784147977829,0.03483477234840393,0.0,0.8653373122215271,0.0,0.0,-0.5011898875236511,-0.11287510395050049,-1.119931697845459,0.0,0.0,0.0,-8.79858112335205,-0.307047963142395,0.6941003203392029,0.4233337640762329,0.973107635974884,-0.0028737415559589863,-0.037245310842990875,-0.22730155289173126,3.286612033843994,1.929142951965332,0.0720677599310875,29.756956100463867,-16.392576217651367,-1.0108472108840942,-0.30734750628471375,0.6947680711746216,0.4240061640739441,3.139143943786621,2.1017374992370605,0.3488699495792389,0.37121880054473877,0.7131873369216919,0.42000001668930054,-0.3936753273010254,1.3573204278945923,-0.808495819568634,-3.0000011920928955,-0.18843327462673187,-0.1824212521314621,-0.17449992895126343,-0.16476772725582123,-0.48190513253211975,-0.25726327300071716,-0.024081245064735413,0.20862479507923126
0.4166666666666667,0.04567060247063637,0.02229374274611473,0.0,0.816052258014679,0.0,0.0,-0.5779780745506287,-0.02005097270011902,-0.6235179901123047,0.0,0.0,0.0,-11.716487884521484,-0.22799581289291382,0.7339799404144287,0.42812564969062805,0.9540268182754517,0.06618395447731018,-0.08759573101997375,-0.27888956665992737,6.310216903686523,2.487248182296753,0.3044728934764862,12.076004028320312,-12.442556381225586,11.658360481262207,-0.22833669185638428,0.7351492643356323,0.429110050201416,5.952599048614502,2.863412857055664,0.40254685282707214,0.37121880054473877,0.7131873369216919,0.42000001668930054,-0.3736751079559326,1.0930113792419434,-0.7717056274414062,3.0006136894226074,-0.20288127660751343,-0.19257299602031708,-0.17967596650123596,-0.1653205305337906,-0.8606587052345276,-0.6684004068374634,-0.39093971252441406,-0.1430814117193222
0.43333333333333335,0.041130658239126205,0.017666703090071678,0.0,0.7735333442687988,0.0,0.0,-0.633755624294281,-0.4115006625652313,-0.3032662570476532,0.0,0.0,0.0,-7.10828161239624,-0.12986138463020325,0.7704199552536011,0.4378933608531952,0.9210671186447144,0.09918814152479172,-0.11672141402959824,-0.35801267623901367,5.964015007019043,1.5762635469436646,0.5560429096221924,-3.3513906002044678,-9.820013046264648,-0.6361076235771179,-0.13062086701393127,0.7735750675201416,0.4384043216705322,5.821327209472656,1.9074822664260864,0.7297723293304443,0.37121880054473877,0.7131873369216919,0.42000001668930054,-0.3545546531677246,1.2394777536392212,-0.7990246415138245,-2.999999761581421,-0.21725454926490784,-0.20717500150203705,-0.19097445905208588,-0.17204195261001587,-0.5482470989227295,-0.6354772448539734,-0.6009501218795776,-0.39869633316993713
0.45,0.040064096450805664,0.008119151927530766,0.0,0.7524193525314331,0.0,0.0,-0.6586843729019165,0.0661347433924675,-0.7442983388900757,0.0,0.0,0.0,-2.815351963043213,-0.029482997953891754,0.7956541180610657,0.44867444038391113,0.8785164952278137,0.08207651972770691,-0.11095738410949707,-0.4573407471179962,6.140811920166016,0.6431257128715515,0.6281822323799133,30.529569625854492,-14.05228042602539,1.6946736574172974,-0.030715731903910637,0.7997333407402039,0.4478521943092346,6.176941394805908,1.0695539712905884,0.5959789752960205,0.37121880054473877,0.7131873369216919,0.42000001668930054,-0.3335445523262024,1.1921895742416382,-0.8490486741065979,-3.0000054836273193,-0.22194713354110718,-0.2129489779472351,-0.1962895542383194,-0.1746262013912201,-0.10386568307876587,-0.14816522598266602,-0.12505921721458435,0.00719476630911231
0.4666666666666667,0.03853197768330574,0.0011378133203834295,0.0,0.7511127591133118,0.0,0.0,-0.6601738929748535,-0.1242164820432663,-0.3121967017650604,0.0,0.0,0.0,0.9624794125556946,0.06712399423122406,0.8053271770477295,0.456674188375473,0.8092008233070374,0.07312197983264923,-0.12559455633163452,-0.5692742466926575,5.2022624015808105,-0.7340959906578064,0.491908997297287,2.1879289150238037,-12.79530143737793,29.194379806518555,0.06625661253929138,0.8107758164405823,0.45726722478866577,5.412342548370361,0.2769891023635864,0.5817614197731018,0.37121880054473877,0.7131873369216919,0.42000001668930054,-0.3192562162876129,0.48345762491226196,-0.8990728855133057,-3.0000035762786865,-0.22575098276138306,-0.21713756024837494,-0.20020191371440887,-0.17695820331573486,-0.18512459099292755,-0.21482351422309875,-0.22833970189094543,-0.18887880444526672
0.48333333333333334,0.03910784795880318,-0.0016428405651822686,0.0,0.7427706718444824,0.0,0.0,-0.6695458889007568,0.08874357491731644,-0.06176135689020157,0.0,0.0,0.0,-2.2976996898651123,0.1488211452960968,0.8029595017433167,0.46195188164711,0.7567650079727173,0.07214163988828659,-0.11733324080705643,-0.6390111446380615,4.574018478393555,-1.180152416229248,0.23877094686031342,-7.005000114440918,5.515220642089844,3.9701075553894043,0.14865361154079437,0.8075069785118103,0.4620966911315918,4.816415786743164,-0.7025876641273499,0.22111184895038605,0.37121880054473877,0.7131873369216919,0.42000001668930054,-0.31184613704681396,0.474100798368454,-0.9490969777107239,-2.9980108737945557,-0.22780045866966248,-0.2194766402244568,-0.20273204147815704,-0.17905668914318085,-0.1319064050912857,-0.11485983431339264,-0.10435190051794052,-0.07329265773296356
0.5,0.04400159791111946,-0.009043024852871895,0.0,0.7458137273788452,0.0,0.0,-0.6661545634269714,0.34112972021102905,-0.5078538656234741,0.0,0.0,0.0,1.5262597799301147,0.2235507071018219,0.7886915802955627,0.4621153771877289,0.6757413148880005,0.0442623570561409,-0.11662226170301437,-0.7265079021453857,3.8791987895965576,-1.3188165426254272,-0.23650525510311127,-13.044759750366211,9.327691078186035,4.862042427062988,0.22280558943748474,0.7929797172546387,0.4625926613807678,4.214450836181641,-1.1710000038146973,-0.018265724182128906,0.37121880054473877,0.7131873369216919,0.42000001668930054,-0.2995670735836029,0.8889093995094299,-0.9991210103034973,-3.0000011920928955,-0.22350271046161652,-0.21561118960380554,-0.19969354569911957,-0.17679426074028015,0.3021504580974579,0.2895125448703766,0.23467223346233368,0.16199162602424622
0.5166666666666666,0.04530159756541252,-0.011491513811051846,0.0,0.7397139668464661,0.0,0.0,-0.6729214191436768,0.08271748572587967,-0.12454637140035629,0.0,0.0,0.0,-1.7445319890975952,0.28579381108283997,0.7655508518218994,0.45302844047546387,0.5816156268119812,-0.060203466564416885,-0.18460142612457275,-0.7899500727653503,2.860151767730713,-1.9991918802261353,-0.6095043420791626,-16.00596046447754,14.644469261169434,12.702781677246094,0.28406599164009094,0.7731704711914062,0.45861518383026123,3.5467162132263184,-1.3176231384277344,-0.3970550298690796,0.37121880054473877,0.7131873369216919,0.42000001668930054,-0.28395065665245056,0.7990792989730835,-1.0491431951522827,-2.9996721744537354,-0.22123172879219055,-0.21329611539840698,-0.19822931289672852,-0.17672522366046906,0.2410336136817932,0.211349219083786,0.12308944016695023,-0.004623325075954199
0.5333333333333333,0.04794112220406532,-0.010934515856206417,0.0,0.744232177734375,0.0,0.0,-0.6679210066795349,0.2058950662612915,0.08901949226856232,0.0,0.0,0.0,1.709578037261963,0.33386465907096863,0.7410544157028198,0.4411507844924927,0.5110799074172974,-0.1012779176235199,-0.1769275665283203,-0.8350070714950562,2.0981853008270264,-1.6666172742843628,-0.7819181680679321,-4.565443515777588,7.042121410369873,4.136428356170654,0.33203479647636414,0.7491766214370728,0.44776666164398193,2.4665112495422363,-1.5406250953674316,-0.773504376411438,0.37121880054473877,0.7131873369216919,0.42000001668930054,-0.2716361880302429,0.6269391775131226,-1.0991653203964233,-2.999763250350952,-0.21688905358314514,-0.20967276394367218,-0.19636067748069763,-0.17737171053886414,0.3137628734111786,0.2567746937274933,0.13340012729167938,-0.04143398627638817
0.55,0.05272969231009483,-0.012989156879484653,0.0,0.739052951335907,0.0,0.0,-0.6736473441123962,0.3313234746456146,-0.20063377916812897,0.0,0.0,0.0,-1.755314826965332,0.3649696707725525,0.7229540348052979,0.42499804496765137,0.5149146914482117,-0.1167706549167633,-0.05027075111865997,-0.8477619290351868,1.6865910291671753,-0.8782301545143127,-0.4456632435321808,-7.8080644607543945,-50.35569381713867,18.322383880615234,0.3662918210029602,0.7285705208778381,0.43079984188079834,1.1996724605560303,-0.765034556388855,-0.5121315717697144,0.37121880054473877,0.7131873369216919,0.42000001668930054,-0.25694379210472107,1.0093679428100586,-1.149187445640564,-2.987119197845459,-0.21045298874378204,-0.20455218851566315,-0.19366054236888885,-0.17797595262527466,0.489429235458374,0.3866286277770996,0.22130818665027618,0.0053559476509690285
0.5666666666666667,0.05997876450419426,-0.011679095216095448,0.0,0.744228720664978,0.0,0.0,-0.6679248809814453,0.44863784313201904,0.10581976175308228,0.0,0.0,0.0,1.8281372785568237,0.3851800858974457,0.7143162488937378,0.4218761622905731,0.47925904393196106,0.02497740089893341,-0.02902117371559143,-0.8768378496170044,0.6692975759506226,-0.4639805853366852,-0.042959392070770264,4.679656505584717,1.9690920114517212,0.4328192472457886,0.38006332516670227,0.7159717679023743,0.4258992373943329,0.6139031648635864,-0.6238933801651001,-0.15177448093891144,0.37121880054473877,0.7131873369216919,0.42000001668930054,-0.25127312541007996,0.06129962578415871,-1.1858375072479248,-1.5056089162826538,-0.2050919234752655,-0.20036078989505768,-0.19167008996009827,-0.17907069623470306,0.41422364115715027,0.32557469606399536,0.17993175983428955,-0.015093759633600712
0.5833333333333334,0.06503259390592575,-0.014083534479141235,0.0,0.7392989993095398,0.0,0.0,-0.673377275466919,0.24681295454502106,-0.1887727677822113,0.0,0.0,0.0,-1.7539037466049194,0.3905925750732422,0.7090535759925842,0.421103835105896,0.5072644352912903,0.014748286455869675,-0.022146496921777725,-0.8613795042037964,0.17189960181713104,-0.25267142057418823,-0.013393707573413849,-0.45764780044555664,0.33035263419151306,3.8588058948516846,0.38475972414016724,0.7109811305999756,0.4252696633338928,0.036466360092163086,-0.23612196743488312,0.011772194877266884,0.37121880054473877,0.7131873369216919,0.42000001668930054,-0.28272995352745056,-3.0000016689300537,-1.1551357507705688,2.9996984004974365,-0.1964002549648285,-0.19346581399440765,-0.18741898238658905,-0.1782025247812271,0.4563554525375366,0.36598896980285645,0.22546546161174774,0.03970584273338318
0.6,0.07073396444320679,-0.013845918700098991,0.0,0.7445634007453918,0.0,0.0,-0.6675517559051514,0.3764384984970093,0.03769572079181671,0.0,0.0,0.0,1.7071634531021118,0.390306293964386,0.7057215571403503,0.4202365577220917,0.52385413646698,0.0030997914727777243,-0.004860015586018562,-0.8517884612083435,-0.11010584235191345,-0.14757993817329407,-0.03197494521737099,0.713878333568573,1.4526655673980713,2.0276689529418945,0.3832979202270508,0.7071179151535034,0.42536723613739014,-0.07208159565925598,-0.08530952781438828,0.12359316647052765,0.37121880054473877,0.7131873369216919,0.42000001668930054,-0.314304918050766,-0.9651196599006653,-1.1773256063461304,-2.999354124069214,-0.18971394002437592,-0.18833452463150024,-0.18458789587020874,-0.17835566401481628,0.48157891631126404,0.36252230405807495,0.20536638796329498,0.013547427020967007
0.6166666666666667,0.0782415047287941,-0.011500667780637741,0.0,0.7387016415596008,0.0,0.0,-0.6740325689315796,0.47991615533828735,0.22447429597377777,0.0,0.0,0.0,-1.9749149084091187,0.3888397216796875,0.7043443322181702,0.4199995994567871,0.5450652837753296,-3.512309558573179e-05,-2.1734085748903453e-05,-0.8383935689926147,-0.11378221958875656,-0.03496267646551132,-0.0011835269397124648,0.054210104048252106,-0.02433139830827713,5.411937236785889,0.3827283978462219,0.7104366421699524,0.42751753330230713,-0.09646342694759369,0.310019850730896,0.17079973220825195,0.37121880054473877,0.7131873369216919,0.42000001668930054,-0.35322660207748413,-3.0000009536743164,-1.2272961139678955,-2.9996273517608643,-0.17966435849666595,-0.1810286045074463,-0.1804911345243454,-0.17787273228168488,0.622612714767456,0.4511723220348358,0.25601497292518616,0.04045341536402702
0.6333333333333333,0.08786839246749878,-0.012151303701102734,0.0,0.7433710694313049,0.0,0.0,-0.6688792705535889,0.5985328555107117,-0.08733277022838593,0.0,0.0,0.0,1.7144832611083984,0.3865250051021576,0.7045359015464783,0.41999995708465576,0.560530960559845,-1.1566064131329767e-05,1.1470231584098656e-05,-0.8281334042549133,-0.17730247974395752,0.03369483724236488,-0.0005055329529568553,-0.0055532450787723064,-0.021913759410381317,1.6480811834335327,0.3795726001262665,0.712906002998352,0.4306052327156067,-0.2623447775840759,0.04369749128818512,0.1883978545665741,0.37121880054473877,0.7131873369216919,0.42000001668930054,-0.4032774269580841,-2.9999592304229736,-1.277282953262329,-2.999486207962036,-0.1693236082792282,-0.1729847639799118,-0.17512232065200806,-0.1755235344171524,0.4908818006515503,0.3987460732460022,0.2836972773075104,0.1462567299604416
0.65,0.09527407586574554,-0.00894058495759964,0.0,0.7375349998474121,0.0,0.0,-0.6753089427947998,0.3541862368583679,0.21348395943641663,0.0,0.0,0.0,-1.9457309246063232,0.38453251123428345,0.7048983573913574,0.4200000464916229,0.5675351619720459,5.243677492217103e-07,4.0256236388813704e-07,-0.8233491778373718,-0.09841548651456833,0.017138991504907608,-5.8130244724452496e-06,-0.0002670842222869396,6.539805326610804e-05,0.7837474346160889,0.3786252737045288,0.7142440676689148,0.4338914752006531,0.019375868141651154,0.09328441321849823,0.2230777144432068,0.37121880054473877,0.7131873369216919,0.42000001668930054,-0.4533146321773529,-2.9998435974121094,-1.3272522687911987,-2.9994523525238037,-0.1636471152305603,-0.16845405101776123,-0.17203475534915924,-0.1741832047700882,0.397501140832901,0.32085177302360535,0.2322569489479065,0.13131210207939148
0.6666666666666666,0.10272423923015594,-0.010246498510241508,0.0,0.7420557141304016,0.0,0.0,-0.6703382134437561,0.4647413194179535,-0.11646832525730133,0.0,0.0,0.0,1.6611398458480835,0.3838580250740051,0.7050086855888367,0.42000001668930054,0.5694289207458496,8.506041240252671e-07,-4.0406411017102073e-07,-0.8220404982566833,-0.018714452162384987,0.002877176972106099,-2.117328403983265e-05,-0.0007538591744378209,0.0012117995647713542,0.11350897699594498,0.37702295184135437,0.715047299861908,0.4415730834007263,-0.20993149280548096,-0.0067147621884942055,0.7355470061302185,0.37121880054473877,0.7131873369216919,0.42000001668930054,-0.5033284425735474,-2.9999990463256836,-1.3772705793380737,-3.0,-0.15708132088184357,-0.1625996083021164,-0.16700641810894012,-0.17011617124080658,0.20578788220882416,0.21938899159431458,0.2285969853401184,0.23085713386535645
0.6833333333333333,0.11210378259420395,-0.01044461876153946,0.0,0.7358456254005432,0.0,0.0,-0.6771493554115295,0.6091142892837524,0.0292408037930727,0.0,0.0,0.0,-2.062739372253418,0.383857786655426,0.7050089836120605,0.4200000464916229,0.569429337978363,-2.3740913945857756e-07,-4.544059265754186e-06,-0.8220402598381042,0.00022494251606985927,-0.0002269944379804656,-7.107062265276909e-05,0.0027131398674100637,-0.00036256283055990934,-0.0010956674814224243,0.3784610331058502,0.715416669845581,0.45154768228530884,0.33754962682724,-0.008035775274038315,0.6287698745727539,0.37121880054473877,0.7131873369216919,0.42000001668930054,-0.5533410310745239,-2.9999988079071045,-1.4272888898849487,-2.9999988079071045,-0.15607950091362,-0.1607799082994461,-0.16434073448181152,-0.1666298657655716,0.0098985331133008,0.08262305706739426,0.16186809539794922,0.24410010874271393
0.7,0.12386779487133026,-0.0137484697625041,0.0,0.7112083435058594,0.0,0.0,-0.7029812932014465,0.7556183934211731,-0.2808680832386017,0.0,0.0,0.0,-5.089933395385742,0.3838578164577484,0.705008864402771,0.4200000464916229,0.5694288611412048,2.6887883564086223e-07,-3.0550995688827243e-06,-0.8220406174659729,8.246295328717679e-05,-0.0002622685278765857,-8.516479283571243e-05,0.006440467666834593,-0.0017011307645589113,-0.0007010169792920351,0.38888394832611084,0.7178876996040344,0.4695975184440613,0.8936754465103149,0.234817773103714,1.6618043184280396,0.37121880054473877,0.7131873369216919,0.42000001668930054,-0.6033521890640259,-2.9999804496765137,-1.4773072004318237,-2.9999990463256836,-0.15762652456760406,-0.16087068617343903,-0.16282981634140015,-0.1634356826543808,-0.17192594707012177,-0.0702672153711319,0.04083571583032608,0.15742312371730804
0.7166666666666667,0.13798479735851288,-0.014991953037679195,0.0,0.6995487213134766,0.0,0.0,-0.7145848870277405,0.8760146498680115,-0.02076219581067562,0.0,0.0,0.0,-0.9263061285018921,0.3838578164577484,0.705008864402771,0.4200000464916229,0.5694292187690735,3.0302788900371525e-07,-3.1177526125247823e-06,-0.8220403790473938,8.354173041880131e-05,-0.00026023125974461436,-8.540111593902111e-05,0.006382810417562723,-0.001678436528891325,-0.0007000128389336169,0.4055909514427185,0.7255946397781372,0.5026147961616516,1.1133848428726196,0.6766247749328613,2.265995740890503,0.37121880054473877,0.7131873369216919,0.42000001668930054,-0.6231042146682739,0.35463398694992065,-1.5273255109786987,-3.000000476837158,-0.16115827858448029,-0.16326786577701569,-0.1639557182788849,-0.16320878267288208,-0.1444825530052185,-0.12155470252037048,-0.09098266065120697,-0.054880719631910324
0.7333333333333333,0.14933153986930847,-0.012900820933282375,0.0,0.7101110816001892,0.0,0.0,-0.7040897011756897,0.6121017932891846,0.1787346601486206,0.0,0.0,0.0,2.6364967823028564,0.3838578164577484,0.705008864402771,0.4200000464916229,0.5694290995597839,3.3114437769654614e-07,-3.062895757466322e-06,-0.8220403790473938,8.571420767111704e-05,-0.00025880304747261107,-8.587841875851154e-05,0.006334671285003424,-0.0016461967024952173,-0.0007022196077741683,0.4238765835762024,0.7324082851409912,0.5330615043640137,1.040273904800415,0.25909534096717834,1.476438045501709,0.37121880054473877,0.7131873369216919,0.42000001668930054,-0.603501558303833,1.8487467765808105,-1.4885152578353882,2.9999983310699463,-0.16367168724536896,-0.16514746844768524,-0.16511297225952148,-0.16360129415988922,-0.10946012288331985,-0.06571157276630402,-0.020144687965512276,0.024479197338223457
0.75,0.1562105417251587,-0.015328987501561642,0.0,0.7091813087463379,0.0,0.0,-0.7050260901451111,0.36319833993911743,-0.15383942425251007,0.0,0.0,0.0,-1.07529878616333,0.3838578164577484,0.705008864402771,0.4200000464916229,0.5694289803504944,3.3741130778253137e-07,-3.011188937307452e-06,-0.8220404386520386,8.553393126931041e-05,-0.0002587801718618721,-8.583627641201019e-05,0.006334886886179447,-0.0016481559723615646,-0.0007017964380793273,0.43563979864120483,0.7377238869667053,0.5514297485351562,0.3017508387565613,0.15066854655742645,0.8774771690368652,0.37121880054473877,0.7131873369216919,0.42000001668930054,-0.5927000045776367,-0.3671867847442627,-1.438458800315857,3.000000476837158,-0.1617126315832138,-0.16294001042842865,-0.16265888512134552,-0.16093088686466217,-0.03750479966402054,0.019847920164465904,0.0702584981918335,0.11109115183353424
0.7666666666666666,0.15950903296470642,-0.01374723855406046,0.0,0.7182732224464417,0.0,0.0,-0.6957611441612244,0.15602654218673706,0.14041674137115479,0.0,0.0,0.0,2.3527345657348633,0.3838578164577484,0.705008864402771,0.4200000464916229,0.5694289207458496,3.511928525767871e-07,-2.958944605779834e-06,-0.8220406174659729,8.52973316796124e-05,-0.0002588564530014992,-8.578505367040634e-05,0.006338064558804035,-0.0016513689188286662,-0.0007014044676907361,0.43982386589050293,0.7377270460128784,0.5612394213676453,0.24137896299362183,-0.0038614552468061447,0.35739487409591675,0.37121880054473877,0.7131873369216919,0.42000001668930054,-0.5752624273300171,2.219893455505371,-1.4558236598968506,-3.000000476837158,-0.16417545080184937,-0.16412213444709778,-0.16273121535778046,-0.1601170152425766,-0.06970008462667465,-0.013325776904821396,0.03233611211180687,0.06491100788116455
0.7833333333333333,0.15980584919452667,-0.015446476638317108,0.0,0.7151172161102295,0.0,0.0,-0.6990045309066772,-0.01891605742275715,-0.15396425127983093,0.0,0.0,0.0,-1.4695378541946411,0.3838578164577484,0.7050089240074158,0.4200000464916229,0.5694292783737183,2.9043872018519323e-07,-3.1806382594368188e-06,-0.822040319442749,8.42689405544661e-05,-0.0002605687768664211,-8.555292151868343e-05,0.00638696039095521,-0.0016718703554943204,-0.0007024014485068619,0.4368900656700134,0.7387924790382385,0.5612397193908691,-0.5877814292907715,0.03417561948299408,-0.19395366311073303,0.37121880054473877,0.7131873369216919,0.42000001668930054,-0.5629725456237793,-0.5176419615745544,-1.4172210693359375,2.999999761581421,-0.16359739005565643,-0.16295495629310608,-0.16116118431091309,-0.15835857391357422,0.01804003305733204,0.057932253926992416,0.08400582522153854,0.09483463317155838
0.8,0.16088390350341797,-0.01399910543113947,0.0,0.7213535308837891,0.0,0.0,-0.692566990852356,0.10329192876815796,0.088090680539608,0.0,0.0,0.0,1.737173080444336,0.3838578164577484,0.705008864402771,0.4200000464916229,0.5694289803504944,2.998939976350812e-07,-3.1676968319516163e-06,-0.8220405578613281,8.313811849802732e-05,-0.0002619671286083758,-8.529564365744591e-05,0.006429539527744055,-0.001691116252914071,-0.0007016723975539207,0.4290429949760437,0.7392158508300781,0.5567454695701599,-0.2858755588531494,0.14436134696006775,-0.2994685173034668,0.37121880054473877,0.7131873369216919,0.42000001668930054,-0.5487395524978638,1.9966872930526733,-1.4350136518478394,-3.000000476837158,-0.16463568806648254,-0.16337347030639648,-0.16114197671413422,-0.15810787677764893,0.08085295557975769,0.07321768254041672,0.06044483929872513,0.04199177399277687
0.8166666666666667,0.16047382354736328,-0.014962599612772465,0.0,0.71675044298172,0.0,0.0,-0.6973298192024231,-0.06749922782182693,-0.10351282358169556,0.0,0.0,0.0,-1.5992162227630615,0.3838578164577484,0.705008864402771,0.4200000464916229,0.5694292187690735,2.5937976033674204e-07,-3.260312951169908e-06,-0.8220403790473938,8.035155042307451e-05,-0.0002629882364999503,-8.475850336253643e-05,0.006469803862273693,-0.0017308943206444383,-0.0006977161974646151,0.42348340153694153,0.7405011057853699,0.5484188795089722,-0.39007893204689026,-0.02051732689142227,-0.5369077324867249,0.37121880054473877,0.7131873369216919,0.42000001668930054,-0.5597795844078064,-2.8885743618011475,-1.3964715003967285,3.000000476837158,-0.1644366979598999,-0.16312722861766815,-0.16092678904533386,-0.15801316499710083,-0.041451696306467056,-0.026684153825044632,-0.017091520130634308,-0.013352509588003159
0.8333333333333334,0.16122443974018097,-0.013910779729485512,0.0,0.7217506766319275,0.0,0.0,-0.6921531558036804,0.09092475473880768,0.10607516765594482,0.0,0.0,0.0,1.7318596839904785,0.3838578164577484,0.705008864402771,0.4200000464916229,0.5694293975830078,2.4648784346936736e-07,-3.163673227390973e-06,-0.8220401406288147,8.004363917279989e-05,-0.0002630908857099712,-8.467864245176315e-05,0.006474250461906195,-0.0017346151871606708,-0.0006971764378249645,0.42065173387527466,0.7395021319389343,0.5404027700424194,0.04141327366232872,-0.045196667313575745,-0.37085193395614624,0.37121880054473877,0.7131873369216919,0.42000001668930054,-0.5800780653953552,0.2016030102968216,-1.4146610498428345,-3.000000238418579,-0.1656724363565445,-0.16402699053287506,-0.16146767139434814,-0.15819336473941803,-0.04151039943099022,-0.02504781261086464,-0.0021806012373417616,0.025766834616661072
0.85,0.1642477810382843,-0.015726424753665924,0.0,0.7168147563934326,0.0,0.0,-0.6972636580467224,0.22415649890899658,-0.1757834106683731,0.0,0.0,0.0,-1.652831792831421,0.3838578164577484,0.705008864402771,0.4200000464916229,0.5694290399551392,2.92870112161836e-07,-3.0785981834924314e-06,-0.8220404982566833,8.149132190737873e-05,-0.0002618012949824333,-8.494686335325241e-05,0.006434239912778139,-0.001709797652438283,-0.0006978622986935079,0.4226424992084503,0.7384775876998901,0.5317450761795044,0.1785029023885727,-0.14482136070728302,-0.5034456253051758,0.37121880054473877,0.7131873369216919,0.42000001668930054,-0.6116064190864563,-3.0,-1.3765537738800049,3.000000476837158,-0.1661437451839447,-0.16420312225818634,-0.16120319068431854,-0.15736499428749084,-0.07169611752033234,-0.03618089482188225,0.007686006836593151,0.058445680886507034
0.8666666666666667,0.169984370470047,-0.01427813433110714,0.0,0.6922288537025452,0.0,0.0,-0.7216780185699463,0.37056827545166016,0.12075399607419968,0.0,0.0,0.0,-5.028553485870361,0.3838578164577484,0.705008864402771,0.4200000464916229,0.5694292187690735,2.9510022159229266e-07,-3.143578396702651e-06,-0.8220403790473938,8.396201155846938e-05,-0.0002602619642857462,-8.552544750273228e-05,0.006381111219525337,-0.0016746948240324855,-0.0007010801928117871,0.43059974908828735,0.7376207113265991,0.5269788503646851,0.775189995765686,0.053659580647945404,0.055436499416828156,0.37121880054473877,0.7131873369216919,0.42000001668930054,-0.6549642086029053,-2.2327733039855957,-1.3951469659805298,-2.9999990463256836,-0.1697469800710678,-0.16719146072864532,-0.16336730122566223,-0.1585211157798767,-0.1592828631401062,-0.14220711588859558,-0.10830863565206528,-0.05862584337592125
0.8833333333333333,0.17788101732730865,-0.010545935481786728,0.0,0.6811411380767822,0.0,0.0,-0.7321521639823914,0.5113608241081238,0.2740785479545593,0.0,0.0,0.0,-0.8274379372596741,0.3838578164577484,0.705008864402771,0.4200000464916229,0.5694293975830078,2.8733416002069134e-07,-3.213763648091117e-06,-0.8220402598381042,8.421667735092342e-05,-0.000260174332652241,-8.558412082493305e-05,0.006377434823662043,-0.0016713510267436504,-0.0007015018491074443,0.44019627571105957,0.7418044805526733,0.5303889513015747,0.39237117767333984,0.43390750885009766,0.33862966299057007,0.37121880054473877,0.7131873369216919,0.42000001668930054,-0.6612735390663147,1.184375286102295,-1.4451652765274048,-3.000000476837158,-0.17111703753471375,-0.1689382791519165,-0.16525940597057343,-0.16033025085926056,-0.03102410025894642,-0.0820222944021225,-0.1239720806479454,-0.15602222084999084
