vladlanda/robotic-transformer/data/env_000_episode_0088.csv
sim_time_s,robot_box_x,robot_box_y,robot_box_z,robot_box_quat_w,robot_box_quat_x,robot_box_quat_y,robot_box_quat_z,robot_box_linvel_x,robot_box_linvel_y,robot_box_linvel_z,robot_box_angvel_x,robot_box_angvel_y,robot_box_angvel_z,cube_world_x,cube_world_y,cube_world_z,cube_quat_w,cube_quat_x,cube_quat_y,cube_quat_z,cube_linvel_x,cube_linvel_y,cube_linvel_z,cube_angvel_x,cube_angvel_y,cube_angvel_z,endpoint_world_x,endpoint_world_y,endpoint_world_z,endpoint_linvel_x,endpoint_linvel_y,endpoint_linvel_z,target_cube_world_x,target_cube_world_y,target_cube_world_z,gripper_actual_pos_rad_gp_leftgearjoint,gripper_actual_vel_rad_s_gp_leftgearjoint,gripper_actual_pos_rad_gp_rotatingjoint,gripper_actual_vel_rad_s_gp_rotatingjoint,motor_angle_rad_joint1,motor_angle_rad_joint2,motor_angle_rad_joint3,motor_angle_rad_joint4,motor_speed_rad_s_joint1,motor_speed_rad_s_joint2,motor_speed_rad_s_joint3,motor_speed_rad_s_joint4
0.0,0.0,0.0,0.0,1.0,0.0,0.0,0.0,0.0,0.0,0.0,0.0,0.0,0.0,-0.4655342400074005,0.7650167346000671,0.41999998688697815,1.0,0.0,0.0,0.0,0.0,0.0,0.0,0.0,0.0,0.0,3.42540442943573e-06,-0.005000244826078415,1.313499927520752,0.0,0.0,0.0,0.46256279945373535,0.7005815505981445,0.42000001668930054,-1.5707999467849731,0.0,0.0,0.0,0.0,0.0,0.0,0.0,0.0,0.0,0.0,0.0
0.016666666666666666,0.0028778850100934505,0.0021806680597364902,0.0,0.9998081922531128,0.0,0.0,0.019586581736803055,0.24087215960025787,0.18240931630134583,0.0,0.0,0.0,3.1418697834014893,-0.46553435921669006,0.7650164365768433,0.41999998688697815,1.0,3.2799914606584935e-06,-8.339814598912199e-07,8.465387679734704e-08,-1.9833554688375443e-05,0.00017983050202019513,-6.133061833679676e-05,0.0009432226070202887,-0.004689437802881002,-0.0003198152990080416,-0.007110234349966049,0.003379564033821225,1.3159373998641968,-0.8143353462219238,0.9868683815002441,0.18095196783542633,0.46256279945373535,0.7005815505981445,0.42000001668930054,-1.5301095247268677,3.0000011920928955,-0.04584788903594017,-2.9999992847442627,0.0008691533003002405,0.0007963840034790337,0.0007110277656465769,0.0006108740926720202,0.11094217747449875,0.09756709635257721,0.08334315568208694,0.06823883205652237
0.03333333333333333,0.008960994891822338,0.006802013609558344,0.0,0.9997960329055786,0.0,0.0,0.02019684575498104,0.40702226758003235,0.3153079152107239,0.0,0.0,0.0,-0.8691329956054688,-0.4655344784259796,0.7650163769721985,0.4200000464916229,1.0,3.390868869246333e-06,-2.1324674435163615e-06,-3.711417306817566e-08,0.00026357892784290016,0.0002693788555916399,-0.00010509602725505829,-0.001770795788615942,0.004130901303142309,-0.00013548035349231213,-0.02755575254559517,0.02627343311905861,1.3165843486785889,-1.5913281440734863,1.6162524223327637,-0.08654443919658661,0.46256279945373535,0.7005815505981445,0.42000001668930054,-1.4800903797149658,3.0000009536743164,-0.0958876982331276,-2.999999523162842,0.002990096341818571,0.002652697963640094,0.0022772601805627346,0.001860707881860435,0.16421297192573547,0.1397562325000763,0.11381468176841736,0.08629628270864487
0.05,0.017734292894601822,0.013769500888884068,0.0,0.9993815422058105,0.0,0.0,0.03516380861401558,0.5935407280921936,0.4649876356124878,0.0,0.0,0.0,2.6506705284118652,-0.465534508228302,0.7650164365768433,0.4200000464916229,1.0,3.7651575439667795e-06,-2.211913852079306e-06,5.610705233749513e-09,0.0002653082774486393,0.0002669135865289718,-0.0001044049859046936,-0.0017242783214896917,0.0041773971170187,-0.00012949295341968536,-0.059689801186323166,0.05475993454456329,1.3113975524902344,-2.1877143383026123,1.8287353515625,-0.499374657869339,0.46256279945373535,0.7005815505981445,0.42000001668930054,-1.4300720691680908,3.0,-0.1459263414144516,-2.9999992847442627,0.0057009365409612656,0.0049090925604105,0.004045149311423302,0.0031046546064317226,0.19248135387897491,0.15557074546813965,0.11678886413574219,0.07604197412729263
0.06666666666666667,0.029045455157756805,0.02306179888546467,0.0,0.9994527697563171,0.0,0.0,0.033077601343393326,0.7201248407363892,0.5951422452926636,0.0,0.0,0.0,-1.2085423469543457,-0.465534508228302,0.7650163769721985,0.4200000464916229,0.9999999403953552,3.4068068544002017e-06,-2.2855970200907905e-06,4.300798082113033e-07,0.0002670251706149429,0.0002679169410839677,-0.0001043803058564663,-0.0017405967228114605,0.004211737308651209,-0.00012850314669776708,-0.09645852446556091,0.09058678150177002,1.2988272905349731,-2.2535877227783203,2.3533761501312256,-0.9796685576438904,0.46256279945373535,0.7005815505981445,0.42000001668930054,-1.3800537586212158,3.0000030994415283,-0.19596366584300995,-3.000000476837158,0.008092775009572506,0.006545840296894312,0.004887229297310114,0.0031134658493101597,0.12913233041763306,0.07133156061172485,0.011489376425743103,-0.050494737923145294
0.08333333333333333,0.034416358917951584,0.03569849207997322,0.0,1.0,0.0,0.0,-9.649255662225187e-05,0.1900348961353302,0.824607789516449,0.0,0.0,0.0,-4.931905746459961,-0.465534508228302,0.7650163769721985,0.4200000464916229,0.9999999403953552,3.6261346849641996e-06,-2.33528749049583e-06,3.032092763533001e-07,0.00026613843510858715,0.00026685046032071114,-0.00010405108332633972,-0.0017283449415117502,0.004196330904960632,-0.00012790736218448728,-0.13116241991519928,0.13399861752986908,1.2787554264068604,-1.9764810800552368,2.7326817512512207,-1.3421941995620728,0.46256279945373535,0.7005815505981445,0.42000001668930054,-1.3300354480743408,3.000001907348633,-0.23502308130264282,-1.758932113647461,0.0045918370597064495,0.0023545927833765745,-4.543708200799301e-05,-0.0026162753347307444,-0.30961862206459045,-0.35763296484947205,-0.40822216868400574,-0.46168699860572815
0.1,0.04404636099934578,0.04964786767959595,0.0,0.9998922348022461,0.0,0.0,-0.01467928383499384,0.6747474074363708,0.8506707549095154,0.0,0.0,0.0,-0.6982582807540894,-0.465534508228302,0.7650163769721985,0.4200000464916229,1.0,3.422179361223243e-06,-2.3085308384906966e-06,1.796248056962213e-07,0.00026681533199734986,0.0002680046309251338,-0.00010440708138048649,-0.0017430472653359175,0.004207065794616938,-0.00012891196820419282,-0.16704393923282623,0.17621341347694397,1.2575867176055908,-2.150017023086548,2.6032586097717285,-1.2883164882659912,0.46256279945373535,0.7005815505981445,0.42000001668930054,-1.2800278663635254,2.9999988079071045,-0.2844260632991791,-3.0,0.004403239116072655,0.0005947793833911419,-0.0033743251115083694,-0.007511343341320753,0.01207592710852623,-0.09227888286113739,-0.19571253657341003,-0.2982259690761566
0.11666666666666667,0.051616121083498,0.06570088118314743,0.0,0.9991278648376465,0.0,0.0,-0.04175574332475662,0.45765554904937744,1.024364709854126,0.0,0.0,0.0,-3.9306857585906982,-0.465534508228302,0.7650164365768433,0.4200000464916229,1.0,3.7115455597813707e-06,-2.332649273739662e-06,2.5742372145032277e-07,0.0002648553345352411,0.0002663533960003406,-0.00010423408821225166,-0.0017181431176140904,0.004169944208115339,-0.00012915971456095576,-0.19840863347053528,0.22495687007904053,1.237072467803955,-1.629352331161499,3.256160259246826,-1.1584309339523315,0.46256279945373535,0.7005815505981445,0.42000001668930054,-1.2300037145614624,2.999988317489624,-0.25020021200180054,2.999997854232788,0.0024369428865611553,-0.0033120166044682264,-0.009193016216158867,-0.01521257497370243,-0.0781097412109375,-0.21750560402870178,-0.35370466113090515,-0.486501544713974
0.13333333333333333,0.05656738206744194,0.08455852419137955,0.0,0.9955672025680542,0.0,0.0,-0.09405301511287689,0.23216891288757324,1.1778546571731567,0.0,0.0,0.0,-7.097778797149658,-0.465534508228302,0.7650163769721985,0.4200000464916229,1.0,3.335725068609463e-06,-2.2318936316878535e-06,3.1131941113926587e-07,0.0002666966465767473,0.0002675946743693203,-0.00010428694076836109,-0.0017371214926242828,0.004205851349979639,-0.00012840802082791924,-0.22567647695541382,0.2801743149757385,1.2187490463256836,-1.6118990182876587,3.417135000228882,-1.124869465827942,0.46256279945373535,0.7005815505981445,0.42000001668930054,-1.1974812746047974,1.0438647270202637,-0.2813224792480469,-3.0000011920928955,-7.984401599969715e-05,-0.008108791895210743,-0.016200831159949303,-0.024358196184039116,-0.22774742543697357,-0.35196515917778015,-0.47189101576805115,-0.5872870087623596
0.15,0.05837412551045418,0.10147012025117874,0.0,0.9920015335083008,0.0,0.0,-0.12622593343257904,0.06181564927101135,0.9200164079666138,0.0,0.0,0.0,-2.833742141723633,-0.465534508228302,0.7650163769721985,0.4200000464916229,1.0,3.5189095797250047e-06,-2.2831156911706785e-06,-3.6253456414669927e-07,0.0002661842736415565,0.0002673580020200461,-0.00010425597429275513,-0.0017349525587633252,0.004195696674287319,-0.00012860969582106918,-0.2613285183906555,0.3351050019264221,1.1944866180419922,-2.276262044906616,3.4961440563201904,-1.749499797821045,0.46256279945373535,0.7005815505981445,0.42000001668930054,-1.1583168506622314,2.9999911785125732,-0.2481222152709961,3.000000238418579,-0.004542645066976547,-0.01425886433571577,-0.023956816643476486,-0.03363657370209694,-0.314596563577652,-0.3920453190803528,-0.4648057520389557,-0.5328739285469055
0.16666666666666666,0.05668357387185097,0.1184919998049736,0.0,0.9853625297546387,0.0,0.0,-0.17047198116779327,-0.16409750282764435,1.0607736110687256,0.0,0.0,0.0,-6.236923694610596,-0.465534508228302,0.7650163769721985,0.4200000464916229,1.0,3.666511929623084e-06,-2.3391485228785314e-06,-3.1497177133132936e-07,0.000265957583906129,0.00026667368365451694,-0.0001040350180119276,-0.00172534235753119,0.0041928584687411785,-0.0001277906121686101,-0.29669511318206787,0.39593106508255005,1.1644551753997803,-1.8785243034362793,3.9025697708129883,-1.890364646911621,0.46256279945373535,0.7005815505981445,0.42000001668930054,-1.1140440702438354,2.331956148147583,-0.2792460322380066,-2.999999761581421,-0.011751828715205193,-0.02272474579513073,-0.033594440668821335,-0.044360436499118805,-0.5203810930252075,-0.5872347354888916,-0.6492740511894226,-0.706469714641571
0.18333333333333332,0.05980322137475014,0.13750003278255463,0.0,0.9803608655929565,0.0,0.0,-0.1972118765115738,0.30571380257606506,1.1828985214233398,0.0,0.0,0.0,-2.271106719970703,-0.465534508228302,0.7650163769721985,0.4200000464916229,1.0,3.814258207057719e-06,-2.3995091851247707e-06,-2.7025083682019613e-07,0.0002654909039847553,0.0002661114267539233,-0.00010391208343207836,-0.001717755920253694,0.004184814170002937,-0.0001275418180739507,-0.33318036794662476,0.4591694176197052,1.1248779296875,-2.1443817615509033,3.9733943939208984,-2.81884503364563,0.46256279945373535,0.7005815505981445,0.42000001668930054,-1.0839844942092896,1.3375650644302368,-0.3292737603187561,-3.0000009536743164,-0.017985735088586807,-0.02980499155819416,-0.04143885523080826,-0.05289006605744362,-0.3753436803817749,-0.4003750681877136,-0.4213702976703644,-0.43867895007133484
0.2,0.059862010180950165,0.15367549657821655,0.0,0.9711764454841614,0.0,0.0,-0.2383616715669632,-0.07654912769794464,0.9233357906341553,0.0,0.0,0.0,-5.664906978607178,-0.465534508228302,0.7650163769721985,0.4200000464916229,1.0,3.5999153169541387e-06,-2.291187911396264e-06,-2.2016379830347432e-07,0.0002657304867170751,0.00026644792524166405,-0.00010397983714938164,-0.0017226124182343483,0.004188839346170425,-0.00012773237540386617,-0.3683149814605713,0.5267884731292725,1.0712510347366333,-1.9164061546325684,4.2837300300598145,-3.5854859352111816,0.46256279945373535,0.7005815505981445,0.42000001668930054,-1.0392619371414185,3.0,-0.3792992830276489,-3.000000238418579,-0.029495593160390854,-0.0408477708697319,-0.05199892818927765,-0.06296659260988235,-0.8490111231803894,-0.7965178489685059,-0.7438884973526001,-0.6919106245040894
0.21666666666666667,0.05933704599738121,0.17028336226940155,0.0,0.9658756256103516,0.0,0.0,-0.2590063810348511,0.011298637837171555,1.0375001430511475,0.0,0.0,0.0,-1.5578432083129883,-0.465534508228302,0.7650163769721985,0.4200000464916229,0.9999999403953552,3.6394887956703315e-06,-2.261938107039896e-06,2.225111614961861e-07,0.00026687642093747854,0.0002675454888958484,-0.00010411953553557396,-0.0017403915990144014,0.004211097024381161,-0.0001278359559364617,-0.4033222794532776,0.5918169021606445,1.0027726888656616,-1.9303703308105469,3.816288948059082,-4.552149772644043,0.46256279945373535,0.7005815505981445,0.42000001668930054,-0.9892626404762268,3.000000238418579,-0.42932426929473877,-3.0,-0.045298997312784195,-0.05567202717065811,-0.06530250608921051,-0.0747976005077362,-0.9808756709098816,-0.9316133856773376,-0.8194422125816345,-0.7115834355354309
0.23333333333333334,0.05719577148556709,0.18461662530899048,0.0,0.9563145637512207,0.0,0.0,-0.29233962297439575,-0.18712583184242249,0.7719075083732605,0.0,0.0,0.0,-5.0208048820495605,-0.4655344784259796,0.7650163769721985,0.4200000464916229,1.0,3.4205220345029375e-06,-2.3167776816990227e-06,2.956315086066752e-07,0.0002668011002242565,0.0002680400793906301,-0.00010442500934004784,-0.0017437192145735025,0.00420679897069931,-0.00012899402645416558,-0.4331407845020294,0.6535804271697998,0.920231819152832,-1.52808678150177,3.570708751678467,-5.262765407562256,0.46256279945373535,0.7005815505981445,0.42000001668930054,-0.9392538070678711,2.999999523162842,-0.479351669549942,-2.999999761581421,-0.061546653509140015,-0.07186130434274673,-0.08085176348686218,-0.08864899724721909,-0.985231339931488,-0.9736676812171936,-0.9626184701919556,-0.8751636147499084
0.25,0.05696548894047737,0.19646908342838287,0.0,0.9517378211021423,0.0,0.0,-0.3069123327732086,0.04944787919521332,0.6852236390113831,0.0,0.0,0.0,-0.8141641020774841,-0.465534508228302,0.7650163769721985,0.4200000464916229,0.9999999403953552,3.3473763778602006e-06,-2.2591107153857592e-06,1.8088424269535608e-07,0.00026687863282859325,0.00026791077107191086,-0.00010439497418701649,-0.001740471227094531,0.004208289086818695,-0.00012870471982751042,-0.45926445722579956,0.7025725245475769,0.826353907585144,-1.3357298374176025,2.5491738319396973,-5.942518711090088,0.46256279945373535,0.7005815505981445,0.42000001668930054,-0.8892433047294617,3.0000014305114746,-0.5293810367584229,-3.000000238418579,-0.07805782556533813,-0.08828272670507431,-0.09714141488075256,-0.10441693663597107,-0.9887697100639343,-0.982965886592865,-0.9633337259292603,-0.9478862285614014
0.26666666666666666,0.053668633103370667,0.20564121007919312,0.0,0.9426045417785645,0.0,0.0,-0.3339111804962158,-0.21223117411136627,0.47109055519104004,0.0,0.0,0.0,-4.231629848480225,-0.465534508228302,0.7650163769721985,0.4200000464916229,0.9999999403953552,3.707820951603935e-06,-2.3923903427203186e-06,-1.2721770303869562e-07,0.00026603747392073274,0.00026716626598499715,-0.00010421453043818474,-0.0017322177300229669,0.004193147644400597,-0.000128546089399606,-0.47658050060272217,0.7366935014724731,0.7208079099655151,-0.7067995667457581,1.654292106628418,-6.529852867126465,0.46256279945373535,0.7005815505981445,0.42000001668930054,-0.8392326831817627,3.000002145767212,-0.5794107913970947,-3.000000476837158,-0.09434553980827332,-0.10455259680747986,-0.11341274529695511,-0.12068942934274673,-0.8325833678245544,-0.8557255268096924,-0.8776352405548096,-0.8981204628944397
0.2833333333333333,0.048633258789777756,0.21091099083423615,0.0,0.9396252632141113,0.0,0.0,-0.34220513701438904,-0.3738483488559723,0.2490139603614807,0.0,0.0,0.0,-0.07948195934295654,-0.465534508228302,0.7650164365768433,0.4200000464916229,0.9999999403953552,3.572407877072692e-06,-2.303904466316453e-06,1.2990359721243294e-07,0.00026521814288571477,0.0002645525673869997,-0.00010317121632397175,-0.0017021826934069395,0.004185078199952841,-0.00012500252341851592,-0.4869055449962616,0.7542077302932739,0.61225825548172,-0.3493933081626892,0.5157361030578613,-6.489274978637695,0.46256279945373535,0.7005815505981445,0.42000001668930054,-0.7892236113548279,2.999980926513672,-0.6294405460357666,-2.9999725818634033,-0.11090480536222458,-0.12108787894248962,-0.1299014538526535,-0.13695454597473145,-0.9317259192466736,-0.9431459307670593,-0.9544458985328674,-0.9650269746780396
0.3,0.04328056424856186,0.21278883516788483,0.0,0.931964635848999,0.0,0.0,-0.36254918575286865,-0.3083591163158417,0.06224634870886803,0.0,0.0,0.0,-3.4830830097198486,-0.465534508228302,0.7650163769721985,0.4200000464916229,1.0,3.7448494367708918e-06,-2.2379372239811346e-06,-1.7673770003057143e-07,0.00026436097687110305,0.000266234390437603,-0.00010442966595292091,-0.0017119572730734944,0.004158670082688332,-0.00012990014511160553,-0.4869254529476166,0.7603887319564819,0.5044572949409485,0.39687174558639526,0.10944068431854248,-6.2504119873046875,0.46256279945373535,0.7005815505981445,0.42000001668930054,-0.7392148375511169,3.000001907348633,-0.6794688701629639,-2.999999761581421,-0.12811970710754395,-0.13817310333251953,-0.14689083397388458,-0.15386979281902313,-1.0103321075439453,-1.007815957069397,-1.005898356437683,-1.0043621063232422
0.31666666666666665,0.03511394187808037,0.21259485185146332,0.0,0.930700421333313,0.0,0.0,-0.36578232049942017,-0.4741855263710022,-0.08824440091848373,0.0,0.0,0.0,0.5255619287490845,-0.465534508228302,0.7650164365768433,0.4200000464916229,0.9999999403953552,3.6678875403595157e-06,-2.3070483621268068e-06,2.637760019297275e-07,0.0002669123059604317,0.00026760553009808064,-0.00010412652045488358,-0.0017413359601050615,0.004211626946926117,-0.00012787147716153413,-0.4765315353870392,0.7586827278137207,0.4070497155189514,0.8887615203857422,-0.2603978216648102,-5.569889068603516,0.46256279945373535,0.7005815505981445,0.42000001668930054,-0.6892076730728149,2.9999802112579346,-0.7294948697090149,-2.9999608993530273,-0.14573705196380615,-0.15555477142333984,-0.16410021483898163,-0.17094649374485016,-0.8775466084480286,-0.9042458534240723,-0.9295387268066406,-0.9525241255760193
0.3333333333333333,0.0253555029630661,0.2094612717628479,0.0,0.936562716960907,0.0,0.0,-0.35050007700920105,-0.6459237933158875,-0.23842157423496246,0.0,0.0,0.0,2.7108373641967773,-0.46682196855545044,0.7624169588088989,0.42075490951538086,0.9993595480918884,0.012962806038558483,-0.006286813877522945,-0.03275414928793907,0.028034260496497154,0.020117688924074173,-0.05265917629003525,-1.2126331329345703,1.4908396005630493,0.14141498506069183,-0.47823601961135864,0.7648234367370605,0.427385151386261,0.09282222390174866,0.5843900442123413,-0.1693158596754074,0.46256279945373535,0.7005815505981445,0.42000001668930054,-0.639339029788971,3.0000007152557373,-0.7801300883293152,-2.999472141265869,-0.14131774008274078,-0.15387357771396637,-0.16456866264343262,-0.17287585139274597,0.055782780051231384,-0.047811102122068405,-0.1296176314353943,-0.186334028840065
0.35,0.013143566437065601,0.2036641538143158,0.0,0.9360388517379761,0.0,0.0,-0.351896733045578,-0.7722707390785217,-0.390557199716568,0.0,0.0,0.0,-1.1218868494033813,-0.46563664078712463,0.7647051215171814,0.4200000762939453,0.9985080361366272,3.4594636417750735e-06,-3.2521046477995696e-07,-0.05460352450609207,0.12639695405960083,0.2805362045764923,-0.0001296331756748259,-0.0067631835117936134,0.0022878628224134445,-6.342580318450928,-0.47463783621788025,0.771236002445221,0.42431071400642395,0.36197012662887573,0.2825321555137634,-0.20534904301166534,0.46256279945373535,0.7005815505981445,0.42000001668930054,-0.5893332362174988,2.9999969005584717,-0.8301608562469482,-2.999999761581421,-0.14333388209342957,-0.15648414194583893,-0.1674724668264389,-0.17575660347938538,-0.2344799041748047,-0.21497143805027008,-0.1824687272310257,-0.13791510462760925
0.36666666666666664,-0.0011022574035450816,0.19545499980449677,0.0,0.9405277967453003,0.0,0.0,-0.33971667289733887,-0.9027346968650818,-0.5317472219467163,0.0,0.0,0.0,2.5282628536224365,-0.46074897050857544,0.7725976705551147,0.41999998688697815,0.9885089993476868,3.2116893180500483e-06,2.7890716864931164e-06,-0.15116219222545624,0.3676571249961853,0.5672858357429504,-1.8104346963809803e-05,-0.0009091836400330067,-0.001153747201897204,-15.45478343963623,-0.4668060541152954,0.7793537378311157,0.4211207628250122,0.5555902123451233,0.6648787260055542,-0.14776653051376343,0.46256279945373535,0.7005815505981445,0.42000001668930054,-0.5393282175064087,2.9999911785125732,-0.8801862597465515,-3.0000007152557373,-0.1493750810623169,-0.16133621335029602,-0.17093947529792786,-0.1776869297027588,-0.39610418677330017,-0.2975136339664459,-0.18842701613903046,-0.07233589887619019
0.3833333333333333,-0.011605747044086456,0.18437454104423523,0.0,0.9395794868469238,0.0,0.0,-0.34233081340789795,-0.538998007774353,-0.7122687697410583,0.0,0.0,0.0,-1.2453725337982178,-0.4525066018104553,0.7841536998748779,0.42027750611305237,0.9821410775184631,-0.006862726993858814,0.001225144136697054,-0.18801672756671906,0.5987220406532288,0.7952824831008911,0.04472222179174423,-2.1123147010803223,0.7680759429931641,-4.279244422912598,-0.45738863945007324,0.7891102433204651,0.4214591383934021,0.6988768577575684,0.6539667844772339,0.07219590246677399,0.46256279945373535,0.7005815505981445,0.42000001668930054,-0.48927661776542664,3.0,-0.9301905632019043,-2.999969959259033,-0.15624313056468964,-0.16601888835430145,-0.17323601245880127,-0.17747458815574646,-0.4111354351043701,-0.25497928261756897,-0.08812887221574783,0.08405838906764984
0.4,-0.024711772799491882,0.17161795496940613,0.0,0.927832305431366,0.0,0.0,-0.3729976415634155,-0.8813499212265015,-0.7901962399482727,0.0,0.0,0.0,-4.870251178741455,-0.4369793236255646,0.8022425174713135,0.42126473784446716,0.9719195365905762,-0.03167976066470146,0.007168939802795649,-0.23306076228618622,1.2692145109176636,1.375651240348816,0.07567917555570602,-3.634547233581543,1.6894075870513916,-7.578679084777832,-0.441414475440979,0.8052250146865845,0.42291492223739624,1.2346824407577515,1.2990473508834839,0.10468200594186783,0.46256279945373535,0.7005815505981445,0.42000001668930054,-0.43924301862716675,2.999879837036133,-0.9802051782608032,-2.999974012374878,-0.16586442291736603,-0.17234772443771362,-0.17610442638397217,-0.17682482302188873,-0.5846397876739502,-0.37581688165664673,-0.15725484490394592,0.06405286490917206
0.4166666666666667,-0.034644048660993576,0.15587566792964935,0.0,0.903396725654602,0.0,0.0,-0.42880576848983765,-0.5688324570655823,-0.9878060221672058,0.0,0.0,0.0,-8.068840980529785,-0.4079706370830536,0.8288180232048035,0.42420047521591187,0.9550668597221375,-0.04019676893949509,-0.016605351120233536,-0.2931821048259735,2.2890048027038574,1.698632836341858,0.09438805282115936,29.913496017456055,-16.235193252563477,1.3560690879821777,-0.4122544825077057,0.8327569961547852,0.4251648187637329,2.194815158843994,1.8460235595703125,0.4100303053855896,0.46256279945373535,0.7005815505981445,0.42000001668930054,-0.3976261019706726,1.6038792133331299,-1.0302181243896484,-3.0000007152557373,-0.17454694211483002,-0.17753548920154572,-0.17764213681221008,-0.1746799200773239,-0.5990321040153503,-0.36424848437309265,-0.12332668900489807,0.1154349222779274
0.43333333333333335,-0.041244957596063614,0.13721014559268951,0.0,0.8640053868293762,0.0,0.0,-0.5034825205802917,-0.32411742210388184,-1.1615798473358154,0.0,0.0,0.0,-10.810737609863281,-0.3492446541786194,0.8664796352386475,0.4294802248477936,0.9365327954292297,0.01909290812909603,-0.055292803794145584,-0.3456651270389557,4.901517868041992,2.209717273712158,0.4691370129585266,7.80535888671875,-9.118142127990723,14.329222679138184,-0.35296371579170227,0.8706125020980835,0.4306994676589966,4.624499320983887,2.7122199535369873,0.48475873470306396,0.46256279945373535,0.7005815505981445,0.42000001668930054,-0.3785592019557953,0.9395337700843811,-0.992821216583252,2.9997236728668213,-0.18800875544548035,-0.18588747084140778,-0.1810089647769928,-0.17336395382881165,-0.8636521100997925,-0.539802610874176,-0.23279497027397156,0.046236880123615265
0.45,-0.04554063454270363,0.12419464439153671,0.0,0.8060769438743591,0.0,0.0,-0.5918107628822327,-0.21660207211971283,-0.6465969681739807,0.0,0.0,0.0,-13.532679557800293,-0.24816669523715973,0.9068824052810669,0.43892961740493774,0.9043766856193542,0.0829242616891861,-0.08572398126125336,-0.40972888469696045,7.598310947418213,1.9385112524032593,0.5123305916786194,15.82440185546875,-29.128110885620117,18.349552154541016,-0.25257033109664917,0.9127124547958374,0.43969058990478516,7.237860202789307,2.486319065093994,0.7210789918899536,0.46256279945373535,0.7005815505981445,0.42000001668930054,-0.36211299896240234,1.0538206100463867,-0.9427893757820129,2.9922831058502197,-0.20432710647583008,-0.20104150474071503,-0.19166222214698792,-0.1780528426170349,-0.950261652469635,-0.9304249286651611,-0.7749278545379639,-0.41564151644706726
0.4666666666666667,-0.052914902567863464,0.11914823949337006,0.0,0.7529281377792358,0.0,0.0,-0.6581027507781982,-0.5842679142951965,-0.3346095383167267,0.0,0.0,0.0,-8.902264595031738,-0.1301339864730835,0.9274548292160034,0.4510771632194519,0.8572304248809814,0.1162806823849678,-0.09861740469932556,-0.49184271693229675,7.017073631286621,-0.03985099494457245,0.9889107346534729,-5.695319652557373,7.788301944732666,7.198344707489014,-0.13380704820156097,0.9362931251525879,0.4523690938949585,7.112356185913086,0.7863172292709351,0.832892894744873,0.46256279945373535,0.7005815505981445,0.42000001668930054,-0.344950795173645,0.9520490169525146,-0.9683268070220947,-3.000002861022949,-0.21986734867095947,-0.21653564274311066,-0.20715154707431793,-0.1897464394569397,-0.649185061454773,-0.7008380889892578,-0.746677041053772,-0.6813856363296509
0.48333333333333334,-0.05683794245123863,0.10616642981767654,0.0,0.7199100852012634,0.0,0.0,-0.6940673589706421,-0.0932469442486763,-0.953801691532135,0.0,0.0,0.0,-4.791808128356934,-0.010639343410730362,0.9305537939071655,0.4637334644794464,0.7876197099685669,0.12682458758354187,-0.0687299594283104,-0.5990382432937622,6.90977144241333,-1.6727765798568726,1.0319448709487915,-1.6731176376342773,14.99648380279541,21.71605682373047,-0.01406189240515232,0.9405765533447266,0.46408671140670776,7.4154462814331055,-0.42960256338119507,0.5986102819442749,0.46256279945373535,0.7005815505981445,0.42000001668930054,-0.3295351564884186,0.7426677346229553,-1.0183507204055786,-2.9999165534973145,-0.22660081088542938,-0.22297631204128265,-0.21334265172481537,-0.194403737783432,-0.34352177381515503,-0.25478649139404297,-0.17613081634044647,-0.0510152131319046
0.5,-0.06123047322034836,0.0955854058265686,0.0,0.7103303670883179,0.0,0.0,-0.7038684487342834,-0.27786770462989807,-0.4634340703487396,0.0,0.0,0.0,-0.4934014081954956,0.10300099849700928,0.9104815721511841,0.46595481038093567,0.6333346366882324,-0.028311332687735558,-0.23393332958221436,-0.7371301054954529,5.844428062438965,-2.265742063522339,-0.054814986884593964,-48.871646881103516,9.65904712677002,-13.706039428710938,0.09609313309192657,0.9256435632705688,0.4755132794380188,6.070714950561523,-1.380873203277588,0.6168053150177002,0.46256279945373535,0.7005815505981445,0.42000001668930054,-0.3204716444015503,0.16908426582813263,-1.0683728456497192,-2.9977502822875977,-0.23498451709747314,-0.22906602919101715,-0.21753743290901184,-0.19650742411613464,-0.49344658851623535,-0.3609470725059509,-0.25960421562194824,-0.1699601411819458
0.5166666666666666,-0.063173808157444,0.08590693026781082,0.0,0.6934685111045837,0.0,0.0,-0.7204869389533997,-0.057576779276132584,-0.6553444266319275,0.0,0.0,0.0,-3.691640615463257,0.1918490082025528,0.8788249492645264,0.4684377610683441,0.5628737211227417,-0.052916623651981354,-0.1993093192577362,-0.8004053235054016,5.02398681640625,-2.2287209033966064,0.20555835962295532,-17.635591506958008,5.497528076171875,-2.841742753982544,0.18763700127601624,0.8957989811897278,0.4786800444126129,5.043499946594238,-2.317121982574463,-0.0387415811419487,0.46256279945373535,0.7005815505981445,0.42000001668930054,-0.32099658250808716,0.17040672898292542,-1.1183948516845703,-2.999600648880005,-0.240035280585289,-0.23511840403079987,-0.2211177945137024,-0.19817741215229034,5.50954446509877e-08,-0.3011595606803894,-0.13385078310966492,-0.01569264940917492
0.5333333333333333,-0.06195465475320816,0.07986066490411758,0.0,0.6898371577262878,0.0,0.0,-0.7239645719528198,0.10695713013410568,-0.27355751395225525,0.0,0.0,0.0,0.3917427957057953,0.26592350006103516,0.8348588943481445,0.4643016457557678,0.4931904673576355,-0.08978909999132156,-0.1740666925907135,-0.8475858569145203,3.9621922969818115,-2.9337878227233887,-0.4252123236656189,-3.072455644607544,6.176809787750244,-10.765918731689453,0.26472583413124084,0.852279543876648,0.4749751091003418,4.212434768676758,-2.8553693294525146,-0.4350077211856842,0.46256279945373535,0.7005815505981445,0.42000001668930054,-0.31343188881874084,0.7088014483451843,-1.168416976928711,-3.0000014305114746,-0.23996393382549286,-0.2399640679359436,-0.2243277132511139,-0.19959886372089386,0.00018230939167551696,2.1272939193295315e-05,-0.09808740019798279,-0.04658276587724686
0.55,-0.05801813304424286,0.07333085685968399,0.0,0.6762937307357788,0.0,0.0,-0.7366320490837097,0.292333722114563,-0.4408867657184601,0.0,0.0,0.0,-3.2007288932800293,0.3275548219680786,0.7911754846572876,0.4509507417678833,0.4376297891139984,-0.1282261610031128,-0.16376833617687225,-0.8747674226760864,3.233503818511963,-2.621671199798584,-0.8468562960624695,0.13085438311100006,10.682058334350586,-9.145792961120605,0.32909834384918213,0.8080776929855347,0.4622824490070343,3.470592975616455,-2.661740779876709,-1.026289701461792,0.46256279945373535,0.7005815505981445,0.42000001668930054,-0.2976464331150055,1.0026659965515137,-1.2184391021728516,-2.9996814727783203,-0.23519237339496613,-0.2357967346906662,-0.2226136475801468,-0.19848807156085968,0.44896870851516724,0.40505439043045044,0.23629595339298248,0.13998503983020782
0.5666666666666667,-0.05209474265575409,0.06980317085981369,0.0,0.6749109625816345,0.0,0.0,-0.7378991842269897,0.39522790908813477,-0.14803943037986755,0.0,0.0,0.0,0.6498941779136658,0.37532809376716614,0.7476067543029785,0.4330470860004425,0.384371280670166,-0.16784556210041046,-0.1517627090215683,-0.8950165510177612,2.1801977157592773,-3.106860399246216,-0.6784624457359314,6.6490278244018555,9.393304824829102,1.6485750675201416,0.3791835308074951,0.7637548446655273,0.44468703866004944,2.575916290283203,-2.617131233215332,-1.1843092441558838,0.46256279945373535,0.7005815505981445,0.42000001668930054,-0.28397709131240845,0.4328702390193939,-1.2684612274169922,-2.9995224475860596,-0.2288380265235901,-0.22991251945495605,-0.21943126618862152,-0.19740931689739227,0.4159073531627655,0.3801741898059845,0.2043704092502594,0.034397345036268234
0.5833333333333334,-0.044061943888664246,0.06994626671075821,0.0,0.6637166142463684,0.0,0.0,-0.7479841113090515,0.5272192358970642,0.06589611619710922,0.0,0.0,0.0,-2.702450752258301,0.40944114327430725,0.7209934592247009,0.42435070872306824,0.36781731247901917,-0.1164453774690628,-0.0451861135661602,-0.9214711785316467,1.1794428825378418,-1.710733413696289,0.2391660362482071,-14.8013277053833,14.371220588684082,8.063762664794922,0.41262370347976685,0.734259843826294,0.43587183952331543,1.4431674480438232,-1.0975277423858643,0.05440273508429527,0.46256279945373535,0.7005815505981445,0.42000001668930054,-0.27944549918174744,0.08029692620038986,-1.230401635169983,3.000000238418579,-0.2190171182155609,-0.2217642068862915,-0.21506474912166595,-0.19688533246517181,0.6639152765274048,0.5463780760765076,0.3075574040412903,0.04895186424255371
0.6,-0.03286570683121681,0.06472451984882355,0.0,0.6648333072662354,0.0,0.0,-0.7469916939735413,0.6813046932220459,-0.31599292159080505,0.0,0.0,0.0,1.1063412427902222,0.4298398196697235,0.7039096355438232,0.42451122403144836,0.37301066517829895,-0.10687612742185593,-0.02340797521173954,-0.9213536381721497,0.6601821780204773,-0.9851235151290894,0.13024868071079254,4.426076412200928,5.609470844268799,1.8092732429504395,0.4321553707122803,0.7169297933578491,0.43527665734291077,0.8272153735160828,-0.8731839656829834,0.02662041038274765,0.46256279945373535,0.7005815505981445,0.42000001668930054,-0.27010437846183777,0.8613893389701843,-1.2514111995697021,-2.997957229614258,-0.20350398123264313,-0.2082279771566391,-0.2058756798505783,-0.1926518827676773,0.7973740696907043,0.752143919467926,0.5356289744377136,0.2612897753715515
0.6166666666666667,-0.02090577222406864,0.06432176381349564,0.0,0.6548353433609009,0.0,0.0,-0.7557715773582458,0.7447243928909302,0.06778960675001144,0.0,0.0,0.0,-2.5675604343414307,0.4435771703720093,0.698394775390625,0.42320960760116577,0.39789530634880066,-0.07339773327112198,-0.037009406834840775,-0.9137408137321472,0.5267895460128784,-0.34961891174316406,-0.13280269503593445,4.389474868774414,3.514200448989868,-1.1166019439697266,0.4443069100379944,0.7098531723022461,0.4337320923805237,0.6906089782714844,-0.1871541142463684,-0.16825197637081146,0.46256279945373535,0.7005815505981445,0.42000001668930054,-0.26184895634651184,0.4390365183353424,-1.213363528251648,2.999666690826416,-0.19090668857097626,-0.1967826634645462,-0.19812247157096863,-0.1896825134754181,0.7418624758720398,0.6635600328445435,0.4474104046821594,0.15689648687839508
0.6333333333333333,-0.011168430559337139,0.0610184520483017,0.0,0.6568092703819275,0.0,0.0,-0.7540567517280579,0.49460113048553467,-0.2201162576675415,0.0,0.0,0.0,1.2064751386642456,0.4527533948421478,0.6936041116714478,0.42184069752693176,0.4044152498245239,-0.04125996306538582,-0.017269816249608994,-0.9134810566902161,0.5289501547813416,-0.32763978838920593,-0.08091405779123306,4.1805644035339355,-3.248598575592041,-2.8378748893737793,0.4497987627983093,0.7022539973258972,0.42830735445022583,0.07653915882110596,-0.5899180173873901,-0.5850354433059692,0.46256279945373535,0.7005815505981445,0.42000001668930054,-0.29777732491493225,-3.0000007152557373,-1.234709620475769,-3.0,-0.1808975636959076,-0.1863052397966385,-0.1903505176305771,-0.18604187667369843,0.41955792903900146,0.4919328987598419,0.385698527097702,0.1833895444869995
0.65,-0.0013009574031457305,0.06125558540225029,0.0,0.6477033495903015,0.0,0.0,-0.7618926167488098,0.6163538694381714,0.05034836381673813,0.0,0.0,0.0,-2.353820323944092,0.4547986388206482,0.6911221742630005,0.42084720730781555,0.43707695603370667,-0.014936642721295357,0.0028361049480736256,-0.8992956280708313,0.005583018064498901,-0.07031655311584473,-0.046077895909547806,1.433082103729248,-1.5598760843276978,4.353407382965088,0.4526192545890808,0.7028486728668213,0.42925846576690674,0.290175199508667,0.2469833642244339,0.17080150544643402,0.46256279945373535,0.7005815505981445,0.42000001668930054,-0.3274911642074585,-0.7906261086463928,-1.2846126556396484,-2.9987127780914307,-0.1742609739303589,-0.17914922535419464,-0.18501818180084229,-0.1839817464351654,0.5040159821510315,0.4907332956790924,0.3666731119155884,0.16106858849525452
0.6666666666666666,0.010403898544609547,0.0578276701271534,0.0,0.6509568095207214,0.0,0.0,-0.7591147422790527,0.7371771931648254,-0.20757466554641724,0.0,0.0,0.0,1.4208873510360718,0.45460379123687744,0.6907033920288086,0.42000046372413635,0.4570223093032837,8.831503691908438e-06,6.466438935603946e-05,-0.889455258846283,-0.07194013148546219,0.042152658104896545,0.005550019908696413,-0.4081583023071289,-0.3380407989025116,1.492246150970459,0.45326048135757446,0.7060678601264954,0.4321820139884949,-0.1486787050962448,0.12843039631843567,0.2079821527004242,0.46256279945373535,0.7005815505981445,0.42000001668930054,-0.37085020542144775,-2.999979019165039,-1.334603190422058,-2.9995484352111816,-0.16491489112377167,-0.17003029584884644,-0.177609384059906,-0.17965516448020935,0.39771848917007446,0.41727232933044434,0.36499080061912537,0.22746755182743073
0.6833333333333333,0.02408413589000702,0.05816870555281639,0.0,0.643520712852478,0.0,0.0,-0.7654287219047546,0.8394098877906799,0.06044383347034454,0.0,0.0,0.0,-2.270716428756714,0.4541742503643036,0.6909336447715759,0.4200000464916229,0.45995548367500305,-2.029282768489793e-07,-3.670434978175763e-07,-0.8879418969154358,-0.006524355616420507,0.0031641111709177494,-8.367234840989113e-06,0.00040505893412046134,-0.0002141517325071618,0.07923147827386856,0.45452266931533813,0.7101606726646423,0.43603408336639404,0.18534734845161438,0.3149353265762329,0.24586834013462067,0.46256279945373535,0.7005815505981445,0.42000001668930054,-0.42085564136505127,-2.9998459815979004,-1.3845595121383667,-2.999004602432251,-0.158301442861557,-0.16364039480686188,-0.1722167581319809,-0.17651057243347168,0.4713532626628876,0.4302239716053009,0.3624861538410187,0.22723831236362457
0.7,0.03944806009531021,0.05484137684106827,0.0,0.6473806500434875,0.0,0.0,-0.7621667981147766,0.9552746415138245,-0.20370636880397797,0.0,0.0,0.0,1.5280404090881348,0.4540751576423645,0.6910245418548584,0.4200097918510437,0.464380145072937,0.00012159552716184407,-0.00019359777797944844,-0.8856359124183655,-0.04220730438828468,0.036316461861133575,0.001006360282190144,-0.0760745033621788,-0.04918467625975609,3.9779531955718994,0.45581650733947754,0.7153699398040771,0.443308025598526,-0.04168130084872246,0.2704084515571594,0.6604980826377869,0.46256279945373535,0.7005815505981445,0.42000001668930054,-0.4708689749240875,-2.9999887943267822,-1.4345779418945312,-3.0000009536743164,-0.15072175860404968,-0.15641647577285767,-0.16552770137786865,-0.17138944566249847,0.2267124056816101,0.2564522624015808,0.28669485449790955,0.2572688162326813
0.7166666666666667,0.052227914333343506,0.0532379113137722,0.0,0.640691339969635,0.0,0.0,-0.7677985429763794,0.691694438457489,-0.08316003531217575,0.0,0.0,0.0,-2.1993885040283203,0.45382317900657654,0.6911564469337463,0.4200001060962677,0.4694458842277527,-2.7299121938995086e-05,2.6584089027892333e-06,-0.8829612135887146,-0.0019643695559352636,0.00022118639026302844,-0.0005777151673100889,-0.01205349899828434,-0.010174737311899662,0.002192029496654868,0.46011409163475037,0.7172659635543823,0.4516522288322449,0.5487263202667236,-0.007791586220264435,0.48133963346481323,0.46256279945373535,0.7005815505981445,0.42000001668930054,-0.5208815932273865,-3.0000009536743164,-1.4845962524414062,-3.0,-0.1494673639535904,-0.15411850810050964,-0.161907359957695,-0.16726575791835785,0.1009465754032135,0.16432420909404755,0.2589302062988281,0.31563565135002136
0.7333333333333333,0.06521086394786835,0.04883052408695221,0.0,0.6111554503440857,0.0,0.0,-0.7915105819702148,0.8078398108482361,-0.32555001974105835,0.0,0.0,0.0,-5.437542915344238,0.4538210332393646,0.6911561489105225,0.41999995708465576,0.4694463610649109,-1.661414444242837e-06,-4.213818101561628e-06,-0.8829609751701355,-3.208787165931426e-05,-0.00030225180671550333,-5.2831368520855904e-05,0.008742375299334526,-0.00378247257322073,-0.0008245187345892191,0.47334766387939453,0.7184370756149292,0.4674222469329834,1.0438542366027832,0.09532129764556885,1.530435562133789,0.46256279945373535,0.7005815505981445,0.42000001668930054,-0.570894181728363,-2.9999687671661377,-1.5346145629882812,-2.9999992847442627,-0.15051236748695374,-0.15376541018486023,-0.15952475368976593,-0.16340211033821106,-0.17572557926177979,-0.07458125799894333,0.06887813657522202,0.18342934548854828
0.75,0.08070220053195953,0.047744713723659515,0.0,0.595257580280304,0.0,0.0,-0.803534984588623,0.9435377717018127,-0.0285935141146183,0.0,0.0,0.0,-1.3419075012207031,0.453821063041687,0.6911561489105225,0.41999995708465576,0.46944645047187805,-1.8859476540455944e-06,-4.219309630570933e-06,-0.882960855960846,-4.020615233457647e-05,-0.00030609124223701656,-5.5406009778380394e-05,0.00880555622279644,-0.0035863486118614674,-0.0008188787032850087,0.4925838112831116,0.7242814302444458,0.49771225452423096,1.2913336753845215,0.5986810922622681,2.048081636428833,0.46256279945373535,0.7005815505981445,0.42000001668930054,-0.5909931063652039,0.31640303134918213,-1.5846328735351562,-3.0000016689300537,-0.15537014603614807,-0.1574159860610962,-0.1612791270017624,-0.16372661292552948,-0.18766522407531738,-0.17844125628471375,-0.12646803259849548,-0.0975949615240097
0.7666666666666666,0.09275627881288528,0.04879017919301987,0.0,0.6049660444259644,0.0,0.0,-0.7962512969970703,0.6429791450500488,0.11358817666769028,0.0,0.0,0.0,2.341773748397827,0.453821063041687,0.6911560893058777,0.41999995708465576,0.4694466292858124,-1.86978240890312e-06,-4.191307652945397e-06,-0.882960855960846,-3.656905028037727e-05,-0.0003058367583435029,-5.5166659876704216e-05,0.008801470510661602,-0.0036066260654479265,-0.0008255210123024881,0.5124699473381042,0.7322945594787598,0.5253280401229858,1.0340735912322998,0.42122453451156616,1.3373539447784424,0.46256279945373535,0.7005815505981445,0.42000001668930054,-0.5645269155502319,2.634279251098633,-1.5456606149673462,3.0000007152557373,-0.157422736287117,-0.15927693247795105,-0.16223952174186707,-0.1641242504119873,-0.08642516285181046,-0.06941944360733032,-0.012335008941590786,0.025642849504947662
0.7833333333333333,0.10005450248718262,0.04566866159439087,0.0,0.6020071506500244,0.0,0.0,-0.7984907031059265,0.3910370171070099,-0.24869638681411743,0.0,0.0,0.0,-1.4533888101577759,0.453821063041687,0.6911561489105225,0.41999995708465576,0.46944648027420044,-1.8853500023396919e-06,-4.269127202860545e-06,-0.882960855960846,-4.1520019294694066e-05,-0.00030638056341558695,-5.5530574172735214e-05,0.00881249364465475,-0.0035833066795021296,-0.0008172253146767616,0.5226145386695862,0.7404137849807739,0.5411965847015381,0.1288832277059555,0.44587600231170654,0.7337452173233032,0.46256279945373535,0.7005815505981445,0.42000001668930054,-0.5468775033950806,-0.27749937772750854,-1.495604157447815,3.0,-0.1567770093679428,-0.15847627818584442,-0.16067194938659668,-0.16208244860172272,-0.04884115606546402,-0.0093876076862216,0.06070355325937271,0.11102700233459473
0.8,0.10392925143241882,0.04784714803099632,0.0,0.6108536124229431,0.0,0.0,-0.7917435169219971,0.1751801073551178,0.2600833773612976,0.0,0.0,0.0,2.2194294929504395,0.453821063041687,0.6911560893058777,0.41999995708465576,0.46944665908813477,-1.8732714579527965e-06,-4.220796654408332e-06,-0.882960855960846,-3.6374691262608394e-05,-0.0003057995345443487,-5.514407530426979e-05,0.00880064070224762,-0.0036078335251659155,-0.0008257931331172585,0.5215743780136108,0.7456538677215576,0.5502880811691284,-0.18456828594207764,0.3271803557872772,0.3995560109615326,0.46256279945373535,0.7005815505981445,0.42000001668930054,-0.5300018191337585,2.0832324028015137,-1.5118324756622314,-3.0000009536743164,-0.1631074845790863,-0.16304218769073486,-0.1631203442811966,-0.16283026337623596,-0.4232911765575409,-0.3151039481163025,-0.19009463489055634,-0.08900647610425949
0.8166666666666667,0.1042289212346077,0.046362947672605515,0.0,0.6063727736473083,0.0,0.0,-0.7951805591583252,-0.026666689664125443,-0.19561100006103516,0.0,0.0,0.0,-1.609228253364563,0.453821063041687,0.6911561489105225,0.41999995708465576,0.4694465100765228,-1.8742589418252464e-06,-4.288789568818174e-06,-0.882960855960846,-4.1469320422038436e-05,-0.00030635809525847435,-5.551939830183983e-05,0.008812126703560352,-0.003583530429750681,-0.000817227060906589,0.5116485357284546,0.7516638040542603,0.5502938032150269,-1.0214056968688965,0.3541853427886963,-0.20444649457931519,0.46256279945373535,0.7005815505981445,0.42000001668930054,-0.529570996761322,-1.704049825668335,-1.473071813583374,2.999999523162842,-0.16705629229545593,-0.16573430597782135,-0.16426193714141846,-0.16272184252738953,-0.16717804968357086,-0.09831937402486801,-0.014215466566383839,0.053857866674661636
0.8333333333333334,0.10608477145433426,0.04787100479006767,0.0,0.6131657361984253,0.0,0.0,-0.7899542450904846,0.11110579967498779,0.08897708356380463,0.0,0.0,0.0,1.6427056789398193,0.453821063041687,0.6911561489105225,0.41999995708465576,0.46944642066955566,-1.869177594926441e-06,-4.103359060536604e-06,-0.882960855960846,-4.1935843910323456e-05,-0.00030652128043584526,-5.553523078560829e-05,0.008817401714622974,-0.00358769902959466,-0.0008174250833690166,0.497253954410553,0.7568261623382568,0.54677814245224,-0.6251535415649414,0.42716729640960693,-0.19930623471736908,0.46256279945373535,0.7005815505981445,0.42000001668930054,-0.5330871939659119,1.0467201471328735,-1.489786148071289,-3.0000007152557373,-0.17182840406894684,-0.16928420960903168,-0.16631744801998138,-0.16345804929733276,-0.09948359429836273,-0.08366035670042038,-0.04540279507637024,-0.006193471606820822
0.85,0.10935018956661224,0.04643479734659195,0.0,0.6164209246635437,0.0,0.0,-0.7874168157577515,0.22940769791603088,-0.10821764916181564,0.0,0.0,0.0,0.023700011894106865,0.453821063041687,0.6911561489105225,0.41999995708465576,0.4694465398788452,-1.8991388515132712e-06,-4.361608716862975e-06,-0.882960855960846,-4.195112342131324e-05,-0.0003080175374634564,-5.617877468466759e-05,0.008848830126225948,-0.0035823786165565252,-0.0008228226215578616,0.4837791919708252,0.7626810073852539,0.5406579971313477,-0.9637792110443115,0.21780039370059967,-0.4005039930343628,0.46256279945373535,0.7005815505981445,0.42000001668930054,-0.5570365190505981,-3.0000009536743164,-1.4510860443115234,2.999999761581421,-0.17340323328971863,-0.1704251915216446,-0.1666591763496399,-0.16292817890644073,-0.1635356992483139,-0.1121702715754509,-0.04159798473119736,0.03383674472570419
0.8666666666666667,0.11464715749025345,0.042288005352020264,0.0,0.6268597841262817,0.0,0.0,-0.779132068157196,0.36301401257514954,-0.3199608027935028,0.0,0.0,0.0,2.4464659690856934,0.453821063041687,0.6911561489105225,0.41999995708465576,0.46944645047187805,-1.8501530121284304e-06,-4.370062924863305e-06,-0.882960855960846,-4.228601756040007e-05,-0.0003066231438424438,-5.559599958360195e-05,0.00881922710686922,-0.003585152793675661,-0.0008171255467459559,0.47273266315460205,0.7650433778762817,0.5363236665725708,-0.3916047215461731,0.10245006531476974,-0.04884660616517067,0.46256279945373535,0.7005815505981445,0.42000001668930054,-0.5937851667404175,-1.509116530418396,-1.4682550430297852,-3.000000238418579,-0.17716293036937714,-0.1730298548936844,-0.16777317225933075,-0.16240675747394562,-0.21160857379436493,-0.14061637222766876,-0.04867630824446678,0.055800262838602066
0.8833333333333333,0.12218126654624939,0.03538741171360016,0.0,0.6245524883270264,0.0,0.0,-0.7809827923774719,0.48844006657600403,-0.4610540270805359,0.0,0.0,0.0,-1.3126564025878906,0.453821063041687,0.6911561489105225,0.41999995708465576,0.4694460928440094,-1.9752194475586293e-06,-4.415886451170081e-06,-0.8829610347747803,-4.1913866880349815e-05,-0.00030697998590767384,-5.570705980062485e-05,0.00882776826620102,-0.00358851021155715,-0.0008198307477869093,0.4688608646392822,0.764408528804779,0.5331264734268188,-0.060485318303108215,-0.18167588114738464,-0.16094815731048584,0.46256279945373535,0.7005815505981445,0.42000001668930054,-0.637031614780426,-3.0,-1.433952808380127,2.999999761581421,-0.18158338963985443,-0.17598006129264832,-0.16888916492462158,-0.16143162548542023,-0.2482367604970932,-0.1507665514945984,-0.03174252063035965,0.10460458695888519
0.9,0.13259947299957275,0.031772181391716,0.0,0.6000568866729736,0.0,0.0,-0.7999573349952698,0.6533717513084412,-0.19916430115699768,0.0,0.0,0.0,-4.465139865875244,0.453821063041687,0.6911561489105225,0.41999995708465576,0.46944645047187805,-1.8678204014577204e-06,-4.265527422830928e-06,-0.8829609155654907,-4.035829260828905e-05,-0.00030634153517894447,-5.5481214076280594e-05,0.008811884559690952,-0.0035893237218260765,-0.0008195767877623439,0.47181063890457153,0.7608151435852051,0.5359047651290894,0.45560145378112793,-0.1844780445098877,0.5994707345962524,0.46256279945373535,0.7005815505981445,0.42000001668930054,-0.6785717606544495,-2.0333597660064697,-1.4514755010604858,-3.000000238418579,-0.18736110627651215,-0.18036475777626038,-0.17150996625423431,-0.16195432841777802,-0.21653054654598236,-0.1803823560476303,-0.11885441094636917,-0.03166908398270607
0.9166666666666666,0.14492182433605194,0.031377725303173065,0.0,0.5912439227104187,0.0,0.0,-0.8064927458763123,0.7733377814292908,0.05048743635416031,0.0,0.0,0.0,-0.33599716424942017,0.453821063041687,0.6911561489105225,0.41999995708465576,0.4694463610649109,-1.8718189949140651e-06,-4.086472927156137e-06,-0.8829609155654907,-4.193619315628894e-05,-0.0003065236087422818,-5.5535463616251945e-05,0.008817422203719616,-0.003587754676118493,-0.0008174360846169293,0.4795238673686981,0.7612025737762451,0.547357439994812,0.4341661334037781,0.1840054988861084,0.7717723250389099,0.46256279945373535,0.7005815505981445,0.42000001668930054,-0.6811218857765198,1.4288045167922974,-1.5014938116073608,-3.0,-0.189808651804924,-0.1829742193222046,-0.17394810914993286,-0.16384291648864746,-0.06486380100250244,-0.11247704178094864,-0.1469731479883194,-0.1631350815296173
