vladlanda/robotic-transformer/data/env_000_episode_0017.csv
sim_time_s,robot_box_x,robot_box_y,robot_box_z,robot_box_quat_w,robot_box_quat_x,robot_box_quat_y,robot_box_quat_z,robot_box_linvel_x,robot_box_linvel_y,robot_box_linvel_z,robot_box_angvel_x,robot_box_angvel_y,robot_box_angvel_z,cube_world_x,cube_world_y,cube_world_z,cube_quat_w,cube_quat_x,cube_quat_y,cube_quat_z,cube_linvel_x,cube_linvel_y,cube_linvel_z,cube_angvel_x,cube_angvel_y,cube_angvel_z,endpoint_world_x,endpoint_world_y,endpoint_world_z,endpoint_linvel_x,endpoint_linvel_y,endpoint_linvel_z,target_cube_world_x,target_cube_world_y,target_cube_world_z,gripper_actual_pos_rad_gp_leftgearjoint,gripper_actual_vel_rad_s_gp_leftgearjoint,gripper_actual_pos_rad_gp_rotatingjoint,gripper_actual_vel_rad_s_gp_rotatingjoint,motor_angle_rad_joint1,motor_angle_rad_joint2,motor_angle_rad_joint3,motor_angle_rad_joint4,motor_speed_rad_s_joint1,motor_speed_rad_s_joint2,motor_speed_rad_s_joint3,motor_speed_rad_s_joint4
0.0,0.0,0.0,0.0,1.0,0.0,0.0,0.0,0.0,0.0,0.0,0.0,0.0,0.0,-0.4239982068538666,0.7743536233901978,0.41999998688697815,1.0,0.0,0.0,0.0,0.0,0.0,0.0,0.0,0.0,0.0,3.42540442943573e-06,-0.005000244826078415,1.313499927520752,0.0,0.0,0.0,0.3314090371131897,0.7159661650657654,0.42000001668930054,-1.5707999467849731,0.0,0.0,0.0,0.0,0.0,0.0,0.0,0.0,0.0,0.0,0.0
0.016666666666666666,0.0028778850100934505,0.0021806680597364902,0.0,0.9998081922531128,0.0,0.0,0.019586581736803055,0.24087215960025787,0.18240931630134583,0.0,0.0,0.0,3.1418697834014893,-0.42399832606315613,0.7743533253669739,0.41999998688697815,1.0,3.2799914606584935e-06,-8.339814598912199e-07,8.465387679734704e-08,-1.9833554688375443e-05,0.00017983050202019513,-6.133061833679676e-05,0.0009432226070202887,-0.004689437802881002,-0.0003198152990080416,-0.007110234349966049,0.003379564033821225,1.3159373998641968,-0.8143353462219238,0.9868683815002441,0.18095196783542633,0.3314090371131897,0.7159661650657654,0.42000001668930054,-1.5301095247268677,3.0000011920928955,-0.04584788903594017,-2.9999992847442627,0.0008691533003002405,0.0007963840034790337,0.0007110277656465769,0.0006108740926720202,0.11094217747449875,0.09756709635257721,0.08334315568208694,0.06823883205652237
0.03333333333333333,0.008960993960499763,0.006802013143897057,0.0,0.9997960329055786,0.0,0.0,0.02019684575498104,0.40702226758003235,0.3153078258037567,0.0,0.0,0.0,-0.8691328763961792,-0.4239984452724457,0.7743532657623291,0.4200000464916229,1.0,3.3908074783539632e-06,-2.1324644876585808e-06,-3.709624607495243e-08,0.0002635783748701215,0.0002693790302146226,-0.00010509486310184002,-0.0017706957878544927,0.004130749497562647,-0.0001354783307760954,-0.02755577117204666,0.02627219632267952,1.3165847063064575,-1.5913305282592773,1.6162463426589966,-0.0865095779299736,0.3314090371131897,0.7159661650657654,0.42000001668930054,-1.4800904989242554,3.0000030994415283,-0.09588771313428879,-3.000000476837158,0.0029900968074798584,0.002652697963640094,0.002277259947732091,0.0018607088131830096,0.16421306133270264,0.13975627720355988,0.11381471902132034,0.08629639446735382
0.05,0.01745077781379223,0.013708476908504963,0.0,0.9994964599609375,0.0,0.0,0.03173069283366203,0.5818902254104614,0.4609341621398926,0.0,0.0,0.0,2.7250301837921143,-0.42399847507476807,0.7743533253669739,0.4200000464916229,1.0,3.7651545881089987e-06,-2.2119120330899023e-06,5.611795916848905e-09,0.00026530781178735197,0.00026691469247452915,-0.00010440615005791187,-0.001724383095279336,0.004177459981292486,-0.00012949582014698535,-0.059320978820323944,0.05483349412679672,1.3114211559295654,-2.1726620197296143,1.8083298206329346,-0.4894289970397949,0.3314090371131897,0.7159661650657654,0.42000001668930054,-1.4300721883773804,3.00000262260437,-0.145926371216774,-3.000000476837158,0.005575355142354965,0.004783014301210642,0.003918620757758617,0.002977620344609022,0.18694968521595,0.14974646270275116,0.11068344861268997,0.0696650967001915
0.06666666666666667,0.028580453246831894,0.02292785421013832,0.0,0.9995429515838623,0.0,0.0,0.03022969514131546,0.7092670798301697,0.5909648537635803,0.0,0.0,0.0,-1.1383188962936401,-0.42399847507476807,0.7743532657623291,0.4200000464916229,0.9999999403953552,3.4067159049300244e-06,-2.2855938368593343e-06,4.3009254113712814e-07,0.0002670247631613165,0.00026791825075633824,-0.00010437914170324802,-0.0017406323458999395,0.004211686551570892,-0.0001285075704799965,-0.09400850534439087,0.0909670889377594,1.299849033355713,-2.041414260864258,2.395817756652832,-0.8722368478775024,0.3314090371131897,0.7159661650657654,0.42000001668930054,-1.3800538778305054,2.9999985694885254,-0.19596369564533234,-3.0,0.007697810884565115,0.006075339857488871,0.0043424577452242374,0.0024928334169089794,0.10208436101675034,0.03668322414159775,-0.03079514391720295,-0.10038813203573227
0.08333333333333333,0.03377809748053551,0.035529620945453644,0.0,0.9999967813491821,0.0,0.0,-0.002528149401769042,0.1803070306777954,0.8229736685752869,0.0,0.0,0.0,-4.863580703735352,-0.42399847507476807,0.7743532657623291,0.4200000464916229,1.0,3.697289685078431e-06,-2.188937742175767e-06,-2.6324386226406205e-07,0.00026389604317955673,0.0002658649464137852,-0.00010434049181640148,-0.001708196708932519,0.0041501703672111034,-0.00012991030234843493,-0.1256323605775833,0.13473862409591675,1.282097339630127,-1.8087844848632812,2.7321109771728516,-1.1754642724990845,0.3314090371131897,0.7159661650657654,0.42000001668930054,-1.330030083656311,2.9999942779541016,-0.16307459771633148,3.0000009536743164,0.0037048272788524628,0.0012983032502233982,-0.0012703995453193784,-0.004011101089417934,-0.3414493799209595,-0.39339128136634827,-0.4479348957538605,-0.505318820476532
0.1,0.04392758011817932,0.04972062632441521,0.0,0.9984373450279236,0.0,0.0,-0.05588243156671524,0.7085701823234558,0.8827616572380066,0.0,0.0,0.0,-7.346937656402588,-0.42399847507476807,0.7743532657623291,0.4200000464916229,0.9999999403953552,3.620398047132767e-06,-2.265205921503366e-06,1.7460170909089356e-07,0.000266769144218415,0.0002674092538654804,-0.00010408065281808376,-0.001738645602017641,0.004209234844893217,-0.00012775602226611227,-0.15382444858551025,0.18129047751426697,1.2658271789550781,-1.5385432243347168,2.9764857292175293,-0.9224889278411865,0.3314090371131897,0.7159661650657654,0.42000001668930054,-1.2800378799438477,2.9999992847442627,-0.19479747116565704,-3.000000238418579,0.0034671819303184748,-0.0007178587256930768,-0.005058181472122669,-0.009562698192894459,-0.023334616795182228,-0.1378716081380844,-0.2515260875225067,-0.3641648590564728
0.11666666666666667,0.05153432488441467,0.06643738597631454,0.0,0.9959328770637512,0.0,0.0,-0.09009797871112823,0.4548914432525635,1.047598123550415,0.0,0.0,0.0,-2.8894877433776855,-0.42399847507476807,0.7743532657623291,0.4200000464916229,1.0,3.798361603912781e-06,-2.2628253191214753e-06,-1.5022170885004016e-07,0.000263741152593866,0.0002656599972397089,-0.00010429229587316513,-0.0017054708441719413,0.004147648345679045,-0.00012979858729522675,-0.1863228678703308,0.22618931531906128,1.2498177289962769,-2.0097546577453613,2.847402572631836,-0.943968653678894,0.3314090371131897,0.7159661650657654,0.42000001668930054,-1.2300177812576294,2.9999890327453613,-0.1609993278980255,3.0,0.0004541687958408147,-0.005456459708511829,-0.01149881910532713,-0.017680220305919647,-0.1190345361828804,-0.23528361320495605,-0.3485153913497925,-0.45850294828414917
0.13333333333333333,0.05692756548523903,0.08126369118690491,0.0,0.9909241795539856,0.0,0.0,-0.13442212343215942,0.271027147769928,0.8244417309761047,0.0,0.0,0.0,-6.189046859741211,-0.42399847507476807,0.7743533253669739,0.4200000464916229,0.9999999403953552,3.5505204323271755e-06,-2.229785422969144e-06,2.9288165137586475e-07,0.00026703279581852257,0.00026779391919262707,-0.00010417005978524685,-0.0017440415685996413,0.004213592037558556,-0.00012800541298929602,-0.2151697278022766,0.27785277366638184,1.2344582080841064,-1.435500144958496,3.4570391178131104,-0.9416844844818115,0.3314090371131897,0.7159661650657654,0.42000001668930054,-1.1800540685653687,2.9896914958953857,-0.1927296370267868,-2.9999988079071045,-0.0025257288943976164,-0.010542060248553753,-0.018623629584908485,-0.026773303747177124,-0.26264700293540955,-0.3868817687034607,-0.5069588422775269,-0.6226147413253784
0.15,0.05854266881942749,0.09643857926130295,0.0,0.987345278263092,0.0,0.0,-0.1585853546857834,0.021520355716347694,0.944561779499054,0.0,0.0,0.0,-1.8777132034301758,-0.42399847507476807,0.7743532657623291,0.4200000464916229,0.9999999403953552,3.3380674722138792e-06,-2.242838490928989e-06,-2.8060037848831598e-08,0.0002667458902578801,0.00026757988962344825,-0.00010427623055875301,-0.0017367381369695067,0.004206942860037088,-0.0001283128949580714,-0.2474823147058487,0.33336806297302246,1.2115720510482788,-2.0827035903930664,3.4994218349456787,-1.7589237689971924,0.3314090371131897,0.7159661650657654,0.42000001668930054,-1.1535110473632812,0.40027427673339844,-0.15894408524036407,3.000000238418579,-0.008200841024518013,-0.017797471955418587,-0.027379851788282394,-0.03694838657975197,-0.40442630648612976,-0.4703638255596161,-0.5317530632019043,-0.5885868072509766
0.16666666666666666,0.06421391665935516,0.11320867389440536,0.0,0.9804516434669495,0.0,0.0,-0.1967601478099823,0.3251803517341614,1.0407028198242188,0.0,0.0,0.0,-5.488735198974609,-0.42399847507476807,0.7743533253669739,0.4200000464916229,0.9999999403953552,3.6478047604759922e-06,-2.307233671672293e-06,3.5235295570146263e-08,0.0002672690898180008,0.0002680139150470495,-0.00010418728925287724,-0.001747197238728404,0.004217608831822872,-0.00012798573879990727,-0.2813246548175812,0.39644545316696167,1.1796422004699707,-1.9282042980194092,4.073418617248535,-2.151228427886963,0.3314090371131897,0.7159661650657654,0.42000001668930054,-1.1134815216064453,3.0000007152557373,-0.19069623947143555,-3.0000014305114746,-0.013131043873727322,-0.02387191914021969,-0.03451712429523468,-0.045067496597766876,-0.4961340129375458,-0.5286440849304199,-0.5582256317138672,-0.5850070118904114
0.18333333333333332,0.06609926372766495,0.1272430270910263,0.0,0.9761643409729004,0.0,0.0,-0.21703259646892548,0.0793786570429802,0.7778818011283875,0.0,0.0,0.0,-1.3734952211380005,-0.42399847507476807,0.7743532657623291,0.4200000464916229,0.9999999403953552,3.2905488751566736e-06,-2.193873569922289e-06,-2.792829718600842e-07,0.0002667795342858881,0.00026776042068377137,-0.00010433956049382687,-0.0017391042783856392,0.004207027144730091,-0.0001284590980503708,-0.31832534074783325,0.4602833390235901,1.135015606880188,-2.1375701427459717,3.98435640335083,-3.1116340160369873,0.3314090371131897,0.7159661650657654,0.42000001668930054,-1.0811775922775269,1.0217385292053223,-0.24072512984275818,-3.000000476837158,-0.02413247898221016,-0.03468581289052963,-0.04511827975511551,-0.05544004961848259,-0.6913714408874512,-0.6626968383789062,-0.6327821612358093,-0.6022152900695801
0.2,0.06403952091932297,0.14273913204669952,0.0,0.9683622121810913,0.0,0.0,-0.24954894185066223,-0.18008746206760406,0.9330316781997681,0.0,0.0,0.0,-4.855440139770508,-0.42399847507476807,0.7743532657623291,0.4200000464916229,1.0,3.28078749589622e-06,-2.2191734387888573e-06,1.5941357389692712e-07,0.00026627929764799774,0.000267399795120582,-0.00010425224900245667,-0.0017356870230287313,0.004197803791612387,-0.00012865019380114973,-0.3522666096687317,0.5289784669876099,1.0773216485977173,-1.8525910377502441,4.263616561889648,-3.7418627738952637,0.3314090371131897,0.7159661650657654,0.42000001668930054,-1.0374482870101929,3.0000007152557373,-0.2907516360282898,-3.0,-0.038606081157922745,-0.04836508631706238,-0.05799044668674469,-0.06750563532114029,-0.8702313899993896,-0.8243393898010254,-0.7771809697151184,-0.7294161915779114
0.21666666666666667,0.0668465718626976,0.15393170714378357,0.0,0.9640473127365112,0.0,0.0,-0.26573070883750916,0.17181679606437683,0.5550151467323303,0.0,0.0,0.0,-0.7865738868713379,-0.42399847507476807,0.7743533253669739,0.4200000464916229,1.0,3.6131975775788305e-06,-2.270054665132193e-06,2.2095007068401173e-07,0.0002671261318027973,0.0002678181044757366,-0.00010414118878543377,-0.0017445804551243782,0.004215228371322155,-0.00012786441948264837,-0.38450413942337036,0.5956766605377197,1.0068204402923584,-1.7225606441497803,3.929622173309326,-4.731834888458252,0.3314090371131897,0.7159661650657654,0.42000001668930054,-0.987448513507843,2.999927043914795,-0.34077706933021545,-2.999999523162842,-0.05051790922880173,-0.05927044525742531,-0.0678938701748848,-0.07642551511526108,-0.9152600765228271,-0.8095621466636658,-0.7069167494773865,-0.6083835959434509
0.23333333333333334,0.06349680572748184,0.16740873456001282,0.0,0.9556710124015808,0.0,0.0,-0.2944366931915283,-0.19429020583629608,0.791589617729187,0.0,0.0,0.0,-4.332842826843262,-0.42399847507476807,0.7743532657623291,0.4200000464916229,1.0,3.3819201235019136e-06,-2.290869360876968e-06,2.727421417603182e-07,0.00026691355742514133,0.0002678000892046839,-0.00010433257557451725,-0.001739609520882368,0.00420966325327754,-0.00012843690637964755,-0.4086027145385742,0.6560087203979492,0.9218636751174927,-1.1608281135559082,3.5035009384155273,-5.210402965545654,0.3314090371131897,0.7159661650657654,0.42000001668930054,-0.9374396800994873,2.9999799728393555,-0.39080536365509033,-2.9999961853027344,-0.06649729609489441,-0.0752909928560257,-0.0839458629488945,-0.09240294992923737,-0.6896734833717346,-0.7426882386207581,-0.793400764465332,-0.8396723866462708
0.25,0.06568112224340439,0.17552796006202698,0.0,0.9522199630737305,0.0,0.0,-0.3054130971431732,0.14898520708084106,0.38796326518058777,0.0,0.0,0.0,-0.32802072167396545,-0.4239984452724457,0.7743532657623291,0.4200000464916229,0.9999999403953552,3.7066345157654723e-06,-2.222945795438136e-06,-2.2556247358807013e-07,0.0002642473264131695,0.0002665669599082321,-0.00010457937605679035,-0.0017170740757137537,0.004155685659497976,-0.00013062926882412285,-0.4288594126701355,0.7064719200134277,0.8297621011734009,-0.9760589599609375,2.6574292182922363,-5.8636980056762695,0.3314090371131897,0.7159661650657654,0.42000001668930054,-0.8874346017837524,2.999997854232788,-0.4408355951309204,-2.999998092651367,-0.07733021676540375,-0.0862501934170723,-0.09504642337560654,-0.10364000499248505,-0.8820341229438782,-0.8298685550689697,-0.7816640138626099,-0.7371730804443359
0.26666666666666666,0.0620591975748539,0.18624557554721832,0.0,0.9437665343284607,0.0,0.0,-0.3306126892566681,-0.3287937343120575,0.6594770550727844,0.0,0.0,0.0,-3.9976706504821777,-0.42399847507476807,0.7743532657623291,0.4200000464916229,0.9999999403953552,3.719743290275801e-06,-2.4033963654801482e-06,-1.8313593841412512e-07,0.00026623267331160605,0.0002672910050023347,-0.00010425737127661705,-0.0017326035303995013,0.004196490161120892,-0.00012851072824560106,-0.4399988651275635,0.7420209646224976,0.7277919054031372,-0.34850776195526123,1.663494348526001,-6.094058990478516,0.3314090371131897,0.7159661650657654,0.42000001668930054,-0.8374245166778564,2.998199939727783,-0.49086663126945496,-2.9999876022338867,-0.09495524317026138,-0.10361673682928085,-0.11220796406269073,-0.12058532238006592,-0.8283452391624451,-0.8634706735610962,-0.8963811993598938,-0.9258525967597961
0.2833333333333333,0.06294945627450943,0.19242538511753082,0.0,0.9411508440971375,0.0,0.0,-0.3379868268966675,0.07853563874959946,0.2895791232585907,0.0,0.0,0.0,0.06527671217918396,-0.42399847507476807,0.7743533253669739,0.4200000464916229,0.9999999403953552,3.5841740100295283e-06,-2.315398432983784e-06,7.398276835601791e-08,0.0002652210823725909,0.0002645523054525256,-0.00010317191481590271,-0.0017021427629515529,0.004185129422694445,-0.00012499491276685148,-0.44528451561927795,0.7638108730316162,0.6261835098266602,-0.042387694120407104,0.8564552068710327,-6.138819694519043,0.3314090371131897,0.7159661650657654,0.42000001668930054,-0.787415623664856,2.9999921321868896,-0.5408974289894104,-2.999997854232788,-0.10784141719341278,-0.11682801693677902,-0.12533701956272125,-0.13362810015678406,-0.9930316805839539,-0.9931707382202148,-0.9309278726577759,-0.8697260618209839
0.3,0.059808745980262756,0.195536270737648,0.0,0.9339403510093689,0.0,0.0,-0.3574288487434387,-0.2780739367008209,0.14810782670974731,0.0,0.0,0.0,-3.35329532623291,-0.42399847507476807,0.7743532657623291,0.4200000464916229,1.0,3.7243778479023604e-06,-2.2718340915162116e-06,9.629111730191653e-08,0.00026312560657970607,0.0002652584225870669,-0.00010438216850161552,-0.0016960793873295188,0.004134789574891329,-0.00013027508975937963,-0.43992090225219727,0.7753944993019104,0.5251994132995605,0.728752076625824,0.5016698241233826,-5.725539207458496,0.3314090371131897,0.7159661650657654,0.42000001668930054,-0.737406849861145,3.000002384185791,-0.5909270644187927,-3.000002384185791,-0.12548060715198517,-0.13423211872577667,-0.14257115125656128,-0.1507343202829361,-1.0172603130340576,-1.0130274295806885,-1.0098062753677368,-1.0072333812713623
0.31666666666666665,0.054522592574357986,0.19584417343139648,0.0,0.9334453344345093,0.0,0.0,-0.3587196171283722,-0.3446108102798462,-0.02373579703271389,0.0,0.0,0.0,0.7437781095504761,-0.42399847507476807,0.7743532657623291,0.4200000464916229,1.0,3.666371867439011e-06,-2.3924892502691364e-06,1.6792405688192957e-07,0.00026602050638757646,0.0002670706599019468,-0.00010418635793030262,-0.001731188502162695,0.004193520173430443,-0.0001284972531720996,-0.4268832206726074,0.7785322666168213,0.4323772192001343,0.9540632963180542,-0.18246060609817505,-5.517119884490967,0.3314090371131897,0.7159661650657654,0.42000001668930054,-0.687399685382843,2.999993085861206,-0.6409547924995422,-3.000002145767212,-0.14141397178173065,-0.15023019909858704,-0.1586533635854721,-0.1668386161327362,-0.9999642968177795,-0.9999439716339111,-0.9997963309288025,-0.9832267165184021
0.3333333333333333,0.04685861989855766,0.19350211322307587,0.0,0.9425593018531799,0.0,0.0,-0.3340388238430023,-0.5090506076812744,-0.18808183073997498,0.0,0.0,0.0,4.0171308517456055,-0.42101234197616577,0.7787204384803772,0.4210808575153351,0.998015284538269,0.001656052190810442,0.0274270661175251,-0.05666003376245499,-0.034253720194101334,0.07222657650709152,-0.05551261454820633,-0.136392742395401,-2.8691558837890625,-5.665701389312744,-0.4288410544395447,0.7814618349075317,0.4288281798362732,-0.18467602133750916,0.14304253458976746,-0.20943963527679443,0.3314090371131897,0.7159661650657654,0.42000001668930054,-0.637394905090332,2.999976396560669,-0.6913771033287048,-3.00000262260437,-0.1477300524711609,-0.15719257295131683,-0.16591428220272064,-0.17398083209991455,-0.3521592915058136,-0.3835313022136688,-0.3960387706756592,-0.3855093717575073
0.35,0.03663033992052078,0.18865206837654114,0.0,0.945157527923584,0.0,0.0,-0.3266148865222931,-0.6518400311470032,-0.332383394241333,0.0,0.0,0.0,-0.03955596685409546,-0.42176201939582825,0.7794401049613953,0.420002281665802,0.9970138072967529,-1.890446583274752e-05,7.980717782629654e-05,-0.07722288370132446,-0.015504228882491589,0.018902793526649475,-0.003060773015022278,0.009295924566686153,-0.03717220947146416,-0.4567633271217346,-0.42898204922676086,0.7823190689086914,0.4255172312259674,0.16698893904685974,0.027113350108265877,-0.19394591450691223,0.3314090371131897,0.7159661650657654,0.42000001668930054,-0.5873895287513733,2.9999823570251465,-0.7414425015449524,-2.9998972415924072,-0.15502658486366272,-0.16405150294303894,-0.17196622490882874,-0.17880868911743164,-0.4883653521537781,-0.41108426451683044,-0.311163067817688,-0.18685951828956604
0.36666666666666664,0.024119563400745392,0.18150058388710022,0.0,0.9516357779502869,0.0,0.0,-0.3072285056114197,-0.8004187941551208,-0.47053906321525574,0.0,0.0,0.0,3.4602465629577637,-0.4206416606903076,0.7818800806999207,0.4200004041194916,0.9932644367218018,-1.809853893064428e-05,1.3594441043096595e-05,-0.11586960405111313,0.09905175119638443,0.18905776739120483,-0.0007442284259013832,0.03678121790289879,-0.007313846610486507,-5.972229957580566,-0.42481058835983276,0.7838109731674194,0.422517329454422,0.27268514037132263,0.14619141817092896,-0.14123877882957458,0.3314090371131897,0.7159661650657654,0.42000001668930054,-0.537384569644928,2.999983310699463,-0.7914860248565674,-2.9999868869781494,-0.1638946384191513,-0.17112478613853455,-0.17687919735908508,-0.1811838150024414,-0.489703893661499,-0.3754415214061737,-0.2402009516954422,-0.08348362892866135
0.3833333333333333,0.010654117912054062,0.17189545929431915,0.0,0.9528041481971741,0.0,0.0,-0.30358564853668213,-0.8343949317932129,-0.6202364563941956,0.0,0.0,0.0,-0.523761510848999,-0.41862890124320984,0.784744381904602,0.42000019550323486,0.984805703163147,-1.7043867046595551e-06,9.856019460130483e-06,-0.17365923523902893,0.23533327877521515,0.2476252317428589,0.007966055534780025,0.41711145639419556,-0.16224351525306702,-11.413990020751953,-0.419630765914917,0.7855170369148254,0.42056453227996826,0.44250088930130005,0.24926389753818512,-0.02278400957584381,0.3314090371131897,0.7159661650657654,0.42000001668930054,-0.4873800575733185,2.999518394470215,-0.8415307998657227,-2.9857261180877686,-0.17257475852966309,-0.17741595208644867,-0.18041208386421204,-0.18160265684127808,-0.49500173330307007,-0.3328303098678589,-0.14969255030155182,0.05279356241226196
0.4,0.00035271403612568974,0.15956927835941315,0.0,0.9449848532676697,0.0,0.0,-0.3271140456199646,-0.5330416560173035,-0.7905819416046143,0.0,0.0,0.0,-3.7768352031707764,-0.4109257757663727,0.792463481426239,0.4202466309070587,0.9688202738761902,-0.0012002531439065933,-0.0060150655917823315,-0.24768856167793274,0.6462546586990356,0.6759654879570007,0.09737752377986908,-4.989876747131348,2.217712879180908,-5.153552055358887,-0.41048336029052734,0.7929357290267944,0.4197511076927185,0.6066868305206299,0.550969123840332,0.14071238040924072,0.3314090371131897,0.7159661650657654,0.42000001668930054,-0.4373564124107361,2.9992315769195557,-0.8915643095970154,-2.9561445713043213,-0.17973433434963226,-0.18173164129257202,-0.18149645626544952,-0.17910976707935333,-0.3320963680744171,-0.15950307250022888,0.03715372458100319,0.2549564242362976
0.4166666666666667,-0.012969237752258778,0.14541472494602203,0.0,0.9262577891349792,0.0,0.0,-0.3768905997276306,-0.8920384645462036,-0.8735595345497131,0.0,0.0,0.0,-7.279616355895996,-0.3936419188976288,0.8080635070800781,0.42336562275886536,0.9546287059783936,-0.031002413481473923,-0.02365051582455635,-0.29523444175720215,1.5334185361862183,1.1644524335861206,0.009894028306007385,30.433805465698242,-16.41863441467285,8.014542579650879,-0.3931495249271393,0.8087839484214783,0.42257505655288696,1.427606225013733,1.222123384475708,0.38527458906173706,0.3314090371131897,0.7159661650657654,0.42000001668930054,-0.39504867792129517,1.5609614849090576,-0.9415843486785889,-3.000000476837158,-0.1881653368473053,-0.18683087825775146,-0.18293143808841705,-0.17661802470684052,-0.5388086438179016,-0.3353504538536072,-0.11629656702280045,0.11385085433721542
0.43333333333333335,-0.022737106308341026,0.12850166857242584,0.0,0.893378496170044,0.0,0.0,-0.44930487871170044,-0.5544158220291138,-1.0463416576385498,0.0,0.0,0.0,-10.167638778686523,-0.3490566909313202,0.8367726802825928,0.4267209470272064,0.9357933402061462,-0.018697315827012062,-0.05328524485230446,-0.34799695014953613,3.971693992614746,1.6685196161270142,0.32506775856018066,11.795889854431152,-11.335864067077637,14.027433395385742,-0.3484486937522888,0.8370782732963562,0.42625346779823303,3.7204952239990234,2.10762357711792,0.32293614745140076,0.3314090371131897,0.7159661650657654,0.42000001668930054,-0.37624719738960266,1.0547125339508057,-0.9656965136528015,-0.13964185118675232,-0.198466956615448,-0.19284075498580933,-0.18458278477191925,-0.17395277321338654,-0.7568920850753784,-0.4531230330467224,-0.15556146204471588,0.12762166559696198
0.45,-0.030199861153960228,0.11640295386314392,0.0,0.8436080813407898,0.0,0.0,-0.5369594693183899,-0.3551267683506012,-0.7400396466255188,0.0,0.0,0.0,-12.756258964538574,-0.26261091232299805,0.8725638389587402,0.43167737126350403,0.9042256474494934,0.03314823657274246,-0.09165636450052261,-0.41578370332717896,6.442083835601807,1.9422805309295654,0.3568590581417084,12.949522018432617,-18.289283752441406,16.312397003173828,-0.26279720664024353,0.8732325434684753,0.43127545714378357,6.249905586242676,2.5065126419067383,0.40706077218055725,0.3314090371131897,0.7159661650657654,0.42000001668930054,-0.35699883103370667,1.2453047037124634,-0.9189116358757019,2.9959895610809326,-0.21349988877773285,-0.20589636266231537,-0.19180825352668762,-0.1755996197462082,-0.5757647752761841,-0.6532264947891235,-0.39544352889060974,-0.1247745230793953
0.4666666666666667,-0.03453017771244049,0.10687831789255142,0.0,0.7998681664466858,0.0,0.0,-0.600175678730011,-0.1426496058702469,-0.537131667137146,0.0,0.0,0.0,-8.08830738067627,-0.16049882769584656,0.9053875207901001,0.44089069962501526,0.864967942237854,0.05182179436087608,-0.10722730308771133,-0.48749059438705444,5.988156318664551,1.3097425699234009,0.85102379322052,-4.952242374420166,-10.393360137939453,0.38666439056396484,-0.161922425031662,0.9085984230041504,0.4407864511013031,6.126605987548828,1.667837142944336,0.5790812373161316,0.3314090371131897,0.7159661650657654,0.42000001668930054,-0.3354474604129791,1.2964556217193604,-0.9445914626121521,-2.9990856647491455,-0.224817156791687,-0.21739444136619568,-0.19931340217590332,-0.17919297516345978,-0.5858384966850281,-0.5843895673751831,-0.39554694294929504,-0.21958717703819275
0.48333333333333334,-0.03969840705394745,0.09454469382762909,0.0,0.7741463780403137,0.0,0.0,-0.6330065727233887,-0.3189714252948761,-0.694721519947052,0.0,0.0,0.0,-3.7267513275146484,-0.06240689009428024,0.9198389053344727,0.4514288604259491,0.8063067197799683,0.058024030178785324,-0.10767143219709396,-0.578713595867157,5.314071178436279,-0.42893296480178833,0.6343247294425964,-16.084762573242188,9.964885711669922,30.629207611083984,-0.06445956975221634,0.9241373538970947,0.4516952335834503,5.9403839111328125,0.15013369917869568,0.74143385887146,0.3314090371131897,0.7159661650657654,0.42000001668930054,-0.3189508318901062,0.6763138771057129,-0.9946154952049255,-3.0000014305114746,-0.23631934821605682,-0.22682787477970123,-0.20454725623130798,-0.18064101040363312,-0.9068279266357422,-0.6794955134391785,-0.37467995285987854,-0.10358115285634995
0.5,-0.04742530733346939,0.08740806579589844,0.0,0.7522347569465637,0.0,0.0,-0.6588951945304871,-0.4826316237449646,-0.4064823091030121,0.0,0.0,0.0,-4.166189193725586,0.027953363955020905,0.9082168936729431,0.4609118103981018,0.7471287846565247,0.04543445259332657,-0.09119614213705063,-0.6568238139152527,4.861107349395752,-1.871673583984375,0.4277500808238983,-12.796635627746582,-8.442855834960938,22.1972599029541,0.025026993826031685,0.9147137403488159,0.4616612493991852,5.21293830871582,-1.1081535816192627,0.5942732095718384,0.3314090371131897,0.7159661650657654,0.42000001668930054,-0.3105640411376953,0.3450194299221039,-1.0446381568908691,-3.0000030994415283,-0.24007758498191833,-0.24003222584724426,-0.2142200618982315,-0.18529477715492249,0.009985368698835373,-0.034255251288414,-0.5819512009620667,-0.3061787784099579
0.5166666666666666,-0.05232881382107735,0.07655907422304153,0.0,0.7452986836433411,0.0,0.0,-0.6667307019233704,-0.25535836815834045,-0.664233922958374,0.0,0.0,0.0,-0.24448898434638977,0.1038951724767685,0.8847828507423401,0.4661713242530823,0.7159075140953064,0.023291202262043953,-0.06821490824222565,-0.6944642066955566,3.9168601036071777,-2.141219139099121,0.1217019110918045,-7.667596817016602,-2.1048786640167236,7.469455242156982,0.10238224267959595,0.8912286162376404,0.46766936779022217,4.187215805053711,-1.7715296745300293,0.2717549800872803,0.3314090371131897,0.7159661650657654,0.42000001668930054,-0.30256029963493347,0.6002647876739502,-1.0946602821350098,-3.0000011920928955,-0.23750166594982147,-0.23750625550746918,-0.2197624295949936,-0.18761874735355377,0.14053523540496826,0.18642543256282806,-0.2221749871969223,-0.08790246397256851
0.5333333333333333,-0.05403224751353264,0.06959470361471176,0.0,0.7300888895988464,0.0,0.0,-0.6833521723747253,-0.035873088985681534,-0.38636523485183716,0.0,0.0,0.0,-3.488036632537842,0.1685803383588791,0.8542216420173645,0.46344128251075745,0.6730944514274597,-0.01563142240047455,-0.06015036627650261,-0.7369405627250671,3.397080659866333,-2.428955078125,-0.24968914687633514,1.3918558359146118,-1.0780744552612305,16.299171447753906,0.16755706071853638,0.8609703779220581,0.4664059281349182,3.805432081222534,-1.9553122520446777,-0.3174600303173065,0.3314090371131897,0.7159661650657654,0.42000001668930054,-0.289880633354187,0.7796696424484253,-1.1446824073791504,-3.0000011920928955,-0.23516622185707092,-0.2341880053281784,-0.22232450544834137,-0.18898692727088928,0.2714107930660248,0.3244237005710602,0.006692065391689539,0.009867670014500618
0.55,-0.05220905318856239,0.061036158353090286,0.0,0.7277092337608337,0.0,0.0,-0.6858857870101929,0.15676987171173096,-0.549354612827301,0.0,0.0,0.0,0.5614303350448608,0.22367702424526215,0.8188586831092834,0.4552071690559387,0.6281516551971436,-0.05479912459850311,-0.03675113245844841,-0.7752881646156311,2.5625643730163574,-2.81223726272583,-0.5949836373329163,-1.190564751625061,0.8330944776535034,17.334054946899414,0.22335052490234375,0.8246790170669556,0.4583525061607361,3.044259548187256,-2.3574233055114746,-0.6019656658172607,0.3314090371131897,0.7159661650657654,0.42000001668930054,-0.276658296585083,0.6811875700950623,-1.194704532623291,-3.0,-0.230365589261055,-0.22802409529685974,-0.22043414413928986,-0.1878298819065094,0.2790130078792572,0.37833890318870544,0.1717228889465332,0.08474665135145187
0.5666666666666667,-0.0481015183031559,0.05508356913924217,0.0,0.7164748907089233,0.0,0.0,-0.6976128220558167,0.2898063659667969,-0.3057982325553894,0.0,0.0,0.0,-2.80336856842041,0.2682468593120575,0.7837976813316345,0.439232736825943,0.5898904204368591,-0.09474856406450272,-0.016472356393933296,-0.8017359972000122,1.9706858396530151,-2.444707155227661,-1.0343736410140991,0.16827313601970673,2.2453272342681885,18.196460723876953,0.26810765266418457,0.7888555526733398,0.44277602434158325,2.4668800830841064,-2.084413528442383,-1.1260395050048828,0.3314090371131897,0.7159661650657654,0.42000001668930054,-0.2648334801197052,0.6163524985313416,-1.2447266578674316,-2.999999761581421,-0.22373592853546143,-0.2207694947719574,-0.2168731540441513,-0.18710948526859283,0.4870811998844147,0.4920688271522522,0.2756288945674896,0.04709772393107414
0.5833333333333334,-0.04190896451473236,0.0527624674141407,0.0,0.7172493934631348,0.0,0.0,-0.6968165636062622,0.4073235094547272,-0.07642055302858353,0.0,0.0,0.0,0.9664521813392639,0.29995715618133545,0.7527496814727783,0.42528873682022095,0.5545787811279297,-0.10705555230379105,-0.012861855328083038,-0.8251157999038696,1.2968347072601318,-1.5711385011672974,-0.09981560707092285,-2.1446425914764404,-5.241837501525879,2.2691538333892822,0.2994443476200104,0.7573064565658569,0.4287438988685608,1.2210116386413574,-1.4721332788467407,-0.08001117408275604,0.3314090371131897,0.7159661650657654,0.42000001668930054,-0.25153711438179016,0.9251101016998291,-1.2291874885559082,2.9956471920013428,-0.21517851948738098,-0.21271203458309174,-0.2123190015554428,-0.18710002303123474,0.5708467364311218,0.508319079875946,0.3034171164035797,-0.003960015717893839
0.6,-0.03795346990227699,0.04581872373819351,0.0,0.7071381211280823,0.0,0.0,-0.7070754170417786,0.23899203538894653,-0.426474004983902,0.0,0.0,0.0,-2.5006091594696045,0.3196386396884918,0.7368119359016418,0.4244346022605896,0.5328872203826904,-0.08768201619386673,-0.0056758723221719265,-0.8416119813919067,1.0835636854171753,-0.8146329522132874,-0.1275913417339325,0.7198547720909119,-5.477190971374512,-1.0799148082733154,0.3167101740837097,0.7397565841674805,0.4277302026748657,0.6975195407867432,-0.9659115076065063,0.006133768707513809,0.3314090371131897,0.7159661650657654,0.42000001668930054,-0.23524421453475952,0.8443410992622375,-1.1791729927062988,2.9981894493103027,-0.20146311819553375,-0.199904665350914,-0.20334193110466003,-0.18416719138622284,0.6158572435379028,0.6618544459342957,0.4843831956386566,0.14004506170749664
0.6166666666666667,-0.03185540810227394,0.04345129802823067,0.0,0.7084466218948364,0.0,0.0,-0.7057643532752991,0.35663291811943054,-0.1389780342578888,0.0,0.0,0.0,0.9199638366699219,0.32997965812683105,0.7264590263366699,0.42360222339630127,0.5317749381065369,-0.055808164179325104,0.03236208111047745,-0.8444249629974365,0.4403700828552246,-0.5732985138893127,0.07917711138725281,-2.442779302597046,2.6128292083740234,5.155398368835449,0.3260510563850403,0.7244514226913452,0.4278429448604584,0.4104927182197571,-0.6353142261505127,0.05657592788338661,0.3314090371131897,0.7159661650657654,0.42000001668930054,-0.21563056111335754,1.5192466974258423,-1.200880765914917,-2.9997973442077637,-0.19388248026371002,-0.19175942242145538,-0.1975257694721222,-0.18384172022342682,0.5920650959014893,0.5564517974853516,0.39761075377464294,0.040538664907217026
0.6333333333333333,-0.02412882260978222,0.037355951964855194,0.0,0.6984160542488098,0.0,0.0,-0.7156919836997986,0.498826265335083,-0.3767044246196747,0.0,0.0,0.0,-2.4961488246917725,0.3341887295246124,0.7210828065872192,0.4232257306575775,0.5501092672348022,-0.05273965001106262,0.04530003294348717,-0.8321936130523682,-0.04573218151926994,-1.2680573463439941,-0.11605620384216309,-13.498062133789062,-11.085051536560059,28.763519287109375,0.3311232924461365,0.7187747955322266,0.42621850967407227,0.06839464604854584,-0.1711207777261734,-0.08484583348035812,0.3314090371131897,0.7159661650657654,0.42000001668930054,-0.2040872573852539,-0.8494092226028442,-1.1629512310028076,2.989213705062866,-0.1825854331254959,-0.18164107203483582,-0.18992547690868378,-0.18216301500797272,0.5114951729774475,0.4621974229812622,0.3659113049507141,0.057601504027843475
0.65,-0.018628638237714767,0.035159703344106674,0.0,0.7004309892654419,0.0,0.0,-0.7137201428413391,0.25887173414230347,-0.10344815999269485,0.0,0.0,0.0,1.1223467588424683,0.3332394063472748,0.7110018730163574,0.42214763164520264,0.5808959603309631,-0.03983087092638016,-0.00027028340264223516,-0.8130025267601013,-0.23846305906772614,-0.8097185492515564,0.04399442300200462,-5.5159525871276855,-0.45509427785873413,10.520156860351562,0.3303883373737335,0.7137892842292786,0.4271623194217682,-0.16324158012866974,-0.1604956090450287,0.17461566627025604,0.3314090371131897,0.7159661650657654,0.42000001668930054,-0.24789030849933624,-2.9995486736297607,-1.1847604513168335,-2.9999125003814697,-0.17685137689113617,-0.1764310598373413,-0.18547844886779785,-0.18198654055595398,0.3748096823692322,0.32605770230293274,0.2922974228858948,0.05496229976415634
0.6666666666666666,-0.012906381860375404,0.035896189510822296,0.0,0.692302942276001,0.0,0.0,-0.721606969833374,0.38902366161346436,0.09919028729200363,0.0,0.0,0.0,-2.2305893898010254,0.3326723873615265,0.7057265043258667,0.42243000864982605,0.591180145740509,-0.046155475080013275,-0.00776982307434082,-0.8051801919937134,-0.07015295326709747,-0.48059454560279846,-0.03742300346493721,-0.9913607239723206,-2.1036767959594727,2.3125,0.33106255531311035,0.715415358543396,0.4294469952583313,0.1565808206796646,0.24131666123867035,0.1569340080022812,0.3314090371131897,0.7159661650657654,0.42000001668930054,-0.2901146709918976,-2.0431604385375977,-1.2347224950790405,-2.9991018772125244,-0.1693306714296341,-0.17050796747207642,-0.18041810393333435,-0.1809074729681015,0.4944486916065216,0.3815264403820038,0.33194059133529663,0.10641361773014069
0.6833333333333333,-0.004233289510011673,0.031826652586460114,0.0,0.6960752606391907,0.0,0.0,-0.7179688215255737,0.48280563950538635,-0.2546791434288025,0.0,0.0,0.0,1.4993935823440552,0.3336402475833893,0.7060441374778748,0.42331141233444214,0.5929009914398193,-0.06631740927696228,-0.023320967331528664,-0.802200973033905,-0.13568115234375,-0.14019271731376648,-0.001603015000000596,-3.13395619392395,-1.464691162109375,0.7323764562606812,0.3312819004058838,0.7186400294303894,0.43231695890426636,-0.10535572469234467,0.19409862160682678,0.17831508815288544,0.3314090371131897,0.7159661650657654,0.42000001668930054,-0.33910688757896423,-2.9999096393585205,-1.2847245931625366,-3.0000431537628174,-0.15800760686397552,-0.16139094531536102,-0.17226113379001617,-0.17646248638629913,0.5174036026000977,0.4278424084186554,0.4181416630744934,0.2492491602897644
0.7,0.005781848449259996,0.03224759176373482,0.0,0.6937596201896667,0.0,0.0,-0.720206618309021,0.6361123919487,0.02794441021978855,0.0,0.0,0.0,-1.3210363388061523,0.3324250280857086,0.704824686050415,0.42276492714881897,0.5937687754631042,-0.058761898428201675,-0.03855549171566963,-0.8015604615211487,-0.054524440318346024,-0.05484756827354431,-0.04669938609004021,-0.16405192017555237,-2.057161808013916,0.10838038474321365,0.3313930034637451,0.7216079235076904,0.43611687421798706,0.07964935898780823,0.18669570982456207,0.2812938690185547,0.3314090371131897,0.7159661650657654,0.42000001668930054,-0.38909053802490234,-2.9979231357574463,-1.334700584411621,-2.9999449253082275,-0.15183812379837036,-0.15622994303703308,-0.16657567024230957,-0.17258229851722717,0.458741158246994,0.3884391486644745,0.42080575227737427,0.33402302861213684
0.7166666666666667,0.017574777826666832,0.02937580831348896,0.0,0.6828752756118774,0.0,0.0,-0.7305349707603455,0.730072557926178,-0.2133006602525711,0.0,0.0,0.0,-2.0293571949005127,0.3317871689796448,0.7035640478134155,0.42128854990005493,0.5966183543205261,-0.026252321898937225,-0.019551975652575493,-0.8018572926521301,-0.03165575861930847,-0.09414859116077423,-0.0967811644077301,5.247262954711914,-1.5806635618209839,0.1452857404947281,0.33336585760116577,0.725153923034668,0.445965439081192,0.15768574178218842,0.19428417086601257,0.9939889907836914,0.3314090371131897,0.7159661650657654,0.42000001668930054,-0.4391036629676819,-3.0000009536743164,-1.3847191333770752,-3.0,-0.1465739607810974,-0.1514686644077301,-0.1605580747127533,-0.16702809929847717,0.1490638256072998,0.1618952453136444,0.2802521288394928,0.30888643860816956
0.7333333333333333,0.031198615208268166,0.023347001522779465,0.0,0.6560065150260925,0.0,0.0,-0.7547552585601807,0.8530899882316589,-0.4670345187187195,0.0,0.0,0.0,-5.178599834442139,0.33138787746429443,0.7022827863693237,0.42000049352645874,0.597170352935791,6.957022833375959e-06,-6.874689916003263e-06,-0.8021143674850464,-0.005153314676135778,-0.015810489654541016,-0.00021349909366108477,0.004872932098805904,0.010055267252027988,0.009822818450629711,0.3438553810119629,0.728269636631012,0.46589958667755127,1.0966861248016357,0.13863468170166016,1.5633056163787842,0.3314090371131897,0.7159661650657654,0.42000001668930054,-0.4891166090965271,-2.999932289123535,-1.4347374439239502,-2.999993085861206,-0.1469155251979828,-0.15105614066123962,-0.15767283737659454,-0.16293089091777802,-0.10148762166500092,-0.03408074751496315,0.13266980648040771,0.2362501174211502
0.75,0.042576439678668976,0.021301742643117905,0.0,0.6423521041870117,0.0,0.0,-0.766409695148468,0.6064351201057434,-0.1491905301809311,0.0,0.0,0.0,-1.0736734867095947,0.3313879668712616,0.7022829651832581,0.42000001668930054,0.5971707701683044,1.347025460063378e-07,-3.6551359698933084e-06,-0.8021141290664673,7.45875368011184e-05,-0.00014115888916421682,-4.4001033529639244e-05,-0.00026210889336653054,-0.003135714214295149,-0.0005897380760870874,0.3609517514705658,0.7334844470024109,0.49631446599960327,1.0872516632080078,0.5421297550201416,1.9993114471435547,0.3314090371131897,0.7159661650657654,0.42000001668930054,-0.5123348832130432,-0.0236122477799654,-1.4847557544708252,-3.000000476837158,-0.15321457386016846,-0.15587595105171204,-0.1596180647611618,-0.16302259266376495,-0.19640307128429413,-0.18079762160778046,-0.08768032491207123,-0.04352881759405136
0.7666666666666666,0.04969377815723419,0.021131310611963272,0.0,0.6524976491928101,0.0,0.0,-0.757790744304657,0.36636292934417725,0.042686671018600464,0.0,0.0,0.0,2.419240713119507,0.3313879668712616,0.7022829651832581,0.4200000464916229,0.5971707105636597,3.0787791160946654e-07,-3.4281476928299526e-06,-0.8021141886711121,0.0001306281192228198,-0.0002732657885644585,-9.373598732054234e-05,0.006180916912853718,-0.001167113659903407,-0.0006440877332352102,0.37709057331085205,0.740748941898346,0.5235899090766907,0.7878025770187378,0.38427451252937317,1.348209023475647,0.3314090371131897,0.7159661650657654,0.42000001668930054,-0.4932117760181427,2.1156201362609863,-1.4460679292678833,3.0000007152557373,-0.15642721951007843,-0.15863977372646332,-0.16078105568885803,-0.16325537860393524,-0.15963271260261536,-0.12715698778629303,-0.03484446927905083,0.024000832810997963
0.7833333333333333,0.05278223007917404,0.017248518764972687,0.0,0.6504544615745544,0.0,0.0,-0.7595452666282654,0.14878785610198975,-0.3008415400981903,0.0,0.0,0.0,-1.2266851663589478,0.331387996673584,0.7022829055786133,0.4200000464916229,0.597170352935791,3.249749340739072e-07,-3.368306579432101e-06,-0.8021143078804016,0.00013392942491918802,-0.0002735194284468889,-9.458744898438454e-05,0.006169710773974657,-0.0011305088410153985,-0.0006516556022688746,0.38317251205444336,0.7471247315406799,0.5399428606033325,-0.09081920236349106,0.30704566836357117,0.7902911901473999,0.3314090371131897,0.7159661650657654,0.42000001668930054,-0.4639250636100769,1.4337533712387085,-1.3960152864456177,3.0,-0.15726527571678162,-0.1590585559606552,-0.1599419265985489,-0.1616014838218689,-0.09589101374149323,-0.050012361258268356,0.035218968987464905,0.09706833213567734
0.8,0.05287530645728111,0.017849281430244446,0.0,0.6594225168228149,0.0,0.0,-0.7517725229263306,-0.018743043765425682,0.05147438868880272,0.0,0.0,0.0,2.148460626602173,0.3313879668712616,0.7022829055786133,0.4200000464916229,0.597170352935791,2.3117866021493683e-07,-3.063614030907047e-06,-0.8021143674850464,0.00013040013436693698,-0.00027230236446484923,-9.400793351233006e-05,0.006157735828310251,-0.0011728371027857065,-0.000643053965177387,0.37834489345550537,0.7492461204528809,0.5504106283187866,-0.36802011728286743,0.11387911438941956,0.4927986264228821,0.3314090371131897,0.7159661650657654,0.42000001668930054,-0.44138333201408386,1.2690311670303345,-1.3655242919921875,0.8222533464431763,-0.16315430402755737,-0.16319921612739563,-0.1618514209985733,-0.16163359582424164,-0.23521696031093597,-0.1556059718132019,-0.049916040152311325,0.0444880835711956
0.8166666666666667,0.053614530712366104,0.014062715694308281,0.0,0.6559962630271912,0.0,0.0,-0.7547641396522522,0.020125648006796837,-0.17300228774547577,0.0,0.0,0.0,-1.1773186922073364,0.3313879668712616,0.7022829055786133,0.4200000464916229,0.5971705317497253,3.955776719521964e-07,-3.0839719329378568e-06,-0.8021142482757568,0.0001343767944490537,-0.00027294483152218163,-9.48016531765461e-05,0.006151806563138962,-0.00112577760592103,-0.0006524445489048958,0.36717092990875244,0.7519794702529907,0.5522254705429077,-1.0826904773712158,0.11377681791782379,-0.10900519788265228,0.3314090371131897,0.7159661650657654,0.42000001668930054,-0.4351698160171509,-0.38842132687568665,-1.316746711730957,2.999999761581421,-0.16378241777420044,-0.16309098899364471,-0.16065587103366852,-0.15943296253681183,-0.20296381413936615,-0.12475433945655823,-0.0342729389667511,0.05085010081529617
0.8333333333333334,0.05621869117021561,0.015210608951747417,0.0,0.6649734377861023,0.0,0.0,-0.7468670010566711,0.18214045464992523,0.04102402180433273,0.0,0.0,0.0,2.0528388023376465,0.331387996673584,0.7022829651832581,0.4200000464916229,0.5971706509590149,3.699972808135499e-07,-3.0013629839231726e-06,-0.8021141290664673,0.00012801391130778939,-0.00027652952121570706,-9.318441152572632e-05,0.006274878047406673,-0.001216881675645709,-0.0006416628020815551,0.35325318574905396,0.7525620460510254,0.5510332584381104,-0.5437668561935425,0.09871946275234222,-0.006028182804584503,0.3314090371131897,0.7159661650657654,0.42000001668930054,-0.4468545913696289,-0.953983724117279,-1.3363512754440308,-2.9999990463256836,-0.16841821372509003,-0.1663004457950592,-0.16221411526203156,-0.1592670977115631,-0.08018410950899124,-0.042040109634399414,0.014889989979565144,0.08986807614564896
0.85,0.060682784765958786,0.011993826366961002,0.0,0.6610541939735413,0.0,0.0,-0.7503381371498108,0.30340737104415894,-0.21729955077171326,0.0,0.0,0.0,-1.462619423866272,0.331387996673584,0.7022829651832581,0.4200000464916229,0.5971706509590149,4.564042797028378e-07,-3.0254689136199886e-06,-0.8021141886711121,0.00012444511230569333,-0.00027627855888567865,-9.239884093403816e-05,0.006289208773523569,-0.00125835498329252,-0.0006334446952678263,0.34609270095825195,0.7525993585586548,0.5458077192306519,-0.35322633385658264,-0.17847207188606262,-0.43532365560531616,0.3314090371131897,0.7159661650657654,0.42000001668930054,-0.4884044826030731,-3.0000007152557373,-1.3011696338653564,3.0000007152557373,-0.1681424379348755,-0.16541123390197754,-0.16041697561740875,-0.15617071092128754,-0.07737108319997787,-0.0028448321390897036,0.08448286354541779,0.19496741890907288
0.8666666666666667,0.06787227839231491,0.00919708888977766,0.0,0.636130154132843,0.0,0.0,-0.771581768989563,0.4634841978549957,-0.2033332884311676,0.0,0.0,0.0,-4.841594219207764,0.331387996673584,0.7022829651832581,0.4200000464916229,0.5971704721450806,3.8958938830546685e-07,-3.036009957213537e-06,-0.8021143674850464,0.00012726790737360716,-0.0002768317935988307,-9.300070814788342e-05,0.0062872013077139854,-0.001226410735398531,-0.000640220008790493,0.34634929895401,0.7475814819335938,0.5419682264328003,0.39243340492248535,-0.36178097128868103,0.11714078485965729,0.3314090371131897,0.7159661650657654,0.42000001668930054,-0.5384147763252258,-2.999962568283081,-1.3210681676864624,-2.9999990463256836,-0.17151537537574768,-0.16736233234405518,-0.16077031195163727,-0.1545107662677765,-0.15248864889144897,-0.08196074515581131,-1.783191692084074e-06,0.10700017213821411
0.8833333333333333,0.0772632509469986,0.008419685065746307,0.0,0.6261686682701111,0.0,0.0,-0.7796876430511475,0.5957282185554504,0.028373658657073975,0.0,0.0,0.0,-0.5369977355003357,0.331387996673584,0.7022829651832581,0.4200000464916229,0.5971705913543701,3.905547032445611e-07,-3.0533155950251967e-06,-0.8021141886711121,0.00012725470878649503,-0.0002768511767499149,-9.299442172050476e-05,0.006287708412855864,-0.0012266973499208689,-0.0006402057479135692,0.35434645414352417,0.7458037734031677,0.5471631288528442,0.5477445125579834,0.0722450315952301,0.47761422395706177,0.3314090371131897,0.7159661650657654,0.42000001668930054,-0.5596758127212524,0.18882018327713013,-1.3710864782333374,-3.0000007152557373,-0.1727377474308014,-0.16832007467746735,-0.16134712100028992,-0.15429645776748657,-0.002148384926840663,-0.02884746715426445,-0.05478132888674736,-0.058563511818647385
0.9,0.08386203646659851,0.004374281037598848,0.0,0.6396681070327759,0.0,0.0,-0.7686511874198914,0.3262847661972046,-0.3041805922985077,0.0,0.0,0.0,2.7846662998199463,0.331387996673584,0.7022829651832581,0.4200000464916229,0.5971705913543701,4.6040321421969566e-07,-3.080094302276848e-06,-0.8021142482757568,0.00012469739886000752,-0.0002762316435109824,-9.246007539331913e-05,0.006286744028329849,-0.0012550813844427466,-0.0006339597748592496,0.36191415786743164,0.7469616532325745,0.5502737760543823,0.3299962282180786,0.007221587933599949,-0.0811212807893753,0.3314090371131897,0.7159661650657654,0.42000001668930054,-0.5453624129295349,1.4100311994552612,-1.332718849182129,3.000000238418579,-0.1706460565328598,-0.16662389039993286,-0.1601480096578598,-0.1533116102218628,0.08221296221017838,0.08001641184091568,0.06462089717388153,0.059843651950359344
0.9166666666666666,0.08673524856567383,0.004255244974046946,0.0,0.6397053003311157,0.0,0.0,-0.7686202526092529,0.126996248960495,0.002677647629752755,0.0,0.0,0.0,-0.8227117657661438,0.3313879668712616,0.7022829651832581,0.4200000464916229,0.5971705913543701,3.9240305227394856e-07,-3.107592647211277e-06,-0.8021142482757568,0.0001274058740818873,-0.00027662317734211683,-9.30537935346365e-05,0.006281311623752117,-0.0012242873199284077,-0.0006403604638762772,0.36487793922424316,0.7443075180053711,0.5449376702308655,0.1253076046705246,-0.19365273416042328,-0.4121817648410797,0.3314090371131897,0.7159661650657654,0.42000001668930054,-0.5446867942810059,-1.1099530458450317,-1.2826662063598633,2.999999761581421,-0.1728382259607315,-0.16843855381011963,-0.16187283396720886,-0.15484152734279633,-0.02189577929675579,-0.031081000342965126,-0.056292492896318436,-0.07340358197689056
