vladlanda/robotic-transformer/data/env_000_episode_0104.csv
sim_time_s,robot_box_x,robot_box_y,robot_box_z,robot_box_quat_w,robot_box_quat_x,robot_box_quat_y,robot_box_quat_z,robot_box_linvel_x,robot_box_linvel_y,robot_box_linvel_z,robot_box_angvel_x,robot_box_angvel_y,robot_box_angvel_z,cube_world_x,cube_world_y,cube_world_z,cube_quat_w,cube_quat_x,cube_quat_y,cube_quat_z,cube_linvel_x,cube_linvel_y,cube_linvel_z,cube_angvel_x,cube_angvel_y,cube_angvel_z,endpoint_world_x,endpoint_world_y,endpoint_world_z,endpoint_linvel_x,endpoint_linvel_y,endpoint_linvel_z,target_cube_world_x,target_cube_world_y,target_cube_world_z,gripper_actual_pos_rad_gp_leftgearjoint,gripper_actual_vel_rad_s_gp_leftgearjoint,gripper_actual_pos_rad_gp_rotatingjoint,gripper_actual_vel_rad_s_gp_rotatingjoint,motor_angle_rad_joint1,motor_angle_rad_joint2,motor_angle_rad_joint3,motor_angle_rad_joint4,motor_speed_rad_s_joint1,motor_speed_rad_s_joint2,motor_speed_rad_s_joint3,motor_speed_rad_s_joint4
0.0,0.0,0.0,0.0,1.0,0.0,0.0,0.0,0.0,0.0,0.0,0.0,0.0,0.0,-0.36160850524902344,0.6272202134132385,0.41999998688697815,1.0,0.0,0.0,0.0,0.0,0.0,0.0,0.0,0.0,0.0,3.42540442943573e-06,-0.005000244826078415,1.313499927520752,0.0,0.0,0.0,0.36309146881103516,0.7466720342636108,0.42000001668930054,-1.5707999467849731,0.0,0.0,0.0,0.0,0.0,0.0,0.0,0.0,0.0,0.0,0.0
0.016666666666666666,0.002880760235711932,0.002177333226427436,0.0,0.9998148083686829,0.0,0.0,0.01924491487443447,0.24095608294010162,0.18228884041309357,0.0,0.0,0.0,3.141803503036499,-0.361608624458313,0.6272199153900146,0.41999998688697815,1.0,3.279964630564791e-06,-8.339746386809566e-07,8.465587342243452e-08,-1.9833529222523794e-05,0.00017983045836444944,-6.132945418357849e-05,0.0009432713268324733,-0.004689474124461412,-0.00031981561915017664,-0.0071090515702962875,0.0033882830757647753,1.3159382343292236,-0.8140377998352051,0.9871995449066162,0.18096043169498444,0.36309146881103516,0.7466720342636108,0.42000001668930054,-1.5301094055175781,3.000002861022949,-0.045848745852708817,-3.0000007152557373,0.0008700689068064094,0.0007967245765030384,0.0007112999446690083,0.0006111566326580942,0.11094947904348373,0.09758719801902771,0.08336399495601654,0.06825841218233109
0.03333333333333333,0.0089644193649292,0.006796656642109156,0.0,0.9998028874397278,0.0,0.0,0.019854921847581863,0.4070553481578827,0.3151964247226715,0.0,0.0,0.0,-0.8690869212150574,-0.36160874366760254,0.6272198557853699,0.4200000464916229,1.0,3.3908354453160428e-06,-2.1324485715012997e-06,-3.710144014235084e-08,0.00026357831666246057,0.00026937946677207947,-0.00010509486310184002,-0.0017707672668620944,0.004130808170884848,-0.000135478752781637,-0.027530893683433533,0.025949528440833092,1.3166382312774658,-1.5903853178024292,1.6112258434295654,-0.08005647361278534,0.36309146881103516,0.7466720342636108,0.42000001668930054,-1.4800902605056763,3.0000011920928955,-0.09588856995105743,-2.999999761581421,0.002990483772009611,0.0026527936570346355,0.0022773800883442163,0.001860896241851151,0.16418227553367615,0.13974224030971527,0.11380672454833984,0.08629246801137924
0.05,0.01846480369567871,0.013879568316042423,0.0,0.9999783635139465,0.0,0.0,-0.006576139014214277,0.6360803246498108,0.47170987725257874,0.0,0.0,0.0,-4.076563358306885,-0.3616087734699249,0.6272199153900146,0.4200000464916229,1.0,3.7651125239790417e-06,-2.211879063906963e-06,5.622505128144439e-09,0.000265308452071622,0.0002669153327587992,-0.00010440615005791187,-0.001724260626360774,0.004177352879196405,-0.00012949221127200872,-0.05725954845547676,0.056323155760765076,1.312208890914917,-1.9592375755310059,1.9710025787353516,-0.43023788928985596,0.36309146881103516,0.7466720342636108,0.42000001668930054,-1.4300719499588013,3.0000009536743164,-0.1459149718284607,-3.000000476837158,0.006007906049489975,0.0051698097959160805,0.004259380511939526,0.0032722861506044865,0.20707158744335175,0.1667872816324234,0.1245766207575798,0.08036470413208008
0.06666666666666667,0.030768606811761856,0.023356489837169647,0.0,0.9998873472213745,0.0,0.0,-0.01500967051833868,0.7723398804664612,0.6154798865318298,0.0,0.0,0.0,-0.0418798103928566,-0.3616087734699249,0.6272198557853699,0.4200000464916229,0.9999999403953552,3.4066883927152958e-06,-2.285532218593289e-06,4.300976286231162e-07,0.0002670241810847074,0.00026791772688739,-0.00010438147000968456,-0.00174069800414145,0.00421178387477994,-0.00012850729399360716,-0.09520988166332245,0.08788559585809708,1.3017241954803467,-2.432687759399414,1.9921252727508545,-0.8154014348983765,0.36309146881103516,0.7466720342636108,0.42000001668930054,-1.3800445795059204,2.9999983310699463,-0.12924128770828247,3.000002145767212,0.008785221725702286,0.007254351396113634,0.005610926542431116,0.003849850269034505,0.1570219099521637,0.10830123722553253,0.05744469538331032,0.004379002843052149
0.08333333333333333,0.04553009569644928,0.030650822445750237,0.0,0.9992871284484863,0.0,0.0,-0.03775239735841751,0.9493457674980164,0.377535343170166,0.0,0.0,0.0,-3.543095827102661,-0.3616087734699249,0.6272198557853699,0.4200000464916229,0.9999999403953552,3.626031229941873e-06,-2.3352447442448465e-06,3.032197639640799e-07,0.0002661392209120095,0.0002668500819709152,-0.00010405294597148895,-0.0017282416811212897,0.00419628107920289,-0.00012790791515726596,-0.1310405731201172,0.12579801678657532,1.2873311042785645,-1.9122521877288818,2.523430824279785,-0.8932718634605408,0.36309146881103516,0.7466720342636108,0.42000001668930054,-1.3300368785858154,2.999999523162842,-0.1611681431531906,-3.000002145767212,0.009968644939363003,0.00733733456581831,0.0045494865626096725,0.0016013378044590354,0.020092898979783058,-0.06378140300512314,-0.1499178260564804,-0.23827502131462097
0.1,0.054397664964199066,0.04032232239842415,0.0,0.9963198304176331,0.0,0.0,-0.08571352809667587,0.3923591673374176,0.6600577235221863,0.0,0.0,0.0,-7.111458778381348,-0.3616087734699249,0.6272198557853699,0.4200000464916229,1.0,3.4220790894323727e-06,-2.3084901386027923e-06,1.7962952369998675e-07,0.00026681559393182397,0.0002680041070561856,-0.00010440824553370476,-0.001743067754432559,0.004207110498100519,-0.0001289140636799857,-0.16564013063907623,0.1703176498413086,1.26633620262146,-2.1376760005950928,2.86418080329895,-1.5287593603134155,0.36309146881103516,0.7466720342636108,0.42000001668930054,-1.2800182104110718,2.9999988079071045,-0.12757869064807892,2.9999992847442627,0.003862001234665513,0.0004853698774240911,-0.0031002387404441833,-0.006902438122779131,-0.48065048456192017,-0.5158364176750183,-0.5535185933113098,-0.5940191745758057
0.11666666666666667,0.06514273583889008,0.052663397043943405,0.0,0.9930670261383057,0.0,0.0,-0.11754950135946274,0.841778039932251,0.6876469254493713,0.0,0.0,0.0,-2.6787497997283936,-0.3616087734699249,0.6272199153900146,0.4200000464916229,1.0,3.7114921269676415e-06,-2.3325701477006078e-06,2.574244888364774e-07,0.0002648564986884594,0.0002663535706233233,-0.0001042329240590334,-0.0017182455630972981,0.004170000087469816,-0.00012915577099192888,-0.20654211938381195,0.21166864037513733,1.2381845712661743,-2.4507317543029785,2.5917203426361084,-1.8041703701019287,0.36309146881103516,0.7466720342636108,0.42000001668930054,-1.2300184965133667,2.9999990463256836,-0.1594758778810501,-3.000000238418579,-0.0026915939524769783,-0.006934681907296181,-0.011402567848563194,-0.016105912625789642,-0.18262553215026855,-0.26710838079452515,-0.3499390780925751,-0.43112292885780334
0.13333333333333333,0.075439453125,0.061152201145887375,0.0,0.9869602918624878,0.0,0.0,-0.16096378862857819,0.6974167823791504,0.5034317970275879,0.0,0.0,0.0,-5.867391586303711,-0.3616087734699249,0.6272198557853699,0.4200000464916229,0.9999999403953552,3.4247264011355583e-06,-2.301872882526368e-06,1.559877063073145e-07,0.0002670699032023549,0.000268113479251042,-0.0001044438686221838,-0.0017433533212170005,0.004212031606584787,-0.00012877589324489236,-0.24428978562355042,0.2597258985042572,1.204895257949829,-2.0137758255004883,3.2996468544006348,-2.095146417617798,0.36309146881103516,0.7466720342636108,0.42000001668930054,-1.1799983978271484,3.000000238418579,-0.12644577026367188,2.9999990463256836,-0.008360739797353745,-0.013968369923532009,-0.019765587523579597,-0.025764688849449158,-0.19991174340248108,-0.3122369050979614,-0.42000165581703186,-0.5231000781059265
0.15,0.08469617366790771,0.06684119254350662,0.0,0.983211874961853,0.0,0.0,-0.18246765434741974,0.4897248148918152,0.2735685110092163,0.0,0.0,0.0,-1.477901577949524,-0.3616087734699249,0.6272198557853699,0.4200000464916229,1.0,3.7138852349016815e-06,-2.2076646928326227e-06,-1.690935107490077e-07,0.0002635338169056922,0.00026536203222349286,-0.00010422198101878166,-0.0017013110918924212,0.0041441041976213455,-0.00012960704043507576,-0.2811243236064911,0.31153053045272827,1.164137363433838,-2.099365711212158,3.289767265319824,-2.796447515487671,0.36309146881103516,0.7466720342636108,0.42000001668930054,-1.130003571510315,2.9999990463256836,-0.15834595263004303,-2.9999990463256836,-0.012628850527107716,-0.019808942452073097,-0.02709546871483326,-0.03450153395533562,-0.31457436084747314,-0.39036574959754944,-0.4613769054412842,-0.527751088142395
0.16666666666666666,0.08976630121469498,0.07261929661035538,0.0,0.9769994020462036,0.0,0.0,-0.21324194967746735,0.22122804820537567,0.4188269376754761,0.0,0.0,0.0,-4.511619567871094,-0.3616087734699249,0.6272198557853699,0.4200000464916229,0.9999999403953552,3.638363523350563e-06,-2.278693045809632e-06,2.700642482977855e-07,0.0002668263914529234,0.00026750031975097954,-0.00010410090908408165,-0.0017399657517671585,0.004210122860968113,-0.00012781827535945922,-0.31545618176460266,0.36941513419151306,1.1098791360855103,-1.8983265161514282,3.6292154788970947,-3.650117874145508,0.36309146881103516,0.7466720342636108,0.42000001668930054,-1.0799975395202637,3.0000011920928955,-0.13418012857437134,2.9999992847442627,-0.0199382733553648,-0.028084423393011093,-0.03625253215432167,-0.044460128992795944,-0.5261103510856628,-0.5655303597450256,-0.6002352833747864,-0.6305519938468933
0.18333333333333332,0.09810567647218704,0.07645006477832794,0.0,0.9629308581352234,0.0,0.0,-0.269748330116272,0.5392782688140869,0.15796130895614624,0.0,0.0,0.0,-7.601634502410889,-0.3616087734699249,0.6272198557853699,0.4200000464916229,1.0,3.3864323540910846e-06,-2.300143023603596e-06,1.4392101377325162e-07,0.00026674565742723644,0.0002678720629774034,-0.00010437029413878918,-0.0017412372399121523,0.004205969627946615,-0.0001287883351324126,-0.34231626987457275,0.4357750415802002,1.0409190654754639,-1.232759714126587,4.190406322479248,-4.525694847106934,0.36309146881103516,0.7466720342636108,0.42000001668930054,-1.0299891233444214,2.99999737739563,-0.166072815656662,-2.999999761581421,-0.029336541891098022,-0.037854474037885666,-0.046336498111486435,-0.054806649684906006,-0.7337228059768677,-0.7250113487243652,-0.714645504951477,-0.7030640840530396
0.2,0.10137520730495453,0.08301960676908493,0.0,0.9521945118904114,0.0,0.0,-0.30549243092536926,0.18632462620735168,0.4095815420150757,0.0,0.0,0.0,-3.140707015991211,-0.3616087734699249,0.6272199153900146,0.4200000464916229,1.0,3.6755022847501095e-06,-2.3264412902790355e-06,2.211315717204343e-07,0.00026484468253329396,0.00026631311629898846,-0.00010421779006719589,-0.0017176943365484476,0.0041699339635670185,-0.00012910230725537986,-0.363328754901886,0.4945026636123657,0.957093358039856,-0.9292365312576294,3.394657611846924,-5.337392807006836,0.36309146881103516,0.7466720342636108,0.42000001668930054,-0.9799792170524597,3.0000009536743164,-0.21610230207443237,-3.000000476837158,-0.04499842971563339,-0.05355706065893173,-0.06206116825342178,-0.07053716480731964,-0.7853983044624329,-0.8109924793243408,-0.8350789546966553,-0.8564728498458862
0.21666666666666667,0.10308187454938889,0.08774988353252411,0.0,0.9370423555374146,0.0,0.0,-0.34921571612358093,0.08112681657075882,0.14969632029533386,0.0,0.0,0.0,-6.558438301086426,-0.3616087734699249,0.6272198557853699,0.4200000464916229,1.0,3.322260681670741e-06,-2.2079154859966366e-06,2.7427799409451836e-07,0.0002666290965862572,0.0002674963907338679,-0.00010426202788949013,-0.0017359007615596056,0.004204810131341219,-0.00012833699292968959,-0.3763449788093567,0.5484606027603149,0.8615967035293579,-0.40338197350502014,3.080030679702759,-6.001972675323486,0.36309146881103516,0.7466720342636108,0.42000001668930054,-0.929968535900116,2.9999959468841553,-0.2661338448524475,-2.9999988079071045,-0.05999606102705002,-0.06852226704359055,-0.07698409259319305,-0.08539614826440811,-0.9104865789413452,-0.8971911072731018,-0.8835047483444214,-0.868878960609436
0.23333333333333334,0.10262200236320496,0.09329269081354141,0.0,0.9271093010902405,0.0,0.0,-0.37479108572006226,-0.11726062744855881,0.3769068419933319,0.0,0.0,0.0,-2.092459201812744,-0.3616087734699249,0.6272198557853699,0.4200000464916229,1.0,3.656489070635871e-06,-2.3733603029540973e-06,-4.076755999449233e-07,0.0002661180915310979,0.0002672612317837775,-0.0001042359508574009,-0.0017336306627839804,0.004194698762148619,-0.00012855089153163135,-0.38421568274497986,0.5886552333831787,0.7599571943283081,-0.19770124554634094,1.9508183002471924,-6.174910545349121,0.36309146881103516,0.7466720342636108,0.42000001668930054,-0.8799578547477722,2.9999969005584717,-0.3161664605140686,-2.999999761581421,-0.07634954899549484,-0.08490372449159622,-0.09338188916444778,-0.10177832841873169,-0.9968830943107605,-0.9968685507774353,-0.9968335628509521,-0.9967989325523376
0.25,0.10630817711353302,0.09399615228176117,0.0,0.929265558719635,0.0,0.0,-0.3694123923778534,0.16872462630271912,0.06461693346500397,0.0,0.0,0.0,1.1007732152938843,-0.3616087734699249,0.6272199153900146,0.4200000464916229,1.0,3.630517994679394e-06,-2.2426397663366515e-06,1.121150816629779e-08,0.00026679891743697226,0.00026706024073064327,-0.00010390975512564182,-0.0017342222854495049,0.0042105624452233315,-0.00012703027459792793,-0.39387449622154236,0.6122578978538513,0.6590163707733154,-0.4202072024345398,0.7646166682243347,-6.090847015380859,0.36309146881103516,0.7466720342636108,0.42000001668930054,-0.8299482464790344,2.999999523162842,-0.3661988079547882,-2.999999523162842,-0.09027029573917389,-0.09894804656505585,-0.10730180889368057,-0.11559941619634628,-1.0084056854248047,-1.0059722661972046,-1.0041788816452026,-1.0028036832809448
0.26666666666666666,0.10510782152414322,0.09369076788425446,0.0,0.9246835112571716,0.0,0.0,-0.3807366192340851,-0.15547962486743927,-0.05048660933971405,0.0,0.0,0.0,-2.3474321365356445,-0.36160874366760254,0.6272198557853699,0.4200000464916229,0.9999999403953552,3.7401498502731556e-06,-2.2362885374604957e-06,4.49968922566768e-07,0.0002647954970598221,0.0002667295339051634,-0.00010454049333930016,-0.001718834857456386,0.004166595637798309,-0.0001301696029258892,-0.39204150438308716,0.618620753288269,0.5592647790908813,0.5298240780830383,-0.028835177421569824,-5.732171058654785,0.36309146881103516,0.7466720342636108,0.42000001668930054,-0.7799394726753235,3.00000262260437,-0.41622987389564514,-2.999999761581421,-0.10843990743160248,-0.11674713343381882,-0.12481923401355743,-0.1328941136598587,-1.0083097219467163,-1.006264567375183,-1.0047070980072021,-1.0034661293029785
0.2833333333333333,0.10087870806455612,0.09136125445365906,0.0,0.9262294769287109,0.0,0.0,-0.37696021795272827,-0.2392149567604065,-0.20243436098098755,0.0,0.0,0.0,1.3251968622207642,-0.3616087734699249,0.6272198557853699,0.4200000464916229,1.0,3.3916360280272784e-06,-2.2911317500984296e-06,1.2459808829135e-07,0.00026677202549763024,0.0002678929304238409,-0.00010437355376780033,-0.0017412655288353562,0.004206337500363588,-0.0001287838094867766,-0.3829028010368347,0.6207354664802551,0.4730684757232666,0.6246085166931152,0.26633119583129883,-4.77238655090332,0.36309146881103516,0.7466720342636108,0.42000001668930054,-0.729931116104126,3.0000011920928955,-0.4662589430809021,-2.9999985694885254,-0.12497667968273163,-0.1333800107240677,-0.14158613979816437,-0.14978215098381042,-0.9124157428741455,-0.9560007452964783,-0.9984724521636963,-1.000104546546936
0.3,0.0951780453324318,0.0864650085568428,0.0,0.9218469858169556,0.0,0.0,-0.38755398988723755,-0.38958433270454407,-0.33252355456352234,0.0,0.0,0.0,-2.2485175132751465,-0.3616119921207428,0.6271990537643433,0.42000287771224976,0.9999998807907104,0.00015517558495048434,1.2188714208605234e-05,-0.00024061858130153269,0.01661059632897377,-0.08426330238580704,-0.007547702640295029,0.09387657046318054,-0.6104177832603455,-2.8137128353118896,-0.3766269087791443,0.6246689558029175,0.4280105233192444,0.10072441399097443,-0.017997343093156815,-0.2360685169696808,0.36309146881103516,0.7466720342636108,0.42000001668930054,-0.6799270510673523,2.993912696838379,-0.5166900157928467,-2.9978766441345215,-0.13950303196907043,-0.1476253867149353,-0.1555279642343521,-0.16303567588329315,-0.6039734482765198,-0.5847384333610535,-0.5596708655357361,-0.48602619767189026
0.31666666666666665,0.08721312135457993,0.07938233017921448,0.0,0.9238499402999878,0.0,0.0,-0.3827548623085022,-0.5177822709083557,-0.46354255080223083,0.0,0.0,0.0,1.5438052415847778,-0.36144185066223145,0.6267030239105225,0.42000001668930054,0.9999793767929077,-3.084754212068219e-07,1.9631379188922438e-07,-0.0064231958240270615,0.005233920644968748,-0.010339542292058468,-6.128102540969849e-06,0.0003883798199240118,-0.00012582117051351815,-0.26679617166519165,-0.3752133846282959,0.6317893266677856,0.42476338148117065,0.21111281216144562,0.5458335280418396,-0.18525980412960052,0.36309146881103516,0.7466720342636108,0.42000001668930054,-0.6299210786819458,2.99996280670166,-0.5667610764503479,-3.0000009536743164,-0.15023425221443176,-0.15734629333019257,-0.16410331428050995,-0.16975553333759308,-0.6335703730583191,-0.5502952337265015,-0.4574085772037506,-0.3274141848087311
0.3333333333333333,0.07695181667804718,0.0700450986623764,0.0,0.9198845624923706,0.0,0.0,-0.3921892046928406,-0.6598934531211853,-0.6009729504585266,0.0,0.0,0.0,-2.153499126434326,-0.3596063256263733,0.6303735971450806,0.42000100016593933,0.9976546168327332,-3.023439148819307e-06,-0.00015011754294391721,-0.06844903528690338,0.08848467469215393,0.1816636621952057,-0.00017839932115748525,-0.0057127648033201694,0.012250031344592571,-5.443321228027344,-0.37180566787719727,0.6356545686721802,0.42435675859451294,0.21843522787094116,0.15053027868270874,0.20748522877693176,0.36309146881103516,0.7466720342636108,0.42000001668930054,-0.5799161195755005,2.9999964237213135,-0.6168090105056763,-2.9999992847442627,-0.16131728887557983,-0.16651755571365356,-0.17113254964351654,-0.17407694458961487,-0.6389567255973816,-0.4991281032562256,-0.34415894746780396,-0.16018913686275482
0.35,0.06454522907733917,0.058513037860393524,0.0,0.9222084283828735,0.0,0.0,-0.38669323921203613,-0.7896028757095337,-0.7311286330223083,0.0,0.0,0.0,1.6471613645553589,-0.35603466629981995,0.6372905373573303,0.42048507928848267,0.9915378093719482,-0.006685612723231316,0.0034329446498304605,-0.12960055470466614,0.3826359212398529,0.6945565938949585,0.03563036769628525,0.7112948298454285,-1.1753939390182495,-5.790183067321777,-0.36725717782974243,0.6433277130126953,0.42558616399765015,0.3682747781276703,0.6817562580108643,-0.07300736755132675,0.36309146881103516,0.7466720342636108,0.42000001668930054,-0.5299111604690552,3.0000011920928955,-0.6668349504470825,-3.000000476837158,-0.17208164930343628,-0.1746506243944168,-0.17634858191013336,-0.1759577840566635,-0.5856637954711914,-0.42780226469039917,-0.251772403717041,-0.05415162444114685
0.36666666666666664,0.05540096014738083,0.044294074177742004,0.0,0.918530285358429,0.0,0.0,-0.39535069465637207,-0.4636571705341339,-0.9011868834495544,0.0,0.0,0.0,-2.049050807952881,-0.34877899289131165,0.6497440338134766,0.4200001060962677,0.9851334691047668,-2.1973390175844543e-05,1.6672105630277656e-05,-0.17179057002067566,0.5759937763214111,0.9045388698577881,-0.000684776809066534,0.03404395654797554,-0.012321979738771915,-5.783514022827148,-0.35667482018470764,0.6551295518875122,0.42145997285842896,0.8739609122276306,0.7455226182937622,-0.38960862159729004,0.36309146881103516,0.7466720342636108,0.42000001668930054,-0.4799065887928009,2.9999897480010986,-0.7168596386909485,-3.000000476837158,-0.18126055598258972,-0.18087910115718842,-0.17928199470043182,-0.17527775466442108,-0.4867894947528839,-0.3016245365142822,-0.09580951929092407,0.1252540498971939
0.3833333333333333,0.05069716274738312,0.027517933398485184,0.0,0.902776837348938,0.0,0.0,-0.43010926246643066,-0.20972590148448944,-1.0654194355010986,0.0,0.0,0.0,-5.453060626983643,-0.3363589644432068,0.6675276756286621,0.4201425313949585,0.9773674011230469,0.003167679300531745,-0.0007413146668113768,-0.2115239053964615,1.1276257038116455,1.1079561710357666,0.21802929043769836,5.468050956726074,-6.466765403747559,-9.408747673034668,-0.34082549810409546,0.6695351004600525,0.421537309885025,1.1801888942718506,1.112286925315857,0.16464847326278687,0.36309146881103516,0.7466720342636108,0.42000001668930054,-0.42990049719810486,2.984449625015259,-0.7669301629066467,-3.000556707382202,-0.18753746151924133,-0.1843670755624771,-0.1795647144317627,-0.17207859456539154,-0.28584548830986023,-0.13521455228328705,0.039474476128816605,0.2278003990650177
0.4,0.047971416264772415,0.014984042383730412,0.0,0.8725430965423584,0.0,0.0,-0.48853713274002075,-0.12434398382902145,-0.6425056457519531,0.0,0.0,0.0,-8.737397193908691,-0.298938125371933,0.6917291879653931,0.42456820607185364,0.9658496379852295,0.015703817829489708,-0.037561558187007904,-0.2558845579624176,3.281888484954834,2.0365185737609863,0.555065929889679,-10.904409408569336,1.565412998199463,-8.348655700683594,-0.3033444583415985,0.694781482219696,0.4254569411277771,3.312020778656006,2.037433624267578,0.3525688052177429,0.36309146881103516,0.7466720342636108,0.42000001668930054,-0.3912675380706787,1.2061926126480103,-0.8169541358947754,-2.997551441192627,-0.19832837581634521,-0.19135382771492004,-0.18251869082450867,-0.1710139364004135,-0.7259179353713989,-0.47862353920936584,-0.22475047409534454,0.019189830869436264
0.4166666666666667,0.04770325496792793,0.008804675191640854,0.0,0.825310230255127,0.0,0.0,-0.5646795630455017,0.0552031472325325,-0.4819711148738861,0.0,0.0,0.0,-11.252857208251953,-0.22040796279907227,0.7303550839424133,0.4305990934371948,0.9429584741592407,0.07115213572978973,-0.08383139222860336,-0.31422728300094604,6.150529861450195,2.367623805999756,0.42285460233688354,22.311553955078125,-14.872844696044922,21.4846248626709,-0.22372093796730042,0.7340706586837769,0.4315934181213379,5.665003299713135,2.866488218307495,0.43873441219329834,0.36309146881103516,0.7466720342636108,0.42000001668930054,-0.37592557072639465,0.9595453143119812,-0.782677412033081,2.9947078227996826,-0.21272023022174835,-0.20305205881595612,-0.18940001726150513,-0.17352880537509918,-0.4051486551761627,-0.44635993242263794,-0.26361870765686035,-0.10445263236761093
0.43333333333333335,0.04355946555733681,0.005946607328951359,0.0,0.7862383127212524,0.0,0.0,-0.617923378944397,-0.3460816442966461,-0.07979506254196167,0.0,0.0,0.0,-6.863274097442627,-0.12530124187469482,0.7709937691688538,0.4414398670196533,0.8960330486297607,0.11295323818922043,-0.10618775337934494,-0.4160414934158325,5.907494068145752,1.4848103523254395,0.8672191500663757,-4.263756275177002,0.033974140882492065,2.2900192737579346,-0.12913410365581512,0.7753814458847046,0.44172215461730957,5.7833733558654785,2.076033115386963,0.6762694120407104,0.36309146881103516,0.7466720342636108,0.42000001668930054,-0.35913631319999695,1.0449345111846924,-0.8097572922706604,-3.000000476837158,-0.22464166581630707,-0.21419097483158112,-0.19705311954021454,-0.1783389002084732,-0.7193456292152405,-0.6494619250297546,-0.4606671929359436,-0.31469810009002686
0.45,0.04302377626299858,-0.0023606379982084036,0.0,0.7657909989356995,0.0,0.0,-0.6430894732475281,0.10913553088903427,-0.6705812811851501,0.0,0.0,0.0,-2.858621120452881,-0.0265512578189373,0.7974538803100586,0.4519517421722412,0.829273521900177,0.11979056149721146,-0.1326305866241455,-0.5294947624206543,5.9549174308776855,0.2816910743713379,0.6803403496742249,-7.171343803405762,4.429032802581787,8.568730354309082,-0.03158711642026901,0.8036244511604309,0.4515190124511719,6.05250358581543,1.218472957611084,0.6224852204322815,0.36309146881103516,0.7466720342636108,0.42000001668930054,-0.34076961874961853,0.9977577924728394,-0.8597813844680786,-2.9999325275421143,-0.23020528256893158,-0.2187899351119995,-0.19923627376556396,-0.1787218600511551,-0.1700284779071808,-0.1034703180193901,0.022392965853214264,0.11543821543455124
0.4666666666666667,0.04268185794353485,-0.00805483665317297,0.0,0.7644938230514526,0.0,0.0,-0.6446310877799988,-0.07638760656118393,-0.2397879809141159,0.0,0.0,0.0,0.9350405931472778,0.0677395686507225,0.8074170351028442,0.46079909801483154,0.7534012198448181,0.11308108270168304,-0.12425616383552551,-0.6357355713844299,5.49100399017334,-0.23183518648147583,0.562744677066803,2.199824094772339,-18.334728240966797,4.973346710205078,0.06291082501411438,0.8160906434059143,0.4605865478515625,5.263494491577148,0.2660709619522095,0.5580853223800659,0.36309146881103516,0.7466720342636108,0.42000001668930054,-0.3275931477546692,0.5177074670791626,-0.9098070859909058,-3.0000033378601074,-0.23453904688358307,-0.22213639318943024,-0.20106491446495056,-0.17954617738723755,-0.18935751914978027,-0.1584988236427307,-0.11946507543325424,-0.10805929452180862
0.48333333333333334,0.04382941871881485,-0.00939483568072319,0.0,0.756761908531189,0.0,0.0,-0.6536905765533447,0.12088663130998611,-0.02521401457488537,0.0,0.0,0.0,-2.283891439437866,0.14972954988479614,0.805995523929596,0.46490055322647095,0.7067224383354187,0.10710838437080383,-0.13200712203979492,-0.6867642998695374,4.494577884674072,-1.271490454673767,0.008953485637903214,-9.922451972961426,-7.432610511779785,21.61569595336914,0.14696267247200012,0.8154276609420776,0.46537089347839355,4.956158638000488,-0.4897304177284241,0.24708975851535797,0.36309146881103516,0.7466720342636108,0.42000001668930054,-0.32043781876564026,0.33822908997535706,-0.9598316550254822,-3.0000033378601074,-0.23672011494636536,-0.22394037246704102,-0.20252206921577454,-0.18092140555381775,-0.09608842432498932,-0.06003411486744881,-0.03879912570118904,-0.02802892029285431
0.5,0.04793771728873253,-0.011156490072607994,0.0,0.7597118020057678,0.0,0.0,-0.6502599120140076,0.29860568046569824,-0.12065224349498749,0.0,0.0,0.0,1.4430991411209106,0.2241862267255783,0.7924177050590515,0.4637582004070282,0.6215710639953613,0.07194766402244568,-0.14365212619304657,-0.7667052745819092,3.886803388595581,-1.4256138801574707,-0.32282769680023193,-14.147018432617188,-1.0211423635482788,4.694132328033447,0.22161245346069336,0.8030483722686768,0.4652414917945862,4.212834358215332,-1.0281294584274292,-0.05380401760339737,0.36309146881103516,0.7466720342636108,0.42000001668930054,-0.31266993284225464,0.5461021661758423,-1.0098552703857422,-3.0000009536743164,-0.2350309193134308,-0.2221510410308838,-0.20116521418094635,-0.18015776574611664,0.19511879980564117,0.18832559883594513,0.13400274515151978,0.0693017840385437
0.5166666666666666,0.05328414961695671,-0.009442387148737907,0.0,0.7532632350921631,0.0,0.0,-0.6577191352844238,0.3593103289604187,0.1630394011735916,0.0,0.0,0.0,-2.082843542098999,0.2881922125816345,0.7727338671684265,0.45153436064720154,0.4864582121372223,-0.044856585562229156,-0.23589226603507996,-0.8400602340698242,3.5447895526885986,-1.1043946743011475,-0.9755994081497192,-15.615174293518066,-0.38548019528388977,-21.139944076538086,0.28283658623695374,0.7876604795455933,0.45902544260025024,3.2849717140197754,-0.9709413647651672,-0.5613897442817688,0.36309146881103516,0.7466720342636108,0.42000001668930054,-0.29859408736228943,1.2326992750167847,-1.0598773956298828,-2.9996116161346436,-0.2322508841753006,-0.21994549036026,-0.20041519403457642,-0.1809462606906891,0.26567283272743225,0.19835297763347626,0.07181636989116669,-0.0564115047454834
0.5333333333333333,0.06047622859477997,-0.01032059732824564,0.0,0.7569657564163208,0.0,0.0,-0.6534545421600342,0.4672454297542572,-0.131415456533432,0.0,0.0,0.0,1.5657994747161865,0.33319416642189026,0.7526155710220337,0.43662288784980774,0.46923115849494934,-0.07846587151288986,-0.21248917281627655,-0.8535299897193909,2.295161724090576,-1.6230063438415527,-0.8489877581596375,-3.657994508743286,12.767186164855957,3.565127372741699,0.33093100786209106,0.7668629884719849,0.4451272785663605,2.3663110733032227,-1.342484951019287,-0.9967496395111084,0.36309146881103516,0.7466720342636108,0.42000001668930054,-0.2823964059352875,0.7734002470970154,-1.1098995208740234,-2.999913454055786,-0.2287377119064331,-0.21707023680210114,-0.19934295117855072,-0.18179623782634735,0.24511949717998505,0.20300185680389404,0.08523537218570709,-0.04067281261086464
0.55,0.06571663171052933,-0.007442567963153124,0.0,0.7508105635643005,0.0,0.0,-0.6605176329612732,0.24660730361938477,0.20077186822891235,0.0,0.0,0.0,-1.932460069656372,0.36153507232666016,0.7403759956359863,0.42717114090919495,0.4675164818763733,-0.0772852674126625,-0.12512163817882538,-0.8716649413108826,1.0664170980453491,-0.5098679661750793,0.28716930747032166,-18.827177047729492,0.2697427272796631,0.6920949816703796,0.35986340045928955,0.7515922784805298,0.4342944025993347,0.9717203378677368,-0.40223145484924316,0.057811055332422256,0.36309146881103516,0.7466720342636108,0.42000001668930054,-0.27246248722076416,0.45054304599761963,-1.159921646118164,-3.0000007152557373,-0.22546927630901337,-0.21491797268390656,-0.199486643075943,-0.1842542439699173,0.36661770939826965,0.24408191442489624,0.0610879510641098,-0.1109766960144043
0.5666666666666667,0.07159741222858429,-0.009450361132621765,0.0,0.7550070285797119,0.0,0.0,-0.6557167172431946,0.3760959804058075,-0.1457872837781906,0.0,0.0,0.0,1.5508188009262085,0.37212085723876953,0.7336350083351135,0.42762959003448486,0.4668995141983032,-0.12995530664920807,-0.12844078242778778,-0.8652278780937195,0.13948304951190948,-0.6712710857391357,0.12544944882392883,-9.307140350341797,2.878723621368408,10.126802444458008,0.37026888132095337,0.744077742099762,0.4329849183559418,0.1177363395690918,-0.3651837706565857,0.09131236374378204,0.36309146881103516,0.7466720342636108,0.42000001668930054,-0.2692417502403259,-0.315247118473053,-1.2099437713623047,-3.0000083446502686,-0.21616756916046143,-0.2079627513885498,-0.19586452841758728,-0.1837649643421173,0.4569713771343231,0.3451976180076599,0.1739465445280075,0.011883090250194073
0.5833333333333334,0.07788223028182983,-0.008036686107516289,0.0,0.7489231824874878,0.0,0.0,-0.6626567840576172,0.40037140250205994,0.09165168553590775,0.0,0.0,0.0,-1.9397623538970947,0.37238064408302307,0.7317238450050354,0.4263628125190735,0.5017105937004089,-0.09358804672956467,-0.10773181170225143,-0.8531832098960876,-0.12838615477085114,0.001330475090071559,-0.09725567698478699,6.534422397613525,-3.47644305229187,5.128786563873291,0.36969733238220215,0.7419509291648865,0.4285533130168915,-0.14217209815979004,0.010938219726085663,-0.5280356407165527,0.36309146881103516,0.7466720342636108,0.42000001668930054,-0.2841375470161438,-1.213549017906189,-1.181959867477417,2.9999969005584717,-0.20800071954727173,-0.20221832394599915,-0.19341425597667694,-0.184373140335083,0.6352059841156006,0.44949179887771606,0.21830831468105316,0.005969350691884756
0.6,0.08588770031929016,-0.004627350252121687,0.0,0.753791332244873,0.0,0.0,-0.6571138501167297,0.5149664282798767,0.2669566869735718,0.0,0.0,0.0,1.7716132402420044,0.3703913986682892,0.7313445210456848,0.4235766530036926,0.5334078669548035,-0.035207413136959076,-0.05938692390918732,-0.8430359959602356,-0.11645641177892685,-0.031217258423566818,-0.1898501217365265,9.51812744140625,-2.1532788276672363,3.781954526901245,0.3663693964481354,0.741033673286438,0.42486655712127686,-0.3108653426170349,-0.05313156545162201,-0.1789129078388214,0.36309146881103516,0.7466720342636108,0.42000001668930054,-0.3298097252845764,-2.999986410140991,-1.2042185068130493,-3.000000238418579,-0.19805631041526794,-0.19525976479053497,-0.19008105993270874,-0.18431593477725983,0.5905895829200745,0.4147183895111084,0.2035895586013794,0.012379483319818974
0.6166666666666667,0.09625309705734253,-0.004975292831659317,0.0,0.7484022378921509,0.0,0.0,-0.6632451415061951,0.6317909359931946,-0.05157990753650665,0.0,0.0,0.0,-1.89150869846344,0.3689209222793579,0.7301923632621765,0.42002689838409424,0.5531930327415466,0.000440699455793947,-4.796533175976947e-05,-0.8330529928207397,0.0190143883228302,-0.12338370829820633,-0.008969869464635849,-0.19961701333522797,0.5417619347572327,0.4612590968608856,0.36567652225494385,0.7453181743621826,0.4256661832332611,-0.10357009619474411,0.3489203155040741,0.2007390558719635,0.36309146881103516,0.7466720342636108,0.42000001668930054,-0.37990185618400574,-2.999999523162842,-1.2541579008102417,-2.999178409576416,-0.1846613734960556,-0.18535754084587097,-0.18412524461746216,-0.1819034069776535,0.7254050374031067,0.5406321883201599,0.3306768834590912,0.14167246222496033
0.6333333333333333,0.10827134549617767,-0.0011023838305845857,0.0,0.7535505890846252,0.0,0.0,-0.6573899388313293,0.7422552108764648,0.2331155389547348,0.0,0.0,0.0,1.7969712018966675,0.3687792420387268,0.7294338345527649,0.42009270191192627,0.550869345664978,0.0012903449824079871,-0.0019270774209871888,-0.8345882296562195,-0.033438652753829956,-0.004319875966757536,0.011555897071957588,-0.23303072154521942,-0.5390259027481079,-0.5951398611068726,0.362644225358963,0.7479142546653748,0.4289194941520691,-0.13398541510105133,0.1632707715034485,0.19375190138816833,0.36309146881103516,0.7466720342636108,0.42000001668930054,-0.4299389719963074,-2.999455213546753,-1.3041610717773438,-2.99932599067688,-0.17718704044818878,-0.17996636033058167,-0.1812344193458557,-0.1812722086906433,0.4928421080112457,0.36133143305778503,0.20985884964466095,0.07345250248908997
0.65,0.11763329058885574,-0.0014074775390326977,0.0,0.7483112215995789,0.0,0.0,-0.6633477807044983,0.4977084696292877,-0.05729295685887337,0.0,0.0,0.0,-1.873305082321167,0.36873599886894226,0.7293776869773865,0.4200000464916229,0.5498890280723572,5.22167908911797e-07,-2.437235707475338e-06,-0.8352376818656921,0.00011869131412822753,-7.108859426807612e-05,-5.415817577159032e-05,1.2597395652846899e-05,-0.00045490553020499647,-0.0004874891019426286,0.36254483461380005,0.751072883605957,0.4329071640968323,-0.028049491345882416,0.06873812526464462,0.2798936069011688,0.36309146881103516,0.7466720342636108,0.42000001668930054,-0.47997283935546875,-3.0000011920928955,-1.354132890701294,-2.9995203018188477,-0.16817258298397064,-0.17273278534412384,-0.17597953975200653,-0.17770108580589294,0.4223494529724121,0.3706718981266022,0.3102855980396271,0.26500841975212097
0.6666666666666666,0.12802843749523163,-0.005326674319803715,0.0,0.7251379489898682,0.0,0.0,-0.6886035799980164,0.6529547572135925,-0.34325316548347473,0.0,0.0,0.0,-4.893741607666016,0.3687359690666199,0.7293777465820312,0.4200000464916229,0.5498892068862915,1.9087609359758062e-07,-2.435123178656795e-06,-0.8352375030517578,4.971724411007017e-05,-0.00025124489911831915,-7.860246114432812e-05,0.006486637983471155,-0.0019983428064733744,-0.0007146266871131957,0.3648514151573181,0.75510573387146,0.4430875778198242,0.3011547029018402,0.34016141295433044,1.0589675903320312,0.36309146881103516,0.7466720342636108,0.42000001668930054,-0.5299854874610901,-2.9999969005584717,-1.4041513204574585,-2.999999523162842,-0.1634654700756073,-0.16838127374649048,-0.17203950881958008,-0.17391392588615417,0.16228410601615906,0.17365561425685883,0.18523694574832916,0.21141991019248962
0.6833333333333333,0.1412573605775833,-0.005066372454166412,0.0,0.7140452861785889,0.0,0.0,-0.700099527835846,0.7634472250938416,0.03172885254025459,0.0,0.0,0.0,-0.8899465799331665,0.3687359690666199,0.7293777465820312,0.4200000464916229,0.5498889684677124,2.809818795412866e-07,-2.6706647986429743e-06,-0.8352378010749817,4.882748544332571e-05,-0.0002512542705517262,-7.82886054366827e-05,0.006495372392237186,-0.002003192901611328,-0.0007116110064089298,0.36897093057632446,0.760969877243042,0.4689934253692627,0.29155468940734863,0.5886104106903076,1.9767560958862305,0.36309146881103516,0.7466720342636108,0.42000001668930054,-0.5799885392189026,-2.9999940395355225,-1.4541696310043335,-3.000000238418579,-0.166990727186203,-0.1708376705646515,-0.17346565425395966,-0.17418915033340454,-0.09911314398050308,-0.0818633884191513,-0.06140050292015076,-0.030049549415707588
0.7,0.1507410854101181,-0.0020909614395350218,0.0,0.7244174480438232,0.0,0.0,-0.689361572265625,0.5252366662025452,0.1835651993751526,0.0,0.0,0.0,2.596489429473877,0.3687359690666199,0.7293777465820312,0.4200000464916229,0.5498891472816467,7.713830996181059e-08,-2.9676687063329155e-06,-0.8352376222610474,4.568036092678085e-05,-0.0002540934656281024,-7.772864773869514e-05,0.00658544572070241,-0.0020556554663926363,-0.0007113805040717125,0.376533567905426,0.7669659852981567,0.49682021141052246,0.5833501815795898,0.24640098214149475,1.4245418310165405,0.36309146881103516,0.7466720342636108,0.42000001668930054,-0.6025042533874512,0.050109751522541046,-1.5041879415512085,-3.0,-0.16917158663272858,-0.1722838580608368,-0.1740463227033615,-0.17371390759944916,-0.05017606541514397,-0.0033182513434439898,0.05506233870983124,0.12593936920166016
0.7166666666666667,0.15625326335430145,-0.004769822116941214,0.0,0.7233043909072876,0.0,0.0,-0.6905293464660645,0.2873082160949707,-0.1444573998451233,0.0,0.0,0.0,-1.044273018836975,0.3687359690666199,0.7293776869773865,0.4200000464916229,0.5498894453048706,2.6827459009837185e-07,-2.800827587634558e-06,-0.835237443447113,5.021852484787814e-05,-0.0002500202099326998,-7.853726856410503e-05,0.006455992814153433,-0.0019802176393568516,-0.0007124235853552818,0.3846505880355835,0.7716668844223022,0.5143345594406128,0.330679327249527,0.023308992385864258,0.839195728302002,0.36309146881103516,0.7466720342636108,0.42000001668930054,-0.6261416673660278,-2.6303231716156006,-1.4654488563537598,3.000000238418579,-0.16550827026367188,-0.16841183602809906,-0.1698170155286789,-0.16898390650749207,0.0029631834477186203,0.07407549768686295,0.14494509994983673,0.21211786568164825
0.7333333333333333,0.16346530616283417,-0.0026846290566027164,0.0,0.7324366569519043,0.0,0.0,-0.6808351874351501,0.4306739866733551,0.09647310525178909,0.0,0.0,0.0,2.4258227348327637,0.3687359690666199,0.7293776869773865,0.4200000464916229,0.5498894453048706,2.8510783067758894e-07,-2.901153038692428e-06,-0.8352373838424683,5.2406761824386194e-05,-0.0002492126659490168,-7.900688797235489e-05,0.006422300823032856,-0.0019520309288054705,-0.000715808302629739,0.3912771940231323,0.7713826298713684,0.5297303199768066,0.502846360206604,0.1458078771829605,1.0087531805038452,0.36309146881103516,0.7466720342636108,0.42000001668930054,-0.6389083862304688,0.8082772493362427,-1.482317328453064,-3.0,-0.16812901198863983,-0.16951251029968262,-0.16945405304431915,-0.1673039197921753,0.01615004986524582,0.05786717310547829,0.09982039779424667,0.13641059398651123
0.75,0.16776025295257568,-0.004986735992133617,0.0,0.7305759787559509,0.0,0.0,-0.6828314065933228,0.21226948499679565,-0.17155198752880096,0.0,0.0,0.0,-1.2085950374603271,0.3687359690666199,0.7293777465820312,0.4200000464916229,0.549889326095581,1.9146990837271005e-07,-2.742523747656378e-06,-0.8352375626564026,4.7423309297300875e-05,-0.00025212063337676227,-7.807137444615364e-05,0.006524286698549986,-0.0020260887686163187,-0.0007111794548109174,0.3985285758972168,0.7722573280334473,0.540647029876709,0.3390357196331024,-0.16092514991760254,0.46088045835494995,0.36309146881103516,0.7466720342636108,0.42000001668930054,-0.6576910018920898,-2.7373595237731934,-1.4436423778533936,3.000000238418579,-0.1671684831380844,-0.16773466765880585,-0.16688966751098633,-0.16409675776958466,-0.04008116573095322,0.041703514754772186,0.11712413281202316,0.17807124555110931
0.7666666666666666,0.1725856512784958,-0.004080316051840782,0.0,0.7381674647331238,0.0,0.0,-0.6746175289154053,0.33546945452690125,0.06205960735678673,0.0,0.0,0.0,2.181396484375,0.3687359690666199,0.7293777465820312,0.4200000464916229,0.5498890280723572,6.030589361216698e-08,-2.8580325306393206e-06,-0.8352376818656921,4.546974741970189e-05,-0.0002541661961004138,-7.767113856971264e-05,0.0065887379460036755,-0.002057927194982767,-0.0007107241544872522,0.4059793949127197,0.7691987752914429,0.548879861831665,0.600547730922699,-0.10083018243312836,0.5755922794342041,0.36309146881103516,0.7466720342636108,0.42000001668930054,-0.6707279086112976,0.8706316351890564,-1.4609241485595703,-3.000000238418579,-0.1691942811012268,-0.16831552982330322,-0.16609755158424377,-0.16215209662914276,-0.00270397518761456,0.051942747086286545,0.10632407665252686,0.15192125737667084
0.7833333333333333,0.1751636266708374,-0.0058552962727844715,0.0,0.7351794838905334,0.0,0.0,-0.6778725385665894,0.0989973321557045,-0.16341976821422577,0.0,0.0,0.0,-1.3644980192184448,0.3687359690666199,0.7293777465820312,0.4200000464916229,0.5498888492584229,2.5550173177180113e-07,-2.7380349365557777e-06,-0.8352377414703369,4.527057535597123e-05,-0.00025438080774620175,-7.764971815049648e-05,0.006595246493816376,-0.0020618459675461054,-0.0007108059944584966,0.4143615961074829,0.7666170597076416,0.5547354221343994,0.40251922607421875,-0.23833146691322327,0.2701888084411621,0.36309146881103516,0.7466720342636108,0.42000001668930054,-0.6805766820907593,-1.8114004135131836,-1.4223151206970215,2.999999761581421,-0.17011435329914093,-0.16813503205776215,-0.16485410928726196,-0.16003213822841644,-0.06957343965768814,0.003009069012477994,0.07098697870969772,0.125505268573761
0.8,0.17856355011463165,-0.005296067334711552,0.0,0.7421344518661499,0.0,0.0,-0.6702510714530945,0.25248897075653076,0.06190614402294159,0.0,0.0,0.0,2.03554630279541,0.36873599886894226,0.7293777465820312,0.4200000464916229,0.5498891472816467,4.358275305094139e-07,-2.8800295694964007e-06,-0.8352376222610474,4.721711957245134e-05,-0.0002542825532145798,-7.802573963999748e-05,0.006582228466868401,-0.002038117265328765,-0.0007150221499614418,0.42172202467918396,0.7622987031936646,0.5601556301116943,0.5139521956443787,-0.18162424862384796,0.42575615644454956,0.36309146881103516,0.7466720342636108,0.42000001668930054,-0.679900050163269,1.5958729982376099,-1.4399982690811157,-2.999999523162842,-0.17172522842884064,-0.16865162551403046,-0.16431105136871338,-0.1586073786020279,-0.002203864511102438,0.03540712594985962,0.07435562461614609,0.1066875010728836
0.8166666666666667,0.17999370396137238,-0.007333008572459221,0.0,0.7383360862731934,0.0,0.0,-0.6744329333305359,0.02994355745613575,-0.16300129890441895,0.0,0.0,0.0,-1.5050253868103027,0.3687359690666199,0.7293777465820312,0.4200000464916229,0.5498889684677124,2.523761111206113e-07,-2.571439608800574e-06,-0.8352376818656921,4.4882192014483735e-05,-0.0002544886665418744,-7.759430445730686e-05,0.006599776912480593,-0.0020677107386291027,-0.0007102706586010754,0.42840689420700073,0.7600661516189575,0.5647414922714233,0.26703429222106934,-0.15970340371131897,0.2534141540527344,0.36309146881103516,0.7466720342636108,0.42000001668930054,-0.6776185631752014,-1.0907374620437622,-1.4014490842819214,3.000000238418579,-0.1715078353881836,-0.16798219084739685,-0.16319453716278076,-0.1571693867444992,-0.02241438440978527,0.008019370026886463,0.03518429398536682,0.05241038650274277
0.8333333333333334,0.18217572569847107,-0.006991395726799965,0.0,0.7445434927940369,0.0,0.0,-0.6675739288330078,0.17718105018138885,0.059188950806856155,0.0,0.0,0.0,1.8823803663253784,0.3687359690666199,0.7293777465820312,0.4200000464916229,0.5498891472816467,4.252738108334597e-07,-2.7137673441757215e-06,-0.8352376222610474,4.657380486605689e-05,-0.00025438721058890224,-7.788906805217266e-05,0.006588470656424761,-0.002045983914285898,-0.000713828660082072,0.4330648183822632,0.7570162415504456,0.5685179233551025,0.3212556540966034,-0.11485455930233002,0.25839361548423767,0.36309146881103516,0.7466720342636108,0.42000001668930054,-0.6670389175415039,2.076209783554077,-1.4195234775543213,-2.999999523162842,-0.17189429700374603,-0.16805392503738403,-0.162963405251503,-0.15674994885921478,0.05808208882808685,0.052815888077020645,0.049237675964832306,0.04213806986808777
0.85,0.18247061967849731,-0.008787679485976696,0.0,0.7399065494537354,0.0,0.0,-0.6727096438407898,-0.03388790786266327,-0.15476088225841522,0.0,0.0,0.0,-1.6599611043930054,0.3687359690666199,0.7293777465820312,0.4200000464916229,0.5498889684677124,2.735807527187717e-07,-2.595915248093661e-06,-0.8352376818656921,4.457500108401291e-05,-0.0002544676826801151,-7.748766802251339e-05,0.006601378787308931,-0.002069813199341297,-0.0007094257161952555,0.4353160560131073,0.7568559050559998,0.5698660016059875,-0.07390977442264557,0.003571130335330963,0.039043646305799484,0.36309146881103516,0.7466720342636108,0.42000001668930054,-0.6555498242378235,-0.4846595525741577,-1.3810304403305054,2.999999761581421,-0.17049874365329742,-0.16701053082942963,-0.16227233409881592,-0.15648220479488373,0.039911914616823196,0.02320985496044159,0.002844056813046336,-0.024583401158452034
0.8666666666666667,0.1827605813741684,-0.008174940943717957,0.0,0.7443029284477234,0.0,0.0,-0.6678421497344971,0.05893782526254654,0.07533808797597885,0.0,0.0,0.0,1.5508441925048828,0.3687359690666199,0.7293777465820312,0.4200000464916229,0.5498890280723572,8.774998860872074e-08,-2.8905155886604916e-06,-0.8352377414703369,4.472479486139491e-05,-0.0002543909358792007,-7.750443182885647e-05,0.006598713342100382,-0.0020672979298979044,-0.0007095393957570195,0.4342069625854492,0.756249189376831,0.5691253542900085,-0.041276849806308746,0.019066277891397476,-0.060481611639261246,0.36309146881103516,0.7466720342636108,0.42000001668930054,-0.637377142906189,2.399346351623535,-1.3994927406311035,-3.000000238418579,-0.17011764645576477,-0.1670263558626175,-0.16270238161087036,-0.15739315748214722,0.0810951218008995,0.04103076085448265,0.0015936308773234487,-0.03936370462179184
