vladlanda/robotic-transformer/data/env_000_episode_0247.csv
sim_time_s,robot_box_x,robot_box_y,robot_box_z,robot_box_quat_w,robot_box_quat_x,robot_box_quat_y,robot_box_quat_z,robot_box_linvel_x,robot_box_linvel_y,robot_box_linvel_z,robot_box_angvel_x,robot_box_angvel_y,robot_box_angvel_z,cube_world_x,cube_world_y,cube_world_z,cube_quat_w,cube_quat_x,cube_quat_y,cube_quat_z,cube_linvel_x,cube_linvel_y,cube_linvel_z,cube_angvel_x,cube_angvel_y,cube_angvel_z,endpoint_world_x,endpoint_world_y,endpoint_world_z,endpoint_linvel_x,endpoint_linvel_y,endpoint_linvel_z,target_cube_world_x,target_cube_world_y,target_cube_world_z,gripper_actual_pos_rad_gp_leftgearjoint,gripper_actual_vel_rad_s_gp_leftgearjoint,gripper_actual_pos_rad_gp_rotatingjoint,gripper_actual_vel_rad_s_gp_rotatingjoint,motor_angle_rad_joint1,motor_angle_rad_joint2,motor_angle_rad_joint3,motor_angle_rad_joint4,motor_speed_rad_s_joint1,motor_speed_rad_s_joint2,motor_speed_rad_s_joint3,motor_speed_rad_s_joint4
0.0,0.0,0.0,0.0,1.0,0.0,0.0,0.0,0.0,0.0,0.0,0.0,0.0,0.0,-0.35323432087898254,0.6222023367881775,0.41999998688697815,1.0,0.0,0.0,0.0,0.0,0.0,0.0,0.0,0.0,0.0,3.42540442943573e-06,-0.005000244826078415,1.313499927520752,0.0,0.0,0.0,0.33065059781074524,0.7760582566261292,0.42000001668930054,-1.5707999467849731,0.0,0.0,0.0,0.0,0.0,0.0,0.0,0.0,0.0,0.0,0.0
0.016666666666666666,0.0028823446482419968,0.0021751984022557735,0.0,0.9998189806938171,0.0,0.0,0.019027048721909523,0.24100013077259064,0.1822144091129303,0.0,0.0,0.0,3.141791343688965,-0.3532344400882721,0.6222020387649536,0.41999998688697815,1.0,3.279964630564791e-06,-8.339746386809566e-07,8.465587342243452e-08,-1.9833529222523794e-05,0.00017983045836444944,-6.132945418357849e-05,0.0009432713268324733,-0.004689474124461412,-0.00031981561915017664,-0.0071083251386880875,0.0033936165273189545,1.3159385919570923,-0.8138917088508606,0.9873647689819336,0.1809661090373993,0.33065059781074524,0.7760582566261292,0.42000001668930054,-1.5301094055175781,3.0000035762786865,-0.04584916681051254,-3.000000476837158,0.0008703050552867353,0.0007969624130055308,0.0007115252083167434,0.0006113825947977602,0.11095920950174332,0.09759658575057983,0.08337298035621643,0.06826654821634293
0.03333333333333333,0.008966346271336079,0.006793403532356024,0.0,0.9998071789741516,0.0,0.0,0.019637251272797585,0.4070742726325989,0.31512975692749023,0.0,0.0,0.0,-0.8690356612205505,-0.35323455929756165,0.6222019791603088,0.4200000464916229,1.0,3.3908270324900514e-06,-2.1324347017070977e-06,-3.710694684855298e-08,0.00026357820024713874,0.00026937710936181247,-0.00010509532876312733,-0.001770618837326765,0.00413075927644968,-0.00013547429989557713,-0.027520472183823586,0.025919683277606964,1.3166451454162598,-1.5896981954574585,1.6100380420684814,-0.07926356792449951,0.33065059781074524,0.7760582566261292,0.42000001668930054,-1.4800901412963867,3.0000014305114746,-0.09588900208473206,-2.9999990463256836,0.0029904162511229515,0.0026527608279138803,0.0022773670498281717,0.0018609079997986555,0.16416339576244354,0.13972483575344086,0.113791324198246,0.0862782821059227
0.05,0.018469931557774544,0.013881056569516659,0.0,0.9999758005142212,0.0,0.0,-0.006954510230571032,0.636070728302002,0.4717915654182434,0.0,0.0,0.0,-4.07578706741333,-0.35323458909988403,0.6222020387649536,0.4200000464916229,1.0,3.765094106711331e-06,-2.2119131699582795e-06,5.62348079213848e-09,0.000265309150563553,0.0002669146633706987,-0.0001044049859046936,-0.0017243881011381745,0.004177483730018139,-0.00012949890515301377,-0.0572349950671196,0.05624929815530777,1.312241792678833,-1.9590919017791748,1.9660395383834839,-0.42795294523239136,0.33065059781074524,0.7760582566261292,0.42000001668930054,-1.4300718307495117,3.0000007152557373,-0.14591281116008759,-3.000001907348633,0.0060083032585680485,0.005170209798961878,0.004259778652340174,0.003272671950981021,0.20697790384292603,0.16670992970466614,0.12451580166816711,0.08031956851482391
0.06666666666666667,0.030772831290960312,0.02335970662534237,0.0,0.9998816847801208,0.0,0.0,-0.015381447970867157,0.7722802758216858,0.6155853867530823,0.0,0.0,0.0,-0.041096653789281845,-0.35323458909988403,0.6222019791603088,0.4200000464916229,0.9999999403953552,3.406720225029858e-06,-2.2855888346384745e-06,4.300961506942258e-07,0.00026702549075707793,0.0002679164754226804,-0.0001043803058564663,-0.0017406074330210686,0.0042117200791835785,-0.00012850081839133054,-0.09518425166606903,0.08771474659442902,1.3018099069595337,-2.433459997177124,1.9852570295333862,-0.8115652799606323,0.33065059781074524,0.7760582566261292,0.42000001668930054,-1.3800445795059204,2.9999990463256836,-0.12995944917201996,2.9999992847442627,0.008783822879195213,0.007253317628055811,0.005610260181128979,0.003849550150334835,0.15693028271198273,0.1082330122590065,0.057400140911340714,0.004357350990176201
0.08333333333333333,0.04553336277604103,0.030635323375463486,0.0,0.9992733001708984,0.0,0.0,-0.03811675310134888,0.9493323564529419,0.3776869773864746,0.0,0.0,0.0,-3.542132616043091,-0.35323458909988403,0.6222019791603088,0.4200000464916229,0.9999999403953552,3.626048737714882e-06,-2.335292720090365e-06,3.0322289035211725e-07,0.00026614023954607546,0.00026685107150115073,-0.00010405411012470722,-0.0017283388879150152,0.004196439869701862,-0.00012790995242539793,-0.13113006949424744,0.12549637258052826,1.2874281406402588,-1.9246772527694702,2.514040946960449,-0.895167350769043,0.33065059781074524,0.7760582566261292,0.42000001668930054,-1.3300368785858154,3.000001907348633,-0.16188201308250427,-3.0,0.00997709296643734,0.007349287625402212,0.004566608462482691,0.0016232776688411832,0.021220017224550247,-0.06218578666448593,-0.14788657426834106,-0.2357991635799408
0.1,0.054396916180849075,0.040297478437423706,0.0,0.9961147904396057,0.0,0.0,-0.08806456625461578,0.3921579420566559,0.6600314378738403,0.0,0.0,0.0,-7.294002056121826,-0.35323458909988403,0.6222019791603088,0.4200000464916229,1.0,3.422061809033039e-06,-2.3085794964572415e-06,1.796345259208465e-07,0.0002668151864781976,0.0002680039906408638,-0.00010440591722726822,-0.0017430012812837958,0.004207054618746042,-0.0001289131323574111,-0.16591888666152954,0.17014099657535553,1.2662402391433716,-2.161214828491211,2.865135669708252,-1.549971103668213,0.33065059781074524,0.7760582566261292,0.42000001668930054,-1.2800182104110718,2.999993085861206,-0.12829062342643738,3.0000007152557373,0.0038962592370808125,0.0005349925486370921,-0.0030340629164129496,-0.006819890346378088,-0.47809964418411255,-0.512227475643158,-0.5488747954368591,-0.5883287787437439
0.11666666666666667,0.06515954434871674,0.052652064710855484,0.0,0.992611289024353,0.0,0.0,-0.1213378757238388,0.8430243730545044,0.6889270544052124,0.0,0.0,0.0,-2.842844009399414,-0.35323458909988403,0.6222020387649536,0.4200000464916229,1.0,3.711444605869474e-06,-2.33272521654726e-06,2.5743341325323854e-07,0.00026485713897272944,0.00026635255198925734,-0.00010423408821225166,-0.0017181859584525228,0.004170122090727091,-0.0001291601947741583,-0.2071516215801239,0.2117486596107483,1.2374930381774902,-2.4642066955566406,2.622896671295166,-1.855198860168457,0.33065059781074524,0.7760582566261292,0.42000001668930054,-1.2300182580947876,3.000002384185791,-0.1601831018924713,-3.000000476837158,-0.0025893747806549072,-0.006803583353757858,-0.01124150026589632,-0.01591463014483452,-0.1789313107728958,-0.2624679505825043,-0.34437263011932373,-0.4246242940425873
0.13333333333333333,0.07547128945589066,0.06117315590381622,0.0,0.9861175417900085,0.0,0.0,-0.16604885458946228,0.6996744275093079,0.5043497681617737,0.0,0.0,0.0,-6.036400318145752,-0.35323458909988403,0.6222019791603088,0.4200000464916229,1.0,3.335634346512961e-06,-2.231927282991819e-06,3.1132640287978575e-07,0.0002666970540303737,0.0002675953437574208,-0.00010428694076836109,-0.0017371439607813954,0.004205888137221336,-0.00012840436829719692,-0.24515610933303833,0.26016899943351746,1.2032818794250488,-2.025399684906006,3.318007707595825,-2.15256929397583,0.33065059781074524,0.7760582566261292,0.42000001668930054,-1.1799983978271484,3.0000035762786865,-0.12796488404273987,2.9999992847442627,-0.008207560516893864,-0.013769758865237236,-0.01952105574309826,-0.025474250316619873,-0.19485731422901154,-0.3065631687641144,-0.413740873336792,-0.5162643194198608
0.15,0.0848236158490181,0.06686487793922424,0.0,0.9820173978805542,0.0,0.0,-0.18879030644893646,0.4982857406139374,0.2740699052810669,0.0,0.0,0.0,-1.6299387216567993,-0.35323458909988403,0.6222019791603088,0.4200000464916229,1.0,3.518848188832635e-06,-2.283094318045187e-06,-3.625340241342201e-07,0.00026618546689860523,0.0002673565468285233,-0.00010425667278468609,-0.0017348862020298839,0.004195781424641609,-0.00012861234426964074,-0.28218793869018555,0.31236475706100464,1.1612462997436523,-2.1057493686676025,3.316309928894043,-2.889948844909668,0.33065059781074524,0.7760582566261292,0.42000001668930054,-1.1300005912780762,2.9999992847442627,-0.15985487401485443,-3.0000007152557373,-0.012347488664090633,-0.01946737803518772,-0.026693688705563545,-0.03403977304697037,-0.30515098571777344,-0.37974172830581665,-0.44958776235580444,-0.5148225426673889
0.16666666666666666,0.09066395461559296,0.0694488063454628,0.0,0.9751180410385132,0.0,0.0,-0.2216862440109253,0.2672795355319977,0.08760739862918854,0.0,0.0,0.0,-4.771306991577148,-0.35323458909988403,0.6222019791603088,0.4200000464916229,1.0,3.6665239804278826e-06,-2.3391414742945926e-06,-3.1499084229835717e-07,0.0002659597957972437,0.0002666728978510946,-0.0001040350180119276,-0.001725275651551783,0.004192911088466644,-0.00012778928794432431,-0.3153446912765503,0.37122032046318054,1.1048425436019897,-1.7772802114486694,3.7103919982910156,-3.8100087642669678,0.33065059781074524,0.7760582566261292,0.42000001668930054,-1.0799943208694458,3.000000238418579,-0.13988108932971954,2.999999761581421,-0.019335001707077026,-0.027353674173355103,-0.03540259227156639,-0.04350023344159126,-0.5438321232795715,-0.5721638798713684,-0.5968829393386841,-0.6183898448944092
0.18333333333333332,0.09730100631713867,0.0730036273598671,0.0,0.9601495862007141,0.0,0.0,-0.27948662638664246,0.45314380526542664,0.2655501663684845,0.0,0.0,0.0,-8.021114349365234,-0.35323458909988403,0.6222019791603088,0.4200000464916229,1.0,3.8142559333209647e-06,-2.399529421381885e-06,-2.702558674627653e-07,0.0002654906711541116,0.000266111281234771,-0.00010391208343207836,-0.0017177941044792533,0.004184784833341837,-0.00012753666669595987,-0.3409057557582855,0.4371125102043152,1.032904863357544,-1.1317299604415894,4.10259485244751,-4.669720649719238,0.33065059781074524,0.7760582566261292,0.42000001668930054,-1.0299842357635498,2.9999983310699463,-0.17174221575260162,-3.0000007152557373,-0.03198397532105446,-0.039958130568265915,-0.04793157801032066,-0.05593200400471687,-0.8563137054443359,-0.8365164995193481,-0.8158015608787537,-0.7947531342506409
0.2,0.10159213095903397,0.07994837313890457,0.0,0.9491116404533386,0.0,0.0,-0.3149398863315582,0.1845710426568985,0.4742395579814911,0.0,0.0,0.0,-3.2778775691986084,-0.35323458909988403,0.6222019791603088,0.4200000464916229,1.0,3.599967840273166e-06,-2.2912654458195902e-06,-2.2018252820998896e-07,0.00026573025388643146,0.00026645080652087927,-0.00010398216545581818,-0.001722737099044025,0.004188803024590015,-0.00012773546040989459,-0.3625653386116028,0.49625062942504883,0.949307918548584,-0.9448580741882324,3.3989009857177734,-5.343380451202393,0.33065059781074524,0.7760582566261292,0.42000001668930054,-0.9799739122390747,2.9999992847442627,-0.2217719703912735,-3.000000238418579,-0.04820036515593529,-0.05585367605090141,-0.06338775902986526,-0.0705963596701622,-0.9858700633049011,-0.9863641858100891,-0.9724752902984619,-0.912653386592865
0.21666666666666667,0.10393907129764557,0.08409950882196426,0.0,0.9342761635780334,0.0,0.0,-0.3565501868724823,0.08416128158569336,0.1646277755498886,0.0,0.0,0.0,-6.628204822540283,-0.35323458909988403,0.6222019791603088,0.4200000464916229,0.9999999403953552,3.6395340430317447e-06,-2.2620113213633886e-06,2.224903141723189e-07,0.0002668726665433496,0.00026754458667710423,-0.00010412069968879223,-0.0017403350211679935,0.004211024846881628,-0.00012784315913449973,-0.37650465965270996,0.5498025417327881,0.8543471097946167,-0.42663809657096863,3.0844616889953613,-6.0066986083984375,0.33065059781074524,0.7760582566261292,0.42000001668930054,-0.929963231086731,2.9999961853027344,-0.27180391550064087,-3.0000009536743164,-0.06438843160867691,-0.07206984609365463,-0.07948821783065796,-0.08561989665031433,-0.9883475303649902,-0.9901843667030334,-0.9824538230895996,-0.9140486717224121
0.23333333333333334,0.10832957923412323,0.08988741785287857,0.0,0.9229934811592102,0.0,0.0,-0.3848155736923218,0.233864888548851,0.3655364513397217,0.0,0.0,0.0,-2.5183067321777344,-0.35323455929756165,0.6222019791603088,0.4200000464916229,1.0,3.420558186917333e-06,-2.316856807738077e-06,2.9561707037828455e-07,0.0002668021770659834,0.0002680403122212738,-0.00010442547500133514,-0.0017438210779801011,0.004207022488117218,-0.0001289983920287341,-0.3843722641468048,0.5900321006774902,0.7524823546409607,-0.1603042185306549,1.890297532081604,-6.239887714385986,0.33065059781074524,0.7760582566261292,0.42000001668930054,-0.8799525499343872,2.999997138977051,-0.32183653116226196,-3.000001907348633,-0.08070563524961472,-0.0883556678891182,-0.09576120227575302,-0.10187894850969315,-0.9917800426483154,-0.9909912347793579,-0.9867644906044006,-0.9847823977470398
0.25,0.10940499603748322,0.09270388633012772,0.0,0.9240680932998657,0.0,0.0,-0.38222795724868774,0.016222037374973297,0.10943138599395752,0.0,0.0,0.0,1.1667882204055786,-0.35323458909988403,0.6222019791603088,0.4200000464916229,0.9999999403953552,3.347470055814483e-06,-2.2591600554733304e-06,1.8085306408011093e-07,0.0002668773813638836,0.00026791112031787634,-0.00010439311154186726,-0.0017403805395588279,0.004208179656416178,-0.00012870310456492007,-0.3901180624961853,0.6099330186843872,0.6508462429046631,-0.1629570722579956,0.6060186624526978,-6.002870559692383,0.33065059781074524,0.7760582566261292,0.42000001668930054,-0.8299428820610046,2.999981641769409,-0.37186872959136963,-2.999999523162842,-0.09782703965902328,-0.10534670948982239,-0.11265570670366287,-0.11869959533214569,-0.9999372959136963,-0.9999396800994873,-0.9999871850013733,-1.0000003576278687
0.26666666666666666,0.1074950248003006,0.09243141859769821,0.0,0.919898271560669,0.0,0.0,-0.3921571373939514,-0.16285762190818787,-0.05857415124773979,0.0,0.0,0.0,-2.15205454826355,-0.35323458909988403,0.6222019791603088,0.4200000464916229,0.9999999403953552,3.707949190356885e-06,-2.392500391579233e-06,-1.2724221676307934e-07,0.00026603584410622716,0.00026716641150414944,-0.00010421453043818474,-0.0017321588238701224,0.004193116445094347,-0.00012855436943937093,-0.3864772319793701,0.6166690587997437,0.5509735345840454,0.5551935434341431,0.060649387538433075,-5.790163516998291,0.33065059781074524,0.7760582566261292,0.42000001668930054,-0.7799341082572937,3.000000476837158,-0.42189979553222656,-3.000000476837158,-0.1153733879327774,-0.12267887592315674,-0.12982502579689026,-0.1357400119304657,-1.007630467414856,-1.005759596824646,-1.004331350326538,-1.0031907558441162
0.2833333333333333,0.1032484620809555,0.08980339765548706,0.0,0.9220823645591736,0.0,0.0,-0.3869936168193817,-0.30483102798461914,-0.19991935789585114,0.0,0.0,0.0,1.453787922859192,-0.35323458909988403,0.6222020387649536,0.4200000464916229,0.9999999403953552,3.5725574889511336e-06,-2.3040422547637718e-06,1.2986978958906548e-07,0.00026521689142100513,0.00026455221814103425,-0.00010316888801753521,-0.0017021473031491041,0.004184986464679241,-0.0001249996857950464,-0.37770146131515503,0.6196832656860352,0.4619845151901245,0.6324241757392883,0.1461176723241806,-4.912263870239258,0.33065059781074524,0.7760582566261292,0.42000001668930054,-0.7299259305000305,3.0000011920928955,-0.4719288647174835,-3.0000011920928955,-0.13280938565731049,-0.13996031880378723,-0.14699196815490723,-0.15281744301319122,-1.0221617221832275,-1.0168102979660034,-1.0127122402191162,-1.0094188451766968
0.3,0.09663562476634979,0.08489557355642319,0.0,0.9179940223693848,0.0,0.0,-0.39659419655799866,-0.4432675838470459,-0.3346123695373535,0.0,0.0,0.0,-2.1206247806549072,-0.35323458909988403,0.6222019791603088,0.4200000464916229,1.0,3.7449553929036483e-06,-2.238097067674971e-06,-1.7676008212674788e-07,0.0002643611514940858,0.00026623590383678675,-0.00010442966595292091,-0.001712067169137299,0.004158706869930029,-0.00012989519746042788,-0.3711133599281311,0.622381865978241,0.42719995975494385,0.06655145436525345,-0.1194729208946228,-0.1485700011253357,0.33065059781074524,0.7760582566261292,0.42000001668930054,-0.6799971461296082,3.000196933746338,-0.5224448442459106,-3.00247859954834,-0.14482218027114868,-0.15163326263427734,-0.15813656151294708,-0.16321882605552673,-0.4157375693321228,-0.3796178996562958,-0.32184672355651855,-0.241524338722229
0.31666666666666665,0.0877532809972763,0.07773551344871521,0.0,0.9204000234603882,0.0,0.0,-0.390978068113327,-0.5735766887664795,-0.46866530179977417,0.0,0.0,0.0,1.644921064376831,-0.35323458909988403,0.6222020387649536,0.4200000464916229,0.9999999403953552,3.6679834920505527e-06,-2.3072543626767583e-06,2.63759460494839e-07,0.00026690869708545506,0.0002676031435839832,-0.0001041253563016653,-0.0017412417801097035,0.004211450461298227,-0.0001278683776035905,-0.3725928068161011,0.6261733174324036,0.42458629608154297,0.006579376757144928,0.3212234079837799,-0.1799478977918625,0.33065059781074524,0.7760582566261292,0.42000001668930054,-0.6299904584884644,2.999981164932251,-0.5724844932556152,-2.9999911785125732,-0.15293298661708832,-0.15857884287834167,-0.16359832882881165,-0.166922464966774,-0.5076625347137451,-0.4177912473678589,-0.31177976727485657,-0.19486470520496368
0.3333333333333333,0.08201312273740768,0.06788044422864914,0.0,0.9167832732200623,0.0,0.0,-0.399385005235672,-0.25620558857917786,-0.6394474506378174,0.0,0.0,0.0,-1.9861260652542114,-0.3528345227241516,0.6228255033493042,0.42000195384025574,0.9999870657920837,2.9820559575455263e-05,5.847710417583585e-05,-0.0050848848186433315,0.09872758388519287,0.14678530395030975,-0.0019544754177331924,-0.02640124410390854,-0.05939535051584244,-2.3645641803741455,-0.3698485791683197,0.628108024597168,0.42182213068008423,0.3016493320465088,0.0960293710231781,-0.16131792962551117,0.33065059781074524,0.7760582566261292,0.42000001668930054,-0.5799856185913086,2.9999942779541016,-0.6225408911705017,-2.999997854232788,-0.16189037263393402,-0.16559314727783203,-0.1684056520462036,-0.1693894863128662,-0.5389917492866516,-0.40387260913848877,-0.2550925314426422,-0.10231973975896835
0.35,0.07406549900770187,0.0571785643696785,0.0,0.9197245836257935,0.0,0.0,-0.3925642967224121,-0.5326799750328064,-0.697819709777832,0.0,0.0,0.0,1.8251616954803467,-0.3484187722206116,0.6291825175285339,0.4201953411102295,0.9975608587265015,0.0022977751214057207,0.00266912835650146,-0.06971194595098495,0.4235866665840149,0.5871204733848572,0.03798331320285797,2.610048770904541,-0.8726797699928284,-12.229334831237793,-0.36507928371429443,0.6350128650665283,0.42129987478256226,0.370254784822464,0.7327529191970825,-0.0767085999250412,0.33065059781074524,0.7760582566261292,0.42000001668930054,-0.5299805998802185,2.999985933303833,-0.6725662350654602,-3.000000476837158,-0.17342403531074524,-0.1741969734430313,-0.17389905452728271,-0.17178864777088165,-0.6482924222946167,-0.47821375727653503,-0.29792991280555725,-0.11988756060600281
0.36666666666666664,0.06953372806310654,0.043329909443855286,0.0,0.9165144562721252,0.0,0.0,-0.40000149607658386,-0.20764483511447906,-0.8660113215446472,0.0,0.0,0.0,-1.8930907249450684,-0.34160006046295166,0.6386581063270569,0.4200003147125244,0.9862075448036194,-1.1738591183529934e-06,-1.8422882931190543e-05,-0.16551285982131958,0.3859172463417053,0.539384663105011,-1.2662261724472046e-05,0.00044117553625255823,0.00014078115054871887,-10.65410327911377,-0.3549441695213318,0.6446232199668884,0.4202830195426941,0.8113592863082886,0.4605422914028168,-0.00014308467507362366,0.33065059781074524,0.7760582566261292,0.42000001668930054,-0.4799762964248657,2.999981164932251,-0.722621500492096,-2.999999761581421,-0.18261922895908356,-0.18029175698757172,-0.1766343116760254,-0.17113590240478516,-0.5446974635124207,-0.3312593400478363,-0.10037963837385178,0.13274775445461273
0.3833333333333333,0.06127314642071724,0.033096518367528915,0.0,0.9003537893295288,0.0,0.0,-0.4351586103439331,-0.4845946729183197,-0.5417141914367676,0.0,0.0,0.0,-5.2115702629089355,-0.33008474111557007,0.6530532836914062,0.42032045125961304,0.9807162284851074,-0.00811527855694294,0.001241784542798996,-0.19526465237140656,1.0599455833435059,1.25908362865448,0.08780571818351746,-4.182952404022217,1.34164559841156,-7.857749938964844,-0.33724474906921387,0.6565594673156738,0.42204749584198,1.272546648979187,1.155086636543274,0.17404450476169586,0.33065059781074524,0.7760582566261292,0.42000001668930054,-0.42997226119041443,2.999998092651367,-0.7726779580116272,-3.000002384185791,-0.1934942901134491,-0.18771319091320038,-0.18031053245067596,-0.17103126645088196,-0.34303805232048035,-0.23530180752277374,-0.10119808465242386,0.0456940233707428
0.4,0.057991936802864075,0.01936936005949974,0.0,0.8704527020454407,0.0,0.0,-0.49225205183029175,-0.15276338160037994,-0.8362865447998047,0.0,0.0,0.0,-8.40215015411377,-0.2957846522331238,0.6799699068069458,0.42496106028556824,0.967990517616272,0.0007502200314775109,-0.03175250068306923,-0.2489686757326126,3.091768264770508,2.1200785636901855,0.16326472163200378,33.031280517578125,-17.49190330505371,-1.5638808012008667,-0.30273422598838806,0.6846283078193665,0.4258456826210022,2.9332962036132812,2.1314926147460938,0.44961607456207275,0.33065059781074524,0.7760582566261292,0.42000001668930054,-0.38812506198883057,1.5037661790847778,-0.8227018713951111,-3.0000007152557373,-0.1958908885717392,-0.18864168226718903,-0.17937244474887848,-0.16803999245166779,-0.27787473797798157,-0.1515713632106781,-0.008048785850405693,0.13924738764762878
0.4166666666666667,0.05674191191792488,0.010701781138777733,0.0,0.8240987658500671,0.0,0.0,-0.5664461255073547,-0.004609063733369112,-0.5329240560531616,0.0,0.0,0.0,-11.185072898864746,-0.22154289484024048,0.7212579250335693,0.4313355088233948,0.9473090171813965,0.06931173801422119,-0.07553884387016296,-0.30347222089767456,5.877547264099121,2.458359718322754,0.5203446745872498,12.104405403137207,-11.997550010681152,17.772348403930664,-0.2279672771692276,0.7265547513961792,0.43195798993110657,5.508808135986328,3.049466133117676,0.4517894983291626,0.33065059781074524,0.7760582566261292,0.42000001668930054,-0.3754611611366272,0.6021563410758972,-0.785860538482666,2.997145891189575,-0.2066754251718521,-0.19606979191303253,-0.18347398936748505,-0.169080913066864,-0.4611915946006775,-0.3197678029537201,-0.18485672771930695,-0.06812722235918045
0.43333333333333335,0.056840766221284866,0.005044700112193823,0.0,0.7865791320800781,0.0,0.0,-0.6174894571304321,0.06870990246534348,-0.2874147593975067,0.0,0.0,0.0,-6.459959506988525,-0.13205468654632568,0.7656086683273315,0.44181060791015625,0.9075854420661926,0.11041819304227829,-0.10062910616397858,-0.39239048957824707,5.588808536529541,1.7876613140106201,0.7084528207778931,4.920980930328369,-9.890495300292969,11.826910018920898,-0.138077050447464,0.7722448110580444,0.4419107139110565,5.463576316833496,2.3799614906311035,0.6865108013153076,0.33065059781074524,0.7760582566261292,0.42000001668930054,-0.3639374375343323,0.7751567363739014,-0.8130742907524109,-3.0000009536743164,-0.21561762690544128,-0.2026628851890564,-0.18797600269317627,-0.17192763090133667,-0.48245662450790405,-0.3582867681980133,-0.25371962785720825,-0.17817290127277374
0.45,0.05522128939628601,0.003904660465195775,0.0,0.770779013633728,0.0,0.0,-0.6371026039123535,-0.10546283423900604,-0.023860113695263863,0.0,0.0,0.0,-1.7419159412384033,-0.04166124761104584,0.7969856262207031,0.45175737142562866,0.8538869023323059,0.12039021402597427,-0.11359813064336777,-0.4934355914592743,5.479257106781006,0.7875499129295349,0.7094070315361023,7.748755931854248,-5.888034820556641,19.29170799255371,-0.047241587191820145,0.8045662641525269,0.4517240524291992,5.572668075561523,1.5805926322937012,0.621812105178833,0.33065059781074524,0.7760582566261292,0.42000001668930054,-0.3484901189804077,0.9951165318489075,-0.8630982637405396,-3.000002384185791,-0.2251480370759964,-0.20996543765068054,-0.1933908611536026,-0.1759578436613083,-0.4914005696773529,-0.3852178156375885,-0.2976537048816681,-0.23747161030769348
0.4666666666666667,0.057749513536691666,-0.003217349760234356,0.0,0.7462395429611206,0.0,0.0,-0.6656774878501892,0.2276422679424286,-0.5447792410850525,0.0,0.0,0.0,-5.531253814697266,0.04836134612560272,0.8128358721733093,0.45815324783325195,0.7817665934562683,0.12588952481746674,-0.11059843003749847,-0.6006335020065308,5.483828067779541,-0.13895294070243835,0.35739582777023315,-3.6431620121002197,-9.25192928314209,6.213809013366699,0.04224169999361038,0.8225017189979553,0.45768171548843384,5.251901626586914,0.5085587501525879,0.3248394727706909,0.33065059781074524,0.7760582566261292,0.42000001668930054,-0.3325641453266144,0.8306585550308228,-0.9131226539611816,-3.000002384185791,-0.2271106094121933,-0.21092286705970764,-0.19350074231624603,-0.17549994587898254,-0.061497338116168976,0.013133649714291096,0.08073820173740387,0.13381509482860565
0.48333333333333334,0.05639354884624481,-0.005682671442627907,0.0,0.7333290576934814,0.0,0.0,-0.6798738837242126,-0.050408735871315,-0.10717794299125671,0.0,0.0,0.0,-0.9522086381912231,0.12916721403598785,0.815193772315979,0.4633491635322571,0.7208074927330017,0.12034732103347778,-0.09953969717025757,-0.6753108501434326,4.66757869720459,-0.7069882154464722,0.4572923481464386,-3.8956174850463867,-5.6600470542907715,8.776236534118652,0.124126136302948,0.8252773284912109,0.463120698928833,4.679791450500488,-0.028756439685821533,0.327144980430603,0.33065059781074524,0.7760582566261292,0.42000001668930054,-0.3195975422859192,0.5875731110572815,-0.9631468057632446,-3.0000016689300537,-0.23353715240955353,-0.21539057791233063,-0.19630514085292816,-0.177064448595047,-0.23609185218811035,-0.18430303037166595,-0.14699333906173706,-0.12960532307624817
0.5,0.05771965533494949,-0.004855727776885033,0.0,0.7146835923194885,0.0,0.0,-0.6994479298591614,0.13121767342090607,0.11209341138601303,0.0,0.0,0.0,-4.129918575286865,0.19819745421409607,0.811517596244812,0.4626433551311493,0.6815439462661743,0.11415228247642517,-0.09584972262382507,-0.716435432434082,3.521120309829712,-0.8380261063575745,-0.24873490631580353,-6.348773002624512,-3.2715096473693848,11.47442626953125,0.1936352550983429,0.8213015794754028,0.4631209969520569,3.811539888381958,-0.49294406175613403,-0.14824606478214264,0.33065059781074524,0.7760582566261292,0.42000001668930054,-0.3102922737598419,0.5326019525527954,-1.0131703615188599,-2.9999701976776123,-0.23568454384803772,-0.21745549142360687,-0.19839495420455933,-0.1793615072965622,-0.05464751273393631,-0.07019070535898209,-0.08999702334403992,-0.11748863756656647
0.5166666666666666,0.06163335591554642,-0.0016535389004275203,0.0,0.7089240550994873,0.0,0.0,-0.705284833908081,0.2687660753726959,0.2830491065979004,0.0,0.0,0.0,-0.006848910823464394,0.25311288237571716,0.8033061623573303,0.4549460709095001,0.6369285583496094,0.10000541061162949,-0.0884617418050766,-0.7592729926109314,2.777249574661255,-0.7784289121627808,-0.590876042842865,3.534529447555542,5.625561237335205,-4.397346496582031,0.24812382459640503,0.8112945556640625,0.4561392068862915,2.846245288848877,-0.7408393621444702,-0.5840089917182922,0.33065059781074524,0.7760582566261292,0.42000001668930054,-0.29771527647972107,1.0540504455566406,-1.0631924867630005,-2.999725341796875,-0.23499278724193573,-0.21749232709407806,-0.1992126852273941,-0.1810484677553177,0.09560450911521912,0.0323801189661026,-0.03430211544036865,-0.10533232986927032
0.5333333333333333,0.06572160869836807,-0.0012650794815272093,0.0,0.6938700079917908,0.0,0.0,-0.7201002836227417,0.22277897596359253,0.00036106552579440176,0.0,0.0,0.0,-3.287623643875122,0.29335227608680725,0.7928891181945801,0.43997907638549805,0.620913028717041,0.06981822103261948,-0.0741594210267067,-0.7772340178489685,2.026466131210327,-1.1920336484909058,-0.8873063921928406,-2.7975330352783203,0.24247464537620544,10.395489692687988,0.28902992606163025,0.8003168106079102,0.4416489601135254,2.040555477142334,-0.7296966314315796,-1.0257676839828491,0.33065059781074524,0.7760582566261292,0.42000001668930054,-0.27739787101745605,1.0664557218551636,-1.1132146120071411,-3.0,-0.23045408725738525,-0.21465785801410675,-0.19813257455825806,-0.18175281584262848,0.19725662469863892,0.10782521963119507,0.011627367697656155,-0.08965125679969788
0.55,0.07106658816337585,0.0025300057604908943,0.0,0.6916238069534302,0.0,0.0,-0.7222579121589661,0.35754066705703735,0.23220407962799072,0.0,0.0,0.0,0.5597302317619324,0.31945255398750305,0.7812957763671875,0.42395085096359253,0.6089218258857727,0.0241929329931736,-0.047758799046278,-0.7914215326309204,0.675622820854187,-0.6570497751235962,0.23095101118087769,6.957996368408203,-17.03628921508789,2.2045657634735107,0.31457093358039856,0.7878590822219849,0.4268552362918854,0.8625643253326416,-0.45178329944610596,-0.23106811940670013,0.33065059781074524,0.7760582566261292,0.42000001668930054,-0.2633814513683319,0.8141070008277893,-1.1633436679840088,-3.0029284954071045,-0.22849464416503906,-0.21417610347270966,-0.199225515127182,-0.18448500335216522,0.23458926379680634,0.11018292605876923,-0.011916517280042171,-0.12882660329341888
0.5666666666666667,0.07408998906612396,0.002361541148275137,0.0,0.6801014542579651,0.0,0.0,-0.7331179976463318,0.11833100765943527,-0.05599100887775421,0.0,0.0,0.0,-2.7060649394989014,0.3272070288658142,0.7752718925476074,0.42298030853271484,0.6229636073112488,0.05125238001346588,-0.0097787044942379,-0.7805086374282837,0.5319569110870361,-0.791986346244812,-0.16941040754318237,-1.6182856559753418,9.828290939331055,23.047029495239258,0.32365432381629944,0.7825948596000671,0.42322906851768494,0.2156076729297638,-0.2895619571208954,-0.19242633879184723,0.33065059781074524,0.7760582566261292,0.42000001668930054,-0.24833402037620544,0.33041834831237793,-1.2134134769439697,-2.9930241107940674,-0.22294928133487701,-0.21088281273841858,-0.19810006022453308,-0.18538594245910645,0.2934522330760956,0.17557890713214874,0.061399269849061966,-0.04570280760526657
0.5833333333333334,0.07808785140514374,0.00588071858510375,0.0,0.6811145544052124,0.0,0.0,-0.7321768403053284,0.2633900046348572,0.19660599529743195,0.0,0.0,0.0,1.0460901260375977,0.33041346073150635,0.7722762823104858,0.42327818274497986,0.6286388039588928,0.02651946246623993,0.011423062533140182,-0.7771611213684082,0.0420374795794487,0.0023705691564828157,0.19690096378326416,0.9920950531959534,12.124391555786133,6.063487529754639,0.32485517859458923,0.7782169580459595,0.4245607852935791,-0.0706406757235527,-0.10692763328552246,0.12483635544776917,0.33065059781074524,0.7760582566261292,0.42000001668930054,-0.26495587825775146,-1.3889667987823486,-1.2633681297302246,-2.9938950538635254,-0.22026342153549194,-0.2098778337240219,-0.19869953393936157,-0.18746402859687805,0.32904142141342163,0.18314503133296967,0.04698405787348747,-0.07493647187948227
0.6,0.07970055937767029,0.005028643179684877,0.0,0.6723936200141907,0.0,0.0,-0.740193784236908,0.03781348094344139,-0.08389711380004883,0.0,0.0,0.0,-2.1984469890594482,0.3301228880882263,0.7727106213569641,0.42485737800598145,0.638850212097168,-0.02617521956562996,0.05766500160098076,-0.7667202949523926,-0.008456495590507984,0.011072280816733837,0.057007867842912674,0.42847371101379395,8.541390419006348,1.9405043125152588,0.3239867687225342,0.7777900099754333,0.42689430713653564,0.0014062672853469849,-0.0465858168900013,0.15950928628444672,0.33065059781074524,0.7760582566261292,0.42000001668930054,-0.30664023756980896,-3.0000295639038086,-1.3133270740509033,-2.998383045196533,-0.2121170163154602,-0.20451661944389343,-0.1959143429994583,-0.1869552880525589,0.45017457008361816,0.30353468656539917,0.16754892468452454,0.047345131635665894
0.6166666666666667,0.08243857324123383,0.007930970750749111,0.0,0.6762430667877197,0.0,0.0,-0.7366785407066345,0.18982504308223724,0.1685369610786438,0.0,0.0,0.0,1.441967487335205,0.32988956570625305,0.772957980632782,0.4240725636482239,0.6410695314407349,-0.07397378236055374,0.08777134120464325,-0.7588503956794739,0.022183213382959366,0.028721187263727188,-0.021325016394257545,-0.29703646898269653,0.6123294234275818,1.1532601118087769,0.32311150431632996,0.7772142887115479,0.42918920516967773,-0.05804792419075966,0.08503346890211105,0.14557337760925293,0.33065059781074524,0.7760582566261292,0.42000001668930054,-0.35662469267845154,-2.999974012374878,-1.3633196353912354,-2.9999654293060303,-0.2072833627462387,-0.20171727240085602,-0.19502265751361847,-0.18776695430278778,0.42501696944236755,0.26594680547714233,0.11680608242750168,-0.016385840252041817
0.6333333333333333,0.08699417114257812,0.006585963536053896,0.0,0.6690846085548401,0.0,0.0,-0.7431862354278564,0.303320050239563,-0.11890891194343567,0.0,0.0,0.0,-2.00671648979187,0.329474538564682,0.7731231451034546,0.4234578609466553,0.6445375680923462,-0.06210958957672119,0.073076993227005,-0.7585337162017822,-0.041123442351818085,0.00774579681456089,-0.04489380866289139,-0.4807678461074829,-2.9080843925476074,0.1850280612707138,0.3220102787017822,0.7795678377151489,0.4323696792125702,-0.044217102229595184,0.05825215205550194,0.23380747437477112,0.33065059781074524,0.7760582566261292,0.42000001668930054,-0.406629741191864,-2.999469757080078,-1.413282036781311,-2.999236822128296,-0.19781507551670074,-0.1949651837348938,-0.19071540236473083,-0.18553265929222107,0.49576568603515625,0.3753233850002289,0.27147021889686584,0.18895743787288666
0.65,0.0935346782207489,0.003332625376060605,0.0,0.6736518740653992,0.0,0.0,-0.7390488386154175,0.418293833732605,-0.32689133286476135,0.0,0.0,0.0,1.6024913787841797,0.32811763882637024,0.7733554244041443,0.4220765233039856,0.6467573046684265,-0.035169269889593124,0.041369181126356125,-0.7607605457305908,-0.09452841430902481,0.015628471970558167,-0.0958547368645668,-0.925225555896759,-5.682957172393799,0.006067391950637102,0.32033687829971313,0.7796889543533325,0.4418604373931885,-0.13573434948921204,0.026719383895397186,0.9165168404579163,0.33065059781074524,0.7760582566261292,0.42000001668930054,-0.45664384961128235,-2.999998092651367,-1.463300108909607,-3.000000476837158,-0.19284167885780334,-0.19105114042758942,-0.1875954419374466,-0.18289008736610413,0.25882065296173096,0.21561546623706818,0.18938973546028137,0.18277795612812042
0.6666666666666666,0.10275052487850189,0.0033578285947442055,0.0,0.6669113039970398,0.0,0.0,-0.7451371550559998,0.5384250283241272,0.0402391254901886,0.0,0.0,0.0,-1.9625424146652222,0.3260301649570465,0.773713231086731,0.42003434896469116,0.647733211517334,0.0006567640230059624,-0.0002911947958637029,-0.7618669271469116,-0.027259157970547676,-0.009192116558551788,-0.016779126599431038,-0.07913313060998917,0.8188444972038269,-0.18849816918373108,0.3217238783836365,0.7796950340270996,0.455888032913208,0.34282970428466797,0.07844036817550659,0.8853394985198975,0.33065059781074524,0.7760582566261292,0.42000001668930054,-0.5066571831703186,-2.9999966621398926,-1.513318419456482,-2.999999761581421,-0.19203171133995056,-0.19032570719718933,-0.18664172291755676,-0.1813720464706421,0.14312075078487396,0.12242613732814789,0.1252772957086563,0.15340206027030945
0.6833333333333333,0.11395904421806335,-0.0012267309939488769,0.0,0.6391122341156006,0.0,0.0,-0.7691134810447693,0.7187889814376831,-0.30161720514297485,0.0,0.0,0.0,-5.146496295928955,0.32605770230293274,0.7737219333648682,0.41999998688697815,0.6477330923080444,-4.670418093155604e-06,-6.3886368479870725e-06,-0.761867344379425,6.932782707735896e-05,-0.0005581168225035071,-0.00018493598327040672,0.00889249425381422,0.0036812659818679094,0.00041027687257155776,0.33050113916397095,0.7804322242736816,0.4762888550758362,0.6626274585723877,-0.09715242683887482,1.67860746383667,0.33065059781074524,0.7760582566261292,0.42000001668930054,-0.5566697716712952,-2.9999752044677734,-1.563336730003357,-3.000000238418579,-0.18803490698337555,-0.1868068277835846,-0.18321897089481354,-0.17762844264507294,0.04677487164735794,0.06726080924272537,0.10545942932367325,0.16214491426944733
0.7,0.12302013486623764,-0.0031264221761375666,0.0,0.626164436340332,0.0,0.0,-0.7796910405158997,0.469541996717453,-0.0791429802775383,0.0,0.0,0.0,-0.9643408060073853,0.32605746388435364,0.7737217545509338,0.42000001668930054,0.6477333307266235,-1.7942799104275764e-06,-4.7061271288839635e-06,-0.7618670463562012,0.0001369135279674083,-0.0003689155273605138,-0.0001003434881567955,0.007770597003400326,-0.001496525015681982,-0.0003061063471250236,0.34239548444747925,0.7825943231582642,0.506991446018219,0.7175223231315613,0.3488132059574127,1.9826256036758423,0.33065059781074524,0.7760582566261292,0.42000001668930054,-0.5772646069526672,0.26072946190834045,-1.6133537292480469,-2.9999992847442627,-0.18798981606960297,-0.18664106726646423,-0.1827658861875534,-0.176701158285141,0.09795748442411423,0.0654822438955307,0.03804608806967735,0.018280647695064545
0.7166666666666667,0.12778307497501373,-0.002325722249224782,0.0,0.6370149850845337,0.0,0.0,-0.7708514332771301,0.2242479920387268,0.09850094467401505,0.0,0.0,0.0,2.5009398460388184,0.32605746388435364,0.7737217545509338,0.42000001668930054,0.6477332711219788,-1.895475747915043e-06,-4.586726390698459e-06,-0.7618670463562012,0.0001367967779515311,-0.00036887472379021347,-0.0001003853976726532,0.007769497111439705,-0.00150027044583112,-0.00030596586293540895,0.3549302816390991,0.7877569198608398,0.5329594612121582,0.6827688217163086,0.25351282954216003,1.2209796905517578,0.33065059781074524,0.7760582566261292,0.42000001668930054,-0.5628921985626221,1.354049801826477,-1.57430100440979,3.0000007152557373,-0.18570758402347565,-0.1847989857196808,-0.18133656680583954,-0.17562182247638702,0.1795981526374817,0.1619197130203247,0.14092659950256348,0.11860350519418716
0.7333333333333333,0.12887978553771973,-0.00432443805038929,0.0,0.6348938941955566,0.0,0.0,-0.7725993394851685,0.0005441813846118748,-0.1585368514060974,0.0,0.0,0.0,-1.1392924785614014,0.32605746388435364,0.7737217545509338,0.42000001668930054,0.6477334499359131,-1.911915205710102e-06,-4.640010502043879e-06,-0.7618670463562012,0.00013687046885024756,-0.00036890272167511284,-0.00010036537423729897,0.007770233321934938,-0.0014990970958024263,-0.0003060932504013181,0.36142122745513916,0.7894617915153503,0.5470821261405945,0.09287174046039581,-0.051597826182842255,0.6453197002410889,0.33065059781074524,0.7760582566261292,0.42000001668930054,-0.5607410669326782,-0.902265727519989,-1.5242445468902588,2.999999523162842,-0.1827327311038971,-0.18183518946170807,-0.17853620648384094,-0.17311185598373413,0.12573711574077606,0.1482371985912323,0.1553710550069809,0.14818075299263
0.75,0.1269965022802353,-0.0016237490344792604,0.0,0.6446576118469238,0.0,0.0,-0.7644714117050171,-0.1275419294834137,0.16931597888469696,0.0,0.0,0.0,2.2505202293395996,0.32605746388435364,0.7737217545509338,0.42000001668930054,0.6477333903312683,-1.921525608850061e-06,-4.546366199065233e-06,-0.7618670463562012,0.00013641858822666109,-0.0003689531295094639,-0.00010052579455077648,0.007769628427922726,-0.0015042461454868317,-0.0003050361992791295,0.3659355640411377,0.7866349816322327,0.5547840595245361,0.46439868211746216,-0.11814345419406891,0.3153740167617798,0.33065059781074524,0.7760582566261292,0.42000001668930054,-0.5612547397613525,0.7013400197029114,-1.5398749113082886,-2.999999523162842,-0.18458673357963562,-0.1823933869600296,-0.17810170352458954,-0.1719980686903,0.02248486876487732,0.07105913758277893,0.10622061789035797,0.1278635710477829
0.7666666666666666,0.12723203003406525,-0.0027309157885611057,0.0,0.6412929892539978,0.0,0.0,-0.7672960758209229,0.028278591111302376,-0.08816715329885483,0.0,0.0,0.0,-1.515112042427063,0.32605746388435364,0.7737217545509338,0.42000001668930054,0.6477334499359131,-1.8037660538539058e-06,-4.768550297740148e-06,-0.7618669271469116,0.00013736551045440137,-0.0003691002493724227,-0.00010029226541519165,0.0077748605981469154,-0.0014913511695340276,-0.00030701051582582295,0.3703652024269104,0.7845373153686523,0.556523323059082,0.08314384520053864,-0.18996021151542664,0.04470975697040558,0.33065059781074524,0.7760582566261292,0.42000001668930054,-0.5679017901420593,-1.3174961805343628,-1.501039743423462,3.000000476837158,-0.18215686082839966,-0.17960965633392334,-0.17518603801727295,-0.16916044056415558,0.09758729487657547,0.12630842626094818,0.1394277662038803,0.1375013291835785
0.7833333333333333,0.1293531209230423,-0.0012230126885697246,0.0,0.6484002470970154,0.0,0.0,-0.7612996101379395,0.17454084753990173,0.11122385412454605,0.0,0.0,0.0,1.8850713968276978,0.32605746388435364,0.7737217545509338,0.42000001668930054,0.6477334499359131,-1.8920733282357105e-06,-4.6520272007910535e-06,-0.7618670463562012,0.00013689011393580586,-0.00036892673233523965,-0.0001003677025437355,0.007770909462124109,-0.0014992239885032177,-0.00030614694696851075,0.37447044253349304,0.7810835838317871,0.5581392049789429,0.38833826780319214,-0.19475623965263367,0.19451306760311127,0.33065059781074524,0.7760582566261292,0.42000001668930054,-0.5939618349075317,-1.7509821653366089,-1.5171678066253662,-2.9999992847442627,-0.18105226755142212,-0.1780504584312439,-0.17330552637577057,-0.16709299385547638,0.13466539978981018,0.14683927595615387,0.15740999579429626,0.16638360917568207
0.8,0.13351114094257355,-0.0032968882005661726,0.0,0.6433546543121338,0.0,0.0,-0.7655682563781738,0.2840290367603302,-0.15182286500930786,0.0,0.0,0.0,-1.6559977531433105,0.32605746388435364,0.7737217545509338,0.42000001668930054,0.6477333307266235,-1.9128281110170064e-06,-4.525578788161511e-06,-0.7618670463562012,0.0001366079377476126,-0.0003687609569169581,-0.00010041124187409878,0.007766332942992449,-0.0015024056192487478,-0.00030558384605683386,0.38233983516693115,0.7772873044013977,0.5583412647247314,0.5324862599372864,-0.36454644799232483,-0.024781741201877594,0.33065059781074524,0.7760582566261292,0.42000001668930054,-0.6333624124526978,-2.847898244857788,-1.5671861171722412,-3.0,-0.17738361656665802,-0.17427296936511993,-0.16939225792884827,-0.16301655769348145,0.12015106528997421,0.15910352766513824,0.19860592484474182,0.23786498606204987
0.8166666666666667,0.14041905105113983,-0.001956577179953456,0.0,0.6171668767929077,0.0,0.0,-0.7868322730064392,0.45288723707199097,0.10665368288755417,0.0,0.0,0.0,-4.888782501220703,0.32605746388435364,0.7737216949462891,0.42000001668930054,0.6477331519126892,-1.8229010265713441e-06,-4.561358309729258e-06,-0.7618672251701355,0.0001381561887683347,-0.0003704130940604955,-0.00010035326704382896,0.007809290662407875,-0.0014881165698170662,-0.0003085376229137182,0.39262884855270386,0.7714685797691345,0.5591647028923035,0.7441132068634033,-0.2934167981147766,0.2456824630498886,0.33065059781074524,0.7760582566261292,0.42000001668930054,-0.664437472820282,-1.0135793685913086,-1.6172044277191162,-3.0,-0.17682857811450958,-0.17327752709388733,-0.16791823506355286,-0.16103816032409668,0.10999631136655807,0.10580551624298096,0.1060546338558197,0.11068186163902283
0.8333333333333334,0.14482897520065308,0.0013273560907691717,0.0,0.605736494064331,0.0,0.0,-0.7956653237342834,0.18786439299583435,0.2310258001089096,0.0,0.0,0.0,-0.7145091891288757,0.326057493686676,0.7737217545509338,0.42000001668930054,0.6477331519126892,-1.7664406186668202e-06,-4.832794274989283e-06,-0.7618672847747803,0.00013885005319025367,-0.0003704284317791462,-0.00010022078640758991,0.00780843198299408,-0.001477520097978413,-0.00030987648642621934,0.3999163508415222,0.7695661783218384,0.5627298355102539,0.10358651727437973,0.008069077506661415,0.1883317232131958,0.33065059781074524,0.7760582566261292,0.42000001668930054,-0.6534786820411682,2.052513360977173,-1.6644583940505981,-2.6621625423431396,-0.17350028455257416,-0.17044015228748322,-0.1655457764863968,-0.15909595787525177,0.26107630133628845,0.21445994079113007,0.16516318917274475,0.11445334553718567
0.85,0.14545749127864838,0.0009237931808456779,0.0,0.617746889591217,0.0,0.0,-0.786376953125,-0.01341234426945448,-0.054964229464530945,0.0,0.0,0.0,2.346935272216797,0.32605746388435364,0.7737217545509338,0.42000001668930054,0.6477333307266235,-1.889980580926931e-06,-4.437808456714265e-06,-0.7618670463562012,0.0001360217429464683,-0.0003685572009999305,-0.00010055350139737129,0.007758136373013258,-0.0015057658310979605,-0.00030414704815484583,0.3982173800468445,0.7746545672416687,0.5689096450805664,-0.3674462139606476,0.4580470323562622,0.5422110557556152,0.33065059781074524,0.7760582566261292,0.42000001668930054,-0.6091786026954651,2.9999730587005615,-1.6240673065185547,2.999999761581421,-0.16695278882980347,-0.16525958478450775,-0.16183069348335266,-0.15690414607524872,0.2451212853193283,0.17715512216091156,0.09771557152271271,0.009145782329142094
0.8666666666666667,0.14339928328990936,0.0032282210886478424,0.0,0.6145853400230408,0.0,0.0,-0.7888503074645996,-0.17523261904716492,0.26765644550323486,0.0,0.0,0.0,-1.448452353477478,0.32605746388435364,0.7737217545509338,0.42000001668930054,0.6477331519126892,-1.821003706936608e-06,-4.470316980587086e-06,-0.7618672251701355,0.0001379034511046484,-0.0003703241818584502,-0.00010040611959993839,0.0078063542023301125,-0.0014907373115420341,-0.0003079797315876931,0.38722628355026245,0.778462290763855,0.5757206678390503,-0.8976477980613708,0.07920627295970917,0.4161604344844818,0.33065059781074524,0.7760582566261292,0.42000001668930054,-0.584741473197937,0.15790431201457977,-1.5740108489990234,3.000000238418579,-0.16735786199569702,-0.16578854620456696,-0.1626933068037033,-0.15829315781593323,-0.15225055813789368,-0.12650692462921143,-0.11305460333824158,-0.1114906370639801
