vladlanda/robotic-transformer/data/env_000_episode_0240.csv
sim_time_s,robot_box_x,robot_box_y,robot_box_z,robot_box_quat_w,robot_box_quat_x,robot_box_quat_y,robot_box_quat_z,robot_box_linvel_x,robot_box_linvel_y,robot_box_linvel_z,robot_box_angvel_x,robot_box_angvel_y,robot_box_angvel_z,cube_world_x,cube_world_y,cube_world_z,cube_quat_w,cube_quat_x,cube_quat_y,cube_quat_z,cube_linvel_x,cube_linvel_y,cube_linvel_z,cube_angvel_x,cube_angvel_y,cube_angvel_z,endpoint_world_x,endpoint_world_y,endpoint_world_z,endpoint_linvel_x,endpoint_linvel_y,endpoint_linvel_z,target_cube_world_x,target_cube_world_y,target_cube_world_z,gripper_actual_pos_rad_gp_leftgearjoint,gripper_actual_vel_rad_s_gp_leftgearjoint,gripper_actual_pos_rad_gp_rotatingjoint,gripper_actual_vel_rad_s_gp_rotatingjoint,motor_angle_rad_joint1,motor_angle_rad_joint2,motor_angle_rad_joint3,motor_angle_rad_joint4,motor_speed_rad_s_joint1,motor_speed_rad_s_joint2,motor_speed_rad_s_joint3,motor_speed_rad_s_joint4
0.0,0.0,0.0,0.0,1.0,0.0,0.0,0.0,0.0,0.0,0.0,0.0,0.0,0.0,-0.3810436427593231,0.6319838762283325,0.41999998688697815,1.0,0.0,0.0,0.0,0.0,0.0,0.0,0.0,0.0,0.0,3.42540442943573e-06,-0.005000244826078415,1.313499927520752,0.0,0.0,0.0,0.4148597717285156,0.6356655359268188,0.42000001668930054,-1.5707999467849731,0.0,0.0,0.0,0.0,0.0,0.0,0.0,0.0,0.0,0.0,0.0
0.016666666666666666,0.0028781353030353785,0.002180384937673807,0.0,0.9998087882995605,0.0,0.0,0.01955501362681389,0.24088014662265778,0.1823984533548355,0.0,0.0,0.0,3.141861915588379,-0.38104376196861267,0.6319835782051086,0.41999998688697815,1.0,3.279964630564791e-06,-8.339746386809566e-07,8.465587342243452e-08,-1.9833529222523794e-05,0.00017983045836444944,-6.132945418357849e-05,0.0009432713268324733,-0.004689474124461412,-0.00031981561915017664,-0.007110036909580231,0.003380369395017624,1.3159372806549072,-0.8143079280853271,0.9868993759155273,0.180952787399292,0.4148597717285156,0.6356655359268188,0.42000001668930054,-1.5301095247268677,3.000002861022949,-0.04584798216819763,-3.0000007152557373,0.0008697561570443213,0.0007963179959915578,0.0007109716534614563,0.0006108244997449219,0.11093134433031082,0.09757207334041595,0.08334780484437943,0.06824273616075516
0.03333333333333333,0.008961229585111141,0.0068013956770300865,0.0,0.9997966885566711,0.0,0.0,0.020165199413895607,0.4070233106613159,0.3152962028980255,0.0,0.0,0.0,-0.8691320419311523,-0.3810438811779022,0.6319835186004639,0.4200000464916229,1.0,3.3908179375430336e-06,-2.132458348569344e-06,-3.7097745320124886e-08,0.00026357852038927376,0.00026937833172269166,-0.00010509369894862175,-0.0017707126680761576,0.004130884539335966,-0.0001354814594378695,-0.027542654424905777,0.025874484330415726,1.3166465759277344,-1.5912233591079712,1.6078600883483887,-0.07905428856611252,0.4148597717285156,0.6356655359268188,0.42000001668930054,-1.4800901412963867,3.00000262260437,-0.09588781744241714,-3.0000007152557373,0.0029905177652835846,0.0026527426671236753,0.0022773577366024256,0.0018608432728797197,0.16421525180339813,0.13977475464344025,0.11383610218763351,0.08631978929042816
0.05,0.018387142568826675,0.013806462287902832,0.0,0.999993622303009,0.0,0.0,-0.003575006267055869,0.6352843046188354,0.46857860684394836,0.0,0.0,0.0,-4.092986583709717,-0.3810439109802246,0.6319835782051086,0.4200000464916229,1.0,3.7651902857760433e-06,-2.2119197637948673e-06,5.609367637049445e-09,0.00026530938339419663,0.00026691678795032203,-0.00010440615005791187,-0.0017243892652913928,0.004177466034889221,-0.00012949809024576098,-0.05745914578437805,0.05596665292978287,1.312200903892517,-1.9629337787628174,1.9622076749801636,-0.4289800822734833,0.4148597717285156,0.6356655359268188,0.42000001668930054,-1.4300718307495117,3.000002145767212,-0.14590680599212646,-3.0000009536743164,0.005979590583592653,0.00514454348012805,0.0042372881434857845,0.0032533425837755203,0.20748618245124817,0.167109414935112,0.12480852752923965,0.08051222562789917
0.06666666666666667,0.030689572915434837,0.023229671642184258,0.0,0.9999264478683472,0.0,0.0,-0.01212749257683754,0.7722814083099365,0.6121885180473328,0.0,0.0,0.0,-0.05616925656795502,-0.3810439109802246,0.6319835186004639,0.4200000464916229,0.9999999403953552,3.406832092878176e-06,-2.28558906201215e-06,4.300801492718165e-07,0.0002670248504728079,0.0002679176686797291,-0.0001043803058564663,-0.00174071139190346,0.00421183044090867,-0.00012850876373704523,-0.09560273587703705,0.08719786256551743,1.3017289638519287,-2.44112491607666,1.968888521194458,-0.8143494129180908,0.4148597717285156,0.6356655359268188,0.42000001668930054,-1.3800445795059204,3.000000476837158,-0.11544307321310043,2.999999523162842,0.008770749904215336,0.0072415489703416824,0.005599931348115206,0.003841032739728689,0.15798817574977875,0.10915964096784592,0.058195360004901886,0.005020210985094309
0.08333333333333333,0.04058372974395752,0.030432693660259247,0.0,0.9993648529052734,0.0,0.0,-0.035634975880384445,0.5054986476898193,0.3536455035209656,0.0,0.0,0.0,-3.734196186065674,-0.3810439109802246,0.6319835186004639,0.4200000464916229,1.0,3.6973397072870284e-06,-2.18897503145854e-06,-2.6324283908252255e-07,0.00026389575214125216,0.000265863083768636,-0.00010433816350996494,-0.001708182506263256,0.004150256514549255,-0.00012991153926122934,-0.13133753836154938,0.12445168942213058,1.2864153385162354,-1.8944958448410034,2.4883975982666016,-0.9716838002204895,0.4148597717285156,0.6356655359268188,0.42000001668930054,-1.3300367593765259,3.000000238418579,-0.1474539339542389,-3.0,0.007507870905101299,0.005078625865280628,0.002490250626578927,-0.00026432782760821283,-0.18973557651042938,-0.2575855255126953,-0.3279438614845276,-0.40095072984695435
0.1,0.05174555256962776,0.039527155458927155,0.0,0.9990277290344238,0.0,0.0,-0.04408597946166992,0.7131689190864563,0.5523720979690552,0.0,0.0,0.0,0.2003617286682129,-0.3810439109802246,0.6319835186004639,0.4200000464916229,0.9999999403953552,3.6204189655109076e-06,-2.2651970539300237e-06,1.7461321988321288e-07,0.00026676736888475716,0.0002674079150892794,-0.0001040794886648655,-0.001738528604619205,0.004209060221910477,-0.00012775698269251734,-0.16907039284706116,0.16455164551734924,1.2646195888519287,-2.505074977874756,2.4645838737487793,-1.5458229780197144,0.4148597717285156,0.6356655359268188,0.42000001668930054,-1.280017375946045,2.9999961853027344,-0.11389540880918503,3.0000014305114746,0.004999672528356314,0.001463265041820705,-0.0022574232425540686,-0.006171397399157286,-0.19866833090782166,-0.2545234262943268,-0.3117617666721344,-0.3704681694507599
0.11666666666666667,0.05906647443771362,0.04639700427651405,0.0,0.9979404211044312,0.0,0.0,-0.06414764374494553,0.5421270132064819,0.3095235824584961,0.0,0.0,0.0,-2.873986005783081,-0.3810439109802246,0.6319835186004639,0.4200000464916229,1.0,3.798416400968563e-06,-2.2627416456089122e-06,-1.5020985699720768e-07,0.00026374010485596955,0.00026566069573163986,-0.00010429113171994686,-0.001705370144918561,0.00414750212803483,-0.0001298012211918831,-0.2072913497686386,0.20908188819885254,1.2359869480133057,-2.167435646057129,2.8631186485290527,-1.698312520980835,0.4148597717285156,0.6356655359268188,0.42000001668930054,-1.230015754699707,3.000000476837158,-0.14591772854328156,-3.000000238418579,-0.0015411106869578362,-0.006017006933689117,-0.010691220872104168,-0.015575447119772434,-0.147944375872612,-0.253607839345932,-0.35670900344848633,-0.45712754130363464
0.13333333333333333,0.06513131409883499,0.05368173122406006,0.0,0.9942276477813721,0.0,0.0,-0.10729123651981354,0.29485854506492615,0.48826107382774353,0.0,0.0,0.0,-5.990721702575684,-0.3810439109802246,0.6319835782051086,0.4200000464916229,0.9999999403953552,3.5505045161698945e-06,-2.2297124360193266e-06,2.9290509928614483e-07,0.0002670330286491662,0.000267792638624087,-0.00010417005978524685,-0.0017440036172047257,0.004213502164930105,-0.00012799850082956254,-0.24419459700584412,0.26107293367385864,1.202941656112671,-2.1934990882873535,3.3037495613098145,-2.28507661819458,0.4148597717285156,0.6356655359268188,0.42000001668930054,-1.1800016164779663,2.9999961853027344,-0.11240458488464355,3.0,-0.005233944859355688,-0.011395703069865704,-0.017693253234028816,-0.0241371039301157,-0.2769320011138916,-0.36703893542289734,-0.45304298400878906,-0.5349348783493042
0.15,0.0755300372838974,0.06284034997224808,0.0,0.9907378554344177,0.0,0.0,-0.13578830659389496,0.7916939854621887,0.6060272455215454,0.0,0.0,0.0,-1.9846879243850708,-0.3810439109802246,0.6319835186004639,0.4200000464916229,0.9999999403953552,3.3380501918145455e-06,-2.242820528408629e-06,-2.8022322240417452e-08,0.00026674597756937146,0.0002675814612302929,-0.00010427739471197128,-0.0017367637483403087,0.0042068837210536,-0.00012831276399083436,-0.28275275230407715,0.312269926071167,1.161421298980713,-2.1733710765838623,3.1705751419067383,-2.6965930461883545,0.4148597717285156,0.6356655359268188,0.42000001668930054,-1.1300066709518433,3.0,-0.14439620077610016,-3.0000007152557373,-0.0073480852879583836,-0.015179594047367573,-0.023062031716108322,-0.031006470322608948,-0.0811178907752037,-0.17953841388225555,-0.2727387845516205,-0.36075592041015625
0.16666666666666666,0.08330890536308289,0.0695599690079689,0.0,0.9848958253860474,0.0,0.0,-0.17314782738685608,0.39702093601226807,0.3801248371601105,0.0,0.0,0.0,-5.068869590759277,-0.3810439109802246,0.6319835782051086,0.4200000464916229,0.9999999403953552,3.647779067250667e-06,-2.307212753294152e-06,3.527146219539645e-08,0.00026726859505288303,0.0002680137986317277,-0.00010418682359158993,-0.0017473286716267467,0.0042176577262580395,-0.00012798354146070778,-0.3170597553253174,0.36888688802719116,1.1100547313690186,-1.8504467010498047,3.648359775543213,-3.3735244274139404,0.4148597717285156,0.6356655359268188,0.42000001668930054,-1.0799968242645264,3.000002145767212,-0.1253034919500351,3.000000238418579,-0.014858465641736984,-0.023577194660902023,-0.032294344156980515,-0.041026677936315536,-0.5622034072875977,-0.6016340255737305,-0.6380897164344788,-0.6718427538871765
0.18333333333333332,0.08674940466880798,0.07799483835697174,0.0,0.9725559949874878,0.0,0.0,-0.23266901075839996,0.13047273457050323,0.5806751251220703,0.0,0.0,0.0,-8.072461128234863,-0.3810439109802246,0.6319835186004639,0.4200000464916229,0.9999999403953552,3.290514769105357e-06,-2.1938158170087263e-06,-2.7924590995098697e-07,0.0002667787193786353,0.0002677605953067541,-0.0001043414231389761,-0.0017390446737408638,0.004206892102956772,-0.00012845569290220737,-0.34556108713150024,0.43437832593917847,1.04656982421875,-1.3820749521255493,4.1631011962890625,-4.157445907592773,0.4148597717285156,0.6356655359268188,0.42000001668930054,-1.0299947261810303,3.000000238418579,-0.15724872052669525,-3.000000238418579,-0.02711714617908001,-0.03623676672577858,-0.04529891163110733,-0.05432629957795143,-0.829679548740387,-0.8383559584617615,-0.8439648151397705,-0.8468955755233765
0.2,0.09436175227165222,0.08365574479103088,0.0,0.9622556567192078,0.0,0.0,-0.27214714884757996,0.4997670650482178,0.27214691042900085,0.0,0.0,0.0,-3.5263657569885254,-0.3810439109802246,0.6319835186004639,0.4200000464916229,1.0,3.280726787124877e-06,-2.219165025962866e-06,1.5945686016038962e-07,0.0002662799961399287,0.0002674010756891221,-0.0001042510848492384,-0.0017357835313305259,0.004197876434773207,-0.00012865287135355175,-0.37074071168899536,0.4965139627456665,0.9709617495536804,-1.1910161972045898,3.6859941482543945,-4.959094047546387,0.4148597717285156,0.6356655359268188,0.42000001668930054,-0.9799886345863342,2.99999737739563,-0.20727801322937012,-3.000001907348633,-0.03979697823524475,-0.04863755404949188,-0.05739622190594673,-0.06610643118619919,-0.9306382536888123,-0.8735580444335938,-0.817301332950592,-0.762656033039093
0.21666666666666667,0.09654240310192108,0.09243426471948624,0.0,0.9499918222427368,0.0,0.0,-0.3122747838497162,0.14203879237174988,0.5298797488212585,0.0,0.0,0.0,-5.398478984832764,-0.3810439109802246,0.6319835782051086,0.4200000464916229,1.0,3.613114131439943e-06,-2.270080813104869e-06,2.2099777652329067e-07,0.0002671255497261882,0.00026781627093441784,-0.0001041400246322155,-0.0017444631084799767,0.004215197172015905,-0.00012786380830220878,-0.38782253861427307,0.5481204390525818,0.8800709247589111,-0.6520070433616638,2.8921518325805664,-5.736347198486328,0.4148597717285156,0.6356655359268188,0.42000001668930054,-0.9299781322479248,2.9999990463256836,-0.25730958580970764,-3.000001907348633,-0.05675462260842323,-0.06536190956830978,-0.07398560643196106,-0.08261695504188538,-0.8118088245391846,-0.8261820077896118,-0.8460928201675415,-0.8672417998313904
0.23333333333333334,0.09786870330572128,0.09680850058794022,0.0,0.9440955519676208,0.0,0.0,-0.3296718895435333,0.04110522195696831,0.16367341578006744,0.0,0.0,0.0,-1.1398234367370605,-0.3810439109802246,0.6319835186004639,0.4200000464916229,1.0,3.381833721505245e-06,-2.29093961934268e-06,2.727813352976227e-07,0.00026691294624470174,0.00026779971085488796,-0.00010433141142129898,-0.0017395353643223643,0.004209678154438734,-0.00012843581498600543,-0.40174049139022827,0.5854413509368896,0.7844125032424927,-0.5933104157447815,1.8532297611236572,-5.837691307067871,0.4148597717285156,0.6356655359268188,0.42000001668930054,-0.879967451095581,2.99999737739563,-0.30734220147132874,-2.9999985694885254,-0.07027904689311981,-0.07873792201280594,-0.08729933947324753,-0.09590105712413788,-0.8483879566192627,-0.8225023746490479,-0.8014219403266907,-0.7827204465866089
0.25,0.09481260180473328,0.10456223040819168,0.0,0.9334915280342102,0.0,0.0,-0.35859939455986023,-0.24474836885929108,0.4594424068927765,0.0,0.0,0.0,-4.369406700134277,-0.3810438811779022,0.6319835186004639,0.4200000464916229,0.9999999403953552,3.7065449305373477e-06,-2.222977173005347e-06,-2.2551901679435105e-07,0.0002642468025442213,0.0002665686479303986,-0.00010457751341164112,-0.0017169659258797765,0.004155547823756933,-0.00013063880032859743,-0.40646135807037354,0.6117625832557678,0.6834152936935425,0.025556951761245728,1.1475435495376587,-5.99276065826416,0.4148597717285156,0.6356655359268188,0.42000001668930054,-0.8299575448036194,2.9999914169311523,-0.35737481713294983,-3.000002145767212,-0.08731529861688614,-0.0956382006406784,-0.10408761352300644,-0.11258677393198013,-0.826333224773407,-0.8607362508773804,-0.8928816914558411,-0.9216968417167664
0.26666666666666666,0.09616854041814804,0.1068263053894043,0.0,0.9292333126068115,0.0,0.0,-0.3694935739040375,0.009790225885808468,0.12259553372859955,0.0,0.0,0.0,-0.11884315311908722,-0.3810439109802246,0.6319835186004639,0.4200000464916229,0.9999999403953552,3.7196000448602717e-06,-2.403485495960922e-06,-1.8307810023543425e-07,0.0002662320912349969,0.00026729173259809613,-0.00010425853542983532,-0.0017327233217656612,0.0041965520940721035,-0.00012851424980908632,-0.40896788239479065,0.6252073049545288,0.5862497687339783,0.05606832355260849,0.32696208357810974,-5.721025466918945,0.4148597717285156,0.6356655359268188,0.42000001668930054,-0.7799487113952637,2.999983549118042,-0.4074063003063202,-3.0000016689300537,-0.09937076270580292,-0.10799919068813324,-0.11672679334878922,-0.12548403441905975,-0.9943660497665405,-0.9947351813316345,-0.9952390789985657,-0.9956885576248169
0.2833333333333333,0.09340491890907288,0.1070539727807045,0.0,0.9304091334342957,0.0,0.0,-0.3665226399898529,-0.24977616965770721,-0.01187897939234972,0.0,0.0,0.0,0.6340073347091675,-0.3810439109802246,0.6319835782051086,0.4200000464916229,0.9999999403953552,3.5840146210830426e-06,-2.31546050599718e-06,7.404324975368581e-08,0.00026522012194618583,0.0002645521017257124,-0.00010317075066268444,-0.0017020526574924588,0.004185048397630453,-0.0001249978959094733,-0.4052320122718811,0.6297534108161926,0.49488526582717896,0.49087995290756226,0.12324881553649902,-5.080422401428223,0.4148597717285156,0.6356655359268188,0.42000001668930054,-0.7299400568008423,3.0000016689300537,-0.4574359059333801,-2.9999990463256836,-0.1169632077217102,-0.1253729611635208,-0.13393855094909668,-0.142570361495018,-1.0161947011947632,-1.0122463703155518,-1.0092321634292603,-1.0068237781524658
0.3,0.08649799972772598,0.10541291534900665,0.0,0.9247050285339355,0.0,0.0,-0.38068440556526184,-0.38422295451164246,-0.18285244703292847,0.0,0.0,0.0,-2.751371145248413,-0.3810439109802246,0.6319835186004639,0.4200000464916229,1.0,3.724180714925751e-06,-2.2719079879607307e-06,9.637297893050345e-08,0.0002631253737490624,0.0002652592374943197,-0.00010437984019517899,-0.0016960874199867249,0.004134821705520153,-0.00013027869863435626,-0.3905526399612427,0.6286187767982483,0.41226059198379517,1.194620132446289,-0.17767176032066345,-4.800899982452393,0.4148597717285156,0.6356655359268188,0.42000001668930054,-0.6799331307411194,2.999993085861206,-0.5074637532234192,-2.999999761581421,-0.13396383821964264,-0.14225879311561584,-0.15076428651809692,-0.1593627780675888,-0.8165879845619202,-0.8527730107307434,-0.8868192434310913,-0.9170182347297668
0.31666666666666665,0.07868155092000961,0.10075955837965012,0.0,0.925322413444519,0.0,0.0,-0.37918123602867126,-0.5067684054374695,-0.3197411894798279,0.0,0.0,0.0,1.1107085943222046,-0.38104376196861267,0.6319836378097534,0.41999998688697815,1.0,2.291420742039918e-06,-8.515170861755905e-07,1.6106790212688793e-07,-1.4555731468135491e-05,6.757736264262348e-05,-2.1617161110043526e-05,0.0020824673119932413,-0.0037094426807016134,-0.0001234022929565981,-0.39084237813949585,0.6331871747970581,0.42567676305770874,-0.07157818228006363,0.4069019556045532,-0.16179069876670837,0.4148597717285156,0.6356655359268188,0.42000001668930054,-0.6301800012588501,2.9999845027923584,-0.5579745769500732,-2.99991774559021,-0.13763143122196198,-0.14619103074073792,-0.15429188311100006,-0.1619744896888733,-0.30676865577697754,-0.30295324325561523,-0.2677948772907257,-0.20945963263511658
0.3333333333333333,0.06862963736057281,0.09380624443292618,0.0,0.9201062917709351,0.0,0.0,-0.39166876673698425,-0.6489893794059753,-0.45773836970329285,0.0,0.0,0.0,-2.530348062515259,-0.38081416487693787,0.6324998736381531,0.42000091075897217,0.9999772906303406,8.37419429444708e-06,-9.936866263160482e-06,-0.006734441500157118,0.08372581005096436,0.18334640562534332,-0.0013227665331214666,-0.04081733897328377,0.046471286565065384,-4.814968585968018,-0.388660192489624,0.6373615860939026,0.42281854152679443,0.26357272267341614,0.19396492838859558,-0.18421216309070587,0.4148597717285156,0.6356655359268188,0.42000001668930054,-0.5801750421524048,2.999994993209839,-0.6080244183540344,-2.999997138977051,-0.14430196583271027,-0.15219369530677795,-0.1591729372739792,-0.1654019057750702,-0.4498167335987091,-0.3816436529159546,-0.29142525792121887,-0.18550577759742737
0.35,0.05638186261057854,0.08447632938623428,0.0,0.9213402271270752,0.0,0.0,-0.38875719904899597,-0.7737227082252502,-0.6006370186805725,0.0,0.0,0.0,1.3172277212142944,-0.37776729464530945,0.638474702835083,0.4200174808502197,0.9954650402069092,0.0004483709344640374,-8.596081897849217e-05,-0.09512608498334885,0.23250724375247955,0.4367073178291321,0.005950388498604298,0.29788801074028015,-0.025997888296842575,-13.437995910644531,-0.3848884403705597,0.6434167623519897,0.42045897245407104,0.16572776436805725,0.5537660121917725,0.1352953165769577,0.4148597717285156,0.6356655359268188,0.42000001668930054,-0.5301700830459595,3.000001907348633,-0.6580582857131958,-2.999969244003296,-0.15267986059188843,-0.158999964594841,-0.16405364871025085,-0.16809773445129395,-0.49613139033317566,-0.3811948597431183,-0.2463260442018509,-0.09632610529661179
0.36666666666666664,0.04293053224682808,0.0728474035859108,0.0,0.9165494441986084,0.0,0.0,-0.39992138743400574,-0.8623949289321899,-0.7387000322341919,0.0,0.0,0.0,-2.3953189849853516,-0.3717179000377655,0.6488398909568787,0.4201407730579376,0.9905328154563904,-0.0034615423064678907,0.00043442132300697267,-0.13723179697990417,0.5214396715164185,0.816222071647644,-0.010807017795741558,0.35049736499786377,0.15063950419425964,-3.924449920654297,-0.37744659185409546,0.653003454208374,0.4197956323623657,0.6944983601570129,0.676455020904541,-0.19098281860351562,0.4148597717285156,0.6356655359268188,0.42000001668930054,-0.4801655113697052,2.9997940063476562,-0.708082377910614,-2.999789237976074,-0.16189299523830414,-0.16572439670562744,-0.16795088350772858,-0.16890566051006317,-0.531130313873291,-0.36777523159980774,-0.18495042622089386,0.01336511317640543
0.3833333333333333,0.03195059671998024,0.05847359448671341,0.0,0.8998090624809265,0.0,0.0,-0.4362839460372925,-0.5839798450469971,-0.9156092405319214,0.0,0.0,0.0,-5.6431097984313965,-0.3612686097621918,0.6644788384437561,0.42028024792671204,0.9852402210235596,-0.006903924513608217,0.0009998104069381952,-0.171035036444664,1.0085363388061523,1.0292267799377441,0.21929529309272766,-10.444945335388184,2.674156904220581,-10.756041526794434,-0.3635494112968445,0.6657368540763855,0.42140230536460876,1.0627707242965698,0.9956605434417725,0.15353959798812866,0.4148597717285156,0.6356655359268188,0.42000001668930054,-0.43007925152778625,2.9890825748443604,-0.7580801844596863,-2.9974825382232666,-0.16990774869918823,-0.17087426781654358,-0.16983795166015625,-0.16719478368759155,-0.40574124455451965,-0.2312745898962021,-0.03236205130815506,0.18780900537967682
0.4,0.025095544755458832,0.040988367050886154,0.0,0.8688733577728271,0.0,0.0,-0.49503445625305176,-0.34361836314201355,-1.1061400175094604,0.0,0.0,0.0,-8.798531532287598,-0.32902228832244873,0.6889744400978088,0.42357945442199707,0.9742069840431213,-0.010244504548609257,-0.03638630360364914,-0.22246739268302917,3.061262607574463,1.7048320770263672,0.09361527860164642,31.667041778564453,-15.669828414916992,11.249368667602539,-0.33126381039619446,0.6907498836517334,0.42416784167289734,2.8424184322357178,2.107511520385742,0.38747847080230713,0.4148597717285156,0.6356655359268188,0.42000001668930054,-0.391644150018692,1.367676019668579,-0.8081029653549194,-2.9997599124908447,-0.17782928049564362,-0.17541374266147614,-0.17064569890499115,-0.16398391127586365,-0.5042753219604492,-0.28251805901527405,-0.044709812849760056,0.20537269115447998
0.4166666666666667,0.020467247813940048,0.02862650156021118,0.0,0.8202147483825684,0.0,0.0,-0.5720556974411011,-0.23458869755268097,-0.6096656322479248,0.0,0.0,0.0,-11.737764358520508,-0.2544838488101959,0.7288615107536316,0.4282442331314087,0.9568517804145813,0.05491907149553299,-0.08609628677368164,-0.2720402181148529,6.0082106590271,2.4967613220214844,0.34393998980522156,13.759538650512695,-12.64371395111084,11.056769371032715,-0.2567518353462219,0.7312262654304504,0.4289909899234772,5.66679573059082,2.8825979232788086,0.412447452545166,0.4148597717285156,0.6356655359268188,0.42000001668930054,-0.37441182136535645,0.8689563274383545,-0.771364688873291,3.0005040168762207,-0.19254504144191742,-0.18625704944133759,-0.17631058394908905,-0.16464035212993622,-0.8635421991348267,-0.717421293258667,-0.4222540557384491,-0.14764422178268433
0.43333333333333335,0.01839863322675228,0.02223306894302368,0.0,0.7798312902450562,0.0,0.0,-0.6259897351264954,-0.06637591868638992,-0.42143991589546204,0.0,0.0,0.0,-6.740166187286377,-0.1601114124059677,0.769243061542511,0.43771058320999146,0.9225367903709412,0.08811048418283463,-0.1243758276104927,-0.3545322120189667,5.963724613189697,1.7911232709884644,0.7649983167648315,17.88212013244629,-2.5977087020874023,13.564481735229492,-0.1623649150133133,0.7739341259002686,0.4381301701068878,5.741555213928223,2.261937141418457,0.6192569136619568,0.4148597717285156,0.6356655359268188,0.42000001668930054,-0.35665082931518555,1.1485439538955688,-0.7986834049224854,-3.0000040531158447,-0.20598752796649933,-0.20008669793605804,-0.1857088804244995,-0.1697506308555603,-0.5950689315795898,-0.6444518566131592,-0.45094743371009827,-0.2655383348464966
0.45,0.013937762938439846,0.009881279431283474,0.0,0.7595913410186768,0.0,0.0,-0.6504006385803223,-0.3454107940196991,-0.8956997990608215,0.0,0.0,0.0,-2.8335835933685303,-0.061918288469314575,0.7983654141426086,0.45027902722358704,0.8748663067817688,0.08676445484161377,-0.11936943233013153,-0.4613369107246399,6.179378986358643,0.6399784088134766,0.8991541862487793,6.670718193054199,-5.3101725578308105,13.791043281555176,-0.06413794308900833,0.804057776927948,0.44923797249794006,6.08041524887085,1.2664141654968262,0.8076558113098145,0.4148597717285156,0.6356655359268188,0.42000001668930054,-0.337215393781662,1.0224454402923584,-0.848707377910614,-3.0000033378601074,-0.21331755816936493,-0.20728756487369537,-0.1897357851266861,-0.17080822587013245,-0.35398638248443604,-0.2996022403240204,-0.11357865482568741,0.05776930972933769
0.4666666666666667,0.012585189193487167,0.0004180314135737717,0.0,0.729016125202179,0.0,0.0,-0.6844965219497681,0.07488319277763367,-0.4894803464412689,0.0,0.0,0.0,-6.390711307525635,0.039237990975379944,0.8065524101257324,0.4595552682876587,0.8345125913619995,0.07237304002046585,-0.1336498260498047,-0.5296117663383484,6.311232089996338,-0.2796502709388733,0.6788786053657532,3.546400308609009,-6.292214393615723,-1.426345705986023,0.038286689668893814,0.813551664352417,0.45994624495506287,6.232725143432617,-0.07786187529563904,0.5278074145317078,0.4148597717285156,0.6356655359268188,0.42000001668930054,-0.32279661297798157,0.7162181735038757,-0.8987314105033875,-3.0000011920928955,-0.2234044075012207,-0.21495366096496582,-0.19362236559391022,-0.17127329111099243,-0.5659649968147278,-0.40006083250045776,-0.19040469825267792,-1.1409650824134587e-07
0.48333333333333334,0.010959659703075886,-0.005530110560357571,0.0,0.7131134867668152,0.0,0.0,-0.7010486125946045,-0.16963829100131989,-0.28691375255584717,0.0,0.0,0.0,-1.4331494569778442,0.1364489197731018,0.7983142733573914,0.4669976532459259,0.7626328468322754,0.052410658448934555,-0.14030174911022186,-0.6292531490325928,5.233191967010498,-1.7459220886230469,0.5214020609855652,-9.965372085571289,13.551312446594238,7.861423969268799,0.13516339659690857,0.8064674139022827,0.46800026297569275,5.546995162963867,-0.8474432826042175,0.44473588466644287,0.4148597717285156,0.6356655359268188,0.42000001668930054,-0.3137347996234894,0.3296786844730377,-0.9487554430961609,-2.9989893436431885,-0.23136772215366364,-0.2204090654850006,-0.19641748070716858,-0.1717219352722168,-0.40395358204841614,-0.26243487000465393,-0.1442873775959015,-0.04699802026152611
0.5,0.010469617322087288,-0.010782006196677685,0.0,0.6907451152801514,0.0,0.0,-0.7230983376502991,0.0260538998991251,-0.34159111976623535,0.0,0.0,0.0,-4.689319133758545,0.22051815688610077,0.7763358354568481,0.469118595123291,0.6985210180282593,0.026935897767543793,-0.13495562970638275,-0.7022319436073303,4.307336330413818,-2.283757448196411,0.13899864256381989,-8.73768424987793,13.592968940734863,10.480020523071289,0.21883714199066162,0.7864899039268494,0.4716914892196655,4.770223617553711,-1.5957252979278564,0.10726778209209442,0.4148597717285156,0.6356655359268188,0.42000001668930054,-0.30945658683776855,0.16251841187477112,-0.9987794756889343,-2.998784303665161,-0.23755277693271637,-0.2241230309009552,-0.19844022393226624,-0.17237888276576996,-0.32733818888664246,-0.17173679172992706,-0.08444292843341827,-0.017331315204501152
0.5166666666666666,0.012713481672108173,-0.013515112921595573,0.0,0.6824880838394165,0.0,0.0,-0.7308967113494873,0.17695069313049316,-0.09907972067594528,0.0,0.0,0.0,-0.3461475372314453,0.29124972224235535,0.7463987469673157,0.46276232600212097,0.6151297092437744,-0.11878687888383865,-0.2131960093975067,-0.7497016191482544,3.4922666549682617,-2.2251758575439453,-0.46398240327835083,-19.581029891967773,10.183265686035156,1.1500442028045654,0.2887325882911682,0.7581541538238525,0.4720558524131775,3.8393564224243164,-1.8755853176116943,-0.08658324182033539,0.4148597717285156,0.6356655359268188,0.42000001668930054,-0.3022901713848114,0.6851547360420227,-1.0488016605377197,-2.99943470954895,-0.2399279624223709,-0.22627969086170197,-0.1999068260192871,-0.17345848679542542,-0.009493231773376465,-0.041379086673259735,-0.04833525791764259,-0.07271184027194977
0.5333333333333333,0.01680094189941883,-0.01914091221988201,0.0,0.6646725535392761,0.0,0.0,-0.747134804725647,0.31495627760887146,-0.37939581274986267,0.0,0.0,0.0,-3.662569522857666,0.34738701581954956,0.7165282964706421,0.4535912275314331,0.5834564566612244,-0.145711287856102,-0.1776813119649887,-0.7789583206176758,2.784940719604492,-1.8823009729385376,-0.5782209634780884,10.166986465454102,8.898908615112305,14.624125480651855,0.34631550312042236,0.7281006574630737,0.46391749382019043,3.134331226348877,-1.9155383110046387,-0.71608567237854,0.4148597717285156,0.6356655359268188,0.42000001668930054,-0.28754952549934387,0.9002453088760376,-1.0988237857818604,-2.998194932937622,-0.23618000745773315,-0.2236844301223755,-0.19857797026634216,-0.17361730337142944,0.22443771362304688,0.1627882719039917,0.0639217421412468,-0.04941875860095024
0.55,0.019811999052762985,-0.021660422906279564,0.0,0.660548210144043,0.0,0.0,-0.7507836222648621,0.09684114903211594,-0.10045386850833893,0.0,0.0,0.0,0.24008437991142273,0.3925311267375946,0.6876298189163208,0.44409433007240295,0.5175067186355591,-0.042001500725746155,-0.066530741751194,-0.8520540595054626,2.4461934566497803,-1.6555354595184326,-0.5969207286834717,20.73819351196289,-11.607389450073242,-18.417299270629883,0.38928931951522827,0.6948044300079346,0.4490591585636139,2.127127170562744,-1.9832887649536133,-1.0267541408538818,0.4148597717285156,0.6356655359268188,0.42000001668930054,-0.2694381773471832,1.4369866847991943,-1.148845911026001,-2.999997854232788,-0.23343901336193085,-0.22175507247447968,-0.19848793745040894,-0.17561785876750946,0.2877793610095978,0.20736628770828247,0.049849748611450195,-0.11745978891849518
0.5666666666666667,0.02326744608581066,-0.026196079328656197,0.0,0.6461879014968872,0.0,0.0,-0.7631783485412598,0.2556086480617523,-0.3499530851840973,0.0,0.0,0.0,-3.0837392807006836,0.4221181273460388,0.6588596105575562,0.4238702356815338,0.5116240382194519,-0.05294977128505707,-0.06637942790985107,-0.8550034761428833,1.440773844718933,-2.174656629562378,-1.2142466306686401,-4.048059463500977,-7.226107597351074,17.643821716308594,0.4199577867984772,0.6661292314529419,0.4287017583847046,1.3557074069976807,-1.5818331241607666,-1.3644382953643799,0.4148597717285156,0.6356655359268188,0.42000001668930054,-0.24932986497879028,0.6471934914588928,-1.1179274320602417,2.9984281063079834,-0.22641025483608246,-0.21667565405368805,-0.19681008160114288,-0.17739993333816528,0.40112948417663574,0.28565967082977295,0.07138322293758392,-0.14601483941078186
0.5833333333333334,0.02919255942106247,-0.028395237401127815,0.0,0.6455771327018738,0.0,0.0,-0.7636950612068176,0.3893246650695801,-0.06713037937879562,0.0,0.0,0.0,0.7535840272903442,0.4328635334968567,0.6443958878517151,0.42109552025794983,0.5218356251716614,-0.01754401996731758,0.010595208033919334,-0.8527997732162476,0.1434246003627777,-1.0383846759796143,0.2539433240890503,4.983344554901123,11.068582534790039,7.266458511352539,0.4298190772533417,0.6494424939155579,0.42494434118270874,0.2093389928340912,-0.6993112564086914,0.08136606961488724,0.4148597717285156,0.6356655359268188,0.42000001668930054,-0.24479129910469055,0.06220157817006111,-1.1404304504394531,-2.9960029125213623,-0.2199321985244751,-0.21235588192939758,-0.19620779156684875,-0.18037104606628418,0.42832744121551514,0.2822263240814209,0.04186724126338959,-0.1849367320537567
0.6,0.03309409320354462,-0.027430444955825806,0.0,0.6345418691635132,0.0,0.0,-0.7728884816169739,0.16302186250686646,0.10617940127849579,0.0,0.0,0.0,-2.6323187351226807,0.43454042077064514,0.6355327367782593,0.4203508198261261,0.5521050095558167,-0.004972291179001331,0.007161726709455252,-0.8337290287017822,-0.06389020383358002,-0.4416462182998657,-0.053945716470479965,-1.2091275453567505,-2.520325183868408,5.1850104331970215,0.43045276403427124,0.6408743262290955,0.4231764078140259,-0.08729298412799835,-0.36126676201820374,-0.1265982687473297,0.4148597717285156,0.6356655359268188,0.42000001668930054,-0.2537565231323242,-0.8669790029525757,-1.1026724576950073,2.999824047088623,-0.21132653951644897,-0.2067573517560959,-0.195099875330925,-0.18340004980564117,0.5569959878921509,0.3697950541973114,0.09492582082748413,-0.15669205784797668
0.6166666666666667,0.03757782652974129,-0.031013870611786842,0.0,0.6361459493637085,0.0,0.0,-0.7715687155723572,0.2471015453338623,-0.2010270059108734,0.0,0.0,0.0,1.0982272624969482,0.432475209236145,0.6308392882347107,0.42000019550323486,0.5782358646392822,2.689518987608608e-05,-9.450162178836763e-05,-0.8158696293830872,-0.2667059600353241,-0.06526396423578262,-0.0035632371436804533,0.15772558748722076,0.14797569811344147,2.9852609634399414,0.4272727966308594,0.6378529667854309,0.4239503741264343,-0.39017701148986816,-0.10096190869808197,0.11375662684440613,0.4148597717285156,0.6356655359268188,0.42000001668930054,-0.290284126996994,-2.9999403953552246,-1.1251412630081177,-2.9997267723083496,-0.1987776756286621,-0.19758819043636322,-0.19070300459861755,-0.1833469122648239,0.6217297911643982,0.46297264099121094,0.219771608710289,-0.0029572639614343643
0.6333333333333333,0.04419047385454178,-0.030172457918524742,0.0,0.6574363708496094,0.0,0.0,-0.753510057926178,0.4594157338142395,0.05229984596371651,0.0,0.0,0.0,4.3110761642456055,0.4287821054458618,0.6299339532852173,0.41999998688697815,0.5942788124084473,-2.172878521378152e-05,1.2034387509629596e-05,-0.8042590618133545,-0.1861950308084488,-0.04967320337891579,-0.00090142956469208,-0.0070719956420362,-0.038118839263916016,2.630829334259033,0.4234231412410736,0.6376501321792603,0.42580556869506836,-0.16697177290916443,0.1232946515083313,0.13417328894138336,0.4148597717285156,0.6356655359268188,0.42000001668930054,-0.33939358592033386,-2.8087704181671143,-1.175093173980713,-2.999929904937744,-0.1904623657464981,-0.1916096955537796,-0.1883474886417389,-0.18425500392913818,0.6264399886131287,0.4567984938621521,0.21970263123512268,0.008983529172837734
0.65,0.05309157446026802,-0.03298419341444969,0.0,0.6658634543418884,0.0,0.0,-0.7460736632347107,0.5611738562583923,-0.1733313798904419,0.0,0.0,0.0,0.2848530113697052,0.4264346659183502,0.629450798034668,0.4200001060962677,0.6051129102706909,-5.274552222545026e-06,-2.5897966793309024e-07,-0.796139657497406,-0.15116187930107117,-0.00830530934035778,-0.00017292637494392693,0.008230875246226788,-0.0026554560754448175,0.27880364656448364,0.4208769202232361,0.6419747471809387,0.4289478659629822,-0.1697307974100113,0.2403576523065567,0.22365067899227142,0.4148597717285156,0.6356655359268188,0.42000001668930054,-0.3894122242927551,-2.999988555908203,-1.2250561714172363,-2.9993250370025635,-0.17858825623989105,-0.18243171274662018,-0.18284133076667786,-0.1819530725479126,0.5862407684326172,0.47349536418914795,0.30625009536743164,0.1628604531288147
0.6666666666666666,0.06383689492940903,-0.0384797677397728,0.0,0.6819317936897278,0.0,0.0,-0.7314157485961914,0.6881229877471924,-0.40854811668395996,0.0,0.0,0.0,3.621307611465454,0.4236558675765991,0.6297091841697693,0.4200955331325531,0.5889594554901123,0.0014297313755378127,-0.0019114420283585787,-0.8081589937210083,-0.1800091415643692,0.014045233838260174,0.011080816388130188,-0.15562093257904053,-0.533102810382843,-3.9868741035461426,0.416964590549469,0.6437364816665649,0.4344855844974518,-0.2801152169704437,0.03948163613677025,0.5137186050415039,0.4148597717285156,0.6356655359268188,0.42000001668930054,-0.4394266903400421,-2.999999761581421,-1.2750744819641113,-2.9999992847442627,-0.17191480100154877,-0.17640726268291473,-0.17822782695293427,-0.17837344110012054,0.32179319858551025,0.3286041021347046,0.29787081480026245,0.2894013822078705
0.6833333333333333,0.0769098773598671,-0.045471079647541046,0.0,0.6861249804496765,0.0,0.0,-0.7274836301803589,0.8145700097084045,-0.4793180823326111,0.0,0.0,0.0,-0.32804054021835327,0.42141833901405334,0.6297856569290161,0.4200000464916229,0.5715163946151733,-5.512043799171806e-07,-9.420063520337862e-07,-0.820590615272522,-0.11221280694007874,0.0008267967496067286,-2.8348295018076897e-06,-9.379922630614601e-06,-0.00012081248132744804,-2.004016637802124,0.4165143370628357,0.644973635673523,0.4423994719982147,0.18317638337612152,0.05387960001826286,0.5639163255691528,0.4148597717285156,0.6356655359268188,0.42000001668930054,-0.48943963646888733,-3.000000476837158,-1.3250927925109863,-2.999999523162842,-0.16855935752391815,-0.17235691845417023,-0.1739686131477356,-0.17353931069374084,0.17734211683273315,0.23886415362358093,0.27854618430137634,0.3399367332458496
0.7,0.0917619988322258,-0.055459827184677124,0.0,0.6687487959861755,0.0,0.0,-0.7434884309768677,0.9230366349220276,-0.6902386546134949,0.0,0.0,0.0,-3.7007975578308105,0.4204859137535095,0.6297402381896973,0.4200000464916229,0.5650697946548462,-7.51414461319655e-07,-2.0631982788898995e-09,-0.8250430822372437,-0.03536885976791382,-0.003611526917666197,-1.306051854044199e-05,-0.00015694941976107657,-0.000576480058953166,-0.6499097943305969,0.424752414226532,0.6464694738388062,0.4592834711074829,0.7816294431686401,0.09629024565219879,1.5704737901687622,0.4148597717285156,0.6356655359268188,0.42000001668930054,-0.5394521951675415,-2.9999804496765137,-1.3751111030578613,-2.999999523162842,-0.16845640540122986,-0.17078641057014465,-0.17122669517993927,-0.1693287193775177,-0.06295806169509888,0.037655048072338104,0.12392572313547134,0.22473450005054474
0.7166666666666667,0.10992979258298874,-0.06080448627471924,0.0,0.6625586152076721,0.0,0.0,-0.7490100860595703,1.0244495868682861,-0.27478861808776855,0.0,0.0,0.0,0.18837261199951172,0.4204678535461426,0.6297335028648376,0.4200000464916229,0.5648112893104553,7.405022728335098e-08,-3.9084156924218405e-06,-0.8252200484275818,0.0001462764194002375,-0.00016153718752320856,-6.955745629966259e-05,0.0013900358462706208,-0.0013745799660682678,-0.0008633693214505911,0.43813616037368774,0.648688554763794,0.49248820543289185,0.8885116577148438,0.33484429121017456,2.3910255432128906,0.4148597717285156,0.6356655359268188,0.42000001668930054,-0.5894571542739868,-3.0,-1.4251294136047363,-2.999999523162842,-0.17431189119815826,-0.17453260719776154,-0.17310810089111328,-0.16922450065612793,-0.18687190115451813,-0.12066304683685303,-0.06163027137517929,0.00780151505023241
0.7333333333333333,0.12428586930036545,-0.06398992985486984,0.0,0.6794845461845398,0.0,0.0,-0.7336898446083069,0.8072179555892944,-0.1640598177909851,0.0,0.0,0.0,3.5425758361816406,0.42046788334846497,0.6297334432601929,0.4200000464916229,0.5648112297058105,2.18530402662509e-07,-2.8672263852058677e-06,-0.8252201080322266,7.442403875757009e-05,-0.0002590749354567379,-8.346186950802803e-05,0.006442412734031677,-0.0017715179128572345,-0.000704410660546273,0.4547804296016693,0.6506465673446655,0.5251187682151794,1.0083450078964233,0.007473953068256378,1.656245231628418,0.4148597717285156,0.6356655359268188,0.42000001668930054,-0.611699104309082,0.07879861444234848,-1.4751477241516113,-2.999999761581421,-0.17585943639278412,-0.17504021525382996,-0.17262350022792816,-0.16760003566741943,0.0025375199038535357,0.06308679282665253,0.121802419424057,0.1856878250837326
0.75,0.13451111316680908,-0.06433674693107605,0.0,0.6829831600189209,0.0,0.0,-0.7304341197013855,0.5364815592765808,0.050883837044239044,0.0,0.0,0.0,-0.427473783493042,0.42046788334846497,0.6297335028648376,0.4200000464916229,0.5648112893104553,2.636396345678804e-07,-3.1887357181403786e-06,-0.825219988822937,7.152858597692102e-05,-0.0002609565563034266,-8.294708095490932e-05,0.006506606005132198,-0.001816782052628696,-0.0007015786250121891,0.4675421714782715,0.6500443816184998,0.5457508563995361,0.5186033248901367,-0.12640516459941864,1.0080540180206299,0.4148597717285156,0.6356655359268188,0.42000001668930054,-0.6282972693443298,-1.8868768215179443,-1.4364924430847168,2.999999761581421,-0.17516948282718658,-0.1736682802438736,-0.1706019639968872,-0.16491007804870605,0.08577495068311691,0.1195458397269249,0.14848753809928894,0.17244486510753632
0.7666666666666666,0.14037127792835236,-0.061818838119506836,0.0,0.6961908936500549,0.0,0.0,-0.7178567051887512,0.2858511209487915,0.22371533513069153,0.0,0.0,0.0,2.9989964962005615,0.42046791315078735,0.6297334432601929,0.4200000464916229,0.564811110496521,2.2060142157442897e-07,-3.1432325613423018e-06,-0.8252202272415161,7.538813224527985e-05,-0.00025988114066421986,-8.370238356292248e-05,0.006458487827330828,-0.0017644779291003942,-0.0007078787311911583,0.4744834899902344,0.6468573808670044,0.5595463514328003,0.3108960688114166,-0.19621285796165466,0.7121479511260986,0.4148597717285156,0.6356655359268188,0.42000001668930054,-0.636559784412384,0.6781082153320312,-1.453887701034546,-2.9999992847442627,-0.17285743355751038,-0.17095740139484406,-0.16760319471359253,-0.1617853045463562,0.17771922051906586,0.1916680783033371,0.19640927016735077,0.18680743873119354
0.7833333333333333,0.14173775911331177,-0.06476883590221405,0.0,0.6970531940460205,0.0,0.0,-0.7170193791389465,0.016980774700641632,-0.3077564537525177,0.0,0.0,0.0,-0.8541032671928406,0.42046788334846497,0.6297334432601929,0.4200000464916229,0.5648110508918762,1.1716716841192465e-07,-3.1547988328384236e-06,-0.8252202868461609,7.136545900721103e-05,-0.00025894082500599325,-8.297059684991837e-05,0.006455679424107075,-0.0018102191388607025,-0.0006974049611017108,0.4788946509361267,0.647021472454071,0.5667158365249634,0.1540125608444214,0.04655386507511139,0.2835494875907898,0.4148597717285156,0.6356655359268188,0.42000001668930054,-0.6472264528274536,-1.7378299236297607,-1.4152944087982178,2.9999992847442627,-0.1633986383676529,-0.1624588519334793,-0.16018323600292206,-0.15564720332622528,0.6658834218978882,0.5942009687423706,0.5129177570343018,0.4160405695438385
0.8,0.14637579023838043,-0.06448131799697876,0.0,0.7083496451377869,0.0,0.0,-0.7058616876602173,0.3266320526599884,0.08923863619565964,0.0,0.0,0.0,2.736753463745117,0.42046788334846497,0.6297334432601929,0.4200000464916229,0.5648112893104553,2.5472212428212515e-07,-3.223133489882457e-06,-0.825219988822937,7.1753267548047e-05,-0.0002608268696349114,-8.300645276904106e-05,0.0065017156302928925,-0.001813879469409585,-0.0007018934702500701,0.484791100025177,0.6423458456993103,0.5711627006530762,0.5914549827575684,-0.34968987107276917,0.2706514298915863,0.4148597717285156,0.6356655359268188,0.42000001668930054,-0.6576240658760071,0.31647607684135437,-1.4331145286560059,-2.9999921321868896,-0.15788036584854126,-0.15693767368793488,-0.15485428273677826,-0.15085072815418243,0.3158416748046875,0.32089462876319885,0.31784799695014954,0.2969413101673126
0.8166666666666667,0.14755840599536896,-0.06610695272684097,0.0,0.706702470779419,0.0,0.0,-0.7075108885765076,-0.0033726166002452374,-0.092170849442482,0.0,0.0,0.0,-1.261033058166504,0.42046788334846497,0.6297334432601929,0.4200000464916229,0.5648114085197449,2.3226408529808396e-07,-3.102229811702273e-06,-0.8252199292182922,7.219696999527514e-05,-0.0002607726491987705,-8.312799036502838e-05,0.006497746333479881,-0.00180919433478266,-0.0007028396939858794,0.4928934872150421,0.6378250122070312,0.5707696676254272,0.3238431215286255,-0.31231674551963806,-0.15945450961589813,0.4148597717285156,0.6356655359268188,0.42000001668930054,-0.6686521768569946,-1.4741790294647217,-1.3945797681808472,3.0,-0.15358276665210724,-0.15261995792388916,-0.15065935254096985,-0.14709483087062836,0.1001472920179367,0.12170586735010147,0.1311749517917633,0.11754700541496277
0.8333333333333334,0.1494140923023224,-0.06486083567142487,0.0,0.7140605449676514,0.0,0.0,-0.7000839114189148,0.1572522521018982,0.11932849138975143,0.0,0.0,0.0,2.0529894828796387,0.42046788334846497,0.6297334432601929,0.4200000464916229,0.5648111701011658,2.675572545740579e-07,-3.0425831027969252e-06,-0.8252201676368713,7.62522904551588e-05,-0.0002592404489405453,-8.398178033530712e-05,0.006436330731958151,-0.0017541866982355714,-0.0007087354897521436,0.49843186140060425,0.6324028968811035,0.5682622194290161,0.37145528197288513,-0.2937312424182892,-0.08709482848644257,0.4148597717285156,0.6356655359268188,0.42000001668930054,-0.6637629866600037,1.7754095792770386,-1.4127821922302246,-2.9999990463256836,-0.15210101008415222,-0.15082474052906036,-0.14867433905601501,-0.14523011445999146,0.12130901217460632,0.13238459825515747,0.1391873061656952,0.13089929521083832
0.85,0.14934100210666656,-0.06607998162508011,0.0,0.7098267674446106,0.0,0.0,-0.7043762803077698,-0.058030422776937485,-0.11082836240530014,0.0,0.0,0.0,-1.5809252262115479,0.42046788334846497,0.6297334432601929,0.4200000464916229,0.5648113489151001,2.574068389549211e-07,-3.082705461565638e-06,-0.8252200484275818,7.208970782812685e-05,-0.00026073161279782653,-8.311518467962742e-05,0.006497143767774105,-0.0018105888739228249,-0.0007025609374977648,0.5058619379997253,0.6282250881195068,0.5662742853164673,0.44690826535224915,-0.26645904779434204,-0.02212834358215332,0.4148597717285156,0.6356655359268188,0.42000001668930054,-0.6608769297599792,-1.1764657497406006,-1.3743112087249756,3.0000007152557373,-0.150468647480011,-0.14915861189365387,-0.14701929688453674,-0.14380007982254028,0.021294843405485153,0.030054545029997826,0.03585701808333397,0.029080679640173912
0.8666666666666667,0.1503351628780365,-0.0646437257528305,0.0,0.7157409191131592,0.0,0.0,-0.6983659267425537,0.10563115030527115,0.10973965376615524,0.0,0.0,0.0,1.76738440990448,0.42046788334846497,0.6297334432601929,0.4200000464916229,0.5648112297058105,2.67346280224956e-07,-2.8379981813486665e-06,-0.8252200484275818,7.473472214769572e-05,-0.00025907758390530944,-8.366000838577747e-05,0.006440591998398304,-0.0017710000975057483,-0.0007051605498418212,0.5122997164726257,0.6235179901123047,0.5659972429275513,0.4021541476249695,-0.22104063630104065,0.03517460823059082,0.4148597717285156,0.6356655359268188,0.42000001668930054,-0.6521643996238708,1.944663643836975,-1.3928941488265991,-3.0,-0.15071895718574524,-0.14920464158058167,-0.14686112105846405,-0.14359183609485626,0.05849376693367958,0.054676856845617294,0.05412401258945465,0.04853570833802223
0.8833333333333333,0.14964164793491364,-0.06451277434825897,0.0,0.7107162475585938,0.0,0.0,-0.7034787535667419,-0.09326745569705963,-0.013020366430282593,0.0,0.0,0.0,-1.710286259651184,0.42046788334846497,0.6297334432601929,0.4200000464916229,0.5648112297058105,2.421894862436602e-07,-2.997848696395522e-06,-0.8252200484275818,7.205852307379246e-05,-0.00026077465736307204,-8.30749049782753e-05,0.006499033886939287,-0.0018099001608788967,-0.0007024389342404902,0.5193247199058533,0.6217800378799438,0.5658397674560547,0.3646298050880432,-0.06606309115886688,0.07308464497327805,0.4148597717285156,0.6356655359268188,0.42000001668930054,-0.6372933983802795,-0.004160391632467508,-1.3544784784317017,3.000000238418579,-0.14972113072872162,-0.1485593318939209,-0.1464959979057312,-0.14356409013271332,-0.017828896641731262,-0.0320446640253067,-0.0433364063501358,-0.05933916196227074
