vladlanda/robotic-transformer/data/env_000_episode_0058.csv
sim_time_s,robot_box_x,robot_box_y,robot_box_z,robot_box_quat_w,robot_box_quat_x,robot_box_quat_y,robot_box_quat_z,robot_box_linvel_x,robot_box_linvel_y,robot_box_linvel_z,robot_box_angvel_x,robot_box_angvel_y,robot_box_angvel_z,cube_world_x,cube_world_y,cube_world_z,cube_quat_w,cube_quat_x,cube_quat_y,cube_quat_z,cube_linvel_x,cube_linvel_y,cube_linvel_z,cube_angvel_x,cube_angvel_y,cube_angvel_z,endpoint_world_x,endpoint_world_y,endpoint_world_z,endpoint_linvel_x,endpoint_linvel_y,endpoint_linvel_z,target_cube_world_x,target_cube_world_y,target_cube_world_z,gripper_actual_pos_rad_gp_leftgearjoint,gripper_actual_vel_rad_s_gp_leftgearjoint,gripper_actual_pos_rad_gp_rotatingjoint,gripper_actual_vel_rad_s_gp_rotatingjoint,motor_angle_rad_joint1,motor_angle_rad_joint2,motor_angle_rad_joint3,motor_angle_rad_joint4,motor_speed_rad_s_joint1,motor_speed_rad_s_joint2,motor_speed_rad_s_joint3,motor_speed_rad_s_joint4
0.0,0.0,0.0,0.0,1.0,0.0,0.0,0.0,0.0,0.0,0.0,0.0,0.0,0.0,-0.37287208437919617,0.6983223557472229,0.41999998688697815,1.0,0.0,0.0,0.0,0.0,0.0,0.0,0.0,0.0,0.0,3.42540442943573e-06,-0.005000244826078415,1.313499927520752,0.0,0.0,0.0,0.46778401732444763,0.7162832617759705,0.42000001668930054,-1.5707999467849731,0.0,0.0,0.0,0.0,0.0,0.0,0.0,0.0,0.0,0.0,0.0
0.016666666666666666,0.002883682958781719,0.0021736519411206245,0.0,0.999821662902832,0.0,0.0,0.01888473704457283,0.2410348802804947,0.18216294050216675,0.0,0.0,0.0,3.14176607131958,-0.3728722035884857,0.698322057723999,0.41999998688697815,1.0,3.279964630564791e-06,-8.339746386809566e-07,8.465587342243452e-08,-1.9833529222523794e-05,0.00017983045836444944,-6.132945418357849e-05,0.0009432713268324733,-0.004689474124461412,-0.00031981561915017664,-0.007107876241207123,0.0033972931560128927,1.3159387111663818,-0.8137694597244263,0.9875035881996155,0.18096737563610077,0.46778401732444763,0.7162832617759705,0.42000001668930054,-1.5301094055175781,3.000002145767212,-0.045849524438381195,-3.000002145767212,0.0008703482453711331,0.0007970466394908726,0.000711701053660363,0.0006121465703472495,0.11097031831741333,0.0976061001420021,0.08338017761707306,0.0682588741183281
0.03333333333333333,0.008968014270067215,0.006791263818740845,0.0,0.999809980392456,0.0,0.0,0.019494906067848206,0.40709277987480164,0.31508609652519226,0.0,0.0,0.0,-0.8690221905708313,-0.37287232279777527,0.6983219981193542,0.4200000464916229,1.0,3.3908179375430336e-06,-2.132458348569344e-06,-3.7097745320124886e-08,0.00026357852038927376,0.00026937833172269166,-0.00010509369894862175,-0.0017707126680761576,0.004130884539335966,-0.0001354814594378695,-0.02752549573779106,0.026346977800130844,1.3165807723999023,-1.5892436504364014,1.6187772750854492,-0.08711935579776764,0.46778401732444763,0.7162832617759705,0.42000001668930054,-1.4800901412963867,3.000002145767212,-0.0958893746137619,-3.0,0.0029902805108577013,0.0026526134461164474,0.0022772529628127813,0.0018611293053254485,0.16413614153862,0.1396944671869278,0.11375737190246582,0.08623024076223373
0.05,0.018480313941836357,0.013896980322897434,0.0,0.9999710917472839,0.0,0.0,-0.007607943844050169,0.6362137198448181,0.472332239151001,0.0,0.0,0.0,-4.0730671882629395,-0.37287235260009766,0.698322057723999,0.4200000464916229,1.0,3.7651902857760433e-06,-2.2119197637948673e-06,5.609367637049445e-09,0.00026530938339419663,0.00026691678795032203,-0.00010440615005791187,-0.0017243892652913928,0.004177466034889221,-0.00012949809024576098,-0.05709000304341316,0.05795193463563919,1.3117791414260864,-1.9459738731384277,2.0969107151031494,-0.4720280170440674,0.46778401732444763,0.7162832617759705,0.42000001668930054,-1.4300718307495117,3.000002384185791,-0.14592806994915009,-2.999999523162842,0.006012697704136372,0.005173123441636562,0.004261277616024017,0.0032729345839470625,0.2070000171661377,0.166640505194664,0.12435867637395859,0.08006968349218369
0.06666666666666667,0.030811768025159836,0.023389514535665512,0.0,0.9998670220375061,0.0,0.0,-0.016308583319187164,0.7728431224822998,0.6163222193717957,0.0,0.0,0.0,-0.0344170443713665,-0.37287235260009766,0.6983219981193542,0.4200000464916229,0.9999999403953552,3.406832092878176e-06,-2.28558906201215e-06,4.300801492718165e-07,0.0002670248504728079,0.0002679176686797291,-0.0001043803058564663,-0.00174071139190346,0.00421183044090867,-0.00012850876373704523,-0.09274997562170029,0.09212678670883179,1.3011269569396973,-2.2000091075897217,2.169321060180664,-0.795392632484436,0.46778401732444763,0.7162832617759705,0.42000001668930054,-1.3800466060638428,2.999997615814209,-0.16287921369075775,0.6584404706954956,0.008579989895224571,0.00696899788454175,0.005245245061814785,0.0034038620069622993,0.13164609670639038,0.07539781183004379,0.016988014802336693,-0.043647438287734985
0.08333333333333333,0.04212768375873566,0.03552878648042679,0.0,0.9992198348045349,0.0,0.0,-0.03949376940727234,0.6624162197113037,0.7777164578437805,0.0,0.0,0.0,-3.68040132522583,-0.37287235260009766,0.6983219981193542,0.4200000464916229,0.9999999403953552,3.626166289905086e-06,-2.3353043161478126e-06,3.032100153177453e-07,0.00026614085072651505,0.0002668516826815903,-0.00010405341163277626,-0.001728349830955267,0.004196455702185631,-0.0001279077841900289,-0.12478698790073395,0.13202835619449615,1.2869138717651367,-1.6763527393341064,2.628016948699951,-0.8849502801895142,0.46778401732444763,0.7162832617759705,0.42000001668930054,-1.3300389051437378,3.000000476837158,-0.20620077848434448,-3.000000476837158,0.0077162547968328,0.005036970600485802,0.0022012561094015837,-0.000797213229816407,-0.13041797280311584,-0.20933997631072998,-0.2904832065105438,-0.3739175498485565
0.1,0.04719017818570137,0.05144856125116348,0.0,0.995692253112793,0.0,0.0,-0.09271982312202454,0.36442121863365173,0.8564773201942444,0.0,0.0,0.0,-6.960799694061279,-0.37287235260009766,0.6983219981193542,0.4200000464916229,1.0,3.4222334761579987e-06,-2.3086047349352157e-06,1.796183539681806e-07,0.0002668157103471458,0.00026800340856425464,-0.00010440708138048649,-0.0017429988365620375,0.004207124002277851,-0.00012891183723695576,-0.15341678261756897,0.17838087677955627,1.2691385746002197,-1.754438042640686,2.8909454345703125,-1.016870141029358,0.46778401732444763,0.7162832617759705,0.42000001668930054,-1.280022382736206,2.9999890327453613,-0.1723865270614624,3.0,0.000674947805237025,-0.0029395772144198418,-0.006752270273864269,-0.010773390531539917,-0.2012077420949936,-0.29391738772392273,-0.385966032743454,-0.47737953066825867
0.11666666666666667,0.058207567781209946,0.06312146782875061,0.0,0.9922016859054565,0.0,0.0,-0.12464294582605362,0.6853173971176147,0.6790696978569031,0.0,0.0,0.0,-2.6272788047790527,-0.37287235260009766,0.698322057723999,0.4200000464916229,1.0,3.7116215025889687e-06,-2.3326904283749172e-06,2.5741752551766695e-07,0.00026485833222977817,0.0002663549967110157,-0.00010423408821225166,-0.0017181988805532455,0.004170059692114592,-0.00012915713887196034,-0.18670779466629028,0.2241230010986328,1.2509088516235352,-2.012477397918701,2.9619030952453613,-1.1789636611938477,0.46778401732444763,0.7162832617759705,0.42000001668930054,-1.2300364971160889,3.000002384185791,-0.2039983868598938,-3.000000238418579,-0.0009216188336722553,-0.006269040517508984,-0.011787713505327702,-0.01748606562614441,-0.2422211468219757,-0.32976555824279785,-0.4164254665374756,-0.5020272731781006
0.13333333333333333,0.0664721205830574,0.07528788596391678,0.0,0.9860518574714661,0.0,0.0,-0.16643840074539185,0.4600117802619934,0.7128841280937195,0.0,0.0,0.0,-5.773499011993408,-0.37287235260009766,0.6983219981193542,0.4200000464916229,1.0,3.3357862321281573e-06,-2.231929329354898e-06,3.1130659294831275e-07,0.00026669795624911785,0.00026759557658806443,-0.00010428577661514282,-0.0017371183494105935,0.004205892328172922,-0.00012840361159760505,-0.21917688846588135,0.2776288092136383,1.227284550666809,-1.8228132724761963,3.544344425201416,-1.5781159400939941,0.46778401732444763,0.7162832617759705,0.42000001668930054,-1.1800200939178467,2.9999940395355225,-0.17018429934978485,2.999999761581421,-0.006637481041252613,-0.013383910059928894,-0.020269107073545456,-0.027299946174025536,-0.3337446451187134,-0.4218856990337372,-0.5068739652633667,-0.5885710120201111
0.15,0.07223715633153915,0.08477932214736938,0.0,0.9811948537826538,0.0,0.0,-0.193019837141037,0.30787813663482666,0.46328407526016235,0.0,0.0,0.0,-1.846670150756836,-0.37287235260009766,0.6983219981193542,0.4200000464916229,1.0,3.5189802929380676e-06,-2.2830829493614146e-06,-3.625531803663762e-07,0.00026618537958711386,0.0002673575363587588,-0.00010425481013953686,-0.0017349323024973273,0.004195748828351498,-0.0001286051847273484,-0.25413191318511963,0.3336047828197479,1.1957511901855469,-2.0695724487304688,3.4919300079345703,-2.218172311782837,0.46778401732444763,0.7162832617759705,0.42000001668930054,-1.1421842575073242,1.6292670965194702,-0.20181943476200104,-3.0000009536743164,-0.012575468048453331,-0.02060399390757084,-0.028704846277832985,-0.03688459470868111,-0.3774293065071106,-0.44071510434150696,-0.49991297721862793,-0.5550937056541443
0.16666666666666666,0.07499517500400543,0.09482362866401672,0.0,0.9737337231636047,0.0,0.0,-0.22768986225128174,0.05267874523997307,0.6548752784729004,0.0,0.0,0.0,-5.004116058349609,-0.37287235260009766,0.6983219981193542,0.4200000464916229,1.0,3.666678594527184e-06,-2.3391096419800306e-06,-3.150171608012897e-07,0.00026595700182951987,0.0002666723739821464,-0.00010403268970549107,-0.0017252295510843396,0.0041927071288228035,-0.00012778618838638067,-0.28859156370162964,0.3965708017349243,1.151681661605835,-1.9519052505493164,4.0403876304626465,-3.0598394870758057,0.46778401732444763,0.7162832617759705,0.42000001668930054,-1.09535551071167,2.9999990463256836,-0.19701917469501495,3.000000238418579,-0.020702075213193893,-0.029448842629790306,-0.03819689899682999,-0.04695683717727661,-0.5646289587020874,-0.5893991589546204,-0.6100471615791321,-0.6268841624259949
0.18333333333333332,0.081608347594738,0.10547835379838943,0.0,0.9570298194885254,0.0,0.0,-0.2899896204471588,0.5129890441894531,0.6554879546165466,0.0,0.0,0.0,-8.724698066711426,-0.37287235260009766,0.6983219981193542,0.4200000464916229,1.0,3.814429419435328e-06,-2.399473942205077e-06,-2.702885524286103e-07,0.0002654908748809248,0.00026611171779222786,-0.00010391091927886009,-0.0017177866538986564,0.00418477039784193,-0.00012754213821608573,-0.3177504539489746,0.4685363173484802,1.0941983461380005,-1.3979480266571045,4.56887149810791,-3.787736415863037,0.46778401732444763,0.7162832617759705,0.42000001668930054,-1.0453600883483887,3.0,-0.22849982976913452,-2.9999988079071045,-0.028230059891939163,-0.037467774003744125,-0.04663744941353798,-0.055755700916051865,-0.46092239022254944,-0.4810294806957245,-0.4975999593734741,-0.5110094547271729
0.2,0.08467241376638412,0.11341452598571777,0.0,0.9427489638328552,0.0,0.0,-0.3335031569004059,0.137780100107193,0.4457401931285858,0.0,0.0,0.0,-4.214009761810303,-0.37287235260009766,0.6983219981193542,0.4200000464916229,1.0,3.600096079026116e-06,-2.2911845007911325e-06,-2.2019764855940593e-07,0.00026572897331789136,0.0002664489147718996,-0.00010398100130259991,-0.0017226696945726871,0.004188799764961004,-0.00012773496564477682,-0.34331032633781433,0.5378367900848389,1.0209312438964844,-1.1532894372940063,4.2418293952941895,-4.8840861320495605,0.46778401732444763,0.7162832617759705,0.42000001668930054,-0.9953572154045105,2.99999737739563,-0.2785261869430542,-2.9999992847442627,-0.041418083012104034,-0.05040762573480606,-0.05932298302650452,-0.06757590174674988,-0.8066056966781616,-0.8208259344100952,-0.8349548578262329,-0.7684450149536133
0.21666666666666667,0.0850745439529419,0.1221858486533165,0.0,0.9395093321800232,0.0,0.0,-0.34252333641052246,-0.07666701078414917,0.5658857226371765,0.0,0.0,0.0,-0.11416085064411163,-0.37287235260009766,0.6983219981193542,0.4200000464916229,0.9999999403953552,3.6396977520780638e-06,-2.2619728952122387e-06,2.224548865115139e-07,0.000266873772488907,0.0002675457508303225,-0.00010411953553557396,-0.0017404764657840133,0.004211100284010172,-0.00012783778947778046,-0.3673152029514313,0.5969109535217285,0.9346755743026733,-1.2450212240219116,3.2253856658935547,-5.479160308837891,0.46778401732444763,0.7162832617759705,0.42000001668930054,-0.9453483819961548,2.9999988079071045,-0.32855498790740967,-3.000000476837158,-0.05675568804144859,-0.06540772318840027,-0.07399718463420868,-0.08084703981876373,-0.981650710105896,-0.9417295455932617,-0.9027875661849976,-0.8128684759140015
0.23333333333333334,0.08753921091556549,0.12764853239059448,0.0,0.931958794593811,0.0,0.0,-0.36256420612335205,0.21654704213142395,0.21000805497169495,0.0,0.0,0.0,-3.2817094326019287,-0.37287232279777527,0.6983219981193542,0.4200000464916229,1.0,3.42080284099211e-06,-2.3168156531028217e-06,2.9557230618593167e-07,0.0002668006927706301,0.0002680390316527337,-0.00010442431084811687,-0.0017437431961297989,0.004206867888569832,-0.0001289910142077133,-0.38525664806365967,0.6475025415420532,0.8366831541061401,-0.8348970413208008,2.6804842948913574,-6.1621198654174805,0.46778401732444763,0.7162832617759705,0.42000001668930054,-0.8953379988670349,2.9999983310699463,-0.37858617305755615,-3.0,-0.07262839376926422,-0.08097855001688004,-0.08913066983222961,-0.0949878990650177,-0.9515799283981323,-0.9401407241821289,-0.9306413531303406,-0.9025133848190308
0.25,0.08550415933132172,0.13628233969211578,0.0,0.9307782649993896,0.0,0.0,-0.36558428406715393,-0.10305668413639069,0.47014665603637695,0.0,0.0,0.0,0.5237651467323303,-0.37287235260009766,0.6983219981193542,0.4200000464916229,0.9999999403953552,3.3476630960649345e-06,-2.259201437482261e-06,1.8082572239563888e-07,0.00026687735226005316,0.00026791065465658903,-0.00010439311154186726,-0.0017403911333531141,0.004208162892609835,-0.00012870095088146627,-0.3969075083732605,0.6763174533843994,0.7319077849388123,-0.5016486048698425,1.0679651498794556,-6.269427299499512,0.46778401732444763,0.7162832617759705,0.42000001668930054,-0.845327615737915,2.999997138977051,-0.42861783504486084,-3.0000011920928955,-0.08926945179700851,-0.09751424193382263,-0.10561627149581909,-0.1114632859826088,-0.6650700569152832,-0.7243754863739014,-0.7797150015830994,-0.831142246723175
0.26666666666666666,0.08838628977537155,0.13933663070201874,0.0,0.9244762063026428,0.0,0.0,-0.38123977184295654,0.18483740091323853,0.14315085113048553,0.0,0.0,0.0,-2.6271209716796875,-0.37287235260009766,0.6983219981193542,0.4200000464916229,0.9999999403953552,3.535753194228164e-06,-2.3002676243777387e-06,-1.2687392825228017e-07,0.00026601721765473485,0.0002671221154741943,-0.00010419590398669243,-0.0017316217999905348,0.00419279420748353,-0.0001284939207835123,-0.4025684595108032,0.6924203634262085,0.625359058380127,-0.06779658049345016,0.6160173416137695,-6.364956855773926,0.46778401732444763,0.7162832617759705,0.42000001668930054,-0.7953187227249146,2.999997854232788,-0.4786490499973297,-3.0000007152557373,-0.10122005641460419,-0.1099693700671196,-0.11855427920818329,-0.12494687736034393,-0.9793680906295776,-0.95806884765625,-0.9384876489639282,-0.9301782250404358
0.2833333333333333,0.0873953253030777,0.13996294140815735,0.0,0.9255720376968384,0.0,0.0,-0.3785715401172638,-0.14088162779808044,0.007269830442965031,0.0,0.0,0.0,1.2023961544036865,-0.37287235260009766,0.698322057723999,0.4200000464916229,1.0,3.593504743548692e-06,-2.2625924884778215e-06,-5.655554602412849e-08,0.00026704728952609,0.0002677498559933156,-0.00010416866280138493,-0.0017431487794965506,0.0042141578160226345,-0.00012789281026925892,-0.40144550800323486,0.6976370811462402,0.5264405012130737,0.31719619035720825,-0.0026107504963874817,-5.448251724243164,0.46778401732444763,0.7162832617759705,0.42000001668930054,-0.7453099489212036,3.0000030994415283,-0.5286789536476135,-2.9999985694885254,-0.11894840747117996,-0.12745127081871033,-0.13585512340068817,-0.1421082615852356,-1.0186121463775635,-1.0140538215637207,-1.0105743408203125,-1.0077978372573853
0.3,0.08255010843276978,0.13857120275497437,0.0,0.9209985733032227,0.0,0.0,-0.38956594467163086,-0.26780956983566284,-0.16416184604167938,0.0,0.0,0.0,-2.217963218688965,-0.37287232279777527,0.6983219981193542,0.4200000464916229,0.9999999403953552,3.7250931654853048e-06,-2.235988176835235e-06,3.8285057257780863e-07,0.0002647978253662586,0.0002667302906047553,-0.00010453863069415092,-0.0017188735073432326,0.00416669063270092,-0.00013016900629736483,-0.38983243703842163,0.6968573927879333,0.4390001893043518,1.008376121520996,-0.052767783403396606,-5.031924247741699,0.46778401732444763,0.7162832617759705,0.42000001668930054,-0.6953024864196777,2.9999935626983643,-0.5787066221237183,-2.9999992847442627,-0.13592849671840668,-0.144340381026268,-0.15270079672336578,-0.15893839299678802,-0.845632791519165,-0.8788409233093262,-0.9093016386032104,-0.9384801983833313
0.31666666666666665,0.07661517709493637,0.13423343002796173,0.0,0.9230647087097168,0.0,0.0,-0.38464468717575073,-0.3972032964229584,-0.3001367449760437,0.0,0.0,0.0,1.5276031494140625,-0.37287235260009766,0.6983219981193542,0.4200000464916229,0.9999999403953552,3.557828677003272e-06,-2.2787926354794763e-06,2.2831554247204622e-07,0.0002659866586327553,0.0002665854699444026,-0.00010399054735898972,-0.0017240922898054123,0.004193658474832773,-0.00012769893510267138,-0.38966307044029236,0.7019306421279907,0.4281277060508728,0.09497840702533722,0.39483916759490967,-0.24805504083633423,0.46778401732444763,0.7162832617759705,0.42000001668930054,-0.6452977061271667,2.9999847412109375,-0.6291230916976929,-3.0000016689300537,-0.14641492068767548,-0.15512433648109436,-0.16260871291160583,-0.16769221425056458,-0.5147109627723694,-0.5295988917350769,-0.4758378267288208,-0.4095135033130646
0.3333333333333333,0.0683770477771759,0.12766964733600616,0.0,0.9190411567687988,0.0,0.0,-0.39416155219078064,-0.5397253632545471,-0.432054728269577,0.0,0.0,0.0,-2.155576705932617,-0.3720138370990753,0.699902355670929,0.4199998378753662,0.9998663067817688,1.7474912965553813e-05,-5.379884441936156e-06,-0.016351504251360893,0.08649945259094238,0.15832853317260742,-0.0001831832923926413,-0.01015338022261858,0.011873196810483932,-3.2598769664764404,-0.38523364067077637,0.7055994272232056,0.4243789315223694,0.4645562767982483,0.21201936900615692,-0.20634736120700836,0.46778401732444763,0.7162832617759705,0.42000001668930054,-0.595292329788208,2.999979257583618,-0.6791976690292358,-2.999424934387207,-0.15666554868221283,-0.1645350158214569,-0.17017115652561188,-0.17324203252792358,-0.653433620929718,-0.553257942199707,-0.4015289545059204,-0.24348443746566772
0.35,0.05795888230204582,0.11888839304447174,0.0,0.9213647246360779,0.0,0.0,-0.3886992335319519,-0.6641596555709839,-0.5656048655509949,0.0,0.0,0.0,1.6381531953811646,-0.3675200045108795,0.706405520439148,0.4200005829334259,0.9963238835334778,-1.0020353329309728e-05,-5.065795630798675e-05,-0.08566594123840332,0.3073946535587311,0.4353380799293518,-0.000357962679117918,0.01954597234725952,-0.005000664386898279,-9.4944486618042,-0.3773972690105438,0.7112719416618347,0.4211403429508209,0.5380699634552002,0.4645357131958008,-0.15478771924972534,0.46778401732444763,0.7162832617759705,0.42000001668930054,-0.5452873706817627,2.9999680519104004,-0.729248046875,-2.999987840652466,-0.16784954071044922,-0.17352727055549622,-0.17626239359378815,-0.17638199031352997,-0.6209398508071899,-0.4775885343551636,-0.29964679479599,-0.12089508771896362
0.36666666666666664,0.045367345213890076,0.10783840715885162,0.0,0.9175996780395508,0.0,0.0,-0.3975057303905487,-0.8037543296813965,-0.7055977582931519,0.0,0.0,0.0,-2.0795235633850098,-0.3606257140636444,0.7156171202659607,0.42005521059036255,0.9856434464454651,0.001308949664235115,-0.00010082729568239301,-0.16883496940135956,0.6333157420158386,0.8003124594688416,0.023735757917165756,1.3293702602386475,-0.46137377619743347,-4.287867069244385,-0.36669477820396423,0.720752477645874,0.4202647805213928,0.8016185760498047,0.7146359086036682,-0.139456108212471,0.46778401732444763,0.7162832617759705,0.42000001668930054,-0.49528253078460693,2.999999523162842,-0.7792723774909973,-2.9999961853027344,-0.17781777679920197,-0.18088208138942719,-0.18048661947250366,-0.17743758857250214,-0.5341560244560242,-0.3758573830127716,-0.19211679697036743,-0.006586520466953516
0.3833333333333333,0.03538340702652931,0.09401124715805054,0.0,0.9020527005195618,0.0,0.0,-0.4316258728504181,-0.5243927240371704,-0.8817011117935181,0.0,0.0,0.0,-5.340938568115234,-0.3472095727920532,0.7317352890968323,0.420093297958374,0.9787693023681641,-0.001794845680706203,-0.0003272632311563939,-0.20495666563510895,1.0094584226608276,1.1723096370697021,0.04929671064019203,-1.915769338607788,0.04727812856435776,-5.695968151092529,-0.3507663607597351,0.734338641166687,0.4204357862472534,1.1599116325378418,1.0024863481521606,0.14975640177726746,0.46778401732444763,0.7162832617759705,0.42000001668930054,-0.44524508714675903,3.000000238418579,-0.8293053507804871,-2.999985456466675,-0.18565981090068817,-0.18591557443141937,-0.18229161202907562,-0.17592017352581024,-0.3735969066619873,-0.2045140564441681,-0.012705666013062,0.18644149601459503
0.4,0.02953439950942993,0.0770680159330368,0.0,0.872588038444519,0.0,0.0,-0.4884568750858307,-0.2830347418785095,-1.0741490125656128,0.0,0.0,0.0,-8.514856338500977,-0.3157465159893036,0.7557023167610168,0.4235096275806427,0.9671321511268616,-0.006876857485622168,-0.031486876308918,-0.2522231638431549,2.7977590560913086,1.884037733078003,0.23722700774669647,17.092132568359375,-11.36047077178955,-0.5274968147277832,-0.31941407918930054,0.7586486339569092,0.42333102226257324,2.6897363662719727,1.920116901397705,0.3972378373146057,0.46778401732444763,0.7162832617759705,0.42000001668930054,-0.39888796210289,2.0297088623046875,-0.8793270587921143,-2.9999735355377197,-0.192808136343956,-0.18988585472106934,-0.18282167613506317,-0.17295435070991516,-0.44516611099243164,-0.23905374109745026,-0.025148192420601845,0.18711891770362854
0.4166666666666667,0.025874635204672813,0.06518561393022537,0.0,0.8259949088096619,0.0,0.0,-0.5636776089668274,-0.17865771055221558,-0.5818875432014465,0.0,0.0,0.0,-11.415544509887695,-0.24443896114826202,0.7926229238510132,0.42892956733703613,0.9464589953422546,0.05255770683288574,-0.07617832720279694,-0.30927327275276184,5.901490688323975,2.152345657348633,0.41514304280281067,15.31950855255127,-12.945265769958496,17.0330810546875,-0.24770835041999817,0.7959434986114502,0.42891156673431396,5.513524055480957,2.6586899757385254,0.43885600566864014,0.46778401732444763,0.7162832617759705,0.42000001668930054,-0.3794024884700775,0.8424932956695557,-0.842284083366394,2.9981534481048584,-0.20712368190288544,-0.19982939958572388,-0.1879226267337799,-0.17363448441028595,-0.885356068611145,-0.6725757718086243,-0.39098724722862244,-0.14595389366149902
0.43333333333333335,0.02498902752995491,0.05930347368121147,0.0,0.7876006960868835,0.0,0.0,-0.6161859631538391,-0.01227395236492157,-0.39299291372299194,0.0,0.0,0.0,-6.3833537101745605,-0.15182259678840637,0.8309645056724548,0.4381990432739258,0.9033995866775513,0.08795682340860367,-0.10713305324316025,-0.40577733516693115,5.874179363250732,1.6417816877365112,0.6821305155754089,16.458972930908203,-6.841771125793457,13.73729419708252,-0.15453600883483887,0.8355667591094971,0.43781399726867676,5.705666542053223,2.145007610321045,0.6105341911315918,0.46778401732444763,0.7162832617759705,0.42000001668930054,-0.36491623520851135,0.9705130457878113,-0.8690247535705566,-3.000004768371582,-0.22004593908786774,-0.21293704211711884,-0.19659757614135742,-0.17860916256904602,-0.5411900281906128,-0.6008292436599731,-0.4094806909561157,-0.258029043674469
0.45,0.021046895533800125,0.05367436632514,0.0,0.7693496346473694,0.0,0.0,-0.638827919960022,-0.32127103209495544,-0.3104669153690338,0.0,0.0,0.0,-2.471519708633423,-0.05359405279159546,0.8568599224090576,0.44980141520500183,0.8535363078117371,0.08814180642366409,-0.11258822679519653,-0.5010295510292053,6.153446674346924,0.3291211426258087,0.8177759051322937,10.938846588134766,-7.5957441329956055,17.765466690063477,-0.055744074285030365,0.862000584602356,0.4493088126182556,6.175914287567139,1.0771199464797974,0.8717232942581177,0.46778401732444763,0.7162832617759705,0.42000001668930054,-0.3467888832092285,1.0816569328308105,-0.9190487265586853,-3.0000035762786865,-0.2312469780445099,-0.22344788908958435,-0.20334793627262115,-0.18233032524585724,-0.6788172721862793,-0.584946870803833,-0.3602388799190521,-0.17750313878059387
0.4666666666666667,0.021687021479010582,0.041195228695869446,0.0,0.7415828108787537,0.0,0.0,-0.6708613038063049,0.15790893137454987,-0.8936600685119629,0.0,0.0,0.0,-6.099405765533447,0.04859575256705284,0.8664422035217285,0.45944610238075256,0.7967620491981506,0.08518621325492859,-0.11573024094104767,-0.5869582295417786,6.134307384490967,-0.7566155195236206,0.6339342594146729,8.375646591186523,-9.070311546325684,21.4490909576416,0.04750950634479523,0.8717727661132812,0.45974618196487427,6.311148643493652,-0.0026135891675949097,0.6204383373260498,0.46778401732444763,0.7162832617759705,0.42000001668930054,-0.3284972608089447,1.0031338930130005,-0.9690727591514587,-3.000002384185791,-0.2348664104938507,-0.22605082392692566,-0.20335140824317932,-0.1801527887582779,-0.09831380844116211,-0.0051041049882769585,0.1445649266242981,0.2748950719833374
0.48333333333333334,0.02046605758368969,0.033459100872278214,0.0,0.7279741764068604,0.0,0.0,-0.6856045722961426,-0.1022227481007576,-0.3231438398361206,0.0,0.0,0.0,-1.0260967016220093,0.1473740041255951,0.8577346205711365,0.4703257083892822,0.7257034182548523,0.06808172911405563,-0.12506267428398132,-0.6731111407279968,5.337524890899658,-1.7299915552139282,0.8891944885253906,3.6729464530944824,-10.077459335327148,29.541194915771484,0.14653080701828003,0.8640958666801453,0.4716588258743286,5.864466667175293,-0.8363572359085083,0.8327897191047668,0.46778401732444763,0.7162832617759705,0.42000001668930054,-0.3143320083618164,0.5959711074829102,-1.0190961360931396,-3.00000262260437,-0.23995964229106903,-0.23197588324546814,-0.20650522410869598,-0.18102595210075378,-0.03696595877408981,-0.44797825813293457,-0.32425397634506226,-0.23066918551921844
0.5,0.02110322006046772,0.030768437311053276,0.0,0.7087814211845398,0.0,0.0,-0.7054281830787659,0.09260194003582001,-0.10024229437112808,0.0,0.0,0.0,-4.203207015991211,0.23484423756599426,0.839232861995697,0.4780433773994446,0.6727810502052307,0.06163375452160835,-0.11571860313415527,-0.728131890296936,4.568085193634033,-1.8793282508850098,0.430463045835495,2.7306978702545166,5.285350322723389,8.386913299560547,0.2345835566520691,0.8451437950134277,0.47986578941345215,4.987337112426758,-1.534334421157837,0.2943064570426941,0.46778401732444763,0.7162832617759705,0.42000001668930054,-0.304050087928772,0.6574426293373108,-1.0691182613372803,-2.9993667602539062,-0.23958368599414825,-0.23748408257961273,-0.21079495549201965,-0.18440642952919006,0.056279752403497696,-0.21640931069850922,-0.17343997955322266,-0.14407981932163239
0.5166666666666666,0.024389129132032394,0.03107391484081745,0.0,0.7027904987335205,0.0,0.0,-0.7113968729972839,0.22800864279270172,0.08905331790447235,0.0,0.0,0.0,-0.04193996265530586,0.30942288041114807,0.8096338510513306,0.47749796509742737,0.5984570384025574,0.015823516994714737,-0.12638433277606964,-0.7909650802612305,3.7890334129333496,-2.396674633026123,-0.28487059473991394,-14.782797813415527,10.139835357666016,-2.655137062072754,0.3088896870613098,0.8165830373764038,0.48104673624038696,4.093944549560547,-1.9502184391021729,-0.07231500744819641,0.46778401732444763,0.7162832617759705,0.42000001668930054,-0.2918683588504791,0.7109054923057556,-1.119140386581421,-2.99971866607666,-0.23813249170780182,-0.23944063484668732,-0.2126784473657608,-0.1864033341407776,0.13096728920936584,-0.017429528757929802,-0.05091549828648567,-0.09417053312063217
0.5333333333333333,0.031395986676216125,0.025797251611948013,0.0,0.6861170530319214,0.0,0.0,-0.7274911403656006,0.4917837679386139,-0.45370402932167053,0.0,0.0,0.0,-3.8006794452667236,0.3718852400779724,0.7808665633201599,0.46883654594421387,0.5539016723632812,-0.011768391355872154,-0.11184431612491608,-0.8249515891075134,2.9560041427612305,-2.039438486099243,-0.6299907565116882,3.6961915493011475,-3.7424240112304688,22.332799911499023,0.3719298243522644,0.7877960205078125,0.4727533459663391,3.537168025970459,-1.7567946910858154,-0.7207789421081543,0.46778401732444763,0.7162832617759705,0.42000001668930054,-0.2803163528442383,0.6131489276885986,-1.1691625118255615,-2.9999303817749023,-0.2283649891614914,-0.23278433084487915,-0.2084793746471405,-0.18462441861629486,0.7253662347793579,0.564448356628418,0.3721308410167694,0.184023916721344
0.55,0.03927179053425789,0.024849485605955124,0.0,0.6821016669273376,0.0,0.0,-0.7312573790550232,0.48823124170303345,0.06191227585077286,0.0,0.0,0.0,0.2946189045906067,0.41902029514312744,0.7515165209770203,0.4535622000694275,0.5182700157165527,-0.06526868790388107,-0.10355855524539948,-0.8464111089706421,2.056946039199829,-2.0154740810394287,-1.0638232231140137,-8.092827796936035,6.4123029708862305,8.532465934753418,0.419009268283844,0.7577850818634033,0.45851728320121765,2.4094886779785156,-1.7892141342163086,-0.9191815853118896,0.46778401732444763,0.7162832617759705,0.42000001668930054,-0.2689943313598633,0.6806007623672485,-1.2191846370697021,-2.999886989593506,-0.22196686267852783,-0.22735095024108887,-0.2056172490119934,-0.18438413739204407,0.347407728433609,0.32237860560417175,0.15161941945552826,-0.021872827783226967
0.5666666666666667,0.04924950748682022,0.024726759642362595,0.0,0.6676982045173645,0.0,0.0,-0.7444320321083069,0.6574022769927979,-0.02437681332230568,0.0,0.0,0.0,-3.2678165435791016,0.45400020480155945,0.7283719182014465,0.4309898912906647,0.4879649579524994,-0.12351560592651367,-0.09154288470745087,-0.8592170476913452,1.8434503078460693,-1.3038829565048218,-1.4663176536560059,-5.077986717224121,5.055291175842285,-4.106919288635254,0.4539722800254822,0.7343684434890747,0.4369756877422333,1.740149974822998,-1.2135419845581055,-1.4714276790618896,0.46778401732444763,0.7162832617759705,0.42000001668930054,-0.2556675374507904,0.8041547536849976,-1.269187569618225,-3.000001907348633,-0.21203404664993286,-0.21871283650398254,-0.2011764496564865,-0.18398460745811462,0.6917070150375366,0.6026552319526672,0.31329503655433655,0.038297928869724274
0.5833333333333334,0.06076913699507713,0.026926279067993164,0.0,0.6657636165618896,0.0,0.0,-0.7461627125740051,0.7543983459472656,0.20165514945983887,0.0,0.0,0.0,0.6208139061927795,0.47598525881767273,0.7183861136436462,0.4211325943470001,0.44626644253730774,0.011620243079960346,-0.018709639087319374,-0.8946290016174316,0.8828204870223999,-0.24421444535255432,-0.09709036350250244,2.3799703121185303,3.9788477420806885,-13.467855453491211,0.47125524282455444,0.721011757850647,0.4247667193412781,0.461933970451355,-0.3359825313091278,-0.04267029091715813,0.46778401732444763,0.7162832617759705,0.42000001668930054,-0.23767638206481934,1.4214355945587158,-1.231053352355957,2.998669147491455,-0.20006218552589417,-0.20842763781547546,-0.19610364735126495,-0.18373501300811768,0.7827694416046143,0.6660517454147339,0.3289742171764374,0.021313680335879326
0.6,0.06964688748121262,0.026545170694589615,0.0,0.6534537076950073,0.0,0.0,-0.7569664716720581,0.4540683925151825,-0.10205089300870895,0.0,0.0,0.0,-2.870183229446411,0.482228547334671,0.7165065407752991,0.42123305797576904,0.4892078638076782,-0.011697102338075638,0.02675335295498371,-0.8716782927513123,0.2800222337245941,-0.1054113581776619,0.047941144555807114,1.367597222328186,2.4302632808685303,5.898311614990234,0.4765329360961914,0.7164628505706787,0.42386752367019653,0.06114081293344498,-0.21965716779232025,-0.04240931570529938,0.46778401732444763,0.7162832617759705,0.42000001668930054,-0.26446282863616943,-2.999995470046997,-1.1809715032577515,2.9999117851257324,-0.18788865208625793,-0.1976846605539322,-0.1905873715877533,-0.18299193680286407,0.6908063888549805,0.6308653354644775,0.33813679218292236,0.06920205056667328
0.6166666666666667,0.07964080572128296,0.03034093603491783,0.0,0.6533865928649902,0.0,0.0,-0.7570244073867798,0.5829343199729919,0.28158870339393616,0.0,0.0,0.0,0.9046794772148132,0.4840288758277893,0.7151696085929871,0.42107126116752625,0.5284619331359863,-0.014600642025470734,0.021183142438530922,-0.848567008972168,0.05598299577832222,-0.08257193118333817,-0.029283974319696426,-1.4137849807739258,-1.6584446430206299,4.128951549530029,0.4758737087249756,0.7131420969963074,0.42513152956962585,0.0504569411277771,-0.06268002092838287,0.14323624968528748,0.46778401732444763,0.7162832617759705,0.42000001668930054,-0.30093252658843994,-1.5096935033798218,-1.202434778213501,-2.9989917278289795,-0.18136173486709595,-0.19115927815437317,-0.18792669475078583,-0.18389035761356354,0.44390633702278137,0.43102115392684937,0.19490545988082886,-0.021009717136621475
0.6333333333333333,0.08816006034612656,0.029372982680797577,0.0,0.6421875953674316,0.0,0.0,-0.7665475010871887,0.4397430717945099,-0.08099174499511719,0.0,0.0,0.0,-2.642141819000244,0.48451900482177734,0.7143324017524719,0.4200039207935333,0.5480015873908997,-3.213605668861419e-05,-0.00019049717229790986,-0.8364772200584412,0.0010923227528110147,-0.012116984464228153,-0.0038575753569602966,0.27793997526168823,0.10985428839921951,0.9289220571517944,0.47740817070007324,0.7141584157943726,0.4278966784477234,0.007245961576700211,0.03310632333159447,0.18571388721466064,0.46778401732444763,0.7162832617759705,0.42000001668930054,-0.34791314601898193,-3.000000238418579,-1.2524044513702393,-2.999349355697632,-0.17063897848129272,-0.18113237619400024,-0.18208132684230804,-0.18184304237365723,0.48348522186279297,0.4863472282886505,0.28843745589256287,0.10750581324100494
0.65,0.09723392874002457,0.031855449080467224,0.0,0.6437252759933472,0.0,0.0,-0.7652567028999329,0.565142810344696,0.1826269030570984,0.0,0.0,0.0,1.1631770133972168,0.48452189564704895,0.7143255472183228,0.4200000464916229,0.5480020046234131,-6.594964361283928e-07,-4.242342129145982e-06,-0.8364769816398621,0.0001329842780251056,-0.0002036847872659564,-5.969777703285217e-05,0.0027998078148812056,-0.0013646299485117197,-0.0009843091247603297,0.47688189148902893,0.7142597436904907,0.4308601915836334,-0.028043024241924286,0.05879853665828705,0.17865806818008423,0.46778401732444763,0.7162832617759705,0.42000001668930054,-0.39794206619262695,-3.000000238418579,-1.302399754524231,-2.999976396560669,-0.16546878218650818,-0.17551712691783905,-0.17912419140338898,-0.18131154775619507,0.32725170254707336,0.3432270288467407,0.18867051601409912,0.0474574901163578
0.6666666666666666,0.10803917050361633,0.030511850491166115,0.0,0.6658639907836914,0.0,0.0,-0.7460731863975525,0.6868683695793152,-0.10721921920776367,0.0,0.0,0.0,4.625516891479492,0.48452189564704895,0.714325487613678,0.4200000464916229,0.5480018854141235,1.2271543425868003e-07,-2.784481694106944e-06,-0.8364770412445068,4.526413249550387e-05,-0.0002500802220311016,-7.76385422796011e-05,0.006495743058621883,-0.002037354279309511,-0.0007108105346560478,0.47554317116737366,0.7154173851013184,0.4342654049396515,-0.18323011696338654,0.0224764421582222,0.23123612999916077,0.46778401732444763,0.7162832617759705,0.42000001668930054,-0.4479610025882721,-2.9997310638427734,-1.3523808717727661,-2.9996583461761475,-0.1588156670331955,-0.16837404668331146,-0.1740066260099411,-0.17798800766468048,0.2407180815935135,0.321249395608902,0.26612192392349243,0.22093191742897034
0.6833333333333333,0.12066089361906052,0.0263003408908844,0.0,0.6755962371826172,0.0,0.0,-0.737271785736084,0.7864967584609985,-0.3160652816295624,0.0,0.0,0.0,0.5398101210594177,0.48452189564704895,0.714325487613678,0.4200000464916229,0.5480018258094788,3.1385607712763886e-07,-2.4552125523769064e-06,-0.8364771604537964,5.411906022345647e-05,-0.00023735228751320392,-8.017762593226507e-05,0.006035469472408295,-0.0019460906041786075,-0.00079002371057868,0.4748162627220154,0.7167491912841797,0.43901532888412476,-0.021338673308491707,0.059710755944252014,0.31347328424453735,0.46778401732444763,0.7162832617759705,0.42000001668930054,-0.4979732930660248,-2.9994335174560547,-1.4023603200912476,-2.9999823570251465,-0.15638978779315948,-0.16396857798099518,-0.16950300335884094,-0.1731734573841095,0.11749949306249619,0.2607729136943817,0.31024008989334106,0.37353724241256714
0.7,0.1349523812532425,0.01901344582438469,0.0,0.662682294845581,0.0,0.0,-0.7489006519317627,0.8874101638793945,-0.5131101012229919,0.0,0.0,0.0,-2.9990074634552,0.48452189564704895,0.714325487613678,0.4200000464916229,0.548001766204834,3.689262939587934e-07,-2.7201253942621406e-06,-0.8364770412445068,4.6821125579299405e-05,-0.00025197025388479233,-7.795169949531555e-05,0.006536476314067841,-0.002027897397056222,-0.0007189177558757365,0.4789808988571167,0.7193975448608398,0.45068854093551636,0.4967154264450073,0.21113577485084534,1.1797456741333008,0.46778401732444763,0.7162832617759705,0.42000001668930054,-0.5479857921600342,-2.9999818801879883,-1.4523786306381226,-2.999999523162842,-0.15674278140068054,-0.16179364919662476,-0.16608163714408875,-0.1682911068201065,-0.08305122703313828,0.07092668116092682,0.16266034543514252,0.26591697335243225
0.7166666666666667,0.15296359360218048,0.016841640695929527,0.0,0.6269834637641907,0.0,0.0,-0.7790325284004211,1.0226079225540161,-0.14662206172943115,0.0,0.0,0.0,-6.401706695556641,0.48452189564704895,0.714325487613678,0.4200000464916229,0.5480015277862549,1.419338957475702e-07,-2.869598574761767e-06,-0.8364772796630859,4.4742897443939e-05,-0.00025031945551745594,-7.744668982923031e-05,0.0065053231082856655,-0.0020421564113348722,-0.0007098676869645715,0.49607083201408386,0.7173484563827515,0.47643983364105225,1.6600159406661987,-0.24915781617164612,1.9969806671142578,0.46778401732444763,0.7162832617759705,0.42000001668930054,-0.5979971289634705,-2.999999761581421,-1.5023969411849976,-3.000000238418579,-0.1661977469921112,-0.16729936003684998,-0.1685245931148529,-0.16762486100196838,-0.4426504075527191,-0.24145285785198212,-0.07644060999155045,0.09506984055042267
0.7333333333333333,0.16690219938755035,0.016467979177832603,0.0,0.605516791343689,0.0,0.0,-0.7958325147628784,0.776587724685669,-0.04984202980995178,0.0,0.0,0.0,-2.1353297233581543,0.48452186584472656,0.714325487613678,0.4200000464916229,0.5480018854141235,8.550803443085897e-08,-2.7586991109274095e-06,-0.8364770412445068,4.211369014228694e-05,-0.0002515977539587766,-7.694726809859276e-05,0.006552862003445625,-0.0020796582102775574,-0.0007073059678077698,0.5238121747970581,0.7171831727027893,0.5120527148246765,1.6730072498321533,0.2043786644935608,2.2048254013061523,0.46778401732444763,0.7162832617759705,0.42000001668930054,-0.6170755624771118,0.42911437153816223,-1.5524152517318726,-2.9999992847442627,-0.1719847321510315,-0.17076769471168518,-0.17015646398067474,-0.1673884391784668,-0.15340355038642883,-0.09491448104381561,-0.056825198233127594,-0.01785048469901085
0.75,0.17625534534454346,0.017464593052864075,0.0,0.6101745367050171,0.0,0.0,-0.7922670245170593,0.48354658484458923,0.10724197328090668,0.0,0.0,0.0,1.591018557548523,0.48452189564704895,0.714325487613678,0.4200000464916229,0.548001766204834,8.397347528443788e-08,-2.761627001746092e-06,-0.8364770412445068,4.2895622755168006e-05,-0.0002516016538720578,-7.709581404924393e-05,0.006549024488776922,-0.0020699964370578527,-0.0007089867722243071,0.5473172664642334,0.7211083173751831,0.543071985244751,1.0861150026321411,0.2760072350502014,1.5689653158187866,0.46778401732444763,0.7162832617759705,0.42000001668930054,-0.5877659320831299,2.852017641067505,-1.522180438041687,2.9999992847442627,-0.17298592627048492,-0.1710604727268219,-0.16995172202587128,-0.1667175590991974,0.020051145926117897,0.04920383542776108,0.07049480825662613,0.08640742301940918
0.7666666666666666,0.18121817708015442,0.014772850088775158,0.0,0.6029415726661682,0.0,0.0,-0.7977853417396545,0.2571420669555664,-0.24806345999240875,0.0,0.0,0.0,-2.0261318683624268,0.48452189564704895,0.714325487613678,0.4200000464916229,0.5480019450187683,2.35936028047945e-07,-2.7234432309342083e-06,-0.8364770412445068,4.317949424148537e-05,-0.00025185730191878974,-7.717334665358067e-05,0.006553722079843283,-0.002068646252155304,-0.0007101490627974272,0.5581800937652588,0.72579026222229,0.5621193051338196,0.18757647275924683,0.21831057965755463,0.8847330212593079,0.46778401732444763,0.7162832617759705,0.42000001668930054,-0.554912269115448,1.2057726383209229,-1.4721277952194214,2.9999992847442627,-0.17099380493164062,-0.16877661645412445,-0.1674426794052124,-0.16413050889968872,0.08068567514419556,0.1124485582113266,0.14111056923866272,0.155213862657547
0.7833333333333333,0.1828441470861435,0.017099441960453987,0.0,0.6082971096038818,0.0,0.0,-0.793709397315979,0.043081134557724,0.2736108601093292,0.0,0.0,0.0,1.6881242990493774,0.48452186584472656,0.714325487613678,0.4200000464916229,0.5480019450187683,1.1102225982995151e-07,-2.806108341246727e-06,-0.8364770412445068,4.155164788244292e-05,-0.00025174053735099733,-7.682922296226025e-05,0.0065595898777246475,-0.0020868282299488783,-0.0007063866942189634,0.5573792457580566,0.7278067469596863,0.5724709033966064,-0.22899077832698822,0.13728654384613037,0.3997080326080322,0.46778401732444763,0.7162832617759705,0.42000001668930054,-0.5172818303108215,3.000000476837158,-1.4888315200805664,-3.0000009536743164,-0.17483381927013397,-0.17099379003047943,-0.16814883053302765,-0.1637406200170517,-0.2589872181415558,-0.16057658195495605,-0.06762964278459549,-0.002254185965284705
0.8,0.18216830492019653,0.01614660769701004,0.0,0.6024846434593201,0.0,0.0,-0.798130452632904,-0.0776219367980957,-0.15494197607040405,0.0,0.0,0.0,-1.7602018117904663,0.48452189564704895,0.7143255472183228,0.4200000464916229,0.5480020046234131,2.279024329254753e-07,-2.50937068813073e-06,-0.8364770412445068,4.253938459441997e-05,-0.000252173631452024,-7.698079571127892e-05,0.006565717048943043,-0.0020760553888976574,-0.000709614425431937,0.5476729869842529,0.729830265045166,0.5725648403167725,-0.9315406680107117,0.09182178974151611,-0.19182227551937103,0.46778401732444763,0.7162832617759705,0.42000001668930054,-0.49863970279693604,-0.4783827066421509,-1.4501359462738037,3.000000238418579,-0.17613887786865234,-0.17131833732128143,-0.16749143600463867,-0.16250383853912354,-3.67872416973114e-08,0.04112844169139862,0.08579298853874207,0.10703377425670624
0.8166666666666667,0.18292236328125,0.018021248281002045,0.0,0.6084030270576477,0.0,0.0,-0.7936282157897949,0.037594813853502274,0.09224759042263031,0.0,0.0,0.0,1.5210504531860352,0.48452189564704895,0.714325487613678,0.4200000464916229,0.5480018854141235,5.614748488369514e-08,-2.881970431189984e-06,-0.8364771008491516,4.339910447015427e-05,-0.0002520431880839169,-7.718894630670547e-05,0.006558460183441639,-0.0020654916297644377,-0.0007111587328836322,0.535071611404419,0.7317289113998413,0.5680844783782959,-0.51897794008255,0.25947776436805725,-0.31572961807250977,0.46778401732444763,0.7162832617759705,0.42000001668930054,-0.49206629395484924,1.1243735551834106,-1.4673100709915161,-3.000000238418579,-0.17775875329971313,-0.17225931584835052,-0.16759860515594482,-0.16209669411182404,0.10376500338315964,0.08441191166639328,0.08450516313314438,0.07596002519130707
0.8333333333333334,0.18492718040943146,0.016745945438742638,0.0,0.6016476154327393,0.0,0.0,-0.7987616062164307,0.16326706111431122,-0.11973478645086288,0.0,0.0,0.0,-1.8674958944320679,0.48452189564704895,0.714325487613678,0.4200000464916229,0.5480018854141235,2.2416634237742983e-07,-2.696342335184454e-06,-0.8364769816398621,4.3371554056648165e-05,-0.00025176501367241144,-7.720594294369221e-05,0.006550280377268791,-0.00206585181877017,-0.0007106466800905764,0.5287160873413086,0.7346665859222412,0.560268759727478,-0.23848344385623932,0.06638320535421371,-0.4440179467201233,0.46778401732444763,0.7162832617759705,0.42000001668930054,-0.5160661935806274,-3.000000476837158,-1.428675651550293,3.0,-0.17619796097278595,-0.17105472087860107,-0.16634830832481384,-0.1608647108078003,0.03308740630745888,0.02641354128718376,0.04525632783770561,0.06191962957382202
0.85,0.18919110298156738,0.017842262983322144,0.0,0.6066449284553528,0.0,0.0,-0.7949728965759277,0.2891336679458618,0.13097332417964935,0.0,0.0,0.0,1.784371018409729,0.48452189564704895,0.714325487613678,0.4200000464916229,0.5480018258094788,3.465169697847159e-07,-2.7027313080907334e-06,-0.8364771008491516,4.675718446378596e-05,-0.0002517759567126632,-7.794331759214401e-05,0.006531728897243738,-0.0020278594456613064,-0.0007180480170063674,0.5272294878959656,0.7352297902107239,0.5566323399543762,0.029647670686244965,0.019833099097013474,0.03446470946073532,0.46778401732444763,0.7162832617759705,0.42000001668930054,-0.5660756230354309,-3.0000014305114746,-1.4462711811065674,-2.9999992847442627,-0.1764671504497528,-0.17140084505081177,-0.16624923050403595,-0.16024938225746155,0.005642552860081196,-0.004075735807418823,0.021120116114616394,0.055435892194509506
0.8666666666666667,0.1951402723789215,0.015962183475494385,0.0,0.6004043221473694,0.0,0.0,-0.7996965646743774,0.3769542872905731,-0.14514899253845215,0.0,0.0,0.0,-1.903084635734558,0.48452186584472656,0.714325487613678,0.4200000464916229,0.5480020046234131,9.440045545261455e-08,-2.7150774712936254e-06,-0.8364769816398621,4.190582694718614e-05,-0.00025139495846815407,-7.692119106650352e-05,0.006548537407070398,-0.002081605838611722,-0.0007064332603476942,0.5322062969207764,0.7345821857452393,0.5538147687911987,0.4928011894226074,-0.17880775034427643,-0.19199934601783752,0.46778401732444763,0.7162832617759705,0.42000001668930054,-0.6160805821418762,-2.9999942779541016,-1.4962894916534424,-3.000000238418579,-0.17437930405139923,-0.16958566009998322,-0.16406965255737305,-0.1574670970439911,0.0702904462814331,0.08545314520597458,0.1371302306652069,0.20255674421787262
0.8833333333333333,0.2037057876586914,0.01349611021578312,0.0,0.5716063380241394,0.0,0.0,-0.820527970790863,0.5546311736106873,-0.216577410697937,0.0,0.0,0.0,-5.160346984863281,0.48452189564704895,0.714325487613678,0.4200000464916229,0.5480019450187683,7.338315555216468e-08,-2.683533011804684e-06,-0.8364769816398621,4.1920720832422376e-05,-0.0002519188856240362,-7.688137702643871e-05,0.006562486290931702,-0.0020825809333473444,-0.0007075322791934013,0.5434387922286987,0.7289556264877319,0.5538783073425293,0.8853769302368164,-0.4053099453449249,0.3351737856864929,0.46778401732444763,0.7162832617759705,0.42000001668930054,-0.6618355512619019,-2.496878147125244,-1.5463078022003174,-2.999999761581421,-0.1757635921239853,-0.17050223052501678,-0.1640140861272812,-0.15628182888031006,-0.06827154755592346,-0.053950753062963486,-0.013459764420986176,0.03496168181300163
0.9,0.21010689437389374,0.012102581560611725,0.0,0.5582897067070007,0.0,0.0,-0.8296460509300232,0.3008490800857544,-0.02748348005115986,0.0,0.0,0.0,-0.8991925716400146,0.48452186584472656,0.714325487613678,0.4200000464916229,0.5480018854141235,1.0359842406160169e-07,-2.7698463327396894e-06,-0.8364769816398621,4.146550054429099e-05,-0.0002517936227377504,-7.68203753978014e-05,0.006561333779245615,-0.002088240347802639,-0.0007063346565701067,0.5554555654525757,0.7257219552993774,0.5603245496749878,0.5290319919586182,-0.04384089261293411,0.3979169726371765,0.46778401732444763,0.7162832617759705,0.42000001668930054,-0.6715420484542847,1.0336130857467651,-1.5963261127471924,-2.9999990463256836,-0.1759999543428421,-0.17085085809230804,-0.16414697468280792,-0.15613152086734772,0.05039375647902489,0.021239949390292168,0.005155269056558609,-0.01057022251188755
