vladlanda/robotic-transformer/data/env_000_episode_0163.csv
sim_time_s,robot_box_x,robot_box_y,robot_box_z,robot_box_quat_w,robot_box_quat_x,robot_box_quat_y,robot_box_quat_z,robot_box_linvel_x,robot_box_linvel_y,robot_box_linvel_z,robot_box_angvel_x,robot_box_angvel_y,robot_box_angvel_z,cube_world_x,cube_world_y,cube_world_z,cube_quat_w,cube_quat_x,cube_quat_y,cube_quat_z,cube_linvel_x,cube_linvel_y,cube_linvel_z,cube_angvel_x,cube_angvel_y,cube_angvel_z,endpoint_world_x,endpoint_world_y,endpoint_world_z,endpoint_linvel_x,endpoint_linvel_y,endpoint_linvel_z,target_cube_world_x,target_cube_world_y,target_cube_world_z,gripper_actual_pos_rad_gp_leftgearjoint,gripper_actual_vel_rad_s_gp_leftgearjoint,gripper_actual_pos_rad_gp_rotatingjoint,gripper_actual_vel_rad_s_gp_rotatingjoint,motor_angle_rad_joint1,motor_angle_rad_joint2,motor_angle_rad_joint3,motor_angle_rad_joint4,motor_speed_rad_s_joint1,motor_speed_rad_s_joint2,motor_speed_rad_s_joint3,motor_speed_rad_s_joint4
0.0,0.0,0.0,0.0,1.0,0.0,0.0,0.0,0.0,0.0,0.0,0.0,0.0,0.0,-0.39261630177497864,0.7135927081108093,0.41999998688697815,1.0,0.0,0.0,0.0,0.0,0.0,0.0,0.0,0.0,0.0,3.42540442943573e-06,-0.005000244826078415,1.313499927520752,0.0,0.0,0.0,0.37281477451324463,0.7109276056289673,0.42000001668930054,-1.5707999467849731,0.0,0.0,0.0,0.0,0.0,0.0,0.0,0.0,0.0,0.0,0.0
0.016666666666666666,0.0028778850100934505,0.0021806680597364902,0.0,0.9998081922531128,0.0,0.0,0.019586581736803055,0.24087215960025787,0.18240931630134583,0.0,0.0,0.0,3.1418697834014893,-0.3926164209842682,0.7135924100875854,0.41999998688697815,1.0,3.279964630564791e-06,-8.339746386809566e-07,8.465587342243452e-08,-1.9833529222523794e-05,0.00017983045836444944,-6.132945418357849e-05,0.0009432713268324733,-0.004689474124461412,-0.00031981561915017664,-0.007110234349966049,0.003379564033821225,1.3159373998641968,-0.8143353462219238,0.9868683815002441,0.18095196783542633,0.37281477451324463,0.7109276056289673,0.42000001668930054,-1.5301095247268677,3.0000011920928955,-0.04584788903594017,-2.9999992847442627,0.0008691533003002405,0.0007963840034790337,0.0007110277656465769,0.0006108740926720202,0.11094217747449875,0.09756709635257721,0.08334315568208694,0.06823883205652237
0.03333333333333333,0.008960990235209465,0.006801999639719725,0.0,0.9997960329055786,0.0,0.0,0.020196838304400444,0.4070221185684204,0.3153080344200134,0.0,0.0,0.0,-0.8691328763961792,-0.39261654019355774,0.7135923504829407,0.4200000464916229,1.0,3.3908179375430336e-06,-2.132458348569344e-06,-3.7097745320124886e-08,0.00026357852038927376,0.00026937833172269166,-0.00010509369894862175,-0.0017707126680761576,0.004130884539335966,-0.0001354814594378695,-0.027553945779800415,0.02623700350522995,1.3165900707244873,-1.591369867324829,1.616125226020813,-0.0858476534485817,0.37281477451324463,0.7109276056289673,0.42000001668930054,-1.4800904989242554,3.00000262260437,-0.09588771313428879,-2.999999761581421,0.0029900982044637203,0.002652704017236829,0.0022772708907723427,0.001860723365098238,0.16421392560005188,0.13975746929645538,0.11381620168685913,0.08629825711250305
0.05,0.018451347947120667,0.013871835544705391,0.0,0.9999831914901733,0.0,0.0,-0.005799752194434404,0.6360555291175842,0.47141528129577637,0.0,0.0,0.0,-4.078773021697998,-0.3926165699958801,0.7135924100875854,0.4200000464916229,1.0,3.7651293496310245e-06,-2.2119379536889028e-06,5.6273887771851605e-09,0.0002653067058417946,0.00026691422681324184,-0.00010440615005791187,-0.0017243530601263046,0.00417736079543829,-0.00012949267693329602,-0.05725522339344025,0.05741254240274429,1.311873197555542,-1.9525501728057861,2.059018611907959,-0.4609905183315277,0.37281477451324463,0.7109276056289673,0.42000001668930054,-1.4300721883773804,3.0000016689300537,-0.14592640101909637,-3.0000007152557373,0.0060057793743908405,0.005167440511286259,0.004256643820554018,0.0032691925298422575,0.20730385184288025,0.1669158786535263,0.12461331486701965,0.0803142637014389
0.06666666666666667,0.030756808817386627,0.023343469947576523,0.0,0.9998984336853027,0.0,0.0,-0.014251059852540493,0.7724466919898987,0.6151458621025085,0.0,0.0,0.0,-0.04394705593585968,-0.3926165699958801,0.7135923504829407,0.4200000464916229,0.9999999403953552,3.406754103707499e-06,-2.2856077066535363e-06,4.300980265270482e-07,0.0002670255198609084,0.0002679179306142032,-0.0001043803058564663,-0.001740670995786786,0.004211848136037588,-0.00012850687198806554,-0.09344017505645752,0.0906631126999855,1.3013725280761719,-2.250584602355957,2.106722354888916,-0.7888923287391663,0.37281477451324463,0.7109276056289673,0.42000001668930054,-1.3800500631332397,2.999997138977051,-0.17218317091464996,-0.36234623193740845,0.008608298376202583,0.007012594025582075,0.005304186139255762,0.0034780153073370457,0.13664323091506958,0.08176770806312561,0.024741221219301224,-0.034497328102588654
0.08333333333333333,0.03679131716489792,0.036687515676021576,0.0,0.9992711544036865,0.0,0.0,-0.03817255049943924,0.2268363982439041,0.873894453048706,0.0,0.0,0.0,-3.814663887023926,-0.3926165699958801,0.7135923504829407,0.4200000464916229,0.9999999403953552,3.6260603337723296e-06,-2.3353738924924983e-06,3.0322857469400333e-07,0.00026613770751282573,0.00026685066404752433,-0.00010405178181827068,-0.0017283547203987837,0.004196325317025185,-0.000127911422168836,-0.12600554525852203,0.13027815520763397,1.2858357429504395,-1.6808269023895264,2.643970489501953,-0.9956834316253662,0.37281477451324463,0.7109276056289673,0.42000001668930054,-1.3300399780273438,3.0,-0.21766437590122223,-3.0000007152557373,0.00463391188532114,0.0022683923598378897,-0.00026384598459117115,-0.002971673384308815,-0.3632144033908844,-0.42306435108184814,-0.48567113280296326,-0.5512774586677551
0.1,0.04664475470781326,0.05161762982606888,0.0,0.9960120320320129,0.0,0.0,-0.08921866118907928,0.7372432351112366,0.9028877019882202,0.0,0.0,0.0,-6.974067211151123,-0.3926165699958801,0.7135923504829407,0.4200000464916229,1.0,3.4220743145851884e-06,-2.30867885875341e-06,1.7964234189093986e-07,0.0002668164379429072,0.0002680036413948983,-0.00010440708138048649,-0.0017430284060537815,0.004207152873277664,-0.00012891023652628064,-0.15511731803417206,0.1767931431531906,1.2689571380615234,-1.7958464622497559,2.9514994621276855,-1.0813653469085693,0.37281477451324463,0.7109276056289673,0.42000001668930054,-1.2800225019454956,2.9999969005584717,-0.19367672502994537,2.999999761581421,0.002994372509419918,-0.0009399150731042027,-0.005044800695031881,-0.009329588152468204,-0.009146168828010559,-0.11302270740270615,-0.21592283248901367,-0.3177771270275116
0.11666666666666667,0.05515061691403389,0.06365889310836792,0.0,0.9926482439041138,0.0,0.0,-0.12103494256734848,0.5381343960762024,0.6852576732635498,0.0,0.0,0.0,-2.5843796730041504,-0.3926165699958801,0.7135924100875854,0.4200000464916229,1.0,3.711451881827088e-06,-2.3327925191551913e-06,2.574467430349614e-07,0.0002648566151037812,0.0002663534542080015,-0.00010423408821225166,-0.0017182299634441733,0.004170136991888285,-0.0001291574299102649,-0.18854528665542603,0.22283518314361572,1.2495558261871338,-1.9567880630493164,2.9574685096740723,-1.1658291816711426,0.37281477451324463,0.7109276056289673,0.42000001668930054,-1.23003351688385,3.0000009536743164,-0.2251415252685547,-3.0000009536743164,0.0006131043774075806,-0.004976097960025072,-0.010710672475397587,-0.016599494963884354,-0.056847404688596725,-0.1758088916540146,-0.2915252447128296,-0.40381303429603577
0.13333333333333333,0.0614367313683033,0.07411717623472214,0.0,0.9867140054702759,0.0,0.0,-0.162466898560524,0.33210235834121704,0.5507258176803589,0.0,0.0,0.0,-5.820384502410889,-0.3926165699958801,0.7135923504829407,0.4200000464916229,1.0,3.335707106089103e-06,-2.2319818526739255e-06,3.1131835953601694e-07,0.00026669749058783054,0.00026759348111227155,-0.00010428577661514282,-0.0017370672430843115,0.004205907229334116,-0.00012840131239499897,-0.21962393820285797,0.2774137854576111,1.2265794277191162,-1.7034764289855957,3.654996871948242,-1.5725282430648804,0.37281477451324463,0.7109276056289673,0.42000001668930054,-1.1800175905227661,2.999993085861206,-0.19121670722961426,2.9999990463256836,-0.0016871197149157524,-0.009177538566291332,-0.016747549176216125,-0.024403665214776993,-0.17985425889492035,-0.2871257960796356,-0.39015161991119385,-0.48880863189697266
0.15,0.06390579789876938,0.08494662493467331,0.0,0.9829964637756348,0.0,0.0,-0.1836245208978653,0.0672617182135582,0.6852396130561829,0.0,0.0,0.0,-1.3954393863677979,-0.3926165699958801,0.7135923504829407,0.4200000464916229,1.0,3.518956873449497e-06,-2.2831925434729783e-06,-3.625542035479157e-07,0.0002661838079802692,0.0002673559356480837,-0.00010425667278468609,-0.0017348496476188302,0.004195802379399538,-0.00012861037976108491,-0.25491878390312195,0.3337380886077881,1.1950569152832031,-2.1831259727478027,3.4220023155212402,-2.199049472808838,0.37281477451324463,0.7109276056289673,0.42000001668930054,-1.1470428705215454,1.0971413850784302,-0.2227027416229248,-2.999999761581421,-0.006096658296883106,-0.015059934929013252,-0.024021757766604424,-0.03298753872513771,-0.33307668566703796,-0.40069547295570374,-0.4636520445346832,-0.5219751000404358
0.16666666666666666,0.06897004693746567,0.09705160558223724,0.0,0.9761257171630859,0.0,0.0,-0.21720631420612335,0.3011775612831116,0.8151301145553589,0.0,0.0,0.0,-4.975010871887207,-0.3926165699958801,0.7135923504829407,0.4200000464916229,1.0,3.6666233427240513e-06,-2.3392092316498747e-06,-3.150152849684673e-07,0.0002659587189555168,0.00026667414931580424,-0.00010403618216514587,-0.0017253721598535776,0.0041928282007575035,-0.00012778467498719692,-0.28985893726348877,0.39636269211769104,1.1526358127593994,-1.9229341745376587,4.0486273765563965,-2.9271979331970215,0.37281477451324463,0.7109276056289673,0.42000001668930054,-1.1024380922317505,2.999999523162842,-0.22404329478740692,2.3771231174468994,-0.011951451189815998,-0.021784929558634758,-0.03155063837766647,-0.04125676304101944,-0.5459190011024475,-0.5625616908073425,-0.5770589709281921,-0.5897361040115356
0.18333333333333332,0.07165617495775223,0.1073024794459343,0.0,0.9717696905136108,0.0,0.0,-0.23593156039714813,0.11130601912736893,0.5349700450897217,0.0,0.0,0.0,-0.7673147916793823,-0.3926165699958801,0.7135923504829407,0.4200000464916229,1.0,3.814353021880379e-06,-2.3995974061108427e-06,-2.7029872740058636e-07,0.00026549032190814614,0.0002661117759998888,-0.00010391208343207836,-0.0017177986446768045,0.004184774123132229,-0.0001275356044061482,-0.3238493502140045,0.45970040559768677,1.098067283630371,-1.8602068424224854,3.828388214111328,-3.5913634300231934,0.37281477451324463,0.7109276056289673,0.42000001668930054,-1.0537678003311157,2.8163721561431885,-0.2589956820011139,-2.9999985694885254,-0.022340958938002586,-0.032119009643793106,-0.04179946333169937,-0.051399603486061096,-0.6606625318527222,-0.6445271968841553,-0.6269852519035339,-0.6086376905441284
0.2,0.07044413685798645,0.11806892603635788,0.0,0.9648522138595581,0.0,0.0,-0.2627931535243988,-0.1491023749113083,0.6812344193458557,0.0,0.0,0.0,-4.170276165008545,-0.3926165699958801,0.7135923504829407,0.4200000464916229,1.0,3.6000251384393778e-06,-2.2912661279406166e-06,-2.202114615101891e-07,0.0002657297009136528,0.00026644894387573004,-0.00010398100130259991,-0.0017226373311132193,0.004188735969364643,-0.0001277304399991408,-0.35256141424179077,0.5250124335289001,1.0319453477859497,-1.5144490003585815,3.922229766845703,-4.281827926635742,0.37281477451324463,0.7109276056289673,0.42000001668930054,-1.003840684890747,2.9999985694885254,-0.30902162194252014,-3.000000238418579,-0.03580763563513756,-0.045083578675985336,-0.05423817038536072,-0.06330078840255737,-0.8641013503074646,-0.8264827728271484,-0.7875755429267883,-0.748064398765564
0.21666666666666667,0.07246879488229752,0.1296064555644989,0.0,0.9485594034194946,0.0,0.0,-0.3165992796421051,0.11116071790456772,0.766424834728241,0.0,0.0,0.0,-7.666841506958008,-0.3926165699958801,0.7135923504829407,0.4200000464916229,0.9999999403953552,3.639628175733378e-06,-2.2620024537900463e-06,2.2244368835799833e-07,0.00026687400531955063,0.00026754438295029104,-0.00010411953553557396,-0.0017404285026714206,0.004211097024381161,-0.00012783633428625762,-0.374541699886322,0.592755913734436,0.952078640460968,-0.9902787208557129,4.0236310958862305,-5.204460144042969,0.37281477451324463,0.7109276056289673,0.42000001668930054,-0.9538356065750122,2.9999990463256836,-0.3590497672557831,-2.9999988079071045,-0.04986440762877464,-0.05849812924861908,-0.06688839197158813,-0.07519107311964035,-0.9856935143470764,-0.9666996002197266,-0.8890643119812012,-0.8140448331832886
0.23333333333333334,0.07672513276338577,0.13800059258937836,0.0,0.9365742206573486,0.0,0.0,-0.3504692316055298,0.3728414475917816,0.4057832658290863,0.0,0.0,0.0,-3.072578191757202,-0.39261654019355774,0.7135923504829407,0.4200000464916229,1.0,3.4207625958515564e-06,-2.3168413463281468e-06,2.955432591988938e-07,0.0002668008382897824,0.0002680383331608027,-0.00010442384518682957,-0.0017436932539567351,0.004206873942166567,-0.00012899334251414984,-0.3931058645248413,0.6495000123977661,0.8593987226486206,-0.7800219058990479,3.129976749420166,-5.901371002197266,0.37281477451324463,0.7109276056289673,0.42000001668930054,-0.9038252234458923,3.000000238418579,-0.40907999873161316,-3.0000011920928955,-0.06571917235851288,-0.07427336275577545,-0.08242224156856537,-0.08970517665147781,-0.9556838274002075,-0.9417502880096436,-0.931133508682251,-0.9053626656532288
0.25,0.07670881599187851,0.1504586935043335,0.0,0.936072051525116,0.0,0.0,-0.3518083393573761,-0.12149648368358612,0.8729557394981384,0.0,0.0,0.0,0.7887958288192749,-0.3926165699958801,0.7135923504829407,0.4200000464916229,0.9999999403953552,3.3476451335445745e-06,-2.259213715660735e-06,1.8079042263252632e-07,0.00026687688659876585,0.00026791199343279004,-0.00010439311154186726,-0.0017404770478606224,0.004208194557577372,-0.0001287040940951556,-0.4071354866027832,0.6829885244369507,0.7592529058456421,-0.5774536728858948,1.2474571466445923,-6.085141181945801,0.37281477451324463,0.7109276056289673,0.42000001668930054,-0.8538147807121277,2.999986171722412,-0.45911136269569397,-3.0000014305114746,-0.08327464014291763,-0.09155964851379395,-0.09950318932533264,-0.10662625730037689,-0.988693356513977,-0.9903308153152466,-0.9916694760322571,-0.9928424954414368
0.26666666666666666,0.08093452453613281,0.1577398031949997,0.0,0.9305773377418518,0.0,0.0,-0.3660953938961029,0.2728964388370514,0.3550983965396881,0.0,0.0,0.0,-2.5035834312438965,-0.3926165699958801,0.7135923504829407,0.4200000464916229,0.9999999403953552,3.535712721713935e-06,-2.300341748195933e-06,-1.2691427286881662e-07,0.00026601803256198764,0.00026712071849033237,-0.00010419590398669243,-0.0017315904842689633,0.004192848224192858,-0.00012849242193624377,-0.4148600697517395,0.7027581334114075,0.6540303230285645,-0.1646905392408371,0.8160133957862854,-6.426332950592041,0.37281477451324463,0.7109276056289673,0.42000001668930054,-0.8038054704666138,2.9999988079071045,-0.5091424584388733,-2.999999761581421,-0.0958264023065567,-0.10460752248764038,-0.11284308135509491,-0.1202256828546524,-0.984943687915802,-0.9789205193519592,-0.9475408792495728,-0.9160577654838562
0.2833333333333333,0.08126658201217651,0.1613253504037857,0.0,0.9316512942314148,0.0,0.0,-0.3633536398410797,-0.009638453833758831,0.12776729464530945,0.0,0.0,0.0,1.158372163772583,-0.3926165699958801,0.7135924100875854,0.4200000464916229,1.0,3.5934726838604547e-06,-2.2626072677667253e-06,-5.6595279573912194e-08,0.00026704673655331135,0.00026774933212436736,-0.00010416633449494839,-0.0017431472660973668,0.0042141880840063095,-0.00012789324682671577,-0.415012001991272,0.7108851075172424,0.5539118647575378,0.20213991403579712,0.23905378580093384,-5.555722236633301,0.37281477451324463,0.7109276056289673,0.42000001668930054,-0.7537966966629028,2.9999985694885254,-0.5591720938682556,-2.999999523162842,-0.11317042261362076,-0.1217925101518631,-0.1299266219139099,-0.13724254071712494,-0.9324288368225098,-0.9538489580154419,-0.9749595522880554,-0.9948391318321228
0.3,0.07884744554758072,0.1612771451473236,0.0,0.927681565284729,0.0,0.0,-0.37337231636047363,-0.19681726396083832,-0.045260779559612274,0.0,0.0,0.0,-2.144991159439087,-0.39261654019355774,0.7135923504829407,0.4200000464916229,0.9999999403953552,3.7250313198455842e-06,-2.2360607090377016e-06,3.828210992651293e-07,0.00026479887310415506,0.00026673005777411163,-0.00010453932918608189,-0.0017189555801451206,0.004166737664490938,-0.00013016702723689377,-0.4067525863647461,0.7149993777275085,0.4622963070869446,0.8094454407691956,0.1273443102836609,-5.235250949859619,0.37281477451324463,0.7109276056289673,0.42000001668930054,-0.7037888169288635,3.000001907348633,-0.6091998219490051,-3.0000011920928955,-0.130594402551651,-0.13905081152915955,-0.14705820381641388,-0.15427261590957642,-1.0131773948669434,-1.0099762678146362,-1.0075290203094482,-1.0055677890777588
0.31666666666666665,0.07407443970441818,0.15881642699241638,0.0,0.9298092722892761,0.0,0.0,-0.3680417239665985,-0.3314853310585022,-0.18940797448158264,0.0,0.0,0.0,1.5231589078903198,-0.3926165699958801,0.7135923504829407,0.4200000464916229,0.9999999403953552,3.557747731974814e-06,-2.2788008209317923e-06,2.2828703549748752e-07,0.00026598561089485884,0.00026658433489501476,-0.00010398984886705875,-0.0017240943852812052,0.00419356394559145,-0.00012769577733706683,-0.39964866638183594,0.7173125743865967,0.4276650547981262,0.06818445771932602,-0.06791196763515472,-0.2144061028957367,0.37281477451324463,0.7109276056289673,0.42000001668930054,-0.6538183093070984,2.998626708984375,-0.6596347093582153,-3.0020947456359863,-0.13932394981384277,-0.14839135110378265,-0.15680661797523499,-0.16416822373867035,-0.1762893944978714,-0.22198370099067688,-0.24690426886081696,-0.24606943130493164
0.3333333333333333,0.0669233575463295,0.15401214361190796,0.0,0.9260850548744202,0.0,0.0,-0.3773147761821747,-0.47727593779563904,-0.32889115810394287,0.0,0.0,0.0,-2.1033196449279785,-0.3927696645259857,0.7142248749732971,0.4200001060962677,0.999938428401947,-1.0144495718122926e-05,3.39393773174379e-05,-0.011097627691924572,0.00809310283511877,0.08094751834869385,-0.0009439372806809843,0.030890388414263725,-0.03166789188981056,-1.7088274955749512,-0.39954644441604614,0.7180285453796387,0.4248875379562378,0.12571024894714355,0.04479840397834778,-0.19693389534950256,0.37281477451324463,0.7109276056289673,0.42000001668930054,-0.603812575340271,2.999985933303833,-0.709688127040863,-2.999995231628418,-0.14360390603542328,-0.15287788212299347,-0.16119712591171265,-0.16811127960681915,-0.3293294906616211,-0.30959299206733704,-0.27609941363334656,-0.22770212590694427
0.35,0.05754014477133751,0.1469217836856842,0.0,0.9284308552742004,0.0,0.0,-0.3715053200721741,-0.6028021574020386,-0.46444597840309143,0.0,0.0,0.0,1.6656384468078613,-0.39100882411003113,0.7181577682495117,0.42000246047973633,0.9982909560203552,3.264124825363979e-05,-8.506640733685344e-05,-0.058438003063201904,0.19356468319892883,0.35117194056510925,-0.0008828379795886576,0.07652167230844498,0.10962965339422226,-8.11221694946289,-0.3964398205280304,0.721790075302124,0.42175307869911194,0.2593906819820404,0.3714379668235779,-0.1550186574459076,0.37281477451324463,0.7109276056289673,0.42000001668930054,-0.5538076162338257,2.9999897480010986,-0.75972980260849,-3.0000009536743164,-0.15031585097312927,-0.15864525735378265,-0.16580472886562347,-0.17135462164878845,-0.412166953086853,-0.3359036445617676,-0.24758397042751312,-0.1489730179309845
0.36666666666666664,0.04591704159975052,0.13757550716400146,0.0,0.9249260425567627,0.0,0.0,-0.38014712929725647,-0.7444198727607727,-0.6043765544891357,0.0,0.0,0.0,-1.9793717861175537,-0.3875110149383545,0.7241522669792175,0.4199993908405304,0.9921416640281677,5.547997716348618e-05,-1.2935504855704494e-05,-0.12511950731277466,0.2333577573299408,0.3864448368549347,-0.0009490025695413351,-0.04631044715642929,0.009864406660199165,-8.763127326965332,-0.39000093936920166,0.7277999520301819,0.4198942482471466,0.4454575479030609,0.4131523370742798,0.03239605203270912,0.37281477451324463,0.7109276056289673,0.42000001668930054,-0.503786027431488,2.9987528324127197,-0.8097699284553528,-2.9557502269744873,-0.15786203742027283,-0.16453896462917328,-0.16980913281440735,-0.17328378558158875,-0.44523143768310547,-0.33608272671699524,-0.2110852599143982,-0.0741548016667366
0.3833333333333333,0.03162963315844536,0.12587203085422516,0.0,0.9107251167297363,0.0,0.0,-0.4130130112171173,-0.9090352654457092,-0.7443203330039978,0.0,0.0,0.0,-5.381314277648926,-0.3792332708835602,0.7354893684387207,0.42054709792137146,0.9849935173988342,-0.008845374919474125,-0.003919823560863733,-0.17231957614421844,0.7177019119262695,0.9403455853462219,0.06346648931503296,-0.20643675327301025,-3.4562268257141113,-3.426086664199829,-0.38047170639038086,0.7377502918243408,0.4211573600769043,0.7559762001037598,0.8312205076217651,0.10184501111507416,0.37281477451324463,0.7109276056289673,0.42000001668930054,-0.45372918248176575,3.000000238418579,-0.8597763776779175,-2.9999687671661377,-0.1650145798921585,-0.16978152096271515,-0.17279167473316193,-0.17373357713222504,-0.38500019907951355,-0.2645946741104126,-0.12163214385509491,0.0388052873313427
0.4,0.019562629982829094,0.11114062368869781,0.0,0.88262939453125,0.0,0.0,-0.47006955742836,-0.6544162631034851,-0.9421836137771606,0.0,0.0,0.0,-8.441646575927734,-0.3575543165206909,0.7581186890602112,0.42240118980407715,0.9770647287368774,0.0013574024196714163,-0.038019757717847824,-0.20951655507087708,2.12675142288208,1.602259635925293,-0.031840741634368896,19.424013137817383,-11.230121612548828,2.601609945297241,-0.3583662211894989,0.7599517107009888,0.4230879247188568,2.0617592334747314,1.9166874885559082,0.244966059923172,0.37281477451324463,0.7109276056289673,0.42000001668930054,-0.40424591302871704,2.6595458984375,-0.9097907543182373,-3.0000016689300537,-0.17204871773719788,-0.1744154542684555,-0.17463873326778412,-0.17251093685626984,-0.45590630173683167,-0.2839699685573578,-0.09128211438655853,0.11499306559562683
0.4166666666666667,0.011506198905408382,0.09364771842956543,0.0,0.8384520411491394,0.0,0.0,-0.5449753999710083,-0.4076104462146759,-1.119542121887207,0.0,0.0,0.0,-11.155815124511719,-0.2981736660003662,0.7979416251182556,0.4254307150840759,0.9584665894508362,0.05250057950615883,-0.08125735074281693,-0.26829564571380615,5.049351692199707,2.549116373062134,0.32751789689064026,25.38042449951172,-16.567834854125977,14.547334671020508,-0.2990882992744446,0.7994135618209839,0.4263070225715637,4.671015739440918,2.8712923526763916,0.3466448187828064,0.37281477451324463,0.7109276056289673,0.42000001668930054,-0.380569726228714,0.7635316848754883,-0.8726590871810913,2.998934268951416,-0.18320271372795105,-0.1815047711133957,-0.17754903435707092,-0.17128418385982513,-0.7051783204078674,-0.4482784569263458,-0.1935492753982544,0.049299292266368866
0.43333333333333335,0.006316714454442263,0.08160172402858734,0.0,0.7896215915679932,0.0,0.0,-0.613594114780426,-0.2564125657081604,-0.5937433838844299,0.0,0.0,0.0,-9.486746788024902,-0.21637842059135437,0.8382189869880676,0.4324333965778351,0.9279553294181824,0.11781390011310577,-0.12919104099273682,-0.329132616519928,5.171484470367432,1.8651200532913208,0.36571210622787476,7.989521026611328,-10.407058715820312,3.0426371097564697,-0.2187856137752533,0.8415329456329346,0.432963490486145,5.100656509399414,2.181171417236328,0.48141223192214966,0.37281477451324463,0.7109276056289673,0.42000001668930054,-0.36817634105682373,0.970732569694519,-0.8443931341171265,0.6462690830230713,-0.1985957771539688,-0.19498097896575928,-0.18615736067295074,-0.1752208173274994,-0.8609687685966492,-0.8522050380706787,-0.5815662741661072,-0.310549795627594
0.45,0.00427040783688426,0.07409505546092987,0.0,0.7574876546859741,0.0,0.0,-0.6528494954109192,-0.08426352590322495,-0.47307288646698,0.0,0.0,0.0,-4.836532115936279,-0.13249951601028442,0.8646978735923767,0.441723495721817,0.8967996835708618,0.11831942945718765,-0.1473306268453598,-0.4000556170940399,5.090841293334961,0.8892177939414978,0.7274176478385925,-3.8245060443878174,-1.526259422302246,-3.7065322399139404,-0.1345156878232956,0.8695117235183716,0.44145381450653076,5.118099689483643,1.242551326751709,0.6092197299003601,0.37281477451324463,0.7109276056289673,0.42000001668930054,-0.3487025201320648,1.2773685455322266,-0.8854462504386902,-2.9996116161346436,-0.21117714047431946,-0.20779603719711304,-0.19672837853431702,-0.181050106883049,-0.598560094833374,-0.6030980944633484,-0.49841418862342834,-0.26122188568115234
0.4666666666666667,-0.0006700616795569658,0.0604165680706501,0.0,0.7466328144073486,0.0,0.0,-0.6652363538742065,-0.3802938163280487,-0.9475621581077576,0.0,0.0,0.0,-0.9627822041511536,-0.046924520283937454,0.8789355158805847,0.4507308602333069,0.8546449542045593,0.09553851187229156,-0.1412024199962616,-0.49042442440986633,5.42401123046875,-0.33863815665245056,0.6170626282691956,12.490616798400879,-6.8619794845581055,21.042564392089844,-0.048269547522068024,0.8843998908996582,0.4505215883255005,5.2969465255737305,0.4518864154815674,0.5989667177200317,0.37281477451324463,0.7109276056289673,0.42000001668930054,-0.32784920930862427,1.0572788715362549,-0.9354702830314636,-3.000002145767212,-0.21743124723434448,-0.2134484499692917,-0.20045779645442963,-0.18113313615322113,-0.3098914623260498,-0.220290869474411,-0.0789068415760994,0.13805420696735382
0.48333333333333334,-0.0024242855142802,0.051998548209667206,0.0,0.7268140912055969,0.0,0.0,-0.6868342161178589,-0.10315917432308197,-0.5032732486724854,0.0,0.0,0.0,-4.093127250671387,0.04167254641652107,0.8761330842971802,0.45783790946006775,0.8114724159240723,0.0868508517742157,-0.13424672186374664,-0.5620918869972229,5.530178546905518,-1.0712471008300781,0.4249681234359741,19.085052490234375,-16.78211212158203,17.13714599609375,0.04153027758002281,0.8819538354873657,0.458152174949646,5.397994041442871,-0.4704284071922302,0.3954906761646271,0.37281477451324463,0.7109276056289673,0.42000001668930054,-0.31352823972702026,0.6326872706413269,-0.9854943156242371,-3.0000035762786865,-0.22882972657680511,-0.22166968882083893,-0.20517590641975403,-0.18167327344417572,-0.4712354242801666,-0.31849348545074463,-0.15906141698360443,0.02832929790019989
0.5,-0.001189119415357709,0.04636901989579201,0.0,0.7225118279457092,0.0,0.0,-0.6913585066795349,0.10963909327983856,-0.20697185397148132,0.0,0.0,0.0,0.26009824872016907,0.12766528129577637,0.8632788062095642,0.46050208806991577,0.7420019507408142,0.04895622655749321,-0.14300456643104553,-0.6531354188919067,4.892811298370361,-1.5851707458496094,-0.054585251957178116,-14.78152084350586,-5.704143047332764,-0.3852747678756714,0.1270786076784134,0.86888587474823,0.46168196201324463,4.848844528198242,-1.1476576328277588,0.15653887391090393,0.37281477451324463,0.7109276056289673,0.42000001668930054,-0.3052217662334442,0.3977755606174469,-1.0355169773101807,-3.00000262260437,-0.23478315770626068,-0.22546648979187012,-0.20702166855335236,-0.18142594397068024,-0.2952587902545929,-0.17364901304244995,-0.08385062217712402,-0.005235699005424976
0.5166666666666666,-0.0013621116522699594,0.039070289582014084,0.0,0.7089055180549622,0.0,0.0,-0.705303430557251,-0.058885544538497925,-0.45876750349998474,0.0,0.0,0.0,-3.1847569942474365,0.2024051696062088,0.8396815657615662,0.45733630657196045,0.7039227485656738,0.012632793746888638,-0.1328706592321396,-0.6976234316825867,3.9009082317352295,-2.1904184818267822,-0.28761935234069824,-3.521000623703003,0.46430301666259766,10.189391136169434,0.20272883772850037,0.8453273773193359,0.4594636857509613,4.257441520690918,-1.7636537551879883,-0.26208725571632385,0.37281477451324463,0.7109276056289673,0.42000001668930054,-0.294917494058609,0.7447648048400879,-1.0855391025543213,-3.0,-0.2368684560060501,-0.2256568819284439,-0.20608273148536682,-0.17979241907596588,-0.13834917545318604,-0.0035774516873061657,0.07109770178794861,0.10369161516427994
0.5333333333333333,-0.00021708360873162746,0.035316046327352524,0.0,0.7074786424636841,0.0,0.0,-0.7067347168922424,0.10031166672706604,-0.18901386857032776,0.0,0.0,0.0,0.6015475988388062,0.263888418674469,0.8078645467758179,0.45016393065452576,0.6510924696922302,-0.02667183429002762,-0.10439301282167435,-0.751311719417572,2.941524028778076,-2.5246267318725586,-0.427412211894989,2.73256516456604,3.0869545936584473,13.170382499694824,0.2646986246109009,0.8130115866661072,0.45240670442581177,3.3409862518310547,-2.0461103916168213,-0.55150306224823,0.37281477451324463,0.7109276056289673,0.42000001668930054,-0.2813054919242859,0.7129260301589966,-1.135561227798462,-3.0000009536743164,-0.2388879954814911,-0.22573897242546082,-0.2053888887166977,-0.17920348048210144,0.03716055676341057,0.10656963288784027,0.10105083882808685,0.03774063661694527
0.55,0.003451497061178088,0.028016790747642517,0.0,0.695744514465332,0.0,0.0,-0.7182893753051758,0.2671063244342804,-0.4663626253604889,0.0,0.0,0.0,-2.7482287883758545,0.31366392970085144,0.7773555517196655,0.43604159355163574,0.6177210807800293,-0.06470649689435959,-0.0870199054479599,-0.7788845896720886,2.297386884689331,-2.3770763874053955,-0.8378564715385437,-0.5072839856147766,0.8397396206855774,19.259721755981445,0.31470155715942383,0.7818707227706909,0.4387848973274231,2.7284960746765137,-1.9092025756835938,-0.971032977104187,0.37281477451324463,0.7109276056289673,0.42000001668930054,-0.2699485719203949,0.5675643682479858,-1.1855833530426025,-3.0000014305114746,-0.23367702960968018,-0.22055409848690033,-0.20149008929729462,-0.177551731467247,0.28581589460372925,0.2796134650707245,0.19201768934726715,0.039903972297906876
0.5666666666666667,0.009625384584069252,0.02450539357960224,0.0,0.6961672306060791,0.0,0.0,-0.7178796529769897,0.3957456946372986,-0.17663761973381042,0.0,0.0,0.0,0.8968473076820374,0.34931275248527527,0.7492767572402954,0.42438918352127075,0.5827085971832275,-0.09967873245477676,-0.06650897860527039,-0.8037980198860168,1.056739330291748,-1.5650908946990967,0.19453810155391693,1.8830091953277588,8.614996910095215,16.96994400024414,0.3499440550804138,0.752844512462616,0.4274902045726776,1.5475385189056396,-1.2826042175292969,0.10232115536928177,0.37281477451324463,0.7109276056289673,0.42000001668930054,-0.25860440731048584,0.7300328016281128,-1.2355245351791382,-3.000181198120117,-0.22952544689178467,-0.21688124537467957,-0.19960306584835052,-0.178501695394516,0.39045119285583496,0.30511340498924255,0.15118835866451263,-0.05654100328683853
0.5833333333333334,0.013348269276320934,0.02402365393936634,0.0,0.6869564652442932,0.0,0.0,-0.7266985177993774,0.1682470142841339,0.03743218630552292,0.0,0.0,0.0,-2.376802444458008,0.37012356519699097,0.7333844304084778,0.4236491620540619,0.5824730396270752,-0.08282338827848434,-0.05960630998015404,-0.8064195513725281,0.556835412979126,-1.3147987127304077,0.06972213089466095,1.3599928617477417,-7.253571510314941,27.787817001342773,0.3698251247406006,0.7358265519142151,0.42661333084106445,1.0053209066390991,-0.9004380702972412,-0.09233486652374268,0.37281477451324463,0.7109276056289673,0.42000001668930054,-0.24542410671710968,0.6248857975006104,-1.197462797164917,2.992492437362671,-0.22121894359588623,-0.21089066565036774,-0.19690489768981934,-0.1798384040594101,0.52854323387146,0.3746472895145416,0.1656760275363922,-0.08523603528738022
0.6,0.01852320320904255,0.01890438236296177,0.0,0.6897749900817871,0.0,0.0,-0.7240237593650818,0.28159213066101074,-0.3035258650779724,0.0,0.0,0.0,1.2651340961456299,0.38031241297721863,0.7224444150924683,0.42433109879493713,0.5733246207237244,-0.09124176949262619,-0.03652041032910347,-0.813412606716156,-0.008727291598916054,-0.8193458318710327,0.12165915220975876,-1.3938969373703003,4.7414140701293945,13.846335411071777,0.3791395425796509,0.724209189414978,0.4276694357395172,0.2558596134185791,-0.5657219886779785,0.1216903030872345,0.37281477451324463,0.7109276056289673,0.42000001668930054,-0.23524056375026703,0.4901469051837921,-1.2187234163284302,-3.0002331733703613,-0.20767341554164886,-0.20064930617809296,-0.19078795611858368,-0.1784425973892212,0.7020036578178406,0.5325993895530701,0.31377875804901123,0.05708884447813034
0.6166666666666667,0.025114472955465317,0.018335875123739243,0.0,0.6815657019615173,0.0,0.0,-0.7317569255828857,0.4602392613887787,-0.037772126495838165,0.0,0.0,0.0,-2.118807792663574,0.3824803829193115,0.7159753441810608,0.42337566614151,0.6011534333229065,-0.07078244537115097,-0.040697406977415085,-0.7949516177177429,0.03590758889913559,-0.3894129991531372,-0.09400947391986847,0.7440878748893738,-3.744626998901367,7.564154148101807,0.38075006008148193,0.7185903787612915,0.4266955852508545,0.08372034132480621,-0.1899079531431198,-0.07162513583898544,0.37281477451324463,0.7109276056289673,0.42000001668930054,-0.2508560121059418,-1.9797892570495605,-1.1807358264923096,2.999572277069092,-0.19715984165668488,-0.19313247501850128,-0.1869594007730484,-0.17882134020328522,0.7406492233276367,0.5291140079498291,0.28519362211227417,0.018855784088373184
0.6333333333333333,0.033925093710422516,0.020381469279527664,0.0,0.6859446167945862,0.0,0.0,-0.7276537418365479,0.5623298287391663,0.18270672857761383,0.0,0.0,0.0,1.6066555976867676,0.3823174834251404,0.710580587387085,0.4211890995502472,0.6318150162696838,-0.02257174625992775,-0.018994228914380074,-0.7745575904846191,-0.06304281204938889,-0.26491445302963257,-0.11723033338785172,6.556480884552002,-1.5057841539382935,1.8216270208358765,0.3806312084197998,0.7162518501281738,0.4282824993133545,-0.06622816622257233,-0.06092933937907219,0.16267049312591553,0.37281477451324463,0.7109276056289673,0.42000001668930054,-0.2994995415210724,-2.999997854232788,-1.2021102905273438,-2.9994688034057617,-0.1860409677028656,-0.18534667789936066,-0.18292522430419922,-0.17881952226161957,0.6347879767417908,0.4474765658378601,0.23831407725811005,0.014405766502022743
0.65,0.04209619387984276,0.01819540001451969,0.0,0.6792279481887817,0.0,0.0,-0.7339274287223816,0.4085843861103058,-0.1239505186676979,0.0,0.0,0.0,-1.9313241243362427,0.3815992772579193,0.7074993848800659,0.4200000464916229,0.6370052099227905,-2.55767395174189e-06,-1.052216362040781e-06,-0.7708594799041748,-0.030355466529726982,-0.13063737750053406,-0.00011720438487827778,0.0042015002109110355,-0.002087250119075179,0.32112035155296326,0.38039273023605347,0.7189766764640808,0.43121811747550964,-0.09805051237344742,0.15068882703781128,0.19913026690483093,0.37281477451324463,0.7109276056289673,0.42000001668930054,-0.34949952363967896,-3.0000011920928955,-1.2520760297775269,-2.9991261959075928,-0.17232993245124817,-0.17422209680080414,-0.17571236193180084,-0.17565767467021942,0.5527998805046082,0.523870050907135,0.34335076808929443,0.15207117795944214
0.6666666666666666,0.050709646195173264,0.020311346277594566,0.0,0.6845609545707703,0.0,0.0,-0.7289556264877319,0.5385017395019531,0.14274872839450836,0.0,0.0,0.0,1.7333784103393555,0.3811233639717102,0.7064182162284851,0.4199993312358856,0.6346495747566223,-3.032321183127351e-05,-1.424394577043131e-05,-0.7728000283241272,-0.038439154624938965,-0.036834489554166794,-0.0005895186332054436,0.004818291869014502,-0.018801957368850708,-0.978348433971405,0.37864816188812256,0.7201839685440063,0.43442976474761963,-0.058906737715005875,0.09740599244832993,0.20232246816158295,0.37281477451324463,0.7109276056289673,0.42000001668930054,-0.39952147006988525,-2.9990391731262207,-1.3020834922790527,-2.999897003173828,-0.16646835207939148,-0.16844677925109863,-0.17208662629127502,-0.17434407770633698,0.3864407539367676,0.36140531301498413,0.2398640364408493,0.11305162310600281
0.6833333333333333,0.061007145792245865,0.01851380616426468,0.0,0.6787118911743164,0.0,0.0,-0.7344046235084534,0.6397936940193176,-0.13631831109523773,0.0,0.0,0.0,-1.9527065753936768,0.38100409507751465,0.7063288688659668,0.4200001358985901,0.6328771710395813,1.6636353393550962e-05,3.824889972747769e-06,-0.7742522358894348,0.00085366953862831,0.0005846635322086513,-0.0005712723359465599,-0.004158583004027605,0.002587314695119858,-0.0012536359718069434,0.3790954351425171,0.7226097583770752,0.4386693835258484,0.035657837986946106,0.04169897362589836,0.29174789786338806,0.37281477451324463,0.7109276056289673,0.42000001668930054,-0.4495311975479126,-2.999932050704956,-1.3520586490631104,-2.9996650218963623,-0.1583704650402069,-0.1608411967754364,-0.16610756516456604,-0.16997022926807404,0.36049020290374756,0.3712207078933716,0.3345371186733246,0.29938045144081116
0.7,0.07306907325983047,0.013248076662421227,0.0,0.6523568034172058,0.0,0.0,-0.7579120397567749,0.7643358707427979,-0.3905055522918701,0.0,0.0,0.0,-5.114205837249756,0.3810054361820221,0.7063305974006653,0.42000001668930054,0.6328767538070679,-2.3711893391009653e-06,-5.243274699751055e-06,-0.7742525339126587,0.0001031074789352715,-0.0003871314984280616,-0.00011074263602495193,0.008381766267120838,-0.0021673424635082483,-0.0003721662797033787,0.38371211290359497,0.7238554954528809,0.44917306303977966,0.5455766320228577,0.08104746043682098,1.099902868270874,0.37281477451324463,0.7109276056289673,0.42000001668930054,-0.49954360723495483,-2.9999585151672363,-1.402077078819275,-2.99999737739563,-0.15524005889892578,-0.1571587324142456,-0.16232946515083313,-0.16604115068912506,0.07902245968580246,0.1298927515745163,0.1696660965681076,0.21351762115955353
0.7166666666666667,0.08875535428524017,0.01284542866051197,0.0,0.6385366320610046,0.0,0.0,-0.7695914506912231,0.890092134475708,0.022244470193982124,0.0,0.0,0.0,-1.1491039991378784,0.3810054361820221,0.7063305377960205,0.42000001668930054,0.6328765153884888,-1.808034767236677e-06,-4.302584784454666e-06,-0.7742527723312378,0.00011124526645289734,-0.0003703016263898462,-0.00010097632184624672,0.008103176020085812,-0.0019676683004945517,-0.0003866812330670655,0.39325690269470215,0.728026270866394,0.4739871621131897,0.660585880279541,0.550485372543335,1.806095838546753,0.37281477451324463,0.7109276056289673,0.42000001668930054,-0.5466005802154541,-2.6415321826934814,-1.45209538936615,-2.9999992847442627,-0.15926073491573334,-0.1599971055984497,-0.16403812170028687,-0.16665200889110565,-0.10895203799009323,-0.10563606768846512,-0.09176117926836014,-0.07589336484670639
0.7333333333333333,0.10032421350479126,0.01438080333173275,0.0,0.6487565040588379,0.0,0.0,-0.7609960436820984,0.6250106692314148,0.1060175821185112,0.0,0.0,0.0,2.4653477668762207,0.3810054361820221,0.7063305974006653,0.42000001668930054,0.6328766345977783,-1.9819951830868376e-06,-4.697487838711822e-06,-0.7742525339126587,0.0001079224020941183,-0.0003670398145914078,-0.0001013660803437233,0.008009033277630806,-0.0019916475284844637,-0.00037887890357524157,0.4066729247570038,0.7362269759178162,0.49743789434432983,0.837540864944458,0.46512043476104736,1.0650442838668823,0.37281477451324463,0.7109276056289673,0.42000001668930054,-0.5624634027481079,0.4785335958003998,-1.502113699913025,-3.0,-0.15965959429740906,-0.16049791872501373,-0.16427043080329895,-0.16655102372169495,0.043745007365942,0.03450143337249756,0.05470450595021248,0.078368179500103
0.75,0.1073053628206253,0.011006602086126804,0.0,0.6469322443008423,0.0,0.0,-0.762547492980957,0.3800210952758789,-0.23070119321346283,0.0,0.0,0.0,-1.222092866897583,0.3810054361820221,0.7063305377960205,0.42000001668930054,0.6328763961791992,-1.8182670373789733e-06,-4.224665644869674e-06,-0.7742528319358826,0.00011226556671317667,-0.0003702820686157793,-0.00010070321150124073,0.008103210479021072,-0.0019527336116880178,-0.00038874056190252304,0.4159975051879883,0.7432276010513306,0.5090011954307556,0.2508978843688965,0.2351934313774109,0.491385281085968,0.37281477451324463,0.7109276056289673,0.42000001668930054,-0.5747543573379517,-1.7486038208007812,-1.4633821249008179,2.9999992847442627,-0.15628816187381744,-0.1575290560722351,-0.16116322576999664,-0.16328972578048706,0.04160144925117493,0.060663461685180664,0.11032059043645859,0.15349547564983368
0.7666666666666666,0.11089352518320084,0.01251248735934496,0.0,0.6562871932983398,0.0,0.0,-0.7545111775398254,0.1717686504125595,0.09825441241264343,0.0,0.0,0.0,2.241755962371826,0.3810054361820221,0.7063305377960205,0.42000001668930054,0.6328763961791992,-1.907805653900141e-06,-4.39775158156408e-06,-0.7742527723312378,0.00011023694969480857,-0.000368401495506987,-0.00010096840560436249,0.008048678748309612,-0.001969317439943552,-0.00038399171899072826,0.4189789295196533,0.746026873588562,0.5152312517166138,0.19229307770729065,0.23838350176811218,0.2618711590766907,0.37281477451324463,0.7109276056289673,0.42000001668930054,-0.5787903070449829,1.027951717376709,-1.4802743196487427,-3.0,-0.15992139279842377,-0.16006863117218018,-0.16215069591999054,-0.16295379400253296,-0.1125873550772667,-0.07890530675649643,-0.015086704865098,0.03639126569032669
0.7833333333333333,0.11129024624824524,0.010031026788055897,0.0,0.6525582075119019,0.0,0.0,-0.7577385902404785,-0.014583860523998737,-0.2235364317893982,0.0,0.0,0.0,-1.5019245147705078,0.3810054361820221,0.7063305974006653,0.42000001668930054,0.6328766942024231,-2.008679985010531e-06,-4.406108928378671e-06,-0.7742524743080139,0.00010945297253783792,-0.000367330590961501,-0.0001009814441204071,0.00801974069327116,-0.0019746043253690004,-0.00038220794522203505,0.4183039665222168,0.7482311725616455,0.5135492086410522,-0.2729940712451935,0.006999388337135315,-0.27819302678108215,0.37281477451324463,0.7109276056289673,0.42000001668930054,-0.5882183909416199,-1.8979240655899048,-1.441606879234314,2.9999988079071045,-0.16072559356689453,-0.16037797927856445,-0.1614617556333542,-0.1614791452884674,-0.06197919324040413,-0.02103525772690773,0.04812316223978996,0.10234670341014862
0.8,0.11309414356946945,0.012395900674164295,0.0,0.6597417593002319,0.0,0.0,-0.7514923810958862,0.08590704202651978,0.17440760135650635,0.0,0.0,0.0,1.763687014579773,0.3810054361820221,0.7063305974006653,0.42000001668930054,0.6328765749931335,-1.9295885067549534e-06,-4.4793659981223755e-06,-0.7742525935173035,0.0001100921945180744,-0.0003687088028527796,-0.00010098959319293499,0.008059441111981869,-0.0019734252709895372,-0.00038396072341129184,0.41524893045425415,0.7475531697273254,0.5109496712684631,-0.02780178189277649,0.09402327239513397,-0.039421722292900085,0.37281477451324463,0.7109276056289673,0.42000001668930054,-0.5997284650802612,0.3325493335723877,-1.4589475393295288,-3.000000238418579,-0.16660065948963165,-0.1648166924715042,-0.16397620737552643,-0.16230233013629913,-0.22436115145683289,-0.1787082552909851,-0.09645917266607285,-0.018721137195825577
0.8166666666666667,0.11653055250644684,0.010244945995509624,0.0,0.6546630859375,0.0,0.0,-0.7559207677841187,0.24194848537445068,-0.15938077867031097,0.0,0.0,0.0,-1.5525336265563965,0.3810054361820221,0.7063305377960205,0.42000001668930054,0.6328766942024231,-1.7785456520869047e-06,-4.333368906372925e-06,-0.7742525339126587,0.00011105158773716539,-0.00036975741386413574,-0.0001009183470159769,0.008088565431535244,-0.0019666978623718023,-0.00038633577059954405,0.4157831072807312,0.747751772403717,0.5081951022148132,0.025971204042434692,-0.1631295382976532,-0.12557172775268555,0.37281477451324463,0.7109276056289673,0.42000001668930054,-0.6301465630531311,-3.0,-1.4234615564346313,2.999999761581421,-0.16765078902244568,-0.16544511914253235,-0.16349655389785767,-0.16067074239253998,-0.1860308200120926,-0.12197502702474594,-0.01822991482913494,0.08810397982597351
0.8333333333333334,0.12265464663505554,0.010600350797176361,0.0,0.6297810077667236,0.0,0.0,-0.7767727375030518,0.4140116572380066,0.09655185788869858,0.0,0.0,0.0,-4.72752571105957,0.3810054361820221,0.7063305974006653,0.42000001668930054,0.6328765749931335,-1.91301455743087e-06,-4.724339760286966e-06,-0.7742525935173035,0.00011084187281085178,-0.00036965057370252907,-0.00010105618275702,0.008082399144768715,-0.0019704685546457767,-0.00038583591231144965,0.4219214916229248,0.7464160919189453,0.5099563598632812,0.6919151544570923,-0.00856378860771656,0.4608897566795349,0.37281477451324463,0.7109276056289673,0.42000001668930054,-0.6788453459739685,-2.818436861038208,-1.4411758184432983,-2.9999990463256836,-0.17125338315963745,-0.16843760013580322,-0.1651492416858673,-0.16082137823104858,-0.1824726015329361,-0.16912947595119476,-0.11030557006597519,-0.036606088280677795
0.85,0.13099536299705505,0.0145085034891963,0.0,0.619415819644928,0.0,0.0,-0.7850630879402161,0.5361022353172302,0.29282334446907043,0.0,0.0,0.0,-0.6032636761665344,0.3810054361820221,0.7063305377960205,0.42000001668930054,0.6328765153884888,-1.8349624042457435e-06,-4.269312285032356e-06,-0.7742527723312378,0.00011234934208914638,-0.00037046484067104757,-0.00010073231533169746,0.008107518777251244,-0.0019528820412233472,-0.00038896594196558,0.43144237995147705,0.750400722026825,0.51938796043396,0.44093096256256104,0.4377720355987549,0.6633485555648804,0.37281477451324463,0.7109276056289673,0.42000001668930054,-0.6923776268959045,0.8848692178726196,-1.4911941289901733,-2.999999523162842,-0.17338214814662933,-0.1709396243095398,-0.1673668771982193,-0.16254347562789917,-0.07268771529197693,-0.12251658737659454,-0.14039772748947144,-0.14919254183769226
0.8666666666666667,0.136206716299057,0.013367589563131332,0.0,0.6332273483276367,0.0,0.0,-0.7739658355712891,0.30305853486061096,-0.11579997837543488,0.0,0.0,0.0,2.813383102416992,0.3810054063796997,0.7063305974006653,0.42000001668930054,0.6328766345977783,-2.111828507622704e-06,-4.530155365500832e-06,-0.7742526531219482,0.0001078656641766429,-0.00036708067636936903,-0.0001013963483273983,0.008009656332433224,-0.001992299687117338,-0.0003787487803492695,0.4344686269760132,0.7591360211372375,0.5264475345611572,-0.09962920844554901,0.4518013000488281,0.20634576678276062,0.37281477451324463,0.7109276056289673,0.42000001668930054,-0.6679568886756897,1.936309576034546,-1.452488660812378,2.9999992847442627,-0.16976132988929749,-0.16854803264141083,-0.16577911376953125,-0.16164766252040863,0.09683139622211456,0.06444212049245834,0.04754611849784851,0.02944316528737545
0.8833333333333333,0.13795216381549835,0.009216108359396458,0.0,0.6330512762069702,0.0,0.0,-0.7741098403930664,0.02761653997004032,-0.285172700881958,0.0,0.0,0.0,-0.9234527945518494,0.3810054063796997,0.7063305377960205,0.42000001668930054,0.6328765153884888,-1.8054969359582174e-06,-4.238147994328756e-06,-0.774252712726593,0.00011087179882451892,-0.00036999754956923425,-0.00010102870874106884,0.008093142881989479,-0.001966665731742978,-0.0003856141702271998,0.4275093078613281,0.7649341821670532,0.5256849527359009,-0.7206171751022339,0.2764371633529663,-0.13645397126674652,0.37281477451324463,0.7109276056289673,0.42000001668930054,-0.6565977334976196,-0.3824206590652466,-1.4024360179901123,3.0,-0.17008079588413239,-0.16892004013061523,-0.16605162620544434,-0.16191093623638153,-0.08349685370922089,-0.06773313134908676,-0.0486765019595623,-0.038454458117485046
0.9,0.13620319962501526,0.010907936841249466,0.0,0.644597053527832,0.0,0.0,-0.7645224928855896,-0.15779604017734528,0.23518094420433044,0.0,0.0,0.0,2.692570686340332,0.3810054361820221,0.7063305974006653,0.42000001668930054,0.6328766942024231,-2.0303027667978313e-06,-4.562054073176114e-06,-0.7742525339126587,0.00010907949035754427,-0.00036719953641295433,-0.00010104500688612461,0.008016754873096943,-0.00198021880351007,-0.0003815283707808703,0.4179002046585083,0.7676781415939331,0.5240980386734009,-0.4394589960575104,0.17320719361305237,-0.03935655206441879,0.37281477451324463,0.7109276056289673,0.42000001668930054,-0.6368867754936218,2.4822638034820557,-1.42050039768219,-3.000000476837158,-0.17726632952690125,-0.17458027601242065,-0.17020952701568604,-0.16477875411510468,-0.488875150680542,-0.38495925068855286,-0.2821943163871765,-0.18992957472801208
