vladlanda/robotic-transformer/data/env_000_episode_0143.csv
sim_time_s,robot_box_x,robot_box_y,robot_box_z,robot_box_quat_w,robot_box_quat_x,robot_box_quat_y,robot_box_quat_z,robot_box_linvel_x,robot_box_linvel_y,robot_box_linvel_z,robot_box_angvel_x,robot_box_angvel_y,robot_box_angvel_z,cube_world_x,cube_world_y,cube_world_z,cube_quat_w,cube_quat_x,cube_quat_y,cube_quat_z,cube_linvel_x,cube_linvel_y,cube_linvel_z,cube_angvel_x,cube_angvel_y,cube_angvel_z,endpoint_world_x,endpoint_world_y,endpoint_world_z,endpoint_linvel_x,endpoint_linvel_y,endpoint_linvel_z,target_cube_world_x,target_cube_world_y,target_cube_world_z,gripper_actual_pos_rad_gp_leftgearjoint,gripper_actual_vel_rad_s_gp_leftgearjoint,gripper_actual_pos_rad_gp_rotatingjoint,gripper_actual_vel_rad_s_gp_rotatingjoint,motor_angle_rad_joint1,motor_angle_rad_joint2,motor_angle_rad_joint3,motor_angle_rad_joint4,motor_speed_rad_s_joint1,motor_speed_rad_s_joint2,motor_speed_rad_s_joint3,motor_speed_rad_s_joint4
0.0,0.0,0.0,0.0,1.0,0.0,0.0,0.0,0.0,0.0,0.0,0.0,0.0,0.0,-0.475307434797287,0.6990342736244202,0.41999998688697815,1.0,0.0,0.0,0.0,0.0,0.0,0.0,0.0,0.0,0.0,3.42540442943573e-06,-0.005000244826078415,1.313499927520752,0.0,0.0,0.0,0.42857176065444946,0.6405975818634033,0.42000001668930054,-1.5707999467849731,0.0,0.0,0.0,0.0,0.0,0.0,0.0,0.0,0.0,0.0,0.0
0.016666666666666666,0.0028778850100934505,0.0021806680597364902,0.0,0.9998081922531128,0.0,0.0,0.019586581736803055,0.24087215960025787,0.18240931630134583,0.0,0.0,0.0,3.1418697834014893,-0.47530755400657654,0.6990339756011963,0.41999998688697815,1.0,3.2799914606584935e-06,-8.339814598912199e-07,8.465387679734704e-08,-1.9833554688375443e-05,0.00017983050202019513,-6.133061833679676e-05,0.0009432226070202887,-0.004689437802881002,-0.0003198152990080416,-0.007110234349966049,0.003379564033821225,1.3159373998641968,-0.8143353462219238,0.9868683815002441,0.18095196783542633,0.42857176065444946,0.6405975818634033,0.42000001668930054,-1.5301095247268677,3.0000011920928955,-0.04584788903594017,-2.9999992847442627,0.0008691533003002405,0.0007963840034790337,0.0007110277656465769,0.0006108740926720202,0.11094217747449875,0.09756709635257721,0.08334315568208694,0.06823883205652237
0.03333333333333333,0.008959287777543068,0.006805396638810635,0.0,0.9997953176498413,0.0,0.0,0.02023310959339142,0.4070557951927185,0.31532400846481323,0.0,0.0,0.0,-0.8700883984565735,-0.4753076732158661,0.6990339159965515,0.4200000464916229,1.0,3.390885240150965e-06,-2.1324319732229924e-06,-3.711133800265998e-08,0.00026357753085903823,0.00026937859365716577,-0.00010509602725505829,-0.0017706351354718208,0.004130707122385502,-0.00013548039714805782,-0.027547691017389297,0.025948135182261467,1.3166342973709106,-1.5914311408996582,1.6111466884613037,-0.08046107739210129,0.42857176065444946,0.6405975818634033,0.42000001668930054,-1.4800904989242554,3.0000009536743164,-0.09588771313428879,-3.000000476837158,0.002989391330629587,0.0026521007530391216,0.0022767698392271996,0.0018603147473186255,0.16424965858459473,0.13979268074035645,0.11385099589824677,0.08633186668157578
0.05,0.01775812730193138,0.013776835985481739,0.0,0.9993736147880554,0.0,0.0,0.03538840264081955,0.5939871668815613,0.46517640352249146,0.0,0.0,0.0,2.6466829776763916,-0.4753077030181885,0.6990339756011963,0.4200000464916229,1.0,3.7652134778909385e-06,-2.2118977085483493e-06,5.605784725304375e-09,0.0002653079864103347,0.00026691483799368143,-0.00010440615005791187,-0.0017242918256670237,0.0041773696430027485,-0.00012949654774274677,-0.059683021157979965,0.053611040115356445,1.3117358684539795,-2.187699317932129,1.7431581020355225,-0.46908214688301086,0.42857176065444946,0.6405975818634033,0.42000001668930054,-1.4300721883773804,3.0000016689300537,-0.1459263563156128,-3.0000014305114746,0.005711868405342102,0.004919725935906172,0.004055448342114687,0.0031145759858191013,0.1927928626537323,0.1558946669101715,0.11712122708559036,0.07637827843427658
0.06666666666666667,0.02907627634704113,0.023071911185979843,0.0,0.9994463920593262,0.0,0.0,0.03326960280537605,0.7205429673194885,0.5952972173690796,0.0,0.0,0.0,-1.212563395500183,-0.4753077030181885,0.6990339159965515,0.4200000464916229,0.9999999403953552,3.4068298191414215e-06,-2.28560702453251e-06,4.300801776935259e-07,0.00026702682953327894,0.0002679186000023037,-0.00010437914170324802,-0.0017406968399882317,0.004211870953440666,-0.00012850748316850513,-0.09837581217288971,0.08753526210784912,1.2991573810577393,-2.465372085571289,2.213412284851074,-1.0133910179138184,0.42857176065444946,0.6405975818634033,0.42000001668930054,-1.3800538778305054,3.000002145767212,-0.19596368074417114,-3.000000238418579,0.008337789215147495,0.006868868600577116,0.005289045162498951,0.003592384047806263,0.1562352478504181,0.10639209300279617,0.05452089011669159,4.511093720793724e-09
0.08333333333333333,0.034377679228782654,0.035796139389276505,0.0,0.9993006587028503,0.0,0.0,0.037392035126686096,0.1877027302980423,0.8269054293632507,0.0,0.0,0.0,1.3225467205047607,-0.4753077030181885,0.6990339159965515,0.4200000464916229,0.9999999403953552,3.6261494642531034e-06,-2.3353520646196557e-06,3.03220957675876e-07,0.00026613869704306126,0.00026685185730457306,-0.00010405178181827068,-0.001728373346850276,0.0041963220573961735,-0.0001279099815292284,-0.14096811413764954,0.12415438890457153,1.2769899368286133,-2.611967086791992,2.1613807678222656,-1.5357491970062256,0.42857176065444946,0.6405975818634033,0.42000001668930054,-1.3300317525863647,2.9999988079071045,-0.22899113595485687,-1.1027168035507202,0.00545570207759738,0.0034835811238735914,0.0013505724491551518,-0.0009611590066924691,-0.2569839656352997,-0.293107271194458,-0.33171647787094116,-0.3734774589538574
0.1,0.04378354549407959,0.0492907352745533,0.0,0.9996849298477173,0.0,0.0,0.02509976178407669,0.682375967502594,0.8256921172142029,0.0,0.0,0.0,-2.385319471359253,-0.4753077030181885,0.6990339159965515,0.4200000464916229,1.0,3.422180270717945e-06,-2.3086204237188213e-06,1.7963316167879384e-07,0.0002668162633199245,0.00026800515479408205,-0.00010440475307404995,-0.001743071130476892,0.0042070611380040646,-0.00012891352525912225,-0.18005239963531494,0.16565492749214172,1.2525256872177124,-2.1951231956481934,2.6791481971740723,-1.4939732551574707,0.42857176065444946,0.6405975818634033,0.42000001668930054,-1.280019998550415,2.9999988079071045,-0.2773284614086151,-3.000000238418579,0.006131836678832769,0.0025980761274695396,-0.0010928050614893436,-0.0049628340639173985,0.07640080153942108,-0.03722188621759415,-0.14974454045295715,-0.261355996131897
0.11666666666666667,0.051481008529663086,0.06528671085834503,0.0,0.9998818635940552,0.0,0.0,-0.015371676534414291,0.45917096734046936,1.026521921157837,0.0,0.0,0.0,-5.529570579528809,-0.4753077030181885,0.6990339756011963,0.4200000464916229,1.0,3.7115075883775717e-06,-2.3327127109951107e-06,2.5744481035872013e-07,0.00026485862326808274,0.0002663535997271538,-0.00010423525236546993,-0.0017182156443595886,0.004170025233179331,-0.00012915159459225833,-0.2148667722940445,0.21490000188350677,1.2278268337249756,-2.016063690185547,3.138620376586914,-1.4438430070877075,0.42857176065444946,0.6405975818634033,0.42000001668930054,-1.2299997806549072,2.999985933303833,-0.24314332008361816,2.999999761581421,0.005240151192992926,-0.0002274875296279788,-0.00582378264516592,-0.011572646908462048,-0.009730836376547813,-0.14084674417972565,-0.26897794008255005,-0.39404818415641785
0.13333333333333333,0.05628638342022896,0.0793202817440033,0.0,0.9994097352027893,0.0,0.0,-0.03435433283448219,0.21789337694644928,0.7605161666870117,0.0,0.0,0.0,-1.2250633239746094,-0.4753077030181885,0.6990339159965515,0.4200000464916229,1.0,3.335707560836454e-06,-2.231929784102249e-06,3.113250670594425e-07,0.00026669655926525593,0.00026759272441267967,-0.00010428344830870628,-0.0017370833083987236,0.004205867648124695,-0.00012840259296353906,-0.2535759508609772,0.261409193277359,1.202864646911621,-2.364570379257202,2.790407180786133,-1.5570299625396729,0.42857176065444946,0.6405975818634033,0.42000001668930054,-1.1865004301071167,2.2519259452819824,-0.2742603123188019,-3.000000238418579,0.004027617629617453,-0.0035461699590086937,-0.011184939183294773,-0.018910035490989685,-0.1349143534898758,-0.2523657977581024,-0.3658003509044647,-0.4750419855117798
0.15,0.057401396334171295,0.09354862570762634,0.0,0.997883141040802,0.0,0.0,-0.06503266096115112,0.0070659806951880455,0.8973937630653381,0.0,0.0,0.0,-4.514225482940674,-0.4753077030181885,0.6990339159965515,0.4200000464916229,1.0,3.518910716593382e-06,-2.283128196722828e-06,-3.6253297253097116e-07,0.00026618537958711386,0.0002673573326319456,-0.00010425900109112263,-0.001734911696985364,0.004195764660835266,-0.0001286038022954017,-0.2923266887664795,0.31364840269088745,1.1731061935424805,-2.215028762817383,3.4591217041015625,-2.039410352706909,0.42857176065444946,0.6405975818634033,0.42000001668930054,-1.1380163431167603,2.9999916553497314,-0.24008552730083466,3.0000009536743164,0.0002627755457069725,-0.00914284959435463,-0.018535709008574486,-0.027933916077017784,-0.31075477600097656,-0.40531784296035767,-0.4953356683254242,-0.5806558728218079
0.16666666666666666,0.056118957698345184,0.10918503254652023,0.0,0.9924023747444153,0.0,0.0,-0.12303448468446732,-0.18821479380130768,0.9807795286178589,0.0,0.0,0.0,-7.7986907958984375,-0.4753077030181885,0.6990339159965515,0.4200000464916229,1.0,3.6666367577709025e-06,-2.339185357413953e-06,-3.1499951091973344e-07,0.00026595836970955133,0.00026667435304261744,-0.0001040350180119276,-0.001725263660773635,0.004192706663161516,-0.0001277874398510903,-0.32847797870635986,0.37445318698883057,1.1357072591781616,-1.9940589666366577,3.912560224533081,-2.495387077331543,0.42857176065444946,0.6405975818634033,0.42000001668930054,-1.1051440238952637,1.0822432041168213,-0.27127140760421753,-3.0000007152557373,-0.006504800636321306,-0.017330359667539597,-0.02806125022470951,-0.03871351480484009,-0.5213585495948792,-0.5880876183509827,-0.6502377390861511,-0.7077163457870483
0.18333333333333332,0.059311430901288986,0.12159449607133865,0.0,0.9866729378700256,0.0,0.0,-0.16271595656871796,0.23209373652935028,0.7154896259307861,0.0,0.0,0.0,-3.610490322113037,-0.4753077030181885,0.6990339159965515,0.4200000464916229,1.0,3.81432801077608e-06,-2.3995953597477637e-06,-2.702601591408893e-07,0.00026549241738393903,0.00026611125213094056,-0.0001039144117385149,-0.001717846025712788,0.004184907767921686,-0.0001275365357287228,-0.36668825149536133,0.4366287887096405,1.0872938632965088,-2.1373376846313477,3.949918270111084,-3.4141807556152344,0.42857176065444946,0.6405975818634033,0.42000001668930054,-1.064171314239502,3.000000238418579,-0.3212997317314148,-2.9999985694885254,-0.012394371442496777,-0.02408812753856182,-0.03561093658208847,-0.046981193125247955,-0.5672981142997742,-0.5660998821258545,-0.5629465579986572,-0.5582164525985718
0.2,0.05741863697767258,0.1366441398859024,0.0,0.9767100214958191,0.0,0.0,-0.21456365287303925,-0.1178748682141304,0.8652201294898987,0.0,0.0,0.0,-7.072303295135498,-0.4753077030181885,0.6990339159965515,0.4200000464916229,1.0,3.600060153985396e-06,-2.291302735102363e-06,-2.201773270371632e-07,0.0002657297591213137,0.00026644914760254323,-0.00010398100130259991,-0.001722595770843327,0.004188771825283766,-0.00012773473281413317,-0.39995652437210083,0.5020118951797485,1.0229439735412598,-1.7665342092514038,4.074514865875244,-4.093441963195801,0.42857176065444946,0.6405975818634033,0.42000001668930054,-1.0141690969467163,3.0000009536743164,-0.37132617831230164,-3.0,-0.026997696608304977,-0.03842199966311455,-0.04970768466591835,-0.0608525276184082,-0.6664917469024658,-0.7052856683731079,-0.7446116209030151,-0.7820783853530884
0.21666666666666667,0.06053720414638519,0.1468987762928009,0.0,0.9691689014434814,0.0,0.0,-0.2463972270488739,0.1932215541601181,0.5311411619186401,0.0,0.0,0.0,-2.672593832015991,-0.4753077030181885,0.6990339159965515,0.4200000464916229,0.9999999403953552,3.639672286226414e-06,-2.2620502022618894e-06,2.2248650566325523e-07,0.000266873772488907,0.00026754458667710423,-0.00010411953553557396,-0.0017403344390913844,0.004211024381220341,-0.00012783858983311802,-0.4317065477371216,0.5624641180038452,0.9479249119758606,-1.6324396133422852,3.541358470916748,-4.937834739685059,0.42857176065444946,0.6405975818634033,0.42000001668930054,-0.9647037386894226,2.9033868312835693,-0.4213544726371765,-3.0000007152557373,-0.03822832554578781,-0.04959871992468834,-0.06086239963769913,-0.07199130207300186,-0.9047508835792542,-0.8483474850654602,-0.7958918213844299,-0.7464895844459534
0.23333333333333334,0.057657934725284576,0.15965795516967773,0.0,0.9572261571884155,0.0,0.0,-0.2893408536911011,-0.17085084319114685,0.7660321593284607,0.0,0.0,0.0,-6.14099645614624,-0.4753076732158661,0.6990339159965515,0.4200000464916229,1.0,3.4207396311103366e-06,-2.316890231668367e-06,2.956003868348489e-07,0.0002668009256012738,0.0002680391480680555,-0.00010442500934004784,-0.001743813743814826,0.004206887446343899,-0.00012899574358016253,-0.4548339545726776,0.6144946813583374,0.8586555123329163,-1.052653193473816,2.961782932281494,-5.552475929260254,0.42857176065444946,0.6405975818634033,0.42000001668930054,-0.914693295955658,2.9999890327453613,-0.47138434648513794,-2.9999988079071045,-0.05518247187137604,-0.06636006385087967,-0.07750802487134933,-0.08853081613779068,-0.8409895896911621,-0.8558537364006042,-0.8734886646270752,-0.8920905590057373
0.25,0.06015317142009735,0.1676044911146164,0.0,0.9495869874954224,0.0,0.0,-0.3135037422180176,0.15928608179092407,0.3967655599117279,0.0,0.0,0.0,-1.7906547784805298,-0.4753077030181885,0.6990339159965515,0.4200000464916229,0.9999999403953552,3.3476337648608023e-06,-2.259205075461068e-06,1.8083990482864465e-07,0.00026687842910178006,0.00026791240088641644,-0.00010439497418701649,-0.0017405577236786485,0.004208357073366642,-0.00012870198406744748,-0.4743782877922058,0.6539745926856995,0.7640097141265869,-0.8881216645240784,1.9891247749328613,-5.91456413269043,0.42857176065444946,0.6405975818634033,0.42000001668930054,-0.8646826148033142,2.999999523162842,-0.5214152336120605,-3.000000238418579,-0.06856095790863037,-0.07961806654930115,-0.09040405601263046,-0.10112165659666061,-0.989656388759613,-0.9915027022361755,-0.9162826538085938,-0.8456441164016724
0.26666666666666666,0.05704508349299431,0.1785697340965271,0.0,0.9522212743759155,0.0,0.0,-0.3054089844226837,-0.16689680516719818,0.6329846382141113,0.0,0.0,0.0,1.874028205871582,-0.4753077030181885,0.6990339159965515,0.4200000464916229,0.9999999403953552,3.5357140859559877e-06,-2.3003274236543803e-06,-1.2686156480867794e-07,0.00026601788704283535,0.00026712179533205926,-0.00010419590398669243,-0.0017317213350906968,0.0041928826831281185,-0.0001284949539694935,-0.48907870054244995,0.6721619367599487,0.6695079803466797,-0.7418175935745239,0.5694634318351746,-5.4434404373168945,0.42857176065444946,0.6405975818634033,0.42000001668930054,-0.8146726489067078,2.999997854232788,-0.5714454054832458,-3.000000238418579,-0.08550629019737244,-0.09642291814088821,-0.10714912414550781,-0.11784955114126205,-0.7133428454399109,-0.7682774066925049,-0.8222638964653015,-0.8718553185462952
0.2833333333333333,0.05339591205120087,0.1846027970314026,0.0,0.9499364495277405,0.0,0.0,-0.3124432861804962,-0.2884032726287842,0.3180225193500519,0.0,0.0,0.0,-1.712660312652588,-0.4753077030181885,0.6990339756011963,0.4200000464916229,1.0,3.5934606330556562e-06,-2.2626402369496645e-06,-5.653511081504803e-08,0.0002670461544767022,0.0002677498559933156,-0.00010416866280138493,-0.001743200235068798,0.004214190412312746,-0.00012789414904545993,-0.4991014301776886,0.6845674514770508,0.5778157711029053,-0.338046669960022,0.6885415315628052,-5.412308692932129,0.42857176065444946,0.6405975818634033,0.42000001668930054,-0.7646638751029968,3.0000011920928955,-0.6214751601219177,-3.0000007152557373,-0.09840375930070877,-0.11004368960857391,-0.12147083133459091,-0.1327945739030838,-0.9592019319534302,-0.9678321480751038,-0.976756751537323,-0.9830536842346191
0.3,0.04662357643246651,0.18786172568798065,0.0,0.9526172280311584,0.0,0.0,-0.3041716516017914,-0.45885637402534485,0.14214468002319336,0.0,0.0,0.0,1.8654576539993286,-0.4753076732158661,0.6990339159965515,0.4200000464916229,0.9999999403953552,3.725018814293435e-06,-2.2360595721693244e-06,3.828810974937369e-07,0.0002647961082402617,0.0002667308726813644,-0.00010453863069415092,-0.0017189140198752284,0.004166588187217712,-0.00013016707089263946,-0.5007646083831787,0.6940164566040039,0.4891972243785858,0.1799546182155609,0.4375523030757904,-5.2195539474487305,0.42857176065444946,0.6405975818634033,0.42000001668930054,-0.7146555185317993,3.000002145767212,-0.671502947807312,-2.999999761581421,-0.11560431122779846,-0.1271030753850937,-0.138426274061203,-0.14967039227485657,-1.001991868019104,-1.0015069246292114,-1.001137614250183,-1.0008423328399658
0.31666666666666665,0.037442609667778015,0.1883743554353714,0.0,0.9502556324005127,0.0,0.0,-0.3114710748195648,-0.5976794362068176,-0.00985920149832964,0.0,0.0,0.0,-1.8183516263961792,-0.4753077030181885,0.6990339159965515,0.4200000464916229,0.9999999403953552,3.55773545379634e-06,-2.278906777064549e-06,2.2836061930320284e-07,0.00026598561089485884,0.00026658637216314673,-0.00010399054735898972,-0.001724138157442212,0.004193493630737066,-0.0001276934490306303,-0.4902161657810211,0.6991931200027466,0.39962342381477356,1.0686254501342773,0.16925978660583496,-5.358365058898926,0.42857176065444946,0.6405975818634033,0.42000001668930054,-0.6646486520767212,2.999992609024048,-0.7215288877487183,-3.000002861022949,-0.13286809623241425,-0.14420050382614136,-0.1553967148065567,-0.16654007136821747,-1.000139832496643,-1.0000827312469482,-1.0000450611114502,-1.0000195503234863
0.3333333333333333,0.026154734194278717,0.18632455170154572,0.0,0.9528283476829529,0.0,0.0,-0.30350980162620544,-0.7194129228591919,-0.16465264558792114,0.0,0.0,0.0,1.882319450378418,-0.475307434797287,0.6990342140197754,0.42000001668930054,0.9999999403953552,1.1610351435820121e-07,1.3115742376612616e-06,-1.008008112535208e-07,-0.00012754747876897454,-2.7566116841626354e-05,-3.682519309222698e-05,0.0035764046479016542,-0.00530647486448288,-0.00016928357945289463,-0.49107229709625244,0.7076406478881836,0.42388638854026794,0.32572007179260254,0.8700557351112366,-0.16544108092784882,0.42857176065444946,0.6405975818634033,0.42000001668930054,-0.614917516708374,3.000000476837158,-0.7718909382820129,-2.998579978942871,-0.13023772835731506,-0.1430896520614624,-0.1553388088941574,-0.16694991290569305,-0.09209367632865906,-0.12929031252861023,-0.14443394541740417,-0.1318162977695465
0.35,0.01882120408117771,0.18129631876945496,0.0,0.9507554173469543,0.0,0.0,-0.3099421262741089,-0.3855530023574829,-0.35267066955566406,0.0,0.0,0.0,-1.6152231693267822,-0.4692612290382385,0.7076016664505005,0.4204190969467163,0.9955984354019165,0.010532282292842865,-0.0010934352176263928,-0.09312170743942261,0.2978380024433136,0.422481507062912,-0.014211338013410568,-0.7251625061035156,0.08362507820129395,-8.521682739257812,-0.4856959283351898,0.7163243293762207,0.42073526978492737,0.45781755447387695,0.46273040771484375,-0.20614326000213623,0.42857176065444946,0.6405975818634033,0.42000001668930054,-0.5649125576019287,2.999992609024048,-0.8219237923622131,-2.999997854232788,-0.1336808204650879,-0.14629310369491577,-0.15798524022102356,-0.1686515212059021,-0.36524930596351624,-0.29568272829055786,-0.21178576350212097,-0.1108858585357666
0.36666666666666664,0.008490466512739658,0.17449107766151428,0.0,0.9537407159805298,0.0,0.0,-0.3006303906440735,-0.7138687372207642,-0.43257105350494385,0.0,0.0,0.0,2.128366470336914,-0.4615941643714905,0.7184561491012573,0.4204302430152893,0.9911192059516907,-0.009105062112212181,0.002630784874781966,-0.13263781368732452,0.5938429236412048,0.8802337050437927,0.06544753909111023,-1.1338682174682617,2.008554220199585,-4.85345458984375,-0.47732865810394287,0.7265440225601196,0.42048996686935425,0.5988825559616089,0.8375559449195862,0.0047111548483371735,0.42857176065444946,0.6405975818634033,0.42000001668930054,-0.514874279499054,2.999635696411133,-0.871934175491333,-3.000006675720215,-0.14425475895404816,-0.15453359484672546,-0.16370297968387604,-0.17164339125156403,-0.7002139687538147,-0.5375842452049255,-0.36503732204437256,-0.18243423104286194
0.3833333333333333,-0.004491525702178478,0.16550500690937042,0.0,0.9519445896148682,0.0,0.0,-0.3062703311443329,-0.7576457858085632,-0.5934884548187256,0.0,0.0,0.0,-1.6536751985549927,-0.4518791735172272,0.7328442335128784,0.42034387588500977,0.9858800172805786,-0.008529122918844223,0.0014979202533140779,-0.16722886264324188,0.5897882580757141,0.8677866458892822,-0.0021632451098412275,0.10557838529348373,-0.033312320709228516,-1.4033969640731812,-0.4647657871246338,0.7389246225357056,0.4215337634086609,0.9131290912628174,0.7551454305648804,0.07782779633998871,0.42857176065444946,0.6405975818634033,0.42000001668930054,-0.4648190438747406,2.9999043941497803,-0.9219416379928589,-2.999990940093994,-0.1556416153907776,-0.16281074285507202,-0.1686142235994339,-0.1729457974433899,-0.5628398656845093,-0.37295398116111755,-0.16410599648952484,0.0624547004699707
0.4,-0.013004123233258724,0.15341641008853912,0.0,0.9410551190376282,0.0,0.0,-0.3382532298564911,-0.5098757147789001,-0.7716529369354248,0.0,0.0,0.0,-4.741241455078125,-0.43613559007644653,0.7497309446334839,0.4224559962749481,0.9764623641967773,-0.0440446138381958,0.00016986587434075773,-0.21114253997802734,1.2658206224441528,0.9260236024856567,-0.21775753796100616,23.35807991027832,-7.376173496246338,1.006843090057373,-0.4472588300704956,0.7566138505935669,0.42310506105422974,1.2896862030029297,1.3783069849014282,0.11833449453115463,0.42857176065444946,0.6405975818634033,0.42000001668930054,-0.415237694978714,2.583054780960083,-0.9719506502151489,-3.000333786010742,-0.16337740421295166,-0.16750089824199677,-0.16991227865219116,-0.1705327332019806,-0.49646660685539246,-0.296766459941864,-0.07753872871398926,0.15859174728393555
0.4166666666666667,-0.0189581960439682,0.13830727338790894,0.0,0.9195746183395386,0.0,0.0,-0.39291539788246155,-0.2703576385974884,-0.9586985111236572,0.0,0.0,0.0,-7.833136081695557,-0.4088146388530731,0.7762234210968018,0.4243233799934387,0.9649098515510559,-0.011706095188856125,-0.038515154272317886,-0.2594771087169647,2.3663065433502197,1.655219316482544,0.07188528776168823,26.84048080444336,-15.656803131103516,12.264074325561523,-0.4193469285964966,0.7837008237838745,0.4243215322494507,2.0998449325561523,1.9077142477035522,0.2036471962928772,0.42857176065444946,0.6405975818634033,0.42000001668930054,-0.39006367325782776,0.6218073964118958,-0.9356487393379211,2.9954922199249268,-0.1717817336320877,-0.17254595458507538,-0.17128054797649384,-0.1679634153842926,-0.5206015110015869,-0.31233328580856323,-0.08840461820363998,0.14716105163097382
0.43333333333333335,-0.021241791546344757,0.12069202214479446,0.0,0.883794903755188,0.0,0.0,-0.46787455677986145,-0.053816057741642,-1.1528732776641846,0.0,0.0,0.0,-10.614693641662598,-0.35228654742240906,0.8154748678207397,0.42629411816596985,0.9484765529632568,0.038595084100961685,-0.08369696140289307,-0.30314579606056213,4.598203182220459,2.190945625305176,0.25907254219055176,12.317818641662598,-13.135232925415039,20.42107582092285,-0.3620809316635132,0.8236157894134521,0.4257068336009979,4.43666934967041,2.926987648010254,0.3604877293109894,0.42857176065444946,0.6405975818634033,0.42000001668930054,-0.3794705867767334,0.7268863916397095,-0.8856613039970398,3.0006821155548096,-0.18422110378742218,-0.18025821447372437,-0.17426374554634094,-0.16632452607154846,-0.7862949371337891,-0.48413360118865967,-0.19159774482250214,0.08395583182573318
0.45,-0.028330164030194283,0.1083856001496315,0.0,0.8283993601799011,0.0,0.0,-0.560137927532196,-0.5437247157096863,-0.587909996509552,0.0,0.0,0.0,-13.878667831420898,-0.25388526916503906,0.8595167398452759,0.43421417474746704,0.9203388690948486,0.06499297171831131,-0.08324426412582397,-0.37659329175949097,7.265303611755371,2.0910050868988037,0.5998146533966064,7.835753440856934,-11.797786712646484,8.854646682739258,-0.26374951004981995,0.8693222999572754,0.4334835410118103,7.194943428039551,2.8638274669647217,0.6606909036636353,0.42857176065444946,0.6405975818634033,0.42000001668930054,-0.36488938331604004,0.9985474348068237,-0.8916596174240112,-3.000002145767212,-0.20056673884391785,-0.19571933150291443,-0.18592754006385803,-0.17158715426921844,-0.936790943145752,-0.9242914319038391,-0.8917011022567749,-0.5035632252693176
0.4666666666666667,-0.03235553205013275,0.09305786341428757,0.0,0.7759255766868591,0.0,0.0,-0.6308244466781616,-0.1832892894744873,-0.8970739841461182,0.0,0.0,0.0,-9.145051956176758,-0.13580352067947388,0.8908659219741821,0.44493159651756287,0.8754756450653076,0.10980532318353653,-0.11237011104822159,-0.45701006054878235,7.404893398284912,0.29087093472480774,0.8520577549934387,13.011677742004395,-10.94200325012207,27.636425018310547,-0.14421851933002472,0.9047636985778809,0.4449903964996338,7.382230758666992,1.2984074354171753,0.7539716958999634,0.42857176065444946,0.6405975818634033,0.42000001668930054,-0.3473542630672455,0.9650718569755554,-0.8705651760101318,2.9952452182769775,-0.21476200222969055,-0.2088625282049179,-0.19698958098888397,-0.17609570920467377,-1.000318169593811,-0.9755438566207886,-0.7491466403007507,-0.32561513781547546
0.48333333333333334,-0.038915641605854034,0.08480885624885559,0.0,0.7425283789634705,0.0,0.0,-0.6698145866394043,-0.45866674184799194,-0.36712589859962463,0.0,0.0,0.0,-5.16040563583374,-0.019631143659353256,0.8953729867935181,0.45729491114616394,0.8254992365837097,0.12403787672519684,-0.11274894326925278,-0.5389370918273926,6.876276969909668,-1.6567624807357788,0.9429266452789307,5.708454132080078,-8.830487251281738,31.093107223510742,-0.025104770436882973,0.9094895124435425,0.45833247900009155,7.073940753936768,-0.5592665672302246,0.8753002882003784,0.42857176065444946,0.6405975818634033,0.42000001668930054,-0.33219486474990845,0.7284244894981384,-0.8963839411735535,-3.0000016689300537,-0.23163774609565735,-0.22537121176719666,-0.21312656998634338,-0.18593992292881012,-0.968204915523529,-0.9288895130157471,-0.8920521140098572,-0.6071614623069763
0.5,-0.04055365175008774,0.07231057435274124,0.0,0.7314141988754272,0.0,0.0,-0.6819334626197815,-0.08402249962091446,-0.767264723777771,0.0,0.0,0.0,-0.9065168499946594,0.08746923506259918,0.8761540651321411,0.4692051410675049,0.7278023362159729,0.1074695959687233,-0.1057087630033493,-0.6690138578414917,5.428276062011719,-2.429663896560669,0.9082399606704712,26.787017822265625,-16.437091827392578,33.2807502746582,0.08252440392971039,0.8927154541015625,0.4710891544818878,5.884453773498535,-1.6046489477157593,0.6788554191589355,0.42857176065444946,0.6405975818634033,0.42000001668930054,-0.3222620487213135,0.31091147661209106,-0.9464084506034851,-3.0000016689300537,-0.23926515877246857,-0.2336426079273224,-0.22217676043510437,-0.19142180681228638,-0.3876734673976898,-0.3859151303768158,-0.39203503727912903,-0.2103039175271988
0.5166666666666666,-0.03953680396080017,0.06285638362169266,0.0,0.712993860244751,0.0,0.0,-0.7011703252792358,0.11857824772596359,-0.5006119012832642,0.0,0.0,0.0,-4.074856281280518,0.17441624402999878,0.8473256826400757,0.4741821587085724,0.6778069734573364,0.05431614816188812,-0.12283769994974136,-0.722868025302887,4.371321201324463,-3.1301393508911133,0.3582949638366699,0.7362210750579834,-7.586399078369141,36.631168365478516,0.171092689037323,0.8632423877716064,0.4788612425327301,5.0741047859191895,-2.158015489578247,0.2810572385787964,0.42857176065444946,0.6405975818634033,0.42000001668930054,-0.3217272460460663,-0.26013198494911194,-0.9964324235916138,-3.000000476837158,-0.23983795940876007,-0.23894022405147552,-0.22742675244808197,-0.19467492401599884,0.00888894684612751,-0.21521392464637756,-0.19061021506786346,-0.11553187668323517
0.5333333333333333,-0.03590802103281021,0.057587847113609314,0.0,0.7079522609710693,0.0,0.0,-0.7062602639198303,0.263650506734848,-0.24455539882183075,0.0,0.0,0.0,0.08045747131109238,0.24722981452941895,0.8090575933456421,0.4758899509906769,0.62413489818573,0.038666438311338425,-0.08754345774650574,-0.7754331827163696,3.6061320304870605,-2.9459495544433594,-0.23842106759548187,-13.008129119873047,3.7441728115081787,7.226255893707275,0.24519574642181396,0.8241311311721802,0.4802817106246948,3.9785335063934326,-2.524963140487671,0.02653372287750244,0.42857176065444946,0.6405975818634033,0.42000001668930054,-0.32284650206565857,0.0768609344959259,-1.046454668045044,-2.9998366832733154,-0.23909345269203186,-0.2397548258304596,-0.2292064130306244,-0.19628062844276428,0.12232515960931778,0.07790734618902206,5.210041308600921e-06,-0.05148003250360489
0.55,-0.034298911690711975,0.04760618880391121,0.0,0.6923738718032837,0.0,0.0,-0.7215389013290405,0.12191898375749588,-0.5875645875930786,0.0,0.0,0.0,-3.4500763416290283,0.3078993260860443,0.7702317237854004,0.4678238034248352,0.5647810101509094,-0.04325480759143829,-0.08980084955692291,-0.8191990852355957,3.396242141723633,-2.2544000148773193,-0.5153766870498657,5.862357139587402,-2.9402098655700684,-7.925553798675537,0.30617061257362366,0.7851327657699585,0.4753838777542114,3.2183241844177246,-2.5085277557373047,-0.5436574220657349,0.42857176065444946,0.6405975818634033,0.42000001668930054,-0.31309974193573,1.0860896110534668,-1.0964767932891846,-3.000001907348633,-0.23028521239757538,-0.23230749368667603,-0.2239297479391098,-0.19355085492134094,0.4211742877960205,0.3971650004386902,0.30286791920661926,0.1320004016160965
0.5666666666666667,-0.030160080641508102,0.0427553653717041,0.0,0.6886106133460999,0.0,0.0,-0.7251312732696533,0.21190813183784485,-0.2418578714132309,0.0,0.0,0.0,0.2600220739841461,0.3551808297634125,0.7329745292663574,0.456250935792923,0.5138716101646423,0.01632462814450264,-0.06024736166000366,-0.8555930852890015,2.3116800785064697,-2.2088418006896973,-0.8069970011711121,7.459902763366699,0.15126605331897736,1.1190404891967773,0.3517293334007263,0.7421241998672485,0.46422916650772095,2.3351380825042725,-2.458660125732422,-0.8020198345184326,0.42857176065444946,0.6405975818634033,0.42000001668930054,-0.28707239031791687,1.941373586654663,-1.1464989185333252,-2.9999921321868896,-0.22567284107208252,-0.22741617262363434,-0.22016291320323944,-0.1928718239068985,0.44732266664505005,0.42540955543518066,0.3176603317260742,0.07050365954637527
0.5833333333333334,-0.024600433185696602,0.03372008726000786,0.0,0.6743825674057007,0.0,0.0,-0.73838210105896,0.3405047357082367,-0.5773310661315918,0.0,0.0,0.0,-3.174100399017334,0.3886984884738922,0.69837886095047,0.4379059374332428,0.49532148241996765,0.007157666143029928,-0.033898867666721344,-0.8680185079574585,1.3726251125335693,-2.9058279991149902,-0.9621336460113525,-12.238655090332031,-7.625001430511475,13.046247482299805,0.3871692419052124,0.7066978812217712,0.44558483362197876,1.7283692359924316,-1.921572208404541,-1.2905042171478271,0.42857176065444946,0.6405975818634033,0.42000001668930054,-0.2568073570728302,0.962958037853241,-1.1329636573791504,2.997514486312866,-0.21390144526958466,-0.21680395305156708,-0.21215617656707764,-0.19004935026168823,0.6629779934883118,0.6098355054855347,0.4642655551433563,0.1450328528881073
0.6,-0.016535310074687004,0.02919335849583149,0.0,0.6724128127098083,0.0,0.0,-0.7401763200759888,0.5011119842529297,-0.23854927718639374,0.0,0.0,0.0,0.573611855506897,0.41062772274017334,0.6672388911247253,0.41983532905578613,0.4811210334300995,0.006151719484478235,0.03893253579735756,-0.8757676482200623,1.0695929527282715,-0.5412010550498962,0.11638787388801575,30.983301162719727,16.2337703704834,41.7061767578125,0.4091234505176544,0.6745897531509399,0.4259270429611206,0.3476809561252594,-1.086771011352539,0.3974871039390564,0.42857176065444946,0.6405975818634033,0.42000001668930054,-0.2559971511363983,-0.31884145736694336,-1.1553598642349243,-3.000020742416382,-0.2060103416442871,-0.20954492688179016,-0.20708046853542328,-0.19022215902805328,0.6686015725135803,0.5756637454032898,0.40741175413131714,0.06786593794822693
0.6166666666666667,-0.011078877374529839,0.027716269716620445,0.0,0.6608317494392395,0.0,0.0,-0.7505341172218323,0.2708187401294708,-0.03183690831065178,0.0,0.0,0.0,-2.7374322414398193,0.4220162034034729,0.6608341336250305,0.42535871267318726,0.5078592896461487,-0.06569651514291763,0.12674349546432495,-0.8495286107063293,0.5415127277374268,-0.4084737300872803,0.2557830512523651,7.828615665435791,10.846169471740723,-6.442704200744629,0.4167655110359192,0.6594415903091431,0.4248593747615814,0.3344094157218933,-0.6627418398857117,-0.08173361420631409,0.42857176065444946,0.6405975818634033,0.42000001668930054,-0.2512150704860687,0.8345037698745728,-1.117565631866455,2.9997715950012207,-0.19468571245670319,-0.20005173981189728,-0.20056678354740143,-0.1894771158695221,0.6962106823921204,0.5839652419090271,0.40688619017601013,0.06564746052026749
0.6333333333333333,-0.004877461586147547,0.022422702983021736,0.0,0.6616047024726868,0.0,0.0,-0.7498528361320496,0.36536264419555664,-0.3269084095954895,0.0,0.0,0.0,1.0095957517623901,0.4299829602241516,0.6546262502670288,0.428142786026001,0.41020965576171875,-0.09761826694011688,0.20037999749183655,-0.8843339681625366,0.4108585715293884,-0.2904195487499237,0.14830487966537476,1.4172800779342651,8.16861343383789,-16.986602783203125,0.4186364412307739,0.6517577171325684,0.42594844102859497,-0.07149922102689743,-0.31933528184890747,0.12022155523300171,0.42857176065444946,0.6405975818634033,0.42000001668930054,-0.2520107626914978,-0.8177316188812256,-1.1398921012878418,-2.999535322189331,-0.18103095889091492,-0.18831481039524078,-0.19176627695560455,-0.1862531155347824,0.7237489223480225,0.6396369338035583,0.49509093165397644,0.1947500854730606
0.65,0.003513671224936843,0.021127188578248024,0.0,0.6518083810806274,0.0,0.0,-0.7583836913108826,0.535578191280365,-0.05703091248869896,0.0,0.0,0.0,-2.392530918121338,0.4294431507587433,0.6515226364135742,0.43243321776390076,0.41817012429237366,-0.1464046835899353,0.2892920672893524,-0.8485337495803833,0.10123612731695175,-0.1906229704618454,0.13179975748062134,5.7842559814453125,11.415667533874512,0.1803453266620636,0.41941335797309875,0.6487346291542053,0.42535924911499023,0.010213226079940796,-0.02363070845603943,-0.01660943031311035,0.42857176065444946,0.6405975818634033,0.42000001668930054,-0.2867858409881592,-2.9978301525115967,-1.1020796298980713,2.9998462200164795,-0.17103399336338043,-0.17959943413734436,-0.1852056086063385,-0.18423667550086975,0.6839335560798645,0.5864965915679932,0.4447260797023773,0.1734754592180252
0.6666666666666666,0.0136020602658391,0.022987671196460724,0.0,0.6548906564712524,0.0,0.0,-0.7557236552238464,0.6381396651268005,0.17565874755382538,0.0,0.0,0.0,1.3931201696395874,0.43084681034088135,0.6491180658340454,0.43384140729904175,0.4164982736110687,-0.19085533916950226,0.34245333075523376,-0.8202615976333618,0.06306835263967514,-0.06042645871639252,0.11635512113571167,-0.14450503885746002,4.709925651550293,0.403767466545105,0.4190475642681122,0.6487136483192444,0.4275105595588684,-0.019643183797597885,0.02977598085999489,0.19495534896850586,0.42857176065444946,0.6405975818634033,0.42000001668930054,-0.33677220344543457,-2.999976396560669,-1.1246641874313354,-2.999995708465576,-0.16099242866039276,-0.1710764765739441,-0.17882859706878662,-0.18194888532161713,0.5691010355949402,0.4845276474952698,0.3652516305446625,0.13892614841461182
0.6833333333333333,0.025080116465687752,0.020642023533582687,0.0,0.6511392593383789,0.0,0.0,-0.7589582800865173,0.7100404500961304,-0.16594940423965454,0.0,0.0,0.0,-1.6443299055099487,0.4316045343875885,0.6491854190826416,0.43478360772132874,0.42372339963912964,-0.2142288088798523,0.3347146511077881,-0.8139597177505493,0.03050854615867138,0.054666828364133835,0.06001284718513489,-2.6929380893707275,-0.22123734652996063,3.4032340049743652,0.42076340317726135,0.6517833471298218,0.43140503764152527,0.09555076062679291,0.24604228138923645,0.2645561397075653,0.42857176065444946,0.6405975818634033,0.42000001668930054,-0.38674330711364746,-2.9995856285095215,-1.174628496170044,-2.99908185005188,-0.1479085385799408,-0.15975899994373322,-0.16975660622119904,-0.17666706442832947,0.6960722208023071,0.623904287815094,0.5245388746261597,0.34042274951934814
0.7,0.03852350264787674,0.01620214432477951,0.0,0.658521831035614,0.0,0.0,-0.752561628818512,0.8431872725486755,-0.32403454184532166,0.0,0.0,0.0,2.0772228240966797,0.4318571388721466,0.6503902077674866,0.43444541096687317,0.44579899311065674,-0.2207242101430893,0.29176774621009827,-0.8169551491737366,-0.006980786565691233,0.07243669033050537,-0.021290915086865425,-4.6259284019470215,-4.674883842468262,3.026930570602417,0.4209534823894501,0.6535937786102295,0.43568283319473267,0.010169289074838161,0.07058145105838776,0.3309830129146576,0.42857176065444946,0.6405975818634033,0.42000001668930054,-0.4367574155330658,-2.99999737739563,-1.224646806716919,-2.9999992847442627,-0.14145512878894806,-0.15309733152389526,-0.16327646374702454,-0.17162518203258514,0.27139046788215637,0.3260456919670105,0.36158230900764465,0.33225366473197937
0.7166666666666667,0.049448411911726,0.013755946420133114,0.0,0.6540778279304504,0.0,0.0,-0.7564272284507751,0.5840874910354614,-0.06311294436454773,0.0,0.0,0.0,-1.6876856088638306,0.43174079060554504,0.6515974402427673,0.4320468306541443,0.46842485666275024,-0.21305061876773834,0.2368767410516739,-0.8240612149238586,-0.006980786565691233,0.07243669033050537,-0.18479092419147491,-4.622077941894531,-4.670989990234375,3.0244085788726807,0.42326241731643677,0.653002142906189,0.4407833218574524,0.2583884000778198,-0.12873782217502594,0.3462194800376892,0.42857176065444946,0.6405975818634033,0.42000001668930054,-0.4867464005947113,-2.9997575283050537,-1.274651288986206,-2.9999284744262695,-0.141730397939682,-0.15120907127857208,-0.1594466269016266,-0.16674485802650452,-0.12412811815738678,0.04499012604355812,0.206023707985878,0.3246382176876068
0.7333333333333333,0.06200065091252327,0.008372687734663486,0.0,0.6275137662887573,0.0,0.0,-0.7786054611206055,0.7637227773666382,-0.3628621995449066,0.0,0.0,0.0,-4.936508655548096,0.43066173791885376,0.6524254083633423,0.4292687773704529,0.4896293580532074,-0.17933058738708496,0.21075022220611572,-0.8268542885780334,-0.10400834679603577,0.025360295549035072,-0.10515566915273666,2.319835662841797,-6.3283891677856445,0.7288313508033752,0.43294280767440796,0.6496542692184448,0.4533649682998657,0.821675181388855,-0.27485159039497375,1.28108811378479,0.42857176065444946,0.6405975818634033,0.42000001668930054,-0.5367583632469177,-2.9999840259552,-1.324669599533081,-2.9999988079071045,-0.14460331201553345,-0.15120837092399597,-0.15663045644760132,-0.16163741052150726,-0.3114016354084015,-0.11282742023468018,0.08446086943149567,0.25750431418418884
0.75,0.07647345215082169,0.005363444332033396,0.0,0.6057076454162598,0.0,0.0,-0.7956872582435608,0.8906128406524658,-0.14923231303691864,0.0,0.0,0.0,-2.561924934387207,0.42847809195518494,0.6523404717445374,0.42684462666511536,0.508603036403656,-0.11857720464468002,0.19380170106887817,-0.8304837942123413,-0.19610650837421417,-0.03279842808842659,-0.04632624238729477,-2.69704270362854,-4.917241096496582,-0.07626685500144958,0.4503839612007141,0.648966908454895,0.48047134280204773,1.2793899774551392,0.1563766598701477,2.011003255844116,0.42857176065444946,0.6405975818634033,0.42000001668930054,-0.5867614150047302,-2.9999961853027344,-1.374687910079956,-3.000000476837158,-0.14965641498565674,-0.15395662188529968,-0.15703977644443512,-0.15995511412620544,-0.19765058159828186,-0.12171139568090439,-0.04147679731249809,0.03204386681318283
0.7666666666666666,0.0877581313252449,0.004847862292081118,0.0,0.6078282594680786,0.0,0.0,-0.7940685153007507,0.5952742099761963,0.01637776754796505,0.0,0.0,0.0,1.2304620742797852,0.4254310727119446,0.6524215340614319,0.42540442943573,0.5205493569374084,-0.08541988581418991,0.13728740811347961,-0.8383817076683044,-0.18189792335033417,0.021433869376778603,-0.09359367191791534,-3.941812038421631,-7.799612998962402,1.056531310081482,0.4727787971496582,0.6529974937438965,0.5078686475753784,1.3447295427322388,0.3219556510448456,1.343663215637207,0.42857176065444946,0.6405975818634033,0.42000001668930054,-0.6061313152313232,0.3964156210422516,-1.424706220626831,-2.999999761581421,-0.15142640471458435,-0.1547408103942871,-0.15676340460777283,-0.15866002440452576,-0.030458470806479454,0.015592419542372227,0.06449119746685028,0.1130330041050911
0.7833333333333333,0.09468936920166016,0.00011063928104704246,0.0,0.6328669786453247,0.0,0.0,-0.7742605209350586,0.39483386278152466,-0.3746214509010315,0.0,0.0,0.0,4.577698230743408,0.42228007316589355,0.6532732844352722,0.4229094684123993,0.536386251449585,-0.041319068521261215,0.06419543921947479,-0.8405126333236694,-0.19429299235343933,0.062459684908390045,-0.16145625710487366,-4.7901105880737305,-9.977880477905273,1.5397963523864746,0.4882467985153198,0.658671498298645,0.5274515151977539,0.49942702054977417,0.3293406069278717,1.0469543933868408,0.42857176065444946,0.6405975818634033,0.42000001668930054,-0.5938301086425781,1.0163843631744385,-1.3865344524383545,2.999999761581421,-0.1496470868587494,-0.15222328901290894,-0.1535380631685257,-0.15475969016551971,0.057597145438194275,0.11968754231929779,0.17495813965797424,0.2254316359758377
0.8,0.09871333092451096,0.00032406329410150647,0.0,0.6429461240768433,0.0,0.0,-0.7659114003181458,0.17326533794403076,0.050369106233119965,0.0,0.0,0.0,0.42485153675079346,0.41943082213401794,0.6544081568717957,0.4200754761695862,0.5398074984550476,0.0006740436074323952,-0.0010113678872585297,-0.8417875170707703,-0.05908092111349106,0.014892016537487507,0.005464356392621994,-0.13757020235061646,-0.2548348307609558,-0.34132617712020874,0.490456759929657,0.6623535752296448,0.5390796661376953,-0.09195785224437714,0.17468121647834778,0.49846166372299194,0.42857176065444946,0.6405975818634033,0.42000001668930054,-0.5943863987922668,-0.9136090278625488,-1.3388395309448242,2.7093520164489746,-0.15451295673847198,-0.15504033863544464,-0.15449130535125732,-0.15398547053337097,-0.22277776896953583,-0.11715968698263168,-0.020757295191287994,0.07114742696285248
0.8166666666666667,0.099689781665802,-0.0025948211550712585,0.0,0.6610113978385925,0.0,0.0,-0.7503758668899536,-0.017562391236424446,-0.24020494520664215,0.0,0.0,0.0,3.4824044704437256,0.41920438408851624,0.6544579863548279,0.4200001657009125,0.5392892360687256,1.1249556337133981e-05,-1.7837752238847315e-05,-0.8421205878257751,0.0012867349432781339,-0.000918507284950465,-0.0003839160781353712,-0.001020678784698248,-0.00951973907649517,-0.004734216723591089,0.4862057864665985,0.6632694602012634,0.5448784828186035,-0.4410368800163269,0.01613442227244377,0.23346921801567078,0.42857176065444946,0.6405975818634033,0.42000001668930054,-0.6015322804450989,-0.01785672828555107,-1.3607991933822632,-3.0,-0.15746581554412842,-0.15597201883792877,-0.15354454517364502,-0.15121152997016907,-0.19032497704029083,-0.05631468817591667,0.06964978575706482,0.19365337491035461
0.8333333333333334,0.10138577222824097,-0.0036220927722752094,0.0,0.6644519567489624,0.0,0.0,-0.7473309636116028,0.12518596649169922,0.017020197585225105,0.0,0.0,0.0,-0.35856106877326965,0.41920629143714905,0.6544569730758667,0.4200000464916229,0.5392876863479614,1.860242662132805e-07,-2.570297056081472e-06,-0.8421215415000916,2.1644516891683452e-05,-0.0002549319469835609,-7.066247053444386e-05,0.006834147963672876,-0.0022415558341890574,-0.0007040584459900856,0.47905582189559937,0.6646326184272766,0.5436420440673828,-0.4232737123966217,0.10388009250164032,-0.20231860876083374,0.42857176065444946,0.6405975818634033,0.42000001668930054,-0.6068015098571777,-0.5625278949737549,-1.4108175039291382,-2.9999983310699463,-0.16061843931674957,-0.15743258595466614,-0.1533544510602951,-0.14929626882076263,-0.09316170960664749,-0.026338309049606323,0.04236370325088501,0.12074461579322815
0.85,0.10531405359506607,-0.007418908644467592,0.0,0.6469665169715881,0.0,0.0,-0.7625184059143066,0.28808489441871643,-0.2612806558609009,0.0,0.0,0.0,-3.6300268173217773,0.41920629143714905,0.6544569134712219,0.4200000464916229,0.539287805557251,3.4741583476716187e-07,-2.7263847641734174e-06,-0.8421215415000916,3.1494208087679e-05,-0.0002471278130542487,-7.460173219442368e-05,0.00654998142272234,-0.002153941197320819,-0.0007132019964046776,0.47587448358535767,0.666404128074646,0.5400696992874146,-0.047670118510723114,0.012054776772856712,-0.07782375812530518,0.42857176065444946,0.6405975818634033,0.42000001668930054,-0.6266334652900696,-1.702202320098877,-1.4608358144760132,-3.0000009536743164,-0.16061992943286896,-0.15678545832633972,-0.151974618434906,-0.14695987105369568,-0.08123718202114105,-0.030071916058659554,0.025240525603294373,0.09292752295732498
0.8666666666666667,0.11198798567056656,-0.007725642528384924,0.0,0.6430689692497253,0.0,0.0,-0.7658082842826843,0.4225307106971741,0.02125411480665207,0.0,0.0,0.0,0.40668565034866333,0.41920629143714905,0.6544569730758667,0.4200000464916229,0.5392876267433167,3.3502857377243345e-07,-2.7849534944834886e-06,-0.8421216011047363,2.877557199099101e-05,-0.00024799269158393145,-7.415073923766613e-05,0.006586102303117514,-0.0021924779284745455,-0.0007093859603628516,0.4771018922328949,0.6691386699676514,0.5423966646194458,0.2520771026611328,0.3424757719039917,0.33107125759124756,0.42857176065444946,0.6405975818634033,0.42000001668930054,-0.6265487670898438,1.4407422542572021,-1.5108541250228882,-2.9999992847442627,-0.16245315968990326,-0.15830837190151215,-0.153141051530838,-0.1475823074579239,0.0018711818847805262,-0.03325994685292244,-0.06521771848201752,-0.08480509370565414
0.8833333333333333,0.11611379683017731,-0.012451675720512867,0.0,0.6618140935897827,0.0,0.0,-0.7496680021286011,0.19440269470214844,-0.3109332323074341,0.0,0.0,0.0,3.6222879886627197,0.41920629143714905,0.6544569134712219,0.4200000464916229,0.5392877459526062,1.7521233530715108e-07,-2.9951866054034326e-06,-0.8421215415000916,2.7967613277724013e-05,-0.0002469596220180392,-7.385155186057091e-05,0.0065648192539811134,-0.002193060237914324,-0.0007048802217468619,0.4805266261100769,0.6729027032852173,0.5475488901138306,0.12707433104515076,0.09175406396389008,0.2814587354660034,0.42857176065444946,0.6405975818634033,0.42000001668930054,-0.6268176436424255,-1.2405517101287842,-1.4720953702926636,2.999999523162842,-0.16005535423755646,-0.15642401576042175,-0.15172940492630005,-0.14645777642726898,0.02712874673306942,0.02994328923523426,0.03281915560364723,0.043270740658044815
0.9,0.11681975424289703,-0.012899811379611492,0.0,0.6669045090675354,0.0,0.0,-0.7451432347297668,-0.0014165383763611317,-0.006694559473544359,0.0,0.0,0.0,0.02723841182887554,0.41920629143714905,0.6544569134712219,0.4200000464916229,0.5392876267433167,1.5705586520198267e-07,-2.575646021796274e-06,-0.8421216607093811,3.290381209808402e-05,-0.00024376054352615029,-7.478147745132446e-05,0.006454216782003641,-0.0021199756301939487,-0.0007078858907334507,0.4812133312225342,0.6719717383384705,0.5453966856002808,0.004735808819532394,-0.14734233915805817,-0.3604007363319397,0.42857176065444946,0.6405975818634033,0.42000001668930054,-0.64425128698349,-0.8698272705078125,-1.4888076782226562,-3.0,-0.16315488517284393,-0.15887638926506042,-0.15354938805103302,-0.14755971729755402,-0.10604478418827057,-0.07782720029354095,-0.04838163033127785,-0.012212218716740608
0.9166666666666666,0.11878050118684769,-0.016837239265441895,0.0,0.6628591418266296,0.0,0.0,-0.7487441301345825,0.13321226835250854,-0.23703761398792267,0.0,0.0,0.0,-0.9340189695358276,0.41920629143714905,0.6544569730758667,0.4200000464916229,0.5392874479293823,3.2667480809323024e-07,-2.7059750209446065e-06,-0.8421217203140259,2.8229460440343246e-05,-0.0002478451351635158,-7.403339259326458e-05,0.00658514816313982,-0.0021979729644954205,-0.00070781639078632,0.4819194972515106,0.6707837581634521,0.5384336709976196,0.018142536282539368,-0.06920626759529114,-0.38436973094940186,0.42857176065444946,0.6405975818634033,0.42000001668930054,-0.6464607119560242,0.4888198673725128,-1.5388259887695312,-3.000000238418579,-0.16292864084243774,-0.15857729315757751,-0.1531486213207245,-0.14693991839885712,-0.07369355857372284,-0.05577782914042473,-0.038262784481048584,-0.016551144421100616
0.9333333333333333,0.12292567640542984,-0.020717034116387367,0.0,0.6727879047393799,0.0,0.0,-0.7398353815078735,0.29339519143104553,-0.3061555325984955,0.0,0.0,0.0,2.4564638137817383,0.41920629143714905,0.6544569730758667,0.4200000464916229,0.5392874479293823,3.620402537762857e-07,-2.5517460926494095e-06,-0.8421217203140259,2.79599626082927e-05,-0.0002482373092789203,-7.391860708594322e-05,0.006598001811653376,-0.0022007469087839127,-0.0007079240749590099,0.48299670219421387,0.6682443618774414,0.5356525182723999,0.1867683231830597,-0.16996197402477264,0.06621889770030975,0.42857176065444946,0.6405975818634033,0.42000001668930054,-0.6522629261016846,-1.0469642877578735,-1.4999911785125732,3.000000476837158,-0.1654023677110672,-0.16044582426548004,-0.15439069271087646,-0.14747951924800873,-0.09087754786014557,-0.06632779538631439,-0.036784667521715164,1.7171259969472885e-08
0.95,0.12487373501062393,-0.022931335493922234,0.0,0.6705426573753357,0.0,0.0,-0.7418709993362427,0.0606437586247921,-0.04960609972476959,0.0,0.0,0.0,-1.2057312726974487,0.41920629143714905,0.6544569134712219,0.4200000464916229,0.5392877459526062,3.1651276799493644e-07,-2.965674411825603e-06,-0.8421215415000916,2.8411997845978476e-05,-0.0002472145715728402,-7.395190186798573e-05,0.0065689850598573685,-0.00218934821896255,-0.0007065157406032085,0.4876372814178467,0.6636778712272644,0.5333342552185059,0.28337782621383667,-0.3780563175678253,-0.1662575900554657,0.42857176065444946,0.6405975818634033,0.42000001668930054,-0.6804701089859009,-2.2155251502990723,-1.5161454677581787,-3.000000476837158,-0.1670616716146469,-0.1618644893169403,-0.15538232028484344,-0.14783641695976257,-0.08552641421556473,-0.06687760353088379,-0.03546220436692238,0.009367961436510086
0.9666666666666667,0.12783686816692352,-0.027523119002580643,0.0,0.6476606130599976,0.0,0.0,-0.7619289755821228,0.23064593970775604,-0.3133504390716553,0.0,0.0,0.0,-4.470678329467773,0.41920629143714905,0.6544569134712219,0.4200000464916229,0.5392876267433167,1.4271495274442714e-07,-2.5458527943555964e-06,-0.8421216607093811,3.276932693552226e-05,-0.00024380252580158412,-7.475237362086773e-05,0.006455998867750168,-0.002121562138199806,-0.0007076913607306778,0.4963420331478119,0.6602752208709717,0.5318921804428101,0.6705009937286377,-0.15581321716308594,0.14108505845069885,0.42857176065444946,0.6405975818634033,0.42000001668930054,-0.6970836520195007,0.04114588722586632,-1.5661637783050537,-3.0,-0.16683201491832733,-0.16183067858219147,-0.15532556176185608,-0.1475123018026352,-0.0644359290599823,-0.06458129733800888,-0.054672639816999435,-0.034373439848423004
