vladlanda/robotic-transformer/data/env_000_episode_0254.csv
sim_time_s,robot_box_x,robot_box_y,robot_box_z,robot_box_quat_w,robot_box_quat_x,robot_box_quat_y,robot_box_quat_z,robot_box_linvel_x,robot_box_linvel_y,robot_box_linvel_z,robot_box_angvel_x,robot_box_angvel_y,robot_box_angvel_z,cube_world_x,cube_world_y,cube_world_z,cube_quat_w,cube_quat_x,cube_quat_y,cube_quat_z,cube_linvel_x,cube_linvel_y,cube_linvel_z,cube_angvel_x,cube_angvel_y,cube_angvel_z,endpoint_world_x,endpoint_world_y,endpoint_world_z,endpoint_linvel_x,endpoint_linvel_y,endpoint_linvel_z,target_cube_world_x,target_cube_world_y,target_cube_world_z,gripper_actual_pos_rad_gp_leftgearjoint,gripper_actual_vel_rad_s_gp_leftgearjoint,gripper_actual_pos_rad_gp_rotatingjoint,gripper_actual_vel_rad_s_gp_rotatingjoint,motor_angle_rad_joint1,motor_angle_rad_joint2,motor_angle_rad_joint3,motor_angle_rad_joint4,motor_speed_rad_s_joint1,motor_speed_rad_s_joint2,motor_speed_rad_s_joint3,motor_speed_rad_s_joint4
0.0,0.0,0.0,0.0,1.0,0.0,0.0,0.0,0.0,0.0,0.0,0.0,0.0,0.0,-0.32278206944465637,0.6623213291168213,0.41999998688697815,1.0,0.0,0.0,0.0,0.0,0.0,0.0,0.0,0.0,0.0,3.42540442943573e-06,-0.005000244826078415,1.313499927520752,0.0,0.0,0.0,0.41967087984085083,0.7078579664230347,0.42000001668930054,-1.5707999467849731,0.0,0.0,0.0,0.0,0.0,0.0,0.0,0.0,0.0,0.0,0.0
0.016666666666666666,0.002867151750251651,0.0021591789554804564,0.0,0.9998200535774231,0.0,0.0,-0.018969178199768066,0.23903809487819672,0.18023176491260529,0.0,0.0,0.0,-3.146087884902954,-0.3227821886539459,0.6623210310935974,0.41999998688697815,1.0,3.2799914606584935e-06,-8.339814598912199e-07,8.465387679734704e-08,-1.9833554688375443e-05,0.00017983050202019513,-6.133061833679676e-05,0.0009432226070202887,-0.004689437802881002,-0.0003198152990080416,-0.006978815421462059,0.004105937667191029,1.3159255981445312,-0.7933164238929749,1.0451316833496094,0.17916962504386902,0.41967087984085083,0.7078579664230347,0.42000001668930054,-1.5301092863082886,3.000002384185791,-0.0458713062107563,-3.0000009536743164,0.0008640795713290572,0.0007907222025096416,0.0007052471628412604,0.0006050580996088684,0.1103043183684349,0.09687352180480957,0.08258163183927536,0.06740357726812363
0.03333333333333333,0.008867772296071053,0.006749833468347788,0.0,0.9998040199279785,0.0,0.0,-0.019796550273895264,0.40254807472229004,0.31419476866722107,0.0,0.0,0.0,0.8659365773200989,-0.3227823078632355,0.6623209714889526,0.4200000464916229,1.0,3.39090593115543e-06,-2.1324372028175276e-06,-3.7106541839193596e-08,0.0002635782293509692,0.0002693790593184531,-0.00010509486310184002,-0.0017707175575196743,0.004130743443965912,-0.00013547750131692737,-0.02640431374311447,0.02546282485127449,1.3168233633041382,-1.4715174436569214,1.549544095993042,-0.04994162917137146,0.41967087984085083,0.7078579664230347,0.42000001668930054,-1.4800899028778076,3.000000238418579,-0.09591107070446014,-2.999999523162842,0.002917143516242504,0.0025742785073816776,0.0021936818957328796,0.0017719317693263292,0.15873490273952484,0.13407984375953674,0.1079385057091713,0.08022116124629974
0.05,0.017517223954200745,0.013553815893828869,0.0,0.9993926286697388,0.0,0.0,-0.0348479263484478,0.5812803506851196,0.450819730758667,0.0,0.0,0.0,-2.6379010677337646,-0.32278233766555786,0.6623210310935974,0.4200000464916229,1.0,3.765230758290272e-06,-2.211922264905297e-06,5.6083799826467384e-09,0.0002653090050444007,0.00026691501261666417,-0.00010440615005791187,-0.00172435212880373,0.0041774665005505085,-0.0001294955873163417,-0.05293048173189163,0.05695057660341263,1.3127520084381104,-1.6895390748977661,2.1834492683410645,-0.40843403339385986,0.41967087984085083,0.7078579664230347,0.42000001668930054,-1.4300715923309326,3.0000016689300537,-0.1457025408744812,-2.947018623352051,0.00525951012969017,0.00435662642121315,0.0033819281961768866,0.0023305099457502365,0.15336020290851593,0.10636286437511444,0.057502131909132004,0.006700009107589722
0.06666666666666667,0.029686657711863518,0.022835517302155495,0.0,0.9970704317092896,0.0,0.0,-0.07648912072181702,0.7899584770202637,0.601868748664856,0.0,0.0,0.0,-5.862248420715332,-0.32278233766555786,0.6623209714889526,0.4200000464916229,0.9999999403953552,3.406835730856983e-06,-2.2856456780573353e-06,4.3008122929677484e-07,0.0002670265967026353,0.0002679176104720682,-0.0001043803058564663,-0.0017406701808795333,0.004211854189634323,-0.0001285061298403889,-0.08291703462600708,0.0969943180680275,1.3028759956359863,-1.8769968748092651,2.580479860305786,-0.7664088606834412,0.41967087984085083,0.7078579664230347,0.42000001668930054,-1.3800485134124756,3.0,-0.11191187798976898,2.9999983310699463,0.00752364844083786,0.005800611339509487,0.003966209013015032,0.0020169185008853674,0.1368343085050583,0.08144280314445496,0.02401399426162243,-0.03553793579339981
0.08333333333333333,0.04439324513077736,0.03427125886082649,0.0,0.995113730430603,0.0,0.0,-0.09873511642217636,0.9437456727027893,0.7525479197502136,0.0,0.0,0.0,-1.631288766860962,-0.32278233766555786,0.6623209714889526,0.4200000464916229,1.0,3.6973383430449758e-06,-2.188984808526584e-06,-2.6323331780986337e-07,0.0002638960722833872,0.0002658652374520898,-0.00010433932766318321,-0.0017081378027796745,0.00415008282288909,-0.0001299151626881212,-0.11696687340736389,0.1364075392484665,1.2893484830856323,-2.0107386112213135,2.4264979362487793,-0.8497248888015747,0.41967087984085083,0.7078579664230347,0.42000001668930054,-1.330045461654663,3.0,-0.14390017092227936,-3.000000476837158,0.008304385468363762,0.0055765025317668915,0.002696690382435918,-0.0003389812773093581,0.009264996275305748,-0.060727834701538086,-0.13280056416988373,-0.20695987343788147
0.1,0.05366962030529976,0.04399201646447182,0.0,0.9908440709114075,0.0,0.0,-0.13501107692718506,0.43072792887687683,0.5251280069351196,0.0,0.0,0.0,-5.31589937210083,-0.32278233766555786,0.6623209714889526,0.4200000464916229,0.9999999403953552,3.6204280604579253e-06,-2.265225475639454e-06,1.7461863421885937e-07,0.00026676725246943533,0.0002674070419743657,-0.00010408065281808376,-0.0017385295359417796,0.004209065344184637,-0.00012775739014614373,-0.1475781351327896,0.18091373145580292,1.27257239818573,-1.623633861541748,2.9694714546203613,-1.1014463901519775,0.41967087984085083,0.7078579664230347,0.42000001668930054,-1.280022382736206,3.0,-0.11039577424526215,3.000000238418579,0.002633721102029085,-0.000955328403506428,-0.004746630322188139,-0.008746899664402008,-0.4570658206939697,-0.5130309462547302,-0.5714477896690369,-0.6325092911720276
0.11666666666666667,0.06164255738258362,0.05726217105984688,0.0,0.982420027256012,0.0,0.0,-0.18668384850025177,0.6292060613632202,0.7127007842063904,0.0,0.0,0.0,-6.213514804840088,-0.32278233766555786,0.6623209714889526,0.4200000464916229,1.0,3.7983741094649304e-06,-2.2627561975241406e-06,-1.5019411137018324e-07,0.00026374030858278275,0.00026566023007035255,-0.00010428880341351032,-0.001705368747934699,0.004147524479776621,-0.00012980001338291913,-0.17711493372917175,0.23131698369979858,1.2496742010116577,-1.8731844425201416,3.1844899654388428,-1.4063842296600342,0.41967087984085083,0.7078579664230347,0.42000001668930054,-1.2300314903259277,2.9999868869781494,-0.1424320936203003,-3.0000007152557373,-0.004510221071541309,-0.009118225425481796,-0.013938485644757748,-0.01898159272968769,-0.10579859465360641,-0.2107800394296646,-0.3123883903026581,-0.41054704785346985
0.13333333333333333,0.07028853893280029,0.06606370210647583,0.0,0.9775885939598083,0.0,0.0,-0.2105245441198349,0.46111321449279785,0.45109614729881287,0.0,0.0,0.0,-1.839908242225647,-0.32278233766555786,0.6623210310935974,0.4200000464916229,0.9999999403953552,3.550490419002017e-06,-2.2297924715530826e-06,2.9292351655385573e-07,0.0002670329122338444,0.0002677924057934433,-0.00010416773147881031,-0.001743975793942809,0.004213578533381224,-0.0001280030410271138,-0.2132003903388977,0.2825697660446167,1.2213046550750732,-2.083282232284546,3.301007032394409,-1.9623746871948242,0.41967087984085083,0.7078579664230347,0.42000001668930054,-1.1800180673599243,2.99999737739563,-0.1089300587773323,3.000000238418579,-0.006106771994382143,-0.012479456141591072,-0.018987806513905525,-0.025641312822699547,-0.13631516695022583,-0.23376193642616272,-0.32646211981773376,-0.4143891930580139
0.15,0.07619358599185944,0.07084891945123672,0.0,0.9693811535835266,0.0,0.0,-0.24556103348731995,0.295915424823761,0.2326032966375351,0.0,0.0,0.0,-5.161683559417725,-0.32278233766555786,0.6623209714889526,0.4200000464916229,0.9999999403953552,3.3380592867615633e-06,-2.2428412194130942e-06,-2.8008338759377693e-08,0.00026674458058550954,0.00026758271269500256,-0.00010427972301840782,-0.0017367512919008732,0.004206824116408825,-0.0001283210440305993,-0.24481774866580963,0.341480553150177,1.1845066547393799,-1.6759560108184814,3.7720837593078613,-2.445464611053467,0.41967087984085083,0.7078579664230347,0.42000001668930054,-1.130021095275879,3.000002384185791,-0.14097356796264648,-2.999999523162842,-0.008947409689426422,-0.016906892880797386,-0.02491443231701851,-0.032980091869831085,-0.24084463715553284,-0.3247981071472168,-0.4037841260433197,-0.47788479924201965
0.16666666666666666,0.08315875381231308,0.07765762507915497,0.0,0.9520557522773743,0.0,0.0,-0.3059246242046356,0.40674349665641785,0.4728742241859436,0.0,0.0,0.0,-8.425063133239746,-0.32278233766555786,0.6623210310935974,0.4200000464916229,0.9999999403953552,3.647774974524509e-06,-2.3072600470186444e-06,3.529923020550996e-08,0.00026726865326054394,0.0002680135366972536,-0.00010418612509965897,-0.001747232861816883,0.0042175790295004845,-0.00012798202806152403,-0.27063438296318054,0.4102466106414795,1.1338871717453003,-1.295232892036438,4.394737720489502,-3.4985275268554688,0.41967087984085083,0.7078579664230347,0.42000001668930054,-1.0817114114761353,2.7736427783966064,-0.14505648612976074,2.075831174850464,-0.017038073390722275,-0.02563551254570484,-0.03423377871513367,-0.0428488552570343,-0.6752504706382751,-0.6783681511878967,-0.6801595687866211,-0.6810874938964844
0.18333333333333332,0.08867179602384567,0.08303927630186081,0.0,0.9383785128593445,0.0,0.0,-0.34560927748680115,0.25401198863983154,0.2328176647424698,0.0,0.0,0.0,-3.8855812549591064,-0.32278233766555786,0.6623209714889526,0.4200000464916229,0.9999999403953552,3.2904902127484092e-06,-2.1938533336651744e-06,-2.7920296474803763e-07,0.0002667788357939571,0.0002677598677109927,-0.00010434072464704514,-0.0017390816938132048,0.004206937272101641,-0.00012845655146520585,-0.2949432134628296,0.4786868095397949,1.067453384399414,-1.096041202545166,4.1944169998168945,-4.41378116607666,0.41967087984085083,0.7078579664230347,0.42000001668930054,-1.0318037271499634,3.000002384185791,-0.18202552199363708,-2.9999990463256836,-0.02956579066812992,-0.03780760243535042,-0.0460360012948513,-0.054278358817100525,-0.7840184569358826,-0.749503493309021,-0.7144323587417603,-0.6795408129692078
0.2,0.09025794267654419,0.08890178054571152,0.0,0.9347560405731201,0.0,0.0,-0.3552902340888977,-0.01956181414425373,0.3975897431373596,0.0,0.0,0.0,0.15260031819343567,-0.32278233766555786,0.6623209714889526,0.4200000464916229,1.0,3.2807631669129478e-06,-2.219166617578594e-06,1.5949673581872048e-07,0.0002662794722709805,0.0002674015995580703,-0.0001042510848492384,-0.00173571624327451,0.0041978564113378525,-0.00012865439930465072,-0.3179333508014679,0.5388977527618408,0.9886397123336792,-1.2290278673171997,3.2997610569000244,-5.022252082824707,0.41967087984085083,0.7078579664230347,0.42000001668930054,-0.9817937612533569,3.0000016689300537,-0.2320534586906433,-2.9999992847442627,-0.04453778639435768,-0.05190734565258026,-0.05925698205828667,-0.06662973016500473,-0.9517592191696167,-0.8902686834335327,-0.8286207914352417,-0.7677531242370605
0.21666666666666667,0.09381145238876343,0.09583622962236404,0.0,0.9269619584083557,0.0,0.0,-0.37515532970428467,0.22068260610103607,0.5016245245933533,0.0,0.0,0.0,-3.4319727420806885,-0.32278233766555786,0.6623210310935974,0.4200000464916229,1.0,3.6130975331616355e-06,-2.2699948658555513e-06,2.2104775609932403e-07,0.00026712531689554453,0.0002678169694263488,-0.00010414118878543377,-0.0017444599652662873,0.004215109162032604,-0.0001278673007618636,-0.335277259349823,0.5929698944091797,0.8988152146339417,-0.8390113115310669,2.929208755493164,-5.681680679321289,0.41967087984085083,0.7078579664230347,0.42000001668930054,-0.9317843914031982,3.000000476837158,-0.2820838987827301,-3.00000262260437,-0.05961219221353531,-0.06625866889953613,-0.0728093758225441,-0.0791546180844307,-0.937831461429596,-0.9456058144569397,-0.9311897158622742,-0.8525530695915222
0.23333333333333334,0.09450580924749374,0.10064876824617386,0.0,0.9254127144813538,0.0,0.0,-0.37896084785461426,-0.006884855218231678,0.21760867536067963,0.0,0.0,0.0,0.4620007574558258,-0.32278233766555786,0.6623209714889526,0.4200000464916229,1.0,3.3817855182860512e-06,-2.2908213850314496e-06,2.728465915424749e-07,0.0002669155946932733,0.0002678002056200057,-0.00010433141142129898,-0.0017395844915881753,0.0042098211124539375,-0.00012844095181208104,-0.3506869375705719,0.6318828463554382,0.8018721342086792,-0.7818933725357056,1.836188793182373,-5.916071891784668,0.41967087984085083,0.7078579664230347,0.42000001668930054,-0.8817738890647888,2.999988555908203,-0.3321158289909363,-3.0000011920928955,-0.07602608948945999,-0.08264675736427307,-0.08915447443723679,-0.09481273591518402,-0.9883810877799988,-0.9815375208854675,-0.9753538370132446,-0.9712256789207458
0.25,0.09814905375242233,0.10071281343698502,0.0,0.9193928241729736,0.0,0.0,-0.39334067702293396,0.27040743827819824,-0.07398037612438202,0.0,0.0,0.0,-2.5918121337890625,-0.3227823078632355,0.6623209714889526,0.4200000464916229,0.9999999403953552,3.7064864955027588e-06,-2.2228989564609947e-06,-2.2546814193447062e-07,0.0002642463950905949,0.00026656698901206255,-0.00010457634925842285,-0.0017169405473396182,0.00415548961609602,-0.00013063351798336953,-0.35982242226600647,0.6589305996894836,0.6970342397689819,-0.31137245893478394,1.1776102781295776,-6.438582420349121,0.41967087984085083,0.7078579664230347,0.42000001668930054,-0.8317645192146301,2.99999737739563,-0.3821479380130768,-2.9999990463256836,-0.09232810139656067,-0.09894242137670517,-0.10545337200164795,-0.11108056455850601,-0.9932829737663269,-0.994215190410614,-0.9949678778648376,-0.9956018328666687
0.26666666666666666,0.09678266197443008,0.1052304208278656,0.0,0.9204273223876953,0.0,0.0,-0.39091378450393677,-0.19822931289672852,0.3983413875102997,0.0,0.0,0.0,1.279682993888855,-0.32278233766555786,0.6623209714889526,0.4200000464916229,0.9999999403953552,3.719608457686263e-06,-2.4033261070144363e-06,-1.8304078253095213e-07,0.00026623241137713194,0.0002672903356142342,-0.00010425737127661705,-0.001732598408125341,0.004196526482701302,-0.0001285126927541569,-0.36186501383781433,0.6626564264297485,0.5970717668533325,0.12452898174524307,-0.5171633958816528,-5.577949523925781,0.41967087984085083,0.7078579664230347,0.42000001668930054,-0.7817557454109192,3.0000011920928955,-0.4321790635585785,-2.999999523162842,-0.11100055277347565,-0.11711788177490234,-0.12324991822242737,-0.1285773366689682,-1.0047365427017212,-1.0035896301269531,-1.002711534500122,-1.0020115375518799
0.2833333333333333,0.09958707541227341,0.10540997982025146,0.0,0.9167035818099976,0.0,0.0,-0.3995679020881653,0.19882458448410034,-0.044911131262779236,0.0,0.0,0.0,-1.6430954933166504,-0.32278233766555786,0.6623210310935974,0.4200000464916229,0.9999999403953552,3.5840300824929727e-06,-2.3153043002821505e-06,7.407601998465907e-08,0.00026522009284235537,0.00026455309125594795,-0.00010317424312233925,-0.0017022202955558896,0.00418515969067812,-0.000124995582154952,-0.35679131746292114,0.6601412296295166,0.5032058954238892,0.6056262850761414,-0.16088077425956726,-5.437341690063477,0.41967087984085083,0.7078579664230347,0.42000001668930054,-0.7317469716072083,3.0000009536743164,-0.4822083115577698,-3.00000262260437,-0.12421882897615433,-0.13104794919490814,-0.13776853680610657,-0.14362743496894836,-1.0116828680038452,-1.008830189704895,-1.0066474676132202,-1.0049015283584595
0.3,0.09943332523107529,0.10367956757545471,0.0,0.9201304912567139,0.0,0.0,-0.39161184430122375,-0.036741290241479874,-0.16080646216869354,0.0,0.0,0.0,1.8442779779434204,-0.32278233766555786,0.6623209714889526,0.4200000464916229,1.0,3.7242095913825324e-06,-2.271762923555798e-06,9.639254727744628e-08,0.00026312656700611115,0.00026525757857598364,-0.00010438100434839725,-0.00169602339155972,0.004134845454245806,-0.00013027741806581616,-0.34310346841812134,0.6615337133407593,0.41804349422454834,1.062753438949585,0.32288938760757446,-4.903334617614746,0.41967087984085083,0.7078579664230347,0.42000001668930054,-0.6817399859428406,3.0,-0.5322359800338745,-3.000001907348633,-0.14150024950504303,-0.14823615550994873,-0.15491236746311188,-0.1607159525156021,-0.9799623489379883,-1.0008748769760132,-1.0006376504898071,-1.0004584789276123
0.31666666666666665,0.09693657606840134,0.09963715076446533,0.0,0.9170966148376465,0.0,0.0,-0.3986649811267853,-0.19666814804077148,-0.28003448247909546,0.0,0.0,0.0,-1.8312935829162598,-0.32282450795173645,0.6605733036994934,0.4209344685077667,0.9995160698890686,0.023858051747083664,-0.00043054550769738853,-0.019951894879341125,0.0043992237187922,-0.08144011348485947,0.0388016402721405,2.0027966499328613,-0.05730241909623146,-1.2916775941848755,-0.34469854831695557,0.6632943749427795,0.42517971992492676,-0.03424740955233574,0.03446026146411896,-0.15581445395946503,0.41967087984085083,0.7078579664230347,0.42000001668930054,-0.6318351030349731,2.999983549118042,-0.5827449560165405,-3.000002145767212,-0.15076188743114471,-0.15611779689788818,-0.1610463708639145,-0.1647285521030426,-0.6496486663818359,-0.5299811363220215,-0.3929617404937744,-0.24113957583904266
0.3333333333333333,0.0919603556394577,0.09352974593639374,0.0,0.9203260540962219,0.0,0.0,-0.39115211367607117,-0.344436913728714,-0.4033023715019226,0.0,0.0,0.0,1.8758951425552368,-0.3227567970752716,0.6598015427589417,0.4207528531551361,0.9995012283325195,0.01914965733885765,-0.0004925245302729309,-0.025102639570832253,0.0038497468922287226,-0.033982228487730026,-0.026861991733312607,-1.4139331579208374,0.0658479779958725,-0.4758492112159729,-0.34317946434020996,0.6680437326431274,0.4226331114768982,0.21136191487312317,0.44478049874305725,-0.12838855385780334,0.41967087984085083,0.7078579664230347,0.42000001668930054,-0.5818299651145935,2.999974012374878,-0.6327952742576599,-2.9999923706054688,-0.16161388158798218,-0.1647173911333084,-0.1671057492494583,-0.16804149746894836,-0.6086199879646301,-0.4693875014781952,-0.3134625554084778,-0.1473214477300644
0.35,0.08454573154449463,0.08528845012187958,0.0,0.9172758460044861,0.0,0.0,-0.3982524871826172,-0.48879969120025635,-0.5327199101448059,0.0,0.0,0.0,-1.8616933822631836,-0.3198663592338562,0.6641308069229126,0.4200001657009125,0.9948471784591675,-2.3709471861366183e-06,-7.233844371512532e-06,-0.1013849526643753,0.16805969178676605,0.2514255940914154,-0.00014964309229981154,0.006310825701802969,-0.0008842212846502662,-7.632580757141113,-0.3375074565410614,0.6719087362289429,0.42059046030044556,0.517301082611084,0.22263525426387787,-0.12478421628475189,0.41967087984085083,0.7078579664230347,0.42000001668930054,-0.5318251848220825,2.999979257583618,-0.6828479170799255,-2.9999802112579346,-0.1718006581068039,-0.172362819314003,-0.1719086766242981,-0.16983924806118011,-0.584646463394165,-0.4208211302757263,-0.2404002696275711,-0.05295530706644058
0.36666666666666664,0.07483623176813126,0.07493297010660172,0.0,0.920120120048523,0.0,0.0,-0.3916362226009369,-0.6237005591392517,-0.658909797668457,0.0,0.0,0.0,1.9212470054626465,-0.3142426311969757,0.6712377667427063,0.42012014985084534,0.9828458428382874,-0.0029867449775338173,0.0003386875323485583,-0.184404194355011,0.5440119504928589,0.6380037665367126,0.04641489312052727,-2.225011110305786,0.6595457196235657,-6.3903117179870605,-0.32786211371421814,0.679161548614502,0.4199347496032715,0.6326303482055664,0.5808853507041931,0.07831357419490814,0.41967087984085083,0.7078579664230347,0.42000001668930054,-0.4817958474159241,3.000000476837158,-0.7328720688819885,-2.9999752044677734,-0.18087077140808105,-0.1786942183971405,-0.17520473897457123,-0.16998055577278137,-0.45316261053085327,-0.29981178045272827,-0.12828737497329712,0.05044761300086975
0.3833333333333333,0.0682823583483696,0.062005989253520966,0.0,0.9172309041023254,0.0,0.0,-0.39835596084594727,-0.31082531809806824,-0.8218241930007935,0.0,0.0,0.0,-1.8016960620880127,-0.3040696382522583,0.682784914970398,0.42060884833335876,0.9734812378883362,-0.01501302421092987,0.003269396023824811,-0.22824987769126892,0.9405041933059692,0.5634535551071167,0.2401566356420517,-11.557167053222656,5.0264787673950195,-12.19966983795166,-0.31430137157440186,0.6885551810264587,0.4220448136329651,0.9906561374664307,0.6263217926025391,0.13096635043621063,0.41967087984085083,0.7078579664230347,0.42000001668930054,-0.4317401647567749,2.9836695194244385,-0.7828792333602905,-2.9973621368408203,-0.18738332390785217,-0.18260157108306885,-0.17614541947841644,-0.16778995096683502,-0.31747397780418396,-0.16103564202785492,0.01740957796573639,0.2055440992116928
0.4,0.059494949877262115,0.047571972012519836,0.0,0.9016447067260742,0.0,0.0,-0.43247756361961365,-0.603134274482727,-0.8913113474845886,0.0,0.0,0.0,-5.440135955810547,-0.2813569903373718,0.6959839463233948,0.42399775981903076,0.9583948254585266,-0.03240998461842537,-0.022693006321787834,-0.28269052505493164,1.9625259637832642,0.668421745300293,0.07346364855766296,30.034812927246094,-16.781461715698242,12.560996055603027,-0.2907792925834656,0.7032500505447388,0.42442503571510315,1.7682572603225708,1.110117793083191,0.32549336552619934,0.41967087984085083,0.7078579664230347,0.42000001668930054,-0.3929198682308197,1.3286644220352173,-0.8329000473022461,-3.000000476837158,-0.19432063400745392,-0.18678919970989227,-0.17724202573299408,-0.16566529870033264,-0.4067806303501129,-0.25121504068374634,-0.07787442207336426,0.1009674221277237
0.4166666666666667,0.05373508855700493,0.03015892021358013,0.0,0.871448814868927,0.0,0.0,-0.4904865026473999,-0.29693713784217834,-1.0932263135910034,0.0,0.0,0.0,-8.6181058883667,-0.23949742317199707,0.7180513739585876,0.4289712905883789,0.9359208345413208,-0.03191370144486427,-0.0409773550927639,-0.3483597934246063,3.646104574203491,1.186569094657898,0.611142098903656,9.731293678283691,-11.584071159362793,18.371980667114258,-0.24791522324085236,0.7260708808898926,0.42817333340644836,3.346341609954834,1.6748520135879517,0.4090457856655121,0.41967087984085083,0.7078579664230347,0.42000001668930054,-0.37001004815101624,1.2085903882980347,-0.8829230070114136,-3.0000011920928955,-0.20060983300209045,-0.19041696190834045,-0.17798256874084473,-0.16349723935127258,-0.4405030310153961,-0.25597304105758667,-0.06364481151103973,0.12389445304870605
0.43333333333333335,0.05026470869779587,0.017983566969633102,0.0,0.8243945837020874,0.0,0.0,-0.5660155415534973,-0.12627407908439636,-0.7814996242523193,0.0,0.0,0.0,-11.286091804504395,-0.15944312512874603,0.7472054362297058,0.4348517954349518,0.9119751453399658,0.0248351339250803,-0.0903518944978714,-0.3994007408618927,6.332540512084961,1.7369683980941772,0.4290708005428314,11.29024600982666,-15.198795318603516,19.006269454956055,-0.16644130647182465,0.7566738128662109,0.4338275194168091,5.912859916687012,2.230025291442871,0.3970159888267517,0.41967087984085083,0.7078579664230347,0.42000001668930054,-0.3514167070388794,1.06858491897583,-0.8458275198936462,2.9982106685638428,-0.21432816982269287,-0.199840247631073,-0.18314559757709503,-0.164825901389122,-0.5240821838378906,-0.36299142241477966,-0.19113415479660034,-0.04381082206964493
0.45,0.050404954701662064,0.00740404287353158,0.0,0.7851360440254211,0.0,0.0,-0.6193233132362366,0.06097188964486122,-0.5723952651023865,0.0,0.0,0.0,-6.79339599609375,-0.06077039986848831,0.7793949842453003,0.44402000308036804,0.8611197471618652,0.06780561059713364,-0.12220577895641327,-0.4888157844543457,5.954883098602295,0.8223346471786499,0.8227941989898682,-8.844574928283691,6.0773468017578125,7.623057842254639,-0.06693298369646072,0.7914214134216309,0.44310063123703003,6.107882499694824,1.6965608596801758,0.5768133401870728,0.41967087984085083,0.7078579664230347,0.42000001668930054,-0.3353416621685028,0.7896421551704407,-0.8718017935752869,-2.998791217803955,-0.22269344329833984,-0.20598243176937103,-0.18707890808582306,-0.16704945266246796,-0.4512150287628174,-0.3351611793041229,-0.2284095287322998,-0.1546214073896408
0.4666666666666667,0.04833097755908966,0.002233874751254916,0.0,0.7667868137359619,0.0,0.0,-0.6419018507003784,-0.1268397718667984,-0.2740277051925659,0.0,0.0,0.0,-2.0977048873901367,0.03489094600081444,0.7960660457611084,0.45360511541366577,0.7857477068901062,0.07149402797222137,-0.12304610013961792,-0.6019539833068848,5.49019193649292,-0.5170671343803406,0.6006698608398438,-11.679818153381348,-10.306139945983887,25.655834197998047,0.029972519725561142,0.8092222213745117,0.45220208168029785,5.844548225402832,0.6433016061782837,0.633318305015564,0.41967087984085083,0.7078579664230347,0.42000001668930054,-0.3248271644115448,0.37810420989990234,-0.9218257665634155,-3.000004768371582,-0.2324955314397812,-0.21341554820537567,-0.19245700538158417,-0.17101861536502838,-0.47055211663246155,-0.36849507689476013,-0.2852485477924347,-0.2363351732492447
0.48333333333333334,0.048806652426719666,0.0001009132174658589,0.0,0.7425269484519958,0.0,0.0,-0.6698161959648132,0.08401420712471008,-0.07354160398244858,0.0,0.0,0.0,-5.3418121337890625,0.126067116856575,0.7966587543487549,0.4577430784702301,0.7032446265220642,0.062390509992837906,-0.14895683526992798,-0.6923627257347107,4.898741245269775,-1.6773537397384644,0.21858370304107666,13.639322280883789,2.582120656967163,25.395498275756836,0.12062983959913254,0.8115178346633911,0.4576861262321472,5.408759117126465,-0.315616250038147,0.3273584246635437,0.41967087984085083,0.7078579664230347,0.42000001668930054,-0.3215098977088928,-0.05525503307580948,-0.971849799156189,-2.999999761581421,-0.23904459178447723,-0.2187049835920334,-0.19666688144207,-0.17454124987125397,-0.3677486777305603,-0.2910020053386688,-0.2228236049413681,-0.17350473999977112
0.5,0.052193861454725266,0.0007221083506010473,0.0,0.7310344576835632,0.0,0.0,-0.6823405027389526,0.24083732068538666,0.10327772796154022,0.0,0.0,0.0,-0.938250720500946,0.20669253170490265,0.7861296534538269,0.45823901891708374,0.6359652280807495,0.04850595444440842,-0.13544051349163055,-0.75818932056427,4.50674295425415,-0.8137549757957458,-0.02259388007223606,-0.48167985677719116,0.5821359157562256,-7.480743885040283,0.20210738480091095,0.800848126411438,0.45862722396850586,4.526076316833496,-0.9700282216072083,-0.08752622455358505,0.41967087984085083,0.7078579664230347,0.42000001668930054,-0.32331353425979614,0.058415986597537994,-1.0218729972839355,-3.0000014305114746,-0.23981048166751862,-0.22272151708602905,-0.20015212893486023,-0.17777326703071594,0.0640745535492897,-0.1604156643152237,-0.16498665511608124,-0.18473705649375916
0.5166666666666666,0.05348755791783333,-0.004250694531947374,0.0,0.7101249098777771,0.0,0.0,-0.7040756940841675,0.009431041777133942,-0.43352198600769043,0.0,0.0,0.0,-4.6275248527526855,0.27697432041168213,0.772400975227356,0.4509677290916443,0.5880181789398193,0.03408844396471977,-0.12863919138908386,-0.7978249192237854,3.869518280029297,-0.9747700095176697,-0.6011441349983215,1.517694354057312,2.5986602306365967,-5.923764228820801,0.272960364818573,0.7863074541091919,0.4523721933364868,3.969780921936035,-0.9818280935287476,-0.5565631985664368,0.41967087984085083,0.7078579664230347,0.42000001668930054,-0.31284186244010925,1.1232887506484985,-1.0718951225280762,-2.999758243560791,-0.23190729320049286,-0.21932439506053925,-0.19832733273506165,-0.17762282490730286,0.6257297992706299,0.35778185725212097,0.2220739871263504,0.08242501318454742
0.5333333333333333,0.057682961225509644,-0.005723272450268269,0.0,0.7004274129867554,0.0,0.0,-0.7137236595153809,0.34803396463394165,0.03544824197888374,0.0,0.0,0.0,-0.6563146710395813,0.3349223732948303,0.752189040184021,0.4397120177745819,0.5445176362991333,0.015259201638400555,-0.11700030416250229,-0.8304086327552795,3.075521469116211,-1.7140259742736816,-0.5216269493103027,-3.554175853729248,5.612460136413574,0.5311252474784851,0.3324248194694519,0.7653743028640747,0.441926509141922,3.179628849029541,-1.4163352251052856,-0.7421880960464478,0.41967087984085083,0.7078579664230347,0.42000001668930054,-0.2916257381439209,1.0711499452590942,-1.1219172477722168,-2.998812437057495,-0.22740255296230316,-0.21764539182186127,-0.1981004923582077,-0.1790759265422821,0.19158166646957397,0.05294973403215408,-0.04062090441584587,-0.14878147840499878
0.55,0.06330995261669159,-0.009431824088096619,0.0,0.6836354732513428,0.0,0.0,-0.7298235893249512,0.38454121351242065,-0.2067345827817917,0.0,0.0,0.0,-3.3839190006256104,0.37793296575546265,0.7346556782722473,0.42527177929878235,0.5270869731903076,-0.004782677628099918,-0.10222547501325607,-0.843626856803894,1.5497719049453735,-1.3276532888412476,-0.15858449041843414,1.9571603536605835,13.51945972442627,6.729729175567627,0.3754975497722626,0.7471902370452881,0.4277665317058563,1.7041449546813965,-0.8270777463912964,-0.18816955387592316,0.41967087984085083,0.7078579664230347,0.42000001668930054,-0.2811996638774872,0.21087460219860077,-1.172027349472046,-2.989499568939209,-0.2207966446876526,-0.2139185070991516,-0.19686546921730042,-0.18038736283779144,0.16070598363876343,0.05611705034971237,-0.050790514796972275,-0.1609538197517395
0.5666666666666667,0.06692022830247879,-0.010384466499090195,0.0,0.6816511750221252,0.0,0.0,-0.7316772937774658,0.1513756513595581,-0.0012778679374605417,0.0,0.0,0.0,0.48791924118995667,0.39941298961639404,0.7215821743011475,0.4243045747280121,0.5260013937950134,-0.02098427526652813,-0.07839799672365189,-0.8466025590896606,0.9241861701011658,-0.8593477010726929,-0.022891761735081673,10.512767791748047,9.059901237487793,-0.5436369776725769,0.3963606357574463,0.7333712577819824,0.4279705584049225,0.9915186166763306,-0.8590783476829529,-0.09894265234470367,0.41967087984085083,0.7078579664230347,0.42000001668930054,-0.27642562985420227,0.4478250741958618,-1.2220494747161865,-2.997772455215454,-0.21782547235488892,-0.21257084608078003,-0.19745410978794098,-0.18285612761974335,0.22920016944408417,0.13357113301753998,0.001877160626463592,-0.1235852837562561
0.5833333333333334,0.07132826745510101,-0.012042593210935593,0.0,0.6692016124725342,0.0,0.0,-0.7430808544158936,0.31510648131370544,-0.12581337988376617,0.0,0.0,0.0,-2.881237268447876,0.4124564528465271,0.7149195671081543,0.42143189907073975,0.5028679370880127,-0.013391323387622833,-0.023127229884266853,-0.8639500141143799,0.4133624732494354,-0.3400571048259735,-0.033732809126377106,0.7041374444961548,1.4829312562942505,-6.049561500549316,0.4074093699455261,0.7242305278778076,0.42346182465553284,0.2865299880504608,-0.2828996479511261,0.030866894870996475,0.41967087984085083,0.7078579664230347,0.42000001668930054,-0.2608535885810852,1.4137216806411743,-1.1913832426071167,2.9985833168029785,-0.21159245073795319,-0.20838196575641632,-0.1960718035697937,-0.18405739963054657,0.3481093943119049,0.24759985506534576,0.09111234545707703,-0.05010417476296425
0.6,0.07658065110445023,-0.011595265008509159,0.0,0.6700156927108765,0.0,0.0,-0.7423469424247742,0.3437739908695221,0.09106751531362534,0.0,0.0,0.0,0.9905338883399963,0.41545891761779785,0.7112552523612976,0.4207814335823059,0.5484142303466797,-0.012784897349774837,0.002538403496146202,-0.8361051082611084,0.16703200340270996,-0.31843167543411255,-0.07453233748674393,6.060855388641357,-0.8580338358879089,-1.4184658527374268,0.4114082455635071,0.7180393934249878,0.4239659905433655,0.08724862337112427,-0.3018215298652649,0.12417522817850113,0.41967087984085083,0.7078579664230347,0.42000001668930054,-0.2827894687652588,-2.999408006668091,-1.212971806526184,-2.999966859817505,-0.20639273524284363,-0.20477233827114105,-0.19508866965770721,-0.1854059249162674,0.32345667481422424,0.22857101261615753,0.06550148874521255,-0.0788986086845398
0.6166666666666667,0.08352705836296082,-0.007806164678186178,0.0,0.6597781777381897,0.0,0.0,-0.7514603734016418,0.4544064700603485,0.28367674350738525,0.0,0.0,0.0,-2.594569683074951,0.4172671139240265,0.7074266076087952,0.42000019550323486,0.5591824650764465,-2.8194829155836487e-06,-3.6876406284136465e-06,-0.8290445804595947,0.08460977673530579,-0.18371564149856567,-7.850275142118335e-05,0.004890881944447756,0.0027184877544641495,1.8657764196395874,0.41267120838165283,0.7178479433059692,0.4265521168708801,0.121148481965065,0.10756237804889679,0.1820676475763321,0.41967087984085083,0.7078579664230347,0.42000001668930054,-0.32674846053123474,-2.3224005699157715,-1.2629252672195435,-2.9987263679504395,-0.19832010567188263,-0.19916561245918274,-0.1929815709590912,-0.1863061785697937,0.5847132802009583,0.4195055067539215,0.19237078726291656,-0.0024252505972981453
0.6333333333333333,0.09277316927909851,-0.008667034097015858,0.0,0.661504864692688,0.0,0.0,-0.7499408721923828,0.5285537838935852,-0.08012159913778305,0.0,0.0,0.0,1.1751030683517456,0.41825196146965027,0.7052879929542542,0.4200000464916229,0.5672192573547363,-3.094892804256233e-07,3.6030075989401666e-07,-0.8235668540000916,0.0506286658346653,-0.10982504487037659,-1.1323252692818642e-05,-0.000346851214999333,-0.0005888768937438726,0.953011691570282,0.4127234220504761,0.719568133354187,0.4298015832901001,-0.1011001318693161,0.06705999374389648,0.21818411350250244,0.41967087984085083,0.7078579664230347,0.42000001668930054,-0.3762120306491852,-2.999922037124634,-1.3129161596298218,-2.9995524883270264,-0.18565253913402557,-0.1892768293619156,-0.18694479763507843,-0.18362364172935486,0.6500818729400635,0.5314447283744812,0.3432908356189728,0.1772426962852478
0.65,0.10423624515533447,-0.005582823883742094,0.0,0.6851428747177124,0.0,0.0,-0.728408694267273,0.7242915630340576,0.1792232096195221,0.0,0.0,0.0,4.64042854309082,0.4179198741912842,0.7041547298431396,0.4200000464916229,0.5802987217903137,-3.4178160035480687e-07,2.8104096827519243e-07,-0.8144037127494812,-0.0032944336999207735,-0.04413790628314018,-3.654754209492239e-06,8.047145092859864e-05,0.0001675812527537346,0.7762476801872253,0.41149285435676575,0.7192635536193848,0.43365293741226196,-0.013611119240522385,0.0550273098051548,0.28228870034217834,0.41967087984085083,0.7078579664230347,0.42000001668930054,-0.4262141287326813,-2.9993770122528076,-1.3628944158554077,-2.9998350143432617,-0.17886726558208466,-0.18330496549606323,-0.18285860121250153,-0.18106593191623688,0.48419469594955444,0.43605753779411316,0.33330237865448,0.25738656520843506
0.6666666666666666,0.11565452069044113,-0.005900410935282707,0.0,0.6947585940361023,0.0,0.0,-0.7192429900169373,0.6875600814819336,-0.0806267186999321,0.0,0.0,0.0,0.5461770296096802,0.4179132580757141,0.7040987610816956,0.4200000464916229,0.5805648565292358,1.5464937632714282e-06,-7.012420724095136e-07,-0.8142139315605164,0.00012550254177767783,1.1431926395744085e-05,-6.91970344632864e-05,-0.001371457939967513,0.0002892348275054246,-0.0003635643806774169,0.4117366671562195,0.7206499576568604,0.43904566764831543,0.018889684230089188,0.02824580669403076,0.3257407546043396,0.41967087984085083,0.7078579664230347,0.42000001668930054,-0.47621721029281616,-2.999960422515869,-1.4128882884979248,-2.9999303817749023,-0.1723901629447937,-0.17682811617851257,-0.177208811044693,-0.17582769691944122,0.32498109340667725,0.36147457361221313,0.3516242206096649,0.36361265182495117
0.6833333333333333,0.128153994679451,-0.00994307640939951,0.0,0.6822965145111084,0.0,0.0,-0.7310755252838135,0.7818654775619507,-0.3137788772583008,0.0,0.0,0.0,-2.9667036533355713,0.41791319847106934,0.7040989398956299,0.4200000464916229,0.5805650353431702,2.8865588319604285e-07,-3.2833822842803784e-06,-0.8142138719558716,0.0001035891255014576,-0.00026360349147580564,-8.929264731705189e-05,0.006250430829823017,-0.0014693139819428325,-0.0006823425646871328,0.41730839014053345,0.7230491638183594,0.4505499601364136,0.6135615110397339,0.20621353387832642,1.1426345109939575,0.41967087984085083,0.7078579664230347,0.42000001668930054,-0.5262297987937927,-2.999979019165039,-1.4629065990447998,-2.9999990463256836,-0.16906718909740448,-0.1725936084985733,-0.17275255918502808,-0.17081671953201294,0.1325891613960266,0.20029997825622559,0.23047873377799988,0.278221994638443
0.7,0.14411093294620514,-0.008960948325693607,0.0,0.6476220488548279,0.0,0.0,-0.7619617581367493,0.9183115363121033,0.04496430978178978,0.0,0.0,0.0,-6.398068904876709,0.41791319847106934,0.7040989995002747,0.4200000464916229,0.5805652141571045,3.694478039051319e-07,-3.1338081498688553e-06,-0.814213752746582,0.00010359001316828653,-0.0002662793267518282,-8.920463733375072e-05,0.0063237762078642845,-0.001476213801652193,-0.0006855468382127583,0.43617480993270874,0.7228283882141113,0.47547122836112976,1.7354254722595215,-0.04674101993441582,1.9349136352539062,0.41967087984085083,0.7078579664230347,0.42000001668930054,-0.5762419700622559,-2.999980926513672,-1.5129249095916748,-3.000000238418579,-0.17426659166812897,-0.17534278333187103,-0.17368103563785553,-0.16977980732917786,-0.2067151963710785,-0.0872359499335289,0.002976356539875269,0.10466566681861877
0.7166666666666667,0.1562725156545639,-0.005918542388826609,0.0,0.6264545917510986,0.0,0.0,-0.7794579267501831,0.6763831377029419,0.15726430714130402,0.0,0.0,0.0,-2.1794211864471436,0.41791319847106934,0.7040989995002747,0.4200000464916229,0.5805650353431702,1.4110915458331874e-07,-3.0814110232313396e-06,-0.8142138123512268,9.780188702279702e-05,-0.0002693526621442288,-8.787750266492367e-05,0.0064336638897657394,-0.001558127230964601,-0.0006768975872546434,0.4632198214530945,0.7254259586334229,0.5096250772476196,1.5396770238876343,0.35614731907844543,2.107255458831787,0.41967087984085083,0.7078579664230347,0.42000001668930054,-0.5961843729019165,0.3344874083995819,-1.5629432201385498,-2.999999523162842,-0.17695412039756775,-0.17664669454097748,-0.17410509288311005,-0.16924266517162323,0.006389879621565342,0.026405207812786102,0.018085680902004242,0.012506778351962566
0.7333333333333333,0.16411317884922028,-0.0017515885410830379,0.0,0.6307061910629272,0.0,0.0,-0.7760217189788818,0.39638885855674744,0.29364585876464844,0.0,0.0,0.0,1.5371111631393433,0.41791319847106934,0.7040989995002747,0.4200000464916229,0.5805650949478149,3.930958598630241e-07,-3.261500978624099e-06,-0.8142138123512268,0.00010251440107822418,-0.0002665505453478545,-8.897949010133743e-05,0.006337291095405817,-0.0014898465014994144,-0.0006833325605839491,0.4836216866970062,0.7317694425582886,0.5393620729446411,0.8545337319374084,0.40547141432762146,1.5126532316207886,0.41967087984085083,0.7078579664230347,0.42000001668930054,-0.5690189599990845,2.69619083404541,-1.5240349769592285,3.0000016689300537,-0.17553997039794922,-0.17503821849822998,-0.17273464798927307,-0.16812247037887573,0.14736343920230865,0.15344496071338654,0.13427989184856415,0.11015067249536514
0.75,0.16779319941997528,-0.001973045291379094,0.0,0.6236860156059265,0.0,0.0,-0.7816749811172485,0.19735804200172424,-0.07136863470077515,0.0,0.0,0.0,-1.9666423797607422,0.41791319847106934,0.7040989398956299,0.4200000464916229,0.5805647373199463,3.532292112140567e-07,-3.1695381039753556e-06,-0.8142139911651611,0.00010585635754978284,-0.0002653394767548889,-8.970685303211212e-05,0.006288475356996059,-0.0014441850362345576,-0.0006890176446177065,0.49040645360946655,0.7386220693588257,0.5576657056808472,-0.06502075493335724,0.31205347180366516,0.843471109867096,0.41967087984085083,0.7078579664230347,0.42000001668930054,-0.5430227518081665,0.5851582288742065,-1.4739785194396973,3.0000007152557373,-0.17083922028541565,-0.17046204209327698,-0.16868236660957336,-0.16472981870174408,0.1954384446144104,0.21438013017177582,0.20739947259426117,0.1854482889175415
0.7666666666666666,0.1684093475341797,0.0028274378273636103,0.0,0.6292954683303833,0.0,0.0,-0.7771661281585693,-0.017757540568709373,0.4262482225894928,0.0,0.0,0.0,1.7498502731323242,0.41791319847106934,0.7040989398956299,0.4200000464916229,0.5805650949478149,3.788345566135831e-07,-3.391688778719981e-06,-0.814213752746582,0.00010488917178008705,-0.0002660294412635267,-8.95494595170021e-05,0.006310092750936747,-0.0014611044898629189,-0.0006881995359435678,0.48410823941230774,0.742080807685852,0.5678958892822266,-0.6383260488510132,0.21539464592933655,0.42208296060562134,0.41967087984085083,0.7078579664230347,0.42000001668930054,-0.5143898725509644,2.6483070850372314,-1.4407320022583008,1.1240227222442627,-0.17284902930259705,-0.17101888358592987,-0.16830241680145264,-0.16383928060531616,-0.1713639497756958,-0.0775490403175354,-0.014497528783977032,0.019816137850284576
0.7833333333333333,0.16681566834449768,0.004321604501456022,0.0,0.6234815120697021,0.0,0.0,-0.7818381190299988,-0.16438649594783783,0.06461258232593536,0.0,0.0,0.0,-1.6381819248199463,0.41791319847106934,0.7040989995002747,0.4200000464916229,0.5805651545524597,3.4544777349765354e-07,-3.2446239401906496e-06,-0.814213752746582,0.00010421744082123041,-0.0002662719052750617,-8.937506936490536e-05,0.006319962441921234,-0.0014695519348606467,-0.0006869937642477453,0.4680246114730835,0.7442588806152344,0.5683833360671997,-1.3430042266845703,0.013449065387248993,-0.16763578355312347,0.41967087984085083,0.7078579664230347,0.42000001668930054,-0.507693350315094,-1.4931670427322388,-1.3915549516677856,3.0,-0.1732611507177353,-0.17036843299865723,-0.16701465845108032,-0.16234524548053741,-0.0753076821565628,-0.0027922475710511208,0.04574475809931755,0.06717967242002487
0.8,0.16679103672504425,0.005587239749729633,0.0,0.6303901672363281,0.0,0.0,-0.7762784361839294,0.043951913714408875,0.030311211943626404,0.0,0.0,0.0,1.7531349658966064,0.41791319847106934,0.7040989995002747,0.4200000464916229,0.5805650353431702,3.8114325207061484e-07,-3.248516804887913e-06,-0.8142138719558716,0.00010248484613839537,-0.0002665526117198169,-8.898717351257801e-05,0.0063373320735991,-0.00149065931327641,-0.0006833132938481867,0.45043325424194336,0.7457460761070251,0.5649502277374268,-0.7752397656440735,0.21959203481674194,-0.21225306391716003,0.41967087984085083,0.7078579664230347,0.42000001668930054,-0.5090465545654297,1.1068933010101318,-1.4098352193832397,-2.999999761581421,-0.17475773394107819,-0.17076236009597778,-0.16658177971839905,-0.1614496409893036,0.029336806386709213,0.059279218316078186,0.08173568546772003,0.09024518728256226
0.8166666666666667,0.16892555356025696,0.0038144304417073727,0.0,0.6249873042106628,0.0,0.0,-0.7806349396705627,0.17485597729682922,-0.16930778324604034,0.0,0.0,0.0,-1.6661158800125122,0.41791319847106934,0.7040989995002747,0.4200000464916229,0.5805650353431702,3.943610522583185e-07,-3.2491402635059785e-06,-0.814213752746582,0.00010240293340757489,-0.00026647845515981317,-8.894247002899647e-05,0.006336169317364693,-0.0014905048301443458,-0.0006829645717516541,0.44001930952072144,0.747220516204834,0.5586795806884766,-0.43979209661483765,-0.012987330555915833,-0.3401573598384857,0.41967087984085083,0.7078579664230347,0.42000001668930054,-0.5328090786933899,-3.0000014305114746,-1.371364951133728,2.999999761581421,-0.1753215491771698,-0.17068982124328613,-0.1658828854560852,-0.16027218103408813,-0.03991790860891342,0.0022399614099413157,0.048567745834589005,0.08970417827367783
0.8333333333333334,0.17395277321338654,0.0003423401212785393,0.0,0.5989280343055725,0.0,0.0,-0.8008028864860535,0.35056522488594055,-0.2763891816139221,0.0,0.0,0.0,-4.920803546905518,0.41791319847106934,0.7040989398956299,0.4200000464916229,0.5805647969245911,3.451916938956856e-07,-3.1594584015692817e-06,-0.8142140507698059,0.0001048851918312721,-0.0002650570240803063,-8.95035918802023e-05,0.006286920513957739,-0.0014543574070557952,-0.0006863241433165967,0.43926382064819336,0.7434425354003906,0.5534509420394897,0.3681913912296295,-0.41018372774124146,-0.12990827858448029,0.41967087984085083,0.7078579664230347,0.42000001668930054,-0.5828145742416382,-2.9997024536132812,-1.3900322914123535,-2.9999935626983643,-0.17798900604248047,-0.17230090498924255,-0.16629812121391296,-0.1595277488231659,-0.2001696228981018,-0.12327568978071213,-0.03534860908985138,0.052121601998806
0.85,0.18148942291736603,-0.0011847574496641755,0.0,0.5884840488433838,0.0,0.0,-0.8085088133811951,0.4886021018028259,-0.013086691498756409,0.0,0.0,0.0,-0.539604663848877,0.41791319847106934,0.7040989398956299,0.4200000464916229,0.5805651545524597,3.7108441119926283e-07,-3.3809310480137356e-06,-0.8142138123512268,0.00010488002590136603,-0.00026603235164657235,-8.954480290412903e-05,0.0063101304695010185,-0.0014612468658015132,-0.0006881824228912592,0.44516825675964355,0.740444004535675,0.5534204244613647,0.3188636600971222,-0.05047501623630524,0.08486469835042953,0.41967087984085083,0.7078579664230347,0.42000001668930054,-0.6022994518280029,0.3762635588645935,-1.4400506019592285,-3.0000007152557373,-0.18041975796222687,-0.17426414787769318,-0.1676008403301239,-0.1601572334766388,-0.08137486129999161,-0.091791532933712,-0.0926784798502922,-0.09371493756771088
0.8666666666666667,0.18593324720859528,-0.003025978570804,0.0,0.6030385494232178,0.0,0.0,-0.7977120280265808,0.23965677618980408,-0.05392807722091675,0.0,0.0,0.0,2.9661972522735596,0.41791319847106934,0.7040989995002747,0.4200000464916229,0.5805651545524597,3.6562406080520304e-07,-3.2332252430933295e-06,-0.8142136931419373,0.00010416263103252277,-0.0002662226324900985,-8.936156518757343e-05,0.006319053471088409,-0.001469961367547512,-0.0006868027267046273,0.45178091526031494,0.7423621416091919,0.551857590675354,0.40067484974861145,0.10819461941719055,-0.26623010635375977,0.41967087984085083,0.7078579664230347,0.42000001668930054,-0.5890837907791138,1.1319434642791748,-1.4014904499053955,3.000000476837158,-0.1779441088438034,-0.1726149320602417,-0.16661374270915985,-0.15980938076972961,0.06860887259244919,0.03985745459794998,0.01583811454474926,-0.011691666208207607
0.8833333333333333,0.1873367428779602,-0.007469129748642445,0.0,0.603361189365387,0.0,0.0,-0.7974680066108704,0.031105419620871544,-0.28252801299095154,0.0,0.0,0.0,-0.7613014578819275,0.41791319847106934,0.7040989995002747,0.4200000464916229,0.5805650353431702,1.4064718811823695e-07,-3.1855388442636468e-06,-0.8142138719558716,9.824262815527618e-05,-0.0002693021378945559,-8.798041380941868e-05,0.006429932080209255,-0.0015527562936767936,-0.0006778136594220996,0.4574456214904785,0.7409254312515259,0.5435324907302856,0.22995644807815552,-0.2369101643562317,-0.5411344170570374,0.41967087984085083,0.7078579664230347,0.42000001668930054,-0.6050373911857605,-2.70269775390625,-1.3514378070831299,2.9999992847442627,-0.17687715590000153,-0.17196013033390045,-0.16630715131759644,-0.1599167436361313,-0.013594637624919415,-0.021387070417404175,-0.027921974658966064,-0.04074883833527565
