vladlanda/robotic-transformer/data/env_000_episode_0281.csv
sim_time_s,robot_box_x,robot_box_y,robot_box_z,robot_box_quat_w,robot_box_quat_x,robot_box_quat_y,robot_box_quat_z,robot_box_linvel_x,robot_box_linvel_y,robot_box_linvel_z,robot_box_angvel_x,robot_box_angvel_y,robot_box_angvel_z,cube_world_x,cube_world_y,cube_world_z,cube_quat_w,cube_quat_x,cube_quat_y,cube_quat_z,cube_linvel_x,cube_linvel_y,cube_linvel_z,cube_angvel_x,cube_angvel_y,cube_angvel_z,endpoint_world_x,endpoint_world_y,endpoint_world_z,endpoint_linvel_x,endpoint_linvel_y,endpoint_linvel_z,target_cube_world_x,target_cube_world_y,target_cube_world_z,gripper_actual_pos_rad_gp_leftgearjoint,gripper_actual_vel_rad_s_gp_leftgearjoint,gripper_actual_pos_rad_gp_rotatingjoint,gripper_actual_vel_rad_s_gp_rotatingjoint,motor_angle_rad_joint1,motor_angle_rad_joint2,motor_angle_rad_joint3,motor_angle_rad_joint4,motor_speed_rad_s_joint1,motor_speed_rad_s_joint2,motor_speed_rad_s_joint3,motor_speed_rad_s_joint4
0.0,0.0,0.0,0.0,1.0,0.0,0.0,0.0,0.0,0.0,0.0,0.0,0.0,0.0,-0.3510270118713379,0.6745765805244446,0.41999998688697815,1.0,0.0,0.0,0.0,0.0,0.0,0.0,0.0,0.0,0.0,3.42540442943573e-06,-0.005000244826078415,1.313499927520752,0.0,0.0,0.0,0.4250752925872803,0.7192751169204712,0.42000001668930054,-1.5707999467849731,0.0,0.0,0.0,0.0,0.0,0.0,0.0,0.0,0.0,0.0,0.0
0.016666666666666666,0.002904942026361823,0.0020821630023419857,0.0,0.999914824962616,0.0,0.0,0.013052433729171753,0.24172967672348022,0.1795225590467453,0.0,0.0,0.0,2.6395161151885986,-0.35102713108062744,0.6745762825012207,0.41999998688697815,1.0,3.2799905511637917e-06,-8.339794135281409e-07,8.465515577427141e-08,-1.9833774786093272e-05,0.00017983047291636467,-6.132945418357849e-05,0.0009432245860807598,-0.004689525347203016,-0.00031981084612198174,-0.007083112373948097,0.0035477846395224333,1.3159457445144653,-0.8120496273040771,0.993008553981781,0.18089990317821503,0.4250752925872803,0.7192751169204712,0.42000001668930054,-1.5301095247268677,3.000002145767212,-0.0458567813038826,-3.000001907348633,0.0008791302680037916,0.0008052540360949934,0.0007195574580691755,0.0006187429535202682,0.1109657883644104,0.09760452061891556,0.08337482064962387,0.06827165931463242
0.03333333333333333,0.008734431117773056,0.006634928751736879,0.0,0.9999394416809082,0.0,0.0,0.011006304062902927,0.4017060101032257,0.3108155131340027,0.0,0.0,0.0,-1.146322250366211,-0.351027250289917,0.6745762228965759,0.4200000464916229,1.0,3.3908531804627273e-06,-2.132488134520827e-06,-3.710428941872124e-08,0.0002635785494931042,0.0002693783608265221,-0.00010509602725505829,-0.0017707846127450466,0.004130862653255463,-0.00013547409616876394,-0.027208972722291946,0.02670499123632908,1.316505789756775,-1.562375545501709,1.6504325866699219,-0.08728272467851639,0.4250752925872803,0.7192751169204712,0.42000001668930054,-1.4800902605056763,3.000000476837158,-0.09589660912752151,-3.0000011920928955,0.0029009399004280567,0.002567502437159419,0.002196670975536108,0.0017840414075180888,0.1628502905368805,0.13828976452350616,0.11223620176315308,0.08463210612535477
0.05,0.018138179555535316,0.013691570609807968,0.0,0.9998319745063782,0.0,0.0,-0.01833079196512699,0.6292317509651184,0.46967145800590515,0.0,0.0,0.0,-4.342123985290527,-0.3510272800922394,0.6745762825012207,0.4200000464916229,1.0,3.7651284401363228e-06,-2.2118861124909017e-06,5.622759147172474e-09,0.00026530996547080576,0.00026691515813581645,-0.00010440382175147533,-0.00172425655182451,0.004177390597760677,-0.00012948956282343715,-0.05626562610268593,0.058461420238018036,1.3117897510528564,-1.9075229167938232,2.0957188606262207,-0.4597660303115845,0.4250752925872803,0.7192751169204712,0.42000001668930054,-1.4300719499588013,2.9999992847442627,-0.14592431485652924,-3.0000007152557373,0.0058869654312729836,0.005048816092312336,0.004138807766139507,0.0031519276089966297,0.20468029379844666,0.1641044020652771,0.12161612510681152,0.07716129720211029
0.06666666666666667,0.0304546020925045,0.02315542660653591,0.0,0.9995847344398499,0.0,0.0,-0.0288164671510458,0.7723294496536255,0.6143885254859924,0.0,0.0,0.0,-0.25345900654792786,-0.3510272800922394,0.6745762228965759,0.4200000464916229,0.9999999403953552,3.406727046240121e-06,-2.285541313540307e-06,4.300959517422598e-07,0.0002670243557076901,0.00026791688287630677,-0.00010437681339681149,-0.0017406673869118094,0.004211694002151489,-0.00012850009079556912,-0.09200455248355865,0.09256495535373688,1.3012548685073853,-2.2281863689422607,2.166985273361206,-0.7961437702178955,0.4250752925872803,0.7192751169204712,0.42000001668930054,-1.380043625831604,3.0000011920928955,-0.126895472407341,3.000000476837158,0.00849301740527153,0.006898039020597935,0.005191045813262463,0.0033666177187114954,0.13695946335792542,0.08247097581624985,0.025841809809207916,-0.03296724334359169
0.08333333333333333,0.045265913009643555,0.030843554064631462,0.0,0.9985976219177246,0.0,0.0,-0.052940890192985535,0.962864875793457,0.36740341782569885,0.0,0.0,0.0,-3.7085442543029785,-0.3510272800922394,0.6745762228965759,0.4200000464916229,0.9999999403953552,3.626046236604452e-06,-2.3352185962721705e-06,3.032309905393049e-07,0.0002661395992618054,0.00026685046032071114,-0.00010405178181827068,-0.001728326897136867,0.004196362104266882,-0.0001279068528674543,-0.1241896003484726,0.1329362988471985,1.2878236770629883,-1.6718324422836304,2.6699037551879883,-0.8161038160324097,0.4250752925872803,0.7192751169204712,0.42000001668930054,-1.330039620399475,3.000000476837158,-0.15883731842041016,-3.0000014305114746,0.009352551773190498,0.0065693845972418785,0.0036316378973424435,0.0005339305498637259,0.003600310767069459,-0.08496861159801483,-0.1758391112089157,-0.2688785493373871
0.1,0.05431969836354256,0.04047181084752083,0.0,0.9942606687545776,0.0,0.0,-0.10698489844799042,0.4034358263015747,0.6629765033721924,0.0,0.0,0.0,-7.472226142883301,-0.3510272800922394,0.6745762228965759,0.4200000464916229,1.0,3.4220856832689606e-06,-2.308508555870503e-06,1.796387323338422e-07,0.0002668147790245712,0.0002680039615370333,-0.00010440708138048649,-0.001743073109537363,0.0042070988565683365,-0.00012890923244412988,-0.15328966081142426,0.1802169531583786,1.2694275379180908,-1.7703818082809448,3.0055627822875977,-1.3043968677520752,0.4250752925872803,0.7192751169204712,0.42000001668930054,-1.280023455619812,2.999992609024048,-0.12526649236679077,3.0000009536743164,0.002802070463076234,-0.0008261778857558966,-0.00466297660022974,-0.008716167882084846,-0.5146176218986511,-0.5560706853866577,-0.6001269817352295,-0.6470280289649963
0.11666666666666667,0.05788232758641243,0.0522809736430645,0.0,0.9899985790252686,0.0,0.0,-0.14107725024223328,0.2031499147415161,0.6547275185585022,0.0,0.0,0.0,-2.810549020767212,-0.3510272800922394,0.6745762825012207,0.4200000464916229,1.0,3.7115089526196243e-06,-2.3326181235461263e-06,2.574328163973405e-07,0.00026485760463401675,0.0002663538616616279,-0.00010423408821225166,-0.001718149520456791,0.0041700140573084354,-0.00012915405386593193,-0.1891568899154663,0.22470994293689728,1.2460615634918213,-2.20698881149292,2.7412314414978027,-1.4448981285095215,0.4250752925872803,0.7192751169204712,0.42000001668930054,-1.2300325632095337,2.9999992847442627,-0.15717971324920654,-3.000000238418579,-0.005988718941807747,-0.010513665154576302,-0.01525498554110527,-0.020223980769515038,-0.4168139696121216,-0.4910774230957031,-0.563660740852356,-0.6346497535705566
0.13333333333333333,0.07027359306812286,0.0596754252910614,0.0,0.9826820492744446,0.0,0.0,-0.18529976904392242,0.9185119271278381,0.35271793603897095,0.0,0.0,0.0,-6.291224956512451,-0.3510272800922394,0.6745762228965759,0.4200000464916229,0.9999999403953552,3.4247336770931724e-06,-2.301910399182816e-06,1.5600640779211972e-07,0.0002670715330168605,0.00026811304269358516,-0.0001044438686221838,-0.0017433013999834657,0.004212083760648966,-0.00012877254630438983,-0.2215442955493927,0.27798447012901306,1.2201651334762573,-1.6492230892181396,3.65792179107666,-1.7190706729888916,0.4250752925872803,0.7192751169204712,0.42000001668930054,-1.1800161600112915,2.999999523162842,-0.17334049940109253,0.7506892085075378,-0.005533292423933744,-0.012256474234163761,-0.019106969237327576,-0.026093365624547005,0.09163785725831985,-0.04676516354084015,-0.1793300062417984,-0.3058111071586609
0.15,0.07922061532735825,0.06530269980430603,0.0,0.978114664554596,0.0,0.0,-0.2080666422843933,0.47084277868270874,0.2770397365093231,0.0,0.0,0.0,-1.6360307931900024,-0.3510272800922394,0.6745762228965759,0.4200000464916229,1.0,3.7139102460059803e-06,-2.207734723924659e-06,-1.690771540552305e-07,0.0002635330893099308,0.0002653599367477,-0.00010421965271234512,-0.0017012956086546183,0.004144070204347372,-0.00012960158346686512,-0.2549813985824585,0.33497804403305054,1.182651400566101,-1.9801102876663208,3.505497932434082,-2.6243484020233154,0.4250752925872803,0.7192751169204712,0.42000001668930054,-1.1425611972808838,1.5876526832580566,-0.12606503069400787,3.0000007152557373,-0.012277906760573387,-0.02001994289457798,-0.027845893055200577,-0.03576628118753433,-0.4641379117965698,-0.5067692399024963,-0.5468255281448364,-0.5845276117324829
0.16666666666666666,0.08321430534124374,0.0737328827381134,0.0,0.9704388380050659,0.0,0.0,-0.24134719371795654,0.21423709392547607,0.4612995386123657,0.0,0.0,0.0,-4.682665824890137,-0.3510272800922394,0.6745762228965759,0.4200000464916229,0.9999999403953552,3.638394900917774e-06,-2.2786573481425876e-06,2.7008260872207757e-07,0.00026682819589041173,0.00026750031975097954,-0.00010410277172923088,-0.0017399706412106752,0.004210254643112421,-0.0001278170384466648,-0.28616735339164734,0.39632534980773926,1.1325559616088867,-1.7332711219787598,3.870520830154419,-3.2449140548706055,0.4250752925872803,0.7192751169204712,0.42000001668930054,-1.0955184698104858,3.0000009536743164,-0.15800920128822327,-3.0000007152557373,-0.023841492831707,-0.031861670315265656,-0.039928536862134933,-0.048060767352581024,-0.6066425442695618,-0.6383364796638489,-0.665856122970581,-0.6894600987434387
0.18333333333333332,0.09216862171888351,0.08286478370428085,0.0,0.9539400935173035,0.0,0.0,-0.2999972105026245,0.6482399702072144,0.5854910612106323,0.0,0.0,0.0,-8.23122787475586,-0.3510272800922394,0.6745762228965759,0.4200000464916229,1.0,3.3864457691379357e-06,-2.30015280067164e-06,1.4395375558251544e-07,0.00026674618129618466,0.0002678719174582511,-0.00010436843149363995,-0.0017412154702469707,0.004206051118671894,-0.0001287856139242649,-0.3126527667045593,0.46605363488197327,1.070176362991333,-1.264603614807129,4.400541305541992,-4.172223091125488,0.4250752925872803,0.7192751169204712,0.42000001668930054,-1.0455154180526733,2.999999523162842,-0.2080366164445877,-2.9999988079071045,-0.03239436447620392,-0.04093756154179573,-0.049452897161245346,-0.057963866740465164,-0.5250185132026672,-0.5420656204223633,-0.5552965998649597,-0.5650361776351929
0.2,0.09752501547336578,0.08953429758548737,0.0,0.940337598323822,0.0,0.0,-0.34024283289909363,0.3084098696708679,0.35832148790359497,0.0,0.0,0.0,-3.79764723777771,-0.3510272800922394,0.6745762825012207,0.4200000464916229,1.0,3.675527068480733e-06,-2.326378989891964e-06,2.2116010711670242e-07,0.00026484543923288584,0.0002663143095560372,-0.00010421895422041416,-0.0017176928231492639,0.004169886466115713,-0.0001290956570301205,-0.3357669711112976,0.5308447480201721,0.9914255738258362,-1.006896734237671,3.8917477130889893,-5.163866996765137,0.4250752925872803,0.7192751169204712,0.42000001668930054,-0.9955085515975952,2.999907970428467,-0.2580639123916626,-3.0000011920928955,-0.046391282230615616,-0.05447390675544739,-0.06252527981996536,-0.07028599828481674,-0.754706859588623,-0.7841216921806335,-0.8086666464805603,-0.7802031636238098
0.21666666666666667,0.09915220737457275,0.09754835814237595,0.0,0.9382057189941406,0.0,0.0,-0.346078097820282,0.02232370711863041,0.5086658000946045,0.0,0.0,0.0,0.27585452795028687,-0.3510272800922394,0.6745762228965759,0.4200000464916229,1.0,3.322290922369575e-06,-2.2078170331951696e-06,2.74303062042236e-07,0.00026662991149351,0.0002674962452147156,-0.0001042631920427084,-0.0017357823671773076,0.0042047821916639805,-0.00012833590153604746,-0.3570142090320587,0.5837091207504272,0.9014242887496948,-1.1031243801116943,2.7990474700927734,-5.645581245422363,0.4250752925872803,0.7192751169204712,0.42000001668930054,-0.9454986453056335,3.0000016689300537,-0.3080941438674927,-3.0000014305114746,-0.06169798597693443,-0.06978928297758102,-0.0778142586350441,-0.08460541814565659,-0.9611589908599854,-0.9443599581718445,-0.9261471629142761,-0.8610334396362305
0.23333333333333334,0.10348766297101974,0.1013283059000969,0.0,0.9315465092658997,0.0,0.0,-0.36362218856811523,0.3176066279411316,0.13646404445171356,0.0,0.0,0.0,-2.957538604736328,-0.3510272800922394,0.6745762228965759,0.4200000464916229,1.0,3.656512717498117e-06,-2.373275947320508e-06,-4.0765530684439e-07,0.00026611698558554053,0.0002672603295650333,-0.00010423362255096436,-0.001733599347062409,0.004194695968180895,-0.0001285477919736877,-0.37211844325065613,0.627663254737854,0.8011184334754944,-0.6553717851638794,2.2599358558654785,-6.2722978591918945,0.4250752925872803,0.7192751169204712,0.42000001668930054,-0.8954879641532898,2.999998092651367,-0.3581258952617645,-2.99999737739563,-0.07701475918292999,-0.0849120244383812,-0.09272760152816772,-0.09899262338876724,-0.9643240571022034,-0.9507399201393127,-0.9401167631149292,-0.9328542351722717
0.25,0.10295980423688889,0.10896360129117966,0.0,0.931326687335968,0.0,0.0,-0.36418482661247253,-0.02170216105878353,0.40367621183395386,0.0,0.0,0.0,0.80489182472229,-0.3510272800922394,0.6745762825012207,0.4200000464916229,1.0,3.6305416415416403e-06,-2.2424751477956306e-06,1.123084913956518e-08,0.00026680060545913875,0.00026705965865403414,-0.00010390975512564182,-0.0017341973725706339,0.004210582468658686,-0.0001270233915420249,-0.3800605833530426,0.650056004524231,0.6980928182601929,-0.2657140791416168,0.7122475504875183,-5.979719638824463,0.4250752925872803,0.7192751169204712,0.42000001668930054,-0.8454774618148804,2.999994993209839,-0.4081580638885498,-2.999999523162842,-0.09435530751943588,-0.10202913731336594,-0.10969962179660797,-0.11586698889732361,-0.6714203357696533,-0.7364916205406189,-0.7964851260185242,-0.8507593870162964
0.26666666666666666,0.10706260055303574,0.11077529937028885,0.0,0.9258402585983276,0.0,0.0,-0.37791508436203003,0.28228047490119934,0.049159761518239975,0.0,0.0,0.0,-2.336068630218506,-0.351027250289917,0.6745762228965759,0.4200000464916229,0.9999999403953552,3.7401789541036123e-06,-2.23619849748502e-06,4.499796375512233e-07,0.00026479712687432766,0.00026673119282349944,-0.00010454165749251842,-0.0017189347418025136,0.004166691564023495,-0.0001301629818044603,-0.38231223821640015,0.663873553276062,0.5983675718307495,0.10646524280309677,0.6669195294380188,-5.827816009521484,0.4250752925872803,0.7192751169204712,0.42000001668930054,-0.7954686284065247,2.9999990463256836,-0.4581892490386963,-3.000002384185791,-0.10601451992988586,-0.11458037048578262,-0.12308847159147263,-0.13008028268814087,-0.9731130599975586,-0.9862245917320251,-0.998442530632019,-1.0000499486923218
0.2833333333333333,0.10722428560256958,0.1101456955075264,0.0,0.9277346730232239,0.0,0.0,-0.3732404112815857,-0.07299772650003433,-0.07068544626235962,0.0,0.0,0.0,1.459097981452942,-0.3510272800922394,0.6745762228965759,0.4200000464916229,1.0,3.3917049222509377e-06,-2.291024657097296e-06,1.2460675691272627e-07,0.00026677080313675106,0.0002678929013200104,-0.0001043747179210186,-0.0017412520246580243,0.004206160549074411,-0.00012877813423983753,-0.37744927406311035,0.6714760065078735,0.5080733299255371,0.5476440191268921,0.28289318084716797,-5.032008171081543,0.4250752925872803,0.7192751169204712,0.42000001668930054,-0.7454598546028137,3.0,-0.5082188248634338,-3.000001907348633,-0.12398117035627365,-0.13224776089191437,-0.14053083956241608,-0.1473463624715805,-1.0159775018692017,-1.0120755434036255,-1.009096384048462,-1.0067144632339478
0.3,0.10373752564191818,0.10759583115577698,0.0,0.9238377809524536,0.0,0.0,-0.3827841579914093,-0.19341276586055756,-0.2188023030757904,0.0,0.0,0.0,-2.085258960723877,-0.3510272800922394,0.6745762825012207,0.4200000464916229,1.0,3.6808205550187267e-06,-2.3189752482721815e-06,2.0109349918584485e-07,0.0002647904329933226,0.0002662576735019684,-0.00010421290062367916,-0.001716798054985702,0.004168906714767218,-0.00012909369252156466,-0.3623577356338501,0.6740652322769165,0.4252636432647705,1.2015364170074463,0.09789405018091202,-4.898756980895996,0.4250752925872803,0.7192751169204712,0.42000001668930054,-0.6954525709152222,2.9999918937683105,-0.5582465529441833,-3.0000009536743164,-0.1406058371067047,-0.1488262414932251,-0.15710967779159546,-0.16395044326782227,-0.895047664642334,-0.9108589291572571,-0.9265467524528503,-0.9426371455192566
0.31666666666666665,0.09897734224796295,0.1024671122431755,0.0,0.926266074180603,0.0,0.0,-0.37687018513679504,-0.32736197113990784,-0.34564581513404846,0.0,0.0,0.0,1.6639105081558228,-0.35083696246147156,0.6744258999824524,0.42000019550323486,0.999988317489624,-2.317406324436888e-05,1.1014121810148936e-06,-0.004821669310331345,0.003940777387470007,-0.0013835126301273704,-0.000741424155421555,-0.03106866404414177,0.008654016070067883,-0.21457232534885406,-0.3630309998989105,0.6767219305038452,0.4286656975746155,-0.05501781404018402,0.12801998853683472,-0.18484732508659363,0.4250752925872803,0.7192751169204712,0.42000001668930054,-0.6454485058784485,2.9999845027923584,-0.6087132692337036,-3.0000011920928955,-0.14589723944664001,-0.15432515740394592,-0.1623988151550293,-0.1686117798089981,-0.359605997800827,-0.34669196605682373,-0.31344905495643616,-0.26356250047683716
0.3333333333333333,0.0918492004275322,0.09521360695362091,0.0,0.9226862192153931,0.0,0.0,-0.38555172085762024,-0.47253409028053284,-0.47307291626930237,0.0,0.0,0.0,-2.0558931827545166,-0.35079947113990784,0.6744789481163025,0.4200023114681244,0.9999871253967285,-0.000533778453245759,0.0003675924090202898,-0.0050312248058617115,0.07222545892000198,0.10443051159381866,-0.009654914028942585,0.5664499402046204,-0.09461993724107742,-1.7409906387329102,-0.3612845242023468,0.6775335669517517,0.4257466197013855,0.22052671015262604,0.05407555401325226,-0.16605517268180847,0.4250752925872803,0.7192751169204712,0.42000001668930054,-0.5954431295394897,2.9999449253082275,-0.6587751507759094,-2.9998745918273926,-0.15292201936244965,-0.1606089472770691,-0.16761086881160736,-0.17253874242305756,-0.4575597643852234,-0.3845876157283783,-0.29407352209091187,-0.19576509296894073
0.35,0.08249039202928543,0.0858108177781105,0.0,0.9252591133117676,0.0,0.0,-0.3793357014656067,-0.601367712020874,-0.6023476123809814,0.0,0.0,0.0,1.7332360744476318,-0.34911802411079407,0.6774821281433105,0.4200000762939453,0.9988732933998108,1.7749347591689002e-07,5.091809271107195e-06,-0.047455716878175735,0.16322141885757446,0.3069000840187073,-5.181400047149509e-05,0.002823359565809369,-0.00026204687310382724,-9.728777885437012,-0.3562014698982239,0.6813008189201355,0.42320317029953003,0.3883335590362549,0.34623461961746216,-0.12293029576539993,0.4250752925872803,0.7192751169204712,0.42000001668930054,-0.5454381704330444,2.999973773956299,-0.7088220119476318,-3.000000476837158,-0.16125550866127014,-0.167192742228508,-0.17214782536029816,-0.17493456602096558,-0.4785500466823578,-0.359358549118042,-0.222466379404068,-0.08149513602256775
0.36666666666666664,0.07080987840890884,0.07421558350324631,0.0,0.9219201803207397,0.0,0.0,-0.38737985491752625,-0.7472733855247498,-0.7371957302093506,0.0,0.0,0.0,-1.9554558992385864,-0.3448546230792999,0.6843922734260559,0.42007943987846375,0.988189697265625,0.0019369205692782998,-0.00044543109834194183,-0.15322233736515045,0.28185150027275085,0.4398159682750702,-0.008835327811539173,-0.38086092472076416,0.03319094702601433,-13.270363807678223,-0.34763896465301514,0.6867381930351257,0.42165690660476685,0.6749864220619202,0.4156160354614258,-0.07563550025224686,0.4250752925872803,0.7192751169204712,0.42000001668930054,-0.49543365836143494,2.9999887943267822,-0.7588739395141602,-2.9999728202819824,-0.16925637423992157,-0.1730114072561264,-0.175425186753273,-0.17556098103523254,-0.4488757252693176,-0.31063082814216614,-0.14972321689128876,0.01809300109744072
0.3833333333333333,0.06177320331335068,0.059929296374320984,0.0,0.9070897102355957,0.0,0.0,-0.4209374189376831,-0.46641725301742554,-0.9086013436317444,0.0,0.0,0.0,-5.251358509063721,-0.33537134528160095,0.6964555382728577,0.42067068815231323,0.9786064624786377,0.01657678186893463,-0.003294630441814661,-0.20504571497440338,0.8740429878234863,1.0179269313812256,0.0937744751572609,3.383406162261963,-2.312577962875366,-3.9015090465545654,-0.3341679871082306,0.6969334483146667,0.42203688621520996,1.0150980949401855,0.8744295835494995,0.09081055223941803,0.4250752925872803,0.7192751169204712,0.42000001668930054,-0.4454299211502075,2.9999570846557617,-0.808929443359375,-2.99920916557312,-0.17587141692638397,-0.17727795243263245,-0.17689429223537445,-0.17405377328395844,-0.3216274678707123,-0.18285009264945984,-0.016057850793004036,0.16260561347007751
0.4,0.056877024471759796,0.04258127510547638,0.0,0.8786575198173523,0.0,0.0,-0.4774526059627533,-0.22186757624149323,-1.0991389751434326,0.0,0.0,0.0,-8.405744552612305,-0.3058365285396576,0.7194569706916809,0.42401257157325745,0.9664440751075745,0.011545994319021702,-0.03477724641561508,-0.25425010919570923,2.7361583709716797,1.8241544961929321,0.26840630173683167,19.84560203552246,-12.737650871276855,-1.0910831689834595,-0.3047560751438141,0.7195892333984375,0.42525744438171387,2.628277540206909,1.8947336673736572,0.4243618845939636,0.4250752925872803,0.7192751169204712,0.42000001668930054,-0.39836886525154114,2.131880283355713,-0.8589593768119812,-3.0000014305114746,-0.18262743949890137,-0.1811840981245041,-0.17753437161445618,-0.17129482328891754,-0.44591259956359863,-0.24969232082366943,-0.03339182958006859,0.18579396605491638
0.4166666666666667,0.05414558947086334,0.030194919556379318,0.0,0.8335236310958862,0.0,0.0,-0.5524837970733643,-0.12479863315820694,-0.6154285669326782,0.0,0.0,0.0,-11.306511878967285,-0.23561395704746246,0.7572438716888428,0.4299050569534302,0.9441474676132202,0.07183174043893814,-0.07830379158258438,-0.31192031502723694,5.828482627868652,2.0707929134368896,0.46345025300979614,13.641944885253906,-14.662437438964844,22.88555335998535,-0.2347693294286728,0.7568531036376953,0.43153029680252075,5.403047561645508,2.7286572456359863,0.49926993250846863,0.4250752925872803,0.7192751169204712,0.42000001668930054,-0.37813153862953186,0.9549818634986877,-0.8219674825668335,2.997307300567627,-0.196976438164711,-0.19143261015415192,-0.18286088109016418,-0.1720314919948578,-0.9036718606948853,-0.708013653755188,-0.41577038168907166,-0.1547548621892929
0.43333333333333335,0.04751673713326454,0.025289172306656837,0.0,0.7954610586166382,0.0,0.0,-0.6060046553611755,-0.5158440470695496,-0.29030415415763855,0.0,0.0,0.0,-6.620424270629883,-0.14584091305732727,0.7951557636260986,0.4411536753177643,0.9089239835739136,0.11029383540153503,-0.10415429621934891,-0.38838672637939453,5.678277015686035,1.6814640760421753,0.7494656443595886,5.541356563568115,-8.113441467285156,2.7338216304779053,-0.1445235013961792,0.7954421043395996,0.4423654079437256,5.487409591674805,2.005631446838379,0.7485769391059875,0.4250752925872803,0.7192751169204712,0.42000001668930054,-0.36078688502311707,1.178153395652771,-0.8489024639129639,-3.0000009536743164,-0.21072959899902344,-0.20565716922283173,-0.19419649243354797,-0.17890308797359467,-0.5871477723121643,-0.6610020399093628,-0.6307423114776611,-0.4202864170074463
0.45,0.04533906280994415,0.013274707831442356,0.0,0.7772217988967896,0.0,0.0,-0.6292267441749573,0.006752067245543003,-0.8924066424369812,0.0,0.0,0.0,-2.518260955810547,-0.04685832932591438,0.8234264254570007,0.45326632261276245,0.8415755033493042,0.12245766073465347,-0.11339931935071945,-0.5137075185775757,6.163994312286377,0.5317388772964478,0.597003161907196,-3.098538398742676,-19.82137680053711,14.25546932220459,-0.04765477776527405,0.8239145874977112,0.45292553305625916,6.173000335693359,1.281327247619629,0.7578166127204895,0.4250752925872803,0.7192751169204712,0.42000001668930054,-0.33853498101234436,1.2456835508346558,-0.8989264965057373,-3.0000038146972656,-0.21427655220031738,-0.21021315455436707,-0.19842633605003357,-0.18034324049949646,-0.10306444019079208,-0.11798785626888275,-0.07605680078268051,0.08173637837171555
0.4666666666666667,0.04222986474633217,0.0031088553369045258,0.0,0.7509660124778748,0.0,0.0,-0.6603409051895142,-0.23624753952026367,-0.5440323352813721,0.0,0.0,0.0,-5.597496032714844,0.05413258448243141,0.8351504802703857,0.4632323682308197,0.7906211018562317,0.12373765558004379,-0.12606361508369446,-0.5862721800804138,6.034546852111816,-0.4493570923805237,0.5549446940422058,-9.586978912353516,-19.680837631225586,15.976675033569336,0.0537092499434948,0.8367195129394531,0.46361494064331055,6.184996604919434,0.3707933723926544,0.7355169653892517,0.4250752925872803,0.7192751169204712,0.42000001668930054,-0.320376455783844,0.8148463368415833,-0.9489505290985107,-3.0000030994415283,-0.21886080503463745,-0.21439878642559052,-0.20173726975917816,-0.18146708607673645,-0.2501952648162842,-0.22318962216377258,-0.1891210824251175,-0.10484477132558823
0.48333333333333334,0.04069225490093231,-0.0024066122714430094,0.0,0.7392281889915466,0.0,0.0,-0.673454999923706,-0.02803177759051323,-0.2316673994064331,0.0,0.0,0.0,-0.9145283102989197,0.15090295672416687,0.8319666981697083,0.4710814952850342,0.7084399461746216,0.12465490400791168,-0.12711383402347565,-0.6829464435577393,5.288002967834473,-1.2628430128097534,0.2614884674549103,0.015247075818479061,-6.468708515167236,11.70350456237793,0.1495864987373352,0.8333168029785156,0.47092169523239136,5.569676399230957,-0.7687408924102783,0.36236491799354553,0.4250752925872803,0.7192751169204712,0.42000001668930054,-0.30662640929222107,0.7943557500839233,-0.9989745616912842,-3.0000011920928955,-0.22472888231277466,-0.21902450919151306,-0.2053498774766922,-0.18372800946235657,-0.3845857083797455,-0.2773791253566742,-0.20210398733615875,-0.1320030689239502
0.5,0.04241218417882919,-0.003734112251549959,0.0,0.7208976745605469,0.0,0.0,-0.6930415034294128,0.15339571237564087,-0.02211570553481579,0.0,0.0,0.0,-4.10424280166626,0.23414570093154907,0.8142351508140564,0.469923734664917,0.6439727544784546,0.09533147513866425,-0.15209493041038513,-0.74369215965271,4.427519798278809,-1.2871482372283936,-0.27946391701698303,-13.847208023071289,7.742160797119141,-7.6496171951293945,0.23216620087623596,0.8181339502334595,0.4711077809333801,4.555440902709961,-1.2260122299194336,-0.16226769983768463,0.4250752925872803,0.7192751169204712,0.42000001668930054,-0.2917400002479553,1.083620309829712,-1.0489970445632935,-2.99959135055542,-0.22969362139701843,-0.22249828279018402,-0.20794586837291718,-0.1857207864522934,-0.20109783113002777,-0.11887545883655548,-0.08066262304782867,-0.07143719494342804
0.5166666666666666,0.04697828367352486,-0.003842027625069022,0.0,0.7151544094085693,0.0,0.0,-0.6989665031433105,0.3064254820346832,0.06095324829220772,0.0,0.0,0.0,-0.010120021179318428,0.3020746409893036,0.7916396260261536,0.46263015270233154,0.590593695640564,0.06527098268270493,-0.12512977421283722,-0.7945321202278137,3.2100107669830322,-2.099929094314575,-0.6947913765907288,-19.404115676879883,0.16090555489063263,17.356359481811523,0.30035367608070374,0.7950882911682129,0.4637324810028076,3.7724599838256836,-1.5862510204315186,-0.5467488169670105,0.4250752925872803,0.7192751169204712,0.42000001668930054,-0.2752240002155304,0.5870211124420166,-1.099019169807434,-3.000001907348633,-0.23132452368736267,-0.2228889912366867,-0.20797954499721527,-0.18611131608486176,-0.05076206475496292,0.01950538530945778,0.029153021052479744,-0.015500498004257679
0.5333333333333333,0.0508049875497818,-0.004970586858689785,0.0,0.6994256973266602,0.0,0.0,-0.7147053480148315,0.16187305748462677,-0.014723923988640308,0.0,0.0,0.0,-3.421708345413208,0.35785406827926636,0.7679834961891174,0.4472466707229614,0.5652034282684326,0.028452027589082718,-0.11135433614253998,-0.8169061541557312,2.6660354137420654,-1.9554252624511719,-1.0308616161346436,-13.03011703491211,3.0772275924682617,12.151562690734863,0.3563280701637268,0.7709430456161499,0.4487444758415222,3.0261611938476562,-1.5736159086227417,-1.027624487876892,0.4250752925872803,0.7192751169204712,0.42000001668930054,-0.2638854682445526,0.4510144293308258,-1.1490412950515747,-2.9999866485595703,-0.22783072292804718,-0.21926820278167725,-0.2052542269229889,-0.18522317707538605,0.07466480880975723,0.11076587438583374,0.07777294516563416,-0.023464027792215347
0.55,0.05507887899875641,-0.0031465264037251472,0.0,0.6978409886360168,0.0,0.0,-0.7162526845932007,0.2916853725910187,0.16379505395889282,0.0,0.0,0.0,0.6344704031944275,0.39896151423454285,0.7412209510803223,0.426739901304245,0.5534084439277649,-0.007680485025048256,-0.10356414318084717,-0.8264106512069702,2.0440778732299805,-1.5110942125320435,-1.3221148252487183,-0.4829602837562561,4.372363567352295,-4.978609561920166,0.39789968729019165,0.7442007064819336,0.4289149045944214,2.0231926441192627,-1.57505202293396,-1.2874475717544556,0.4250752925872803,0.7192751169204712,0.42000001668930054,-0.2536648213863373,0.95244961977005,-1.1990634202957153,-3.0,-0.22562594711780548,-0.21700315177440643,-0.2040325403213501,-0.18617159128189087,0.2148313969373703,0.18612012267112732,0.09251861274242401,-0.06838396936655045
0.5666666666666667,0.06137092038989067,-0.004436501767486334,0.0,0.6863129734992981,0.0,0.0,-0.7273063659667969,0.4120047390460968,-0.13790461421012878,0.0,0.0,0.0,-2.782275915145874,0.4202248752117157,0.7305179834365845,0.4230963885784149,0.542083203792572,-0.016536874696612358,-0.05420861020684242,-0.8384113907814026,0.8877323269844055,-0.6447912454605103,-0.07626302540302277,2.0974667072296143,1.4329676628112793,-0.36713707447052,0.41844698786735535,0.7327895760536194,0.4241766035556793,0.9132879972457886,-0.445087194442749,-0.19447454810142517,0.4250752925872803,0.7192751169204712,0.42000001668930054,-0.23959477245807648,1.0300662517547607,-1.2491896152496338,-2.998638153076172,-0.2188580185174942,-0.2116246372461319,-0.2009037733078003,-0.1862058788537979,0.427403062582016,0.33035776019096375,0.18316876888275146,-0.018081387504935265
0.5833333333333334,0.065535768866539,-0.002823357004672289,0.0,0.6869348883628845,0.0,0.0,-0.7267189621925354,0.17186878621578217,0.098999984562397,0.0,0.0,0.0,0.9667142629623413,0.4335480332374573,0.7230976223945618,0.42186248302459717,0.5182413458824158,-0.018170936033129692,-0.029392866417765617,-0.8545358777046204,0.5709375739097595,-0.4189907908439636,-0.06481368094682693,1.730136752128601,5.303648948669434,0.8127971291542053,0.42759454250335693,0.7234709858894348,0.4236118793487549,0.3907681703567505,-0.5344158411026001,0.02189747244119644,0.4250752925872803,0.7192751169204712,0.42000001668930054,-0.2476550191640854,-1.5806888341903687,-1.2231652736663818,2.9991626739501953,-0.21432727575302124,-0.20812992751598358,-0.19923745095729828,-0.18726713955402374,0.3677726089954376,0.2859991192817688,0.16293005645275116,-0.008075837977230549
0.6,0.0704135000705719,0.0012711110757663846,0.0,0.6769174933433533,0.0,0.0,-0.7360588908195496,0.3073834478855133,0.2972594201564789,0.0,0.0,0.0,-2.516530990600586,0.43689000606536865,0.7181327939033508,0.42071738839149475,0.5430790185928345,-0.014991920441389084,-0.009941059164702892,-0.8394888639450073,0.10504960268735886,-0.21583303809165955,-0.07176557928323746,3.4344966411590576,-1.6705211400985718,4.090912818908691,0.43133997917175293,0.7199731469154358,0.42382147908210754,0.08279024809598923,-0.011341307312250137,0.1678098440170288,0.4250752925872803,0.7192751169204712,0.42000001668930054,-0.2844584584236145,-2.6922848224639893,-1.2446112632751465,-2.999335527420044,-0.206605926156044,-0.20254454016685486,-0.19629408419132233,-0.18757076561450958,0.6110574007034302,0.44076770544052124,0.2481798231601715,0.028452903032302856
0.6166666666666667,0.07708309590816498,0.001383625902235508,0.0,0.6790379285812378,0.0,0.0,-0.7341032028198242,0.42272502183914185,-0.003942089155316353,0.0,0.0,0.0,1.2044976949691772,0.4379749596118927,0.7155919671058655,0.4200017750263214,0.5583634972572327,-3.021869997610338e-05,-9.753744052432012e-06,-0.8295964002609253,0.004515174310654402,-0.10029992461204529,-0.0023976718075573444,0.1267954260110855,-0.12671376764774323,-1.8551604747772217,0.430588036775589,0.7192685604095459,0.42683473229408264,-0.21074336767196655,-0.0820005014538765,0.1945054680109024,0.4250752925872803,0.7192751169204712,0.42000001668930054,-0.3343048691749573,-2.999809503555298,-1.2945940494537354,-2.999056339263916,-0.1945010870695114,-0.19323007762432098,-0.19011442363262177,-0.1849449872970581,0.5500705242156982,0.43467819690704346,0.2966344356536865,0.1302802860736847
0.6333333333333333,0.08586642891168594,0.005418059881776571,0.0,0.6700343489646912,0.0,0.0,-0.7423301339149475,0.5471053719520569,0.24316748976707458,0.0,0.0,0.0,-2.443664312362671,0.4375004768371582,0.7148870229721069,0.4200000464916229,0.5625515580177307,3.2522214610253286e-07,-2.0514536913651682e-07,-0.8267621994018555,0.008210252970457077,-0.025759337469935417,-3.882276359945536e-06,0.0001940998190548271,8.746754610911012e-05,-0.7543140053749084,0.43132278323173523,0.7206794023513794,0.43034783005714417,0.15315650403499603,0.21099740266799927,0.22621971368789673,0.4250752925872803,0.7192751169204712,0.42000001668930054,-0.38435155153274536,-2.999600648880005,-1.3445522785186768,-2.9991724491119385,-0.18626268208026886,-0.1869899481534958,-0.186142697930336,-0.18359866738319397,0.637275755405426,0.4852698743343353,0.3235917389392853,0.1485019475221634
0.65,0.09630990028381348,0.0052803135477006435,0.0,0.6726133227348328,0.0,0.0,-0.7399941086769104,0.6501203179359436,-0.04258403927087784,0.0,0.0,0.0,1.3244750499725342,0.4374850392341614,0.7148936986923218,0.4200020730495453,0.5628274083137512,5.389380021370016e-05,-0.00010562924580881372,-0.8265743255615234,-0.07781439274549484,0.033747948706150055,0.0033796844072639942,0.3878467381000519,0.04026507958769798,5.818278789520264,0.4306686520576477,0.7233988046646118,0.4353153109550476,-0.20331436395645142,0.1040632501244545,0.40421047806739807,0.4250752925872803,0.7192751169204712,0.42000001668930054,-0.43436530232429504,-2.9996869564056396,-1.3945707082748413,-2.9999821186065674,-0.17658963799476624,-0.17921525239944458,-0.1804206669330597,-0.18015053868293762,0.40432101488113403,0.3411000370979309,0.26774489879608154,0.17962917685508728
0.6666666666666666,0.10832498222589493,0.002860254142433405,0.0,0.672753632068634,0.0,0.0,-0.7398665547370911,0.7410139441490173,-0.25335219502449036,0.0,0.0,0.0,-0.6076672077178955,0.4366109073162079,0.7150570154190063,0.4200000464916229,0.5762766599655151,8.810121130409243e-07,3.500690937130457e-08,-0.8172546029090881,-0.030893808230757713,0.0027397689409554005,-9.906277227855753e-06,0.0006306940340436995,-9.205229434883222e-05,0.8487449884414673,0.4293595552444458,0.724419891834259,0.43869268894195557,0.0440412238240242,0.012421004474163055,0.14931192994117737,0.4250752925872803,0.7192751169204712,0.42000001668930054,-0.484378457069397,-3.0000014305114746,-1.4445890188217163,-2.9999992847442627,-0.17156584560871124,-0.17451569437980652,-0.1760871857404709,-0.1763114184141159,0.2864524722099304,0.2942715883255005,0.3057912290096283,0.3158648610115051
0.6833333333333333,0.1228046789765358,0.0007375496788881719,0.0,0.6524525284767151,0.0,0.0,-0.7578296065330505,0.9271292686462402,-0.07712050527334213,0.0,0.0,0.0,-4.239017963409424,0.436610609292984,0.7150576114654541,0.4199998676776886,0.5762771368026733,-3.849612312478712e-06,-8.275374057120644e-06,-0.8172543048858643,2.579696592874825e-05,-0.0005510843475349247,-0.00010164710693061352,0.014047420583665371,-0.005646208766847849,-0.0010474871378391981,0.43310850858688354,0.7263197302818298,0.4485057592391968,0.4742498993873596,0.1794283241033554,1.129396915435791,0.4250752925872803,0.7192751169204712,0.42000001668930054,-0.534388542175293,-2.999964952468872,-1.4946074485778809,-2.9999983310699463,-0.1708148717880249,-0.17315927147865295,-0.17404717206954956,-0.17359282076358795,-0.06856732070446014,-0.01828051544725895,0.0377192385494709,0.09505040943622589
0.7,0.13600336015224457,0.001840828568674624,0.0,0.6446943283081055,0.0,0.0,-0.7644404768943787,0.7029431462287903,0.04992526024580002,0.0,0.0,0.0,-0.16329233348369598,0.4366106688976288,0.7150574326515198,0.41999995708465576,0.5762767791748047,-1.587753445164708e-06,-5.5959526434889995e-06,-0.8172546029090881,0.00010250935156363994,-0.00039488254697062075,-7.752282544970512e-05,0.00988537073135376,-0.0028648991137742996,-0.0009163353824988008,0.4423332214355469,0.7312308549880981,0.4741663336753845,0.6610066890716553,0.4319306015968323,1.9231243133544922,0.4250752925872803,0.7192751169204712,0.42000001668930054,-0.5843973159790039,-2.999997615814209,-1.5446257591247559,-3.0,-0.17214412987232208,-0.17392615973949432,-0.17409545183181763,-0.172825425863266,0.02430245652794838,0.022067321464419365,0.032997217029333115,0.054935794323682785
0.7166666666666667,0.14452968537807465,0.004421511199325323,0.0,0.6605658531188965,0.0,0.0,-0.7507680654525757,0.44633281230926514,0.2192823588848114,0.0,0.0,0.0,3.3549020290374756,0.4366106390953064,0.7150574326515198,0.41999995708465576,0.5762770771980286,-1.5972333358149626e-06,-5.6187627706094645e-06,-0.817254364490509,0.00010341913730371743,-0.0003961004549637437,-7.76657834649086e-05,0.00992072094231844,-0.0028784791938960552,-0.0009208226692862809,0.4562114179134369,0.7368209958076477,0.5007575750350952,0.9169881939888,0.28248846530914307,1.3615325689315796,0.4250752925872803,0.7192751169204712,0.42000001668930054,-0.6100971698760986,-0.2995879650115967,-1.5946435928344727,-3.0000007152557373,-0.17118535935878754,-0.17281639575958252,-0.17260584235191345,-0.1707642823457718,0.083146832883358,0.10447507351636887,0.13796325027942657,0.1815783977508545
0.7333333333333333,0.1486884355545044,0.0036611082032322884,0.0,0.6633157134056091,0.0,0.0,-0.7483397126197815,0.1562499701976776,-0.06806784123182297,0.0,0.0,0.0,-0.5154415369033813,0.4366106688976288,0.715057373046875,0.41999995708465576,0.5762770175933838,-1.4026244343767758e-06,-5.683673862222349e-06,-0.8172543048858643,0.00010774748079711571,-0.00039632670814171433,-7.764971815049648e-05,0.00993415992707014,-0.00287326006218791,-0.0009316341020166874,0.4679284393787384,0.7399264574050903,0.5176696181297302,0.46587997674942017,0.0102184247225523,0.8177194595336914,0.4250752925872803,0.7192751169204712,0.42000001668930054,-0.6403454542160034,-3.0,-1.5556482076644897,3.000000238418579,-0.1686486452817917,-0.16986872255802155,-0.16915416717529297,-0.1667414903640747,0.03362685441970825,0.09287679940462112,0.14952193200588226,0.2016250491142273
0.75,0.15365755558013916,0.007733104284852743,0.0,0.6768298745155334,0.0,0.0,-0.7361394762992859,0.32443100214004517,0.2305995374917984,0.0,0.0,0.0,2.956862688064575,0.4366106688976288,0.7150574326515198,0.41999995708465576,0.5762771964073181,-1.6091634051917936e-06,-5.645083092531422e-06,-0.8172542452812195,0.00010388663940830156,-0.00039637857116758823,-7.77081586420536e-05,0.009929114021360874,-0.002882367232814431,-0.0009225297253578901,0.4761439561843872,0.7389143705368042,0.5323034524917603,0.6090077757835388,0.010431654751300812,0.9484665989875793,0.4250752925872803,0.7192751169204712,0.42000001668930054,-0.6624917984008789,0.09311274439096451,-1.5706055164337158,-2.9999966621398926,-0.1716354638338089,-0.17124545574188232,-0.16901551187038422,-0.16520798206329346,-0.02646990492939949,0.030578723177313805,0.08595077693462372,0.14005017280578613
0.7666666666666666,0.15595892071723938,0.006835875101387501,0.0,0.6776438355445862,0.0,0.0,-0.7353902459144592,0.06686654686927795,-0.07383272051811218,0.0,0.0,0.0,-0.7116016149520874,0.4366106390953064,0.7150574326515198,0.41999995708465576,0.576276957988739,-1.5840405467315577e-06,-5.666815923177637e-06,-0.817254364490509,0.00010592312173685059,-0.00039630229002796113,-7.768860086798668e-05,0.009929746389389038,-0.002876723650842905,-0.0009271080489270389,0.48604220151901245,0.738562285900116,0.5430796146392822,0.507003128528595,-0.1869368553161621,0.49442416429519653,0.4250752925872803,0.7192751169204712,0.42000001668930054,-0.6848341226577759,-2.5278234481811523,-1.5316816568374634,3.000000238418579,-0.1697913557291031,-0.16872107982635498,-0.1658695787191391,-0.16148526966571808,-0.0026235361583530903,0.06743256747722626,0.12891560792922974,0.18194633722305298
0.7833333333333333,0.15927554666996002,0.009814068675041199,0.0,0.6890981197357178,0.0,0.0,-0.724668025970459,0.23091647028923035,0.19588536024093628,0.0,0.0,0.0,2.691514253616333,0.4366106390953064,0.715057373046875,0.41999995708465576,0.5762768387794495,-1.587436145200627e-06,-5.768163191532949e-06,-0.8172544836997986,0.00010381283209426329,-0.00039610452950000763,-7.755612023174763e-05,0.00992564857006073,-0.0028818463906645775,-0.0009214301244355738,0.4954800009727478,0.7339147329330444,0.5526019334793091,0.7060415744781494,-0.23761270940303802,0.6703335642814636,0.4250752925872803,0.7192751169204712,0.42000001668930054,-0.6954826712608337,0.956617534160614,-1.5471643209457397,-2.9999992847442627,-0.1721213310956955,-0.16947364807128906,-0.1651708334684372,-0.15947243571281433,-0.0038077589124441147,0.05696483701467514,0.11634566634893417,0.17394833266735077
0.8,0.16041187942028046,0.008958064019680023,0.0,0.6883159279823303,0.0,0.0,-0.725411057472229,0.01600375771522522,-0.08549754321575165,0.0,0.0,0.0,-0.9619883298873901,0.4366106390953064,0.7150574326515198,0.41999995708465576,0.5762768983840942,-1.5873623624429456e-06,-5.529539066628786e-06,-0.8172544836997986,0.00010218391253147274,-0.00039554870454594493,-7.762270979583263e-05,0.009903118014335632,-0.0028759699780493975,-0.0009168529068119824,0.5064603090286255,0.730414628982544,0.5616021752357483,0.5538352727890015,-0.2838389277458191,0.5333125591278076,0.4250752925872803,0.7192751169204712,0.42000001668930054,-0.7069287300109863,-2.058563232421875,-1.5083109140396118,3.000000238418579,-0.1708078384399414,-0.16747823357582092,-0.1625385731458664,-0.15624764561653137,0.016424035653471947,0.06618210673332214,0.10964833199977875,0.1467309594154358
0.8166666666666667,0.16274020075798035,0.011785564012825489,0.0,0.6985194683074951,0.0,0.0,-0.7155910134315491,0.17415015399456024,0.17713548243045807,0.0,0.0,0.0,2.443305492401123,0.4366106688976288,0.7150574326515198,0.41999995708465576,0.576276957988739,-1.5901549659247394e-06,-5.4870720305189025e-06,-0.817254364490509,0.00010385505447629839,-0.0003955435531679541,-7.761572487652302e-05,0.009905162267386913,-0.002870348049327731,-0.0009208217961713672,0.5160359144210815,0.7241088151931763,0.5709114074707031,0.6846040487289429,-0.337963730096817,0.6149584054946899,0.4250752925872803,0.7192751169204712,0.42000001668930054,-0.7086745500564575,1.538209319114685,-1.5242782831192017,-3.0000007152557373,-0.1722564697265625,-0.16782407462596893,-0.16186684370040894,-0.15465712547302246,0.05179678648710251,0.08506499230861664,0.11837638914585114,0.15129947662353516
0.8333333333333334,0.16314218938350677,0.010733003728091717,0.0,0.6961553692817688,0.0,0.0,-0.7178911566734314,-0.025582656264305115,-0.09207548946142197,0.0,0.0,0.0,-1.2468688488006592,0.4366106688976288,0.7150574326515198,0.41999995708465576,0.5762770771980286,-1.6074008044597576e-06,-5.504574346559821e-06,-0.817254364490509,0.00010443850624142215,-0.0003961142501793802,-7.767276838421822e-05,0.009922203607857227,-0.0028765194583684206,-0.0009232339798472822,0.5258882641792297,0.720842719078064,0.5796130895614624,0.4357374310493469,-0.17201660573482513,0.5446550250053406,0.4250752925872803,0.7192751169204712,0.42000001668930054,-0.7036892771720886,-0.7456766963005066,-1.4854909181594849,3.0,-0.16991589963436127,-0.16543667018413544,-0.15945711731910706,-0.15224435925483704,0.07937502861022949,0.0836988240480423,0.08268211781978607,0.07676892727613449
0.85,0.1647581160068512,0.013300219550728798,0.0,0.7042898535728455,0.0,0.0,-0.7099125385284424,0.13824957609176636,0.1674293726682663,0.0,0.0,0.0,2.0816829204559326,0.4366106390953064,0.7150574326515198,0.41999995708465576,0.576276957988739,-1.6081040712379036e-06,-5.5428458836104255e-06,-0.817254364490509,0.00010296772234141827,-0.00039599993033334613,-7.767649367451668e-05,0.009916508570313454,-0.002877863124012947,-0.0009193364530801773,0.5318582653999329,0.7168935537338257,0.5877082943916321,0.3864584267139435,-0.1748684197664261,0.4741761088371277,0.4250752925872803,0.7192751169204712,0.42000001668930054,-0.6873373985290527,2.4195146560668945,-1.5019229650497437,-2.999999761581421,-0.16989925503730774,-0.1651701182126999,-0.15901975333690643,-0.15171633660793304,0.1262274533510208,0.11143973469734192,0.095711849629879,0.07935897260904312
0.8666666666666667,0.16452693939208984,0.012317422777414322,0.0,0.6999871134757996,0.0,0.0,-0.7141554951667786,-0.07051451504230499,-0.08819743245840073,0.0,0.0,0.0,-1.5595306158065796,0.4366106688976288,0.7150574326515198,0.41999995708465576,0.576276957988739,-1.5956808283590362e-06,-5.50498953089118e-06,-0.8172544240951538,0.0001029047416523099,-0.00039558662683703005,-7.762177847325802e-05,0.009905070997774601,-0.0028730526100844145,-0.0009184632799588144,0.5359318852424622,0.717409610748291,0.5938277244567871,0.032744746655225754,0.10399278253316879,0.3826788067817688,0.4250752925872803,0.7192751169204712,0.42000001668930054,-0.665948748588562,0.3125855326652527,-1.4631977081298828,2.999999761581421,-0.16649751365184784,-0.1625083088874817,-0.15712757408618927,-0.15060502290725708,0.13039973378181458,0.09066685289144516,0.04572353884577751,-0.0032610322814434767
0.8833333333333333,0.1615351140499115,0.014786924235522747,0.0,0.7063447833061218,0.0,0.0,-0.7078679203987122,-0.22210627794265747,0.18208090960979462,0.0,0.0,0.0,1.783545970916748,0.4366106688976288,0.7150574326515198,0.41999995708465576,0.5762770175933838,-1.599941583663167e-06,-5.519111709872959e-06,-0.8172543048858643,0.00010453573486302048,-0.00039614245179109275,-7.767253555357456e-05,0.009923323057591915,-0.0028767394833266735,-0.0009235096513293684,0.5345828533172607,0.7163634300231934,0.5991774797439575,-0.08399301767349243,-0.033039286732673645,0.3088236451148987,0.4250752925872803,0.7192751169204712,0.42000001668930054,-0.6362920999526978,2.9879021644592285,-1.4800934791564941,-3.0000007152557373,-0.16614966094493866,-0.16246573626995087,-0.15748006105422974,-0.1514340490102768,0.10376127809286118,0.06488503515720367,0.023686658591032028,-0.019052842631936073
