vladlanda/robotic-transformer/data/env_000_episode_0261.csv
sim_time_s,robot_box_x,robot_box_y,robot_box_z,robot_box_quat_w,robot_box_quat_x,robot_box_quat_y,robot_box_quat_z,robot_box_linvel_x,robot_box_linvel_y,robot_box_linvel_z,robot_box_angvel_x,robot_box_angvel_y,robot_box_angvel_z,cube_world_x,cube_world_y,cube_world_z,cube_quat_w,cube_quat_x,cube_quat_y,cube_quat_z,cube_linvel_x,cube_linvel_y,cube_linvel_z,cube_angvel_x,cube_angvel_y,cube_angvel_z,endpoint_world_x,endpoint_world_y,endpoint_world_z,endpoint_linvel_x,endpoint_linvel_y,endpoint_linvel_z,target_cube_world_x,target_cube_world_y,target_cube_world_z,gripper_actual_pos_rad_gp_leftgearjoint,gripper_actual_vel_rad_s_gp_leftgearjoint,gripper_actual_pos_rad_gp_rotatingjoint,gripper_actual_vel_rad_s_gp_rotatingjoint,motor_angle_rad_joint1,motor_angle_rad_joint2,motor_angle_rad_joint3,motor_angle_rad_joint4,motor_speed_rad_s_joint1,motor_speed_rad_s_joint2,motor_speed_rad_s_joint3,motor_speed_rad_s_joint4
0.0,0.0,0.0,0.0,1.0,0.0,0.0,0.0,0.0,0.0,0.0,0.0,0.0,0.0,-0.3515721261501312,0.6251541376113892,0.41999998688697815,1.0,0.0,0.0,0.0,0.0,0.0,0.0,0.0,0.0,0.0,3.42540442943573e-06,-0.005000244826078415,1.313499927520752,0.0,0.0,0.0,0.47630155086517334,0.7504665851593018,0.42000001668930054,-1.5707999467849731,0.0,0.0,0.0,0.0,0.0,0.0,0.0,0.0,0.0,0.0,0.0
0.016666666666666666,0.002901514060795307,0.002144742989912629,0.0,0.9998595714569092,0.0,0.0,0.016759444028139114,0.2413366287946701,0.18142910301685333,0.0,0.0,0.0,3.141958713531494,-0.3515722453594208,0.6251538395881653,0.41999998688697815,1.0,3.279964630564791e-06,-8.339746386809566e-07,8.465587342243452e-08,-1.9833529222523794e-05,0.00017983045836444944,-6.132945418357849e-05,0.0009432713268324733,-0.004689474124461412,-0.00031981561915017664,-0.0070984866470098495,0.00344925862737,1.3159445524215698,-0.8123408555984497,0.9890941381454468,0.18093731999397278,0.47630155086517334,0.7504665851593018,0.42000001668930054,-1.5301096439361572,3.0000035762786865,-0.04585356265306473,-2.999999761581421,0.0008758323965594172,0.000802169437520206,0.0007164612761698663,0.0006168629042804241,0.11082091927528381,0.0974671021103859,0.08324959874153137,0.06812896579504013
0.03333333333333333,0.008987156674265862,0.006751067470759153,0.0,0.9998491406440735,0.0,0.0,0.01737080328166485,0.4071735441684723,0.31441736221313477,0.0,0.0,0.0,-0.8684545755386353,-0.3515723645687103,0.6251537799835205,0.4200000464916229,1.0,3.3908270324900514e-06,-2.1324347017070977e-06,-3.710694684855298e-08,0.00026357820024713874,0.00026937710936181247,-0.00010509532876312733,-0.001770618837326765,0.00413075927644968,-0.00013547429989557713,-0.027424074709415436,0.026243653148412704,1.316622257232666,-1.583248496055603,1.625293493270874,-0.08266841620206833,0.47630155086517334,0.7504665851593018,0.42000001668930054,-1.4800901412963867,3.0000009536743164,-0.09589339047670364,-3.0000009536743164,0.0029894569888710976,0.0026519272942095995,0.0022766669280827045,0.0018608338432386518,0.16375285387039185,0.1393408477306366,0.11343159526586533,0.08592545241117477
0.05,0.01849171333014965,0.013841485604643822,0.0,0.9999527335166931,0.0,0.0,-0.009725738316774368,0.6355850100517273,0.47133928537368774,0.0,0.0,0.0,-4.074227333068848,-0.3515723943710327,0.6251538395881653,0.4200000464916229,1.0,3.765094106711331e-06,-2.2119131699582795e-06,5.62348079213848e-09,0.000265309150563553,0.0002669146633706987,-0.0001044049859046936,-0.0017243881011381745,0.004177483730018139,-0.00012949890515301377,-0.05696834251284599,0.05677970498800278,1.3121888637542725,-1.9490556716918945,1.9728169441223145,-0.42896538972854614,0.47630155086517334,0.7504665851593018,0.42000001668930054,-1.4300718307495117,2.9999988079071045,-0.14591825008392334,-2.9999992847442627,0.005998881999403238,0.005161067936569452,0.004250886384397745,0.003264266299083829,0.20620335638523102,0.16597484052181244,0.12381881475448608,0.0796472430229187
0.06666666666666667,0.03079434111714363,0.023316996172070503,0.0,0.9998332262039185,0.0,0.0,-0.018261829391121864,0.7717902660369873,0.6153803467750549,0.0,0.0,0.0,-0.0369587242603302,-0.3515723943710327,0.6251537799835205,0.4200000464916229,0.9999999403953552,3.406720225029858e-06,-2.2855888346384745e-06,4.300961506942258e-07,0.00026702549075707793,0.0002679164754226804,-0.0001043803058564663,-0.0017406074330210686,0.0042117200791835785,-0.00012850081839133054,-0.09470996260643005,0.08844077587127686,1.3017640113830566,-2.423701763153076,2.000526189804077,-0.8118655681610107,0.47630155086517334,0.7504665851593018,0.42000001668930054,-1.3800435066223145,3.0000014305114746,-0.1397944837808609,2.999999761581421,0.00876217894256115,0.007232140749692917,0.005589519161731005,0.0038294929545372725,0.15595291554927826,0.10730376839637756,0.05652013048529625,0.0035138234961777925
0.08333333333333333,0.04555968567728996,0.030603764578700066,0.0,0.9991614818572998,0.0,0.0,-0.04094292223453522,0.9499363899230957,0.3763715624809265,0.0,0.0,0.0,-3.536097288131714,-0.3515723943710327,0.6251537799835205,0.4200000464916229,1.0,3.697269676194992e-06,-2.1889511572226183e-06,-2.6322581447857374e-07,0.0002638967416714877,0.0002658639568835497,-0.00010433699935674667,-0.0017080875113606453,0.0041501629166305065,-0.00012991549738217145,-0.1301668882369995,0.1262492537498474,1.2877025604248047,-1.8790134191513062,2.5042831897735596,-0.8579949736595154,0.47630155086517334,0.7504665851593018,0.42000001668930054,-1.3300358057022095,2.999999523162842,-0.17165763676166534,-2.999999761581421,0.00992045272141695,0.007277632597833872,0.004480278119444847,0.0015215215971693397,0.01743914559483528,-0.06758946925401688,-0.15493810176849365,-0.24449555575847626
0.1,0.05442572385072708,0.04025738313794136,0.0,0.9956348538398743,0.0,0.0,-0.09333410859107971,0.3925999701023102,0.6616075038909912,0.0,0.0,0.0,-7.289612293243408,-0.3515723943710327,0.6251537799835205,0.4200000464916229,0.9999999403953552,3.6203141462465283e-06,-2.265253215227858e-06,1.746318503137445e-07,0.00026676879497244954,0.0002674081188160926,-0.00010407879017293453,-0.0017386438557878137,0.004209273494780064,-0.0001277548144571483,-0.16360929608345032,0.1711427867412567,1.2675912380218506,-2.074256658554077,2.8679678440093994,-1.4641695022583008,0.47630155086517334,0.7504665851593018,0.42000001668930054,-1.280017375946045,2.9999916553497314,-0.13801945745944977,3.0000007152557373,0.003705791663378477,0.00028705972363241017,-0.0033396887592971325,-0.0071840351447463036,-0.4889637231826782,-0.525924026966095,-0.5654365420341492,-0.6077582240104675
0.11666666666666667,0.06523673236370087,0.05258135125041008,0.0,0.9919633269309998,0.0,0.0,-0.1265258491039276,0.8425037860870361,0.6869478225708008,0.0,0.0,0.0,-2.836893081665039,-0.3515723943710327,0.6251537799835205,0.4200000464916229,1.0,3.798288844336639e-06,-2.2628514670941513e-06,-1.5018666488231247e-07,0.0002637412981130183,0.0002656615397427231,-0.00010428996756672859,-0.001705456874333322,0.004147560801357031,-0.00012980263272766024,-0.2034548968076706,0.21303021907806396,1.2405767440795898,-2.3799657821655273,2.650787353515625,-1.7429099082946777,0.47630155086517334,0.7504665851593018,0.42000001668930054,-1.2300190925598145,3.0,-0.16985420882701874,-3.000000238418579,-0.002883069682866335,-0.0072069717571139336,-0.011754208244383335,-0.01653634011745453,-0.19141390919685364,-0.2768479883670807,-0.36064544320106506,-0.4427569806575775
0.13333333333333333,0.07557255774736404,0.06108982861042023,0.0,0.9851686358451843,0.0,0.0,-0.17158903181552887,0.70109623670578,0.5016024112701416,0.0,0.0,0.0,-6.035736083984375,-0.3515723943710327,0.6251538395881653,0.4200000464916229,0.9999999403953552,3.5503762774169445e-06,-2.229836809419794e-06,2.929272397977911e-07,0.0002670331741683185,0.0002677924057934433,-0.00010416889563202858,-0.0017440018709748983,0.0042136176489293575,-0.0001280039141420275,-0.24062833189964294,0.2617059350013733,1.207818627357483,-2.0075533390045166,3.3139188289642334,-2.0871760845184326,0.47630155086517334,0.7504665851593018,0.42000001668930054,-1.179999828338623,2.999997615814209,-0.13621576130390167,3.0,-0.008650134317576885,-0.014314471744000912,-0.020167626440525055,-0.026222193613648415,-0.20419767498970032,-0.31311723589897156,-0.4175318479537964,-0.517310380935669
0.15,0.08500108867883682,0.06672985106706619,0.0,0.9808308482170105,0.0,0.0,-0.19486120343208313,0.5033367276191711,0.2699240744113922,0.0,0.0,0.0,-1.6235772371292114,-0.3515723943710327,0.6251537799835205,0.4200000464916229,0.9999999403953552,3.337968792038737e-06,-2.2429373984778067e-06,-2.8018940056995234e-08,0.00026674504624679685,0.0002675800060387701,-0.00010427739471197128,-0.0017367404652759433,0.004206856247037649,-0.00012831475760322064,-0.2769054174423218,0.31464967131614685,1.167141318321228,-2.054246664047241,3.3655152320861816,-2.7849280834198,0.47630155086517334,0.7504665851593018,0.42000001668930054,-1.130001425743103,3.0,-0.16805554926395416,-3.000000238418579,-0.012905145063996315,-0.020106088370084763,-0.027413304895162582,-0.03483975678682327,-0.31096088886260986,-0.38538575172424316,-0.4550606310367584,-0.5201024413108826
0.16666666666666666,0.09012092649936676,0.0730145201086998,0.0,0.9739850759506226,0.0,0.0,-0.22661207616329193,0.21987248957157135,0.46702679991722107,0.0,0.0,0.0,-4.62168550491333,-0.3515723943710327,0.6251538395881653,0.4200000464916229,0.9999999403953552,3.647729727163096e-06,-2.30736554840405e-06,3.5264164921500196e-08,0.000267269613686949,0.00026801388594321907,-0.00010418449528515339,-0.0017471675528213382,0.004217584151774645,-0.0001279856078326702,-0.3106566071510315,0.3737429976463318,1.1129909753799438,-1.8643412590026855,3.7033960819244385,-3.6391499042510986,0.47630155086517334,0.7504665851593018,0.42000001668930054,-1.079995036125183,2.9999964237213135,-0.13718147575855255,2.999999761581421,-0.0203481987118721,-0.028476962819695473,-0.03662842884659767,-0.0448196604847908,-0.5339863896369934,-0.571853518486023,-0.6049844622612,-0.6336815357208252
0.18333333333333332,0.09848419576883316,0.0773005336523056,0.0,0.9589430689811707,0.0,0.0,-0.2835986316204071,0.5458868145942688,0.19634629786014557,0.0,0.0,0.0,-7.728665351867676,-0.3515723943710327,0.6251537799835205,0.4200000464916229,0.9999999403953552,3.290470658612321e-06,-2.1939799808023963e-06,-2.7924841106141685e-07,0.0002667807275429368,0.0002677615557331592,-0.00010434072464704514,-0.0017391022993251681,0.004207039717584848,-0.00012845966557506472,-0.3371397852897644,0.44116294384002686,1.043294072151184,-1.2126927375793457,4.247429847717285,-4.6139631271362305,0.47630155086517334,0.7504665851593018,0.42000001668930054,-1.0299850702285767,2.999999523162842,-0.1690552532672882,-3.000000476837158,-0.029766976833343506,-0.03820302337408066,-0.046604279428720474,-0.054994136095047,-0.720453143119812,-0.7074533104896545,-0.6927942633628845,-0.676929235458374
0.2,0.10175105929374695,0.08472171425819397,0.0,0.9472609162330627,0.0,0.0,-0.3204634189605713,0.19487522542476654,0.4507647156715393,0.0,0.0,0.0,-3.3005154132843018,-0.3515723943710327,0.6251537799835205,0.4200000464916229,1.0,3.2806892704684287e-06,-2.219290763605386e-06,1.5945947495765722e-07,0.0002662788610905409,0.00026740162866190076,-0.0001042510848492384,-0.0017356666503474116,0.004197742324322462,-0.0001286540791625157,-0.35731443762779236,0.5004750490188599,0.9578602313995361,-0.8544217348098755,3.412201404571533,-5.424570560455322,0.47630155086517334,0.7504665851593018,0.42000001668930054,-0.979975163936615,2.999997138977051,-0.2190844565629959,-3.0,-0.04524227976799011,-0.05372067168354988,-0.06215120106935501,-0.07041320949792862,-0.7198070883750916,-0.7548450231552124,-0.788723349571228,-0.8200003504753113
0.21666666666666667,0.11052557080984116,0.08758232742547989,0.0,0.9356433749198914,0.0,0.0,-0.3529469072818756,0.5413225293159485,0.12934629619121552,0.0,0.0,0.0,-4.286498069763184,-0.3515723943710327,0.6251538395881653,0.4200000464916229,1.0,3.613114131439943e-06,-2.270194727316266e-06,2.2099975183209608e-07,0.0002671250840649009,0.0002678171149455011,-0.00010414235293865204,-0.0017445179400965571,0.0042151790112257,-0.0001278658164665103,-0.3713236451148987,0.5521273612976074,0.8629215955734253,-0.4837939143180847,2.8468217849731445,-5.990636348724365,0.47630155086517334,0.7504665851593018,0.42000001668930054,-0.9299644827842712,2.999997138977051,-0.2691159248352051,-2.9999992847442627,-0.056453362107276917,-0.06518182903528214,-0.07386599481105804,-0.08237330615520477,-0.9223071932792664,-0.88840651512146,-0.8570964932441711,-0.8284302949905396
0.23333333333333334,0.11375290155410767,0.09458200633525848,0.0,0.9316138029098511,0.0,0.0,-0.3634497821331024,0.17717844247817993,0.38046082854270935,0.0,0.0,0.0,-0.3060750365257263,-0.3515723943710327,0.6251537799835205,0.4200000464916229,1.0,3.3818296287790872e-06,-2.2910207917448133e-06,2.727893502196821e-07,0.0002669137320481241,0.00026779892505146563,-0.00010433257557451725,-0.00173950067255646,0.0042096939869225025,-0.0001284372410736978,-0.37824976444244385,0.5830549597740173,0.7627538442611694,-0.14768221974372864,1.2615166902542114,-5.929549217224121,0.47630155086517334,0.7504665851593018,0.42000001668930054,-0.8799538016319275,2.9999923706054688,-0.31914854049682617,-3.000001907348633,-0.07327650487422943,-0.08186732232570648,-0.09048716723918915,-0.09897047281265259,-0.7224416136741638,-0.7703853845596313,-0.81654953956604,-0.8588255643844604
0.25,0.11557405441999435,0.09648126363754272,0.0,0.9226506948471069,0.0,0.0,-0.3856367766857147,0.072794109582901,0.031550902873277664,0.0,0.0,0.0,-3.757643699645996,-0.3515723645687103,0.6251537799835205,0.4200000464916229,0.9999999403953552,3.7065447031636722e-06,-2.2230522063182434e-06,-2.255173967569135e-07,0.0002642475883476436,0.00026656806585378945,-0.00010457867756485939,-0.0017169867642223835,0.004155563656240702,-0.00013063008373137563,-0.3788975477218628,0.6036406755447388,0.6627326011657715,0.1874186396598816,1.0148296356201172,-5.921738147735596,0.47630155086517334,0.7504665851593018,0.42000001668930054,-0.8299442529678345,2.9999947547912598,-0.36918070912361145,-3.0,-0.0859811082482338,-0.09524822980165482,-0.10450965166091919,-0.11357712000608444,-0.8282707333564758,-0.8574011325836182,-0.8846926093101501,-0.9093605875968933
0.26666666666666666,0.11364307999610901,0.10148165374994278,0.0,0.9204551577568054,0.0,0.0,-0.39084821939468384,-0.14967259764671326,0.2635687291622162,0.0,0.0,0.0,0.2580147385597229,-0.3515723943710327,0.6251537799835205,0.4200000464916229,0.9999999403953552,3.719609367180965e-06,-2.4035084607021417e-06,-1.8308776361664059e-07,0.0002662318293005228,0.00026729123783297837,-0.00010425737127661705,-0.0017326679080724716,0.004196602385491133,-0.00012851582141593099,-0.37640178203582764,0.6153459548950195,0.5713416337966919,0.23104523122310638,0.3321384787559509,-5.009947776794434,0.47630155086517334,0.7504665851593018,0.42000001668930054,-0.7799354195594788,2.9999964237213135,-0.4192117154598236,-2.999987840652466,-0.10349464416503906,-0.11256517469882965,-0.1216820552945137,-0.13063772022724152,-0.8524142503738403,-0.8845133185386658,-0.9147411584854126,-0.9420957565307617
0.2833333333333333,0.1104218065738678,0.10219453275203705,0.0,0.9191107153892517,0.0,0.0,-0.3939993381500244,-0.2671639621257782,0.08556532114744186,0.0,0.0,0.0,-0.7167820334434509,-0.3515723943710327,0.6251538395881653,0.4200000464916229,0.9999999403953552,3.584005526136025e-06,-2.315522124263225e-06,7.4028370988799e-08,0.00026522111147642136,0.00026455186889506876,-0.00010317121632397175,-0.0017020652303472161,0.004185104742646217,-0.00012499566946644336,-0.3720771074295044,0.6227767467498779,0.48712238669395447,0.5402954816818237,0.2545913755893707,-4.850063800811768,0.47630155086517334,0.7504665851593018,0.42000001668930054,-0.7299271821975708,3.0000011920928955,-0.4692409932613373,-2.999999523162842,-0.118816077709198,-0.12806719541549683,-0.13736332952976227,-0.14648404717445374,-1.028570294380188,-1.021651268005371,-1.0163662433624268,-1.012133240699768
0.3,0.10429344326257706,0.10175266861915588,0.0,0.9251512289047241,0.0,0.0,-0.3795987367630005,-0.4154391288757324,-0.0726819559931755,0.0,0.0,0.0,2.691026210784912,-0.3515723943710327,0.6251537799835205,0.4200000464916229,1.0,3.7242141388560412e-06,-2.2719709704688285e-06,9.634165820671114e-08,0.00026312493719160557,0.000265259004663676,-0.00010438216850161552,-0.001696135732345283,0.004134783986955881,-0.0001302803138969466,-0.3637491762638092,0.6257753372192383,0.4079374074935913,0.6096073389053345,-0.02183934859931469,-4.7090864181518555,0.47630155086517334,0.7504665851593018,0.42000001668930054,-0.67992103099823,2.999988317489624,-0.519268274307251,-3.00000262260437,-0.13587024807929993,-0.14501629769802094,-0.15423569083213806,-0.16329798102378845,-1.000161051750183,-1.000106930732727,-1.0000693798065186,-1.0000401735305786
0.31666666666666665,0.09587933123111725,0.09860856831073761,0.0,0.9243801832199097,0.0,0.0,-0.38147249817848206,-0.5450961589813232,-0.23184852302074432,0.0,0.0,0.0,-1.1513649225234985,-0.3515723943710327,0.6251537799835205,0.4200000464916229,1.0,3.6661813282989897e-06,-2.392628175584832e-06,1.6798112767446582e-07,0.0002660210011526942,0.00026706838980317116,-0.00010418705642223358,-0.0017310299444943666,0.004193538334220648,-0.00012849722406826913,-0.364298939704895,0.6282873153686523,0.4217153489589691,0.02297769859433174,0.28868168592453003,0.16808414459228516,0.47630155086517334,0.7504665851593018,0.42000001668930054,-0.6299284100532532,3.0000016689300537,-0.5699411630630493,-2.9752814769744873,-0.13981808722019196,-0.14866487681865692,-0.15718470513820648,-0.16508880257606506,-0.342451810836792,-0.2897200882434845,-0.21374553442001343,-0.11256051808595657
0.3333333333333333,0.0905163437128067,0.09253990650177002,0.0,0.92885822057724,0.0,0.0,-0.3704353868961334,-0.22847431898117065,-0.41900908946990967,0.0,0.0,0.0,2.1950843334198,-0.35060349106788635,0.6277419328689575,0.4208468496799469,0.9987480640411377,-0.012203455902636051,0.008957486599683762,-0.0476757287979126,0.15223775804042816,0.3535284399986267,0.08511722087860107,-2.5346813201904297,1.7241047620773315,-12.353317260742188,-0.36365097761154175,0.6347087621688843,0.4245151877403259,0.10235302895307541,0.4657491445541382,0.1307830959558487,0.47630155086517334,0.7504665851593018,0.42000001668930054,-0.579923152923584,2.9999871253967285,-0.6199670433998108,-3.0000009536743164,-0.1464650183916092,-0.15379275381565094,-0.1604461967945099,-0.16613347828388214,-0.4185023009777069,-0.304928183555603,-0.1731254756450653,-0.02405025064945221
0.35,0.083137147128582,0.08478064090013504,0.0,0.9268280863761902,0.0,0.0,-0.375485897064209,-0.5231685638427734,-0.4912116527557373,0.0,0.0,0.0,-1.6122291088104248,-0.34604349732398987,0.6363933086395264,0.42096146941185,0.9931710362434387,-0.008865218609571457,0.01435005385428667,-0.11544094234704971,0.4311075210571289,0.7205087542533875,-0.018582681193947792,2.324979543685913,-0.36955198645591736,-2.9941916465759277,-0.35778892040252686,0.6434999704360962,0.4244990348815918,0.5411686897277832,0.6583514213562012,-0.11666113138198853,0.47630155086517334,0.7504665851593018,0.42000001668930054,-0.5299181938171387,2.999990224838257,-0.6699925065040588,-3.000000476837158,-0.15656355023384094,-0.16121138632297516,-0.16492801904678345,-0.16746678948402405,-0.6298832297325134,-0.45704004168510437,-0.2708654999732971,-0.07485511898994446
0.36666666666666664,0.07830458134412766,0.07429458200931549,0.0,0.9134193658828735,0.0,0.0,-0.4070197343826294,-0.21583156287670135,-0.6780818104743958,0.0,0.0,0.0,-4.876002788543701,-0.3363186717033386,0.6513780951499939,0.42000025510787964,0.9897685050964355,0.000266165763605386,-8.627477654954419e-05,-0.1426817774772644,0.5904965996742249,0.9005544185638428,-0.004288496915251017,-0.19126038253307343,0.04675203189253807,-3.8157413005828857,-0.343989759683609,0.6555501222610474,0.420163094997406,0.9147706031799316,0.6656736731529236,0.1315637230873108,0.47630155086517334,0.7504665851593018,0.42000001668930054,-0.47986599802970886,2.9999966621398926,-0.7199969291687012,-2.9999780654907227,-0.16590717434883118,-0.16749002039432526,-0.16785578429698944,-0.1668318808078766,-0.5432429909706116,-0.3359229266643524,-0.10853555798530579,0.13331091403961182
0.3833333333333333,0.07113979756832123,0.06193607300519943,0.0,0.8863804936408997,0.0,0.0,-0.4629575312137604,-0.5018230080604553,-0.7713726162910461,0.0,0.0,0.0,-8.364412307739258,-0.3207235336303711,0.6731709837913513,0.4218854606151581,0.9861385226249695,0.039434343576431274,-0.01012696884572506,-0.16085128486156464,1.4449825286865234,1.9038535356521606,0.2570050358772278,11.685141563415527,-3.7019360065460205,-2.618109703063965,-0.31852805614471436,0.6742690801620483,0.4224221408367157,2.223785877227783,1.6826151609420776,0.13840851187705994,0.47630155086517334,0.7504665851593018,0.42000001668930054,-0.4298276901245117,2.998838424682617,-0.770010232925415,-3.0000529289245605,-0.17702849209308624,-0.17471367120742798,-0.17088143527507782,-0.16547362506389618,-0.6550915241241455,-0.4203817546367645,-0.17023460566997528,0.08809773623943329
0.4,0.06570181995630264,0.05288316309452057,0.0,0.8422722220420837,0.0,0.0,-0.5390523672103882,-0.2552664577960968,-0.559371829032898,0.0,0.0,0.0,-11.124974250793457,-0.2681485116481781,0.7134127616882324,0.4268496334552765,0.9753775000572205,0.11272282898426056,-0.035610854625701904,-0.18618300557136536,4.325992107391357,3.298480272293091,0.17057406902313232,4.433266639709473,3.811485528945923,-31.34515380859375,-0.2565092444419861,0.7122997641563416,0.42497193813323975,4.712348937988281,2.806762456893921,0.22618956863880157,0.47630155086517334,0.7504665851593018,0.42000001668930054,-0.39117977023124695,0.8616722822189331,-0.773648202419281,2.1015799045562744,-0.18947544693946838,-0.18414121866226196,-0.17546112835407257,-0.16525274515151978,-0.41823071241378784,-0.4182967245578766,-0.19022054970264435,0.035551123321056366
0.4166666666666667,0.06406934559345245,0.04596548527479172,0.0,0.8053607940673828,0.0,0.0,-0.5927849411964417,-0.04127892479300499,-0.36154094338417053,0.0,0.0,0.0,-6.620845794677734,-0.18657433986663818,0.7667582631111145,0.43418288230895996,0.9506986737251282,0.09940486401319504,-0.0336640439927578,-0.2918175458908081,4.96967077255249,2.762613296508789,0.3260244131088257,12.56097412109375,-13.367389678955078,-0.4030553698539734,-0.17826786637306213,0.7633165121078491,0.43126174807548523,4.887725830078125,2.966181755065918,0.5588996410369873,0.47630155086517334,0.7504665851593018,0.42000001668930054,-0.3796581029891968,0.8458993434906006,-0.8068554997444153,-3.0000040531158447,-0.19612209498882294,-0.19089503586292267,-0.1793542504310608,-0.16643013060092926,-0.33312568068504333,-0.34207749366760254,-0.2142845243215561,-0.09905989468097687
0.43333333333333335,0.061775464564561844,0.04322460666298866,0.0,0.789840042591095,0.0,0.0,-0.6133129000663757,-0.21441590785980225,-0.07543091475963593,0.0,0.0,0.0,-1.8167884349822998,-0.10114382952451706,0.8138492107391357,0.4446354806423187,0.9056591391563416,0.13084959983825684,-0.06141168996691704,-0.39860814809799194,5.289760112762451,2.17807674407959,0.6651899218559265,2.0180234909057617,-7.328658580780029,-1.4178560972213745,-0.09497974067926407,0.808937668800354,0.4404527544975281,5.276214599609375,2.476128101348877,0.7472559213638306,0.47630155086517334,0.7504665851593018,0.42000001668930054,-0.35514843463897705,1.8373149633407593,-0.856879472732544,-2.999558448791504,-0.20318791270256042,-0.19756212830543518,-0.18393290042877197,-0.16914688050746918,-0.43866705894470215,-0.3939765989780426,-0.2787727117538452,-0.1777225285768509
0.45,0.06132775545120239,0.03699656203389168,0.0,0.7671108841896057,0.0,0.0,-0.6415145397186279,0.024800557643175125,-0.3895156681537628,0.0,0.0,0.0,-5.042383670806885,-0.007917452603578568,0.8441129922866821,0.4555768370628357,0.8618559241294861,0.11870911717414856,-0.04261336475610733,-0.49121934175491333,5.8346967697143555,0.6670037508010864,0.6164822578430176,6.818449974060059,-19.624616622924805,14.943963050842285,-0.0038383519276976585,0.8414736986160278,0.451224684715271,5.754384994506836,1.4048547744750977,0.8514690399169922,0.47630155086517334,0.7504665851593018,0.42000001668930054,-0.3262178599834442,1.3538907766342163,-0.9069035053253174,-3.0000054836273193,-0.20878183841705322,-0.20195694267749786,-0.1863333135843277,-0.16971561312675476,-0.49521830677986145,-0.354592889547348,-0.18963798880577087,-0.03549235314130783
0.4666666666666667,0.05917314067482948,0.035913608968257904,0.0,0.7565730214118958,0.0,0.0,-0.6539092063903809,-0.1640230417251587,-0.041227515786886215,0.0,0.0,0.0,-0.601184606552124,0.08820122480392456,0.8583223223686218,0.4698789715766907,0.7986181378364563,0.1379706859588623,-0.05155625939369202,-0.5835365653038025,5.92201042175293,0.03159952908754349,0.5527029037475586,-5.340771198272705,-15.881339073181152,3.1800339221954346,0.09190879762172699,0.8556433320045471,0.464837908744812,5.868268013000488,0.5114085078239441,0.9769300222396851,0.47630155086517334,0.7504665851593018,0.42000001668930054,-0.3058490455150604,1.0276561975479126,-0.9569275379180908,-3.0000040531158447,-0.22078965604305267,-0.21079693734645844,-0.1921052485704422,-0.17275696992874146,-0.5521491765975952,-0.40264084935188293,-0.2736104428768158,-0.16017362475395203
0.48333333333333334,0.05930999293923378,0.030176207423210144,0.0,0.7390099763870239,0.0,0.0,-0.6736944317817688,0.030715279281139374,-0.3922952711582184,0.0,0.0,0.0,-3.9908030033111572,0.18257074058055878,0.8577250838279724,0.48074573278427124,0.7381285429000854,0.1380600929260254,-0.05402691289782524,-0.658169150352478,5.2734198570251465,-1.1809213161468506,0.47266411781311035,-8.179610252380371,-3.3464972972869873,9.05956745147705,0.1853262186050415,0.854863166809082,0.47576260566711426,5.43170166015625,-0.6405609846115112,0.6674188375473022,0.47630155086517334,0.7504665851593018,0.42000001668930054,-0.2948581576347351,0.40573176741600037,-1.0069513320922852,-2.9975881576538086,-0.2265356332063675,-0.2141614705324173,-0.19359613955020905,-0.17254947125911713,-0.36577582359313965,-0.1899281144142151,-0.05590840429067612,0.0674947053194046
0.5,0.061913810670375824,0.028629621490836143,0.0,0.7332988977432251,0.0,0.0,-0.67990642786026,0.17505675554275513,-0.0872318297624588,0.0,0.0,0.0,-0.03783571347594261,0.26754385232925415,0.8412237167358398,0.4880453646183014,0.6631203293800354,0.1210968941450119,-0.05980972573161125,-0.7362266778945923,4.8324480056762695,-1.160634160041809,0.3145853877067566,2.3051998615264893,2.1901259422302246,-17.746660232543945,0.2682608664035797,0.8372470736503601,0.48313748836517334,4.6717424392700195,-1.3519998788833618,0.29879865050315857,0.47630155086517334,0.7504665851593018,0.42000001668930054,-0.2816760540008545,1.235260009765625,-1.0569734573364258,-2.999999761581421,-0.23481065034866333,-0.219166100025177,-0.196341872215271,-0.17336229979991913,-0.2514142692089081,-0.12332960218191147,-0.060773931443691254,-0.012983766384422779
0.5166666666666666,0.06674093753099442,0.029405439272522926,0.0,0.7196016907691956,0.0,0.0,-0.6943870782852173,0.33748236298561096,0.11342911422252655,0.0,0.0,0.0,-3.2635440826416016,0.33919915556907654,0.8192917108535767,0.48689740896224976,0.600924015045166,0.0874229297041893,-0.06348108500242233,-0.7919706702232361,3.522660732269287,-1.4716224670410156,-0.3207889497280121,-12.215738296508789,-8.530855178833008,6.193824291229248,0.3385899066925049,0.816800057888031,0.4831814765930176,3.8852832317352295,-1.328631043434143,-0.16205048561096191,0.47630155086517334,0.7504665851593018,0.42000001668930054,-0.2607077658176422,1.1715832948684692,-1.1069955825805664,-3.0000033378601074,-0.23607614636421204,-0.21951107680797577,-0.196846604347229,-0.17414911091327667,0.0667097344994545,0.07421471178531647,0.014123446308076382,-0.05080471187829971
0.5333333333333333,0.07414902001619339,0.02737787552177906,0.0,0.717531681060791,0.0,0.0,-0.6965258717536926,0.4598280191421509,-0.15952137112617493,0.0,0.0,0.0,0.5688492655754089,0.39132022857666016,0.7941264510154724,0.47837990522384644,0.6025630235671997,0.07981511205434799,-0.08207546174526215,-0.7898170351982117,2.649101495742798,-1.5516191720962524,-0.5569248199462891,3.6990768909454346,-1.8911306858062744,-0.4991520643234253,0.3936353325843811,0.7936220169067383,0.47709450125694275,2.764802932739258,-1.5176644325256348,-0.5481430888175964,0.47630155086517334,0.7504665851593018,0.42000001668930054,-0.24753177165985107,0.9303986430168152,-1.157017707824707,-2.9999425411224365,-0.23225757479667664,-0.21590222418308258,-0.19465769827365875,-0.17349869012832642,0.21225295960903168,0.200327068567276,0.11111271381378174,0.01100496668368578
0.55,0.08180997520685196,0.028476811945438385,0.0,0.7057013511657715,0.0,0.0,-0.7085093855857849,0.4706357419490814,0.08636005222797394,0.0,0.0,0.0,-2.8632662296295166,0.43190085887908936,0.7738065123558044,0.46342048048973083,0.5770477652549744,0.03976397216320038,-0.06991088390350342,-0.8127405047416687,1.6498408317565918,-1.8599567413330078,-0.9601033329963684,-3.2624082565307617,-12.901700973510742,22.034343719482422,0.4332978129386902,0.7724829912185669,0.46260833740234375,2.0963187217712402,-1.1065750122070312,-1.0482147932052612,0.47630155086517334,0.7504665851593018,0.42000001668930054,-0.239411860704422,0.013290446251630783,-1.2070398330688477,-3.0000038146972656,-0.22785243391990662,-0.21257509291172028,-0.19359086453914642,-0.17476895451545715,0.3961018919944763,0.2826855778694153,0.10408144444227219,-0.07390792667865753
0.5666666666666667,0.0909048318862915,0.03215934708714485,0.0,0.7060648202896118,0.0,0.0,-0.7081471681594849,0.5807921290397644,0.27640485763549805,0.0,0.0,0.0,0.9758901596069336,0.4603227376937866,0.755187451839447,0.4423029124736786,0.5515481233596802,0.005029833409935236,-0.05086478963494301,-0.8325755596160889,1.1174719333648682,-1.1303949356079102,-1.4006820917129517,-2.833763837814331,4.848803997039795,7.6986002922058105,0.45929837226867676,0.7534099817276001,0.44159531593322754,1.2006707191467285,-1.089043378829956,-1.369771122932434,0.47630155086517334,0.7504665851593018,0.42000001668930054,-0.24375629425048828,-0.14748716354370117,-1.2570619583129883,-3.000001907348633,-0.22000281512737274,-0.20719929039478302,-0.19165688753128052,-0.17619092762470245,0.5233660340309143,0.35321593284606934,0.12887896597385406,-0.0888783410191536
0.5833333333333334,0.10228166729211807,0.03125758096575737,0.0,0.6956644654273987,0.0,0.0,-0.7183668613433838,0.6953507661819458,-0.06043652072548866,0.0,0.0,0.0,-2.6049964427948,0.47410738468170166,0.7454691529273987,0.42217764258384705,0.569818377494812,-0.0870724692940712,-0.01418421883136034,-0.8170215487480164,0.4480144679546356,-0.40618398785591125,-0.9165518879890442,37.59743881225586,14.135710716247559,-8.922439575195312,0.47438696026802063,0.7462005019187927,0.4262043833732605,0.4996820092201233,-0.023048289120197296,-0.04203081130981445,0.47630155086517334,0.7504665851593018,0.42000001668930054,-0.24965353310108185,-0.48990488052368164,-1.2323434352874756,2.991478443145752,-0.20520880818367004,-0.19631752371788025,-0.1858191192150116,-0.17507733404636383,0.8245149254798889,0.6373522281646729,0.3364270329475403,0.057813458144664764
0.6,0.11061997711658478,0.0346805714070797,0.0,0.697111189365387,0.0,0.0,-0.7169630527496338,0.4388843774795532,0.21041364967823029,0.0,0.0,0.0,1.1375575065612793,0.4760510325431824,0.7397947311401367,0.42046138644218445,0.5406161546707153,-0.004017706494778395,0.009379072114825249,-0.8412075042724609,0.04279138892889023,-0.5118197202682495,-0.17952470481395721,-3.336038589477539,-9.409172058105469,-10.134086608886719,0.4763972759246826,0.743470311164856,0.4282976984977722,-0.05423112213611603,-0.13860124349594116,0.19285276532173157,0.47630155086517334,0.7504665851593018,0.42000001668930054,-0.29201066493988037,-3.0000007152557373,-1.2530477046966553,-2.999607563018799,-0.194885715842247,-0.18850965797901154,-0.18215088546276093,-0.17525246739387512,0.6629846096038818,0.4970172941684723,0.25195860862731934,0.02555040642619133
0.6166666666666667,0.12036361545324326,0.03709958493709564,0.0,0.6873306632041931,0.0,0.0,-0.726344645023346,0.5711652636528015,0.14659422636032104,0.0,0.0,0.0,-2.5853664875030518,0.47757387161254883,0.7338337302207947,0.42011064291000366,0.4918227791786194,-0.001323050819337368,0.002423355355858803,-0.8706908822059631,0.045320428907871246,-0.34690526127815247,-0.02004394493997097,-0.4717777371406555,-0.8668640851974487,-6.621557235717773,0.4773210287094116,0.7457628846168518,0.43141070008277893,0.061192162334918976,0.2843816876411438,0.19689545035362244,0.47630155086517334,0.7504665851593018,0.42000001668930054,-0.337863028049469,-2.4970526695251465,-1.3030132055282593,-2.999476909637451,-0.18110230565071106,-0.17823608219623566,-0.17646946012973785,-0.17377614974975586,0.8314855694770813,0.6241573691368103,0.35801658034324646,0.11400450021028519
0.6333333333333333,0.13105010986328125,0.036754366010427475,0.0,0.6892464756965637,0.0,0.0,-0.7245269417762756,0.6737259030342102,-0.09320787340402603,0.0,0.0,0.0,1.2346245050430298,0.4777244031429291,0.7298010587692261,0.42000216245651245,0.4868723452091217,1.362494094792055e-05,-4.037190228700638e-05,-0.873473048210144,-0.025986503809690475,-0.1758275330066681,0.0016602318501099944,-0.053001292049884796,-0.09121687710285187,4.963324546813965,0.4760593771934509,0.747517466545105,0.4344410300254822,-0.11573509871959686,0.05184220150113106,0.18914476037025452,0.47630155086517334,0.7504665851593018,0.42000001668930054,-0.387622594833374,-3.0000014305114746,-1.3530086278915405,-2.9999783039093018,-0.1704636514186859,-0.1701708436012268,-0.17177237570285797,-0.17221175134181976,0.5661824345588684,0.43321070075035095,0.26349103450775146,0.10291479527950287
0.65,0.14327824115753174,0.03864626958966255,0.0,0.7033243775367737,0.0,0.0,-0.7108690738677979,0.7941535711288452,0.14894607663154602,0.0,0.0,0.0,2.887702465057373,0.4767598807811737,0.7280921936035156,0.4200494885444641,0.5066234469413757,0.00063699996098876,-0.0010572625324130058,-0.8621665239334106,-0.06005711108446121,-0.04319506138563156,0.016656409949064255,-0.45872771739959717,-0.7406105995178223,-0.4346771538257599,0.47515708208084106,0.7484342455863953,0.4375712275505066,-0.05656435340642929,0.11784688383340836,0.1985817849636078,0.47630155086517334,0.7504665851593018,0.42000001668930054,-0.43762466311454773,-2.9999794960021973,-1.4029749631881714,-2.9992117881774902,-0.1630687415599823,-0.1646479219198227,-0.16846734285354614,-0.17095711827278137,0.4536118507385254,0.3428995609283447,0.22509662806987762,0.11858956515789032
0.6666666666666666,0.15328827500343323,0.03712636977434158,0.0,0.7035334706306458,0.0,0.0,-0.7106621265411377,0.5140817165374756,-0.12755334377288818,0.0,0.0,0.0,-0.9504414796829224,0.47643834352493286,0.7278202176094055,0.4200000762939453,0.5051217675209045,-6.474325005001447e-07,-9.901061730488436e-07,-0.8630480766296387,-0.0012434746604412794,-0.0008828847203403711,-6.763078999938443e-05,0.001852308982051909,-0.000928951078094542,-0.010657794773578644,0.47513240575790405,0.7504079341888428,0.4412584900856018,-0.039673250168561935,0.02929915487766266,0.2412615567445755,0.47630155086517334,0.7504665851593018,0.42000001668930054,-0.487629234790802,-2.999990940093994,-1.4529536962509155,-2.999964475631714,-0.1555410623550415,-0.15851089358329773,-0.16363908350467682,-0.16724132001399994,0.3042632043361664,0.27327191829681396,0.25436389446258545,0.2439994215965271
0.6833333333333333,0.1632842719554901,0.03193291276693344,0.0,0.6840108036994934,0.0,0.0,-0.7294718623161316,0.6434342861175537,-0.3881808817386627,0.0,0.0,0.0,-4.100149154663086,0.4764381945133209,0.7278203368186951,0.4200000464916229,0.5051218867301941,1.0499213942694041e-07,-2.5308777367172297e-06,-0.8630479574203491,-5.566107574850321e-06,-0.0002328294940525666,-6.160303018987179e-05,0.006548518314957619,-0.0022635143250226974,-0.0006822814466431737,0.4796804189682007,0.7532750368118286,0.4505992531776428,0.5650653839111328,0.254762202501297,1.002061128616333,0.47630155086517334,0.7504665851593018,0.42000001668930054,-0.5376416444778442,-2.9999680519104004,-1.502971887588501,-2.9999988079071045,-0.15290792286396027,-0.1560027152299881,-0.16089947521686554,-0.16410893201828003,0.06340929120779037,0.07746095210313797,0.11940618604421616,0.17094750702381134
0.7,0.17694807052612305,0.03168764337897301,0.0,0.6686888337135315,0.0,0.0,-0.7435423731803894,0.7702257037162781,-0.004745859652757645,0.0,0.0,0.0,-1.5432043075561523,0.4764381945133209,0.7278202772140503,0.4200000464916229,0.505121648311615,-1.5563287547593063e-07,-2.259148004668532e-06,-0.8630480766296387,-2.3084872736944817e-05,-0.00022733221703674644,-6.186706013977528e-05,0.0064606694504618645,-0.002545021241530776,-0.0006381461280398071,0.48996493220329285,0.7582697868347168,0.4761215150356293,0.7524300217628479,0.5351557731628418,2.0137596130371094,0.47630155086517334,0.7504665851593018,0.42000001668930054,-0.5876504182815552,-2.9999849796295166,-1.552990198135376,-2.9999990463256836,-0.15807998180389404,-0.16005215048789978,-0.16332712769508362,-0.16482123732566833,-0.16798672080039978,-0.14731481671333313,-0.0875973254442215,-0.01595461368560791
0.7166666666666667,0.18653646111488342,0.03355689346790314,0.0,0.6762281060218811,0.0,0.0,-0.7366923093795776,0.521684467792511,0.12205874919891357,0.0,0.0,0.0,2.0986368656158447,0.4764381945133209,0.7278202772140503,0.4200000464916229,0.5051217079162598,-1.841290497850423e-07,-2.119125383615028e-06,-0.8630481362342834,-2.1501917217392474e-05,-0.00022744237503502518,-6.224657408893108e-05,0.006454804912209511,-0.002529189456254244,-0.0006421254947781563,0.5055546760559082,0.7627077698707581,0.5098460912704468,1.1067103147506714,0.096270352602005,2.070129156112671,0.47630155086517334,0.7504665851593018,0.42000001668930054,-0.6321493983268738,-2.3602898120880127,-1.603008508682251,-2.999999523162842,-0.16098953783512115,-0.16227850317955017,-0.16411976516246796,-0.16393882036209106,-0.10869617760181427,-0.06553936749696732,0.027335582301020622,0.13735514879226685
0.7333333333333333,0.19210763275623322,0.030195022001862526,0.0,0.6725441813468933,0.0,0.0,-0.7400569319725037,0.2918817102909088,-0.23485414683818817,0.0,0.0,0.0,-1.4331626892089844,0.4764381945133209,0.7278203368186951,0.4200000464916229,0.5051218867301941,-1.9619419333594124e-07,-2.649199586812756e-06,-0.8630479574203491,-2.5023962734849192e-05,-0.00022927933605387807,-6.170314736664295e-05,0.00652159471064806,-0.0025807104539126158,-0.0006404178566299379,0.5253069400787354,0.764310359954834,0.5384582281112671,1.1720199584960938,-0.10354262590408325,1.519251823425293,0.47630155086517334,0.7504665851593018,0.42000001668930054,-0.6595836877822876,-1.022536277770996,-1.6530243158340454,-2.999999523162842,-0.15922074019908905,-0.16016539931297302,-0.160906583070755,-0.15941566228866577,-0.022532640025019646,0.03839225694537163,0.13591618835926056,0.23605851829051971
0.75,0.19909757375717163,0.03188555687665939,0.0,0.6804668307304382,0.0,0.0,-0.7327789068222046,0.3864104151725769,0.1590813398361206,0.0,0.0,0.0,2.1240243911743164,0.4764381945133209,0.7278202772140503,0.4200000464916229,0.5051215291023254,-1.7448023470478802e-07,-2.197992898800294e-06,-0.8630481958389282,-2.3261427486431785e-05,-0.00022757482656743377,-6.181327626109123e-05,0.006468332372605801,-0.002547452226281166,-0.0006384442676790059,0.5410311222076416,0.7617365121841431,0.5637038946151733,0.8124340772628784,-0.03179721534252167,1.52711820602417,0.47630155086517334,0.7504665851593018,0.42000001668930054,-0.6553919315338135,1.3161414861679077,-1.671639323234558,0.47976091504096985,-0.1633535623550415,-0.16275060176849365,-0.16150633990764618,-0.15816128253936768,-0.14537762105464935,-0.08728432655334473,-0.006482346914708614,0.06452091038227081
0.7666666666666666,0.20269671082496643,0.02939239889383316,0.0,0.6767963767051697,0.0,0.0,-0.7361702919006348,0.18269670009613037,-0.20627836883068085,0.0,0.0,0.0,-1.4897139072418213,0.47643816471099854,0.7278203368186951,0.4200000464916229,0.5051220059394836,-1.844517356630604e-07,-2.3212433006847277e-06,-0.8630479574203491,-2.5716619347804226e-05,-0.00022908792016096413,-6.154738366603851e-05,0.00651977676898241,-0.0025876478757709265,-0.0006382723804563284,0.5516587495803833,0.761457622051239,0.5849258899688721,0.39078524708747864,-0.14553610980510712,1.165522813796997,0.47630155086517334,0.7504665851593018,0.42000001668930054,-0.6653299331665039,-2.194737434387207,-1.6232348680496216,3.0000009536743164,-0.16325464844703674,-0.1619916558265686,-0.15973706543445587,-0.1555410474538803,-0.05473388358950615,0.008787709288299084,0.08751912415027618,0.1520833522081375
0.7833333333333333,0.20743508636951447,0.030168624594807625,0.0,0.6840249300003052,0.0,0.0,-0.7294586300849915,0.3148110806941986,0.055771805346012115,0.0,0.0,0.0,1.9201303720474243,0.4764381945133209,0.7278203368186951,0.4200000464916229,0.5051220059394836,9.223998631568975e-08,-2.74812919087708e-06,-0.8630478978157043,-2.424985905236099e-05,-0.0002323053777217865,-6.203213706612587e-05,0.006598310545086861,-0.0025879240129143,-0.0006515668355859816,0.5589038729667664,0.7578574419021606,0.6023111343383789,0.5613057613372803,-0.15950733423233032,0.9882043600082397,0.47630155086517334,0.7504665851593018,0.42000001668930054,-0.6705327033996582,1.272808313369751,-1.6366074085235596,-2.999999761581421,-0.16537167131900787,-0.1630045622587204,-0.15943779051303864,-0.15417933464050293,0.02231992967426777,0.04791964218020439,0.08700323849916458,0.11494306474924088
0.8,0.20966443419456482,0.027685770764946938,0.0,0.679738461971283,0.0,0.0,-0.7334545850753784,0.07744704931974411,-0.19903196394443512,0.0,0.0,0.0,-1.537210464477539,0.47643816471099854,0.7278203368186951,0.4200000464916229,0.5051220059394836,-2.192262655853483e-07,-2.758516757239704e-06,-0.8630479574203491,-2.11201622732915e-05,-0.0002291316632181406,-6.245821714401245e-05,0.006497850641608238,-0.0025346868205815554,-0.0006483065080828965,0.5635939836502075,0.7571930289268494,0.614068865776062,-0.009374410845339298,-0.0024358034133911133,0.5565338730812073,0.47630155086517334,0.7504665851593018,0.42000001668930054,-0.6671547293663025,-0.6991396546363831,-1.5974985361099243,3.0,-0.16445544362068176,-0.16175058484077454,-0.15768291056156158,-0.1521279513835907,0.03210171312093735,0.06002170592546463,0.09289029240608215,0.11089230328798294
0.8166666666666667,0.21237239241600037,0.028570128604769707,0.0,0.6866369247436523,0.0,0.0,-0.7270004749298096,0.22802579402923584,0.0713808685541153,0.0,0.0,0.0,1.8452593088150024,0.4764381945133209,0.7278202772140503,0.4200000464916229,0.5051217079162598,-1.8722667505244317e-07,-2.3267871256393846e-06,-0.8630481362342834,-2.2587480998481624e-05,-0.00022758726845495403,-6.190990097820759e-05,0.006465658079832792,-0.002538599306717515,-0.0006397918914444745,0.5625002980232239,0.756141185760498,0.6229898929595947,-0.02474255859851837,0.047881510108709335,0.5656116008758545,0.47630155086517334,0.7504665851593018,0.42000001668930054,-0.651547908782959,2.297344923019409,-1.6114976406097412,-3.000000476837158,-0.16545458137989044,-0.1622028946876526,-0.15754947066307068,-0.15166319906711578,0.06385717540979385,0.0562535896897316,0.05282922834157944,0.03902539610862732
0.8333333333333334,0.21334852278232574,0.025917716324329376,0.0,0.6816107034683228,0.0,0.0,-0.7317150235176086,0.003963411785662174,-0.18908549845218658,0.0,0.0,0.0,-1.6357905864715576,0.4764381945133209,0.7278202772140503,0.4200000464916229,0.5051217079162598,-1.639223938809664e-07,-2.3211641746456735e-06,-0.8630481362342834,-2.1985561033943668e-05,-0.00022723368601873517,-6.211642175912857e-05,0.006451913621276617,-0.0025330553762614727,-0.0006403524312190711,0.5583744645118713,0.7589356899261475,0.6285253763198853,-0.5167626142501831,0.16342170536518097,0.22439387440681458,0.47630155086517334,0.7504665851593018,0.42000001668930054,-0.6438655257225037,-1.0876622200012207,-1.572458267211914,3.0,-0.16293305158615112,-0.1600661426782608,-0.15574178099632263,-0.15032647550106049,0.07763677835464478,0.072535939514637,0.0670928806066513,0.05129039287567139
0.85,0.21542620658874512,0.026839086785912514,0.0,0.687764048576355,0.0,0.0,-0.7259342670440674,0.16635920107364655,0.07868467271327972,0.0,0.0,0.0,1.726825475692749,0.4764381945133209,0.7278202772140503,0.4200000464916229,0.5051217079162598,-1.7035178245805582e-07,-2.1735511381848482e-06,-0.8630480766296387,-2.128941923729144e-05,-0.00022732751676812768,-6.228405982255936e-05,0.006450772751122713,-0.0025261130649596453,-0.0006421944126486778,0.5505950450897217,0.7604516744613647,0.631439208984375,-0.33623388409614563,0.16101515293121338,0.19137156009674072,0.47630155086517334,0.7504665851593018,0.42000001668930054,-0.634494423866272,1.9408847093582153,-1.5482896566390991,0.12813380360603333,-0.1631084829568863,-0.16026464104652405,-0.15598489344120026,-0.15077529847621918,0.09119010716676712,0.05670791119337082,0.023047592490911484,-0.015521480701863766
0.8666666666666667,0.2156151682138443,0.024374060332775116,0.0,0.6819844245910645,0.0,0.0,-0.7313666939735413,-0.04061029851436615,-0.16354668140411377,0.0,0.0,0.0,-1.763094425201416,0.47643816471099854,0.7278202772140503,0.4200000464916229,0.505121648311615,-1.3992925573802495e-07,-2.2407468804885866e-06,-0.8630481362342834,-2.3808643163647503e-05,-0.00022758524573873729,-6.175809539854527e-05,0.006470656953752041,-0.0025554667226970196,-0.0006374719669111073,0.5419824123382568,0.7647712230682373,0.6314939260482788,-0.7557870149612427,0.22155719995498657,-0.06677033007144928,0.47630155086517334,0.7504665851593018,0.42000001668930054,-0.6327237486839294,-1.436560869216919,-1.5005007982254028,2.9999992847442627,-0.16033370792865753,-0.15828090906143188,-0.1547907441854477,-0.1504286527633667,0.05377763509750366,0.03209346532821655,0.006638145539909601,-0.025087686255574226
0.8833333333333333,0.21691249310970306,0.0253412164747715,0.0,0.6870782971382141,0.0,0.0,-0.7265834212303162,0.11876770108938217,0.0895521268248558,0.0,0.0,0.0,1.5613572597503662,0.4764381945133209,0.7278202772140503,0.4200000464916229,0.505121648311615,-1.8886879615820362e-07,-2.100207211697125e-06,-0.8630481362342834,-2.1822968847118318e-05,-0.0002275233418913558,-6.212759763002396e-05,0.006459082942456007,-0.0025316651444882154,-0.0006415213574655354,0.5323732495307922,0.767186164855957,0.6293900012969971,-0.3552681505680084,0.19177639484405518,-0.12058433145284653,0.47630155086517334,0.7504665851593018,0.42000001668930054,-0.6285750269889832,1.661666750907898,-1.5058403015136719,-3.0,-0.16072145104408264,-0.15893739461898804,-0.15577518939971924,-0.1518123894929886,0.04958536475896835,0.010882089845836163,-0.02939004637300968,-0.06976693123579025
