vladlanda/robotic-transformer/data/env_000_episode_0032.csv
sim_time_s,robot_box_x,robot_box_y,robot_box_z,robot_box_quat_w,robot_box_quat_x,robot_box_quat_y,robot_box_quat_z,robot_box_linvel_x,robot_box_linvel_y,robot_box_linvel_z,robot_box_angvel_x,robot_box_angvel_y,robot_box_angvel_z,cube_world_x,cube_world_y,cube_world_z,cube_quat_w,cube_quat_x,cube_quat_y,cube_quat_z,cube_linvel_x,cube_linvel_y,cube_linvel_z,cube_angvel_x,cube_angvel_y,cube_angvel_z,endpoint_world_x,endpoint_world_y,endpoint_world_z,endpoint_linvel_x,endpoint_linvel_y,endpoint_linvel_z,target_cube_world_x,target_cube_world_y,target_cube_world_z,gripper_actual_pos_rad_gp_leftgearjoint,gripper_actual_vel_rad_s_gp_leftgearjoint,gripper_actual_pos_rad_gp_rotatingjoint,gripper_actual_vel_rad_s_gp_rotatingjoint,motor_angle_rad_joint1,motor_angle_rad_joint2,motor_angle_rad_joint3,motor_angle_rad_joint4,motor_speed_rad_s_joint1,motor_speed_rad_s_joint2,motor_speed_rad_s_joint3,motor_speed_rad_s_joint4
0.0,0.0,0.0,0.0,1.0,0.0,0.0,0.0,0.0,0.0,0.0,0.0,0.0,0.0,-0.4083671569824219,0.6398460865020752,0.41999998688697815,1.0,0.0,0.0,0.0,0.0,0.0,0.0,0.0,0.0,0.0,3.42540442943573e-06,-0.005000244826078415,1.313499927520752,0.0,0.0,0.0,0.38261109590530396,0.6321086287498474,0.42000001668930054,-1.5707999467849731,0.0,0.0,0.0,0.0,0.0,0.0,0.0,0.0,0.0,0.0,0.0
0.016666666666666666,0.0028778850100934505,0.0021806680597364902,0.0,0.9998081922531128,0.0,0.0,0.019586581736803055,0.24087215960025787,0.18240931630134583,0.0,0.0,0.0,3.1418697834014893,-0.4083672761917114,0.6398457884788513,0.41999998688697815,1.0,3.279964630564791e-06,-8.339746386809566e-07,8.465587342243452e-08,-1.9833529222523794e-05,0.00017983045836444944,-6.132945418357849e-05,0.0009432713268324733,-0.004689474124461412,-0.00031981561915017664,-0.007110234349966049,0.003379564033821225,1.3159373998641968,-0.8143353462219238,0.9868683815002441,0.18095196783542633,0.38261109590530396,0.6321086287498474,0.42000001668930054,-1.5301095247268677,3.0000011920928955,-0.04584788903594017,-2.9999992847442627,0.0008691533003002405,0.0007963840034790337,0.0007110277656465769,0.0006108740926720202,0.11094217747449875,0.09756709635257721,0.08334315568208694,0.06823883205652237
0.03333333333333333,0.008960944600403309,0.006801794283092022,0.0,0.9997960329055786,0.0,0.0,0.0201968252658844,0.40701791644096375,0.31530269980430603,0.0,0.0,0.0,-0.8691300749778748,-0.408367395401001,0.6398457288742065,0.4200000464916229,1.0,3.3908354453160428e-06,-2.1324485715012997e-06,-3.710144014235084e-08,0.00026357831666246057,0.00026937946677207947,-0.00010509486310184002,-0.0017707672668620944,0.004130808170884848,-0.000135478752781637,-0.027540884912014008,0.02574882097542286,1.3166654109954834,-1.5910402536392212,1.5997722148895264,-0.07676442712545395,0.38261109590530396,0.6321086287498474,0.42000001668930054,-1.4800903797149658,3.0000009536743164,-0.09588771313428879,-3.0000007152557373,0.0029902078676968813,0.0026528630405664444,0.0022774741519242525,0.0018609670223668218,0.16423186659812927,0.1397789865732193,0.11384127289056778,0.0863264948129654
0.05,0.017681781202554703,0.013757782056927681,0.0,0.9993979930877686,0.0,0.0,0.03469385206699371,0.5921468138694763,0.46456068754196167,0.0,0.0,0.0,2.6591849327087402,-0.40836742520332336,0.6398457884788513,0.4200000464916229,1.0,3.765139354072744e-06,-2.2119161258160602e-06,5.630195420991413e-09,0.0002653095289133489,0.00026691411039792,-0.00010440382175147533,-0.0017242460744455457,0.004177400842308998,-0.00012949357915204018,-0.05962405726313591,0.05301434174180031,1.3118971586227417,-2.1866822242736816,1.7030298709869385,-0.4542233943939209,0.38261109590530396,0.6321086287498474,0.42000001668930054,-1.4300720691680908,2.9999985694885254,-0.145926371216774,-2.9999992847442627,0.005685672163963318,0.004895044956356287,0.004032294265925884,0.0030929255299270153,0.19258971512317657,0.15568983554840088,0.11691737174987793,0.07617916911840439
0.06666666666666667,0.028970373794436455,0.0230425838381052,0.0,0.999466061592102,0.0,0.0,0.03267471119761467,0.7187619209289551,0.5947138667106628,0.0,0.0,0.0,-1.200563669204712,-0.40836742520332336,0.6398457288742065,0.4200000464916229,0.9999999403953552,3.4067325032083318e-06,-2.285616346853203e-06,4.301086846680846e-07,0.0002670263056643307,0.0002679172612261027,-0.00010437914170324802,-0.0017406872939318419,0.004211808554828167,-0.0001285045873373747,-0.09833735227584839,0.08635644614696503,1.2997486591339111,-2.4685535430908203,2.176942825317383,-0.9777535200119019,0.38261109590530396,0.6321086287498474,0.42000001668930054,-1.3800443410873413,3.0000007152557373,-0.12884120643138885,2.9999992847442627,0.008260959759354591,0.006783292628824711,0.005194694735109806,0.0034894237760454416,0.15112872421741486,0.1004190742969513,0.047675780951976776,-0.007183128967881203
0.08333333333333333,0.03783059120178223,0.03507445752620697,0.0,1.0,0.0,0.0,0.00026581119163893163,0.4199883043766022,0.7857288718223572,0.0,0.0,0.0,-4.840205192565918,-0.40836742520332336,0.6398457288742065,0.4200000464916229,1.0,3.6972751331632026e-06,-2.188954113080399e-06,-2.6322550183977e-07,0.0002638972655404359,0.00026586506282910705,-0.00010434049181640148,-0.0017082244157791138,0.004150220658630133,-0.00012991207768209279,-0.13734275102615356,0.12533947825431824,1.2806012630462646,-2.2868008613586426,2.3966193199157715,-1.277430772781372,0.38261109590530396,0.6321086287498474,0.42000001668930054,-1.3300377130508423,2.9999983310699463,-0.160780668258667,-3.000000476837158,0.0072835092432796955,0.005038486793637276,0.002638087375089526,7.439078035531566e-05,-0.1595616489648819,-0.21056495606899261,-0.2638986110687256,-0.31978026032447815
0.1,0.04848312959074974,0.04931391030550003,0.0,0.9999005794525146,0.0,0.0,-0.014102451503276825,0.7105441689491272,0.8821425437927246,0.0,0.0,0.0,-0.7323393225669861,-0.40836742520332336,0.6398457288742065,0.4200000464916229,0.9999999403953552,3.620343704824336e-06,-2.265245484522893e-06,1.7462637913467915e-07,0.00026676931884139776,0.000267408206127584,-0.00010407879017293453,-0.001738669816404581,0.004209199454635382,-0.00012775094364769757,-0.18001702427864075,0.1612960696220398,1.2573654651641846,-2.632148504257202,2.2019591331481934,-1.5340595245361328,0.38261109590530396,0.6321086287498474,0.42000001668930054,-1.2800171375274658,3.0,-0.17404288053512573,1.0632333755493164,0.005527446046471596,0.002221637172624469,-0.001264801248908043,-0.004941354505717754,-0.10372770577669144,-0.17410902678966522,-0.24531841278076172,-0.3174116313457489
0.11666666666666667,0.056669291108846664,0.061449602246284485,0.0,0.9991382956504822,0.0,0.0,-0.04150492697954178,0.5536356568336487,0.6574026942253113,0.0,0.0,0.0,-3.886561870574951,-0.40836742520332336,0.6398457288742065,0.4200000464916229,1.0,3.798347734118579e-06,-2.2628460101259407e-06,-1.5019826093976008e-07,0.0002637401921674609,0.00026566156884655356,-0.00010429113171994686,-0.0017054638592526317,0.004147501662373543,-0.00012979934399481863,-0.21892708539962769,0.2033667266368866,1.231926441192627,-2.102118492126465,2.828547477722168,-1.4207991361618042,0.38261109590530396,0.6321086287498474,0.42000001668930054,-1.2300134897232056,3.000000476837158,-0.21570923924446106,-3.0,0.0017640162259340286,-0.0030058505944907665,-0.007952259853482246,-0.013085320591926575,-0.07086145132780075,-0.20080894231796265,-0.3279862403869629,-0.4522104263305664
0.13333333333333333,0.06332962214946747,0.06995700299739838,0.0,0.9956638813018799,0.0,0.0,-0.09302370250225067,0.3367970585823059,0.45536166429519653,0.0,0.0,0.0,-7.047757148742676,-0.40836742520332336,0.6398457884788513,0.4200000464916229,0.9999999403953552,3.550474502844736e-06,-2.229893652838655e-06,2.9291419423316256e-07,0.0002670332323759794,0.0002677943557500839,-0.00010417005978524685,-0.0017440859228372574,0.004213657695800066,-0.00012800388503819704,-0.25460994243621826,0.25508323311805725,1.20369553565979,-2.1058943271636963,3.3435888290405273,-1.9676276445388794,0.38261109590530396,0.6321086287498474,0.42000001668930054,-1.1829898357391357,2.633436441421509,-0.1818343997001648,3.000000238418579,-0.000585271802265197,-0.007405724376440048,-0.014339027926325798,-0.021393096074461937,-0.21123698353767395,-0.3196718692779541,-0.424058198928833,-0.5243379473686218
0.15,0.06608401238918304,0.07935620844364166,0.0,0.9924333691596985,0.0,0.0,-0.12278444319963455,0.09694431722164154,0.6154367327690125,0.0,0.0,0.0,-2.435274362564087,-0.408367395401001,0.6398457288742065,0.4200000464916229,1.0,3.332208052597707e-06,-2.102069856846356e-06,1.3131072762462281e-07,0.00026730578974820673,0.0002685959334485233,-0.00010459637269377708,-0.0017497800290584564,0.0042156195268034935,-0.0001292838278459385,-0.2942390441894531,0.30639076232910156,1.1665430068969727,-2.276641845703125,3.2529537677764893,-2.4894161224365234,0.38261109590530396,0.6321086287498474,0.42000001668930054,-1.1342586278915405,3.000002145767212,-0.21337918937206268,-2.999999523162842,-0.00556151894852519,-0.01397591084241867,-0.02242351323366165,-0.030912308022379875,-0.36690831184387207,-0.4476441442966461,-0.5236542820930481,-0.5950078368186951
0.16666666666666666,0.07386172562837601,0.08595846593379974,0.0,0.9862214922904968,0.0,0.0,-0.16543015837669373,0.5209224820137024,0.413327157497406,0.0,0.0,0.0,-5.870391845703125,-0.40836742520332336,0.6398457288742065,0.4200000464916229,1.0,3.7372842598415446e-06,-2.2331951186060905e-06,-1.8764656317671324e-07,0.0002643293410073966,0.00026626905309967697,-0.00010446016676723957,-0.0017119543626904488,0.004157571122050285,-0.00013001477054785937,-0.33115261793136597,0.36502355337142944,1.118424654006958,-2.0187559127807617,3.775911331176758,-3.3087377548217773,0.38261109590530396,0.6321086287498474,0.42000001668930054,-1.0842523574829102,3.0000011920928955,-0.19216583669185638,3.0000016689300537,-0.009582774713635445,-0.01933337189257145,-0.029032966122031212,-0.03869196027517319,-0.43054038286209106,-0.47155794501304626,-0.5094680786132812,-0.5445542335510254
0.18333333333333332,0.07689207047224045,0.09498243033885956,0.0,0.9784271121025085,0.0,0.0,-0.20659227669239044,0.16753877699375153,0.5682973861694336,0.0,0.0,0.0,-4.277871131896973,-0.40836742520332336,0.6398457884788513,0.4200000464916229,0.9999999403953552,3.66025142284343e-06,-2.302339680682053e-06,2.528543348034873e-07,0.0002669085224624723,0.0002676025324035436,-0.0001041253563016653,-0.001741329557262361,0.004211507737636566,-0.0001278679701499641,-0.3634307086467743,0.4261521100997925,1.0567692518234253,-1.70371675491333,3.8147988319396973,-3.8863320350646973,0.38261109590530396,0.6321086287498474,0.42000001668930054,-1.034252405166626,2.9999990463256836,-0.22366130352020264,-3.000000238418579,-0.022650720551609993,-0.032594066113233566,-0.04245348274707794,-0.05209467560052872,-0.682743489742279,-0.7290467619895935,-0.7711221575737,-0.7915241122245789
0.2,0.07818953692913055,0.10155577957630157,0.0,0.9653351306915283,0.0,0.0,-0.26101353764533997,0.03208471089601517,0.32860487699508667,0.0,0.0,0.0,-7.638077735900879,-0.40836742520332336,0.6398457288742065,0.4200000464916229,1.0,3.590832420741208e-06,-2.3005177354207262e-06,1.3873301440980867e-07,0.0002665462961886078,0.0002673219714779407,-0.00010424060747027397,-0.0017326300730928779,0.004203499294817448,-0.00012820895062759519,-0.3897126019001007,0.4915626645088196,0.983440637588501,-1.2267553806304932,4.035862922668457,-4.807041168212891,0.38261109590530396,0.6321086287498474,0.42000001668930054,-0.9842485785484314,3.0000011920928955,-0.2736893892288208,-3.0000009536743164,-0.03570302203297615,-0.04597795009613037,-0.056108854711055756,-0.0657293051481247,-0.8636142015457153,-0.8576982021331787,-0.8492700457572937,-0.8274472951889038
0.21666666666666667,0.08070574700832367,0.10913354903459549,0.0,0.9549172520637512,0.0,0.0,-0.29687216877937317,0.1947742998600006,0.4902416467666626,0.0,0.0,0.0,-3.3035168647766113,-0.40836742520332336,0.6398457884788513,0.4200000464916229,1.0,3.6069184261577902e-06,-2.2610781797993695e-06,1.9621177571593762e-08,0.00026447055279277265,0.00026558496756479144,-0.00010396679863333702,-0.001708806725218892,0.004164197016507387,-0.0001283225283259526,-0.4118337035179138,0.5486713647842407,0.8974350690841675,-1.0031368732452393,3.2014708518981934,-5.507974624633789,0.38261109590530396,0.6321086287498474,0.42000001668930054,-0.9342415928840637,2.999999761581421,-0.3237196207046509,-3.0000009536743164,-0.05155555158853531,-0.06175258010625839,-0.07153138518333435,-0.08067336678504944,-0.9874277114868164,-0.989715576171875,-0.9769574999809265,-0.9579607248306274
0.23333333333333334,0.08135106414556503,0.11391475796699524,0.0,0.9540461301803589,0.0,0.0,-0.29965969920158386,-0.0199963990598917,0.20618943870067596,0.0,0.0,0.0,0.5880525708198547,-0.408367395401001,0.6398457288742065,0.4200000464916229,0.9999999403953552,3.742213721125154e-06,-2.2276085474004503e-06,4.5891519562246685e-07,0.00026474983314983547,0.00026671201339922845,-0.00010453304275870323,-0.0017188951605930924,0.004165791906416416,-0.0001301960292039439,-0.4313594698905945,0.5894235372543335,0.8035956621170044,-0.9856343269348145,1.975324034690857,-5.7873430252075195,0.38261109590530396,0.6321086287498474,0.42000001668930054,-0.88423091173172,2.9999916553497314,-0.37375128269195557,-3.0,-0.06810084730386734,-0.07827741652727127,-0.08801231533288956,-0.09709428250789642,-0.9897608757019043,-0.9917023777961731,-0.9932125806808472,-0.9912094473838806
0.25,0.07865312695503235,0.1148582398891449,0.0,0.9492638111114502,0.0,0.0,-0.3144809305667877,-0.2164917141199112,0.005558040924370289,0.0,0.0,0.0,-2.7124500274658203,-0.40836742520332336,0.6398457288742065,0.4200000464916229,1.0,3.3943799735425273e-06,-2.2821143375040265e-06,1.336297685838872e-07,0.0002667938533704728,0.00026794057339429855,-0.0001043959055095911,-0.0017417485360056162,0.004206647630780935,-0.00012884187162853777,-0.44277307391166687,0.61818528175354,0.7015032172203064,-0.35175952315330505,1.324751377105713,-6.268213748931885,0.38261109590530396,0.6321086287498474,0.42000001668930054,-0.834220826625824,2.9999969005584717,-0.42378294467926025,-2.999999523162842,-0.08509084582328796,-0.09516079723834991,-0.10481487214565277,-0.11383459717035294,-0.9952911734580994,-0.9957155585289001,-0.9960717558860779,-0.9963829517364502
0.26666666666666666,0.07336132228374481,0.11353380978107452,0.0,0.9496878385543823,0.0,0.0,-0.3131980299949646,-0.3629510700702667,-0.13391095399856567,0.0,0.0,0.0,1.0870145559310913,-0.40836742520332336,0.6398457884788513,0.4200000464916229,1.0,3.683386239572428e-06,-2.31010744755622e-06,2.1010649220443156e-07,0.000264790520304814,0.000266258284682408,-0.00010421173647046089,-0.0017168058548122644,0.004168871324509382,-0.00012909912038594484,-0.4476257562637329,0.6318143606185913,0.5996453762054443,-0.08313462883234024,0.3219118118286133,-5.945348739624023,0.38261109590530396,0.6321086287498474,0.42000001668930054,-0.7842119932174683,3.000000238418579,-0.47381412982940674,-3.000000238418579,-0.10221284627914429,-0.11216195672750473,-0.12172743678092957,-0.13067980110645294,-1.0031774044036865,-1.0023937225341797,-1.0017943382263184,-1.0013175010681152
0.2833333333333333,0.07074239104986191,0.10927917063236237,0.0,0.9460646510124207,0.0,0.0,-0.3239779770374298,-0.064869225025177,-0.3121471405029297,0.0,0.0,0.0,-2.026231527328491,-0.40836742520332336,0.6398457288742065,0.4200000464916229,1.0,3.306838607386453e-06,-2.2125211671664147e-06,2.6258697971570655e-07,0.00026660639559850097,0.00026744938804768026,-0.00010424223728477955,-0.0017352094873785973,0.004204330034554005,-0.00012828483886551112,-0.4426906704902649,0.6379285454750061,0.501004695892334,0.6789251565933228,0.26276642084121704,-5.655961513519287,0.38261109590530396,0.6321086287498474,0.42000001668930054,-0.734219491481781,3.000000238418579,-0.5238435864448547,-2.9999983310699463,-0.11943888664245605,-0.12925104796886444,-0.13871680200099945,-0.14759376645088196,-1.005595326423645,-1.004219651222229,-1.0031704902648926,-1.0023329257965088
0.3,0.06564505398273468,0.10342859476804733,0.0,0.948307991027832,0.0,0.0,-0.3173515200614929,-0.39056867361068726,-0.3709139823913574,0.0,0.0,0.0,1.7613296508789062,-0.40836742520332336,0.6398457288742065,0.4200000464916229,1.0,3.641150215116795e-06,-2.37790936807869e-06,-4.193746576675039e-07,0.00026611567591317,0.00026725881616584957,-0.00010423245839774609,-0.0017335097072646022,0.004194576293230057,-0.00012854786473326385,-0.42707592248916626,0.6409838199615479,0.41303181648254395,1.261267900466919,0.12701824307441711,-4.953927040100098,0.38261109590530396,0.6321086287498474,0.42000001668930054,-0.6842125058174133,3.000001907348633,-0.5738713145256042,-3.000002145767212,-0.1373445838689804,-0.14686506986618042,-0.15611155331134796,-0.16481612622737885,-1.0115121603012085,-1.0087274312973022,-1.006593108177185,-1.0048773288726807
0.31666666666666665,0.05817262455821037,0.09568344801664352,0.0,0.9455038905143738,0.0,0.0,-0.325610876083374,-0.44779834151268005,-0.510989248752594,0.0,0.0,0.0,-1.9724924564361572,-0.40829867124557495,0.6397895216941833,0.4200006425380707,0.9999983906745911,-6.430489156628028e-05,-5.214460179558955e-05,-0.0017891890602186322,0.0025108482223004103,-0.007929111830890179,-0.0020685680210590363,0.04070378839969635,-0.01555001549422741,0.011878102086484432,-0.4273046851158142,0.6415265798568726,0.425790011882782,0.09007804095745087,-0.03754822909832001,-0.1807820051908493,0.38261109590530396,0.6321086287498474,0.42000001668930054,-0.6343340277671814,2.9999940395355225,-0.6243861317634583,-2.9999992847442627,-0.14465013146400452,-0.15410132706165314,-0.16193053126335144,-0.1687389612197876,-0.48017752170562744,-0.44454553723335266,-0.34231695532798767,-0.21898169815540314
0.3333333333333333,0.04914408177137375,0.08572311699390411,0.0,0.9478757381439209,0.0,0.0,-0.31864023208618164,-0.5837669968605042,-0.6348487138748169,0.0,0.0,0.0,1.8063414096832275,-0.4082513749599457,0.6396875381469727,0.4200000464916229,0.9999939799308777,-7.107723376975628e-06,2.202111318183597e-06,-0.003440296044573188,-4.8385627451352775e-05,-0.0005462206900119781,-0.0001939635258167982,0.009020969271659851,0.00208472041413188,0.00019972499285358936,-0.423736572265625,0.6442490816116333,0.4230059087276459,0.32206425070762634,0.31990543007850647,-0.13810308277606964,0.38261109590530396,0.6321086287498474,0.42000001668930054,-0.5843287706375122,2.999976634979248,-0.674430251121521,-2.999999761581421,-0.15350714325904846,-0.16174563765525818,-0.16744264960289001,-0.17182081937789917,-0.523379921913147,-0.42986029386520386,-0.2917681336402893,-0.13866643607616425
0.35,0.037766825407743454,0.07358302921056747,0.0,0.9451748132705688,0.0,0.0,-0.32656487822532654,-0.726797342300415,-0.7691602110862732,0.0,0.0,0.0,-1.9417608976364136,-0.4046318233013153,0.6431366205215454,0.42000052332878113,0.9988042712211609,-3.7904003420408117e-06,-4.427158637554385e-05,-0.048886120319366455,0.2629363536834717,0.213047057390213,-0.000248226395342499,0.013570048846304417,-0.0015841370914131403,-8.855264663696289,-0.4172057509422302,0.6473274230957031,0.42086976766586304,0.5299453735351562,0.20029036700725555,-0.131246879696846,0.38261109590530396,0.6321086287498474,0.42000001668930054,-0.5343239307403564,2.999980926513672,-0.7244805097579956,-2.9999866485595703,-0.16253067553043365,-0.16880176961421967,-0.17187656462192535,-0.17335771024227142,-0.5292260050773621,-0.38887733221054077,-0.21680620312690735,-0.029739923775196075
0.36666666666666664,0.026564816012978554,0.059170451015233994,0.0,0.9323505163192749,0.0,0.0,-0.3615557551383972,-0.6247687935829163,-0.9116660952568054,0.0,0.0,0.0,-5.323549747467041,-0.39789173007011414,0.6492179036140442,0.41999876499176025,0.9904076457023621,8.281342161353678e-05,-4.72116116725374e-05,-0.1381758600473404,0.5623562932014465,0.5241415500640869,-0.002035419922322035,-0.019826777279376984,0.12659646570682526,-14.448514938354492,-0.40632164478302,0.6534203290939331,0.41990721225738525,0.7577722668647766,0.579031765460968,0.10825653374195099,0.38261109590530396,0.6321086287498474,0.42000001668930054,-0.4842946231365204,2.9999938011169434,-0.7745075821876526,-2.999394655227661,-0.1716022491455078,-0.17521768808364868,-0.17518599331378937,-0.17329908907413483,-0.48381540179252625,-0.32134944200515747,-0.1366218775510788,0.06400147825479507
0.3833333333333333,0.019054874777793884,0.041934456676244736,0.0,0.9073987007141113,0.0,0.0,-0.4202709197998047,-0.368476927280426,-1.0906729698181152,0.0,0.0,0.0,-8.464372634887695,-0.379242479801178,0.6685582399368286,0.42076829075813293,0.9772738814353943,-0.010525931604206562,-0.008692432194948196,-0.2115403264760971,1.9349919557571411,1.7877349853515625,0.0789121612906456,-0.8594670295715332,-6.3555097579956055,-5.749615669250488,-0.3848378658294678,0.6713303327560425,0.4220232367515564,2.051727771759033,1.6611201763153076,0.1388666331768036,0.38261109590530396,0.6321086287498474,0.42000001668930054,-0.4342595636844635,2.9999916553497314,-0.8245211243629456,-3.0000035762786865,-0.17999888956546783,-0.18051566183567047,-0.17707058787345886,-0.1715058535337448,-0.5134336352348328,-0.29891738295555115,-0.07199202477931976,0.16711477935314178
0.4,0.014118860475718975,0.029341919347643852,0.0,0.8670012950897217,0.0,0.0,-0.4983058571815491,-0.25118473172187805,-0.6318875551223755,0.0,0.0,0.0,-11.232833862304688,-0.3201802968978882,0.702686607837677,0.42542657256126404,0.9636966586112976,0.029482334852218628,-0.05031857639551163,-0.26055213809013367,4.7610321044921875,2.6531262397766113,0.09789323806762695,28.432628631591797,-17.5391788482666,-1.9673832654953003,-0.3262307047843933,0.7069809436798096,0.4261135160923004,4.653008460998535,2.669628620147705,0.33837398886680603,0.38261109590530396,0.6321086287498474,0.42000001668930054,-0.39314907789230347,1.3548401594161987,-0.7878014445304871,2.9998695850372314,-0.19506573677062988,-0.19123244285583496,-0.1823749989271164,-0.17155420780181885,-0.8791857361793518,-0.6862062811851501,-0.37024790048599243,-0.0739455297589302
0.4166666666666667,0.006030341610312462,0.021958060562610626,0.0,0.8084799647331238,0.0,0.0,-0.5885237455368042,-0.4516861140727997,-0.3981141448020935,0.0,0.0,0.0,-13.471999168395996,-0.2218427211046219,0.7481200695037842,0.4318976104259491,0.9380202293395996,0.06722820550203323,-0.0773741826415062,-0.33107632398605347,7.124378681182861,2.695310115814209,0.3657732307910919,-0.06802539527416229,-7.420767307281494,12.729878425598145,-0.22680824995040894,0.7539452314376831,0.43281352519989014,6.857195854187012,3.029374122619629,0.4798533320426941,0.38261109590530396,0.6321086287498474,0.42000001668930054,-0.3780028820037842,0.8965312838554382,-0.8148151636123657,-3.000000476837158,-0.20977920293807983,-0.20526109635829926,-0.19162142276763916,-0.1758265495300293,-0.632236659526825,-0.7091478109359741,-0.5467075705528259,-0.32045361399650574
0.43333333333333335,0.002057860605418682,0.016360966488718987,0.0,0.7551124691963196,0.0,0.0,-0.6555952429771423,-0.19189952313899994,-0.23848576843738556,0.0,0.0,0.0,-9.101052284240723,-0.1066841185092926,0.7855352163314819,0.4398866891860962,0.898786723613739,0.12301446497440338,-0.11111383140087128,-0.4058367908000946,7.077785968780518,0.8469185829162598,0.4831050932407379,6.290834903717041,-18.675762176513672,23.412202835083008,-0.1113794669508934,0.7941657304763794,0.440641313791275,6.972073078155518,1.7432692050933838,0.5405665040016174,0.38261109590530396,0.6321086287498474,0.42000001668930054,-0.36212509870529175,0.8659094572067261,-0.7782546877861023,2.996206283569336,-0.22345595061779022,-0.2181064635515213,-0.2008344680070877,-0.18084552884101868,-0.8557796478271484,-0.7531230449676514,-0.5378603935241699,-0.3066655397415161
0.45,-0.003578414674848318,0.0056368205696344376,0.0,0.7213853001594543,0.0,0.0,-0.6925339102745056,-0.4118820130825043,-0.7794483304023743,0.0,0.0,0.0,-5.000633716583252,0.00634409487247467,0.8061526417732239,0.4486410617828369,0.8375339508056641,0.14230799674987793,-0.11605187505483627,-0.5146039724349976,6.706852436065674,-0.168814018368721,0.6622535586357117,15.596861839294434,-7.817822456359863,21.53160285949707,0.0015664231032133102,0.8145660161972046,0.4490177631378174,6.701638221740723,0.5300468802452087,0.5719383358955383,0.38261109590530396,0.6321086287498474,0.42000001668930054,-0.3464171588420868,0.8881933689117432,-0.8050014972686768,-3.0000016689300537,-0.2337668091058731,-0.2261122465133667,-0.2054150104522705,-0.1819194257259369,-0.5383051037788391,-0.3602987229824066,-0.1540951281785965,0.047046203166246414
0.4666666666666667,-0.00628206692636013,-0.0013705603778362274,0.0,0.7094128131866455,0.0,0.0,-0.7047932147979736,-0.05561558157205582,-0.29169079661369324,0.0,0.0,0.0,-1.076444387435913,0.11109010875225067,0.8009533882141113,0.4550575613975525,0.742665708065033,0.11309520155191422,-0.15391722321510315,-0.641846239566803,5.657306671142578,-1.636183738708496,0.15595874190330505,-30.35832977294922,2.136378765106201,-5.75236177444458,0.10406811535358429,0.8123692274093628,0.4579838812351227,5.764299392700195,-0.7739142179489136,0.5644401907920837,0.38261109590530396,0.6321086287498474,0.42000001668930054,-0.3342819809913635,0.4677215814590454,-0.855027437210083,-2.9995596408843994,-0.2400236874818802,-0.23727531731128693,-0.21202452480793,-0.1843864619731903,-0.03541999310255051,-0.7154591679573059,-0.450056791305542,-0.2156428098678589
0.48333333333333334,-0.006063296925276518,-0.010226337239146233,0.0,0.6899620294570923,0.0,0.0,-0.7238455414772034,0.05998820811510086,-0.4936985969543457,0.0,0.0,0.0,-3.8134303092956543,0.19678795337677002,0.7797695398330688,0.45874547958374023,0.6831474304199219,0.09675121307373047,-0.13593727350234985,-0.710964024066925,4.902173042297363,-2.4745914936065674,0.41232338547706604,-6.390003681182861,1.0699094533920288,5.09412145614624,0.19076505303382874,0.7939826250076294,0.46213260293006897,4.656919479370117,-1.674691081047058,0.10526382178068161,0.38261109590530396,0.6321086287498474,0.42000001668930054,-0.33126959204673767,-0.07087071985006332,-0.9050523638725281,-2.9994425773620605,-0.23999106884002686,-0.24002225697040558,-0.21726003289222717,-0.18650907278060913,-0.017093298956751823,-0.08501702547073364,-0.4329363703727722,-0.2294217199087143
0.5,-0.0030964151956140995,-0.015235703438520432,0.0,0.6863360404968262,0.0,0.0,-0.7272845506668091,0.20736180245876312,-0.2229403257369995,0.0,0.0,0.0,0.3099935054779053,0.26735231280326843,0.7486242055892944,0.45769059658050537,0.6331903338432312,0.07073795795440674,-0.11281046271324158,-0.7624565362930298,3.6965250968933105,-2.1707205772399902,-0.22267977893352509,-1.307005524635315,0.8210393190383911,-5.480926990509033,0.261985182762146,0.7629002332687378,0.461311936378479,3.81022572517395,-2.045346260070801,-0.18837596476078033,0.38261109590530396,0.6321086287498474,0.42000001668930054,-0.33054259419441223,0.43723616003990173,-0.9550763964653015,-3.0000007152557373,-0.23983950912952423,-0.23986999690532684,-0.2233145534992218,-0.19041851162910461,0.06071760132908821,0.05340635031461716,-0.2319076657295227,-0.18253779411315918
0.5166666666666666,0.0020050443708896637,-0.016369448974728584,0.0,0.6737805008888245,0.0,0.0,-0.7389315366744995,0.35956159234046936,0.0030110313091427088,0.0,0.0,0.0,-2.924449920654297,0.3222544491291046,0.7170928120613098,0.44836318492889404,0.5983648300170898,0.04182494059205055,-0.09691578894853592,-0.7942401170730591,2.889390707015991,-1.9620087146759033,-0.680515468120575,-1.2834595441818237,0.9313789010047913,-3.436664342880249,0.31825411319732666,0.7305907607078552,0.4528074860572815,2.9250481128692627,-1.9391815662384033,-0.7079192996025085,0.38261109590530396,0.6321086287498474,0.42000001668930054,-0.31633293628692627,1.1177557706832886,-1.0051002502441406,-3.0000007152557373,-0.23702698945999146,-0.23751817643642426,-0.22578604519367218,-0.19356264173984528,0.2652076482772827,0.23234869539737701,-0.04977653920650482,-0.1620265692472458
0.5333333333333333,0.00976321566849947,-0.022527100518345833,0.0,0.67353355884552,0.0,0.0,-0.7391566038131714,0.5464974641799927,-0.48297297954559326,0.0,0.0,0.0,0.8985970616340637,0.3635600507259369,0.6867032647132874,0.43359750509262085,0.568126916885376,0.007062280550599098,-0.07677457481622696,-0.8193213939666748,1.9286376237869263,-2.5247745513916016,-0.8062990307807922,-0.7948082685470581,6.80448055267334,10.609404563903809,0.3606552481651306,0.6991934776306152,0.4385862946510315,2.064070224761963,-1.794464111328125,-0.9760114550590515,0.38261109590530396,0.6321086287498474,0.42000001668930054,-0.29855766892433167,0.7855861186981201,-1.0551223754882812,-2.999765396118164,-0.22747062146663666,-0.22890986502170563,-0.22202514111995697,-0.193017840385437,0.6647067070007324,0.6090419292449951,0.33391886949539185,0.09271658211946487
0.55,0.014922341331839561,-0.025062568485736847,0.0,0.6633421778678894,0.0,0.0,-0.74831622838974,0.2849788963794708,-0.10371998697519302,0.0,0.0,0.0,-2.260472297668457,0.3892205059528351,0.6634332537651062,0.4201855957508087,0.5576474666595459,-0.0011583479354158044,0.0027320978697389364,-0.8300725221633911,0.8081222772598267,-1.326220154762268,-0.08686363697052002,-2.4763073921203613,-2.0689871311187744,3.994839668273926,0.386371910572052,0.6727093458175659,0.42240771651268005,0.7729421257972717,-1.0964912176132202,-0.12901492416858673,0.38261109590530396,0.6321086287498474,0.42000001668930054,-0.2898206114768982,0.5272316336631775,-1.105136752128601,-2.9924745559692383,-0.21857012808322906,-0.22065773606300354,-0.2177342176437378,-0.1930086314678192,0.5500893592834473,0.5063452124595642,0.2915356159210205,0.021027661859989166
0.5666666666666667,0.020946500822901726,-0.02449909783899784,0.0,0.6671164631843567,0.0,0.0,-0.7449533939361572,0.39404022693634033,0.13672029972076416,0.0,0.0,0.0,1.445967674255371,0.3970813751220703,0.6489748358726501,0.42106321454048157,0.5574157238006592,-0.013605540618300438,0.02377282828092575,-0.8297814726829529,0.16596093773841858,-1.1233752965927124,0.02307119220495224,-1.0811564922332764,0.9790911674499512,14.067514419555664,0.39377352595329285,0.6578905582427979,0.4240567684173584,0.0924074649810791,-0.6669999361038208,0.240030437707901,0.38261109590530396,0.6321086287498474,0.42000001668930054,-0.2736275792121887,1.0071461200714111,-1.1551116704940796,-3.0000033378601074,-0.20956118404865265,-0.21245597302913666,-0.2127736508846283,-0.19276538491249084,0.5386590957641602,0.48875096440315247,0.3129059076309204,0.019556397572159767
0.5833333333333334,0.028847746551036835,-0.02642950974404812,0.0,0.6592558026313782,0.0,0.0,-0.7519187331199646,0.504409909248352,-0.1576351523399353,0.0,0.0,0.0,-2.1793460845947266,0.39842623472213745,0.6401035785675049,0.42024463415145874,0.5992605090141296,-0.003987045027315617,0.004109475761651993,-0.8005335330963135,-0.06739405542612076,-0.5370910167694092,-0.11912615597248077,-2.214799165725708,-5.867405414581299,7.804468154907227,0.3934670388698578,0.6495757102966309,0.4233112335205078,-0.1755286306142807,-0.3993819057941437,-0.048739418387413025,0.38261109590530396,0.6321086287498474,0.42000001668930054,-0.30029675364494324,-2.9999852180480957,-1.1173170804977417,2.9998764991760254,-0.1979542374610901,-0.20211757719516754,-0.20547889173030853,-0.1908247470855713,0.6226029992103577,0.5696784853935242,0.4249812662601471,0.12101558595895767
0.6,0.03900847211480141,-0.024985210970044136,0.0,0.6632424592971802,0.0,0.0,-0.7484046220779419,0.6284855008125305,0.11412102729082108,0.0,0.0,0.0,1.5134968757629395,0.39636293053627014,0.6339683532714844,0.42000001668930054,0.6173259615898132,1.9335425349709112e-06,-1.8781157677949523e-06,-0.7867074012756348,-0.12703794240951538,-0.31587257981300354,-0.00012129971582908183,-5.415638952399604e-05,0.006031163968145847,2.1114156246185303,0.3902376890182495,0.645433783531189,0.42505061626434326,-0.1456487625837326,-0.04948630556464195,0.16416968405246735,0.38261109590530396,0.6321086287498474,0.42000001668930054,-0.35029417276382446,-2.999997138977051,-1.1395611763000488,-2.9992573261260986,-0.19001281261444092,-0.1948481798171997,-0.20009925961494446,-0.19015172123908997,0.5295541286468506,0.46660417318344116,0.3481994569301605,0.057120777666568756
0.6166666666666667,0.04659935086965561,-0.027800746262073517,0.0,0.6879727840423584,0.0,0.0,-0.7257364392280579,0.39481204748153687,-0.21683470904827118,0.0,0.0,0.0,4.745843410491943,0.3939717411994934,0.6301141381263733,0.4200001657009125,0.617195725440979,1.575438318468514e-06,-9.336209586763289e-06,-0.7868095636367798,-0.21013449132442474,-0.15928994119167328,-0.0001976960920728743,0.010620784014463425,0.00918953213840723,-3.401679754257202,0.3873934745788574,0.6455527544021606,0.42761459946632385,-0.27672696113586426,0.07780982553958893,0.15383362770080566,0.38261109590530396,0.6321086287498474,0.42000001668930054,-0.4003424644470215,-2.999997854232788,-1.1895225048065186,-2.9983069896698,-0.1800898015499115,-0.1858169138431549,-0.19266290962696075,-0.18723367154598236,0.4715731739997864,0.452441543340683,0.40095964074134827,0.17129474878311157
0.6333333333333333,0.055294595658779144,-0.030120359733700752,0.0,0.6982949376106262,0.0,0.0,-0.7158101797103882,0.5632152557373047,-0.12077584117650986,0.0,0.0,0.0,0.6769026517868042,0.39122074842453003,0.6281161904335022,0.4200000464916229,0.5974442958831787,-3.377265613835334e-07,-3.4176102872152114e-06,-0.8019103407859802,-0.1544959396123886,-0.1044388860464096,-6.057724021957256e-05,0.00626778369769454,0.0020380031783133745,-2.2285776138305664,0.3853050470352173,0.648013710975647,0.4316767454147339,-0.09307438135147095,0.15936200320720673,0.319256067276001,0.38261109590530396,0.6321086287498474,0.42000001668930054,-0.4503781199455261,-3.000000238418579,-1.2394894361495972,-2.999973773956299,-0.17434333264827728,-0.17954833805561066,-0.18609842658042908,-0.1831563115119934,0.3394245505332947,0.39702147245407104,0.45613428950309753,0.3595685064792633
0.65,0.06575904041528702,-0.034912072122097015,0.0,0.6870189309120178,0.0,0.0,-0.7266395688056946,0.6661648154258728,-0.3618418574333191,0.0,0.0,0.0,-2.7280378341674805,0.3894623816013336,0.6269604563713074,0.41999995708465576,0.5835710167884827,1.5447287751158e-06,-3.2343768907594495e-06,-0.8120620846748352,-0.08884549885988235,-0.05680815130472183,-1.778791192919016e-05,0.0002526113239582628,0.0006744762067683041,-2.071586847305298,0.3859897255897522,0.6511282920837402,0.44149309396743774,0.1566583514213562,0.15772312879562378,0.9701632261276245,0.38261109590530396,0.6321086287498474,0.42000001668930054,-0.5003911256790161,-2.9999992847442627,-1.2895079851150513,-3.0000009536743164,-0.17067383229732513,-0.1745082139968872,-0.17948152124881744,-0.17736734449863434,0.13746817409992218,0.24032919108867645,0.36352232098579407,0.35294485092163086
0.6666666666666666,0.07881888747215271,-0.03721829503774643,0.0,0.6554265022277832,0.0,0.0,-0.7552589774131775,0.8221951127052307,-0.12876492738723755,0.0,0.0,0.0,-5.902442455291748,0.3887314200401306,0.6265609264373779,0.41999998688697815,0.5734780430793762,-3.2970749543892452e-06,5.496602625498781e-06,-0.8192209005355835,-0.029262596741318703,-0.013853950425982475,-0.00018472084775567055,0.006610847543925047,0.0004701102734543383,-1.1058275699615479,0.3968084454536438,0.6519282460212708,0.4638091027736664,1.1365940570831299,-0.013142138719558716,1.834204912185669,0.38261109590530396,0.6321086287498474,0.42000001668930054,-0.5504037141799927,-2.9999260902404785,-1.3395262956619263,-2.999993324279785,-0.17201679944992065,-0.17378899455070496,-0.17624804377555847,-0.17364031076431274,-0.06625515967607498,0.03988778218626976,0.1802586019039154,0.2139831930398941
0.6833333333333333,0.09398073703050613,-0.03675472363829613,0.0,0.6383209824562073,0.0,0.0,-0.7697702646255493,0.9441248774528503,0.09561365097761154,0.0,0.0,0.0,-1.6766042709350586,0.3887026906013489,0.626548171043396,0.4200000464916229,0.5730310082435608,2.2801434624852845e-06,-2.937574890893302e-06,-0.8195335865020752,0.0003691347374115139,-0.00020562816644087434,-0.0001508032437413931,0.003005837555974722,0.001564089790917933,-0.0013006788212805986,0.41630488634109497,0.6565268039703369,0.49524980783462524,1.1675422191619873,0.4886775016784668,1.9687728881835938,0.38261109590530396,0.6321086287498474,0.42000001668930054,-0.5712398290634155,0.23399987816810608,-1.3895446062088013,-2.9999992847442627,-0.17290569841861725,-0.17381644248962402,-0.17487134039402008,-0.17248466610908508,-6.868503987789154e-09,0.0029720813035964966,0.034704048186540604,-0.02297494187951088
0.7,0.10623729228973389,-0.033893242478370667,0.0,0.6456629633903503,0.0,0.0,-0.763622522354126,0.6619712114334106,0.2517217695713043,0.0,0.0,0.0,2.040518045425415,0.388702929019928,0.6265482306480408,0.4200000464916229,0.5730305910110474,2.7648991363093955e-07,-3.0545922982128104e-06,-0.8195340037345886,8.784232340985909e-05,-0.0002626397763378918,-8.613383397459984e-05,0.006386707071214914,-0.0016428028466179967,-0.000691818306222558,0.4338458478450775,0.6653543710708618,0.5220739245414734,0.8677639961242676,0.5716469287872314,1.31086003780365,0.38261109590530396,0.6321086287498474,0.42000001668930054,-0.5463298559188843,2.5340209007263184,-1.3511295318603516,2.999999761581421,-0.17172564566135406,-0.17264589667320251,-0.17325714230537415,-0.17175860702991486,0.10150715708732605,0.10088085383176804,0.12438231706619263,0.07565002143383026
0.7166666666666667,0.11355440318584442,-0.03565940633416176,0.0,0.6411580443382263,0.0,0.0,-0.7674088478088379,0.41838327050209045,-0.12607085704803467,0.0,0.0,0.0,-1.5816490650177002,0.388702929019928,0.6265482306480408,0.4200000464916229,0.573030948638916,2.6425888677295006e-07,-3.05094476971135e-06,-0.8195337653160095,9.175163722829893e-05,-0.00026295275893062353,-8.703512139618397e-05,0.006375117227435112,-0.0015981470933184028,-0.0007011640700511634,0.44261646270751953,0.6758894920349121,0.5383249521255493,0.08115752041339874,0.4805629253387451,0.758919358253479,0.38261109590530396,0.6321086287498474,0.42000001668930054,-0.5199184417724609,0.7672627568244934,-1.301076889038086,2.999999523162842,-0.16543953120708466,-0.1670282930135727,-0.16793948411941528,-0.1677636057138443,0.16778288781642914,0.1792605072259903,0.2049664855003357,0.17099177837371826
0.7333333333333333,0.11758427321910858,-0.03279370069503784,0.0,0.6485375165939331,0.0,0.0,-0.7611827254295349,0.18131853640079498,0.19417725503444672,0.0,0.0,0.0,1.9532392024993896,0.3887028992176056,0.6265482306480408,0.4200000464916229,0.573030948638916,3.194464284206333e-07,-3.0121286727080587e-06,-0.8195337057113647,8.723292557988316e-05,-0.00026223648455925286,-8.607888594269753e-05,0.0063819680362939835,-0.0016479805344715714,-0.0006900238222442567,0.43825024366378784,0.6822882294654846,0.5470329523086548,-0.4946800470352173,0.418118417263031,0.3209128677845001,0.38261109590530396,0.6321086287498474,0.42000001668930054,-0.4949386417865753,2.096575975418091,-1.2983509302139282,-2.2225682735443115,-0.1664307564496994,-0.1669563353061676,-0.16668356955051422,-0.1662728488445282,0.025631481781601906,0.07125614583492279,0.12286359816789627,0.12688800692558289
0.75,0.11797620356082916,-0.034109927713871,0.0,0.6435437798500061,0.0,0.0,-0.7654092907905579,-0.017785893753170967,-0.1623120754957199,0.0,0.0,0.0,-1.671690583229065,0.3887028992176056,0.6265482306480408,0.4200000464916229,0.5730306506156921,2.951441047116532e-07,-3.0914316084817983e-06,-0.8195338845252991,8.583913586335257e-05,-0.0002630602102726698,-8.572405204176903e-05,0.006410930305719376,-0.0016669497126713395,-0.0006879084976390004,0.4238840341567993,0.6881887912750244,0.546099066734314,-1.220902919769287,0.27788224816322327,-0.23836255073547363,0.38261109590530396,0.6321086287498474,0.42000001668930054,-0.4910508096218109,-1.3357326984405518,-1.2572295665740967,2.999999761581421,-0.16467022895812988,-0.1646920144557953,-0.16384920477867126,-0.16352175176143646,0.11393896490335464,0.1438792496919632,0.1742701232433319,0.17105615139007568
0.7666666666666666,0.12072936445474625,-0.030662665143609047,0.0,0.6504074335098267,0.0,0.0,-0.7595854997634888,0.10521465539932251,0.18847182393074036,0.0,0.0,0.0,1.7339589595794678,0.3887028992176056,0.6265482306480408,0.4200000464916229,0.5730310082435608,2.518243604754389e-07,-2.8961292173335096e-06,-0.81953364610672,9.058649447979406e-05,-0.00026304079801775515,-8.671055547893047e-05,0.006384321954101324,-0.001610234146937728,-0.0006985364016145468,0.4051281809806824,0.6925221681594849,0.5402144193649292,-0.945073127746582,0.48985257744789124,-0.4277307987213135,0.38261109590530396,0.6321086287498474,0.42000001668930054,-0.4909271001815796,1.1378308534622192,-1.277805209159851,-2.999999523162842,-0.16762319207191467,-0.1664888709783554,-0.16456276178359985,-0.16366642713546753,0.08193299174308777,0.07556749135255814,0.07080741971731186,0.050099313259124756
0.7833333333333333,0.12357065081596375,-0.031041989102959633,0.0,0.645236074924469,0.0,0.0,-0.7639832496643066,0.23484916985034943,-0.05473996326327324,0.0,0.0,0.0,-1.676855444908142,0.388702929019928,0.6265482306480408,0.4200000464916229,0.5730305314064026,2.2500462648622488e-07,-3.15472016154672e-06,-0.8195340037345886,9.044414764503017e-05,-0.0002635410928633064,-8.670473471283913e-05,0.006397301331162453,-0.0016153253382071853,-0.0006989000248722732,0.38865676522254944,0.6972531676292419,0.5283111929893494,-1.0053240060806274,0.035305362194776535,-0.8366951942443848,0.38261109590530396,0.6321086287498474,0.42000001668930054,-0.5148624181747437,-2.999997138977051,-1.239706039428711,3.000000238418579,-0.1663980334997177,-0.16512015461921692,-0.16299085319042206,-0.16201917827129364,-0.07716841250658035,-0.024971863254904747,0.029554622247815132,0.07995069026947021
0.8,0.1292344033718109,-0.03472505137324333,0.0,0.6213812232017517,0.0,0.0,-0.7835083603858948,0.3863905966281891,-0.28596118092536926,0.0,0.0,0.0,-4.793961048126221,0.388702929019928,0.6265482306480408,0.4200000464916229,0.5730307102203369,2.6130254582312773e-07,-3.014230514963856e-06,-0.8195337653160095,8.69979994604364e-05,-0.0002636901044752449,-8.601928129792213e-05,0.006419708486646414,-0.001658126013353467,-0.0006912905955687165,0.3805043697357178,0.695496678352356,0.5156316757202148,0.05542517453432083,-0.25217828154563904,-0.5361061096191406,0.38261109590530396,0.6321086287498474,0.42000001668930054,-0.564862072467804,-2.9998116493225098,-1.2605671882629395,-2.999979019165039,-0.16952349245548248,-0.167098268866539,-0.16372041404247284,-0.16143088042736053,-0.24264302849769592,-0.16160453855991364,-0.07237350940704346,0.02720603346824646
0.8166666666666667,0.13804900646209717,-0.034364353865385056,0.0,0.6095308661460876,0.0,0.0,-0.7927623391151428,0.5194450616836548,0.010733104310929775,0.0,0.0,0.0,-0.7077437043190002,0.388702929019928,0.6265482306480408,0.4200000464916229,0.5730307698249817,1.1642121222621427e-07,-3.3145022371172672e-06,-0.8195338845252991,9.01232851902023e-05,-0.0002641919127199799,-8.667493239045143e-05,0.006415418814867735,-0.001623322255909443,-0.0006993167335167527,0.3825285732746124,0.6942442655563354,0.5102487206459045,0.27003854513168335,0.15844973921775818,-0.1879434585571289,0.38261109590530396,0.6321086287498474,0.42000001668930054,-0.5849825739860535,0.3099512457847595,-1.3105854988098145,-3.000000476837158,-0.1762729436159134,-0.17254400253295898,-0.16781401634216309,-0.16402755677700043,-0.20282095670700073,-0.20211468636989594,-0.19591931998729706,-0.17394815385341644
0.8333333333333334,0.14333264529705048,-0.03937492519617081,0.0,0.6224492788314819,0.0,0.0,-0.7826601266860962,0.2517862021923065,-0.32644256949424744,0.0,0.0,0.0,2.6213443279266357,0.388702929019928,0.6265482306480408,0.4200000464916229,0.5730305910110474,2.6172847356065176e-07,-3.116438165307045e-06,-0.8195339441299438,8.780939970165491e-05,-0.00026325229555368423,-8.621066808700562e-05,0.006404098588973284,-0.001646889024414122,-0.0006926882779225707,0.3887960910797119,0.6964187622070312,0.5041323900222778,0.38112974166870117,-0.03483036905527115,-0.5587524175643921,0.38261109590530396,0.6321086287498474,0.42000001668930054,-0.5939186811447144,-1.2430305480957031,-1.2723928689956665,2.9999990463256836,-0.17696166038513184,-0.17310500144958496,-0.16815604269504547,-0.16385550796985626,-0.16985519230365753,-0.11391887813806534,-0.05541839823126793,0.018347149714827538
0.85,0.1491120606660843,-0.046126589179039,0.0,0.6211709380149841,0.0,0.0,-0.7836750745773315,0.389264315366745,-0.45360326766967773,0.0,0.0,0.0,-1.1726462841033936,0.388702929019928,0.6265482306480408,0.4200000464916229,0.5730306506156921,1.801898861231166e-07,-3.238880253775278e-06,-0.8195339441299438,8.668330701766536e-05,-0.0002668671077117324,-8.59270803630352e-05,0.006501695606857538,-0.0016773155657574534,-0.0006959696765989065,0.39721643924713135,0.6933351755142212,0.4912378191947937,0.6392461061477661,-0.26500093936920166,-0.8033376932144165,0.38261109590530396,0.6321086287498474,0.42000001668930054,-0.622215747833252,-2.0579335689544678,-1.2927186489105225,-2.999999761581421,-0.1809113621711731,-0.17595188319683075,-0.16983787715435028,-0.16408675909042358,-0.22293344140052795,-0.15781112015247345,-0.08829591423273087,1.7012644093483686e-07
