vladlanda/robotic-transformer/data/env_000_episode_0199.csv
sim_time_s,robot_box_x,robot_box_y,robot_box_z,robot_box_quat_w,robot_box_quat_x,robot_box_quat_y,robot_box_quat_z,robot_box_linvel_x,robot_box_linvel_y,robot_box_linvel_z,robot_box_angvel_x,robot_box_angvel_y,robot_box_angvel_z,cube_world_x,cube_world_y,cube_world_z,cube_quat_w,cube_quat_x,cube_quat_y,cube_quat_z,cube_linvel_x,cube_linvel_y,cube_linvel_z,cube_angvel_x,cube_angvel_y,cube_angvel_z,endpoint_world_x,endpoint_world_y,endpoint_world_z,endpoint_linvel_x,endpoint_linvel_y,endpoint_linvel_z,target_cube_world_x,target_cube_world_y,target_cube_world_z,gripper_actual_pos_rad_gp_leftgearjoint,gripper_actual_vel_rad_s_gp_leftgearjoint,gripper_actual_pos_rad_gp_rotatingjoint,gripper_actual_vel_rad_s_gp_rotatingjoint,motor_angle_rad_joint1,motor_angle_rad_joint2,motor_angle_rad_joint3,motor_angle_rad_joint4,motor_speed_rad_s_joint1,motor_speed_rad_s_joint2,motor_speed_rad_s_joint3,motor_speed_rad_s_joint4
0.0,0.0,0.0,0.0,1.0,0.0,0.0,0.0,0.0,0.0,0.0,0.0,0.0,0.0,-0.44916439056396484,0.655186116695404,0.41999998688697815,1.0,0.0,0.0,0.0,0.0,0.0,0.0,0.0,0.0,0.0,3.42540442943573e-06,-0.005000244826078415,1.313499927520752,0.0,0.0,0.0,0.47692179679870605,0.6654658317565918,0.42000001668930054,-1.5707999467849731,0.0,0.0,0.0,0.0,0.0,0.0,0.0,0.0,0.0,0.0,0.0
0.016666666666666666,0.0028778850100934505,0.0021806680597364902,0.0,0.9998081922531128,0.0,0.0,0.019586581736803055,0.24087215960025787,0.18240931630134583,0.0,0.0,0.0,3.1418697834014893,-0.4491645097732544,0.6551858186721802,0.41999998688697815,1.0,3.2799832752061775e-06,-8.339598593920527e-07,8.465660528145236e-08,-1.9833856640616432e-05,0.00017983021098189056,-6.132945418357849e-05,0.0009432561928406358,-0.004689492750912905,-0.0003198107879143208,-0.007110234349966049,0.003379564033821225,1.3159373998641968,-0.8143353462219238,0.9868683815002441,0.18095196783542633,0.47692179679870605,0.6654658317565918,0.42000001668930054,-1.5301095247268677,3.0000011920928955,-0.04584788903594017,-2.9999992847442627,0.0008691533003002405,0.0007963840034790337,0.0007110277656465769,0.0006108740926720202,0.11094217747449875,0.09756709635257721,0.08334315568208694,0.06823883205652237
0.03333333333333333,0.008960966020822525,0.006801860872656107,0.0,0.9997960329055786,0.0,0.0,0.020196840167045593,0.4070200026035309,0.3153063952922821,0.0,0.0,0.0,-0.8691298365592957,-0.44916462898254395,0.6551857590675354,0.4200000464916229,1.0,3.3908236218849197e-06,-2.1324740373529494e-06,-3.7087911408661967e-08,0.0002635786950122565,0.00026937879738397896,-0.00010509719140827656,-0.0017707741353660822,0.004130927845835686,-0.00013548358401749283,-0.027545496821403503,0.025915104895830154,1.3166401386260986,-1.591369390487671,1.6095890998840332,-0.07982391864061356,0.47692179679870605,0.6654658317565918,0.42000001668930054,-1.4800903797149658,3.0000009536743164,-0.09588772058486938,-3.0,0.0029901762027293444,0.0026528157759457827,0.0022774124518036842,0.0018608927493914962,0.1642267405986786,0.13977253437042236,0.11383342742919922,0.0863175168633461
0.05,0.0177483968436718,0.01377105712890625,0.0,0.9993776082992554,0.0,0.0,0.03527523949742317,0.593801736831665,0.4650614857673645,0.0,0.0,0.0,2.648742914199829,-0.44916465878486633,0.6551858186721802,0.4200000464916229,1.0,3.7651204820576822e-06,-2.2119561435829382e-06,5.640150124719412e-09,0.0002653099945746362,0.0002669153327587992,-0.0001044049859046936,-0.0017243726179003716,0.0041774604469537735,-0.0001294949179282412,-0.05967244505882263,0.053505077958106995,1.3117659091949463,-2.1874938011169434,1.7355560064315796,-0.46626654267311096,0.47692179679870605,0.6654658317565918,0.42000001668930054,-1.4300720691680908,3.000000476837158,-0.14592638611793518,-2.9999983310699463,0.005708719603717327,0.0049167536199092865,0.004052646923810244,0.003111961530521512,0.19279350340366364,0.15589457750320435,0.11712019145488739,0.07637739926576614
0.06666666666666667,0.029063409194350243,0.023064231500029564,0.0,0.999449610710144,0.0,0.0,0.03317251801490784,0.7203435301780701,0.5951845049858093,0.0,0.0,0.0,-1.2106519937515259,-0.44916465878486633,0.6551857590675354,0.4200000464916229,0.9999999403953552,3.406740233913297e-06,-2.2856668238091515e-06,4.3010706463064707e-07,0.0002670245012268424,0.00026791717391461134,-0.0001043803058564663,-0.0017406563274562359,0.00421176990494132,-0.00012850540224462748,-0.09852855652570724,0.0870174840092659,1.2992966175079346,-2.4761765003204346,2.174330234527588,-1.0013298988342285,0.47692179679870605,0.6654658317565918,0.42000001668930054,-1.3800537586212158,3.0000011920928955,-0.19594918191432953,-2.999999761581421,0.008360909298062325,0.0068989042192697525,0.005325989797711372,0.003635968081653118,0.1581754833459854,0.10866101831197739,0.057117294520139694,0.0034660662058740854
0.08333333333333333,0.042773403227329254,0.03442398086190224,0.0,0.9998525977134705,0.0,0.0,0.017169492319226265,0.8732372522354126,0.7182755470275879,0.0,0.0,0.0,-2.239650011062622,-0.44916465878486633,0.6551857590675354,0.4200000464916229,0.9999999403953552,3.626007128332276e-06,-2.335401404707227e-06,3.0324841304718575e-07,0.0002661396865732968,0.00026684964541345835,-0.00010405061766505241,-0.0017283027991652489,0.004196319729089737,-0.00012790360779035836,-0.14040285348892212,0.12546700239181519,1.2793447971343994,-2.53460693359375,2.3974130153656006,-1.3727328777313232,0.47692179679870605,0.6654658317565918,0.42000001668930054,-1.3300238847732544,3.0000035762786865,-0.1858900934457779,2.999999523162842,0.00998248253017664,0.007625227328389883,0.005118353758007288,0.0024531760718673468,0.07435033470392227,0.012316429056227207,-0.051776088774204254,-0.11789517104625702
0.1,0.05049283429980278,0.04938729107379913,0.0,0.9998800158500671,0.0,0.0,0.015491483733057976,0.32898855209350586,0.9680619239807129,0.0,0.0,0.0,0.8998755812644958,-0.44916465878486633,0.6551857590675354,0.4200000464916229,1.0,3.4220852285216097e-06,-2.308649982296629e-06,1.7965334109248943e-07,0.0002668154484126717,0.000268004194367677,-0.00010440708138048649,-0.0017430060543119907,0.004207085818052292,-0.00012891326332464814,-0.18264561891555786,0.16145743429660797,1.2552145719528198,-2.4534196853637695,2.081719398498535,-1.455719232559204,0.47692179679870605,0.6654658317565918,0.42000001668930054,-1.2800214290618896,3.000000476837158,-0.21741323173046112,-2.9999992847442627,0.004951984155923128,0.0018534583505243063,-0.0014450163580477238,-0.0049546100199222565,-0.4186554253101349,-0.4709707498550415,-0.5257598161697388,-0.5831893086433411
0.11666666666666667,0.053895652294158936,0.0643589198589325,0.0,0.9999997019767761,0.0,0.0,0.0007576123462058604,0.2000403255224228,0.8741301894187927,0.0,0.0,0.0,-2.604252338409424,-0.44916465878486633,0.6551858186721802,0.4200000464916229,1.0,3.7114855331310537e-06,-2.332717940589646e-06,2.5745248422026634e-07,0.00026485795387998223,0.0002663535706233233,-0.00010423408821225166,-0.0017181923612952232,0.004170115105807781,-0.0001291551161557436,-0.22218108177185059,0.20123642683029175,1.2307302951812744,-2.339698314666748,2.5887176990509033,-1.539471983909607,0.47692179679870605,0.6654658317565918,0.42000001668930054,-1.2299996614456177,3.0000014305114746,-0.23949983716011047,0.1029374897480011,-0.0011670489329844713,-0.005568346474319696,-0.010170732624828815,-0.014986725524067879,-0.2994017004966736,-0.39597365260124207,-0.49084222316741943,-0.5840087532997131
0.13333333333333333,0.06595712900161743,0.077361561357975,0.0,0.9991339445114136,0.0,0.0,-0.04160997271537781,0.7021584510803223,0.7943974733352661,0.0,0.0,0.0,-5.671102046966553,-0.44916465878486633,0.6551857590675354,0.4200000464916229,1.0,3.3357036954839714e-06,-2.2319193249131786e-06,3.113252375896991e-07,0.00026669810176827013,0.0002675947907846421,-0.00010428531095385551,-0.0017370772548019886,0.0042058308608829975,-0.0001284025056520477,-0.25979381799697876,0.250264048576355,1.2045249938964844,-2.2375712394714355,3.149317741394043,-1.7766298055648804,0.47692179679870605,0.6654658317565918,0.42000001668930054,-1.1800042390823364,2.9999945163726807,-0.28185775876045227,-2.999993324279785,0.0008816173649393022,-0.005995724815875292,-0.012985577806830406,-0.02009592391550541,-0.13314980268478394,-0.24366582930088043,-0.35090652108192444,-0.4546516537666321
0.15,0.07348664104938507,0.08783713728189468,0.0,0.9980150461196899,0.0,0.0,-0.0629754438996315,0.38363680243492126,0.5575007200241089,0.0,0.0,0.0,-1.4401283264160156,-0.44916465878486633,0.6551857590675354,0.4200000464916229,1.0,3.518945050018374e-06,-2.283112280565547e-06,-3.6253939583730244e-07,0.00026618465199135244,0.00026735689607448876,-0.00010425783693790436,-0.0017348835244774818,0.004195805639028549,-0.00012861379946116358,-0.29940834641456604,0.2994493842124939,1.1701594591140747,-2.2547082901000977,3.140791416168213,-2.262979507446289,0.47692179679870605,0.6654658317565918,0.42000001668930054,-1.1304761171340942,2.9104928970336914,-0.2476070523262024,3.0000011920928955,-0.004972818773239851,-0.013237864710390568,-0.02156602032482624,-0.029965948313474655,-0.4166058599948883,-0.49050650000572205,-0.5612156391143799,-0.6288272738456726
0.16666666666666666,0.07650798559188843,0.09985209256410599,0.0,0.9954279065132141,0.0,0.0,-0.09551604092121124,0.1772603988647461,0.7035747170448303,0.0,0.0,0.0,-4.567988395690918,-0.44916465878486633,0.6551857590675354,0.4200000464916229,1.0,3.66662789019756e-06,-2.339195589229348e-06,-3.1499598662776407e-07,0.00026595781673677266,0.00026667400379665196,-0.00010403618216514587,-0.0017254058038815856,0.0041928826831281185,-0.00012778442760463804,-0.3355903625488281,0.35521113872528076,1.1278347969055176,-2.059492349624634,3.56900954246521,-2.7150444984436035,0.47692179679870605,0.6654658317565918,0.42000001668930054,-1.0805736780166626,3.0000014305114746,-0.27873659133911133,-3.0,-0.015018066391348839,-0.024226181209087372,-0.03344005346298218,-0.04267276078462601,-0.5670197606086731,-0.6293163895606995,-0.6869751811027527,-0.740090548992157
0.18333333333333332,0.07698099315166473,0.11324645578861237,0.0,0.9882623553276062,0.0,0.0,-0.1527661234140396,-0.03760615363717079,0.8878993988037109,0.0,0.0,0.0,-7.7418317794799805,-0.44916465878486633,0.6551857590675354,0.4200000464916229,1.0,3.814332103502238e-06,-2.3995876290427987e-06,-2.702606138882402e-07,0.0002654899435583502,0.00026610950590111315,-0.00010390975512564182,-0.0017176909605041146,0.0041847554966807365,-0.00012753659393638372,-0.3703463077545166,0.4188852310180664,1.074066162109375,-1.9033145904541016,4.049763202667236,-3.662200450897217,0.47692179679870605,0.6654658317565918,0.42000001668930054,-1.039052963256836,2.029771566390991,-0.3287656307220459,-3.0000009536743164,-0.026835724711418152,-0.03669491410255432,-0.04648086801171303,-0.05621085688471794,-0.7985358834266663,-0.8138086199760437,-0.8249121308326721,-0.8321926593780518
0.2,0.08308875560760498,0.12322406470775604,0.0,0.9813660383224487,0.0,0.0,-0.19214768707752228,0.4964301288127899,0.4937542676925659,0.0,0.0,0.0,-3.8230252265930176,-0.44916465878486633,0.6551857590675354,0.4200000464916229,1.0,3.6000737964059226e-06,-2.291292048539617e-06,-2.201838640303322e-07,0.0002657294680830091,0.0002664494386408478,-0.00010398100130259991,-0.0017226932104676962,0.0041887471452355385,-0.0001277302799280733,-0.4048711359500885,0.4808415174484253,1.0068373680114746,-1.8052161931991577,3.785308361053467,-4.447222709655762,0.47692179679870605,0.6654658317565918,0.42000001668930054,-0.9914414882659912,3.0,-0.37879249453544617,-2.999999761581421,-0.03624851629137993,-0.04624355584383011,-0.0561046376824379,-0.06585748493671417,-0.5486193299293518,-0.535158097743988,-0.5195452570915222,-0.5024013519287109
0.21666666666666667,0.08577374368906021,0.13052408397197723,0.0,0.9778493642807007,0.0,0.0,-0.20930975675582886,0.06381724029779434,0.36820921301841736,0.0,0.0,0.0,-1.3615831136703491,-0.44916465878486633,0.6551857590675354,0.4200000464916229,0.9999999403953552,3.639686610767967e-06,-2.261991994600976e-06,2.224734885203361e-07,0.0002668736851774156,0.0002675457508303225,-0.00010411953553557396,-0.001740482752211392,0.004211084451526403,-0.00012783787678927183,-0.43382054567337036,0.5352178812026978,0.9268726706504822,-1.4553489685058594,3.05283784866333,-5.0486860275268555,0.47692179679870605,0.6654658317565918,0.42000001668930054,-0.941431999206543,2.9999992847442627,-0.42882081866264343,-2.999999761581421,-0.05085093155503273,-0.06069471314549446,-0.07043886184692383,-0.07979126274585724,-0.9271652102470398,-0.921750009059906,-0.9188203811645508,-0.9164457321166992
0.23333333333333334,0.08295421302318573,0.14070415496826172,0.0,0.970300018787384,0.0,0.0,-0.24190481007099152,-0.17821162939071655,0.5235811471939087,0.0,0.0,0.0,-4.700427532196045,-0.44916462898254395,0.6551857590675354,0.4200000464916229,1.0,3.42072598868981e-06,-2.3168520328908926e-06,2.9559143399637833e-07,0.0002668023807927966,0.0002680397010408342,-0.0001044226810336113,-0.0017437196802347898,0.004206908866763115,-0.0001289972715312615,-0.4527651071548462,0.5816918611526489,0.8346515893936157,-0.8786476850509644,2.492526054382324,-5.731725692749023,0.47692179679870605,0.6654658317565918,0.42000001668930054,-0.891421377658844,2.9999945163726807,-0.4788506031036377,-3.0000007152557373,-0.06730392575263977,-0.0770975723862648,-0.08682054281234741,-0.09616896510124207,-0.698546290397644,-0.7481460571289062,-0.7943307161331177,-0.8359262347221375
0.25,0.08576782047748566,0.14475776255130768,0.0,0.9667409658432007,0.0,0.0,-0.255757600069046,0.20771194994449615,0.23511937260627747,0.0,0.0,0.0,-0.5883765816688538,-0.44916465878486633,0.6551857590675354,0.4200000464916229,0.9999999403953552,3.3476030694146175e-06,-2.259228040202288e-06,1.8084595865275332e-07,0.0002668775268830359,0.00026791135314852,-0.00010439497418701649,-0.0017404715763404965,0.004208224359899759,-0.00012870036880485713,-0.46851351857185364,0.6147332191467285,0.7392846345901489,-0.6343105435371399,1.6077747344970703,-5.800919532775879,0.47692179679870605,0.6654658317565918,0.42000001668930054,-0.8414110541343689,2.999999523162842,-0.528880774974823,-3.0,-0.07757081091403961,-0.08770611137151718,-0.09775680303573608,-0.10741904377937317,-0.8776586055755615,-0.8397352695465088,-0.8043528199195862,-0.7727857232093811
0.26666666666666666,0.08352421969175339,0.14692167937755585,0.0,0.9596474766731262,0.0,0.0,-0.2812058925628662,-0.25455254316329956,0.06828790158033371,0.0,0.0,0.0,-3.9935548305511475,-0.44916465878486633,0.6551857590675354,0.4200000464916229,0.9999999403953552,3.535709538482479e-06,-2.300356527484837e-06,-1.2686297168329475e-07,0.0002660176542121917,0.0002671212423592806,-0.0001041970681399107,-0.0017316201701760292,0.004192845430225134,-0.00012849245104007423,-0.47440963983535767,0.636235237121582,0.6418871879577637,0.07931087911128998,0.9032672643661499,-5.583860397338867,0.47692179679870605,0.6654658317565918,0.42000001668930054,-0.7914021611213684,2.9999992847442627,-0.5789104700088501,-3.0000007152557373,-0.09519783407449722,-0.10509520769119263,-0.11494674533605576,-0.12443724274635315,-1.0152559280395508,-1.0114320516586304,-1.0085294246673584,-1.0062346458435059
0.2833333333333333,0.07860444486141205,0.14606377482414246,0.0,0.9579237699508667,0.0,0.0,-0.2870228588581085,-0.3077425956726074,-0.0971122607588768,0.0,0.0,0.0,0.23388569056987762,-0.44916465878486633,0.6551858186721802,0.4200000464916229,1.0,3.5934710922447266e-06,-2.262706630062894e-06,-5.654582579950329e-08,0.00026704673655331135,0.0002677500597201288,-0.00010416749864816666,-0.0017431466840207577,0.004214155487716198,-0.00012788989988621324,-0.47362178564071655,0.6480876207351685,0.5549678802490234,0.1742243766784668,0.5860017538070679,-5.035675048828125,0.47692179679870605,0.6654658317565918,0.42000001668930054,-0.7413933873176575,2.9999938011169434,-0.628939151763916,-3.000002384185791,-0.11075180768966675,-0.12083578109741211,-0.13086377084255219,-0.1405174732208252,-0.9947007298469543,-0.9967526197433472,-0.9957485795021057,-0.9945952296257019
0.3,0.07136262208223343,0.14252428710460663,0.0,0.9525035619735718,0.0,0.0,-0.3045274615287781,-0.4890088737010956,-0.26229187846183777,0.0,0.0,0.0,-3.0018439292907715,-0.44916462898254395,0.6551857590675354,0.4200000464916229,0.9999999403953552,3.7250058539939346e-06,-2.2361293758876855e-06,3.828688477369724e-07,0.0002647978253662586,0.00026673002867028117,-0.00010453863069415092,-0.001718905521556735,0.004166706930845976,-0.00013016584853176028,-0.46587830781936646,0.6553164720535278,0.4681336581707001,0.8021724224090576,0.25951236486434937,-5.190091133117676,0.47692179679870605,0.6654658317565918,0.42000001668930054,-0.6913858652114868,2.999995231628418,-0.6789667010307312,-2.9999988079071045,-0.12801508605480194,-0.13794375956058502,-0.1478527933359146,-0.15741169452667236,-1.0001792907714844,-1.0001205205917358,-1.0000793933868408,-1.000049114227295
0.31666666666666665,0.06170293316245079,0.1365390121936798,0.0,0.9524041414260864,0.0,0.0,-0.3048382103443146,-0.6165353059768677,-0.3987204432487488,0.0,0.0,0.0,0.8891716003417969,-0.44916465878486633,0.6551857590675354,0.4200000464916229,0.9999999403953552,3.5577875223680167e-06,-2.2790015918872086e-06,2.2831716250948375e-07,0.00026598540716804564,0.0002665847714524716,-0.00010398938320577145,-0.0017241892637684941,0.004193590488284826,-0.00012769197928719223,-0.45960551500320435,0.6582249402999878,0.4241698980331421,0.11148355901241302,-0.06560428440570831,-0.244712233543396,0.47692179679870605,0.6654658317565918,0.42000001668930054,-0.6413813829421997,2.9999890327453613,-0.7293717861175537,-3.001495122909546,-0.14130982756614685,-0.15102195739746094,-0.16055928170681,-0.16955111920833588,-0.5556949973106384,-0.5314630270004272,-0.48812901973724365,-0.4221343994140625
0.3333333333333333,0.049792926758527756,0.12821435928344727,0.0,0.9477218985557556,0.0,0.0,-0.3190975785255432,-0.7624478340148926,-0.5402351021766663,0.0,0.0,0.0,-2.684013605117798,-0.44884219765663147,0.655827522277832,0.4200102984905243,0.9999736547470093,0.00015650039131287485,9.207241964759305e-05,-0.007253723219037056,0.10341709107160568,0.1849898248910904,0.004937647841870785,0.4464642107486725,-0.17228372395038605,-3.924346446990967,-0.45887356996536255,0.6606379151344299,0.4215162396430969,0.15328891575336456,0.19741567969322205,-0.17913834750652313,0.47692179679870605,0.6654658317565918,0.42000001668930054,-0.5913763046264648,2.9999990463256836,-0.7794547080993652,-2.99997615814209,-0.15063181519508362,-0.15944188833236694,-0.1676568239927292,-0.1748746782541275,-0.5770506858825684,-0.49083784222602844,-0.37827450037002563,-0.23905108869075775
0.35,0.03576941415667534,0.11760847270488739,0.0,0.9483119249343872,0.0,0.0,-0.31733980774879456,-0.8877311944961548,-0.6759387254714966,0.0,0.0,0.0,1.1610966920852661,-0.44621509313583374,0.661088764667511,0.4203643202781677,0.9960790276527405,0.000307701324345544,0.009130065329372883,-0.08799510449171066,0.23562073707580566,0.461487352848053,0.060582175850868225,0.18395046889781952,3.0576412677764893,-15.65153694152832,-0.45732617378234863,0.6671979427337646,0.4225080907344818,0.1720220446586609,0.6378559470176697,0.043140608817338943,0.47692179679870605,0.6654658317565918,0.42000001668930054,-0.5413713455200195,2.99997615814209,-0.8294788599014282,-3.000000238418579,-0.16067907214164734,-0.16754882037639618,-0.17336316406726837,-0.17774419486522675,-0.5705850720405579,-0.44412752985954285,-0.29058966040611267,-0.11234304308891296
0.36666666666666664,0.02528437040746212,0.10431274026632309,0.0,0.9441863894462585,0.0,0.0,-0.32941174507141113,-0.5447403192520142,-0.8439236879348755,0.0,0.0,0.0,-2.4027576446533203,-0.4404314160346985,0.6732220649719238,0.4201550781726837,0.9914731979370117,0.0026395288296043873,0.0011633570538833737,-0.13027828931808472,0.4817756414413452,0.9379968643188477,-0.06981536000967026,-0.8244332075119019,-3.2439820766448975,-4.807675361633301,-0.45141828060150146,0.6791177988052368,0.420692503452301,0.573390781879425,0.845901370048523,-0.23950985074043274,0.47692179679870605,0.6654658317565918,0.42000001668930054,-0.49136656522750854,2.999974489212036,-0.8795028924942017,-3.0000009536743164,-0.16980865597724915,-0.1741374284029007,-0.17693914473056793,-0.1779024451971054,-0.5130764245986938,-0.34108465909957886,-0.14215576648712158,0.07861365377902985
0.3833333333333333,0.012767191976308823,0.08919047564268112,0.0,0.9294212460517883,0.0,0.0,-0.36902058124542236,-0.9124369025230408,-0.9219521284103394,0.0,0.0,0.0,-6.010724067687988,-0.4289744794368744,0.6927200555801392,0.42045721411705017,0.9845066666603088,-0.011302996426820755,0.0016377184074372053,-0.17497454583644867,0.9403430223464966,1.4578460454940796,0.08373748511075974,-4.033745765686035,1.308349847793579,-7.224669456481934,-0.4391343891620636,0.6971521973609924,0.4213850796222687,1.0172019004821777,1.384548544883728,0.12804776430130005,0.47692179679870605,0.6654658317565918,0.42000001668930054,-0.44130706787109375,2.99145770072937,-0.9295093417167664,-3.000037431716919,-0.1795777976512909,-0.18075069785118103,-0.17994435131549835,-0.1769513189792633,-0.6214409470558167,-0.4227302074432373,-0.19974911212921143,0.040559377521276474
0.4,0.00231768935918808,0.071405790746212,0.0,0.9012460112571716,0.0,0.0,-0.43330782651901245,-0.5841436386108398,-1.1165053844451904,0.0,0.0,0.0,-9.190164566040039,-0.3991927206516266,0.722184419631958,0.4248129725456238,0.9744691848754883,0.021785246208310127,-0.03542796149849892,-0.22063541412353516,2.544884443283081,2.2686145305633545,0.2618546187877655,40.41493606567383,-15.622933387756348,1.4811617136001587,-0.40925031900405884,0.7280418872833252,0.42488813400268555,2.6267004013061523,2.3246045112609863,0.5219815969467163,0.47692179679870605,0.6654658317565918,0.42000001668930054,-0.3959777057170868,1.9689468145370483,-0.8925471305847168,2.9935739040374756,-0.18999402225017548,-0.18747757375240326,-0.18264208734035492,-0.1754179745912552,-0.6957108378410339,-0.4412659704685211,-0.17112024128437042,0.10499081760644913
0.4166666666666667,-0.006034861318767071,0.0585157535970211,0.0,0.856433093547821,0.0,0.0,-0.5162580013275146,-0.4522066116333008,-0.6505424380302429,0.0,0.0,0.0,-12.068828582763672,-0.3296729028224945,0.7666143774986267,0.43284741044044495,0.9513869285583496,0.09703461825847626,-0.07619129866361618,-0.28220897912979126,5.790658473968506,2.5673015117645264,0.602849006652832,11.154858589172363,-12.34226131439209,23.099395751953125,-0.33893337845802307,0.7735348343849182,0.4328323006629944,5.413403034210205,3.1940431594848633,0.6058343648910522,0.47692179679870605,0.6654658317565918,0.42000001668930054,-0.3772447109222412,0.7584285736083984,-0.8425042629241943,2.99926495552063,-0.20596729218959808,-0.20118466019630432,-0.19051192700862885,-0.17765623331069946,-0.9079423546791077,-0.9035879969596863,-0.5684043765068054,-0.248006209731102
0.43333333333333335,-0.010206849314272404,0.04864341765642166,0.0,0.7929516434669495,0.0,0.0,-0.6092845797538757,-0.18300427496433258,-0.5536762475967407,0.0,0.0,0.0,-14.318926811218262,-0.22307473421096802,0.8146801590919495,0.44358858466148376,0.9151010513305664,0.1336270421743393,-0.10244663059711456,-0.366385817527771,7.698182582855225,2.219242811203003,0.8138192296028137,18.71839141845703,-5.255837440490723,21.97467803955078,-0.23174041509628296,0.8237885236740112,0.44326433539390564,7.438361644744873,2.88443660736084,0.7319789528846741,0.47692179679870605,0.6654658317565918,0.42000001668930054,-0.36513271927833557,0.7927100658416748,-0.8692188858985901,-3.000001907348633,-0.2188018560409546,-0.21390792727470398,-0.19951164722442627,-0.18195012211799622,-0.7874586582183838,-0.7275026440620422,-0.5138882994651794,-0.2635089159011841
0.45,-0.016945766285061836,0.04392769932746887,0.0,0.7352380156517029,0.0,0.0,-0.6778090000152588,-0.36619940400123596,-0.2778695523738861,0.0,0.0,0.0,-9.366769790649414,-0.09992625564336777,0.842509925365448,0.454181432723999,0.8559497594833374,0.17063479125499725,-0.14731042087078094,-0.4653315544128418,7.431321144104004,0.45036980509757996,0.638446569442749,-0.6105369925498962,-11.74283504486084,11.563102722167969,-0.11006759852170944,0.8562936782836914,0.45468324422836304,7.397302627563477,1.3108247518539429,0.688511848449707,0.47692179679870605,0.6654658317565918,0.42000001668930054,-0.3516973853111267,0.7637088298797607,-0.8402563333511353,2.999164342880249,-0.2333901822566986,-0.22864742577075958,-0.21189531683921814,-0.1887727677822113,-0.6412904858589172,-0.6917302012443542,-0.6852635741233826,-0.40400364995002747
0.4666666666666667,-0.019147342070937157,0.03287322446703911,0.0,0.6978467702865601,0.0,0.0,-0.7162470817565918,-0.06561252474784851,-0.816845715045929,0.0,0.0,0.0,-5.439929485321045,0.022131428122520447,0.8515009880065918,0.4632299244403839,0.7845391035079956,0.17766639590263367,-0.15384548902511597,-0.5738158822059631,7.580671787261963,-0.8147172331809998,0.5111627578735352,-10.936338424682617,-16.902223587036133,4.0332818031311035,0.012106344103813171,0.8684359788894653,0.46372711658477783,7.187061786651611,-0.08669193089008331,0.5218963027000427,0.47692179679870605,0.6654658317565918,0.42000001668930054,-0.34030622243881226,0.4817345440387726,-0.8663128614425659,-3.00000262260437,-0.24005214869976044,-0.2367730587720871,-0.21878238022327423,-0.19091437757015228,-0.032460059970617294,-0.40207600593566895,-0.2799965441226959,-4.908364417133271e-07
0.48333333333333334,-0.021681832149624825,0.026903606951236725,0.0,0.6852434277534485,0.0,0.0,-0.7283141613006592,-0.12084062397480011,-0.2400391697883606,0.0,0.0,0.0,-1.0148427486419678,0.13140138983726501,0.8378549814224243,0.46877795457839966,0.7342800498008728,0.1513487696647644,-0.14890208840370178,-0.6447902321815491,5.912024021148682,-2.385106325149536,0.050032950937747955,-15.236273765563965,-16.83372688293457,27.185504913330078,0.12582242488861084,0.8565107583999634,0.47040271759033203,6.4962944984436035,-1.242680549621582,0.38639989495277405,0.47692179679870605,0.6654658317565918,0.42000001668930054,-0.33533310890197754,0.08706863224506378,-0.9163386225700378,-2.999999761581421,-0.2399933636188507,-0.23999199271202087,-0.23096109926700592,-0.1977168172597885,-0.013789869844913483,-0.015311098657548428,-0.6889256238937378,-0.42960041761398315
0.5,-0.020251359790563583,0.02333834394812584,0.0,0.6659854650497437,0.0,0.0,-0.7459647059440613,0.14330223202705383,-0.08784609287977219,0.0,0.0,0.0,-3.910770893096924,0.2305999994277954,0.8096910119056702,0.4680684506893158,0.6276369690895081,0.14253446459770203,-0.14640076458454132,-0.7512139678001404,5.1841325759887695,-3.03594708442688,-0.6633894443511963,-41.68233871459961,13.938897132873535,2.480830192565918,0.22533464431762695,0.8306936025619507,0.46953076124191284,5.698469161987305,-2.0421299934387207,-0.07017727941274643,0.47692179679870605,0.6654658317565918,0.42000001668930054,-0.33571040630340576,-0.25864458084106445,-0.966362714767456,-2.998788356781006,-0.23843765258789062,-0.23832467198371887,-0.23864249885082245,-0.20253242552280426,0.02162005938589573,0.08446499705314636,-0.33265185356140137,-0.20236679911613464
0.5166666666666666,-0.016103824600577354,0.024379990994930267,0.0,0.6614968180656433,0.0,0.0,-0.7499479651451111,0.2810647189617157,0.13563641905784607,0.0,0.0,0.0,0.19730700552463531,0.3121591806411743,0.7721483111381531,0.46019136905670166,0.5550223588943481,0.10520177334547043,-0.13411422073841095,-0.814184308052063,4.2357892990112305,-2.9102017879486084,-0.5062615871429443,-14.360793113708496,1.4977405071258545,0.679185152053833,0.30946266651153564,0.793105959892273,0.461673766374588,4.368443489074707,-2.4364607334136963,-0.6578276753425598,0.47692179679870605,0.6654658317565918,0.42000001668930054,-0.3441336452960968,-0.49516502022743225,-1.0163863897323608,-3.0000007152557373,-0.23845994472503662,-0.2370399683713913,-0.23969945311546326,-0.20565563440322876,0.04283061623573303,0.12411525100469589,0.08042772114276886,-0.1387704759836197
0.5333333333333333,-0.00906948558986187,0.020373759791254997,0.0,0.645669162273407,0.0,0.0,-0.7636172771453857,0.40355536341667175,-0.2308129519224167,0.0,0.0,0.0,-3.3271896839141846,0.3775266408920288,0.7363510131835938,0.44491851329803467,0.504425048828125,0.06839261204004288,-0.1337648332118988,-0.8502850532531738,3.278130054473877,-2.262017011642456,-1.0152956247329712,0.1885823905467987,6.539090156555176,-5.888643264770508,0.3758853077888489,0.7562493085861206,0.44661176204681396,3.4281821250915527,-2.226597547531128,-1.0349340438842773,0.47692179679870605,0.6654658317565918,0.42000001668930054,-0.34176984429359436,0.7788529992103577,-1.0664085149765015,-2.999114513397217,-0.23124471306800842,-0.22969390451908112,-0.2337011992931366,-0.20469564199447632,0.34350791573524475,0.38192835450172424,0.3539024591445923,0.05486023426055908
0.55,-0.0005644428310915828,0.021554997190833092,0.0,0.6431872844696045,0.0,0.0,-0.7657089233398438,0.5644538402557373,0.0619208887219429,0.0,0.0,0.0,0.5105276107788086,0.42503246665000916,0.7003065943717957,0.42630136013031006,0.46873077750205994,0.027491828426718712,-0.12620089948177338,-0.8738471269607544,2.2630844116210938,-2.5387096405029297,-0.9265282154083252,8.241157531738281,16.493072509765625,5.019049167633057,0.4250749349594116,0.7192714214324951,0.42833492159843445,2.559528350830078,-2.1387407779693604,-1.1933658123016357,0.47692179679870605,0.6654658317565918,0.42000001668930054,-0.3218887746334076,1.1990962028503418,-1.116430640220642,-2.998870849609375,-0.22888275980949402,-0.22617027163505554,-0.22978027164936066,-0.20549249649047852,0.2485933154821396,0.27334046363830566,0.27752000093460083,-0.040898218750953674
0.5666666666666667,0.010001463815569878,0.017820393666625023,0.0,0.6293965578079224,0.0,0.0,-0.7770842909812927,0.6594325304031372,-0.2197292447090149,0.0,0.0,0.0,-2.9762609004974365,0.45593634247779846,0.6822569370269775,0.4225389063358307,0.49592125415802,0.025821737945079803,-0.05375755578279495,-0.866317093372345,1.3960187435150146,-0.9862611293792725,-0.1549818366765976,3.8684020042419434,4.329526424407959,5.13091516494751,0.4545164704322815,0.6991468667984009,0.4245617389678955,1.359491229057312,-0.9921807050704956,-0.19185535609722137,0.47692179679870605,0.6654658317565918,0.42000001668930054,-0.3061148524284363,1.052485704421997,-1.16654372215271,-3.000000476837158,-0.2189525067806244,-0.2172185778617859,-0.22158725559711456,-0.20329084992408752,0.46971988677978516,0.4314863681793213,0.41848957538604736,0.08276879787445068
0.5833333333333334,0.01786107011139393,0.018101215362548828,0.0,0.6288434267044067,0.0,0.0,-0.7775319814682007,0.39206114411354065,0.024311576038599014,0.0,0.0,0.0,0.8203505873680115,0.47428756952285767,0.6712178587913513,0.42003098130226135,0.47932374477386475,0.0005400205845944583,0.0001359350571874529,-0.8776379227638245,0.7060054540634155,-0.7495045065879822,-0.011664199642837048,0.050875917077064514,-0.4728497564792633,-0.2316940873861313,0.4720047116279602,0.681364893913269,0.42132872343063354,0.7993305921554565,-0.7917118072509766,0.14395660161972046,0.47692179679870605,0.6654658317565918,0.42000001668930054,-0.286557674407959,1.451562523841858,-1.216536283493042,-2.996173143386841,-0.21376508474349976,-0.21209895610809326,-0.21592514216899872,-0.20243974030017853,0.39169010519981384,0.3645853102207184,0.38898712396621704,0.10567732155323029
0.6,0.026500413194298744,0.015025810338556767,0.0,0.6169008612632751,0.0,0.0,-0.7870408892631531,0.5208847522735596,-0.21203745901584625,0.0,0.0,0.0,-2.7550647258758545,0.4830951392650604,0.664682149887085,0.4200015068054199,0.5063900351524353,7.418300083372742e-05,0.0021438058465719223,-0.8623018264770508,0.11808745563030243,-0.6196582317352295,-0.015883609652519226,0.48516225814819336,-1.4904146194458008,13.73974895477295,0.4804490804672241,0.673856794834137,0.4209667444229126,0.14062173664569855,-0.14451049268245697,0.1010468453168869,0.47692179679870605,0.6654658317565918,0.42000001668930054,-0.27665433287620544,-0.3823809325695038,-1.1785887479782104,2.994504690170288,-0.2054152488708496,-0.20471534132957458,-0.20850683748722076,-0.19982722401618958,0.4785510003566742,0.426112562417984,0.4383513033390045,0.1752959042787552
0.6166666666666667,0.03706332668662071,0.016110047698020935,0.0,0.617567777633667,0.0,0.0,-0.7865176796913147,0.6540419459342957,0.07121232897043228,0.0,0.0,0.0,1.0087934732437134,0.4832167625427246,0.6577982306480408,0.4200000464916229,0.5369055271148682,4.959994384989841e-06,1.2821978998545092e-05,-0.8436422944068909,-0.050247922539711,-0.43623286485671997,-0.0003922470787074417,-0.01709621213376522,-0.006209091749042273,1.7585773468017578,0.4800448417663574,0.6699410080909729,0.4217020571231842,-0.03865232691168785,-0.07726734131574631,0.16137643158435822,0.47692179679870605,0.6654658317565918,0.42000001668930054,-0.3181312680244446,-2.999997615814209,-1.2003594636917114,-2.9995179176330566,-0.2005874216556549,-0.2003365159034729,-0.2034706175327301,-0.1984177529811859,0.39280128479003906,0.33002591133117676,0.3402663469314575,0.12014858424663544
0.6333333333333333,0.04929525405168533,0.01982136256992817,0.0,0.6406530141830444,0.0,0.0,-0.767830491065979,0.7709817290306091,0.28405076265335083,0.0,0.0,0.0,4.441564083099365,0.4815734922885895,0.6526896357536316,0.41999998688697815,0.5380308032035828,-4.085389718966326e-06,-8.341422471858095e-06,-0.8429251313209534,-0.16001072525978088,-0.20905360579490662,-0.00019415425776969641,0.021719753742218018,0.0010021451162174344,-0.9268413186073303,0.47879189252853394,0.6706924438476562,0.42452454566955566,-0.08972638845443726,0.13477693498134613,0.19261705875396729,0.47692179679870605,0.6654658317565918,0.42000001668930054,-0.36815574765205383,-2.9999303817749023,-1.2503230571746826,-2.998575448989868,-0.1939738243818283,-0.1950482279062271,-0.1982184648513794,-0.19656671583652496,0.45711222290992737,0.36105838418006897,0.34206584095954895,0.14529910683631897
0.65,0.06376449763774872,0.01829759031534195,0.0,0.6506012678146362,0.0,0.0,-0.7594195008277893,0.8530237674713135,-0.07132300734519958,0.0,0.0,0.0,0.5093086361885071,0.4799562394618988,0.6514022946357727,0.4205898940563202,0.5276363492012024,-0.011693371459841728,-0.003965487238019705,-0.8493805527687073,-0.08744119107723236,0.019421756267547607,0.04805845767259598,-3.04768705368042,0.7069807052612305,-3.1617462635040283,0.4786704480648041,0.6768520474433899,0.42890459299087524,-0.0658809170126915,0.4038114845752716,0.30945512652397156,0.47692179679870605,0.6654658317565918,0.42000001668930054,-0.4181745946407318,-2.9998867511749268,-1.3002889156341553,-2.9996533393859863,-0.18030548095703125,-0.1838315725326538,-0.18810798227787018,-0.18998591601848602,0.7000259757041931,0.6027568578720093,0.5807505249977112,0.4317394495010376
0.6666666666666666,0.07881923019886017,0.01427103765308857,0.0,0.6590317487716675,0.0,0.0,-0.7521151304244995,0.9727506637573242,-0.24768784642219543,0.0,0.0,0.0,1.6990680694580078,0.4780658185482025,0.6525705456733704,0.4206859767436981,0.538628876209259,-0.014668111689388752,-0.009370221756398678,-0.8423633575439453,-0.08373387157917023,0.024452298879623413,-0.0317382887005806,1.5174394845962524,-0.6972744464874268,-0.2795245945453644,0.4793083667755127,0.6833277940750122,0.4370104670524597,0.0565437413752079,0.2968268096446991,0.7364383339881897,0.47692179679870605,0.6654658317565918,0.42000001668930054,-0.46818840503692627,-3.0,-1.3503072261810303,-2.9999988079071045,-0.17059248685836792,-0.1749771237373352,-0.17890918254852295,-0.18218503892421722,0.34407344460487366,0.3548260033130646,0.43272653222084045,0.4241270422935486
0.6833333333333333,0.09611818939447403,0.008001880720257759,0.0,0.6523727178573608,0.0,0.0,-0.7578982710838318,1.0672783851623535,-0.4298105537891388,0.0,0.0,0.0,-2.0462491512298584,0.47735053300857544,0.6525468826293945,0.42000022530555725,0.5382542610168457,4.511131010076497e-06,8.846997729961004e-07,-0.8427824974060059,0.0013488993281498551,-0.0007587712025269866,-0.00018729106523096561,0.0006074381526559591,0.006880463100969791,-0.027930848300457,0.4865608811378479,0.6891570091247559,0.4504450559616089,0.7432295083999634,0.3359411358833313,1.014861822128296,0.47692179679870605,0.6654658317565918,0.42000001668930054,-0.5182009935379028,-2.999990224838257,-1.4003255367279053,-2.999999761581421,-0.16656547784805298,-0.1704014390707016,-0.1727333813905716,-0.17551064491271973,0.19093182682991028,0.24111363291740417,0.34927794337272644,0.40861618518829346
0.7,0.11741279810667038,0.00741017609834671,0.0,0.6220621466636658,0.0,0.0,-0.7829678654670715,1.1843390464782715,-0.06543894112110138,0.0,0.0,0.0,-5.546473979949951,0.4773503243923187,0.6525471806526184,0.42000001668930054,0.5382547974586487,1.0169690085604088e-06,-4.112689111934742e-06,-0.8427821397781372,0.00015313958283513784,-0.0002748770057223737,-0.00011032167822122574,0.006668822839856148,-0.0010971802985295653,-0.0010390238603577018,0.5047084093093872,0.6901223659515381,0.4745827913284302,1.6082334518432617,-0.03353314846754074,1.9676713943481445,0.47692179679870605,0.6654658317565918,0.42000001668930054,-0.5682135224342346,-2.999901533126831,-1.4503438472747803,-2.9999897480010986,-0.17201679944992065,-0.17341986298561096,-0.17256325483322144,-0.17285002768039703,-0.18828800320625305,-0.07407750934362411,0.08420167863368988,0.21938583254814148
0.7166666666666667,0.13381847739219666,0.008257551118731499,0.0,0.6056386232376099,0.0,0.0,-0.7957397699356079,0.9148903489112854,0.01180411595851183,0.0,0.0,0.0,-1.4155504703521729,0.4773504436016083,0.6525471806526184,0.4200000464916229,0.5382543206214905,2.9405109103208815e-07,-2.6635834728949703e-06,-0.8427823781967163,3.162392386002466e-05,-0.00024449697230011225,-7.44133722037077e-05,0.006487047299742699,-0.002132365945726633,-0.0007108416175469756,0.53187096118927,0.6927492618560791,0.5091484785079956,1.6883336305618286,0.35174360871315,2.175011157989502,0.47692179679870605,0.6654658317565918,0.42000001668930054,-0.5883949995040894,0.3077094256877899,-1.5003621578216553,-2.999999523162842,-0.1739826202392578,-0.1742749959230423,-0.17176368832588196,-0.1706487536430359,0.05761432647705078,0.055254850536584854,0.07768960297107697,0.09477034211158752
0.7333333333333333,0.14551454782485962,0.010212930850684643,0.0,0.6147370934486389,0.0,0.0,-0.78873211145401,0.6266041994094849,0.165886789560318,0.0,0.0,0.0,2.2574896812438965,0.4773504436016083,0.6525471806526184,0.4200000464916229,0.5382544994354248,1.756210394887603e-07,-2.9547747999458807e-06,-0.8427822589874268,2.8448937882785685e-05,-0.00024646008387207985,-7.392675615847111e-05,0.006554906722158194,-0.002181985415518284,-0.0007093250169418752,0.5536880493164062,0.6993507146835327,0.5399119853973389,0.9146040678024292,0.47773340344429016,1.593553900718689,0.47692179679870605,0.6654658317565918,0.42000001668930054,-0.5619218945503235,2.6426453590393066,-1.4616334438323975,2.9999988079071045,-0.17182977497577667,-0.172237828373909,-0.16955934464931488,-0.16826121509075165,0.18962031602859497,0.17894335091114044,0.1769338846206665,0.18001210689544678
0.75,0.1530153602361679,0.008362248539924622,0.0,0.6111732721328735,0.0,0.0,-0.7914968132972717,0.3940967917442322,-0.1853647083044052,0.0,0.0,0.0,-1.5296849012374878,0.47735047340393066,0.6525471806526184,0.4200000464916229,0.5382542610168457,2.294473944175479e-07,-2.5007009298860794e-06,-0.8427823781967163,2.8444013878470287e-05,-0.00024500323343090713,-7.382873445749283e-05,0.006517163477838039,-0.002172945300117135,-0.0007051767315715551,0.5608223676681519,0.7080998420715332,0.5594281554222107,-0.07654651999473572,0.5353395342826843,0.9342817068099976,0.47692179679870605,0.6654658317565918,0.42000001668930054,-0.542887806892395,-0.13434985280036926,-1.4115804433822632,2.9999992847442627,-0.16789327561855316,-0.1684415340423584,-0.16589176654815674,-0.1645955592393875,0.21116678416728973,0.2178100049495697,0.21663439273834229,0.22314776480197906
0.7666666666666666,0.15686938166618347,0.011651517823338509,0.0,0.6194984316825867,0.0,0.0,-0.7849978804588318,0.17299242317676544,0.3333134353160858,0.0,0.0,0.0,2.1539382934570312,0.4773504436016083,0.6525471806526184,0.4200000464916229,0.5382545590400696,3.3889949691001675e-07,-2.6767093004309572e-06,-0.8427822589874268,2.825346018653363e-05,-0.00024715461768209934,-7.392861880362034e-05,0.006573662161827087,-0.0021887251641601324,-0.0007106378325261176,0.5524935126304626,0.7152025699615479,0.5706796646118164,-0.8296331167221069,0.45387032628059387,0.4659181237220764,0.47692179679870605,0.6654658317565918,0.42000001668930054,-0.5243047475814819,2.1511709690093994,-1.4294602870941162,-3.000000238418579,-0.16993992030620575,-0.1690862774848938,-0.165464848279953,-0.16308154165744781,-0.17070046067237854,-0.07597225159406662,-0.00682873884215951,0.06320865452289581
0.7833333333333333,0.15740713477134705,0.011546517722308636,0.0,0.6162434816360474,0.0,0.0,-0.7875556945800781,-0.013485311530530453,-0.12460791319608688,0.0,0.0,0.0,-1.6035774946212769,0.4773504436016083,0.6525471806526184,0.4200000464916229,0.5382542610168457,-7.272507218658575e-08,-2.7486044018587563e-06,-0.8427824378013611,2.6604198865243234e-05,-0.0002448777377139777,-7.342034950852394e-05,0.006524248979985714,-0.0021926008630543947,-0.0007007902022451162,0.5320602655410767,0.7227100133895874,0.5716452598571777,-1.612008810043335,0.42437073588371277,-0.160484179854393,0.47692179679870605,0.6654658317565918,0.42000001668930054,-0.5272066593170166,-2.1262478828430176,-1.3909345865249634,2.9999992847442627,-0.17013153433799744,-0.16826027631759644,-0.1640515923500061,-0.16099050641059875,0.06864424049854279,0.11307807266712189,0.12983906269073486,0.1538248211145401
0.8,0.1603056937456131,0.014949293807148933,0.0,0.6237536072731018,0.0,0.0,-0.7816210389137268,0.09523642063140869,0.23685260117053986,0.0,0.0,0.0,1.7549837827682495,0.4773504436016083,0.6525471806526184,0.4200000464916229,0.5382543206214905,2.944918833236443e-07,-2.5101435312535614e-06,-0.8427824378013611,3.0531846277881414e-05,-0.0002446826547384262,-7.426925003528595e-05,0.006497357040643692,-0.002147865714505315,-0.0007088986458256841,0.5078322887420654,0.7288362383842468,0.5682641863822937,-1.234323263168335,0.5648781657218933,-0.2175348550081253,0.47692179679870605,0.6654658317565918,0.42000001668930054,-0.5366712212562561,0.7481390833854675,-1.409234642982483,-3.000000476837158,-0.17260414361953735,-0.16958913207054138,-0.16472190618515015,-0.1608886569738388,0.0673944428563118,0.06726520508527756,0.04615578427910805,0.042100366204977036
0.8166666666666667,0.164148211479187,0.014774173498153687,0.0,0.6493306756019592,0.0,0.0,-0.7605062127113342,0.2936781346797943,-0.043829988688230515,0.0,0.0,0.0,4.8668012619018555,0.47735047340393066,0.6525471806526184,0.4200000464916229,0.5382542610168457,1.5999279412426404e-07,-2.5042284050869057e-06,-0.8427823781967163,2.8355429094517604e-05,-0.0002482545387465507,-7.39837996661663e-05,0.006601941771805286,-0.002193333813920617,-0.0007134319748729467,0.4845060706138611,0.7348452806472778,0.5628951787948608,-1.569044828414917,0.14204402267932892,-0.35945484042167664,0.47692179679870605,0.6654658317565918,0.42000001668930054,-0.5639740824699402,-3.000000238418579,-1.3707627058029175,2.999999761581421,-0.17092293500900269,-0.16752825677394867,-0.16257430613040924,-0.1583295464515686,-0.00998162105679512,0.054692041128873825,0.10265718400478363,0.16927900910377502
0.8333333333333334,0.17049425840377808,0.011319311335682869,0.0,0.6597219705581665,0.0,0.0,-0.7515097260475159,0.41410359740257263,-0.255301833152771,0.0,0.0,0.0,0.6102089285850525,0.4773504436016083,0.6525471806526184,0.4200000464916229,0.5382546186447144,3.871263913879375e-07,-2.6398281534056878e-06,-0.842782199382782,2.991797555296216e-05,-0.00024630152620375156,-7.426994852721691e-05,0.006542443763464689,-0.0021656390745192766,-0.0007124700350686908,0.4651130139827728,0.7365440130233765,0.5537497997283936,-0.8136959075927734,0.024355223402380943,-0.5500531196594238,0.47692179679870605,0.6654658317565918,0.42000001668930054,-0.6139771342277527,-3.0000011920928955,-1.3207329511642456,2.999999761581421,-0.1719796508550644,-0.16734234988689423,-0.16130724549293518,-0.15558846294879913,-0.0635160580277443,0.01724553108215332,0.09302608668804169,0.19524960219860077
0.85,0.17873737215995789,0.00485197314992547,0.0,0.6477222442626953,0.0,0.0,-0.7618765234947205,0.5349637866020203,-0.4554721713066101,0.0,0.0,0.0,-2.766411781311035,0.47735047340393066,0.6525471806526184,0.4200000464916229,0.5382546186447144,3.2159761076400173e-07,-2.8756069241353543e-06,-0.8427822589874268,3.023453064088244e-05,-0.000246454932494089,-7.428810931742191e-05,0.006545002106577158,-0.0021614443976432085,-0.0007134419865906239,0.45821303129196167,0.7354936003684998,0.5480923652648926,-0.06363974511623383,-0.14624673128128052,0.024198628962039948,0.47692179679870605,0.6654658317565918,0.42000001668930054,-0.6639900207519531,-2.9999759197235107,-1.3402903079986572,-2.9999990463256836,-0.17455780506134033,-0.16855382919311523,-0.16118189692497253,-0.15367278456687927,-0.16836582124233246,-0.09138797223567963,-0.0140391755849123,0.09049136936664581
0.8666666666666667,0.1893448531627655,-0.0048902640119194984,0.0,0.6153869032859802,0.0,0.0,-0.7882251739501953,0.6786687970161438,-0.6657326817512512,0.0,0.0,0.0,-5.886971950531006,0.47735047340393066,0.6525471806526184,0.4200000464916229,0.5382546186447144,2.562376550940826e-07,-2.721947794270818e-06,-0.8427822589874268,2.7570222300710157e-05,-0.0002461656113155186,-7.381499744951725e-05,0.006551249884068966,-0.0021928336936980486,-0.0007066904217936099,0.4660490155220032,0.7293819785118103,0.5489498376846313,0.9722715616226196,-0.5338550806045532,0.23800614476203918,0.47692179679870605,0.6654658317565918,0.42000001668930054,-0.6801931858062744,0.7432823181152344,-1.3903086185455322,-2.999988317489624,-0.17927522957324982,-0.17162315547466278,-0.1626359522342682,-0.15315063297748566,-0.2959524691104889,-0.19494441151618958,-0.09749395400285721,0.0175798200070858
0.8833333333333333,0.19883468747138977,-0.010248778387904167,0.0,0.596610963344574,0.0,0.0,-0.8025305867195129,0.45936667919158936,-0.38310009241104126,0.0,0.0,0.0,-1.6050846576690674,0.47735047340393066,0.6525471806526184,0.4200000464916229,0.53825443983078,1.751782292558346e-07,-2.7883704660780495e-06,-0.8427823781967163,2.6653046006686054e-05,-0.0002465011493768543,-7.358193397521973e-05,0.006565487012267113,-0.0022034228313714266,-0.000705340295098722,0.48184889554977417,0.7243243455886841,0.5578106641769409,1.0818997621536255,0.017923157662153244,0.7031359672546387,0.47692179679870605,0.6654658317565918,0.42000001668930054,-0.6446037888526917,2.9999992847442627,-1.351891040802002,3.000000238418579,-0.1870243400335312,-0.17781735956668854,-0.16747012734413147,-0.1565026342868805,-0.14336150884628296,-0.16324298083782196,-0.18965905904769897,-0.20382964611053467
