vladlanda/robotic-transformer/data/env_000_episode_0263.csv
sim_time_s,robot_box_x,robot_box_y,robot_box_z,robot_box_quat_w,robot_box_quat_x,robot_box_quat_y,robot_box_quat_z,robot_box_linvel_x,robot_box_linvel_y,robot_box_linvel_z,robot_box_angvel_x,robot_box_angvel_y,robot_box_angvel_z,cube_world_x,cube_world_y,cube_world_z,cube_quat_w,cube_quat_x,cube_quat_y,cube_quat_z,cube_linvel_x,cube_linvel_y,cube_linvel_z,cube_angvel_x,cube_angvel_y,cube_angvel_z,endpoint_world_x,endpoint_world_y,endpoint_world_z,endpoint_linvel_x,endpoint_linvel_y,endpoint_linvel_z,target_cube_world_x,target_cube_world_y,target_cube_world_z,gripper_actual_pos_rad_gp_leftgearjoint,gripper_actual_vel_rad_s_gp_leftgearjoint,gripper_actual_pos_rad_gp_rotatingjoint,gripper_actual_vel_rad_s_gp_rotatingjoint,motor_angle_rad_joint1,motor_angle_rad_joint2,motor_angle_rad_joint3,motor_angle_rad_joint4,motor_speed_rad_s_joint1,motor_speed_rad_s_joint2,motor_speed_rad_s_joint3,motor_speed_rad_s_joint4
0.0,0.0,0.0,0.0,1.0,0.0,0.0,0.0,0.0,0.0,0.0,0.0,0.0,0.0,-0.42263638973236084,0.6777255535125732,0.41999998688697815,1.0,0.0,0.0,0.0,0.0,0.0,0.0,0.0,0.0,0.0,3.42540442943573e-06,-0.005000244826078415,1.313499927520752,0.0,0.0,0.0,0.32338935136795044,0.651102602481842,0.42000001668930054,-1.5707999467849731,0.0,0.0,0.0,0.0,0.0,0.0,0.0,0.0,0.0,0.0,0.0
0.016666666666666666,0.0028778850100934505,0.0021806680597364902,0.0,0.9998081922531128,0.0,0.0,0.019586581736803055,0.24087215960025787,0.18240931630134583,0.0,0.0,0.0,3.1418697834014893,-0.4226365089416504,0.6777252554893494,0.41999998688697815,1.0,3.279964630564791e-06,-8.339746386809566e-07,8.465587342243452e-08,-1.9833529222523794e-05,0.00017983045836444944,-6.132945418357849e-05,0.0009432713268324733,-0.004689474124461412,-0.00031981561915017664,-0.007110234349966049,0.003379564033821225,1.3159373998641968,-0.8143353462219238,0.9868683815002441,0.18095196783542633,0.32338935136795044,0.651102602481842,0.42000001668930054,-1.5301095247268677,3.0000011920928955,-0.04584788903594017,-2.9999992847442627,0.0008691533003002405,0.0007963840034790337,0.0007110277656465769,0.0006108740926720202,0.11094217747449875,0.09756709635257721,0.08334315568208694,0.06823883205652237
0.03333333333333333,0.008960961364209652,0.0068018389865756035,0.0,0.9997960329055786,0.0,0.0,0.020196836441755295,0.40701940655708313,0.31530576944351196,0.0,0.0,0.0,-0.869129478931427,-0.42263662815093994,0.6777251958847046,0.4200000464916229,1.0,3.3908354453160428e-06,-2.1324485715012997e-06,-3.710144014235084e-08,0.00026357831666246057,0.00026937946677207947,-0.00010509486310184002,-0.0017707672668620944,0.004130808170884848,-0.000135478752781637,-0.027543924748897552,0.025859424844384193,1.3166486024856567,-1.591301679611206,1.6072134971618652,-0.07882799953222275,0.32338935136795044,0.651102602481842,0.42000001668930054,-1.4800903797149658,3.000002145767212,-0.09588772803544998,-3.0000014305114746,0.0029901890084147453,0.0026528334710747004,0.002277436200529337,0.00186091975774616,0.16422851383686066,0.13977476954460144,0.11383617669343948,0.08632050454616547
0.05,0.017724309116601944,0.013767450116574764,0.0,0.9993842840194702,0.0,0.0,0.035087067633867264,0.5933048725128174,0.46488651633262634,0.0,0.0,0.0,2.6519503593444824,-0.42263665795326233,0.6777252554893494,0.4200000464916229,1.0,3.765139354072744e-06,-2.2119161258160602e-06,5.630195420991413e-09,0.0002653095289133489,0.00026691411039792,-0.00010440382175147533,-0.0017242460744455457,0.004177400842308998,-0.00012949357915204018,-0.05965514853596687,0.05326664820313454,1.3118308782577515,-2.1871395111083984,1.7157542705535889,-0.45946556329727173,0.32338935136795044,0.651102602481842,0.42000001668930054,-1.4300720691680908,2.999998092651367,-0.14592638611793518,-3.0000014305114746,0.005700774025171995,0.0049092755652964115,0.0040456452406942844,0.00310517568141222,0.19277602434158325,0.1558738797903061,0.11709712445735931,0.07635881751775742
0.06666666666666667,0.029031502082943916,0.023058028891682625,0.0,0.9994550347328186,0.0,0.0,0.03301040083169937,0.7198768258094788,0.595043420791626,0.0,0.0,0.0,-1.207482933998108,-0.42263665795326233,0.6777251958847046,0.4200000464916229,0.9999999403953552,3.4067529668391217e-06,-2.2856381747260457e-06,4.300985096961085e-07,0.00026702662580646574,0.00026791892014443874,-0.00010437914170324802,-0.001740677747875452,0.004211848136037588,-0.0001285130565520376,-0.09768015146255493,0.08691757917404175,1.299796223640442,-2.3957252502441406,2.2067599296569824,-0.9600421786308289,0.32338935136795044,0.651102602481842,0.42000001668930054,-1.3800537586212158,3.000001907348633,-0.19411034882068634,-2.7588865756988525,0.00822206400334835,0.006721940357238054,0.005110797937959433,0.0033828108571469784,0.1442553550004959,0.09129664301872253,0.03629642724990845,-0.020818406715989113
0.08333333333333333,0.03452863544225693,0.03567324951291084,0.0,1.0,0.0,0.0,3.1940759072313085e-05,0.1883707344532013,0.8249680399894714,0.0,0.0,0.0,-4.931966304779053,-0.42263665795326233,0.6777251958847046,0.4200000464916229,1.0,3.697281499626115e-06,-2.1890098196308827e-06,-2.632294240356714e-07,0.00026389621780253947,0.00026586363674141467,-0.00010433816350996494,-0.0017081034602597356,0.004150185268372297,-0.00012991165567655116,-0.13639257848262787,0.12785708904266357,1.2790162563323975,-2.28275728225708,2.5736448764801025,-1.436087965965271,0.32338935136795044,0.651102602481842,0.42000001668930054,-1.3300273418426514,2.999997615814209,-0.15905730426311493,3.0000011920928955,0.005163717083632946,0.003081326140090823,0.0008373467135243118,-0.0015781997935846448,-0.2810503840446472,-0.320820152759552,-0.3631519377231598,-0.4083361029624939
0.1,0.04408769682049751,0.049650490283966064,0.0,0.9998951554298401,0.0,0.0,-0.014480235986411572,0.6744846701622009,0.8508819341659546,0.0,0.0,0.0,-0.6989137530326843,-0.42263665795326233,0.6777251958847046,0.4200000464916229,0.9999999403953552,3.6203855415806174e-06,-2.265273224111297e-06,1.7462159007664013e-07,0.0002667683002073318,0.00026740814791992307,-0.0001040794886648655,-0.0017385776154696941,0.004209164995700121,-0.00012775571667589247,-0.17685441672801971,0.16612905263900757,1.2564213275909424,-2.4191575050354004,2.31398606300354,-1.3643947839736938,0.32338935136795044,0.651102602481842,0.42000001668930054,-1.2800291776657104,3.000000238418579,-0.19076323509216309,-2.999999761581421,0.005444803275167942,0.0018888927297666669,-0.0018261803779751062,-0.005710925441235304,0.050591059029102325,-0.051326267421245575,-0.15234385430812836,-0.2524215579032898
0.11666666666666667,0.05180072784423828,0.061307698488235474,0.0,0.9991356730461121,0.0,0.0,-0.04156853258609772,0.4625381827354431,0.6576576828956604,0.0,0.0,0.0,-3.9138336181640625,-0.42263665795326233,0.6777251958847046,0.4200000464916229,1.0,3.7983813854225446e-06,-2.2628894384979503e-06,-1.5019897148249584e-07,0.00026373917353339493,0.00026566049200482666,-0.00010429113171994686,-0.0017053951742127538,0.004147559404373169,-0.00012979967868886888,-0.2132563591003418,0.21161799132823944,1.2324798107147217,-1.9797213077545166,3.097425937652588,-1.4451391696929932,0.32338935136795044,0.651102602481842,0.42000001668930054,-1.2300044298171997,2.999997615814209,-0.15701618790626526,3.000000476837158,0.00428960332646966,-0.0011360698845237494,-0.00669258926063776,-0.012389668263494968,-0.027465414255857468,-0.1607338935136795,-0.2909410893917084,-0.41790667176246643
0.13333333333333333,0.056914206594228745,0.07033241540193558,0.0,0.9956127405166626,0.0,0.0,-0.09356947988271713,0.24669095873832703,0.4519712030887604,0.0,0.0,0.0,-7.069796085357666,-0.42263665795326233,0.6777252554893494,0.4200000464916229,0.9999999403953552,3.55046631739242e-06,-2.229890242233523e-06,2.9291771852513193e-07,0.00026703221374191344,0.00026779237668961287,-0.00010416773147881031,-0.0017439918592572212,0.0042135524563491344,-0.00012800241529475898,-0.2464238405227661,0.2651819586753845,1.2059730291366577,-1.9598973989486694,3.3444671630859375,-1.7807071208953857,0.32338935136795044,0.651102602481842,0.42000001668930054,-1.190341591835022,1.8270738124847412,-0.18878012895584106,-3.0000007152557373,0.0026381348725408316,-0.004914759658277035,-0.012532605789601803,-0.020222337916493416,-0.17109715938568115,-0.2842998802661896,-0.39343348145484924,-0.49839770793914795
0.15,0.05821259692311287,0.07977280765771866,0.0,0.9923410415649414,0.0,0.0,-0.12352819740772247,0.012064713053405285,0.6071297526359558,0.0,0.0,0.0,-2.4913368225097656,-0.42263662815093994,0.6777251958847046,0.4200000464916229,1.0,3.332185997351189e-06,-2.1020589429099346e-06,1.3131703724411636e-07,0.0002673070121090859,0.00026859756326302886,-0.00010459567420184612,-0.0017497788649052382,0.0042156740091741085,-0.00012928353680763394,-0.2864013910293579,0.3173418939113617,1.1698859930038452,-2.3870410919189453,3.300334930419922,-2.527806520462036,0.32338935136795044,0.651102602481842,0.42000001668930054,-1.144031047821045,2.99999737739563,-0.15500815212726593,3.0,-0.0016599500086158514,-0.010757693089544773,-0.019842665642499924,-0.028921565040946007,-0.3251372277736664,-0.3965688943862915,-0.463510125875473,-0.5260589718818665
0.16666666666666666,0.06382419914007187,0.09020895510911942,0.0,0.9859935641288757,0.0,0.0,-0.16678331792354584,0.3547934591770172,0.6239778995513916,0.0,0.0,0.0,-6.0031538009643555,-0.42263665795326233,0.6777251958847046,0.4200000464916229,1.0,3.7372556107584387e-06,-2.2332371827360475e-06,-1.8763917353226134e-07,0.00026432928279973567,0.00026626777253113687,-0.00010445783846080303,-0.0017118602991104126,0.004157558549195528,-0.00013001644401811063,-0.3228435218334198,0.37654298543930054,1.1257612705230713,-1.95981764793396,3.7792911529541016,-2.764944553375244,0.32338935136795044,0.651102602481842,0.42000001668930054,-1.094037413597107,2.9999983310699463,-0.1867748647928238,-3.0000007152557373,-0.006031590513885021,-0.016478003934025764,-0.026832105591893196,-0.03710233047604561,-0.43545159697532654,-0.494536429643631,-0.5503692626953125,-0.6030164361000061
0.18333333333333332,0.06579307466745377,0.09831089526414871,0.0,0.9818677306175232,0.0,0.0,-0.1895674467086792,0.09483476728200912,0.4203528165817261,0.0,0.0,0.0,-1.6072683334350586,-0.42263665795326233,0.6777252554893494,0.4200000464916229,0.9999999403953552,3.660216407297412e-06,-2.302346501892316e-06,2.5286328764195787e-07,0.00026690843515098095,0.00026760369655676186,-0.00010412652045488358,-0.00174131547100842,0.004211504012346268,-0.00012787082232534885,-0.35772955417633057,0.43532058596611023,1.0708601474761963,-1.8927911520004272,3.6186864376068115,-3.6925549507141113,0.32338935136795044,0.651102602481842,0.42000001668930054,-1.0503214597702026,2.2721283435821533,-0.23680318892002106,-3.0000011920928955,-0.017777500674128532,-0.02826097421348095,-0.03862930089235306,-0.04890066385269165,-0.7280147671699524,-0.7133015394210815,-0.6973521113395691,-0.6808300614356995
0.2,0.06413612514734268,0.10776930302381516,0.0,0.9747999310493469,0.0,0.0,-0.22308099269866943,-0.15391646325588226,0.5820757150650024,0.0,0.0,0.0,-4.907341957092285,-0.42263665795326233,0.6777251958847046,0.4200000464916229,1.0,3.5907664823753294e-06,-2.3004322429187596e-06,1.387437009725545e-07,0.00026654673274606466,0.00026732226251624525,-0.00010424060747027397,-0.0017326197121292353,0.004203468095511198,-0.0001282063458347693,-0.38766562938690186,0.4968462586402893,1.0027072429656982,-1.5827827453613281,3.7259984016418457,-4.383474349975586,0.32338935136795044,0.651102602481842,0.42000001668930054,-1.0011649131774902,3.0000007152557373,-0.2868305444717407,-3.0,-0.03299916535615921,-0.04325506091117859,-0.052993450313806534,-0.06263376027345657,-0.9451414346694946,-0.9258756041526794,-0.8839229941368103,-0.8415590524673462
0.21666666666666667,0.06641973555088043,0.11859109252691269,0.0,0.9663196206092834,0.0,0.0,-0.2573448121547699,0.11503211408853531,0.6949344277381897,0.0,0.0,0.0,-3.752518653869629,-0.42263665795326233,0.6777252554893494,0.4200000464916229,1.0,3.6068583995074732e-06,-2.2610586256632814e-06,1.9633484171777127e-08,0.00026447203708812594,0.00026558362878859043,-0.00010396563448011875,-0.001708743628114462,0.004164293874055147,-0.0001283248420804739,-0.4141887128353119,0.5556824207305908,0.9233741760253906,-1.3338412046432495,3.3571372032165527,-5.122598171234131,0.32338935136795044,0.651102602481842,0.42000001668930054,-0.9511580467224121,3.0,-0.3368598222732544,-2.999999761581421,-0.0475999116897583,-0.057516731321811676,-0.06653428077697754,-0.07530834525823593,-0.9861984252929688,-0.9885598421096802,-0.9551297426223755,-0.8665515184402466
0.23333333333333334,0.0652884915471077,0.1266576498746872,0.0,0.9633604884147644,0.0,0.0,-0.26820990443229675,-0.09684193134307861,0.4180503487586975,0.0,0.0,0.0,0.17631271481513977,-0.42263662815093994,0.6777251958847046,0.4200000464916229,0.9999999403953552,3.742156877706293e-06,-2.227542609034572e-06,4.5892250000179047e-07,0.0002647509681992233,0.00026671559317037463,-0.00010453537106513977,-0.0017190451035276055,0.004165756516158581,-0.00013019356993027031,-0.4374711215496063,0.601151704788208,0.8338074684143066,-1.1829180717468262,2.340747833251953,-5.567298889160156,0.32338935136795044,0.651102602481842,0.42000001668930054,-0.9011473655700684,2.9999966621398926,-0.3868910074234009,-2.999999523162842,-0.06379082053899765,-0.07367397844791412,-0.08259990811347961,-0.09128760546445847,-0.9860147833824158,-0.973285973072052,-0.9612032771110535,-0.9508613348007202
0.25,0.06134698539972305,0.13080552220344543,0.0,0.9579697847366333,0.0,0.0,-0.2868691384792328,-0.2914374768733978,0.1935306042432785,0.0,0.0,0.0,-3.167938470840454,-0.42263665795326233,0.6777251958847046,0.4200000464916229,1.0,3.3943140351766488e-06,-2.282112973261974e-06,1.33633321297566e-07,0.0002667937951628119,0.0002679391473066062,-0.00010439474135637283,-0.0017417421331629157,0.004206571727991104,-0.00012884227908216417,-0.45224514603614807,0.6373937129974365,0.7346320152282715,-0.5677508115768433,1.8717049360275269,-6.138115882873535,0.32338935136795044,0.651102602481842,0.42000001668930054,-0.8511366844177246,2.999999761581421,-0.43692266941070557,-3.0000016689300537,-0.08049259334802628,-0.09032367169857025,-0.0992058664560318,-0.10782184451818466,-0.9925573468208313,-0.9937999248504639,-0.9947502017021179,-0.9955069422721863
0.26666666666666666,0.06101600080728531,0.13119499385356903,0.0,0.9490715861320496,0.0,0.0,-0.3150606155395508,0.0014388702111318707,-0.04898720607161522,0.0,0.0,0.0,-3.734663724899292,-0.42263665795326233,0.6777252554893494,0.4200000464916229,1.0,3.6832957448496018e-06,-2.3101708848116687e-06,2.1012019146837702e-07,0.00026479153893887997,0.0002662580518517643,-0.00010421173647046089,-0.0017168201738968492,0.004168934654444456,-0.00012909606448374689,-0.4573705196380615,0.663506031036377,0.6284849047660828,0.10936164110898972,1.1262297630310059,-6.421512126922607,0.32338935136795044,0.651102602481842,0.42000001668930054,-0.8011274933815002,3.000000238418579,-0.48695385456085205,-3.0000014305114746,-0.0972917377948761,-0.10699288547039032,-0.11577936261892319,-0.1243257150053978,-1.0056376457214355,-1.0042250156402588,-1.0031507015228271,-1.0022993087768555
0.2833333333333333,0.05629058554768562,0.13084326684474945,0.0,0.947221577167511,0.0,0.0,-0.32057955861091614,-0.346953809261322,-0.05171159654855728,0.0,0.0,0.0,0.29067525267601013,-0.42263665795326233,0.6777251958847046,0.4200000464916229,1.0,3.3067838103306713e-06,-2.212570507253986e-06,2.6257987428834895e-07,0.00026660895673558116,0.0002674504357855767,-0.00010424456559121609,-0.0017353360308334231,0.004204529337584972,-0.0001282836019527167,-0.4535195827484131,0.6732593774795532,0.5316733121871948,0.530025839805603,0.279815137386322,-5.344993591308594,0.32338935136795044,0.651102602481842,0.42000001668930054,-0.7511187195777893,3.000002861022949,-0.5369836688041687,-3.000000476837158,-0.11539944261312485,-0.12476496398448944,-0.1332993060350418,-0.1416483074426651,-1.0114578008651733,-1.0086256265640259,-1.0064671039581299,-1.0047489404678345
0.3,0.04841984808444977,0.1283266842365265,0.0,0.9411013126373291,0.0,0.0,-0.3381247818470001,-0.445671945810318,-0.21814808249473572,0.0,0.0,0.0,-3.00874662399292,-0.42263665795326233,0.6777251958847046,0.4200000464916229,1.0,3.640822797024157e-06,-2.3780603441991843e-06,-4.194113500943786e-07,0.0002660947502590716,0.00026721262838691473,-0.00010421243496239185,-0.0017329666297882795,0.004194220993667841,-0.00012849632184952497,-0.4392927885055542,0.6763770580291748,0.44449782371520996,1.1368024349212646,0.1744721233844757,-5.117147445678711,0.32338935136795044,0.651102602481842,0.42000001668930054,-0.7011107802391052,2.999995231628418,-0.5870113968849182,-2.9999983310699463,-0.13222306966781616,-0.14151409268379211,-0.15002086758613586,-0.15835750102996826,-0.9413904547691345,-0.9495280981063843,-0.958902895450592,-0.9667133688926697
0.31666666666666665,0.039755601435899734,0.12268709391355515,0.0,0.9409615397453308,0.0,0.0,-0.33851346373558044,-0.5616365075111389,-0.3688673675060272,0.0,0.0,0.0,0.8898290395736694,-0.42263612151145935,0.6777254343032837,0.42000001668930054,0.9999999403953552,1.5471983942916268e-06,3.630099399742903e-06,-3.0083410820225254e-06,-0.0005136607796885073,-4.100249498151243e-06,-0.00010548244608798996,0.00015391242050100118,-0.009384233504533768,0.012680591084063053,-0.4309784173965454,0.6800807118415833,0.4163828194141388,0.23885750770568848,0.18557506799697876,-0.0074170902371406555,0.32338935136795044,0.651102602481842,0.42000001668930054,-0.6512113213539124,2.9430785179138184,-0.6375256776809692,-2.8487133979797363,-0.14026378095149994,-0.1499938815832138,-0.1587335765361786,-0.16706417500972748,-0.27179059386253357,-0.2887011468410492,-0.2828918397426605,-0.24799475073814392
0.3333333333333333,0.028809862211346626,0.11495369672775269,0.0,0.935793399810791,0.0,0.0,-0.35254883766174316,-0.7045948505401611,-0.5047470331192017,0.0,0.0,0.0,-2.737274169921875,-0.4211830794811249,0.681365966796875,0.421516478061676,0.9965422749519348,0.004653565585613251,0.03590445592999458,-0.07478439807891846,0.11135204136371613,0.25984352827072144,0.07898452877998352,0.0969606339931488,4.295266151428223,-10.030791282653809,-0.42892900109291077,0.6854640245437622,0.4240487217903137,0.26664888858795166,0.3997096121311188,-0.12903019785881042,0.32338935136795044,0.651102602481842,0.42000001668930054,-0.6012037396430969,2.999981164932251,-0.6875972747802734,-2.999967336654663,-0.14382962882518768,-0.15360915660858154,-0.16201862692832947,-0.16952665150165558,-0.32148826122283936,-0.2915858328342438,-0.24603618681430817,-0.1783330738544464
0.35,0.01565706543624401,0.10479699075222015,0.0,0.9363828897476196,0.0,0.0,-0.35098016262054443,-0.8281736373901367,-0.6493781805038452,0.0,0.0,0.0,1.1413443088531494,-0.4182925820350647,0.6868761777877808,0.4216943681240082,0.9841045141220093,0.013459203764796257,0.03563842922449112,-0.17345614731311798,0.2366456836462021,0.4065834879875183,-0.0022087402176111937,1.223297119140625,-2.359774112701416,-14.9069185256958,-0.4233374297618866,0.6935781240463257,0.4219764471054077,0.4237383008003235,0.5682305097579956,-0.10398704558610916,0.32338935136795044,0.651102602481842,0.42000001668930054,-0.5511987805366516,2.9999775886535645,-0.7376392483711243,-2.9999992847442627,-0.15074382722377777,-0.15935571491718292,-0.1663438081741333,-0.17208261787891388,-0.4333075284957886,-0.3381155729293823,-0.2296992689371109,-0.10273822396993637
0.36666666666666664,0.005879995413124561,0.09191853553056717,0.0,0.9317405223846436,0.0,0.0,-0.3631247580051422,-0.4930534362792969,-0.8211693167686462,0.0,0.0,0.0,-2.43796706199646,-0.412162184715271,0.6962392926216125,0.42106422781944275,0.9815462231636047,0.013323096558451653,0.01432141475379467,-0.19022145867347717,0.4245249330997467,0.5997130274772644,-0.04520219564437866,-0.2771575152873993,-3.567687511444092,-3.0246784687042236,-0.415233314037323,0.7008445858955383,0.4207349419593811,0.6319560408592224,0.45855712890625,-0.06262878328561783,0.32338935136795044,0.651102602481842,0.42000001668930054,-0.5011940598487854,2.9999778270721436,-0.7876949906349182,-2.999976873397827,-0.1582697331905365,-0.16473183035850525,-0.16932740807533264,-0.17235852777957916,-0.4440070688724518,-0.28917253017425537,-0.1209716871380806,0.06423996388912201
0.3833333333333333,-0.006347408052533865,0.07740534096956253,0.0,0.9153971672058105,0.0,0.0,-0.40255188941955566,-0.8226121068000793,-0.8952913880348206,0.0,0.0,0.0,-6.057022571563721,-0.4007396697998047,0.7104781270027161,0.4202100336551666,0.9749616384506226,-0.0019450477557256818,-0.0038480530492961407,-0.2223311960697174,0.9612815380096436,1.1187686920166016,0.047000251710414886,-1.2906161546707153,-1.2469125986099243,-5.097491264343262,-0.40181469917297363,0.7121044993400574,0.4213481545448303,1.0156656503677368,0.9643281698226929,0.11689616739749908,0.32338935136795044,0.651102602481842,0.42000001668930054,-0.4511871039867401,3.000001907348633,-0.8377537727355957,-3.000001907348633,-0.1677495688199997,-0.17118559777736664,-0.17253845930099487,-0.1720666140317917,-0.5402938723564148,-0.3604862093925476,-0.16806137561798096,0.03931359201669693
0.4,-0.01528514176607132,0.06015409156680107,0.0,0.8851032853126526,0.0,0.0,-0.46539461612701416,-0.4931674599647522,-1.065657615661621,0.0,0.0,0.0,-9.032829284667969,-0.36961573362350464,0.735306978225708,0.423000305891037,0.9611372351646423,-0.01203412376344204,-0.031693439930677414,-0.27398139238357544,2.8433773517608643,1.6263326406478882,0.12606070935726166,26.54302215576172,-11.965408325195312,2.449258804321289,-0.37012314796447754,0.7360373139381409,0.4243611693382263,2.8589630126953125,1.9355283975601196,0.37403154373168945,0.32338935136795044,0.651102602481842,0.42000001668930054,-0.40240779519081116,2.450129985809326,-0.887782096862793,-3.0000011920928955,-0.1770382821559906,-0.17687395215034485,-0.1744368076324463,-0.16997694969177246,-0.6724705100059509,-0.40748822689056396,-0.1348915845155716,0.14375342428684235
0.4166666666666667,-0.022057561203837395,0.04821615666151047,0.0,0.8379752039909363,0.0,0.0,-0.5457082390785217,-0.3576585352420807,-0.594707190990448,0.0,0.0,0.0,-11.967010498046875,-0.2955112159252167,0.771522045135498,0.42784857749938965,0.9381505250930786,0.05158097296953201,-0.07438594102859497,-0.33418503403663635,5.980116367340088,2.069364309310913,0.4109598398208618,3.2431631088256836,-5.685464382171631,18.0579833984375,-0.29604917764663696,0.7723499536514282,0.42953866720199585,5.693917274475098,2.621654987335205,0.4125475585460663,0.32338935136795044,0.651102602481842,0.42000001668930054,-0.3803633451461792,1.0065973997116089,-0.8507547974586487,2.998621702194214,-0.19299329817295074,-0.19027647376060486,-0.18184815347194672,-0.1716705858707428,-0.9047102332115173,-0.8997929692268372,-0.5456143021583557,-0.21855905652046204
0.43333333333333335,-0.025198590010404587,0.039135996252298355,0.0,0.7988612055778503,0.0,0.0,-0.6015153527259827,-0.12083037942647934,-0.5003901720046997,0.0,0.0,0.0,-7.051624298095703,-0.20185773074626923,0.8109432458877563,0.4375624656677246,0.896664023399353,0.08253003656864166,-0.09693419933319092,-0.42401179671287537,5.841580390930176,1.6665477752685547,0.7431871294975281,15.145787239074707,-5.699846267700195,12.796210289001465,-0.20298655331134796,0.812690019607544,0.43905964493751526,5.704930305480957,2.0996503829956055,0.6650829911231995,0.32338935136795044,0.651102602481842,0.42000001668930054,-0.3637671172618866,1.0834689140319824,-0.8772427439689636,-3.000000238418579,-0.20428019762039185,-0.20236772298812866,-0.19006416201591492,-0.1757390946149826,-0.6258009672164917,-0.6469485759735107,-0.45314207673072815,-0.25305432081222534
0.45,-0.030310509726405144,0.02649887464940548,0.0,0.7779978513717651,0.0,0.0,-0.6282669305801392,-0.25579705834388733,-0.7070544362068176,0.0,0.0,0.0,-2.80107045173645,-0.10659077763557434,0.8352224826812744,0.4494265615940094,0.845073401927948,0.08791015297174454,-0.09066426008939743,-0.5195215940475464,5.748876094818115,0.09855827689170837,0.7216559052467346,1.643125057220459,-6.684688091278076,15.554349899291992,-0.10853461921215057,0.8375028371810913,0.4504830837249756,5.8761372566223145,0.7860947847366333,0.805727481842041,0.32338935136795044,0.651102602481842,0.42000001668930054,-0.34423568844795227,1.137365460395813,-0.9272667169570923,-3.000000476837158,-0.21424642205238342,-0.21111565828323364,-0.19502677023410797,-0.1769774854183197,-0.8612106442451477,-0.6689372658729553,-0.37649771571159363,-0.0991029292345047
0.4666666666666667,-0.03622204065322876,0.019061345607042313,0.0,0.7501885294914246,0.0,0.0,-0.6612239480018616,-0.4347875118255615,-0.43725335597991943,0.0,0.0,0.0,-5.8836989402771,-0.011197146028280258,0.8355051279067993,0.4583389461040497,0.7855417728424072,0.06974869221448898,-0.09696247428655624,-0.6071715950965881,5.501412391662598,-1.3173799514770508,0.6721532344818115,-7.3435468673706055,12.08536434173584,8.453664779663086,-0.013927513733506203,0.8390460014343262,0.4606207013130188,5.681337356567383,-0.44708847999572754,0.529065728187561,0.32338935136795044,0.651102602481842,0.42000001668930054,-0.32686153054237366,0.8781101107597351,-0.9772907495498657,-2.999145269393921,-0.23024366796016693,-0.223398357629776,-0.2021455615758896,-0.17919735610485077,-0.787529706954956,-0.5895248055458069,-0.31133535504341125,-0.04431236907839775
0.48333333333333334,-0.0401880219578743,0.006894812919199467,0.0,0.7340817451477051,0.0,0.0,-0.6790611147880554,-0.22144626080989838,-0.7135944962501526,0.0,0.0,0.0,-1.7856202125549316,0.07791344821453094,0.8207011222839355,0.4629145562648773,0.7146701812744141,0.02531598135828972,-0.11574848741292953,-0.6893532276153564,4.834664821624756,-1.9394361972808838,0.18438522517681122,-19.391193389892578,5.13326358795166,-1.9910893440246582,0.07400733232498169,0.8259354829788208,0.4672998785972595,5.022091865539551,-1.273902177810669,0.33142590522766113,0.32338935136795044,0.651102602481842,0.42000001668930054,-0.3126004636287689,0.7592175602912903,-1.0273137092590332,-2.9998278617858887,-0.23871804773807526,-0.22871538996696472,-0.20381270349025726,-0.17753030359745026,-0.5340191721916199,-0.3140987753868103,-0.11055385321378708,0.06340593844652176
0.5,-0.041744280606508255,-0.0005951386992819607,0.0,0.7094767093658447,0.0,0.0,-0.704728901386261,-0.006701480597257614,-0.4325811564922333,0.0,0.0,0.0,-5.037209987640381,0.15413430333137512,0.7948871850967407,0.46273571252822876,0.6725767254829407,-0.001209612819366157,-0.09111613780260086,-0.7343955636024475,4.091203689575195,-1.8816829919815063,-0.14921815693378448,-2.561049699783325,6.008665084838867,3.1407222747802734,0.15051332116127014,0.8006709814071655,0.4675050973892212,4.363557815551758,-1.7338058948516846,-0.17807182669639587,0.32338935136795044,0.651102602481842,0.42000001668930054,-0.29943063855171204,0.9612864255905151,-1.0773358345031738,-2.999772310256958,-0.23983588814735413,-0.23515012860298157,-0.20748065412044525,-0.1789170503616333,0.09589608013629913,-0.17629317939281464,-0.09081105887889862,-0.02771846577525139
0.5166666666666666,-0.039865076541900635,-0.004807501565665007,0.0,0.6993658542633057,0.0,0.0,-0.714763879776001,0.14879880845546722,-0.183693990111351,0.0,0.0,0.0,-0.6642451882362366,0.21790744364261627,0.7642747163772583,0.4568712115287781,0.6378657221794128,-0.033949192613363266,-0.06567780673503876,-0.7665905356407166,3.0709571838378906,-2.4226980209350586,-0.43650349974632263,-5.4776506423950195,3.7578272819519043,18.659746170043945,0.21567828953266144,0.769413948059082,0.4620901644229889,3.6031415462493896,-2.039505958557129,-0.414728045463562,0.32338935136795044,0.651102602481842,0.42000001668930054,-0.2836531400680542,0.8212208151817322,-1.1273579597473145,-2.9998929500579834,-0.23807689547538757,-0.2369050830602646,-0.20863977074623108,-0.1798483431339264,0.1638435572385788,3.2120201467478182e-06,-0.017626194283366203,-0.05583151802420616
0.5333333333333333,-0.03905371576547623,-0.012734482064843178,0.0,0.6795734167098999,0.0,0.0,-0.7336075305938721,-0.027427369728684425,-0.4752518832683563,0.0,0.0,0.0,-3.994166612625122,0.2701030373573303,0.7325129508972168,0.4446812868118286,0.6103109121322632,-0.06857606023550034,-0.04137200489640236,-0.7881028652191162,2.5260169506073,-2.181349754333496,-0.7627341747283936,-0.8234971165657043,6.010696887969971,6.859817981719971,0.2683190107345581,0.7369441390037537,0.4505823850631714,2.7885472774505615,-2.0853607654571533,-0.8516465425491333,0.32338935136795044,0.651102602481842,0.42000001668930054,-0.26956677436828613,0.8017386794090271,-1.177380084991455,-2.999676465988159,-0.2306748479604721,-0.23228411376476288,-0.2057514190673828,-0.17894187569618225,0.32227811217308044,0.22585615515708923,0.114585742354393,-0.01599111780524254
0.55,-0.037414245307445526,-0.01570313051342964,0.0,0.6735702753067017,0.0,0.0,-0.7391231656074524,0.11933677643537521,-0.14260007441043854,0.0,0.0,0.0,0.011567823588848114,0.30705368518829346,0.6973476409912109,0.42879608273506165,0.5933838486671448,-0.07891180366277695,-0.037415340542793274,-0.8001678586006165,1.4986563920974731,-2.2832136154174805,-0.9940509796142578,2.087628126144409,2.9430770874023438,13.928543090820312,0.3056665062904358,0.7018249034881592,0.4347432851791382,1.9040913581848145,-2.0521817207336426,-1.0523487329483032,0.32338935136795044,0.651102602481842,0.42000001668930054,-0.25364217162132263,0.9366663098335266,-1.1579506397247314,3.0000014305114746,-0.2276831567287445,-0.23004154860973358,-0.20555874705314636,-0.18113192915916443,0.3073103725910187,0.2485681176185608,0.06584533303976059,-0.1290779560804367
0.5666666666666667,-0.0332169309258461,-0.020897813141345978,0.0,0.657498836517334,0.0,0.0,-0.7534555792808533,0.2897791266441345,-0.29396724700927734,0.0,0.0,0.0,-3.4980978965759277,0.3284570276737213,0.6741504073143005,0.421945720911026,0.5836860537528992,-0.037407778203487396,-0.007474148645997047,-0.8110827803611755,0.7960666418075562,-0.09604522585868835,0.7200887203216553,31.597597122192383,46.46039581298828,5.901914119720459,0.3262423276901245,0.678412139415741,0.4264994263648987,0.6615387201309204,-1.0128718614578247,0.09812463819980621,0.32338935136795044,0.651102602481842,0.42000001668930054,-0.24004976451396942,0.9723940491676331,-1.1797679662704468,-2.9907500743865967,-0.21773682534694672,-0.2219599187374115,-0.2018609195947647,-0.18174833059310913,0.5811238884925842,0.4882282316684723,0.21502447128295898,-0.049935802817344666
0.5833333333333334,-0.030745385214686394,-0.022989794611930847,0.0,0.6546071171760559,0.0,0.0,-0.755969226360321,0.06839567422866821,-0.08738444000482559,0.0,0.0,0.0,0.3958898186683655,0.33806824684143066,0.6587196588516235,0.4216175079345703,0.5833768844604492,-0.021852435544133186,0.009100393392145634,-0.8118565082550049,0.37996411323547363,-1.2081563472747803,-0.19974906742572784,-2.686122179031372,-10.412038803100586,8.747958183288574,0.3343339264392853,0.6620854735374451,0.4265269339084625,0.3949663043022156,-0.944624662399292,-0.21558167040348053,0.32338935136795044,0.651102602481842,0.42000001668930054,-0.23762071132659912,-0.2569632828235626,-1.1419466733932495,2.999189853668213,-0.20900441706180573,-0.21432015299797058,-0.19866997003555298,-0.18283823132514954,0.5565896034240723,0.4955824911594391,0.2169790118932724,-0.04996190220117569
0.6,-0.027745362371206284,-0.02224081940948963,0.0,0.6423487067222595,0.0,0.0,-0.7664124965667725,0.2289104014635086,0.14524362981319427,0.0,0.0,0.0,-2.777395248413086,0.3399561047554016,0.6508285403251648,0.4217070937156677,0.5961089134216309,-0.025039952248334885,0.03031807579100132,-0.8019401431083679,-0.10960275679826736,-0.2503701448440552,0.16600453853607178,2.846104383468628,3.9070818424224854,2.099818706512451,0.335722953081131,0.6532682776451111,0.42644643783569336,-0.0893344059586525,-0.29372599720954895,0.12209179997444153,0.32338935136795044,0.651102602481842,0.42000001668930054,-0.23377658426761627,0.6520777344703674,-1.1637539863586426,-2.998978614807129,-0.19868461787700653,-0.20552732050418854,-0.19502106308937073,-0.18397104740142822,0.6031680703163147,0.5149092674255371,0.2067883461713791,-0.07760453224182129
0.6166666666666667,-0.022275088354945183,-0.025088997557759285,0.0,0.6430070400238037,0.0,0.0,-0.7658602595329285,0.3149895966053009,-0.1856454610824585,0.0,0.0,0.0,0.9900322556495667,0.33728262782096863,0.6468868255615234,0.4224205017089844,0.6115748882293701,-0.03591902181506157,0.05050456151366234,-0.7887554168701172,-0.24634139239788055,-0.18190930783748627,0.01756424456834793,0.13346269726753235,1.2907267808914185,2.4020841121673584,0.33241355419158936,0.6497099995613098,0.42533910274505615,-0.34259143471717834,-0.15577954053878784,-0.07613265514373779,0.32338935136795044,0.651102602481842,0.42000001668930054,-0.25150132179260254,-2.4989967346191406,-1.1259503364562988,2.9997525215148926,-0.18599703907966614,-0.19435450434684753,-0.18902724981307983,-0.1827821582555771,0.6543499827384949,0.604775607585907,0.3355204164981842,0.08338882774114609
0.6333333333333333,-0.014405508525669575,-0.023926153779029846,0.0,0.6649447083473206,0.0,0.0,-0.7468926310539246,0.5195063352584839,0.0707240179181099,0.0,0.0,0.0,4.268644332885742,0.3334096372127533,0.6441919803619385,0.421519011259079,0.6253201961517334,-0.024642521515488625,0.03048996813595295,-0.7793828845024109,-0.2272932231426239,-0.15244129300117493,-0.07437995821237564,-0.9812512993812561,-4.109807014465332,1.9043450355529785,0.3287428617477417,0.6489066481590271,0.4267515540122986,-0.1258370727300644,0.08216772973537445,0.1603025496006012,0.32338935136795044,0.651102602481842,0.42000001668930054,-0.3011285364627838,-2.9735193252563477,-1.147986650466919,-2.9998626708984375,-0.17812125384807587,-0.18672913312911987,-0.18513648211956024,-0.1823492795228958,0.568356990814209,0.5318470001220703,0.3002287745475769,0.08856815099716187
0.65,-0.004831293597817421,-0.02624218352138996,0.0,0.6729355454444885,0.0,0.0,-0.7397010922431946,0.6168830394744873,-0.16641196608543396,0.0,0.0,0.0,0.22247052192687988,0.3306298851966858,0.6428529620170593,0.4200347065925598,0.6340372562408447,-0.0005340584320947528,-0.0006706874701194465,-0.7733019590377808,-0.07905993610620499,-0.025141078978776932,-0.03649677708745003,1.6062085628509521,-0.1900617629289627,1.1149702072143555,0.327609658241272,0.6517359018325806,0.4303295910358429,-0.059546492993831635,0.1689852774143219,0.24708162248134613,0.32338935136795044,0.651102602481842,0.42000001668930054,-0.3511480987071991,-2.9992434978485107,-1.197948694229126,-2.999967575073242,-0.1678009033203125,-0.1768740862607956,-0.17872612178325653,-0.17903219163417816,0.5436750054359436,0.5459033250808716,0.3822404146194458,0.2368185669183731
0.6666666666666666,0.0068026138469576836,-0.03167388215661049,0.0,0.6889440417289734,0.0,0.0,-0.7248145341873169,0.7402644157409668,-0.4018295109272003,0.0,0.0,0.0,3.595284938812256,0.3303990066051483,0.6427280306816101,0.4200001657009125,0.635880708694458,2.0463283362914808e-05,-1.1052504760300508e-06,-0.7717872858047485,0.0012889379868283868,0.000576635415200144,-0.0007155074272304773,-0.011395848356187344,0.0014420123770833015,-0.008610036224126816,0.3252412676811218,0.6528071165084839,0.4364038109779358,-0.19586879014968872,0.009152267128229141,0.5502445697784424,0.32338935136795044,0.651102602481842,0.42000001668930054,-0.4011628031730652,-3.000000238418579,-1.2479671239852905,-3.0,-0.16174708306789398,-0.1696891188621521,-0.17286905646324158,-0.17421476542949677,0.2871841490268707,0.39306768774986267,0.3688116669654846,0.3616520166397095
0.6833333333333333,0.020556043833494186,-0.03956422209739685,0.0,0.6929197311401367,0.0,0.0,-0.7210147380828857,0.8489051461219788,-0.5703219771385193,0.0,0.0,0.0,-0.35455819964408875,0.33037227392196655,0.6427213549613953,0.41999998688697815,0.6355593204498291,-1.9023525510419859e-07,-4.913118800686789e-07,-0.7720520496368408,5.57427410967648e-05,-3.70351190213114e-05,-7.735565304756165e-06,0.0012037083506584167,0.003460185369476676,5.9365771448938176e-05,0.3257408142089844,0.6528104543685913,0.4441959857940674,0.20923197269439697,-0.03833790495991707,0.5226192474365234,0.32338935136795044,0.651102602481842,0.42000001668930054,-0.45117634534835815,-3.000000476837158,-1.2979854345321655,-3.000000476837158,-0.15889449417591095,-0.16457976400852203,-0.16736142337322235,-0.1680261194705963,0.1520087867975235,0.30132541060447693,0.35597291588783264,0.4273919463157654
0.7,0.037013113498687744,-0.04578878730535507,0.0,0.6745820045471191,0.0,0.0,-0.7381999492645264,1.054468035697937,-0.26579681038856506,0.0,0.0,0.0,-4.002557754516602,0.33037179708480835,0.6427217721939087,0.41999995708465576,0.6355596780776978,-9.413000157110218e-07,-6.6557636273500975e-06,-0.7720516920089722,0.00019698413962032646,-0.0004393972922116518,-9.638862684369087e-05,0.00956070888787508,-0.0015414246590808034,-0.0005620184238068759,0.33434799313545227,0.6514556407928467,0.46102625131607056,0.818710446357727,-0.11246631294488907,1.5956923961639404,0.32338935136795044,0.651102602481842,0.42000001668930054,-0.5011890530586243,-2.9999632835388184,-1.3480037450790405,-2.999997854232788,-0.16171495616436005,-0.16427701711654663,-0.16530825197696686,-0.16403800249099731,-0.31366032361984253,-0.11399184912443161,0.015491576865315437,0.15237051248550415
0.7166666666666667,0.05049606412649155,-0.047616761177778244,0.0,0.6647835373878479,0.0,0.0,-0.7470360398292542,0.7095487713813782,-0.1476125419139862,0.0,0.0,0.0,-0.08985237032175064,0.33037182688713074,0.6427217125892639,0.41999998688697815,0.6355595588684082,-4.699408293618035e-07,-5.483133918460226e-06,-0.7720518112182617,0.00020878099894616753,-0.00040978947072289884,-8.840952068567276e-05,0.00906421709805727,-0.0012834001099690795,-0.0005899997777305543,0.35024428367614746,0.6524577140808105,0.492784321308136,1.1255065202713013,0.20024582743644714,2.2243621349334717,0.32338935136795044,0.651102602481842,0.42000001668930054,-0.5511921048164368,-2.9999897480010986,-1.3980220556259155,-3.000000238418579,-0.16569529473781586,-0.16589784622192383,-0.1655246466398239,-0.1627524495124817,-0.03326308727264404,0.029516201466321945,0.04887622222304344,0.07574121654033661
0.7333333333333333,0.059525586664676666,-0.047686170786619186,0.0,0.6801759004592896,0.0,0.0,-0.7330489754676819,0.4830070734024048,0.050247129052877426,0.0,0.0,0.0,3.3137292861938477,0.33037182688713074,0.6427217125892639,0.41999998688697815,0.6355597376823425,-6.412220727725071e-07,-5.667089681082871e-06,-0.7720515727996826,0.0002079735859297216,-0.0004104739346075803,-8.855131454765797e-05,0.009076111949980259,-0.0012949571246281266,-0.0005880813114345074,0.3691850006580353,0.6550539135932922,0.5218299627304077,1.0947437286376953,0.1453213095664978,1.3847676515579224,0.32338935136795044,0.651102602481842,0.42000001668930054,-0.5719035863876343,0.2485426962375641,-1.4480403661727905,-3.000000238418579,-0.16557645797729492,-0.16487209498882294,-0.164180725812912,-0.16105009615421295,0.07721740007400513,0.1189926266670227,0.1314859390258789,0.14123374223709106
0.75,0.06407128274440765,-0.05231219902634621,0.0,0.6828848123550415,0.0,0.0,-0.7305260300636292,0.24920406937599182,-0.21639810502529144,0.0,0.0,0.0,-0.5692281126976013,0.33037179708480835,0.6427217125892639,0.41999998688697815,0.635559618473053,-6.376747023750795e-07,-5.651772880810313e-06,-0.7720516920089722,0.00020981577108614147,-0.0004114888433832675,-8.871592581272125e-05,0.009104999713599682,-0.0012877321569249034,-0.0005929160979576409,0.3813449442386627,0.6591794490814209,0.5397417545318604,0.29716360569000244,0.10571086406707764,0.897508978843689,0.32338935136795044,0.651102602481842,0.42000001668930054,-0.5722445249557495,-0.24502654373645782,-1.4094613790512085,2.999999761581421,-0.1595737636089325,-0.15900935232639313,-0.1588272750377655,-0.15628518164157867,0.10706016421318054,0.14684632420539856,0.1638800948858261,0.1655212938785553
0.7666666666666666,0.06603743880987167,-0.05225751921534538,0.0,0.6946635842323303,0.0,0.0,-0.7193347811698914,0.07474685460329056,0.0684843361377716,0.0,0.0,0.0,2.7403907775878906,0.33037179708480835,0.6427217125892639,0.41999998688697815,0.6355597972869873,-6.453432206399157e-07,-5.474149020301411e-06,-0.7720516324043274,0.00020902842516079545,-0.00041056310874409974,-8.856086060404778e-05,0.009081502445042133,-0.001286888960748911,-0.0005907435552217066,0.38411203026771545,0.658718466758728,0.5508327484130859,0.049835145473480225,-0.0753246322274208,0.4809451103210449,0.32338935136795044,0.651102602481842,0.42000001668930054,-0.5686194896697998,0.6029667258262634,-1.4273675680160522,-2.9999992847442627,-0.1591557115316391,-0.15767629444599152,-0.15688419342041016,-0.15405450761318207,0.05525169521570206,0.10266783833503723,0.13634467124938965,0.14878122508525848
0.7833333333333333,0.06519258767366409,-0.0551149919629097,0.0,0.6941890120506287,0.0,0.0,-0.7197927832603455,-0.11537022143602371,-0.14912080764770508,0.0,0.0,0.0,-0.8600419759750366,0.33037182688713074,0.6427217125892639,0.41999998688697815,0.6355595588684082,-5.753147434006678e-07,-5.8020141295855865e-06,-0.7720517516136169,0.00020995904924347997,-0.00041066535050049424,-8.858065120875835e-05,0.009086466394364834,-0.0012800941476598382,-0.0005930286715738475,0.3821367621421814,0.658065140247345,0.5520205497741699,-0.3669236898422241,-0.08926475048065186,-0.17102017998695374,0.32338935136795044,0.651102602481842,0.42000001668930054,-0.5665405988693237,-0.28085818886756897,-1.3888475894927979,2.999999523162842,-0.15637297928333282,-0.1545303612947464,-0.15352903306484222,-0.15084919333457947,0.024967048317193985,0.06861455738544464,0.10363741219043732,0.11283839493989944
0.8,0.06560558080673218,-0.05446656420826912,0.0,0.7033985257148743,0.0,0.0,-0.7107956409454346,0.07683420926332474,0.07869164645671844,0.0,0.0,0.0,2.2498929500579834,0.33037179708480835,0.6427217125892639,0.41999998688697815,0.6355597376823425,-6.430302619264694e-07,-5.527702796825906e-06,-0.7720516920089722,0.00020923465490341187,-0.00041098592919297516,-8.862977847456932e-05,0.009091636165976524,-0.0012883978197351098,-0.000591349380556494,0.3778376877307892,0.655733585357666,0.5501236915588379,-0.12572170794010162,-0.14025560021400452,-0.012923143804073334,0.32338935136795044,0.651102602481842,0.42000001668930054,-0.5734589099884033,-0.5220646858215332,-1.4071742296218872,-3.000000476837158,-0.15623019635677338,-0.15378957986831665,-0.15216240286827087,-0.14917510747909546,0.0789097473025322,0.09518980979919434,0.12173406034708023,0.1354655921459198
0.8166666666666667,0.06858706474304199,-0.05721985176205635,0.0,0.7007880210876465,0.0,0.0,-0.7133695483207703,0.2176744043827057,-0.20406420528888702,0.0,0.0,0.0,-1.24107825756073,0.33037179708480835,0.6427217125892639,0.41999998688697815,0.6355597376823425,-6.268259085118189e-07,-5.5075793170544785e-06,-0.7720516324043274,0.0002090218913508579,-0.00041061019874177873,-8.856435306370258e-05,0.009082525037229061,-0.0012864784803241491,-0.0005906863370910287,0.3781251311302185,0.6528325080871582,0.5452168583869934,0.08424755185842514,-0.31761592626571655,-0.39364200830459595,0.32338935136795044,0.651102602481842,0.42000001668930054,-0.6015735864639282,-2.645310163497925,-1.3687121868133545,3.0,-0.15375876426696777,-0.15115703642368317,-0.14910072088241577,-0.14582525193691254,0.05524679273366928,0.09290876984596252,0.14811564981937408,0.19477581977844238
0.8333333333333334,0.07425322383642197,-0.05642222985625267,0.0,0.6784281730651855,0.0,0.0,-0.7346667051315308,0.38577187061309814,0.06057661026716232,0.0,0.0,0.0,-4.501133918762207,0.33037179708480835,0.6427217125892639,0.41999998688697815,0.6355597376823425,-6.452767706832674e-07,-5.486869667947758e-06,-0.7720516920089722,0.00020909178419969976,-0.0004105935513507575,-8.85622575879097e-05,0.009082461707293987,-0.0012862031580880284,-0.0005908884340897202,0.3849817216396332,0.6476020812988281,0.5412723422050476,0.7233424782752991,-0.28834009170532227,0.05879570543766022,0.32338935136795044,0.651102602481842,0.42000001668930054,-0.6431909203529358,-2.3404479026794434,-1.3874379396438599,-2.9999992847442627,-0.15534207224845886,-0.15210986137390137,-0.14904460310935974,-0.14482367038726807,-0.028960585594177246,-0.013887355104088783,0.02901819534599781,0.07369964569807053
0.85,0.08212441205978394,-0.05316922813653946,0.0,0.670086145401001,0.0,0.0,-0.7422833442687988,0.5053330659866333,0.25111231207847595,0.0,0.0,0.0,-0.373716801404953,0.33037179708480835,0.6427217125892639,0.41999998688697815,0.6355596780776978,-6.37683058357652e-07,-5.464821697387379e-06,-0.7720516324043274,0.0002089103654725477,-0.000410541397286579,-8.855643682181835e-05,0.009080500341951847,-0.0012868132907897234,-0.0005903953569941223,0.39614707231521606,0.6472477912902832,0.5457772612571716,0.646675705909729,0.20587915182113647,0.4633156657218933,0.32338935136795044,0.651102602481842,0.42000001668930054,-0.6514317989349365,1.064110279083252,-1.4374562501907349,-3.000000476837158,-0.15452824532985687,-0.15182390809059143,-0.14885659515857697,-0.14471237361431122,0.10558208078145981,0.037466444075107574,-0.008538925088942051,-0.05508854240179062
0.8666666666666667,0.08740375936031342,-0.054761700332164764,0.0,0.6841765642166138,0.0,0.0,-0.7293164134025574,0.29802289605140686,-0.14489847421646118,0.0,0.0,0.0,2.9943413734436035,0.33037182688713074,0.6427217721939087,0.41999998688697815,0.6355593800544739,-5.647747798320779e-07,-5.580247034231434e-06,-0.7720518708229065,0.0002075141528621316,-0.00040901731699705124,-8.837715722620487e-05,0.009039033204317093,-0.0012872056104242802,-0.0005864212871529162,0.40470024943351746,0.6524847149848938,0.5514966249465942,0.38249319791793823,0.31017088890075684,0.22642552852630615,0.32338935136795044,0.651102602481842,0.42000001668930054,-0.6249681711196899,2.0099382400512695,-1.3989051580429077,2.9999992847442627,-0.1485186070203781,-0.14745576679706573,-0.14581707119941711,-0.14302857220172882,0.25348663330078125,0.17582042515277863,0.11077611893415451,0.03923549875617027
0.8833333333333333,0.08938095718622208,-0.0521308071911335,0.0,0.6850448846817017,0.0,0.0,-0.7285008430480957,0.06240054592490196,0.16447043418884277,0.0,0.0,0.0,-0.7629783749580383,0.33037182688713074,0.6427217125892639,0.41999998688697815,0.6355596780776978,-5.670868858942413e-07,-5.730457814934198e-06,-0.7720516920089722,0.0002094930096063763,-0.0004103485553059727,-8.851056918501854e-05,0.009079447016119957,-0.0012841924326494336,-0.0005920250550843775,0.40591639280319214,0.6567327976226807,0.551048994064331,-0.13990411162376404,0.26833564043045044,-0.1328934282064438,0.32338935136795044,0.651102602481842,0.42000001668930054,-0.6083818078041077,0.12967799603939056,-1.348852515220642,3.000000238418579,-0.14905762672424316,-0.14861072599887848,-0.14744271337985992,-0.14528070390224457,0.03101390413939953,-0.02133549004793167,-0.06438193470239639,-0.11416057497262955
