vladlanda/robotic-transformer/data/env_000_episode_0196.csv
sim_time_s,robot_box_x,robot_box_y,robot_box_z,robot_box_quat_w,robot_box_quat_x,robot_box_quat_y,robot_box_quat_z,robot_box_linvel_x,robot_box_linvel_y,robot_box_linvel_z,robot_box_angvel_x,robot_box_angvel_y,robot_box_angvel_z,cube_world_x,cube_world_y,cube_world_z,cube_quat_w,cube_quat_x,cube_quat_y,cube_quat_z,cube_linvel_x,cube_linvel_y,cube_linvel_z,cube_angvel_x,cube_angvel_y,cube_angvel_z,endpoint_world_x,endpoint_world_y,endpoint_world_z,endpoint_linvel_x,endpoint_linvel_y,endpoint_linvel_z,target_cube_world_x,target_cube_world_y,target_cube_world_z,gripper_actual_pos_rad_gp_leftgearjoint,gripper_actual_vel_rad_s_gp_leftgearjoint,gripper_actual_pos_rad_gp_rotatingjoint,gripper_actual_vel_rad_s_gp_rotatingjoint,motor_angle_rad_joint1,motor_angle_rad_joint2,motor_angle_rad_joint3,motor_angle_rad_joint4,motor_speed_rad_s_joint1,motor_speed_rad_s_joint2,motor_speed_rad_s_joint3,motor_speed_rad_s_joint4
0.0,0.0,0.0,0.0,1.0,0.0,0.0,0.0,0.0,0.0,0.0,0.0,0.0,0.0,-0.4690222144126892,0.6806283593177795,0.41999998688697815,1.0,0.0,0.0,0.0,0.0,0.0,0.0,0.0,0.0,0.0,3.42540442943573e-06,-0.005000244826078415,1.313499927520752,0.0,0.0,0.0,0.44146260619163513,0.6446612477302551,0.42000001668930054,-1.5707999467849731,0.0,0.0,0.0,0.0,0.0,0.0,0.0,0.0,0.0,0.0,0.0
0.016666666666666666,0.0028778850100934505,0.0021806680597364902,0.0,0.9998081922531128,0.0,0.0,0.019586581736803055,0.24087215960025787,0.18240931630134583,0.0,0.0,0.0,3.1418697834014893,-0.46902233362197876,0.6806280612945557,0.41999998688697815,1.0,3.2799832752061775e-06,-8.339598593920527e-07,8.465660528145236e-08,-1.9833856640616432e-05,0.00017983021098189056,-6.132945418357849e-05,0.0009432561928406358,-0.004689492750912905,-0.0003198107879143208,-0.007110234349966049,0.003379564033821225,1.3159373998641968,-0.8143353462219238,0.9868683815002441,0.18095196783542633,0.44146260619163513,0.6446612477302551,0.42000001668930054,-1.5301095247268677,3.0000011920928955,-0.04584788903594017,-2.9999992847442627,0.0008691533003002405,0.0007963840034790337,0.0007110277656465769,0.0006108740926720202,0.11094217747449875,0.09756709635257721,0.08334315568208694,0.06823883205652237
0.03333333333333333,0.00896012969315052,0.006801890674978495,0.0,0.9997959733009338,0.0,0.0,0.02019958756864071,0.4070145785808563,0.31530505418777466,0.0,0.0,0.0,-0.8691680431365967,-0.4690224528312683,0.6806280016899109,0.4200000464916229,1.0,3.3908236218849197e-06,-2.1324740373529494e-06,-3.7087911408661967e-08,0.0002635786950122565,0.00026937879738397896,-0.00010509719140827656,-0.0017707741353660822,0.004130927845835686,-0.00013548358401749283,-0.02754531055688858,0.025915708392858505,1.3166393041610718,-1.5913684368133545,1.6096197366714478,-0.07983501255512238,0.44146260619163513,0.6446612477302551,0.42000001668930054,-1.4800904989242554,3.000001907348633,-0.09588772058486938,-3.000000238418579,0.002989872358739376,0.0026525319553911686,0.0022771498188376427,0.0018606511875987053,0.164229616522789,0.1397746503353119,0.11383504420518875,0.08631855249404907
0.05,0.017758645117282867,0.013772999867796898,0.0,0.9993745684623718,0.0,0.0,0.03536135330796242,0.5939727425575256,0.4651613235473633,0.0,0.0,0.0,2.6474192142486572,-0.4690224826335907,0.6806280612945557,0.4200000464916229,1.0,3.7651166167051997e-06,-2.2119024833955336e-06,5.637348365894468e-09,0.0002653102274052799,0.00026691530365496874,-0.0001044049859046936,-0.0017243424663320184,0.004177475813776255,-0.00012949523807037622,-0.05967915803194046,0.05355638265609741,1.3117520809173584,-2.1876397132873535,1.7418735027313232,-0.4682861864566803,0.44146260619163513,0.6446612477302551,0.42000001668930054,-1.4300721883773804,3.000002384185791,-0.145926371216774,-3.0000007152557373,0.005712222307920456,0.004920067731291056,0.004055773373693228,0.003114900551736355,0.19279345870018005,0.15589693188667297,0.11712496727705002,0.07638408988714218
0.06666666666666667,0.029076533392071724,0.023067736998200417,0.0,0.9994471073150635,0.0,0.0,0.033248357474803925,0.7205213904380798,0.5952775478363037,0.0,0.0,0.0,-1.2118853330612183,-0.4690224826335907,0.6806280016899109,0.4200000464916229,0.9999999403953552,3.4067338674503844e-06,-2.2856738723930903e-06,4.301002434203838e-07,0.0002670263347681612,0.0002679180761333555,-0.00010437914170324802,-0.001740648876875639,0.004211838357150555,-0.00012851078645326197,-0.09850524365901947,0.08733220398426056,1.2991745471954346,-2.474640369415283,2.198237419128418,-1.012491226196289,0.44146260619163513,0.6446612477302551,0.42000001668930054,-1.3800538778305054,2.9999966621398926,-0.19596369564533234,-3.000000476837158,0.008360173553228378,0.006897091865539551,0.005323110613971949,0.003631779458373785,0.15799638628959656,0.10849585384130478,0.05696720629930496,0.0033373418264091015
0.08333333333333333,0.03466188162565231,0.035766467452049255,0.0,0.9991685152053833,0.0,0.0,0.04077104479074478,0.1844538003206253,0.830880880355835,0.0,0.0,0.0,2.095884323120117,-0.4690224826335907,0.6806280016899109,0.4200000464916229,0.9999999403953552,3.6260375964047853e-06,-2.335399813091499e-06,3.0323869282256055e-07,0.0002661397447809577,0.0002668508095666766,-0.00010405457578599453,-0.0017283371416851878,0.004196438007056713,-0.00012790974869858474,-0.14176689088344574,0.1231878325343132,1.2769466638565063,-2.6740915775299072,2.101579189300537,-1.5533559322357178,0.44146260619163513,0.6446612477302551,0.42000001668930054,-1.3300317525863647,2.9999985694885254,-0.22591546177864075,-0.7653915882110596,0.005682709161192179,0.003718840191140771,0.0015945533523336053,-0.0007007724489085376,-0.2578853964805603,-0.2917815148830414,-0.32820796966552734,-0.3674609065055847
0.1,0.04377948120236397,0.04931967332959175,0.0,0.9994150400161743,0.0,0.0,0.0341990664601326,0.6672624349594116,0.8267580270767212,0.0,0.0,0.0,-1.729124665260315,-0.4690224826335907,0.6806280016899109,0.4200000464916229,1.0,3.4220713587274076e-06,-2.3086856799636735e-06,1.7965174947676132e-07,0.0002668143715709448,0.00026800335035659373,-0.00010440708138048649,-0.0017429604195058346,0.0042070322670042515,-0.00012891279766336083,-0.1819450855255127,0.16351917386054993,1.251963496208191,-2.2685837745666504,2.591634750366211,-1.526277780532837,0.44146260619163513,0.6446612477302551,0.42000001668930054,-1.2800207138061523,3.0000011920928955,-0.27353307604789734,-3.0000009536743164,0.0061296625062823296,0.002667347900569439,-0.0009609893895685673,-0.004754767287522554,0.07542162388563156,-0.03644907474517822,-0.14795733988285065,-0.25798168778419495
0.11666666666666667,0.051416050642728806,0.06510554254055023,0.0,0.9999992847442627,0.0,0.0,-0.0012012578081339598,0.4593121409416199,1.022993564605713,0.0,0.0,0.0,-4.915238857269287,-0.4690224826335907,0.6806280612945557,0.4200000464916229,1.0,3.7114145925443154e-06,-2.3327797862293664e-06,2.5745856646608445e-07,0.00026485841954126954,0.0002663533086888492,-0.0001042329240590334,-0.0017181563889607787,0.004170076455920935,-0.0001291552762268111,-0.21848493814468384,0.21118545532226562,1.2263377904891968,-2.1645374298095703,2.995083808898926,-1.5286310911178589,0.44146260619163513,0.6446612477302551,0.42000001668930054,-1.2299987077713013,2.9999897480010986,-0.23936879634857178,3.000000476837158,0.005574915558099747,0.00020269901142455637,-0.00531510217115283,-0.010962462984025478,0.021273622289299965,-0.10774853825569153,-0.23409879207611084,-0.35692059993743896
0.13333333333333333,0.05604013428092003,0.07886628061532974,0.0,0.9998741149902344,0.0,0.0,-0.01586809568107128,0.2001195251941681,0.7452632784843445,0.0,0.0,0.0,-0.6821652054786682,-0.4690224826335907,0.6806280016899109,0.4200000464916229,1.0,3.33562343257654e-06,-2.231935468444135e-06,3.113336504156905e-07,0.0002666971704456955,0.00026759487809613347,-0.00010428461246192455,-0.001737144310027361,0.004205835517495871,-0.00012839905684813857,-0.2588843107223511,0.25554198026657104,1.2005739212036133,-2.4438040256500244,2.6572868824005127,-1.5807809829711914,0.44146260619163513,0.6446612477302551,0.42000001668930054,-1.1834516525268555,2.58616304397583,-0.27051153779029846,-3.0000007152557373,0.00478854775428772,-0.0026922430843114853,-0.010258997790515423,-0.017883608117699623,-0.11205147206783295,-0.23169319331645966,-0.3474750816822052,-0.4588356912136078
0.15,0.05688633397221565,0.0925789400935173,0.0,0.9991022944450378,0.0,0.0,-0.04236290976405144,-0.007927683182060719,0.8768658638000488,0.0,0.0,0.0,-4.013904094696045,-0.4690224826335907,0.6806280016899109,0.4200000464916229,1.0,3.5188593301427318e-06,-2.2830813577456865e-06,-3.625297324560961e-07,0.00026618369156494737,0.0002673570706974715,-0.00010425481013953686,-0.001734902267344296,0.00419566361233592,-0.00012860818242188543,-0.298956036567688,0.3054797649383545,1.1700243949890137,-2.3263115882873535,3.2753477096557617,-2.0904722213745117,0.44146260619163513,0.6446612477302551,0.42000001668930054,-1.1341216564178467,2.9999916553497314,-0.23635521531105042,3.0000007152557373,0.0014274511486291885,-0.007909701205790043,-0.017256584018468857,-0.026578590273857117,-0.2847473919391632,-0.38054725527763367,-0.4718243181705475,-0.5583822727203369
0.16666666666666666,0.06241591274738312,0.10478799045085907,0.0,0.9952071905136108,0.0,0.0,-0.09778846055269241,0.39243605732917786,0.6948830485343933,0.0,0.0,0.0,-7.391801357269287,-0.4690224826335907,0.6806280016899109,0.4200000464916229,1.0,3.6665835523308488e-06,-2.3391182821796974e-06,-3.149922918055381e-07,0.000265958602540195,0.00026667420752346516,-0.00010403734631836414,-0.001725313370116055,0.0041927797719836235,-0.00012778645032085478,-0.3354347348213196,0.36527004837989807,1.1311638355255127,-1.9806991815567017,3.8918685913085938,-2.646378755569458,0.44146260619163513,0.6446612477302551,0.42000001668930054,-1.0991618633270264,1.310193419456482,-0.2675662636756897,-3.000000476837158,-0.002544235670939088,-0.013443862088024616,-0.024274468421936035,-0.03500080853700638,-0.40860164165496826,-0.4703870415687561,-0.5289374589920044,-0.584400475025177
0.18333333333333332,0.06278913468122482,0.1178879588842392,0.0,0.9911514520645142,0.0,0.0,-0.1327357143163681,0.025090867653489113,0.8021061420440674,0.0,0.0,0.0,-3.0144994258880615,-0.4690224826335907,0.6806280016899109,0.4200000464916229,1.0,3.8143025449244305e-06,-2.399538061581552e-06,-2.702604433579836e-07,0.00026549160247668624,0.0002661106991581619,-0.00010391208343207836,-0.0017177729168906808,0.004184826277196407,-0.0001275383838219568,-0.3733943700790405,0.42413753271102905,1.0786724090576172,-2.1787478923797607,3.7049601078033447,-3.5178024768829346,0.44146260619163513,0.6446612477302551,0.42000001668930054,-1.055808424949646,3.0,-0.31759458780288696,-3.0000011920928955,-0.01628434658050537,-0.027029454708099365,-0.03769099339842796,-0.048247963190078735,-0.7671167850494385,-0.7561681866645813,-0.7432061433792114,-0.72902911901474
0.2,0.06071576476097107,0.13268883526325226,0.0,0.9840225577354431,0.0,0.0,-0.17804399132728577,-0.19192655384540558,0.9452527165412903,0.0,0.0,0.0,-6.362656593322754,-0.4690224826335907,0.6806280016899109,0.4200000464916229,1.0,3.6000003547087545e-06,-2.291237706231186e-06,-2.2017823653186497e-07,0.00026573086506687105,0.0002664501662366092,-0.00010398100130259991,-0.0017227214993909001,0.0041888258419930935,-0.00012773244816344231,-0.4091745615005493,0.48699426651000977,1.0145118236541748,-1.898559331893921,3.9015231132507324,-4.137909889221191,0.44146260619163513,0.6446612477302551,0.42000001668930054,-1.0058053731918335,2.999999761581421,-0.3676214814186096,-3.0000009536743164,-0.0312691405415535,-0.04168597608804703,-0.051979124546051025,-0.06214221939444542,-0.975247323513031,-0.9451194405555725,-0.9128648042678833,-0.8793731927871704
0.21666666666666667,0.0638544112443924,0.14378616213798523,0.0,0.9785809516906738,0.0,0.0,-0.205862358212471,0.23665694892406464,0.6501196026802063,0.0,0.0,0.0,-2.257704019546509,-0.4690224826335907,0.6806280016899109,0.4200000464916229,0.9999999403953552,3.6396120322024217e-06,-2.2620149593421957e-06,2.2248472930641583e-07,0.0002668747620191425,0.0002675442665349692,-0.00010411837138235569,-0.0017403680831193924,0.004211135674268007,-0.00012783527199644595,-0.44304341077804565,0.544912576675415,0.9401122331619263,-1.7067101001739502,3.3954367637634277,-4.901734352111816,0.44146260619163513,0.6446612477302551,0.42000001668930054,-0.955802321434021,3.0000007152557373,-0.4176498055458069,-2.9999985694885254,-0.04419715702533722,-0.05397714301943779,-0.06358122825622559,-0.07305480539798737,-0.9640434384346008,-0.8916895389556885,-0.8052935600280762,-0.7221532464027405
0.23333333333333334,0.062004610896110535,0.15768124163150787,0.0,0.9690788984298706,0.0,0.0,-0.24675112962722778,-0.1284806877374649,0.8143132328987122,0.0,0.0,0.0,-5.751360893249512,-0.4690224528312683,0.6806280016899109,0.4200000464916229,1.0,3.420692110012169e-06,-2.3168713596533053e-06,2.955990510145057e-07,0.00026680133305490017,0.00026803885702975094,-0.0001044226810336113,-0.001743639470078051,0.004206772428005934,-0.0001289946085307747,-0.4671211540699005,0.5960202217102051,0.8517630696296692,-1.1375796794891357,2.8942346572875977,-5.457157135009766,0.44146260619163513,0.6446612477302551,0.42000001668930054,-0.9057916402816772,3.0,-0.46767979860305786,-2.9999985694885254,-0.06041855365037918,-0.0701749324798584,-0.0798092857003212,-0.08927552402019501,-0.7209087014198303,-0.765683114528656,-0.8093346357345581,-0.8495779633522034
0.25,0.06463032215833664,0.16682501137256622,0.0,0.9634790420532227,0.0,0.0,-0.26778385043144226,0.1775376796722412,0.4592825770378113,0.0,0.0,0.0,-1.4262192249298096,-0.4690224826335907,0.6806280016899109,0.4200000464916229,0.9999999403953552,3.3476046610303456e-06,-2.259236225654604e-06,1.8083763109189022e-07,0.0002668767119757831,0.0002679122262634337,-0.00010439427569508553,-0.0017404244281351566,0.004208163358271122,-0.00012870550563093275,-0.48696571588516235,0.6346229314804077,0.7583293914794922,-0.8843900561332703,1.983748197555542,-5.826972007751465,0.44146260619163513,0.6446612477302551,0.42000001668930054,-0.8557809591293335,2.999999523162842,-0.5177105665206909,-3.0,-0.07345056533813477,-0.08307840675115585,-0.09258139878511429,-0.10192988067865372,-0.9892001152038574,-0.9471397399902344,-0.8878656625747681,-0.8327593803405762
0.26666666666666666,0.06244479864835739,0.17246843874454498,0.0,0.9538853764533997,0.0,0.0,-0.3001710772514343,-0.2377263754606247,0.29763147234916687,0.0,0.0,0.0,-4.955127716064453,-0.4690224826335907,0.6806280016899109,0.4200000464916229,0.9999999403953552,3.535753194228164e-06,-2.3003594833426178e-06,-1.2686646755355468e-07,0.0002660174504853785,0.00026712234830483794,-0.00010419590398669243,-0.001731633092276752,0.004192822612822056,-0.0001284947502426803,-0.495789498090744,0.6602863073348999,0.6582831144332886,-0.04931583255529404,1.1193807125091553,-5.951418876647949,0.44146260619163513,0.6446612477302551,0.42000001668930054,-0.8057712912559509,3.0000009536743164,-0.5677404999732971,-3.0000007152557373,-0.09101245552301407,-0.10039474815130234,-0.10971854627132416,-0.1189233586192131,-1.0070937871932983,-1.00531804561615,-1.0039690732955933,-1.0029038190841675
0.2833333333333333,0.05742764472961426,0.17490050196647644,0.0,0.9496127963066101,0.0,0.0,-0.3134254515171051,-0.2949069142341614,0.08021114021539688,0.0,0.0,0.0,-0.6793431043624878,-0.4690224826335907,0.6806280612945557,0.4200000464916229,1.0,3.5935188407165697e-06,-2.262744601466693e-06,-5.655506285506817e-08,0.00026704822084866464,0.000267749244812876,-0.00010416633449494839,-0.0017431654268875718,0.004214244429022074,-0.00012789323227480054,-0.49601542949676514,0.672083854675293,0.5649996995925903,0.16412170231342316,0.45595890283584595,-5.421686172485352,0.44146260619163513,0.6446612477302551,0.42000001668930054,-0.75576251745224,2.999997138977051,-0.6177699565887451,-3.000000476837158,-0.10689032822847366,-0.1162899062037468,-0.12565241754055023,-0.13489851355552673,-0.9849768877029419,-0.9757357835769653,-0.96683669090271,-0.957915186882019
0.3,0.050324853509664536,0.1743682324886322,0.0,0.9414962530136108,0.0,0.0,-0.33702352643013,-0.4774629473686218,-0.07793138921260834,0.0,0.0,0.0,-4.0000176429748535,-0.4690224528312683,0.6806280016899109,0.4200000464916229,0.9999999403953552,3.725037913682172e-06,-2.236182581327739e-06,3.828752426215942e-07,0.0002647983201313764,0.0002667314256541431,-0.00010453932918608189,-0.001718917046673596,0.004166685976088047,-0.00013016501907259226,-0.488667368888855,0.6796637177467346,0.47393035888671875,0.7901569604873657,0.3445636034011841,-5.302332401275635,0.44146260619163513,0.6446612477302551,0.42000001668930054,-0.7057546973228455,2.999999761581421,-0.6677977442741394,-3.000001907348633,-0.12408740073442459,-0.13335999846458435,-0.14262934029102325,-0.15180183947086334,-1.008773922920227,-1.0066419839859009,-1.005016565322876,-1.003715991973877
0.31666666666666665,0.04082706198096275,0.1712963581085205,0.0,0.9390581250190735,0.0,0.0,-0.34375840425491333,-0.6021716594696045,-0.22802093625068665,0.0,0.0,0.0,0.10773580521345139,-0.4690224826335907,0.6806280016899109,0.4200000464916229,0.9999999403953552,3.557750233085244e-06,-2.2789749891671818e-06,2.283545939008036e-07,0.0002659836900420487,0.0002665854699444026,-0.00010398984886705875,-0.0017241021851077676,0.004193542525172234,-0.00012770354805979878,-0.482531875371933,0.6841078400611877,0.42632341384887695,0.14454686641693115,-0.014513388276100159,-0.3013518452644348,0.44146260619163513,0.6446612477302551,0.42000001668930054,-0.6557498574256897,2.9999828338623047,-0.7182181477546692,-2.997403860092163,-0.1365162879228592,-0.14601723849773407,-0.15516339242458344,-0.16405293345451355,-0.38617879152297974,-0.4220733642578125,-0.4133654534816742,-0.38330307602882385
0.3333333333333333,0.02925426885485649,0.1658121645450592,0.0,0.9443525075912476,0.0,0.0,-0.3289352357387543,-0.7415541410446167,-0.3706042170524597,0.0,0.0,0.0,2.8216700553894043,-0.46798476576805115,0.6834507584571838,0.42021939158439636,0.9987440705299377,0.005471557378768921,-6.249867874430493e-05,-0.049803465604782104,0.08254142105579376,0.3168298304080963,0.015747182071208954,0.8394079804420471,-0.02950536645948887,-12.27985954284668,-0.48289060592651367,0.6912205219268799,0.42300963401794434,-0.03861883655190468,0.49043944478034973,-0.21923504769802094,0.44146260619163513,0.6446612477302551,0.42000001668930054,-0.6057440042495728,2.9999566078186035,-0.7682862877845764,-3.000011920928955,-0.1429281234741211,-0.15267297625541687,-0.1613830029964447,-0.1694749891757965,-0.3878442347049713,-0.38805505633354187,-0.3531891405582428,-0.298520028591156
0.35,0.015426220372319221,0.15801891684532166,0.0,0.9441508054733276,0.0,0.0,-0.3295136094093323,-0.8737123608589172,-0.5080561637878418,0.0,0.0,0.0,-1.0342159271240234,-0.4664275050163269,0.6890386939048767,0.41999903321266174,0.9969010353088379,6.454467074945569e-05,-1.6213747585425153e-05,-0.07866537570953369,0.09807199239730835,0.3353961706161499,-0.001160080311819911,0.06039819121360779,-0.025694135576486588,-0.06804946810007095,-0.48028436303138733,0.6971613168716431,0.4194982647895813,0.1427457183599472,0.2848300039768219,0.2811047434806824,0.44146260619163513,0.6446612477302551,0.42000001668930054,-0.5557390451431274,2.9956119060516357,-0.8183214068412781,-2.9909496307373047,-0.15148358047008514,-0.16020506620407104,-0.16732460260391235,-0.17347031831741333,-0.5386924743652344,-0.4285184442996979,-0.28530430793762207,-0.11928267776966095
0.36666666666666664,0.0054626427590847015,0.14745259284973145,0.0,0.9396959543228149,0.0,0.0,-0.3420110046863556,-0.5853444337844849,-0.6672288179397583,0.0,0.0,0.0,-1.8588063716888428,-0.4622339904308319,0.6999790668487549,0.42105239629745483,0.9934767484664917,-0.02659505605697632,0.0029294490814208984,-0.11085134744644165,0.38743555545806885,0.8448317050933838,0.057789236307144165,-3.5132856369018555,0.19359014928340912,-4.222393989562988,-0.47531551122665405,0.7064734101295471,0.42138612270355225,0.4970921277999878,0.7592342495918274,-0.0003760606050491333,0.44146260619163513,0.6446612477302551,0.42000001668930054,-0.5057340860366821,2.9999852180480957,-0.8683452010154724,-3.000000238418579,-0.16017116606235504,-0.16663847863674164,-0.1709761619567871,-0.17394231259822845,-0.6269053816795349,-0.45160749554634094,-0.24794796109199524,-0.02205469086766243
0.3833333333333333,-0.008371762931346893,0.13533198833465576,0.0,0.9261296391487122,0.0,0.0,-0.3772054612636566,-0.9184855222702026,-0.7526639699935913,0.0,0.0,0.0,-5.444421291351318,-0.4528528153896332,0.7173741459846497,0.4215337038040161,0.9883740544319153,-0.03947531804442406,0.005627439823001623,-0.1467195749282837,0.7426170110702515,1.2523345947265625,0.07194666564464569,-3.7136142253875732,0.9726683497428894,-5.915202617645264,-0.4627950191497803,0.7218172550201416,0.4216163158416748,0.9607878923416138,1.138778567314148,0.11482682824134827,0.44146260619163513,0.6446612477302551,0.42000001668930054,-0.4556851387023926,2.99996018409729,-0.918355405330658,-2.9999756813049316,-0.17279168963432312,-0.17564068734645844,-0.17592942714691162,-0.17450006306171417,-0.7263427972793579,-0.5000359416007996,-0.24964286386966705,0.021420320495963097
0.4,-0.018929725512862206,0.12027768045663834,0.0,0.8995260000228882,0.0,0.0,-0.43686723709106445,-0.6004087328910828,-0.9506437182426453,0.0,0.0,0.0,-8.581542015075684,-0.4289591312408447,0.7442823052406311,0.42311039566993713,0.9808482527732849,-0.02461548149585724,-0.027133161202073097,-0.19129692018032074,2.106692314147949,1.6418373584747314,0.09316736459732056,37.32365036010742,-14.189766883850098,6.04421329498291,-0.4372847080230713,0.7484616041183472,0.42318278551101685,2.171379566192627,2.010899543762207,0.22170516848564148,0.44146260619163513,0.6446612477302551,0.42000001668930054,-0.4067157506942749,2.475127935409546,-0.921497106552124,2.1548194885253906,-0.18312831223011017,-0.18220604956150055,-0.17835088074207306,-0.17244313657283783,-0.6674199104309082,-0.4167376458644867,-0.14917521178722382,0.13328604400157928
0.4166666666666667,-0.02593139186501503,0.10212092846632004,0.0,0.857141375541687,0.0,0.0,-0.5150812268257141,-0.3472192585468292,-1.1417882442474365,0.0,0.0,0.0,-11.404220581054688,-0.3691977560520172,0.7860880494117737,0.42668473720550537,0.9645645618438721,0.0378265343606472,-0.07001495361328125,-0.2515592575073242,5.04328727722168,2.785292625427246,0.07060500234365463,33.781917572021484,-17.6878604888916,14.162927627563477,-0.376809298992157,0.7913514971733093,0.4263734817504883,4.726029396057129,3.135586738586426,0.3902221620082855,0.44146260619163513,0.6446612477302551,0.42000001668930054,-0.380635142326355,0.8718063235282898,-0.8715804815292358,2.993544101715088,-0.19704678654670715,-0.19097523391246796,-0.1819564402103424,-0.17091979086399078,-0.8274751901626587,-0.5212429761886597,-0.22481533885002136,0.05967668071389198
0.43333333333333335,-0.03032379411160946,0.08946891129016876,0.0,0.7952432036399841,0.0,0.0,-0.6062905192375183,-0.21536889672279358,-0.6243308782577515,0.0,0.0,0.0,-14.066068649291992,-0.26708415150642395,0.8341479301452637,0.4337959289550781,0.9379052519798279,0.10943763703107834,-0.1118759736418724,-0.3095818758010864,7.7864089012146,2.49688720703125,0.5469925999641418,19.280725479125977,-18.608497619628906,15.148482322692871,-0.2738914489746094,0.8414925336837769,0.43346720933914185,7.314208984375,2.902283191680908,0.5407995581626892,0.44146260619163513,0.6446612477302551,0.42000001668930054,-0.3688257932662964,0.7131868600845337,-0.8215377330780029,2.995823383331299,-0.21307401359081268,-0.2058749794960022,-0.1922895610332489,-0.17544156312942505,-0.9111282825469971,-0.8987332582473755,-0.7320873141288757,-0.39334771037101746
0.45,-0.03780398890376091,0.08293738216161728,0.0,0.7398468852043152,0.0,0.0,-0.6727752685546875,-0.3944357633590698,-0.45247629284858704,0.0,0.0,0.0,-8.855900764465332,-0.14787930250167847,0.8646770715713501,0.4440103769302368,0.8926787376403809,0.1262066811323166,-0.13212639093399048,-0.41199398040771484,7.27044153213501,0.654009997844696,0.8267703056335449,18.557785034179688,-1.4973998069763184,22.228275299072266,-0.1541222631931305,0.8744765520095825,0.4437798857688904,7.268991947174072,1.4003710746765137,0.6801114678382874,0.44146260619163513,0.6446612477302551,0.42000001668930054,-0.3565436899662018,0.772917628288269,-0.8484205603599548,-3.0000016689300537,-0.22733919322490692,-0.22042976319789886,-0.20707401633262634,-0.1848321259021759,-0.581342339515686,-0.6515247821807861,-0.7230761051177979,-0.49358540773391724
0.4666666666666667,-0.04070129990577698,0.06880956143140793,0.0,0.7055779099464417,0.0,0.0,-0.7086323499679565,-0.06375842541456223,-0.9829779863357544,0.0,0.0,0.0,-5.00278377532959,-0.029270540922880173,0.8785780072212219,0.45414429903030396,0.8474285006523132,0.13092200458049774,-0.12049897760152817,-0.5002042651176453,7.174406051635742,-0.787465512752533,0.5843323469161987,-4.662629127502441,-4.432124614715576,14.25270938873291,-0.03376369923353195,0.8883923888206482,0.4545285701751709,7.235039234161377,0.08858028799295425,0.710442304611206,0.44146260619163513,0.6446612477302551,0.42000001668930054,-0.3409949839115143,0.9007901549339294,-0.898444652557373,-3.0000014305114746,-0.23490309715270996,-0.22762970626354218,-0.21413588523864746,-0.18794527649879456,-0.43208664655685425,-0.33349910378456116,-0.2571353316307068,-0.014657520689070225
0.48333333333333334,-0.04619097709655762,0.0588105171918869,0.0,0.6941956281661987,0.0,0.0,-0.7197863459587097,-0.2878730595111847,-0.4862467348575592,0.0,0.0,0.0,-0.7058830261230469,0.07909010350704193,0.8683858513832092,0.4642106592655182,0.7872248291969299,0.11479657143354416,-0.1042548343539238,-0.5968497395515442,5.998441696166992,-1.466528058052063,0.4831615388393402,6.1919660568237305,-16.549293518066406,9.108386039733887,0.07643751800060272,0.8802859783172607,0.46513301134109497,5.896056652069092,-0.9406075477600098,0.543651282787323,0.44146260619163513,0.6446612477302551,0.42000001668930054,-0.3275103271007538,0.5896706581115723,-0.9484687447547913,-3.000004768371582,-0.2400135099887848,-0.2383897453546524,-0.2221255749464035,-0.19156958162784576,-0.02339492179453373,-0.5800983905792236,-0.44665026664733887,-0.2581818401813507
0.5,-0.04840884730219841,0.04751740023493767,0.0,0.6749756932258606,0.0,0.0,-0.737839937210083,-0.07058874517679214,-0.6849720478057861,0.0,0.0,0.0,-3.9617722034454346,0.16802741587162018,0.8450338244438171,0.4679105877876282,0.74891597032547,0.0719582736492157,-0.12526853382587433,-0.6467260718345642,4.800234317779541,-2.7772445678710938,0.5093722939491272,26.131488800048828,-13.401908874511719,30.942049026489258,0.1673007309436798,0.8572779893875122,0.47078585624694824,5.132160186767578,-2.0106005668640137,0.15133525431156158,0.44146260619163513,0.6446612477302551,0.42000001668930054,-0.32066231966018677,0.22442734241485596,-0.9984926581382751,-3.0000016689300537,-0.2400425225496292,-0.24003268778324127,-0.22779840230941772,-0.19431905448436737,-0.04031965136528015,-0.0281840693205595,-0.30807027220726013,-0.12723582983016968
0.5166666666666666,-0.04729634150862694,0.040977589786052704,0.0,0.6697273850440979,0.0,0.0,-0.742607057094574,0.10279281437397003,-0.30521294474601746,0.0,0.0,0.0,0.16051723062992096,0.24451890587806702,0.8071274161338806,0.4670845866203308,0.6859097480773926,0.023429417982697487,-0.1228373572230339,-0.7168610095977783,3.8450732231140137,-3.208214521408081,-0.11607032269239426,0.0820317342877388,-5.538406848907471,21.641599655151367,0.24448178708553314,0.8190712928771973,0.47108137607574463,4.306875228881836,-2.525108814239502,-0.15876296162605286,0.44146260619163513,0.6446612477302551,0.42000001668930054,-0.31762388348579407,0.14502683281898499,-1.0485148429870605,-3.0000016689300537,-0.23994538187980652,-0.2399437129497528,-0.23308487236499786,-0.19747857749462128,-0.02651803195476532,-0.002930490532889962,-0.1495712548494339,-0.10204268991947174
0.5333333333333333,-0.0437251552939415,0.03703393414616585,0.0,0.6555423140525818,0.0,0.0,-0.7551584243774414,0.26186203956604004,-0.13204488158226013,0.0,0.0,0.0,-3.1129915714263916,0.30787399411201477,0.7652881741523743,0.4564233720302582,0.6178649663925171,-0.06825496256351471,-0.15134938061237335,-0.7685554623603821,3.0626001358032227,-3.0208234786987305,-0.7841141819953918,-13.856405258178711,5.933427810668945,12.318909645080566,0.30792510509490967,0.7783995866775513,0.4638013541698456,3.4439868927001953,-2.5089478492736816,-0.6281946301460266,0.44146260619163513,0.6446612477302551,0.42000001668930054,-0.3119741678237915,0.4398159980773926,-1.0985369682312012,-2.9999475479125977,-0.23741763830184937,-0.23747502267360687,-0.2331777811050415,-0.19840852916240692,0.20273858308792114,0.20610101521015167,0.07287754863500595,-0.04031645879149437
0.55,-0.03697487711906433,0.029202556237578392,0.0,0.654312014579773,0.0,0.0,-0.7562246918678284,0.46456870436668396,-0.6310673952102661,0.0,0.0,0.0,0.7377179265022278,0.35693368315696716,0.7247917652130127,0.4429571330547333,0.5745894312858582,-0.09580621868371964,-0.10518026351928711,-0.8059808611869812,2.3045802116394043,-2.7343318462371826,-0.9233500361442566,-7.640203952789307,12.529437065124512,0.4407559633255005,0.3583777844905853,0.7367860078811646,0.4494709372520447,2.6067006587982178,-2.4667582511901855,-0.9496923685073853,0.44146260619163513,0.6446612477302551,0.42000001668930054,-0.3021019399166107,0.6399712562561035,-1.1485590934753418,-2.999150037765503,-0.2287437468767166,-0.22925053536891937,-0.2274312824010849,-0.19596746563911438,0.6749158501625061,0.6388712525367737,0.49365681409835815,0.23882001638412476
0.5666666666666667,-0.02846987172961235,0.023984123021364212,0.0,0.6425360441207886,0.0,0.0,-0.7662554383277893,0.5402799248695374,-0.2091343253850937,0.0,0.0,0.0,-2.7757701873779297,0.3968728184700012,0.6887331008911133,0.42208045721054077,0.5077486038208008,-0.13748151063919067,-0.09017612040042877,-0.8456704020500183,2.259129285812378,-1.9583566188812256,-1.449934482574463,-0.8642244935035706,3.5776166915893555,-14.6609525680542,0.397774338722229,0.7004679441452026,0.42903590202331543,2.1140856742858887,-2.011754035949707,-1.3391839265823364,0.44146260619163513,0.6446612477302551,0.42000001668930054,-0.2895371913909912,0.9216850996017456,-1.1985697746276855,-2.999544858932495,-0.21842564642429352,-0.2198159396648407,-0.22040708363056183,-0.1939190775156021,0.6406582593917847,0.5723764300346375,0.4262814521789551,0.0893300399184227
0.5833333333333334,-0.01829175464808941,0.023524779826402664,0.0,0.6435845494270325,0.0,0.0,-0.765375018119812,0.6563647389411926,0.00957154855132103,0.0,0.0,0.0,1.090823769569397,0.42388299107551575,0.6688618063926697,0.4212515950202942,0.466645747423172,-0.01430862583220005,0.026696069166064262,-0.8839254975318909,1.2884948253631592,-0.9706593155860901,-0.12013441324234009,-3.790069818496704,-4.596558570861816,3.1853675842285156,0.42145371437072754,0.6777051091194153,0.42439931631088257,1.2453155517578125,-1.1826694011688232,-0.12733076512813568,0.44146260619163513,0.6446612477302551,0.42000001668930054,-0.2642229497432709,1.887176752090454,-1.1685117483139038,2.999105215072632,-0.2081879824399948,-0.21096301078796387,-0.2138618677854538,-0.19317393004894257,0.6402497291564941,0.538426399230957,0.3950155973434448,0.024113470688462257
0.6,-0.010679922066628933,0.018142445012927055,0.0,0.6336963176727295,0.0,0.0,-0.7735819220542908,0.43115144968032837,-0.37360984086990356,0.0,0.0,0.0,-2.3767919540405273,0.4373166561126709,0.6523928642272949,0.42012736201286316,0.5013582110404968,0.0007106627454049885,-0.002686058636754751,-0.8652352690696716,0.5146026611328125,-1.048807978630066,-0.0027806824073195457,-0.6138557195663452,-0.23809394240379333,2.853335380554199,0.43730974197387695,0.663464367389679,0.42279288172721863,0.6095564365386963,-0.7731353044509888,-0.10837168991565704,0.44146260619163513,0.6446612477302551,0.42000001668930054,-0.26098471879959106,-0.7912091612815857,-1.1184484958648682,2.999772071838379,-0.19489577412605286,-0.19905976951122284,-0.20445135235786438,-0.1902025043964386,0.5977498292922974,0.5981525778770447,0.5012954473495483,0.15445511043071747
0.6166666666666667,-0.0018239893252030015,0.018364274874329567,0.0,0.6365328431129456,0.0,0.0,-0.7712495923042297,0.5314340591430664,0.007394337560981512,0.0,0.0,0.0,1.2193495035171509,0.44350048899650574,0.6434502601623535,0.42069289088249207,0.5098733305931091,-0.008468844927847385,0.014521365985274315,-0.860085129737854,0.10913039743900299,-0.5484613180160522,0.19131255149841309,4.543144702911377,8.951258659362793,6.079737663269043,0.44111454486846924,0.6530715227127075,0.4237511157989502,0.07935954630374908,-0.35746365785598755,0.04348088428378105,0.44146260619163513,0.6446612477302551,0.42000001668930054,-0.2803705632686615,-1.0899722576141357,-1.1408711671829224,-2.9992384910583496,-0.18971817195415497,-0.1932813972234726,-0.19934621453285217,-0.18998350203037262,0.4492162764072418,0.4337671399116516,0.36663690209388733,0.05671844258904457
0.6333333333333333,0.008537796325981617,0.016372228041291237,0.0,0.6266351938247681,0.0,0.0,-0.7793127298355103,0.6695185899734497,-0.19500349462032318,0.0,0.0,0.0,-2.552344560623169,0.4455702602863312,0.6403447985649109,0.42302578687667847,0.5271711349487305,-0.03968500718474388,0.06014518067240715,-0.8466984033584595,0.08008643239736557,-0.1893501728773117,0.06656839698553085,1.4503753185272217,6.707006454467773,2.307474374771118,0.4434307813644409,0.6523942947387695,0.42624378204345703,0.14668157696723938,0.10001179575920105,0.18465781211853027,0.44146260619163513,0.6446612477302551,0.42000001668930054,-0.3102284371852875,-2.3289921283721924,-1.1908282041549683,-2.9980788230895996,-0.17790138721466064,-0.1828756481409073,-0.19080941379070282,-0.18706847727298737,0.8234747052192688,0.7126654386520386,0.5902124047279358,0.25446179509162903
0.65,0.020607272163033485,0.017142826691269875,0.0,0.6288466453552246,0.0,0.0,-0.7775293588638306,0.758344292640686,0.11574946343898773,0.0,0.0,0.0,1.2597485780715942,0.4465522766113281,0.6380444765090942,0.42340362071990967,0.5332033038139343,-0.05070725828409195,0.07844582200050354,-0.8408145308494568,0.03477978706359863,-0.1015816181898117,0.01113340724259615,-0.7371699810028076,0.1244906485080719,-0.19195297360420227,0.44404423236846924,0.6535953283309937,0.4294264018535614,-0.012521609663963318,0.11349672824144363,0.21749478578567505,0.44146260619163513,0.6446612477302551,0.42000001668930054,-0.3586924374103546,-2.9999966621398926,-1.2408084869384766,-2.9992120265960693,-0.16693614423274994,-0.17341989278793335,-0.18282616138458252,-0.18388454616069794,0.6217488646507263,0.5342599749565125,0.4594140648841858,0.1986149549484253
0.6666666666666666,0.030219990760087967,0.014851607382297516,0.0,0.6529263257980347,0.0,0.0,-0.7574214339256287,0.47947585582733154,-0.21650579571723938,0.0,0.0,0.0,4.507790565490723,0.4449462890625,0.6377944946289062,0.4226624369621277,0.5436659455299377,-0.03334367275238037,0.035295967012643814,-0.8378959894180298,-0.21140246093273163,0.0679265633225441,-0.04812651872634888,-4.293712615966797,-6.580559253692627,0.9979829788208008,0.4420536756515503,0.655163049697876,0.43287158012390137,-0.20567262172698975,0.13290081918239594,0.20777077972888947,0.44146260619163513,0.6446612477302551,0.42000001668930054,-0.40869808197021484,-2.9999430179595947,-1.2907812595367432,-2.9990792274475098,-0.15740902721881866,-0.16483798623085022,-0.17487549781799316,-0.17944474518299103,0.4805123507976532,0.45268115401268005,0.4479196071624756,0.28296831250190735
0.6833333333333333,0.039750926196575165,0.009339842945337296,0.0,0.6618279218673706,0.0,0.0,-0.7496557831764221,0.6004510521888733,-0.400749534368515,0.0,0.0,0.0,0.37377333641052246,0.4416300654411316,0.6387923955917358,0.42033737897872925,0.5488699078559875,0.0015157306334003806,-0.006097151432186365,-0.8358842134475708,-0.16774915158748627,0.020191414281725883,-0.08038284629583359,4.951148986816406,-4.391198635101318,0.11453111469745636,0.4416092336177826,0.6581486463546753,0.43738672137260437,-0.024832459166646004,0.18355993926525116,0.31543758511543274,0.44146260619163513,0.6446612477302551,0.42000001668930054,-0.4587072432041168,-3.000025749206543,-1.3407458066940308,-2.999607563018799,-0.15091902017593384,-0.15816354751586914,-0.1674702912569046,-0.17362263798713684,0.37209853529930115,0.40797826647758484,0.4830569624900818,0.43794846534729004
0.7,0.05113377794623375,0.0010234699584543705,0.0,0.6479362845420837,0.0,0.0,-0.7616944909095764,0.7127392292022705,-0.5844449400901794,0.0,0.0,0.0,-3.090850353240967,0.4403032064437866,0.6388330459594727,0.4200000464916229,0.5494179725646973,1.4900976452736359e-07,4.6935562636463146e-07,-0.835547685623169,-0.04727611318230629,0.0028517371974885464,-9.812647476792336e-06,-0.0004414335999172181,6.821852730354294e-05,0.0472591333091259,0.4456556439399719,0.6617782115936279,0.4471169412136078,0.4740820825099945,0.21189090609550476,0.9635021090507507,0.44146260619163513,0.6446612477302551,0.42000001668930054,-0.5087199807167053,-2.999994993209839,-1.3907641172409058,-3.0000011920928955,-0.1477653533220291,-0.1539139449596405,-0.16139452159404755,-0.16740918159484863,0.09615080803632736,0.18230503797531128,0.3150946795940399,0.36339688301086426
0.7166666666666667,0.06666622310876846,-0.001896712346933782,0.0,0.6109486222267151,0.0,0.0,-0.7916702628135681,1.0160317420959473,-0.03952247276902199,0.0,0.0,0.0,-6.771402359008789,0.4402216672897339,0.638837993144989,0.4200000762939453,0.5494558215141296,6.263905561354477e-06,-5.116769898450002e-06,-0.8355227112770081,0.0006078087608329952,-0.00022951923892833292,-0.00031046499498188496,0.0020854624453932047,0.0013648245949298143,-0.002179610775783658,0.46185916662216187,0.6582602262496948,0.47004643082618713,1.5549499988555908,-0.5826315879821777,1.9102369546890259,0.44146260619163513,0.6446612477302551,0.42000001668930054,-0.5587323904037476,-2.999850034713745,-1.4407824277877808,-2.99998140335083,-0.1561255156993866,-0.15893562138080597,-0.16238617897033691,-0.1656515896320343,-0.7349702715873718,-0.48528239130973816,-0.19634373486042023,0.026825306937098503
0.7333333333333333,0.07859461009502411,-0.000927759159822017,0.0,0.5871911644935608,0.0,0.0,-0.8094483017921448,0.5930309295654297,-0.1119309514760971,0.0,0.0,0.0,-2.2301900386810303,0.44022244215011597,0.638837993144989,0.4200000464916229,0.5494552254676819,3.9483018099417677e-07,-2.7406506433180766e-06,-0.8355231285095215,4.396987787913531e-05,-0.0002520536945667118,-7.661012932658195e-05,0.006548638921231031,-0.0020447582937777042,-0.0007038898766040802,0.48706477880477905,0.6542001962661743,0.5040379762649536,1.582836389541626,0.01052071526646614,2.110760450363159,0.44146260619163513,0.6446612477302551,0.42000001668930054,-0.5792760848999023,0.26733991503715515,-1.4908007383346558,-2.999999761581421,-0.16451384127140045,-0.1646147221326828,-0.16474542021751404,-0.1655551642179489,-0.09872691333293915,-0.06350197643041611,0.010968811810016632,0.05217258632183075
0.75,0.08486171066761017,-0.0009532468975521624,0.0,0.5912468433380127,0.0,0.0,-0.8064906597137451,0.30024516582489014,0.047866687178611755,0.0,0.0,0.0,1.4643203020095825,0.44022244215011597,0.638837993144989,0.4200000464916229,0.5494552850723267,1.7263859319882613e-07,-2.6958300622936804e-06,-0.8355230689048767,4.6383975131902844e-05,-0.00025246021687053144,-7.780548185110092e-05,0.006542683579027653,-0.0020369640551507473,-0.0007115972111932933,0.5097252130508423,0.6564932465553284,0.5331338047981262,1.0679725408554077,0.24086196720600128,1.4596939086914062,0.44146260619163513,0.6446612477302551,0.42000001668930054,-0.5536558032035828,2.583451986312866,-1.4561587572097778,2.999999761581421,-0.1645124852657318,-0.16431282460689545,-0.16354651749134064,-0.16385038197040558,0.07603801041841507,0.08131983876228333,0.11732859164476395,0.13697437942028046
0.7666666666666666,0.0871526226401329,-0.004437727853655815,0.0,0.5836907029151917,0.0,0.0,-0.8119760751724243,0.10484341531991959,-0.28881630301475525,0.0,0.0,0.0,-2.0246121883392334,0.44022244215011597,0.638837993144989,0.4200000464916229,0.5494551658630371,3.339062004670268e-07,-2.924675300164381e-06,-0.8355231285095215,4.770897066919133e-05,-0.00025271347840316594,-7.810047827661037e-05,0.006541790906339884,-0.0020232927054166794,-0.0007150227320380509,0.5199551582336426,0.661704421043396,0.5509116649627686,0.13139402866363525,0.3496367335319519,0.8521972298622131,0.44146260619163513,0.6446612477302551,0.42000001668930054,-0.5135878920555115,2.2219531536102295,-1.4061061143875122,2.999999523162842,-0.16237810254096985,-0.16216307878494263,-0.16096927225589752,-0.16102850437164307,0.09518332779407501,0.1076430007815361,0.13777007162570953,0.15964174270629883
0.7833333333333333,0.08663799613714218,-0.0027067926712334156,0.0,0.5894983410835266,0.0,0.0,-0.8077695965766907,-0.07604604214429855,0.23385918140411377,0.0,0.0,0.0,1.7561670541763306,0.44022244215011597,0.638837993144989,0.4200000464916229,0.5494550466537476,3.289621304247703e-07,-2.7772996418207185e-06,-0.8355231881141663,4.638004247681238e-05,-0.0002508553443476558,-7.775984704494476e-05,0.006501072086393833,-0.002028411254286766,-0.0007075852481648326,0.5162914395332336,0.6672228574752808,0.5634731650352478,-0.4851837456226349,0.4004102349281311,0.6755228042602539,0.44146260619163513,0.6446612477302551,0.42000001668930054,-0.46641629934310913,3.000000476837158,-1.4092257022857666,-2.8640546798706055,-0.1661628782749176,-0.16471858322620392,-0.16218188405036926,-0.16108688712120056,-0.2685685157775879,-0.1960786134004593,-0.12188377231359482,-0.056051451712846756
0.8,0.0885424017906189,-0.004052809439599514,0.0,0.5825981497764587,0.0,0.0,-0.8127603530883789,0.10638593882322311,-0.02263985201716423,0.0,0.0,0.0,-1.7281748056411743,0.44022244215011597,0.638837993144989,0.4200000464916229,0.5494552254676819,3.227325180432672e-07,-2.82347468782973e-06,-0.8355230689048767,4.758177965413779e-05,-0.0002527635369915515,-7.808348163962364e-05,0.006543346680700779,-0.002025600988417864,-0.0007149305893108249,0.5018085241317749,0.6749123334884644,0.5679307579994202,-1.3616747856140137,0.4681091904640198,0.06361578404903412,0.44146260619163513,0.6446612477302551,0.42000001668930054,-0.44719788432121277,-0.4181963801383972,-1.3702139854431152,2.9999985694885254,-0.16700653731822968,-0.1650976985692978,-0.16205216944217682,-0.16043731570243835,-0.19004946947097778,-0.13279615342617035,-0.07658224552869797,-0.018489472568035126
0.8166666666666667,0.08817024528980255,-0.002471695886924863,0.0,0.58881676197052,0.0,0.0,-0.8082665801048279,-0.11019819974899292,0.06213469058275223,0.0,0.0,0.0,1.5499367713928223,0.44022244215011597,0.638837993144989,0.4200000464916229,0.549454927444458,3.1244584874912107e-07,-2.8625754566746764e-06,-0.835523247718811,4.840597102884203e-05,-0.0002508738834876567,-7.820036262273788e-05,0.006490322295576334,-0.002005591057240963,-0.0007120450609363616,0.4822479486465454,0.68157958984375,0.5673616528511047,-0.9689167737960815,0.46139413118362427,-0.10689254105091095,0.44146260619163513,0.6446612477302551,0.42000001668930054,-0.44509196281433105,0.5825037360191345,-1.3888837099075317,-2.9999992847442627,-0.17019541561603546,-0.1673242151737213,-0.1632961630821228,-0.16055862605571747,-0.003978293389081955,0.008887743577361107,0.028418047353625298,0.06659999489784241
0.8333333333333334,0.08870238810777664,-0.003662925912067294,0.0,0.5831295847892761,0.0,0.0,-0.8123791217803955,0.07971906661987305,-0.12684309482574463,0.0,0.0,0.0,-1.7129697799682617,0.44022244215011597,0.638837993144989,0.4200000464916229,0.5494549870491028,2.9056587891318486e-07,-2.8264794309507124e-06,-0.8355231881141663,4.900982457911596e-05,-0.0002509383484721184,-7.831794209778309e-05,0.006488589104264975,-0.0019987940322607756,-0.000713708286639303,0.46708914637565613,0.6875211596488953,0.56173175573349,-0.8120216131210327,0.2437208592891693,-0.3763461709022522,0.44146260619163513,0.6446612477302551,0.42000001668930054,-0.4744952321052551,-3.0000009536743164,-1.350468635559082,3.000000476837158,-0.17103391885757446,-0.16785001754760742,-0.1633768081665039,-0.15981799364089966,-0.0643276572227478,-0.036192845553159714,1.280568540096283e-08,0.05822806805372238
0.85,0.09208186715841293,-0.007924257777631283,0.0,0.5614413022994995,0.0,0.0,-0.8275165557861328,0.2517504394054413,-0.311897337436676,0.0,0.0,0.0,-4.015747547149658,0.44022244215011597,0.638837993144989,0.4200000464916229,0.5494551062583923,2.8818334385505295e-07,-2.792770601445227e-06,-0.835523247718811,4.8905501898843795e-05,-0.000250982993748039,-7.829698733985424e-05,0.006490248255431652,-0.0020002524834126234,-0.000713587854988873,0.4591355621814728,0.6880995631217957,0.5564138889312744,-0.12177849560976028,-0.17981503903865814,-0.13882595300674438,0.44146260619163513,0.6446612477302551,0.42000001668930054,-0.524497926235199,-2.9997293949127197,-1.3694978952407837,-2.999986410140991,-0.1740008145570755,-0.16991162300109863,-0.1643798053264618,-0.15935498476028442,-0.21737657487392426,-0.14807415008544922,-0.06917773932218552,0.03577902913093567
0.8666666666666667,0.09808026999235153,-0.00971889030188322,0.0,0.5560521483421326,0.0,0.0,-0.8311474323272705,0.3952207863330841,-0.02753116562962532,0.0,0.0,0.0,0.195491760969162,0.44022244215011597,0.638837993144989,0.4200000464916229,0.5494552850723267,3.2139720929080795e-07,-2.841309196810471e-06,-0.8355231285095215,4.773364344146103e-05,-0.0002527073083911091,-7.812073454260826e-05,0.006540999747812748,-0.00202373880892992,-0.0007151608006097376,0.4603689908981323,0.6880808472633362,0.5563439130783081,0.21872754395008087,0.09902343153953552,0.09143568575382233,0.44146260619163513,0.6446612477302551,0.42000001668930054,-0.5461628437042236,0.14071793854236603,-1.4195162057876587,-3.0000009536743164,-0.17718210816383362,-0.17260244488716125,-0.16644267737865448,-0.16035564243793488,-0.13315202295780182,-0.1375613957643509,-0.13709284365177155,-0.11249406635761261
0.8833333333333333,0.10096844285726547,-0.0157486442476511,0.0,0.5754971504211426,0.0,0.0,-0.8178037405014038,0.12845738232135773,-0.38391220569610596,0.0,0.0,0.0,3.4008657932281494,0.44022244215011597,0.638837993144989,0.4200000464916229,0.5494549870491028,3.016691323409759e-07,-2.8085935355193214e-06,-0.8355233073234558,4.890481068287045e-05,-0.0002509831974748522,-7.829559035599232e-05,0.006490228231996298,-0.0020003137178719044,-0.0007135886116884649,0.46547478437423706,0.6888916492462158,0.555569589138031,0.28540733456611633,-0.1205587312579155,-0.19017276167869568,0.44146260619163513,0.6446612477302551,0.42000001668930054,-0.5608594417572021,-1.7321901321411133,-1.3810126781463623,3.000000238418579,-0.1755143105983734,-0.17109958827495575,-0.16502660512924194,-0.1586245894432068,-0.03406964987516403,0.005165652371942997,0.045335423201322556,0.10425475239753723
0.9,0.105435311794281,-0.02224920690059662,0.0,0.5785567164421082,0.0,0.0,-0.8156421184539795,0.2951948642730713,-0.45962902903556824,0.0,0.0,0.0,-0.5828000903129578,0.44022244215011597,0.638837993144989,0.4200000464916229,0.5494550466537476,2.922689361639641e-07,-2.7752312234952115e-06,-0.835523247718811,4.8780286306282505e-05,-0.0002510331105440855,-7.827021181583405e-05,0.00649220310151577,-0.0020019132643938065,-0.000713417655788362,0.47271454334259033,0.6840296387672424,0.549261212348938,0.5942004919052124,-0.39786407351493835,-0.39963454008102417,0.44146260619163513,0.6446612477302551,0.42000001668930054,-0.594727098941803,-2.257777690887451,-1.3994969129562378,-3.000000476837158,-0.17786066234111786,-0.17245353758335114,-0.16536952555179596,-0.1576637327671051,-0.10265149921178818,-0.044634487479925156,0.01529332622885704,0.09291290491819382
