vladlanda/robotic-transformer/data/env_000_episode_0095.csv
sim_time_s,robot_box_x,robot_box_y,robot_box_z,robot_box_quat_w,robot_box_quat_x,robot_box_quat_y,robot_box_quat_z,robot_box_linvel_x,robot_box_linvel_y,robot_box_linvel_z,robot_box_angvel_x,robot_box_angvel_y,robot_box_angvel_z,cube_world_x,cube_world_y,cube_world_z,cube_quat_w,cube_quat_x,cube_quat_y,cube_quat_z,cube_linvel_x,cube_linvel_y,cube_linvel_z,cube_angvel_x,cube_angvel_y,cube_angvel_z,endpoint_world_x,endpoint_world_y,endpoint_world_z,endpoint_linvel_x,endpoint_linvel_y,endpoint_linvel_z,target_cube_world_x,target_cube_world_y,target_cube_world_z,gripper_actual_pos_rad_gp_leftgearjoint,gripper_actual_vel_rad_s_gp_leftgearjoint,gripper_actual_pos_rad_gp_rotatingjoint,gripper_actual_vel_rad_s_gp_rotatingjoint,motor_angle_rad_joint1,motor_angle_rad_joint2,motor_angle_rad_joint3,motor_angle_rad_joint4,motor_speed_rad_s_joint1,motor_speed_rad_s_joint2,motor_speed_rad_s_joint3,motor_speed_rad_s_joint4
0.0,0.0,0.0,0.0,1.0,0.0,0.0,0.0,0.0,0.0,0.0,0.0,0.0,0.0,-0.4041401743888855,0.7659226655960083,0.41999998688697815,1.0,0.0,0.0,0.0,0.0,0.0,0.0,0.0,0.0,0.0,3.42540442943573e-06,-0.005000244826078415,1.313499927520752,0.0,0.0,0.0,0.3626055419445038,0.7494035959243774,0.42000001668930054,-1.5707999467849731,0.0,0.0,0.0,0.0,0.0,0.0,0.0,0.0,0.0,0.0,0.0
0.016666666666666666,0.0028778850100934505,0.0021806680597364902,0.0,0.9998081922531128,0.0,0.0,0.019586581736803055,0.24087215960025787,0.18240931630134583,0.0,0.0,0.0,3.1418697834014893,-0.40414029359817505,0.7659223675727844,0.41999998688697815,1.0,3.279964630564791e-06,-8.339746386809566e-07,8.465587342243452e-08,-1.9833529222523794e-05,0.00017983045836444944,-6.132945418357849e-05,0.0009432713268324733,-0.004689474124461412,-0.00031981561915017664,-0.007110234349966049,0.003379564033821225,1.3159373998641968,-0.8143353462219238,0.9868683815002441,0.18095196783542633,0.3626055419445038,0.7494035959243774,0.42000001668930054,-1.5301095247268677,3.0000011920928955,-0.04584788903594017,-2.9999992847442627,0.0008691533003002405,0.0007963840034790337,0.0007110277656465769,0.0006108740926720202,0.11094217747449875,0.09756709635257721,0.08334315568208694,0.06823883205652237
0.03333333333333333,0.008961010724306107,0.006802035495638847,0.0,0.9997960329055786,0.0,0.0,0.020196883007884026,0.4070253074169159,0.31530889868736267,0.0,0.0,0.0,-0.8691285252571106,-0.4041404128074646,0.7659223079681396,0.4200000464916229,1.0,3.390805204617209e-06,-2.132404688381939e-06,-3.708747797759315e-08,0.0002635775599628687,0.0002693787682801485,-0.0001050964929163456,-0.0017706695944070816,0.004130705259740353,-0.00013547964044846594,-0.027477068826556206,0.026302438229322433,1.3165920972824097,-1.5823183059692383,1.616817831993103,-0.08562317490577698,0.3626055419445038,0.7494035959243774,0.42000001668930054,-1.4800903797149658,3.0000016689300537,-0.09588771313428879,-3.000000238418579,0.0029812802094966173,0.0026408147532492876,0.0022623094264417887,0.0018426922615617514,0.1631786823272705,0.13840331137180328,0.11214303225278854,0.08430621773004532
0.05,0.0184507817029953,0.013871049508452415,0.0,0.9999833703041077,0.0,0.0,-0.005771656055003405,0.6360704898834229,0.4713996350765228,0.0,0.0,0.0,-4.078921318054199,-0.404140442609787,0.7659223675727844,0.4200000464916229,1.0,3.765131168620428e-06,-2.2118479137134273e-06,5.629145594099327e-09,0.00026531046023592353,0.00026691515813581645,-0.00010440382175147533,-0.001724305097013712,0.004177468363195658,-0.00012949509255122393,-0.056343868374824524,0.057912677526474,1.3119975328445435,-1.8800795078277588,2.1066646575927734,-0.44961005449295044,0.3626055419445038,0.7494035959243774,0.42000001668930054,-1.4300720691680908,2.999999761581421,-0.14592640101909637,-3.0,0.005886250175535679,0.00501274736598134,0.004066764377057552,0.0030441663693636656,0.19608037173748016,0.15312330424785614,0.10824990272521973,0.061383914202451706
0.06666666666666667,0.03075634501874447,0.023342177271842957,0.0,0.9998988509178162,0.0,0.0,-0.014224032871425152,0.7724542617797852,0.6151086688041687,0.0,0.0,0.0,-0.04408073425292969,-0.404140442609787,0.7659223079681396,0.4200000464916229,0.9999999403953552,3.4067686556227272e-06,-2.285544496771763e-06,4.301012097585044e-07,0.00026702473405748606,0.0002679164754226804,-0.0001043803058564663,-0.0017406115075573325,0.004211761988699436,-0.00012850914208684117,-0.09088581055402756,0.09187492728233337,1.3020433187484741,-2.129624843597412,2.1422343254089355,-0.7355796694755554,0.3626055419445038,0.7494035959243774,0.42000001668930054,-1.3800537586212158,2.9999983310699463,-0.19593115150928497,-3.000000238418579,0.008253130130469799,0.006575882900506258,0.004785637836903334,0.002877680351957679,0.11941124498844147,0.06174759194254875,0.0019284270238131285,-0.06010042130947113
0.08333333333333333,0.03678959608078003,0.0366852805018425,0.0,0.9992722272872925,0.0,0.0,-0.03814465180039406,0.22692877054214478,0.8737948536872864,0.0,0.0,0.0,-3.814427614212036,-0.404140442609787,0.7659223079681396,0.4200000464916229,1.0,3.697293323057238e-06,-2.188928419855074e-06,-2.632195048590802e-07,0.00026389691629447043,0.00026586384046822786,-0.00010434049181640148,-0.0017081110272556543,0.00415023323148489,-0.00012991586118005216,-0.12178103625774384,0.13274429738521576,1.2870420217514038,-1.5802809000015259,2.7419610023498535,-0.9799308776855469,0.3626055419445038,0.7494035959243774,0.42000001668930054,-1.330027461051941,2.999997138977051,-0.1659303456544876,3.0000007152557373,0.003969751298427582,0.0014971094205975533,-0.0011426490964367986,-0.003957968670874834,-0.3830568790435791,-0.4434086084365845,-0.5065122246742249,-0.5726082921028137
0.1,0.04664992541074753,0.051617857068777084,0.0,0.9959741830825806,0.0,0.0,-0.08964041620492935,0.7374166250228882,0.9030224680900574,0.0,0.0,0.0,-6.9719929695129395,-0.404140442609787,0.7659223079681396,0.4200000464916229,0.9999999403953552,3.6203794024913805e-06,-2.265238208565279e-06,1.746267912494659e-07,0.00026676745619624853,0.0002674067218322307,-0.0001040794886648655,-0.0017385870451107621,0.00420920317992568,-0.00012775289360433817,-0.14672580361366272,0.17993678152561188,1.2724246978759766,-1.4472498893737793,2.9574472904205322,-0.8473159074783325,0.3626055419445038,0.7494035959243774,0.42000001668930054,-1.2800374031066895,2.999999523162842,-0.19764530658721924,-2.999999761581421,0.0018406566232442856,-0.002293027238920331,-0.006597575265914202,-0.011081297881901264,-0.050182025879621506,-0.16294562816619873,-0.27470189332962036,-0.38534897565841675
0.11666666666666667,0.05432239919900894,0.06833764165639877,0.0,0.9926556944847107,0.0,0.0,-0.12097395211458206,0.4823036789894104,1.0599652528762817,0.0,0.0,0.0,-2.5416417121887207,-0.404140442609787,0.7659223079681396,0.4200000464916229,1.0,3.798439593083458e-06,-2.2628505575994495e-06,-1.5020387422737258e-07,0.0002637408615555614,0.00026566011365503073,-0.00010428996756672859,-0.0017053994815796614,0.0041475314646959305,-0.00012979870371054858,-0.1776600480079651,0.22576762735843658,1.2565908432006836,-1.9360971450805664,2.9321374893188477,-0.9630078077316284,0.3626055419445038,0.7494035959243774,0.42000001668930054,-1.2300196886062622,2.9999871253967285,-0.16383226215839386,3.0000009536743164,-0.0019816134590655565,-0.0077122654765844345,-0.013591159135103226,-0.01962624490261078,-0.12401764839887619,-0.23679961264133453,-0.3461645841598511,-0.45191898941993713
0.13333333333333333,0.06030653417110443,0.08326089382171631,0.0,0.9866909980773926,0.0,0.0,-0.16260656714439392,0.3094206154346466,0.8333786725997925,0.0,0.0,0.0,-5.895054817199707,-0.404140442609787,0.7659223675727844,0.4200000464916229,0.9999999403953552,3.550546807673527e-06,-2.2298597741610138e-06,2.929135689555551e-07,0.000267032184638083,0.00026779333711601794,-0.00010416889563202858,-0.0017440456431359053,0.004213479347527027,-0.00012799937394447625,-0.2055184245109558,0.2785506844520569,1.240539789199829,-1.3979377746582031,3.489229202270508,-0.99482262134552,0.3626055419445038,0.7494035959243774,0.42000001668930054,-1.1803492307662964,2.932788133621216,-0.1955440789461136,-3.000000476837158,-0.004713614005595446,-0.012488997541368008,-0.020339367911219597,-0.028268909081816673,-0.234716534614563,-0.3551633059978485,-0.4710692763328552,-0.5822120308876038
0.15,0.0624287873506546,0.09851475059986115,0.0,0.9828232526779175,0.0,0.0,-0.18454940617084503,0.04918793588876724,0.950272798538208,0.0,0.0,0.0,-1.6195850372314453,-0.4041404128074646,0.7659223079681396,0.4200000464916229,1.0,3.3322655781375943e-06,-2.1020439362473553e-06,1.313198794150594e-07,0.00026730558602139354,0.0002685950312297791,-0.00010459637269377708,-0.0017498026136308908,0.00421568751335144,-0.00012928081559948623,-0.2367219775915146,0.33548474311828613,1.2168304920196533,-2.001418352127075,3.5955138206481934,-1.800797700881958,0.3626055419445038,0.7494035959243774,0.42000001668930054,-1.1545790433883667,0.36323320865631104,-0.16174215078353882,2.999999761581421,-0.009918883442878723,-0.019248133525252342,-0.028566351160407066,-0.03787551820278168,-0.3745410442352295,-0.44046351313591003,-0.5014773011207581,-0.557572603225708
0.16666666666666666,0.0692707821726799,0.11228783428668976,0.0,0.9752352833747864,0.0,0.0,-0.22117002308368683,0.5391565561294556,0.7417528629302979,0.0,0.0,0.0,-5.486128807067871,-0.404140442609787,0.7659223079681396,0.4200000464916229,1.0,3.73737429981702e-06,-2.2331746549753007e-06,-1.8764247045055527e-07,0.0002643283223733306,0.0002662674814928323,-0.00010445830412209034,-0.001711881486698985,0.004157572984695435,-0.00013001706975046545,-0.2687351107597351,0.39990854263305664,1.1836447715759277,-1.772402286529541,4.141993522644043,-2.2322964668273926,0.3626055419445038,0.7494035959243774,0.42000001668930054,-1.1148192882537842,2.999999523162842,-0.19347693026065826,-3.0000011920928955,-0.013238527812063694,-0.023768875747919083,-0.03420116752386093,-0.04453860595822334,-0.19211214780807495,-0.25099366903305054,-0.30537888407707214,-0.35542771220207214
0.18333333333333332,0.07157748937606812,0.12286807596683502,0.0,0.9710084795951843,0.0,0.0,-0.23904506862163544,0.10882018506526947,0.5381969809532166,0.0,0.0,0.0,-1.1214829683303833,-0.404140442609787,0.7659223675727844,0.4200000464916229,0.9999999403953552,3.6603480566554936e-06,-2.302288521605078e-06,2.528599623019545e-07,0.00026690925005823374,0.00026760384207591414,-0.00010412652045488358,-0.0017413318855687976,0.004211517982184887,-0.00012787127343472093,-0.3027750253677368,0.46554648876190186,1.1352710723876953,-1.9237463474273682,4.073782920837402,-3.360048770904541,0.3626055419445038,0.7494035959243774,0.42000001668930054,-1.080517053604126,1.241134524345398,-0.24350567162036896,-2.9999992847442627,-0.025190776214003563,-0.03520337492227554,-0.045115504413843155,-0.05494258552789688,-0.7168030142784119,-0.6740608215332031,-0.6310821771621704,-0.58860844373703
0.2,0.07075913995504379,0.13327409327030182,0.0,0.9633263349533081,0.0,0.0,-0.2683326303958893,-0.1494925171136856,0.668950617313385,0.0,0.0,0.0,-4.453624248504639,-0.404140442609787,0.7659223079681396,0.4200000464916229,1.0,3.590944743336877e-06,-2.3003988189884694e-06,1.387288364185224e-07,0.0002665463543962687,0.00026732112746685743,-0.00010424014180898666,-0.001732638105750084,0.004203434102237225,-0.00012820535630453378,-0.3341677188873291,0.5349599719047546,1.0739147663116455,-1.6827290058135986,4.226421356201172,-4.010709762573242,0.3626055419445038,0.7494035959243774,0.42000001668930054,-1.0354832410812378,3.0,-0.2935321033000946,-2.999999523162842,-0.03862873092293739,-0.04785442724823952,-0.056966643780469894,-0.06599395722150803,-0.8666543960571289,-0.8134164810180664,-0.7594541311264038,-0.7055143117904663
0.21666666666666667,0.07226555794477463,0.1454627364873886,0.0,0.9580678939819336,0.0,0.0,-0.28654128313064575,0.10913220793008804,0.7661306858062744,0.0,0.0,0.0,-1.071221947669983,-0.404140442609787,0.7659223675727844,0.4200000464916229,1.0,3.6070243822905468e-06,-2.2609776806348236e-06,1.9620452818003287e-08,0.00026447157142683864,0.00026558342506177723,-0.00010396563448011875,-0.0017086818115785718,0.004164237529039383,-0.00012832554057240486,-0.36380764842033386,0.600602388381958,0.9993453025817871,-1.605722427368164,3.7400636672973633,-4.9012451171875,0.3626055419445038,0.7494035959243774,0.42000001668930054,-0.9854801893234253,3.0000014305114746,-0.3435576856136322,-3.0,-0.052615001797676086,-0.060637492686510086,-0.06855902820825577,-0.07642393559217453,-0.943590521812439,-0.843207836151123,-0.7456520795822144,-0.6519984602928162
0.23333333333333334,0.07027173787355423,0.1601315140724182,0.0,0.948827862739563,0.0,0.0,-0.31579381227493286,-0.16081282496452332,0.9186190962791443,0.0,0.0,0.0,-4.51437520980835,-0.4041404128074646,0.7659223079681396,0.4200000464916229,0.9999999403953552,3.742308763321489e-06,-2.227460527137737e-06,4.589104776187014e-07,0.0002647514920681715,0.0002667125081643462,-0.00010453653521835804,-0.0017189675709232688,0.004165837075561285,-0.00013019423931837082,-0.3880358934402466,0.6609936952590942,0.9120540618896484,-1.2009754180908203,3.4750497341156006,-5.42718505859375,0.3626055419445038,0.7494035959243774,0.42000001668930054,-0.93547123670578,3.0000007152557373,-0.39358603954315186,-2.9999985694885254,-0.06776265799999237,-0.07599285989999771,-0.08408158272504807,-0.09129884839057922,-0.9259210228919983,-0.9357191920280457,-0.9437299370765686,-0.9124523401260376
0.25,0.07283547520637512,0.17017072439193726,0.0,0.9446857571601868,0.0,0.0,-0.32797691226005554,0.17847348749637604,0.500889778137207,0.0,0.0,0.0,-0.4933231472969055,-0.404140442609787,0.7659223079681396,0.4200000464916229,1.0,3.3944406823138706e-06,-2.282003833897761e-06,1.3362337369926536e-07,0.00026679254369810224,0.00026793938013724983,-0.00010439357720315456,-0.0017418275820091367,0.0042066192254424095,-0.00012884389434475452,-0.4091317653656006,0.7105798125267029,0.8172479867935181,-1.0367162227630615,2.566089630126953,-5.978437423706055,0.3626055419445038,0.7494035959243774,0.42000001668930054,-0.885460615158081,2.999998092651367,-0.4436163306236267,-2.999999523162842,-0.08171914517879486,-0.08984433114528656,-0.09750082343816757,-0.10382480919361115,-0.9831559062004089,-0.9743951559066772,-0.901138424873352,-0.8106613159179688
0.26666666666666666,0.0709993839263916,0.17677418887615204,0.0,0.9357902407646179,0.0,0.0,-0.3525572121143341,-0.21182909607887268,0.34783533215522766,0.0,0.0,0.0,-4.022604465484619,-0.404140442609787,0.7659223675727844,0.4200000464916229,1.0,3.683465138237807e-06,-2.310013542228262e-06,2.100974683116874e-07,0.0002647917135618627,0.0002662578772287816,-0.00010421057231724262,-0.0017168603371828794,0.004168964922428131,-0.00012909743236377835,-0.4217582941055298,0.7451571226119995,0.7118664979934692,-0.4168483018875122,1.610166311264038,-6.450364112854004,0.3626055419445038,0.7494035959243774,0.42000001668930054,-0.8354504704475403,2.999997615814209,-0.4936474561691284,-3.000002861022949,-0.09869688004255295,-0.10669409483671188,-0.11424890905618668,-0.12047474086284637,-0.9955455660820007,-0.9963507056236267,-0.9969903230667114,-0.997516393661499
0.2833333333333333,0.07192318886518478,0.17931167781352997,0.0,0.9331216216087341,0.0,0.0,-0.35956090688705444,0.21810033917427063,0.06784636527299881,0.0,0.0,0.0,0.06000685319304466,-0.404140442609787,0.7659223079681396,0.4200000464916229,1.0,3.3069727578549646e-06,-2.2124040697235614e-06,2.625702961722709e-07,0.0002666062209755182,0.0002674497081898153,-0.00010424107313156128,-0.0017351561691612005,0.0042042965069413185,-0.0001282812445424497,-0.4275244474411011,0.7629252672195435,0.6035733222961426,-0.11010569334030151,0.5797935128211975,-6.535891532897949,0.3626055419445038,0.7494035959243774,0.42000001668930054,-0.7854416370391846,2.9999899864196777,-0.5436780452728271,-2.999998092651367,-0.11468679457902908,-0.12264746427536011,-0.13015590608119965,-0.13617846369743347,-0.9419425129890442,-0.9346117973327637,-0.9283609390258789,-0.9034608006477356
0.3,0.07005121558904648,0.1801164448261261,0.0,0.9255523085594177,0.0,0.0,-0.3786197900772095,-0.21695731580257416,-0.025110216811299324,0.0,0.0,0.0,-3.2565579414367676,-0.404140442609787,0.7659223079681396,0.4200000464916229,1.0,3.641321427494404e-06,-2.377772943873424e-06,-4.193906306682038e-07,0.0002661157923284918,0.00026726050418801606,-0.00010423245839774609,-0.001733534736558795,0.0041945925913751125,-0.00012855068780481815,-0.4233764111995697,0.768257737159729,0.49908512830734253,0.6539653539657593,0.09091711789369583,-5.792387962341309,0.3626055419445038,0.7494035959243774,0.42000001668930054,-0.7354366183280945,3.0000009536743164,-0.5937069654464722,-3.0000007152557373,-0.13270126283168793,-0.1403511017560959,-0.1476273238658905,-0.15346939861774445,-1.0166478157043457,-1.0125727653503418,-1.0094605684280396,-1.006974697113037
0.31666666666666665,0.06355662643909454,0.1787191927433014,0.0,0.9249866604804993,0.0,0.0,-0.3799996078014374,-0.4383387267589569,-0.11634169518947601,0.0,0.0,0.0,0.7504952549934387,-0.404140442609787,0.7659223675727844,0.4200000464916229,1.0,3.6219023513694992e-06,-2.288958967255894e-06,1.9690962460572337e-07,0.0002673400449566543,0.00026802747743204236,-0.00010420801118016243,-0.0017466514836996794,0.004218981601297855,-0.00012794154463335872,-0.41045916080474854,0.7637336254119873,0.40816861391067505,0.995248019695282,-0.6212303042411804,-5.25978946685791,0.3626055419445038,0.7494035959243774,0.42000001668930054,-0.6854296326637268,2.9999966621398926,-0.6437337398529053,-3.0,-0.1501769870519638,-0.15761299431324005,-0.1647304892539978,-0.17044959962368011,-1.0004528760910034,-1.0003445148468018,-1.0002617835998535,-1.000193476676941
0.3333333333333333,0.05461247265338898,0.17501641809940338,0.0,0.9344954490661621,0.0,0.0,-0.35597506165504456,-0.488341748714447,-0.3110988736152649,0.0,0.0,0.0,3.9202330112457275,-0.4043545722961426,0.7648122310638428,0.4209855794906616,0.9997755885124207,0.01816726289689541,-0.0069203306920826435,-0.00841614417731762,0.012015379965305328,-0.01169008668512106,0.03278186917304993,1.377366542816162,-0.32155728340148926,0.4132853150367737,-0.4135781526565552,0.7670645117759705,0.4286656975746155,-0.24659542739391327,0.3321352005004883,-0.1274457573890686,0.3626055419445038,0.7494035959243774,0.42000001668930054,-0.6355672478675842,2.999993085861206,-0.6942411661148071,-2.9999191761016846,-0.15319456160068512,-0.16170544922351837,-0.16944754123687744,-0.17526912689208984,-0.15238851308822632,-0.22422321140766144,-0.27487805485725403,-0.30265069007873535
0.35,0.04490997642278671,0.1677381843328476,0.0,0.9371877312660217,0.0,0.0,-0.3488254249095917,-0.6264457702636719,-0.46348127722740173,0.0,0.0,0.0,-0.07547096908092499,-0.40431177616119385,0.764849841594696,0.4202486276626587,0.9993618726730347,0.006043821107596159,-0.000407051935326308,-0.035202011466026306,-0.027721835300326347,-0.1563846617937088,-0.12436511367559433,-6.4862518310546875,0.2554924786090851,-9.9572114944458,-0.415109783411026,0.7678401470184326,0.4259452521800995,0.12049513310194016,-0.10319250077009201,-0.18233773112297058,0.3626055419445038,0.7494035959243774,0.42000001668930054,-0.5855618715286255,2.9999611377716064,-0.7442787289619446,-2.9999773502349854,-0.15718890726566315,-0.16589489579200745,-0.17346014082431793,-0.17876775562763214,-0.35843443870544434,-0.30457788705825806,-0.23029008507728577,-0.14111825823783875
0.36666666666666664,0.032896995544433594,0.15841032564640045,0.0,0.9327378273010254,0.0,0.0,-0.3605552911758423,-0.7681291699409485,-0.6046474575996399,0.0,0.0,0.0,-2.1409242153167725,-0.4018661677837372,0.7644608616828918,0.4200000464916229,0.9955176711082458,2.6503321350901388e-06,3.1161431479631574e-07,-0.09457486122846603,0.15805897116661072,-9.214896272169426e-05,-8.923467248678207e-06,4.045464447699487e-05,0.00046607956755906343,-6.9174065589904785,-0.4109320640563965,0.768779456615448,0.4232999086380005,0.3999618887901306,0.21829771995544434,-0.12933477759361267,0.3626055419445038,0.7494035959243774,0.42000001668930054,-0.535556972026825,2.9999797344207764,-0.7943166494369507,-2.999986171722412,-0.1640894114971161,-0.1713465005159378,-0.17708170413970947,-0.18031056225299835,-0.4194396734237671,-0.3129461407661438,-0.18212443590164185,-0.03665618225932121
0.3833333333333333,0.023303646594285965,0.14622852206230164,0.0,0.9192966222763062,0.0,0.0,-0.39356547594070435,-0.49658116698265076,-0.7869693636894226,0.0,0.0,0.0,-5.292084217071533,-0.3965049088001251,0.7683192491531372,0.4200001060962677,0.9771348237991333,7.237291356432252e-06,-8.41261623918399e-07,-0.21262069046497345,0.4352821111679077,0.3665938675403595,-0.00022536664619110525,-0.004279391374439001,0.01809658110141754,-20.27077293395996,-0.40257537364959717,0.7744588851928711,0.42204004526138306,0.6911494731903076,0.5591656565666199,-0.029119938611984253,0.3626055419445038,0.7494035959243774,0.42000001668930054,-0.48555248975753784,2.9999847412109375,-0.8443612456321716,-2.99999737739563,-0.17110119760036469,-0.17622022330760956,-0.17938455939292908,-0.1797967553138733,-0.3869991898536682,-0.24584171175956726,-0.07939112186431885,0.10025390982627869
0.4,0.011246074922382832,0.13214778900146484,0.0,0.8915481567382812,0.0,0.0,-0.4529258906841278,-0.8020479083061218,-0.8719093799591064,0.0,0.0,0.0,-8.766712188720703,-0.3770219385623932,0.7880765795707703,0.4228304624557495,0.9755293726921082,0.02831030637025833,-0.03303474932909012,-0.2155219465494156,1.9148552417755127,1.7492631673812866,0.22511203587055206,-0.2748779356479645,-5.495757102966309,-5.37372350692749,-0.381686806678772,0.7904133200645447,0.4230964183807373,2.0709004402160645,1.5811680555343628,0.13554638624191284,0.3626055419445038,0.7494035959243774,0.42000001668930054,-0.4355486333370209,3.0000014305114746,-0.8943997621536255,-2.9998226165771484,-0.18078838288784027,-0.1826896071434021,-0.18228338658809662,-0.17900562286376953,-0.6460088491439819,-0.4231891632080078,-0.18363028764724731,0.05765078216791153
0.4166666666666667,0.002426393562927842,0.11538052558898926,0.0,0.8474909067153931,0.0,0.0,-0.5308099389076233,-0.4775448739528656,-1.0429787635803223,0.0,0.0,0.0,-11.379080772399902,-0.31967049837112427,0.8225033283233643,0.426463782787323,0.9582237601280212,0.05039918050169945,-0.06401181221008301,-0.27417057752609253,4.851443767547607,2.517237424850464,0.1573609560728073,31.132497787475586,-19.22410011291504,8.044682502746582,-0.32402294874191284,0.8264014720916748,0.42641082406044006,4.521490573883057,2.580948829650879,0.41042113304138184,0.3626055419445038,0.7494035959243774,0.42000001668930054,-0.39632612466812134,1.5177154541015625,-0.8876137733459473,2.9930481910705566,-0.19344037771224976,-0.19067345559597015,-0.18549303710460663,-0.17761318385601044,-0.8176755905151367,-0.5190166234970093,-0.2212771326303482,0.05844108387827873
0.43333333333333335,-0.0035893821623176336,0.10394845902919769,0.0,0.7844721674919128,0.0,0.0,-0.6201640367507935,-0.2909024953842163,-0.7251412868499756,0.0,0.0,0.0,-13.799309730529785,-0.22131066024303436,0.8634539842605591,0.4342915117740631,0.9332514405250549,0.09068669378757477,-0.08840993046760559,-0.3361565172672272,7.298138618469238,2.238795757293701,0.38572627305984497,17.06838607788086,-16.509496688842773,16.133235931396484,-0.2250397950410843,0.8692392110824585,0.4344213604927063,6.970219135284424,2.745650291442871,0.6897556185722351,0.3626055419445038,0.7494035959243774,0.42000001668930054,-0.3747237026691437,1.225550651550293,-0.8962430357933044,-3.00000262260437,-0.20848511159420013,-0.20472843945026398,-0.19510173797607422,-0.18167322874069214,-0.5275328159332275,-0.6146488189697266,-0.5287392735481262,-0.2724703252315521
0.45,-0.011721163988113403,0.09628136456012726,0.0,0.7290807962417603,0.0,0.0,-0.6844276785850525,-0.47407177090644836,-0.43128442764282227,0.0,0.0,0.0,-8.871441841125488,-0.10817228257656097,0.89241623878479,0.4446212947368622,0.896654486656189,0.1302291601896286,-0.11911065131425858,-0.40603405237197876,6.9463324546813965,0.731742799282074,0.7094923853874207,2.7753489017486572,-12.568623542785645,13.432476997375488,-0.11140046268701553,0.9013097286224365,0.44486039876937866,6.780064582824707,1.2745412588119507,0.6458243131637573,0.3626055419445038,0.7494035959243774,0.42000001668930054,-0.3575598895549774,0.6850413680076599,-0.8595542311668396,2.999223232269287,-0.2226630449295044,-0.21869635581970215,-0.20651306211948395,-0.18783047795295715,-0.6995415687561035,-0.7293955087661743,-0.6398190259933472,-0.3676412105560303
0.4666666666666667,-0.016607016324996948,0.09172957390546799,0.0,0.6968545317649841,0.0,0.0,-0.7172124981880188,-0.2393627166748047,-0.20456881821155548,0.0,0.0,0.0,-4.376236915588379,0.0028998516499996185,0.9029986262321472,0.45441973209381104,0.8318551778793335,0.158945694565773,-0.11900649219751358,-0.518257200717926,6.542566299438477,-0.8629606366157532,0.5823072791099548,-10.841728210449219,7.94824743270874,-0.6646925210952759,-0.0013802750036120415,0.9128089547157288,0.4536289572715759,6.448826313018799,-0.012513667345046997,0.5262323021888733,0.3626055419445038,0.7494035959243774,0.42000001668930054,-0.34591588377952576,0.5871801972389221,-0.8853821158409119,-2.998532772064209,-0.23727954924106598,-0.23182979226112366,-0.21677260100841522,-0.19298574328422546,-0.8918130397796631,-0.7381585240364075,-0.5301496982574463,-0.22728969156742096
0.48333333333333334,-0.0173562690615654,0.08183493465185165,0.0,0.6880285739898682,0.0,0.0,-0.7256836295127869,0.018300406634807587,-0.7173147797584534,0.0,0.0,0.0,-0.5346763134002686,0.10244105756282806,0.8958534002304077,0.4577077627182007,0.7445719838142395,0.10396502912044525,-0.17715603113174438,-0.6351531147956848,5.345355033874512,-1.6256779432296753,0.03976703807711601,-25.024673461914062,-2.3783538341522217,-11.03092098236084,0.09612517803907394,0.9075676798820496,0.4596686065196991,5.326788902282715,-0.7798362970352173,0.30196261405944824,0.3626055419445038,0.7494035959243774,0.42000001668930054,-0.33741331100463867,0.33142998814582825,-0.9354073405265808,-2.999999761581421,-0.23873178660869598,-0.23953098058700562,-0.22146382927894592,-0.19361039996147156,0.13857705891132355,-0.2864311635494232,-0.11822102963924408,0.08381497114896774
0.5,-0.0158647820353508,0.07580175250768661,0.0,0.6705418825149536,0.0,0.0,-0.7418716549873352,0.11480838805437088,-0.21064503490924835,0.0,0.0,0.0,-3.720513343811035,0.18163597583770752,0.8764713406562805,0.4573966860771179,0.7004967331886292,0.07293427735567093,-0.1616220474243164,-0.6912764310836792,4.065446853637695,-1.7905431985855103,-0.1402566134929657,-9.832771301269531,-0.23801302909851074,6.581277847290039,0.17634591460227966,0.8890656232833862,0.45953333377838135,4.476624488830566,-1.4609041213989258,-0.14837795495986938,0.3626055419445038,0.7494035959243774,0.42000001668930054,-0.3326757848262787,0.3748725950717926,-0.9854313731193542,-2.9996089935302734,-0.23997105658054352,-0.23996761441230774,-0.22607851028442383,-0.19537129998207092,-0.012603924609720707,3.5685712873601005e-07,-0.2831189036369324,-0.1596144139766693
0.5166666666666666,-0.01189090684056282,0.06896337121725082,0.0,0.6658464670181274,0.0,0.0,-0.7460887432098389,0.2521700859069824,-0.4775267541408539,0.0,0.0,0.0,0.1795061230659485,0.2466927468776703,0.850151538848877,0.4512033760547638,0.6593484878540039,0.037114690989255905,-0.14007234573364258,-0.7377409338951111,3.151387929916382,-2.1517457962036133,-0.5356661677360535,-10.282883644104004,3.0398385524749756,10.867635726928711,0.24258160591125488,0.8625043034553528,0.4534449577331543,3.608579635620117,-1.816870927810669,-0.48113521933555603,0.3626055419445038,0.7494035959243774,0.42000001668930054,-0.32273349165916443,0.7119386792182922,-1.0354540348052979,-2.9998512268066406,-0.2377939671278,-0.23718582093715668,-0.22735831141471863,-0.19575420022010803,0.14253614842891693,0.21616828441619873,0.024831142276525497,0.03312979266047478
0.5333333333333333,-0.005507868714630604,0.06464316695928574,0.0,0.6524948477745056,0.0,0.0,-0.757793128490448,0.4518158733844757,-0.2015186995267868,0.0,0.0,0.0,-2.915374517440796,0.2971932291984558,0.8217501044273376,0.43781402707099915,0.6337130069732666,-0.0012300192611292005,-0.1208995059132576,-0.7640611529350281,2.588305711746216,-1.7105685472488403,-0.8221842050552368,-7.0715460777282715,8.482158660888672,-3.7166411876678467,0.2938423752784729,0.8331484794616699,0.4404677152633667,2.6680006980895996,-1.7582871913909912,-0.9723354578018188,0.3626055419445038,0.7494035959243774,0.42000001668930054,-0.30820992588996887,0.9433971047401428,-1.0854761600494385,-3.0,-0.2351972907781601,-0.23372560739517212,-0.22696568071842194,-0.19639727473258972,0.25246432423591614,0.2784762382507324,0.09408079087734222,-0.03638214245438576
0.55,-0.0009246679837815464,0.06363888829946518,0.0,0.6526070833206177,0.0,0.0,-0.7576965093612671,0.21132877469062805,-0.006412987597286701,0.0,0.0,0.0,0.8348727822303772,0.3343634605407715,0.7946822643280029,0.4220781922340393,0.5959272384643555,-0.03533728048205376,-0.02560678869485855,-0.801851749420166,1.5284507274627686,-1.6438920497894287,-0.4891440272331238,12.739212036132812,-1.162015438079834,5.507850646972656,0.3315139412879944,0.8040549159049988,0.4243740439414978,1.5918653011322021,-1.5236334800720215,-0.46761763095855713,0.3626055419445038,0.7494035959243774,0.42000001668930054,-0.2884385585784912,1.1494022607803345,-1.135498285293579,-2.9982008934020996,-0.2310623675584793,-0.2291705161333084,-0.2250726819038391,-0.1973002701997757,0.30296558141708374,0.3157006502151489,0.1697424054145813,-0.032913435250520706
0.5666666666666667,0.00421126326546073,0.059369899332523346,0.0,0.6412397623062134,0.0,0.0,-0.7673406004905701,0.330839604139328,-0.27729007601737976,0.0,0.0,0.0,-2.689800262451172,0.3546634614467621,0.7789366245269775,0.42142054438591003,0.5908991098403931,-0.02176293358206749,0.02961215376853943,-0.8059080243110657,0.7659212946891785,-1.0442959070205688,0.017740368843078613,0.0837412029504776,1.0266777276992798,5.558490753173828,0.35031789541244507,0.7870397567749023,0.4225260615348816,0.7914674878120422,-0.7579046487808228,0.17629766464233398,0.3626055419445038,0.7494035959243774,0.42000001668930054,-0.2718484699726105,1.0904399156570435,-1.1855204105377197,-2.9991133213043213,-0.2221124917268753,-0.22090859711170197,-0.21963711082935333,-0.19620415568351746,0.514923632144928,0.48026230931282043,0.33792275190353394,0.06881802529096603
0.5833333333333334,0.007337099406868219,0.05827366188168526,0.0,0.64288729429245,0.0,0.0,-0.7659608125686646,0.13156920671463013,-0.030396344140172005,0.0,0.0,0.0,1.0768862962722778,0.36508068442344666,0.7652499675750732,0.42232075333595276,0.5871595740318298,-0.03700163587927818,0.044404447078704834,-0.8074049353599548,0.47911494970321655,-1.2238138914108276,0.19890491664409637,5.4779815673828125,11.90886402130127,7.616492748260498,0.3614872694015503,0.7725741863250732,0.42407894134521484,0.5199108719825745,-0.7693201899528503,0.11264339834451675,0.3626055419445038,0.7494035959243774,0.42000001668930054,-0.26705121994018555,-0.6458958387374878,-1.235540509223938,-2.9958510398864746,-0.21601702272891998,-0.21485087275505066,-0.2150794416666031,-0.19574949145317078,0.40794122219085693,0.39784038066864014,0.3199564814567566,0.06704726815223694
0.6,0.011201290413737297,0.05510088801383972,0.0,0.6334945559501648,0.0,0.0,-0.7737471461296082,0.2672017514705658,-0.2490154206752777,0.0,0.0,0.0,-2.312432289123535,0.3696291148662567,0.7570913434028625,0.4231281280517578,0.6032049059867859,-0.04943917691707611,0.05386732891201973,-0.7942278981208801,0.04875243455171585,-0.36808767914772034,0.018133055418729782,-0.3175961673259735,-0.03226683288812637,4.586686134338379,0.36539360880851746,0.7641969919204712,0.4255210757255554,0.059436582028865814,-0.33243870735168457,0.06289469450712204,0.3626055419445038,0.7494035959243774,0.42000001668930054,-0.27432429790496826,-0.12258533388376236,-1.2636322975158691,-0.5738211274147034,-0.20788893103599548,-0.20723876357078552,-0.20877264440059662,-0.19381928443908691,0.4896886944770813,0.4600670635700226,0.39786943793296814,0.14239250123500824
0.6166666666666667,0.01726347953081131,0.0544988214969635,0.0,0.6369025707244873,0.0,0.0,-0.7709442973136902,0.39717504382133484,0.020251641049981117,0.0,0.0,0.0,1.3518582582473755,0.36984893679618835,0.7512606978416443,0.4219549298286438,0.61564040184021,-0.03199814632534981,0.03541357070207596,-0.7865803837776184,-0.037753116339445114,-0.3012080788612366,-0.07562553882598877,-1.5477896928787231,-4.537303924560547,-0.7497372627258301,0.36495107412338257,0.7598127126693726,0.42786353826522827,-0.09470684826374054,-0.156416654586792,0.16784130036830902,0.3626055419445038,0.7494035959243774,0.42000001668930054,-0.3085319399833679,-2.9999635219573975,-1.3086124658584595,-2.999868392944336,-0.2013833373785019,-0.20117168128490448,-0.20341651141643524,-0.1924048364162445,0.4128837287425995,0.3734689950942993,0.3302067220211029,0.09478923678398132
0.6333333333333333,0.025082679465413094,0.056565552949905396,0.0,0.6331030130386353,0.0,0.0,-0.7740675806999207,0.4988250434398651,0.24499715864658356,0.0,0.0,0.0,-1.562300205230713,0.3692573606967926,0.7476065158843994,0.4202815592288971,0.6230769157409668,-0.0045969123020768166,0.0038327304646372795,-0.7821376323699951,0.01595337875187397,-0.10911475867033005,-0.02677009627223015,-0.8258073329925537,-1.6585817337036133,1.170698642730713,0.36445891857147217,0.76081383228302,0.4310787320137024,-0.0007389411330223083,0.13098299503326416,0.22645419836044312,0.3626055419445038,0.7494035959243774,0.42000001668930054,-0.3585358262062073,-2.9998786449432373,-1.3585654497146606,-2.998708963394165,-0.19317927956581116,-0.1941981315612793,-0.1974625438451767,-0.1904633790254593,0.5151888728141785,0.42892658710479736,0.36526772379875183,0.13086795806884766
0.65,0.035370130091905594,0.054412685334682465,0.0,0.6414169073104858,0.0,0.0,-0.7671924829483032,0.5910009741783142,-0.1155010461807251,0.0,0.0,0.0,2.1589789390563965,0.36927568912506104,0.7468279600143433,0.4200000464916229,0.6253549456596375,-9.994100480525958e-08,-1.150472286326476e-07,-0.7803403735160828,4.288540731067769e-05,-0.016824524849653244,-5.51354605704546e-06,0.0006179416086524725,0.00022150618315208703,0.08839714527130127,0.36368897557258606,0.7639807462692261,0.43482235074043274,-0.23468919098377228,0.1632693111896515,0.23449528217315674,0.3626055419445038,0.7494035959243774,0.42000001668930054,-0.40854528546333313,-2.9999818801879883,-1.4085776805877686,-2.9997313022613525,-0.1810193657875061,-0.18387407064437866,-0.18848836421966553,-0.18549582362174988,0.5362299680709839,0.48121771216392517,0.45465344190597534,0.27191978693008423
0.6666666666666666,0.04595236852765083,0.0497867725789547,0.0,0.6383564472198486,0.0,0.0,-0.7697409391403198,0.709907054901123,-0.2762625813484192,0.0,0.0,0.0,-1.609680414199829,0.36825403571128845,0.7470078468322754,0.420000284910202,0.6348076462745667,1.3586601710358082e-07,7.65386403145385e-07,-0.7726702094078064,-0.020019827410578728,0.005730556324124336,-3.8280501030385494e-05,2.2239314603211824e-06,-0.0016072096768766642,0.09651883691549301,0.3630295693874359,0.7669589519500732,0.4394855797290802,0.022835852578282356,0.07071226090192795,0.3076658844947815,0.3626055419445038,0.7494035959243774,0.42000001668930054,-0.4585523307323456,-2.99769926071167,-1.4585654735565186,-2.9999496936798096,-0.1719774603843689,-0.17543157935142517,-0.18000571429729462,-0.17926029860973358,0.3624019920825958,0.3810596466064453,0.4422138035297394,0.3788940906524658
0.6833333333333333,0.05909653753042221,0.042795244604349136,0.0,0.6125608682632446,0.0,0.0,-0.7904233932495117,0.8235255479812622,-0.4962317943572998,0.0,0.0,0.0,-4.860076904296875,0.3682537376880646,0.7470080256462097,0.4200000464916229,0.6348077654838562,1.1606013003984117e-06,-2.503254336261307e-06,-0.7726700305938721,0.00022059149341657758,-0.0001846224768087268,-8.933874778449535e-05,0.0032663934398442507,0.0011165168834850192,-0.0005371334264054894,0.3667001724243164,0.7671828866004944,0.45177575945854187,0.49489733576774597,-0.05111036077141762,1.2764837741851807,0.3626055419445038,0.7494035959243774,0.42000001668930054,-0.5085641741752625,-2.9999313354492188,-1.508583664894104,-2.9999969005584717,-0.16905410587787628,-0.17172686755657196,-0.17480461299419403,-0.17442654073238373,0.07020986825227737,0.13504979014396667,0.2421918660402298,0.24944603443145752
0.7,0.07317914068698883,0.04049213230609894,0.0,0.5995835661888123,0.0,0.0,-0.8003121614456177,0.8449445962905884,-0.014886192977428436,0.0,0.0,0.0,-0.9945698976516724,0.3682537078857422,0.7470080852508545,0.4200000464916229,0.634807825088501,6.574027793249115e-07,-3.764191433219821e-06,-0.7726700305938721,0.0001896450121421367,-0.00028249144088476896,-0.00010224152356386185,0.005650808569043875,-0.0003280842211097479,-0.0005124882445670664,0.3753235936164856,0.7691317796707153,0.4785647988319397,0.5519583225250244,0.2816704511642456,1.878143072128296,0.3626055419445038,0.7494035959243774,0.42000001668930054,-0.5526947379112244,-2.31984543800354,-1.5586010217666626,-3.000000238418579,-0.17293883860111237,-0.1739867478609085,-0.17488914728164673,-0.17392386496067047,-0.2766759991645813,-0.19949354231357574,-0.09348473697900772,-0.07247655093669891
0.7166666666666667,0.08377306908369064,0.039912737905979156,0.0,0.6107204556465149,0.0,0.0,-0.7918462753295898,0.5536417365074158,-0.014785975217819214,0.0,0.0,0.0,2.527142286300659,0.3682537078857422,0.7470080852508545,0.4200000464916229,0.6348079442977905,4.294263646897889e-07,-3.407735448490712e-06,-0.7726698517799377,0.00018902105512097478,-0.0002837213105522096,-0.00010201032273471355,0.005685433279722929,-0.00033851616899482906,-0.0005110619822517037,0.3878008723258972,0.7751270532608032,0.5025667548179626,0.7269164323806763,0.3840949535369873,1.1154561042785645,0.3626055419445038,0.7494035959243774,0.42000001668930054,-0.56385338306427,0.7219830751419067,-1.608615517616272,-3.0,-0.17359201610088348,-0.17418454587459564,-0.17410272359848022,-0.17327173054218292,0.055051084607839584,0.0726892352104187,0.11818348616361618,0.10652392357587814
0.7333333333333333,0.08921780437231064,0.03575180470943451,0.0,0.6091909408569336,0.0,0.0,-0.7930235862731934,0.22771355509757996,-0.26186415553092957,0.0,0.0,0.0,-1.129996657371521,0.3682536780834198,0.7470080852508545,0.4200000464916229,0.6348080039024353,6.932436917850282e-07,-3.7738739138148958e-06,-0.7726699113845825,0.00018819826073013246,-0.0002831146994139999,-0.00010189577005803585,0.005675666965544224,-0.00034770520869642496,-0.0005093724466860294,0.39478906989097595,0.7793006896972656,0.5141056776046753,0.09784644842147827,0.0737680196762085,0.45436468720436096,0.3626055419445038,0.7494035959243774,0.42000001668930054,-0.568930983543396,-1.1639394760131836,-1.5695788860321045,2.9999985694885254,-0.1717889904975891,-0.17196977138519287,-0.17111264169216156,-0.170336052775383,-0.013754677958786488,0.047213420271873474,0.12223722785711288,0.1511358767747879
0.75,0.09100761264562607,0.03589066118001938,0.0,0.6186824440956116,0.0,0.0,-0.7856411337852478,0.061442915350198746,0.02740669809281826,0.0,0.0,0.0,2.171062707901001,0.3682537078857422,0.7470080852508545,0.4200000464916229,0.6348078846931458,6.515065251733176e-07,-3.928016212739749e-06,-0.7726699113845825,0.00018734316108748317,-0.0002832869649864733,-0.0001015765592455864,0.005684384144842625,-0.00035682658199220896,-0.0005073138745501637,0.39687174558639526,0.7790167927742004,0.5203949213027954,0.1750674843788147,0.0033654198050498962,0.3271952271461487,0.3626055419445038,0.7494035959243774,0.42000001668930054,-0.5833228826522827,-0.6000315546989441,-1.584216594696045,-3.000000238418579,-0.1752098947763443,-0.1737932413816452,-0.17118197679519653,-0.169314444065094,-0.11165978014469147,-0.04215456172823906,0.03686133399605751,0.0875127837061882
0.7666666666666666,0.09391764551401138,0.03281853720545769,0.0,0.6153033375740051,0.0,0.0,-0.7882904410362244,0.18321006000041962,-0.2064100056886673,0.0,0.0,0.0,-1.4230072498321533,0.3682536780834198,0.7470080852508545,0.4200000464916229,0.6348078846931458,6.586910785699729e-07,-3.475048060863628e-06,-0.7726699113845825,0.0001876940077636391,-0.0002832829486578703,-0.00010173930786550045,0.005682121962308884,-0.00035436073085293174,-0.0005082428688183427,0.3988451659679413,0.7778024673461914,0.5205426216125488,0.06137852370738983,-0.18136027455329895,-0.1283538043498993,0.3626055419445038,0.7494035959243774,0.42000001668930054,-0.6050440669059753,-1.8784196376800537,-1.546998143196106,3.0000007152557373,-0.17538802325725555,-0.17308147251605988,-0.16943275928497314,-0.16683711111545563,-0.043772466480731964,0.02172277681529522,0.09309162944555283,0.15142881870269775
0.7833333333333333,0.09860542416572571,0.032164379954338074,0.0,0.6220517754554749,0.0,0.0,-0.7829760909080505,0.32702136039733887,0.042209576815366745,0.0,0.0,0.0,1.9537323713302612,0.3682537078857422,0.7470080852508545,0.4200000464916229,0.6348080635070801,4.597580414156255e-07,-3.5431014566711383e-06,-0.7726698517799377,0.0001899346971185878,-0.0002841143577825278,-0.0001021064817905426,0.005690543446689844,-0.0003253813774790615,-0.0005127973854541779,0.4022917151451111,0.7749860286712646,0.522898256778717,0.3269908130168915,-0.13881494104862213,0.4381638169288635,0.3626055419445038,0.7494035959243774,0.42000001668930054,-0.6480203866958618,-2.999997854232788,-1.562168836593628,-3.000000476837158,-0.17647893726825714,-0.1733495146036148,-0.16867919266223907,-0.16504962742328644,-0.03907471522688866,-0.007713973987847567,0.0396699458360672,0.09884051978588104
0.8,0.10525525361299515,0.02911156415939331,0.0,0.6169573664665222,0.0,0.0,-0.7869965434074402,0.43422433733940125,-0.20774397253990173,0.0,0.0,0.0,-1.703848123550415,0.3682537078857422,0.7470080852508545,0.4200000464916229,0.6348078846931458,6.337496074593219e-07,-3.440407908783527e-06,-0.7726699113845825,0.000188464269740507,-0.00028338812990114093,-0.00010195025242865086,0.005680335219949484,-0.0003457189304754138,-0.000509941135533154,0.4113406538963318,0.7722916603088379,0.5273718237876892,0.7080888152122498,-0.2825513184070587,0.2628130614757538,0.3626055419445038,0.7494035959243774,0.42000001668930054,-0.6911361813545227,-2.206181049346924,-1.612187147140503,-3.000000238418579,-0.17532040178775787,-0.17182216048240662,-0.16647012531757355,-0.16181744635105133,-0.009349195286631584,0.04320674389600754,0.11286117881536484,0.2054794281721115
0.8166666666666667,0.11427251994609833,0.023789461702108383,0.0,0.5902446508407593,0.0,0.0,-0.8072243928909302,0.57740318775177,-0.42582833766937256,0.0,0.0,0.0,-4.882574558258057,0.3682536780834198,0.7470080852508545,0.4200000464916229,0.6348078846931458,4.4386098352333647e-07,-3.6138840187049937e-06,-0.7726699709892273,0.00019002915360033512,-0.0002841404639184475,-0.000102214515209198,0.005689966958016157,-0.0003268765576649457,-0.0005131225916557014,0.4242834448814392,0.7666431069374084,0.5347636938095093,0.8863365650177002,-0.36502504348754883,0.7438520789146423,0.3626055419445038,0.7494035959243774,0.42000001668930054,-0.7262073159217834,-1.9915094375610352,-1.6622023582458496,-3.0,-0.17683638632297516,-0.17238830029964447,-0.16588200628757477,-0.15970714390277863,-0.07603228837251663,-0.02844569832086563,0.027606084942817688,0.10556493699550629
0.8333333333333334,0.12113292515277863,0.020350955426692963,0.0,0.5784776210784912,0.0,0.0,-0.8156982660293579,0.3331451714038849,-0.179008349776268,0.0,0.0,0.0,-0.685518741607666,0.3682536780834198,0.7470080852508545,0.4200000464916229,0.6348078846931458,4.3184101627957716e-07,-3.5209516227041604e-06,-0.7726700305938721,0.0001893643639050424,-0.0002838788495864719,-0.00010202848352491856,0.005687719210982323,-0.00033309232094325125,-0.0005116352695040405,0.4346376955509186,0.7634752988815308,0.5480405688285828,0.4052826464176178,0.010771969333291054,0.8176696300506592,0.3626055419445038,0.7494035959243774,0.42000001668930054,-0.7264737486839294,1.6441601514816284,-1.712216854095459,-2.999999761581421,-0.1788708120584488,-0.17375054955482483,-0.16655440628528595,-0.15940745174884796,0.02003669925034046,0.01412769965827465,0.00588054396212101,0.014424344524741173
0.85,0.12398935109376907,0.019551478326320648,0.0,0.5907921195030212,0.0,0.0,-0.8068237900733948,0.11749554425477982,0.0034849245566874743,0.0,0.0,0.0,2.62514328956604,0.3682536780834198,0.7470080852508545,0.4200000464916229,0.634807825088501,4.547825653844484e-07,-3.4287761536688777e-06,-0.7726699709892273,0.00018979104061145335,-0.00028389698127284646,-0.00010214513167738914,0.005685874260962009,-0.0003280916134826839,-0.0005125735769979656,0.4379727244377136,0.7668553590774536,0.5605800151824951,-0.05017777159810066,0.3371656835079193,0.7326986789703369,0.3626055419445038,0.7494035959243774,0.42000001668930054,-0.681471586227417,2.999976634979248,-1.6728999614715576,2.999999761581421,-0.17733897268772125,-0.17286236584186554,-0.16637922823429108,-0.15966719388961792,0.15204496681690216,0.09080786257982254,0.022188980132341385,-0.03166280314326286
0.8666666666666667,0.12375430017709732,0.015611241571605206,0.0,0.5885987281799316,0.0,0.0,-0.8084253668785095,-0.07140908390283585,-0.24036090075969696,0.0,0.0,0.0,-1.1577794551849365,0.3682537078857422,0.7470080852508545,0.4200000464916229,0.6348078846931458,6.729228516633157e-07,-3.772207264773897e-06,-0.7726700305938721,0.00018819277465809137,-0.0002833619073498994,-0.00010180729441344738,0.0056816949509084225,-0.0003469160874374211,-0.0005091757629998028,0.430736780166626,0.7708578109741211,0.5683057308197021,-0.8507132530212402,0.14001022279262543,0.3675137758255005,0.3626055419445038,0.7494035959243774,0.42000001668930054,-0.6540992259979248,0.47825518250465393,-1.6228435039520264,3.000000238418579,-0.17450541257858276,-0.17087846994400024,-0.1653844118118286,-0.15943630039691925,0.058873504400253296,0.04088866338133812,0.011332958936691284,-0.00886361114680767
0.8833333333333333,0.1209312453866005,0.01708453707396984,0.0,0.5989004969596863,0.0,0.0,-0.800823450088501,-0.19480299949645996,0.04835072159767151,0.0,0.0,0.0,2.255906581878662,0.3682537078857422,0.7470080852508545,0.4200000464916229,0.6348080039024353,6.258708253881196e-07,-3.483736463749665e-06,-0.7726699113845825,0.0001883199583971873,-0.00028362125158309937,-0.00010182755067944527,0.005686780903488398,-0.00034670447348617017,-0.0005095438100397587,0.41933754086494446,0.7720053195953369,0.5750737190246582,-0.4501488208770752,0.19056811928749084,0.44409072399139404,0.3626055419445038,0.7494035959243774,0.42000001668930054,-0.6259850859642029,2.6816365718841553,-1.5727908611297607,3.0,-0.17800475656986237,-0.17376917600631714,-0.16788281500339508,-0.1614459753036499,-0.013846970163285732,-0.02568328008055687,-0.04227416217327118,-0.04478956386446953
