vladlanda/robotic-transformer/data/env_000_episode_0085.csv
sim_time_s,robot_box_x,robot_box_y,robot_box_z,robot_box_quat_w,robot_box_quat_x,robot_box_quat_y,robot_box_quat_z,robot_box_linvel_x,robot_box_linvel_y,robot_box_linvel_z,robot_box_angvel_x,robot_box_angvel_y,robot_box_angvel_z,cube_world_x,cube_world_y,cube_world_z,cube_quat_w,cube_quat_x,cube_quat_y,cube_quat_z,cube_linvel_x,cube_linvel_y,cube_linvel_z,cube_angvel_x,cube_angvel_y,cube_angvel_z,endpoint_world_x,endpoint_world_y,endpoint_world_z,endpoint_linvel_x,endpoint_linvel_y,endpoint_linvel_z,target_cube_world_x,target_cube_world_y,target_cube_world_z,gripper_actual_pos_rad_gp_leftgearjoint,gripper_actual_vel_rad_s_gp_leftgearjoint,gripper_actual_pos_rad_gp_rotatingjoint,gripper_actual_vel_rad_s_gp_rotatingjoint,motor_angle_rad_joint1,motor_angle_rad_joint2,motor_angle_rad_joint3,motor_angle_rad_joint4,motor_speed_rad_s_joint1,motor_speed_rad_s_joint2,motor_speed_rad_s_joint3,motor_speed_rad_s_joint4
0.0,0.0,0.0,0.0,1.0,0.0,0.0,0.0,0.0,0.0,0.0,0.0,0.0,0.0,-0.42164307832717896,0.7542222738265991,0.41999998688697815,1.0,0.0,0.0,0.0,0.0,0.0,0.0,0.0,0.0,0.0,3.42540442943573e-06,-0.005000244826078415,1.313499927520752,0.0,0.0,0.0,0.4497297406196594,0.7531132102012634,0.42000001668930054,-1.5707999467849731,0.0,0.0,0.0,0.0,0.0,0.0,0.0,0.0,0.0,0.0,0.0
0.016666666666666666,0.0028778850100934505,0.0021806680597364902,0.0,0.9998081922531128,0.0,0.0,0.019586581736803055,0.24087215960025787,0.18240931630134583,0.0,0.0,0.0,3.1418697834014893,-0.4216431975364685,0.7542219758033752,0.41999998688697815,1.0,3.279964630564791e-06,-8.339746386809566e-07,8.465587342243452e-08,-1.9833529222523794e-05,0.00017983045836444944,-6.132945418357849e-05,0.0009432713268324733,-0.004689474124461412,-0.00031981561915017664,-0.007110234349966049,0.003379564033821225,1.3159373998641968,-0.8143353462219238,0.9868683815002441,0.18095196783542633,0.4497297406196594,0.7531132102012634,0.42000001668930054,-1.5301095247268677,3.0000011920928955,-0.04584788903594017,-2.9999992847442627,0.0008691533003002405,0.0007963840034790337,0.0007110277656465769,0.0006108740926720202,0.11094217747449875,0.09756709635257721,0.08334315568208694,0.06823883205652237
0.03333333333333333,0.00896099116653204,0.006802027579396963,0.0,0.9997960329055786,0.0,0.0,0.020196840167045593,0.4070222079753876,0.3153079152107239,0.0,0.0,0.0,-0.8691337704658508,-0.42164331674575806,0.7542219161987305,0.4200000464916229,1.0,3.390805204617209e-06,-2.132404688381939e-06,-3.708747797759315e-08,0.0002635775599628687,0.0002693787682801485,-0.0001050964929163456,-0.0017706695944070816,0.004130705259740353,-0.00013547964044846594,-0.027556639164686203,0.02629934810101986,1.3165804147720337,-1.5912965536117554,1.6163429021835327,-0.08707208186388016,0.4497297406196594,0.7531132102012634,0.42000001668930054,-1.4800903797149658,3.0000007152557373,-0.09588771313428879,-3.000000238418579,0.002990090986713767,0.0026526888832449913,0.0022772483061999083,0.0018606933299452066,0.1642124056816101,0.13975512981414795,0.11381323635578156,0.08629471808671951
0.05,0.018105799332261086,0.01363925077021122,0.0,0.9999932050704956,0.0,0.0,0.003683697199448943,0.6198445558547974,0.45404720306396484,0.0,0.0,0.0,-2.5729925632476807,-0.42164334654808044,0.7542219758033752,0.4200000464916229,1.0,3.765131168620428e-06,-2.2118479137134273e-06,5.629145594099327e-09,0.00026531046023592353,0.00026691515813581645,-0.00010440382175147533,-0.001724305097013712,0.004177468363195658,-0.00012949509255122393,-0.05780724063515663,0.057394810020923615,1.311506986618042,-1.9924464225769043,2.084019184112549,-0.4930545389652252,0.4497297406196594,0.7531132102012634,0.42000001668930054,-1.4300720691680908,3.0000033378601074,-0.14592638611793518,-3.000000476837158,0.005865592509508133,0.005041580181568861,0.004145293030887842,0.003172392724081874,0.20186170935630798,0.1622045487165451,0.12065424770116806,0.07712338864803314
0.06666666666666667,0.029777180403470993,0.022899799048900604,0.0,0.9999818801879883,0.0,0.0,0.0060182735323905945,0.7406381368637085,0.6003649830818176,0.0,0.0,0.0,1.2960693836212158,-0.42164334654808044,0.7542219161987305,0.4200000464916229,0.9999999403953552,3.406752739465446e-06,-2.2855651877762284e-06,4.3010143713217985e-07,0.0002670265967026353,0.000267917406745255,-0.00010437914170324802,-0.0017406505066901445,0.004211799707263708,-0.00012850486382376403,-0.09361449629068375,0.09134730696678162,1.3003263473510742,-2.1786937713623047,2.1503591537475586,-0.8220319747924805,0.4497297406196594,0.7531132102012634,0.42000001668930054,-1.3800537586212158,3.0000016689300537,-0.19596362113952637,-3.0,0.008164036087691784,0.006555958651006222,0.004835840780287981,0.0029981997795403004,0.11676830798387527,0.057696323841810226,-0.0034837250132113695,-0.06682561337947845
0.08333333333333333,0.038342319428920746,0.03515445068478584,0.0,0.9999768137931824,0.0,0.0,-0.006806876044720411,0.3895305097103119,0.8015735149383545,0.0,0.0,0.0,-2.4706809520721436,-0.42164334654808044,0.7542219161987305,0.4200000464916229,1.0,3.6972376165067544e-06,-2.188903863498126e-06,-2.6322030066694424e-07,0.00026389601407572627,0.0002658639568835497,-0.00010434049181640148,-0.0017081866972148418,0.004150202497839928,-0.00012991315452381968,-0.12680774927139282,0.13252578675746918,1.2835232019424438,-1.8357398509979248,2.718179225921631,-1.1529569625854492,0.4497297406196594,0.7531132102012634,0.42000001668930054,-1.3300261497497559,2.999999761581421,-0.17738498747348785,3.000000238418579,0.005932948552072048,0.003401490394026041,0.0007115535554476082,-0.002144796308130026,-0.2595197558403015,-0.32188212871551514,-0.38672637939453125,-0.4542359411716461
0.1,0.04805386811494827,0.04972102865576744,0.0,0.9988246560096741,0.0,0.0,-0.048469819128513336,0.7316950559616089,0.8926281332969666,0.0,0.0,0.0,-5.80699348449707,-0.42164334654808044,0.7542219161987305,0.4200000464916229,0.9999999403953552,3.6203459785610903e-06,-2.2651347535429522e-06,1.7462500068177178e-07,0.000266767485300079,0.0002674072457011789,-0.0001040799543261528,-0.0017386269755661488,0.0042091254144907,-0.0001277512201340869,-0.15488751232624054,0.18014276027679443,1.264947772026062,-1.6045622825622559,2.957291603088379,-1.0994421243667603,0.4497297406196594,0.7531132102012634,0.42000001668930054,-1.2800343036651611,2.9999992847442627,-0.20901791751384735,-2.999999761581421,0.002039998769760132,-0.001777593744918704,-0.005782024003565311,-0.009982073679566383,-0.19478477537631989,-0.2842687964439392,-0.37447240948677063,-0.4653466045856476
0.11666666666666667,0.05658545717597008,0.06603393703699112,0.0,0.9974899291992188,0.0,0.0,-0.07080818712711334,0.5069550275802612,1.0110938549041748,0.0,0.0,0.0,-1.4376037120819092,-0.42164334654808044,0.7542219161987305,0.4200000464916229,1.0,3.7984141272318084e-06,-2.2627370981354034e-06,-1.5020638954865717e-07,0.00026374036679044366,0.0002656599972397089,-0.00010428996756672859,-0.0017054114723578095,0.004147567320615053,-0.00012979685561731458,-0.18739306926727295,0.22605390846729279,1.2463586330413818,-2.0176610946655273,2.883362293243408,-1.0962246656417847,0.4497297406196594,0.7531132102012634,0.42000001668930054,-1.2300150394439697,2.9999887943267822,-0.17906996607780457,2.999999761581421,-0.0024662872310727835,-0.007804040797054768,-0.013316359370946884,-0.019010968506336212,-0.17501524090766907,-0.28506264090538025,-0.39224815368652344,-0.4963623583316803
0.13333333333333333,0.062413278967142105,0.08239021897315979,0.0,0.9946439862251282,0.0,0.0,-0.10336002707481384,0.2922895550727844,0.9721611738204956,0.0,0.0,0.0,-4.7473626136779785,-0.42164334654808044,0.7542219758033752,0.4200000464916229,0.9999999403953552,3.550497694959631e-06,-2.2297181203612126e-06,2.9291419423316256e-07,0.0002670333778951317,0.00026779333711601794,-0.00010416889563202858,-0.0017439303919672966,0.004213552922010422,-0.0001280046853935346,-0.21770185232162476,0.2777005732059479,1.2284826040267944,-1.6202661991119385,3.3682944774627686,-1.1072943210601807,0.4497297406196594,0.7531132102012634,0.42000001668930054,-1.1800395250320435,2.994912624359131,-0.21067854762077332,-2.999999761581421,-0.006381205283105373,-0.013697871938347816,-0.021121637895703316,-0.028656380251049995,-0.30519819259643555,-0.4216373562812805,-0.5336977243423462,-0.6411609649658203
0.15,0.064726822078228,0.10059991478919983,0.0,0.9868665337562561,0.0,0.0,-0.16153782606124878,0.07862617820501328,1.1448770761489868,0.0,0.0,0.0,-7.950995922088623,-0.42164331674575806,0.7542219161987305,0.4200000464916229,1.0,3.332216692797374e-06,-2.1019013729528524e-06,1.313122055535132e-07,0.0002673068374861032,0.00026859444915317,-0.00010459451004862785,-0.0017497956287115812,0.004215684719383717,-0.00012927704665344208,-0.2480863630771637,0.33615195751190186,1.2052645683288574,-1.880450963973999,3.7147669792175293,-1.7023205757141113,0.4497297406196594,0.7531132102012634,0.42000001668930054,-1.1526005268096924,0.49092280864715576,-0.19854836165905,2.999999523162842,-0.01269201934337616,-0.02165541611611843,-0.03063949942588806,-0.03964567929506302,-0.43860068917274475,-0.514249324798584,-0.5848296284675598,-0.6503012776374817
0.16666666666666666,0.07272688299417496,0.1148468405008316,0.0,0.9792630672454834,0.0,0.0,-0.20259270071983337,0.6092612743377686,0.7478380799293518,0.0,0.0,0.0,-4.037857532501221,-0.42164334654808044,0.7542219161987305,0.4200000464916229,1.0,3.7372994938777993e-06,-2.233063014500658e-06,-1.8764163201012707e-07,0.00026432870072312653,0.0002662685001268983,-0.00010446133092045784,-0.0017119026742875576,0.004157518967986107,-0.00013001746265217662,-0.2849046587944031,0.396836519241333,1.1729676723480225,-2.1172502040863037,3.9374523162841797,-2.2368030548095703,0.4497297406196594,0.7531132102012634,0.42000001668930054,-1.1128422021865845,3.000000238418579,-0.22997921705245972,-3.0000007152557373,-0.015893032774329185,-0.02622026577591896,-0.03647102043032646,-0.04664662852883339,-0.18300668895244598,-0.24782970547676086,-0.3076653778553009,-0.362620085477829
0.18333333333333332,0.07717712223529816,0.12589916586875916,0.0,0.975508987903595,0.0,0.0,-0.21995969116687775,0.1632741391658783,0.6005184054374695,0.0,0.0,0.0,-1.2623674869537354,-0.42164334654808044,0.7542219758033752,0.4200000464916229,0.9999999403953552,3.6603269109036773e-06,-2.3022055302135414e-06,2.5285271476604976e-07,0.00026690986123867333,0.0002676024450920522,-0.00010412652045488358,-0.0017412863671779633,0.004211564548313618,-0.0001278719719266519,-0.3213820457458496,0.4606246054172516,1.1268792152404785,-2.021846294403076,3.962268114089966,-3.1654014587402344,0.4497297406196594,0.7531132102012634,0.42000001668930054,-1.0694080591201782,2.2410049438476562,-0.279990017414093,-3.000000476837158,-0.02652512677013874,-0.0366922989487648,-0.046761538833379745,-0.056744534522295,-0.7719942927360535,-0.7356939911842346,-0.6992372870445251,-0.6633799076080322
0.2,0.0759107694029808,0.140083909034729,0.0,0.9677113890647888,0.0,0.0,-0.2520608901977539,-0.08226855844259262,0.7493260502815247,0.0,0.0,0.0,-4.713757514953613,-0.42164334654808044,0.7542219161987305,0.4200000464916229,1.0,3.59091814061685e-06,-2.3004013200988993e-06,1.3872175941287423e-07,0.00026654574321582913,0.000267320079728961,-0.0001042394433170557,-0.0017326025990769267,0.004203422926366329,-0.0001282018783967942,-0.3522447347640991,0.5283534526824951,1.0654301643371582,-1.781435251235962,4.136314392089844,-3.9803028106689453,0.4497297406196594,0.7531132102012634,0.42000001668930054,-1.0207113027572632,3.0000009536743164,-0.33001628518104553,-3.0000009536743164,-0.04205638915300369,-0.05200484022498131,-0.06158309802412987,-0.07101958245038986,-0.6584598422050476,-0.7074563503265381,-0.7520994544029236,-0.7888237833976746
0.21666666666666667,0.07963745296001434,0.15354155004024506,0.0,0.9633668065071106,0.0,0.0,-0.26818719506263733,0.3265548348426819,0.8336555361747742,0.0,0.0,0.0,-0.7428739070892334,-0.42164334654808044,0.7542219758033752,0.4200000464916229,1.0,3.607027110774652e-06,-2.2609576717513846e-06,1.960636986098052e-08,0.0002644723863340914,0.00026558543322607875,-0.00010396563448011875,-0.001708892290480435,0.004164312966167927,-0.0001283241290366277,-0.3836090564727783,0.5926519632339478,0.9914634227752686,-1.685754656791687,3.7351720333099365,-4.846771240234375,0.4497297406196594,0.7531132102012634,0.42000001668930054,-0.9707539081573486,2.9829928874969482,-0.38004186749458313,-3.0,-0.05158676207065582,-0.06191347911953926,-0.07182849943637848,-0.0815071314573288,-0.5792911648750305,-0.5749996900558472,-0.5701124668121338,-0.5617159008979797
0.23333333333333334,0.08013375103473663,0.1643579751253128,0.0,0.9552919268608093,0.0,0.0,-0.2956642508506775,-0.03957521542906761,0.6139902472496033,0.0,0.0,0.0,-4.123509883880615,-0.42164331674575806,0.7542219161987305,0.4200000464916229,0.9999999403953552,3.7423217236209894e-06,-2.2274525690590963e-06,4.588922308812471e-07,0.0002647516375873238,0.00026671364321373403,-0.0001045342069119215,-0.0017189101781696081,0.004165767692029476,-0.00013019373000133783,-0.4090448319911957,0.6513195633888245,0.9043723344802856,-1.2248358726501465,3.3498501777648926,-5.515162467956543,0.4497297406196594,0.7531132102012634,0.42000001668930054,-0.9207450747489929,2.9999990463256836,-0.4300701916217804,-2.9999990463256836,-0.06551457196474075,-0.07546672970056534,-0.08496825397014618,-0.09421582520008087,-0.8015660643577576,-0.8274352550506592,-0.8532871007919312,-0.8706486225128174
0.25,0.08140189200639725,0.17472466826438904,0.0,0.9525765180587769,0.0,0.0,-0.30429917573928833,0.13782179355621338,0.649020254611969,0.0,0.0,0.0,-0.07726099342107773,-0.42164334654808044,0.7542219161987305,0.4200000464916229,1.0,3.39448661179631e-06,-2.2819845071353484e-06,1.3360543960061477e-07,0.00026679469738155603,0.0002679398749023676,-0.0001043959055095911,-0.0017417483031749725,0.004206670913845301,-0.0001288425992242992,-0.4294240474700928,0.6965351104736328,0.8064643144607544,-1.011391043663025,2.2588281631469727,-6.153072357177734,0.4497297406196594,0.7531132102012634,0.42000001668930054,-0.8707354068756104,2.999998092651367,-0.4801004230976105,-3.0000009536743164,-0.08170998841524124,-0.09142418205738068,-0.10068453848361969,-0.10966113954782486,-0.9811516404151917,-0.9675819873809814,-0.9552784562110901,-0.942427396774292
0.26666666666666666,0.08110785484313965,0.18235862255096436,0.0,0.9455550909042358,0.0,0.0,-0.32546210289001465,-0.07363232225179672,0.3899151682853699,0.0,0.0,0.0,-3.528860092163086,-0.42164334654808044,0.7542219758033752,0.4200000464916229,1.0,3.683507657115115e-06,-2.3100117232388584e-06,2.1007953421303682e-07,0.0002647930814418942,0.0002662573242560029,-0.00010421173647046089,-0.0017168023623526096,0.004168960731476545,-0.00012909334327559918,-0.4419791102409363,0.7289432287216187,0.6985167860984802,-0.4419497847557068,1.579215168952942,-6.624720573425293,0.4497297406196594,0.7531132102012634,0.42000001668930054,-0.8207258582115173,2.9999985694885254,-0.5301315784454346,-2.999999761581421,-0.09810379892587662,-0.10776636004447937,-0.11700276285409927,-0.12596216797828674,-0.9938053488731384,-0.9949614405632019,-0.9958500862121582,-0.9956431984901428
0.2833333333333333,0.07772503793239594,0.18593859672546387,0.0,0.9444262385368347,0.0,0.0,-0.32872340083122253,-0.2421218752861023,0.15021675825119019,0.0,0.0,0.0,0.525327205657959,-0.42164334654808044,0.7542219161987305,0.4200000464916229,1.0,3.307009365016711e-06,-2.2123917915450875e-06,2.6254483032062126e-07,0.00026660889852792025,0.00026745148352347314,-0.00010424572974443436,-0.0017353077419102192,0.004204495809972286,-0.0001282844168599695,-0.4467897117137909,0.7451766729354858,0.5886059999465942,-0.0004548802971839905,0.4353359043598175,-6.537347316741943,0.4497297406196594,0.7531132102012634,0.42000001668930054,-0.7707170248031616,2.999995708465576,-0.5801613330841064,-2.999998092651367,-0.11506525427103043,-0.12463027238845825,-0.1337977945804596,-0.14270725846290588,-0.9980784058570862,-0.998276948928833,-0.9984622001647949,-0.998630702495575
0.3,0.0715315043926239,0.1864275485277176,0.0,0.9390047788619995,0.0,0.0,-0.3439041078090668,-0.42031916975975037,-0.01388620212674141,0.0,0.0,0.0,-2.7820041179656982,-0.42164334654808044,0.7542219161987305,0.4200000464916229,1.0,3.6413346151675796e-06,-2.3777658952894853e-06,-4.194106395516428e-07,0.0002661141334101558,0.00026725803036242723,-0.00010423245839774609,-0.0017334752483293414,0.0041945013217628,-0.00012854678789153695,-0.44066065549850464,0.7510250806808472,0.4818305969238281,0.7771049737930298,0.1962870955467224,-6.113950729370117,0.4497297406196594,0.7531132102012634,0.42000001668930054,-0.7207082509994507,3.0,-0.6301900744438171,-3.000000476837158,-0.13264484703540802,-0.14200565218925476,-0.15101821720600128,-0.15980438888072968,-1.0132412910461426,-1.010014295578003,-1.0075522661209106,-1.0055809020996094
0.31666666666666665,0.06315579265356064,0.18447798490524292,0.0,0.9395087361335754,0.0,0.0,-0.3425249457359314,-0.5389419198036194,-0.15899918973445892,0.0,0.0,0.0,1.076537847518921,-0.4213831126689911,0.7536128163337708,0.420367568731308,0.9999640583992004,0.002036308404058218,0.005479376297444105,-0.006133413873612881,0.46468234062194824,-0.10418543964624405,-0.2262926995754242,-7.600698947906494,0.47767165303230286,-22.718278884887695,-0.4342329800128937,0.7541831135749817,0.4305216670036316,0.14773976802825928,-0.07529671490192413,-0.253805547952652,0.4497297406196594,0.7531132102012634,0.42000001668930054,-0.6707032322883606,3.0000104904174805,-0.6805849075317383,-2.9803738594055176,-0.14383049309253693,-0.15358152985572815,-0.1628233641386032,-0.17161427438259125,-0.2514856457710266,-0.3118695914745331,-0.352591872215271,-0.3667481541633606
0.3333333333333333,0.05249879136681557,0.17999880015850067,0.0,0.9349982142448425,0.0,0.0,-0.354652464389801,-0.6913509368896484,-0.3159925639629364,0.0,0.0,0.0,-2.3623111248016357,-0.4154772460460663,0.7515824437141418,0.4200000464916229,0.9941641688346863,2.6349937343184138e-06,-1.139099481406447e-06,-0.10787744075059891,0.33123862743377686,-0.12325983494520187,-3.321561962366104e-06,0.00011538087710505351,4.318552964832634e-05,-10.40720272064209,-0.43337544798851013,0.7579249739646912,0.42790526151657104,0.16745522618293762,0.2458501160144806,-0.20178157091140747,0.4497297406196594,0.7531132102012634,0.42000001668930054,-0.6206967830657959,2.999985933303833,-0.730670690536499,-2.9998857975006104,-0.14846409857273102,-0.1586875021457672,-0.16802963614463806,-0.1764521449804306,-0.33961111307144165,-0.3304601013660431,-0.3006908595561981,-0.24574007093906403
0.35,0.03992154076695442,0.1730097234249115,0.0,0.9365020990371704,0.0,0.0,-0.3506620228290558,-0.8138010501861572,-0.4600064754486084,0.0,0.0,0.0,1.4306834936141968,-0.4101754426956177,0.7539514899253845,0.41999977827072144,0.9879242181777954,-4.6204142563510686e-05,6.591781857423484e-05,-0.15493778884410858,0.3748794496059418,0.45735105872154236,-0.0015627914108335972,0.09343072772026062,-0.05579560250043869,-2.4647250175476074,-0.42797189950942993,0.7637591361999512,0.4245169162750244,0.4487810432910919,0.4354061782360077,-0.1811905801296234,0.4497297406196594,0.7531132102012634,0.42000001668930054,-0.570691704750061,2.999967575073242,-0.7807080745697021,-2.9999735355377197,-0.15625514090061188,-0.16532081365585327,-0.1731773316860199,-0.17974305152893066,-0.48316484689712524,-0.38485631346702576,-0.2674877345561981,-0.1294812560081482
0.36666666666666664,0.03070138394832611,0.1631123125553131,0.0,0.9327916502952576,0.0,0.0,-0.3604159951210022,-0.4717828035354614,-0.6418269276618958,0.0,0.0,0.0,-2.1050853729248047,-0.4034162759780884,0.762180507183075,0.42000457644462585,0.9856950640678406,5.106425305712037e-05,0.0001381428010063246,-0.16853852570056915,0.521770179271698,0.5995162129402161,-0.003967562690377235,-0.042359452694654465,-0.19130928814411163,-2.08473801612854,-0.4195050597190857,0.771049439907074,0.4221596121788025,0.6325826644897461,0.5268914103507996,-0.12129461765289307,0.4497297406196594,0.7531132102012634,0.42000001668930054,-0.5206868648529053,3.000002145767212,-0.8307615518569946,-2.999999523162842,-0.16431275010108948,-0.17133481800556183,-0.1768173724412918,-0.18067224323749542,-0.46729663014411926,-0.3268582224845886,-0.16833899915218353,0.007840292528271675
0.3833333333333333,0.018726516515016556,0.15152810513973236,0.0,0.9177908897399902,0.0,0.0,-0.39706405997276306,-0.8098464608192444,-0.7198904156684875,0.0,0.0,0.0,-5.672806739807129,-0.39117956161499023,0.7757629752159119,0.4200194180011749,0.9816586971282959,0.0004705093160737306,-0.00023965594300534576,-0.1906457543373108,0.9814779758453369,1.0592831373214722,0.01913616433739662,0.48228752613067627,-0.5281757712364197,-3.968879461288452,-0.40574169158935547,0.7831988334655762,0.42138832807540894,1.0426058769226074,1.0029308795928955,0.012892469763755798,0.4497297406196594,0.7531132102012634,0.42000001668930054,-0.4706825911998749,2.9999327659606934,-0.8808115720748901,-2.9999959468841553,-0.17467842996120453,-0.1786600798368454,-0.1808062642812729,-0.18106311559677124,-0.6155813932418823,-0.4239337742328644,-0.21469299495220184,0.009428945370018482
0.4,0.00988431740552187,0.1368502378463745,0.0,0.8890008926391602,0.0,0.0,-0.45790550112724304,-0.5017762184143066,-0.9243870377540588,0.0,0.0,0.0,-8.81659984588623,-0.3654390573501587,0.7999355792999268,0.42145779728889465,0.9701893329620361,-0.011548487469553947,-0.0013778692809864879,-0.24206896126270294,3.357273578643799,1.4058473110198975,0.6453302502632141,0.055306751281023026,-22.642581939697266,5.923659801483154,-0.37880903482437134,0.8071475028991699,0.4229724109172821,2.3169593811035156,1.8363535404205322,0.13150131702423096,0.4497297406196594,0.7531132102012634,0.42000001668930054,-0.4206792414188385,2.981660842895508,-0.9308509230613708,-2.999804973602295,-0.18361292779445648,-0.1842195987701416,-0.1826700121164322,-0.17897336184978485,-0.6731628775596619,-0.413688063621521,-0.13887156546115875,0.14520831406116486
0.4166666666666667,0.0046261684037745,0.11960504949092865,0.0,0.8454645872116089,0.0,0.0,-0.5340314507484436,-0.24411021173000336,-1.0888569355010986,0.0,0.0,0.0,-11.195592880249023,-0.30456188321113586,0.8355166912078857,0.4262358248233795,0.9559448957443237,0.03331463411450386,-0.03695176914334297,-0.289298951625824,4.936071395874023,2.818431854248047,0.3693302869796753,16.806211471557617,-13.01850700378418,0.21671219170093536,-0.31721335649490356,0.8459056615829468,0.42719894647598267,4.76094388961792,2.721613883972168,0.3973487615585327,0.4497297406196594,0.7531132102012634,0.42000001668930054,-0.37987783551216125,1.437668800354004,-0.8933961391448975,2.9976353645324707,-0.19659921526908875,-0.19222503900527954,-0.1856343150138855,-0.17696912586688995,-0.7738850116729736,-0.4769470691680908,-0.1845369189977646,0.09514237195253372
0.43333333333333335,0.0017430195584893227,0.10805429518222809,0.0,0.7828065156936646,0.0,0.0,-0.6222651600837708,-0.1273333877325058,-0.5535776615142822,0.0,0.0,0.0,-13.850300788879395,-0.20191693305969238,0.8785091638565063,0.4347892999649048,0.9211385250091553,0.09296366572380066,-0.06904951483011246,-0.3716094493865967,7.679328918457031,1.9011385440826416,0.7318173050880432,-0.7976847290992737,-9.083040237426758,25.249860763549805,-0.2135307490825653,0.8898620009422302,0.43582040071487427,7.519129276275635,2.6422934532165527,0.6232590675354004,0.4497297406196594,0.7531132102012634,0.42000001668930054,-0.3690199553966522,0.44917306303977966,-0.8861222863197327,-1.6520105600357056,-0.21265915036201477,-0.20678840577602386,-0.19540543854236603,-0.18089190125465393,-0.9272828102111816,-0.910071074962616,-0.7184015512466431,-0.37268924713134766
0.45,-0.004149031359702349,0.1041552871465683,0.0,0.7252472043037415,0.0,0.0,-0.6884885430335999,-0.4952201247215271,-0.24531376361846924,0.0,0.0,0.0,-9.275275230407715,-0.08131209015846252,0.8996633887290955,0.44579872488975525,0.8756788372993469,0.12512215971946716,-0.08457806706428528,-0.4586693048477173,7.19782829284668,0.10547304898500443,0.6928070783615112,-10.625957489013672,-3.0571887493133545,5.196639537811279,-0.09130527079105377,0.9154857397079468,0.44754087924957275,7.222065448760986,0.8298898935317993,0.8075780868530273,0.4497297406196594,0.7531132102012634,0.42000001668930054,-0.3616878092288971,0.47533851861953735,-0.9349570870399475,-2.999730348587036,-0.22756418585777283,-0.22178488969802856,-0.21054919064044952,-0.1916210800409317,-0.6540253758430481,-0.702730119228363,-0.7552068829536438,-0.6381879448890686
0.4666666666666667,-0.006421768572181463,0.09228747338056564,0.0,0.6890193223953247,0.0,0.0,-0.7247429490089417,-0.021738488227128983,-0.8732190728187561,0.0,0.0,0.0,-5.124448299407959,0.03748884052038193,0.9046564102172852,0.454374760389328,0.8358449339866638,0.11556920409202576,-0.07806510478258133,-0.5309544801712036,7.1774163246154785,-1.184815526008606,0.6393535733222961,13.979650497436523,-7.2389302253723145,29.117403030395508,0.030739430338144302,0.9225510358810425,0.457369863986969,7.342248439788818,-0.2711423635482788,0.4870525896549225,0.4497297406196594,0.7531132102012634,0.42000001668930054,-0.3512728810310364,0.6642569303512573,-0.984981119632721,-3.0000011920928955,-0.23388966917991638,-0.22803102433681488,-0.21686527132987976,-0.1958925873041153,-0.3150137960910797,-0.246100515127182,-0.19207920134067535,-0.05083933100104332
0.48333333333333334,-0.009524893015623093,0.0824870616197586,0.0,0.6774424314498901,0.0,0.0,-0.735575795173645,-0.21341131627559662,-0.4286642074584961,0.0,0.0,0.0,-0.7069281339645386,0.1477760523557663,0.8918060064315796,0.4604848325252533,0.7372493743896484,0.11280911415815353,-0.07469995319843292,-0.661934494972229,5.494517803192139,-2.259594678878784,0.3264284133911133,-0.5589252710342407,-9.61966323852539,33.27870559692383,0.14231669902801514,0.912034273147583,0.46406090259552,6.217171669006348,-1.0508251190185547,0.3303595781326294,0.4497297406196594,0.7531132102012634,0.42000001668930054,-0.34015485644340515,0.45941996574401855,-1.0350043773651123,-3.0,-0.23999664187431335,-0.23407138884067535,-0.22144536674022675,-0.19829711318016052,-0.005808507092297077,-0.478350967168808,-0.3783041834831238,-0.26969531178474426
0.5,-0.010475465096533298,0.07873644679784775,0.0,0.6593847870826721,0.0,0.0,-0.7518056035041809,0.00045695362496189773,-0.15296867489814758,0.0,0.0,0.0,-3.780876636505127,0.2389071136713028,0.8654723167419434,0.45884573459625244,0.6245378851890564,0.09589911252260208,-0.12337508052587509,-0.7652021050453186,4.387950420379639,-2.876737117767334,-0.3777945339679718,-29.97638511657715,22.132051467895508,13.47909927368164,0.23329848051071167,0.8891376852989197,0.46424731612205505,5.258399486541748,-1.832836389541626,-0.10482533276081085,0.4497297406196594,0.7531132102012634,0.42000001668930054,-0.3342367112636566,0.07794474065303802,-1.0850263833999634,-2.994281530380249,-0.24001725018024445,-0.2400108426809311,-0.22676381468772888,-0.20221050083637238,-0.046603355556726456,-0.03584960103034973,-0.27463775873184204,-0.19794701039791107
0.5166666666666666,-0.008481364697217941,0.07866710424423218,0.0,0.6554881930351257,0.0,0.0,-0.7552054524421692,0.15550634264945984,0.04943414404988289,0.0,0.0,0.0,0.2735185921192169,0.31157034635543823,0.8312672972679138,0.45121023058891296,0.558239221572876,0.06433622539043427,-0.10923946648836136,-0.8199368715286255,4.127283096313477,-2.6383020877838135,-0.4235943555831909,-13.342316627502441,22.161888122558594,22.47509765625,0.3099867105484009,0.8552075028419495,0.45725691318511963,3.932915210723877,-2.205996036529541,-0.5975701212882996,0.4497297406196594,0.7531132102012634,0.42000001668930054,-0.33833062648773193,-0.42164114117622375,-1.135048508644104,-3.0000009536743164,-0.2399323433637619,-0.23975832760334015,-0.2302905023097992,-0.20519289374351501,0.02309407666325569,0.06752055138349533,-0.1048840805888176,-0.11814204603433609
0.5333333333333333,-0.003532438538968563,0.0736328586935997,0.0,0.6404334306716919,0.0,0.0,-0.7680137157440186,0.2976391315460205,-0.2953408658504486,0.0,0.0,0.0,-3.167100191116333,0.3708961308002472,0.7976993918418884,0.43689876794815063,0.5012403130531311,0.03696679696440697,-0.09669063240289688,-0.859093964099884,3.1679575443267822,-2.548557758331299,-0.7603353261947632,-11.404967308044434,20.281780242919922,19.987590789794922,0.3706452548503876,0.8213698863983154,0.4431338906288147,3.036663055419922,-2.0247387886047363,-1.0104154348373413,0.4497297406196594,0.7531132102012634,0.42000001668930054,-0.3489702343940735,-0.6937755942344666,-1.1850706338882446,-3.000000476837158,-0.2334154099225998,-0.23352760076522827,-0.22760842740535736,-0.20430482923984528,0.28562426567077637,0.31081369519233704,0.15060529112815857,0.03527388349175453
0.55,0.003186705755069852,0.07359354197978973,0.0,0.638996958732605,0.0,0.0,-0.7692092657089233,0.4540450870990753,-0.005460954271256924,0.0,0.0,0.0,0.6143589615821838,0.41322705149650574,0.7663958668708801,0.4210054874420166,0.45833051204681396,0.006032813340425491,-0.015409120358526707,-0.8886277675628662,1.8716017007827759,-1.4867467880249023,-0.3126753270626068,6.882782459259033,10.971518516540527,-6.073596477508545,0.41432780027389526,0.7871503829956055,0.426630437374115,2.0036463737487793,-1.7621285915374756,-0.5667178630828857,0.4497297406196594,0.7531132102012634,0.42000001668930054,-0.3557552695274353,0.04486968740820885,-1.2350927591323853,-2.9999988079071045,-0.2313738316297531,-0.23055748641490936,-0.2265305072069168,-0.2052057683467865,0.2803386449813843,0.2886839210987091,0.1539943665266037,-0.014758467674255371
0.5666666666666667,0.011992940679192543,0.07589421421289444,0.0,0.6262452602386475,0.0,0.0,-0.7796260714530945,0.5654604434967041,0.20900973677635193,0.0,0.0,0.0,-2.9262847900390625,0.43895167112350464,0.7499523162841797,0.4199966788291931,0.45522844791412354,-0.0005953486543148756,0.0005520117119885981,-0.8903742432594299,1.0810768604278564,-0.6666294932365417,-0.03000042960047722,-0.43391117453575134,-0.25831007957458496,4.386800289154053,0.4389546513557434,0.7688232064247131,0.42190611362457275,1.0474371910095215,-0.6429405808448792,0.16806425154209137,0.4497297406196594,0.7531132102012634,0.42000001668930054,-0.342657208442688,1.4084680080413818,-1.2851378917694092,-3.001166343688965,-0.22457607090473175,-0.22458238899707794,-0.2232564240694046,-0.2055152803659439,0.5067876577377319,0.4240657687187195,0.25096333026885986,0.005114412866532803
0.5833333333333334,0.02323712408542633,0.07317978143692017,0.0,0.6260014176368713,0.0,0.0,-0.7798219323158264,0.6590894460678101,-0.1293024867773056,0.0,0.0,0.0,0.8781578540802002,0.4520370066165924,0.7415885329246521,0.42000237107276917,0.47710442543029785,-0.0006004282622598112,0.0010964025277644396,-0.8788456916809082,0.25530585646629333,-0.6710087656974792,-0.02889428474009037,-0.34069857001304626,-3.1531856060028076,6.964184284210205,0.4510873556137085,0.7597617506980896,0.4221082329750061,0.24824801087379456,-0.39049407839775085,0.11602358520030975,0.4497297406196594,0.7531132102012634,0.42000001668930054,-0.3315162658691406,0.008354488760232925,-1.2642126083374023,2.9930169582366943,-0.21185390651226044,-0.21372120082378387,-0.21548442542552948,-0.20236410200595856,0.602664589881897,0.5455104112625122,0.4243116080760956,0.1877366602420807
0.6,0.031011726707220078,0.07456096261739731,0.0,0.6144081354141235,0.0,0.0,-0.7889883518218994,0.43173134326934814,0.10127606242895126,0.0,0.0,0.0,-2.605111598968506,0.4556736350059509,0.7355481386184692,0.4200027287006378,0.520370602607727,-4.2735497117973864e-05,4.213513875583885e-06,-0.853940486907959,0.08430905640125275,-0.458101361989975,-0.0006730612367391586,0.0068342736922204494,-0.011959424242377281,4.752626895904541,0.4535914957523346,0.7563148736953735,0.42400139570236206,0.0645478218793869,-0.12511950731277466,0.2122257500886917,0.4497297406196594,0.7531132102012634,0.42000001668930054,-0.36392784118652344,-2.9996111392974854,-1.284488320350647,-3.0001490116119385,-0.20169538259506226,-0.20479600131511688,-0.20858946442604065,-0.1995585709810257,0.6254239082336426,0.5378051400184631,0.4170037806034088,0.16763928532600403
0.6166666666666667,0.040046073496341705,0.07887700200080872,0.0,0.6161686778068542,0.0,0.0,-0.7876142263412476,0.5534866452217102,0.3008795380592346,0.0,0.0,0.0,1.1744273900985718,0.45728397369384766,0.732469916343689,0.4209839105606079,0.5399550199508667,-0.01785925030708313,0.0003563741047400981,-0.8415042757987976,0.09903845936059952,0.05329377204179764,0.13478003442287445,-3.0029656887054443,4.032331466674805,1.8977688550949097,0.4549010097980499,0.7558435201644897,0.4270933270454407,0.13950033485889435,0.11042123287916183,0.17968174815177917,0.4497297406196594,0.7531132102012634,0.42000001668930054,-0.39259013533592224,-0.6360527276992798,-1.33445405960083,-2.9986507892608643,-0.19265872240066528,-0.19715161621570587,-0.20266760885715485,-0.1975298672914505,0.5887101292610168,0.48975637555122375,0.38181716203689575,0.1443323940038681
0.6333333333333333,0.05041665956377983,0.0798695757985115,0.0,0.6061444282531738,0.0,0.0,-0.7953545451164246,0.657107949256897,0.04012912139296532,0.0,0.0,0.0,-2.4719626903533936,0.45766374468803406,0.735516369342804,0.4212091267108917,0.5667577385902405,-0.023345597088336945,-0.006243657786399126,-0.8235298991203308,-0.12017305195331573,0.23825156688690186,-0.008355177938938141,-0.8165829181671143,-0.6442537307739258,4.225588798522949,0.4532436430454254,0.7606387138366699,0.42663705348968506,-0.3178498148918152,0.3180094361305237,-0.03378720209002495,0.4497297406196594,0.7531132102012634,0.42000001668930054,-0.4292747974395752,-2.9998395442962646,-1.2965058088302612,2.99973201751709,-0.18114326894283295,-0.18752466142177582,-0.19495142996311188,-0.1938444972038269,0.5562254786491394,0.47979944944381714,0.4050831198692322,0.20165859162807465
0.65,0.06313540041446686,0.08399264514446259,0.0,0.6087782382965088,0.0,0.0,-0.7933404445648193,0.78214430809021,0.27967125177383423,0.0,0.0,0.0,1.319806456565857,0.45564600825309753,0.7391762733459473,0.42015472054481506,0.5901404619216919,-0.002821592381224036,-0.0023133729118853807,-0.8072922825813293,-0.12338226288557053,0.2155250459909439,-0.07039788365364075,3.457521438598633,-1.2028887271881104,3.179661512374878,0.4497538208961487,0.7668091058731079,0.42829370498657227,-0.15754833817481995,0.5044324994087219,0.15135639905929565,0.4497297406196594,0.7531132102012634,0.42000001668930054,-0.47931087017059326,-2.9999663829803467,-1.3161919116973877,-2.999910354614258,-0.17464996874332428,-0.18214108049869537,-0.19056124985218048,-0.1925061196088791,0.38665783405303955,0.3042610287666321,0.23324623703956604,0.045771338045597076
0.6666666666666666,0.07262372225522995,0.0837942361831665,0.0,0.6342146992683411,0.0,0.0,-0.7731569409370422,0.4937133193016052,-0.05783514678478241,0.0,0.0,0.0,4.5879316329956055,0.4536024332046509,0.7420236468315125,0.4201836884021759,0.6055918335914612,0.0027307653799653053,-0.0036967035848647356,-0.7957621216773987,-0.18036147952079773,0.2035243958234787,0.04248581826686859,-0.6070630550384521,-2.0356173515319824,2.5241036415100098,0.4480249881744385,0.7740576863288879,0.43129462003707886,-0.13789013028144836,0.35541993379592896,0.22592876851558685,0.4497297406196594,0.7531132102012634,0.42000001668930054,-0.5293431282043457,-2.9999992847442627,-1.3661572933197021,-2.998671054840088,-0.16779595613479614,-0.1760420799255371,-0.18491992354393005,-0.18908929824829102,0.2850405275821686,0.29226526618003845,0.32077592611312866,0.2510421872138977
0.6833333333333333,0.08212517946958542,0.08033226430416107,0.0,0.6441314220428467,0.0,0.0,-0.7649148106575012,0.6020976901054382,-0.2550401985645294,0.0,0.0,0.0,0.51527339220047,0.4509703814983368,0.7450014352798462,0.4200001358985901,0.619593620300293,5.959261397947557e-05,-2.0128914911765605e-05,-0.7849226593971252,-0.1404557228088379,0.15997982025146484,-0.000719864503480494,0.03658827394247055,0.03286881744861603,1.8345189094543457,0.4484637975692749,0.7805527448654175,0.43588221073150635,0.14777447283267975,0.3661022186279297,0.30309975147247314,0.4497297406196594,0.7531132102012634,0.42000001668930054,-0.5793489217758179,-2.9997315406799316,-1.416157841682434,-2.999912977218628,-0.1643618643283844,-0.17189058661460876,-0.1795623004436493,-0.18390943109989166,0.16219639778137207,0.2342546284198761,0.340249627828598,0.37543436884880066
0.7,0.09333158284425735,0.07393845170736313,0.0,0.6307603120803833,0.0,0.0,-0.7759777307510376,0.7051796317100525,-0.4395081102848053,0.0,0.0,0.0,-3.0050792694091797,0.4493020474910736,0.7468978762626648,0.4200000464916229,0.6271892786026001,5.95162816807715e-07,-3.598394755499612e-07,-0.7788668870925903,-0.08671634644269943,0.09846008569002151,-3.3976975828409195e-06,0.00020584490266628563,1.1265724424447399e-06,0.9630879759788513,0.45457708835601807,0.7879995703697205,0.44770750403404236,0.5832966566085815,0.4765690565109253,1.2073032855987549,0.4497297406196594,0.7531132102012634,0.42000001668930054,-0.6293596029281616,-2.999966859817505,-1.4661762714385986,-2.9999992847442627,-0.16419540345668793,-0.17020593583583832,-0.17578725516796112,-0.1790645569562912,-0.08006705343723297,0.02408929355442524,0.1619787961244583,0.24700994789600372
0.7166666666666667,0.10889950394630432,0.07338862866163254,0.0,0.5947491526603699,0.0,0.0,-0.8039113283157349,1.0207217931747437,0.10564687848091125,0.0,0.0,0.0,-6.688937187194824,0.4485211670398712,0.7477829456329346,0.4200000464916229,0.6300220489501953,1.669903184620125e-07,-4.2814630774046236e-07,-0.7765771746635437,-0.03294363617897034,0.037232331931591034,-3.989000106230378e-06,0.00011547231406439096,0.00011351920693414286,0.27921196818351746,0.47212040424346924,0.7888611555099487,0.4735601544380188,1.7177977561950684,-0.3890536427497864,1.9981989860534668,0.4497297406196594,0.7531132102012634,0.42000001668930054,-0.6793645620346069,-2.999340534210205,-1.5161945819854736,-2.9999208450317383,-0.17443585395812988,-0.176955446600914,-0.17859919369220734,-0.1788165122270584,-0.8263072371482849,-0.5679224133491516,-0.28632310032844543,-0.052941031754016876
0.7333333333333333,0.12105943262577057,0.0771714448928833,0.0,0.5707029104232788,0.0,0.0,-0.8211566209793091,0.5765318274497986,0.019272513687610626,0.0,0.0,0.0,-2.2678756713867188,0.44845765829086304,0.7478532791137695,0.4200000762939453,0.630176842212677,4.659045771404635e-06,-1.345833243249217e-05,-0.776451587677002,0.0013331696391105652,-0.0010385807836428285,-0.00048593152314424515,0.016420012339949608,0.006779168266803026,-0.003419257467612624,0.49671870470046997,0.7853845357894897,0.5051333904266357,1.4003793001174927,0.02278689108788967,1.7641066312789917,0.4497297406196594,0.7531132102012634,0.42000001668930054,-0.6949706077575684,0.7858044505119324,-1.566212773323059,-3.0,-0.1852692812681198,-0.18432430922985077,-0.1821933090686798,-0.17932991683483124,-0.16870594024658203,-0.08914326876401901,0.013837057165801525,0.0913957953453064
0.75,0.12691208720207214,0.07890317589044571,0.0,0.5745179057121277,0.0,0.0,-0.8184919953346252,0.27719324827194214,0.15506808459758759,0.0,0.0,0.0,1.4102505445480347,0.44845882058143616,0.7478527426719666,0.4200000464916229,0.6301759481430054,4.4098774765188864e-07,-3.4019021768472157e-06,-0.7764522433280945,0.00017585710156708956,-0.00028672569897025824,-0.00010001147165894508,0.005891797132790089,-0.0005498362006619573,-0.0005170462536625564,0.5170613527297974,0.7884712219238281,0.5294609665870667,0.9178214073181152,0.26694637537002563,1.2427058219909668,0.4497297406196594,0.7531132102012634,0.42000001668930054,-0.6585478782653809,3.0000007152557373,-1.6162272691726685,-3.0,-0.18580082058906555,-0.18399657309055328,-0.1806701421737671,-0.1769408881664276,0.04590475559234619,0.08339996635913849,0.13566316664218903,0.17078661918640137
0.7666666666666666,0.13010287284851074,0.07706283032894135,0.0,0.5993156433105469,0.0,0.0,-0.8005128502845764,0.1577220857143402,-0.193687304854393,0.0,0.0,0.0,4.553738594055176,0.44845882058143616,0.7478527426719666,0.4200000464916229,0.6301760673522949,5.859734528712579e-07,-3.552269390638685e-06,-0.7764522433280945,0.0001836088631534949,-0.0002835435443557799,-0.00010149041190743446,0.005766346585005522,-0.0004340116574894637,-0.0005330591811798513,0.5233509540557861,0.7931869029998779,0.5459030270576477,-0.1477460265159607,0.3566690683364868,0.8328992128372192,0.4497297406196594,0.7531132102012634,0.42000001668930054,-0.6207947731018066,1.6158283948898315,-1.5771762132644653,2.999999523162842,-0.18448160588741302,-0.18193848431110382,-0.1777515709400177,-0.17345364391803741,0.12016963958740234,0.16002990305423737,0.20101530849933624,0.22502774000167847
0.7833333333333333,0.12996535003185272,0.07384266704320908,0.0,0.606840193271637,0.0,0.0,-0.7948238253593445,-0.06793085485696793,-0.26493895053863525,0.0,0.0,0.0,0.022758619859814644,0.44845882058143616,0.7478527426719666,0.4200000464916229,0.6301760077476501,4.095003305337741e-07,-3.49039510183502e-06,-0.7764523029327393,0.00018301878299098462,-0.000283197732642293,-0.00010140775702893734,0.005761021748185158,-0.0004412230628076941,-0.0005317968316376209,0.5180254578590393,0.7978528141975403,0.5563058257102966,-0.42119771242141724,0.2155930995941162,0.5558992028236389,0.4497297406196594,0.7531132102012634,0.42000001668930054,-0.6266462802886963,-1.9974550008773804,-1.527119755744934,3.000000238418579,-0.18567924201488495,-0.18182146549224854,-0.1763322353363037,-0.1709715723991394,-0.052782367914915085,0.02452356368303299,0.10099877417087555,0.16812404990196228
0.8,0.13344667851924896,0.07569517195224762,0.0,0.6258630156517029,0.0,0.0,-0.779932975769043,0.31657978892326355,0.27567988634109497,0.0,0.0,0.0,3.867835521697998,0.44845882058143616,0.7478527426719666,0.4200000464916229,0.6301758885383606,4.095008137028344e-07,-3.7956363030389184e-06,-0.7764523029327393,0.0001827666419558227,-0.00028321403078734875,-0.00010134512558579445,0.0057627055794000626,-0.0004444788792170584,-0.0005312517168931663,0.5134665966033936,0.7982330322265625,0.5657944083213806,-0.13075289130210876,-0.016959689557552338,0.6383386850357056,0.4497297406196594,0.7531132102012634,0.42000001668930054,-0.6336028575897217,0.9144913554191589,-1.5427128076553345,-3.000000238418579,-0.1922539621591568,-0.18587657809257507,-0.17792212963104248,-0.17025166749954224,-0.44763848185539246,-0.28544390201568604,-0.12420614063739777,0.033407289534807205
0.8166666666666667,0.13330402970314026,0.07530321180820465,0.0,0.63173508644104,0.0,0.0,-0.7751843333244324,0.03445865958929062,-0.004953645169734955,0.0,0.0,0.0,-0.06036292016506195,0.44845882058143616,0.7478527426719666,0.4200000464916229,0.6301760673522949,5.934571163379587e-07,-3.6783053474209737e-06,-0.7764521837234497,0.00018397104577161372,-0.00028344435850158334,-0.00010162335820496082,0.005761524196714163,-0.0004302938759792596,-0.0005338227492757142,0.506197452545166,0.7998909950256348,0.5726653337478638,-0.760506272315979,-0.05361999571323395,0.2445148378610611,0.4497297406196594,0.7531132102012634,0.42000001668930054,-0.6474936604499817,-2.2871031761169434,-1.5038644075393677,2.999997854232788,-0.19335219264030457,-0.1855081021785736,-0.17609314620494843,-0.1669250726699829,-0.165584996342659,-0.061588071286678314,0.035790592432022095,0.1314552277326584
0.8333333333333334,0.1357094943523407,0.07246481627225876,0.0,0.6455276012420654,0.0,0.0,-0.76373690366745,0.19529978930950165,-0.2382003217935562,0.0,0.0,0.0,3.1152946949005127,0.44845882058143616,0.7478527426719666,0.4200000464916229,0.6301760077476501,4.386562011404749e-07,-3.82696271117311e-06,-0.7764523029327393,0.000181560346391052,-0.0002824785769917071,-0.00010117515921592712,0.005751472432166338,-0.0004589997697621584,-0.0005287528620101511,0.49575719237327576,0.7982569932937622,0.5800045132637024,-0.5028210878372192,-0.10689070075750351,0.6819831728935242,0.4497297406196594,0.7531132102012634,0.42000001668930054,-0.6611776351928711,0.4213143587112427,-1.5199551582336426,-3.000000238418579,-0.19630371034145355,-0.18667548894882202,-0.17552879452705383,-0.16457605361938477,-0.12498789280653,-0.03091949038207531,0.06346354633569717,0.16616620123386383
0.85,0.14030908048152924,0.06648515164852142,0.0,0.6463057994842529,0.0,0.0,-0.763078510761261,0.31071051955223083,-0.4062773585319519,0.0,0.0,0.0,-0.8371075987815857,0.44845882058143616,0.7478527426719666,0.4200000464916229,0.6301759481430054,5.401261660153978e-07,-3.8017890346964123e-06,-0.7764523029327393,0.0001851681445259601,-0.0002825655392371118,-0.00010202336125075817,0.0057349903509020805,-0.0004125876002945006,-0.0005364016396924853,0.48905616998672485,0.7963544130325317,0.5900074243545532,-0.2824019193649292,-0.20164811611175537,0.6781303882598877,0.4497297406196594,0.7531132102012634,0.42000001668930054,-0.6746088266372681,-1.8255629539489746,-1.481176733970642,2.999999761581421,-0.19822387397289276,-0.18720102310180664,-0.17457503080368042,-0.1619131714105606,-0.060856301337480545,0.013031908310949802,0.09455728530883789,0.19328708946704865
0.8666666666666667,0.14747323095798492,0.06277874112129211,0.0,0.6262275576591492,0.0,0.0,-0.7796403765678406,0.45989254117012024,-0.19747066497802734,0.0,0.0,0.0,-3.8567543029785156,0.44845882058143616,0.7478527426719666,0.4200000464916229,0.6301761269569397,6.198197866069677e-07,-3.683525619635475e-06,-0.7764521837234497,0.00018396033556200564,-0.00028338361880742013,-0.00010162219405174255,0.005760194733738899,-0.00043021931196562946,-0.0005337981274351478,0.48848462104797363,0.7937068939208984,0.6032909154891968,0.22752106189727783,-0.12138254940509796,1.0514535903930664,0.4497297406196594,0.7531132102012634,0.42000001668930054,-0.6810246706008911,0.8316074013710022,-1.4977459907531738,-3.0,-0.19923751056194305,-0.18758806586265564,-0.17413003742694855,-0.16026121377944946,0.09750346094369888,0.08030224591493607,0.08113013952970505,0.11109048873186111
0.8833333333333333,0.15408538281917572,0.06195869669318199,0.0,0.6215381026268005,0.0,0.0,-0.7833839654922485,0.3524242639541626,0.013526690192520618,0.0,0.0,0.0,0.22209656238555908,0.44845882058143616,0.7478527426719666,0.4200000464916229,0.6301760673522949,4.305002505589073e-07,-3.831527010333957e-06,-0.7764523029327393,0.00018155996804125607,-0.000282472581602633,-0.0001011763233691454,0.005751437973231077,-0.00045879825484007597,-0.0005287451785989106,0.49108821153640747,0.7931864261627197,0.6228513717651367,0.06126343086361885,0.05927770957350731,1.3156321048736572,0.4497297406196594,0.7531132102012634,0.42000001668930054,-0.6443787813186646,2.999990940093994,-1.459029197692871,2.999999761581421,-0.19639699161052704,-0.1857316642999649,-0.17305539548397064,-0.1595604568719864,0.24989579617977142,0.15257558226585388,0.06114838644862175,-0.010617293417453766
0.9,0.1567327380180359,0.056379806250333786,0.0,0.6401965618133545,0.0,0.0,-0.7682111859321594,0.16646775603294373,-0.3896738290786743,0.0,0.0,0.0,3.5886166095733643,0.44845885038375854,0.7478527426719666,0.4200000464916229,0.6301758885383606,5.074116415926255e-07,-3.8001937809895026e-06,-0.7764524221420288,0.00018611787527333945,-0.0002829496515914798,-0.00010219449177384377,0.0057390001602470875,-0.00040134304435923696,-0.0005383696989156306,0.48689913749694824,0.7914036512374878,0.6411309242248535,-0.5995407104492188,-0.3295183479785919,0.8676875829696655,0.4497297406196594,0.7531132102012634,0.42000001668930054,-0.6368549466133118,-1.6959284543991089,-1.4089727401733398,3.000000476837158,-0.18796445429325104,-0.17905235290527344,-0.1681196093559265,-0.15612421929836273,0.4201630651950836,0.3548849821090698,0.2818538248538971,0.21411944925785065
