vladlanda/robotic-transformer/data/env_000_episode_0206.csv
sim_time_s,robot_box_x,robot_box_y,robot_box_z,robot_box_quat_w,robot_box_quat_x,robot_box_quat_y,robot_box_quat_z,robot_box_linvel_x,robot_box_linvel_y,robot_box_linvel_z,robot_box_angvel_x,robot_box_angvel_y,robot_box_angvel_z,cube_world_x,cube_world_y,cube_world_z,cube_quat_w,cube_quat_x,cube_quat_y,cube_quat_z,cube_linvel_x,cube_linvel_y,cube_linvel_z,cube_angvel_x,cube_angvel_y,cube_angvel_z,endpoint_world_x,endpoint_world_y,endpoint_world_z,endpoint_linvel_x,endpoint_linvel_y,endpoint_linvel_z,target_cube_world_x,target_cube_world_y,target_cube_world_z,gripper_actual_pos_rad_gp_leftgearjoint,gripper_actual_vel_rad_s_gp_leftgearjoint,gripper_actual_pos_rad_gp_rotatingjoint,gripper_actual_vel_rad_s_gp_rotatingjoint,motor_angle_rad_joint1,motor_angle_rad_joint2,motor_angle_rad_joint3,motor_angle_rad_joint4,motor_speed_rad_s_joint1,motor_speed_rad_s_joint2,motor_speed_rad_s_joint3,motor_speed_rad_s_joint4
0.0,0.0,0.0,0.0,1.0,0.0,0.0,0.0,0.0,0.0,0.0,0.0,0.0,0.0,-0.4294291138648987,0.7630828022956848,0.41999998688697815,1.0,0.0,0.0,0.0,0.0,0.0,0.0,0.0,0.0,0.0,3.42540442943573e-06,-0.005000244826078415,1.313499927520752,0.0,0.0,0.0,0.36670011281967163,0.6745692491531372,0.42000001668930054,-1.5707999467849731,0.0,0.0,0.0,0.0,0.0,0.0,0.0,0.0,0.0,0.0,0.0
0.016666666666666666,0.0028778850100934505,0.0021806680597364902,0.0,0.9998081922531128,0.0,0.0,0.019586581736803055,0.24087215960025787,0.18240931630134583,0.0,0.0,0.0,3.1418697834014893,-0.42942923307418823,0.7630825042724609,0.41999998688697815,1.0,3.279964630564791e-06,-8.339746386809566e-07,8.465587342243452e-08,-1.9833529222523794e-05,0.00017983045836444944,-6.132945418357849e-05,0.0009432713268324733,-0.004689474124461412,-0.00031981561915017664,-0.007110234349966049,0.003379564033821225,1.3159373998641968,-0.8143353462219238,0.9868683815002441,0.18095196783542633,0.36670011281967163,0.6745692491531372,0.42000001668930054,-1.5301095247268677,3.0000011920928955,-0.04584788903594017,-2.9999992847442627,0.0008691533003002405,0.0007963840034790337,0.0007110277656465769,0.0006108740926720202,0.11094217747449875,0.09756709635257721,0.08334315568208694,0.06823883205652237
0.03333333333333333,0.008960990235209465,0.006801999639719725,0.0,0.9997960329055786,0.0,0.0,0.020196840167045593,0.407022088766098,0.3153078556060791,0.0,0.0,0.0,-0.8691327571868896,-0.4294293522834778,0.7630824446678162,0.4200000464916229,1.0,3.3908477234945167e-06,-2.1324151475710096e-06,-3.7116176798690503e-08,0.00026357846218161285,0.0002693776914384216,-0.00010509602725505829,-0.0017706857761368155,0.004130810499191284,-0.0001354778796667233,-0.027554001659154892,0.026238955557346344,1.3165898323059082,-1.5913670063018799,1.616133451461792,-0.08588755875825882,0.36670011281967163,0.6745692491531372,0.42000001668930054,-1.4800903797149658,3.0000009536743164,-0.09588772058486938,-3.000000238418579,0.002990097040310502,0.002652703085914254,0.002277269260957837,0.0018607223173603415,0.16421377658843994,0.13975736498832703,0.1138160228729248,0.08629808574914932
0.05,0.017563804984092712,0.0137325469404459,0.0,0.9994404315948486,0.0,0.0,0.033449508249759674,0.5881957411766052,0.4635518789291382,0.0,0.0,0.0,2.683763265609741,-0.42942938208580017,0.7630825042724609,0.4200000464916229,1.0,3.765178917092271e-06,-2.2119245386420516e-06,5.606314079642516e-09,0.00026530868490226567,0.0002669158566277474,-0.0001044049859046936,-0.0017243095207959414,0.004177443217486143,-0.00012949752272106707,-0.05957221984863281,0.054488178342580795,1.3114690780639648,-2.1858086585998535,1.787947177886963,-0.4863329529762268,0.36670011281967163,0.6745692491531372,0.42000001668930054,-1.4300720691680908,3.0000014305114746,-0.145926371216774,-2.9999988079071045,0.005638061091303825,0.0048496900126338005,0.003989245742559433,0.003052222542464733,0.19126377999782562,0.15438853204250336,0.11564866453409195,0.07495073974132538
0.06666666666666667,0.028790613636374474,0.022999871522188187,0.0,0.9994997978210449,0.0,0.0,0.03162480890750885,0.7150800228118896,0.5937386155128479,0.0,0.0,0.0,-1.177074670791626,-0.42942938208580017,0.7630824446678162,0.4200000464916229,0.9999999403953552,3.406791165616596e-06,-2.2856313535157824e-06,4.300777334265149e-07,0.00026702677132561803,0.00026791825075633824,-0.0001043803058564663,-0.0017406195402145386,0.00421179411932826,-0.00012850826897192746,-0.09482007473707199,0.09010816365480423,1.299867868423462,-2.088888645172119,2.3632404804229736,-0.8791635036468506,0.36670011281967163,0.6745692491531372,0.42000001668930054,-1.3800537586212158,2.999999761581421,-0.19596368074417114,-3.0000016689300537,0.007855098694562912,0.006251197308301926,0.004536167718470097,0.0027045002207159996,0.10921303927898407,0.045078109949827194,-0.021127808839082718,-0.08945885300636292
0.08333333333333333,0.03408104553818703,0.03563128039240837,0.0,0.9999989867210388,0.0,0.0,-0.0014468004228547215,0.18552345037460327,0.8245481848716736,0.0,0.0,0.0,-4.901215076446533,-0.42942938208580017,0.7630824446678162,0.4200000464916229,0.9999999403953552,3.6260698834666982e-06,-2.335327053515357e-06,3.032084521237266e-07,0.00026613925001583993,0.00026685016928240657,-0.00010405108332633972,-0.001728382776491344,0.004196322523057461,-0.00012790641630999744,-0.12727171182632446,0.13346034288406372,1.2819169759750366,-1.8575350046157837,2.7128915786743164,-1.1913763284683228,0.36670011281967163,0.6745692491531372,0.42000001668930054,-1.3300299644470215,2.999995470046997,-0.16220013797283173,3.0,0.003978519234806299,0.001606257283128798,-0.000928842113353312,-0.0036360472440719604,-0.3345603048801422,-0.38585296273231506,-0.4397481679916382,-0.4965001046657562
0.1,0.04397733509540558,0.04983269423246384,0.0,0.9991488456726074,0.0,0.0,-0.04124961793422699,0.7154079079627991,0.8735350966453552,0.0,0.0,0.0,-4.745009899139404,-0.42942938208580017,0.7630824446678162,0.4200000464916229,1.0,3.4221220630570315e-06,-2.308592684130417e-06,1.7961252751774737e-07,0.0002668163215275854,0.00026800521300174296,-0.00010440708138048649,-0.0017430817242711782,0.0042070625349879265,-0.00012890611833427101,-0.15782234072685242,0.17809727787971497,1.2648770809173584,-1.7489173412322998,2.8043711185455322,-0.9785455465316772,0.36670011281967163,0.6745692491531372,0.42000001668930054,-1.2800376415252686,3.0000009536743164,-0.1939142495393753,-2.999999761581421,0.0035996856167912483,-0.00048683726345188916,-0.004731185268610716,-0.009142051450908184,-0.008607947267591953,-0.12116996198892593,-0.23281815648078918,-0.34343695640563965
0.11666666666666667,0.05135057866573334,0.06611628830432892,0.0,0.9984447956085205,0.0,0.0,-0.05574977397918701,0.41228926181793213,1.016028642654419,0.0,0.0,0.0,-0.6317436695098877,-0.42942938208580017,0.7630825042724609,0.4200000464916229,1.0,3.7114953101990977e-06,-2.3327368126047077e-06,2.574126938270638e-07,0.0002648562949616462,0.0002663532504811883,-0.00010423408821225166,-0.0017183172749355435,0.004170157015323639,-0.0001291559310629964,-0.19121196866035461,0.22199398279190063,1.2479174137115479,-1.983474850654602,2.806309700012207,-0.9859590530395508,0.36670011281967163,0.6745692491531372,0.42000001668930054,-1.230017900466919,2.999990701675415,-0.16011780500411987,3.000000476837158,0.0006609128904528916,-0.005182166118174791,-0.011159147135913372,-0.017277255654335022,-0.1280973106622696,-0.24927259981632233,-0.367396742105484,-0.48223963379859924
0.13333333333333333,0.055718716233968735,0.0802064761519432,0.0,0.9966124296188354,0.0,0.0,-0.0822412297129631,0.2087067812681198,0.7738591432571411,0.0,0.0,0.0,-4.016101837158203,-0.42942938208580017,0.7630824446678162,0.4200000464916229,0.9999999403953552,3.4247075291204965e-06,-2.30203545470431e-06,1.5598085667534178e-07,0.0002670704561751336,0.00026811397401615977,-0.00010444503277540207,-0.001743327477015555,0.004212008323520422,-0.00012877430708613247,-0.22090065479278564,0.2735487222671509,1.2303216457366943,-1.6206564903259277,3.3695068359375,-1.1615512371063232,0.36670011281967163,0.6745692491531372,0.42000001668930054,-1.1841297149658203,2.509107828140259,-0.19185839593410492,-3.0,-0.002429872751235962,-0.01034546084702015,-0.018327785655856133,-0.026380186900496483,-0.25763165950775146,-0.3746795654296875,-0.48753613233566284,-0.5960076451301575
0.15,0.05662643536925316,0.09507069736719131,0.0,0.9908356666564941,0.0,0.0,-0.13507306575775146,-0.00714430445805192,0.9412698149681091,0.0,0.0,0.0,-7.205955505371094,-0.42942938208580017,0.7630824446678162,0.4200000464916229,1.0,3.7138861443963833e-06,-2.2079179871070664e-06,-1.691132354153524e-07,0.0002635323617141694,0.00026536022778600454,-0.00010421965271234512,-0.001701295142993331,0.0041441405192017555,-0.00012960679305251688,-0.25077930092811584,0.33294543623924255,1.2059104442596436,-1.850470781326294,3.774380922317505,-1.779808759689331,0.36670011281967163,0.6745692491531372,0.42000001668930054,-1.156450629234314,0.9248953461647034,-0.15811727941036224,2.9999992847442627,-0.008051428943872452,-0.017596496269106865,-0.027127118781208992,-0.03664441034197807,-0.4036939740180969,-0.47650542855262756,-0.5446336269378662,-0.6080607771873474
0.16666666666666666,0.0624326728284359,0.1103285551071167,0.0,0.9853846430778503,0.0,0.0,-0.17034399509429932,0.46760767698287964,0.9091376066207886,0.0,0.0,0.0,-3.3108932971954346,-0.42942938208580017,0.7630824446678162,0.4200000464916229,0.9999999403953552,3.6383873975864844e-06,-2.278850388393039e-06,2.7004381308870506e-07,0.0002668264205567539,0.00026750037795864046,-0.00010410160757601261,-0.001739899511449039,0.004210035782307386,-0.0001278175914194435,-0.2875173091888428,0.3931170105934143,1.171822428703308,-2.169800281524658,3.797605037689209,-2.3203396797180176,0.36670011281967163,0.6745692491531372,0.42000001668930054,-1.116321325302124,3.000000476837158,-0.1898331642150879,-3.0000007152557373,-0.012347957119345665,-0.023006020113825798,-0.03356875106692314,-0.04403996467590332,-0.2706775665283203,-0.31867289543151855,-0.3626357316970825,-0.4028623104095459
0.18333333333333332,0.06509926170110703,0.12218064814805984,0.0,0.9761549830436707,0.0,0.0,-0.21707487106323242,0.09773633629083633,0.6598184704780579,0.0,0.0,0.0,-6.377237319946289,-0.42942938208580017,0.7630824446678162,0.4200000464916229,1.0,3.3864146189444e-06,-2.300287860634853e-06,1.4390711555734015e-07,0.0002667455992195755,0.0002678711898624897,-0.00010436843149363995,-0.0017411891603842378,0.004205980338156223,-0.00012878818961326033,-0.3222925066947937,0.45861056447029114,1.127488613128662,-1.8288427591323853,4.202715873718262,-2.9446706771850586,0.36670011281967163,0.6745692491531372,0.42000001668930054,-1.072195053100586,2.315516471862793,-0.23986195027828217,-3.000000476837158,-0.023015471175312996,-0.03370329737663269,-0.04426885396242142,-0.054725293070077896,-0.7550023198127747,-0.7420231699943542,-0.7279512882232666,-0.7132866382598877
0.2,0.06378745287656784,0.13466227054595947,0.0,0.9701184034347534,0.0,0.0,-0.24263212084770203,-0.1479278951883316,0.7880042791366577,0.0,0.0,0.0,-2.088056802749634,-0.42942938208580017,0.7630825042724609,0.4200000464916229,1.0,3.6755382097908296e-06,-2.32657180276874e-06,2.211032636978416e-07,0.00026484476984478533,0.00026631413493305445,-0.00010421779006719589,-0.0017177412519231439,0.00416988180950284,-0.0001290992076974362,-0.35701996088027954,0.5255216360092163,1.0695881843566895,-1.9223097562789917,4.1231770515441895,-3.94454288482666,0.36670011281967163,0.6745692491531372,0.42000001668930054,-1.0285385847091675,2.841925859451294,-0.28988832235336304,-3.0000007152557373,-0.03737436234951019,-0.04733801260590553,-0.05716373398900032,-0.06687773764133453,-0.9093367457389832,-0.8460626006126404,-0.7823970913887024,-0.7192118763923645
0.21666666666666667,0.06544683128595352,0.14893272519111633,0.0,0.959721565246582,0.0,0.0,-0.28095299005508423,0.10850851982831955,0.8955150842666626,0.0,0.0,0.0,-5.63826322555542,-0.42942938208580017,0.7630824446678162,0.4200000464916229,1.0,3.3222745514649432e-06,-2.208058276664815e-06,2.742532672073139e-07,0.0002666293294169009,0.000267496972810477,-0.0001042631920427084,-0.00173582520801574,0.004204846918582916,-0.0001283418241655454,-0.38841187953948975,0.5939065217971802,0.9979746341705322,-1.6363229751586914,4.081069469451904,-4.642157554626465,0.36670011281967163,0.6745692491531372,0.42000001668930054,-0.9786030054092407,3.000000238418579,-0.3399142026901245,-2.9999990463256836,-0.05203366279602051,-0.061205241829156876,-0.06992249935865402,-0.07854868471622467,-0.9856334328651428,-0.9526593089103699,-0.8637574911117554,-0.7780354619026184
0.23333333333333334,0.0642494261264801,0.16053108870983124,0.0,0.9535277485847473,0.0,0.0,-0.30130523443222046,-0.10773301124572754,0.6251851320266724,0.0,0.0,0.0,-1.4674230813980103,-0.42942938208580017,0.7630824446678162,0.4200000464916229,1.0,3.656448598121642e-06,-2.3734667138342047e-06,-4.076868265201483e-07,0.00026611698558554053,0.00026726056239567697,-0.00010423315688967705,-0.0017334865406155586,0.004194590263068676,-0.00012855575187131763,-0.41597771644592285,0.6536482572555542,0.9119367003440857,-1.3540499210357666,3.3951377868652344,-5.583383560180664,0.36670011281967163,0.6745692491531372,0.42000001668930054,-0.9285961389541626,2.999999761581421,-0.3899425268173218,-2.9999988079071045,-0.0683804303407669,-0.07749464362859726,-0.08610053360462189,-0.09301094710826874,-0.9874311089515686,-0.973953902721405,-0.9577043056488037,-0.8712723851203918
0.25,0.05919001251459122,0.1736900508403778,0.0,0.9431290626525879,0.0,0.0,-0.3324268162250519,-0.37380051612854004,0.8227319717407227,0.0,0.0,0.0,-4.7023606300354,-0.42942938208580017,0.7630825042724609,0.4200000464916229,1.0,3.630453193181893e-06,-2.2426670511777047e-06,1.1200068428252052e-08,0.00026680133305490017,0.0002670591638889164,-0.00010390859097242355,-0.0017341704806312919,0.004210620187222958,-0.0001270287175429985,-0.4360250234603882,0.7048551440238953,0.811751663684845,-0.9571407437324524,2.7866015434265137,-6.281189918518066,0.36670011281967163,0.6745692491531372,0.42000001668930054,-0.8785861730575562,2.999999761581421,-0.4399728775024414,-3.0000014305114746,-0.08457189053297043,-0.09371890872716904,-0.10232527554035187,-0.10925416648387909,-0.9908718466758728,-0.9919626712799072,-0.9827163219451904,-0.975810170173645
0.26666666666666666,0.05871297046542168,0.18196730315685272,0.0,0.9383472204208374,0.0,0.0,-0.3456942141056061,-0.0116046741604805,0.4023192822933197,0.0,0.0,0.0,-0.48801302909851074,-0.4294293522834778,0.7630824446678162,0.4200000464916229,0.9999999403953552,3.7400968722067773e-06,-2.236321961390786e-06,4.4995121584179287e-07,0.00026479564257897437,0.0002667310182005167,-0.0001045397948473692,-0.0017189527861773968,0.0041666654869914055,-0.00013017236778978258,-0.45214539766311646,0.742212176322937,0.7048627138137817,-0.6520574688911438,1.7075164318084717,-6.604362487792969,0.36670011281967163,0.6745692491531372,0.42000001668930054,-0.8285763263702393,2.999997615814209,-0.4900045096874237,-3.0,-0.09906693547964096,-0.10790130496025085,-0.1160610020160675,-0.12247872352600098,-0.9892496466636658,-0.9841505885124207,-0.9797532558441162,-0.9147631525993347
0.2833333333333333,0.054024528712034225,0.18703560531139374,0.0,0.9292472004890442,0.0,0.0,-0.3694586157798767,-0.37903326749801636,0.2700832486152649,0.0,0.0,0.0,-3.944607973098755,-0.42942938208580017,0.7630824446678162,0.4200000464916229,1.0,3.3916114716703305e-06,-2.2911938231118256e-06,1.2457824993816757e-07,0.00026677161804400384,0.0002678929013200104,-0.00010437355376780033,-0.001741260988637805,0.004206313751637936,-0.00012878593406639993,-0.4569518268108368,0.7621169686317444,0.5927483439445496,0.15426138043403625,0.6870107054710388,-6.634454727172852,0.36670011281967163,0.6745692491531372,0.42000001668930054,-0.7785674929618835,3.0000007152557373,-0.5400353670120239,-3.000001907348633,-0.11647159606218338,-0.12509121000766754,-0.13309268653392792,-0.13939335942268372,-1.0062546730041504,-1.0047110319137573,-1.0035362243652344,-1.0026001930236816
0.3,0.052704356610774994,0.18817274272441864,0.0,0.9265101552009583,0.0,0.0,-0.3762698173522949,-0.039268217980861664,0.026196587830781937,0.0,0.0,0.0,-0.09825657308101654,-0.42942938208580017,0.7630825042724609,0.4200000464916229,1.0,3.680698682728689e-06,-2.319141685802606e-06,2.0107165710214758e-07,0.00026479046209715307,0.00026625796454027295,-0.00010421173647046089,-0.0017169079510495067,0.004168956074863672,-0.00012909715587738901,-0.4523952007293701,0.7687861919403076,0.4847404360771179,0.5522127151489258,-0.06514649093151093,-6.342540264129639,0.36670011281967163,0.6745692491531372,0.42000001668930054,-0.7285587787628174,2.999831438064575,-0.590064287185669,-3.0,-0.1326880156993866,-0.14117495715618134,-0.14913979172706604,-0.1554730385541916,-1.0001238584518433,-1.000098705291748,-1.000077247619629,-1.0000578165054321
0.31666666666666665,0.048037271946668625,0.18780097365379333,0.0,0.9338629841804504,0.0,0.0,-0.35763096809387207,-0.3728119134902954,-0.04191043600440025,0.0,0.0,0.0,3.267099380493164,-0.42942938208580017,0.7630824446678162,0.4200000464916229,1.0,3.3041671940736705e-06,-2.2215672288439237e-06,2.5353810428896395e-07,0.00026660921867005527,0.00026745020295493305,-0.00010424340143799782,-0.0017352759605273604,0.004204507451504469,-0.00012828085164073855,-0.4469544291496277,0.7692925333976746,0.4311559796333313,0.17676377296447754,-0.08784857392311096,-0.2754877209663391,0.36670011281967163,0.6745692491531372,0.42000001668930054,-0.678553581237793,2.9999616146087646,-0.6404687166213989,-2.999159812927246,-0.14492861926555634,-0.15370991826057434,-0.1618615984916687,-0.16820721328258514,-0.3428039252758026,-0.4024004638195038,-0.445258229970932,-0.46669161319732666
0.3333333333333333,0.03860650956630707,0.18567489087581635,0.0,0.9346909523010254,0.0,0.0,-0.3554614186286926,-0.6192449331283569,-0.16870716214179993,0.0,0.0,0.0,-0.6929253339767456,-0.4284680187702179,0.7645244002342224,0.4200010895729065,0.999917209148407,-1.1744783989797725e-07,-1.0830533028638456e-05,-0.012864813208580017,0.041383080184459686,0.05958781763911247,-0.0004056500329170376,0.008600355125963688,0.011602433398365974,-0.9137128591537476,-0.44500961899757385,0.7697573900222778,0.4284488260746002,0.2921523451805115,0.0030783452093601227,-0.2200101763010025,0.36670011281967163,0.6745692491531372,0.42000001668930054,-0.6285471320152283,3.0000007152557373,-0.6905632615089417,-2.9999959468841553,-0.15389901399612427,-0.1622476726770401,-0.16967026889324188,-0.1749926209449768,-0.6450616717338562,-0.559838056564331,-0.45832276344299316,-0.34441545605659485
0.35,0.02802310883998871,0.18068927526474,0.0,0.940473735332489,0.0,0.0,-0.33986639976501465,-0.591489315032959,-0.3731805682182312,0.0,0.0,0.0,2.8065407276153564,-0.42620983719825745,0.7674486637115479,0.4200000464916229,0.9993640184402466,1.219796104123816e-06,1.8644014971869183e-06,-0.03565819561481476,0.1826252043247223,0.23486271500587463,-5.512545249075629e-05,0.0012542266631498933,-0.0015475678956136107,-3.746752977371216,-0.4384428858757019,0.7714096307754517,0.42447155714035034,0.4723880887031555,0.19296085834503174,-0.2144370675086975,0.36670011281967163,0.6745692491531372,0.42000001668930054,-0.57854163646698,2.9999728202819824,-0.7406119704246521,-2.9998955726623535,-0.16384384036064148,-0.17045213282108307,-0.1758318841457367,-0.17891888320446014,-0.4560368061065674,-0.35686665773391724,-0.23768077790737152,-0.10660212486982346
0.36666666666666664,0.016593612730503082,0.17288810014724731,0.0,0.9402267336845398,0.0,0.0,-0.340549111366272,-0.7269736528396606,-0.5076858997344971,0.0,0.0,0.0,-1.0455853939056396,-0.421284943819046,0.7732006311416626,0.4204196333885193,0.9964286088943481,0.010455764830112457,-0.0005393587634898722,-0.08378765732049942,0.4158790409564972,0.4631911516189575,0.04443001374602318,2.2815825939178467,-0.27313148975372314,-7.763400077819824,-0.42920225858688354,0.7763845920562744,0.42176488041877747,0.6724556684494019,0.443966269493103,-0.13989537954330444,0.36670011281967163,0.6745692491531372,0.42000001668930054,-0.5285367965698242,2.9999911785125732,-0.7906612157821655,-2.9999990463256836,-0.17151696979999542,-0.17636413872241974,-0.1796545386314392,-0.18048524856567383,-0.4248929023742676,-0.31864702701568604,-0.19484129548072815,-0.06411297619342804
0.3833333333333333,0.0026242751628160477,0.16283392906188965,0.0,0.9296135306358337,0.0,0.0,-0.3685358166694641,-0.8896480202674866,-0.6449987888336182,0.0,0.0,0.0,-4.518560886383057,-0.41308408975601196,0.7826288342475891,0.42000311613082886,0.9826201796531677,-0.00011414260370656848,-0.0005083725554868579,-0.18562625348567963,0.5729864835739136,0.6702159643173218,-0.00105955358594656,0.050411004573106766,-0.012313386425375938,-17.012662887573242,-0.41562700271606445,0.7861788868904114,0.4200727045536041,0.9844934940338135,0.7373467683792114,-0.0658651813864708,0.36670011281967163,0.6745692491531372,0.42000001668930054,-0.47853246331214905,2.9999959468841553,-0.8407096862792969,-2.9999985694885254,-0.17829665541648865,-0.18121525645256042,-0.1822393238544464,-0.18066313862800598,-0.36251726746559143,-0.23903866112232208,-0.09537535905838013,0.05592203512787819
0.4,-0.00897937174886465,0.14965079724788666,0.0,0.907349169254303,0.0,0.0,-0.42037779092788696,-0.6948005557060242,-0.8364239931106567,0.0,0.0,0.0,-7.439680099487305,-0.3947141170501709,0.801449716091156,0.42060598731040955,0.9727137088775635,-0.005551642272621393,-0.011308290995657444,-0.2316662222146988,1.5111867189407349,1.3319061994552612,0.2143419235944748,-2.1010022163391113,-7.2384867668151855,-7.82982063293457,-0.39714908599853516,0.802878737449646,0.4207049012184143,1.3707650899887085,1.3429896831512451,0.11719748377799988,0.36670011281967163,0.6745692491531372,0.42000001668930054,-0.4285043776035309,2.998338460922241,-0.8907430171966553,-2.988024950027466,-0.1837182343006134,-0.18456044793128967,-0.183129221200943,-0.17893756926059723,-0.35066500306129456,-0.2158292531967163,-0.058913011103868484,0.10649178922176361
0.4166666666666667,-0.01752200536429882,0.13356803357601166,0.0,0.8711601495742798,0.0,0.0,-0.49099892377853394,-0.4398956894874573,-1.0134280920028687,0.0,0.0,0.0,-10.23853874206543,-0.35147368907928467,0.8316488862037659,0.4252016246318817,0.9572232365608215,-0.008588066324591637,-0.03466583788394928,-0.28713780641555786,3.8580410480499268,2.3192625045776367,0.2682071924209595,21.62247085571289,-14.935786247253418,3.3221054077148438,-0.3536818325519562,0.8341825008392334,0.4248695969581604,3.587050199508667,2.333134651184082,0.6458818912506104,0.36670011281967163,0.6745692491531372,0.42000001668930054,-0.38988637924194336,1.4642112255096436,-0.9407217502593994,-3.0003321170806885,-0.19305694103240967,-0.19026236236095428,-0.18495725095272064,-0.17692287266254425,-0.6217472553253174,-0.3661632835865021,-0.10166383534669876,0.15488167107105255
0.43333333333333335,-0.02754233591258526,0.12318279594182968,0.0,0.8158109188079834,0.0,0.0,-0.5783186554908752,-0.6867437958717346,-0.47717905044555664,0.0,0.0,0.0,-13.288047790527344,-0.2649678885936737,0.8720102906227112,0.43438565731048584,0.9339823126792908,0.05310526862740517,-0.07004512846469879,-0.34633883833885193,6.818652153015137,2.202028274536133,0.6533321738243103,13.89036750793457,-12.981321334838867,16.327007293701172,-0.2670143246650696,0.875145435333252,0.43455788493156433,6.484683990478516,2.697413921356201,0.6990523338317871,0.36670011281967163,0.6745692491531372,0.42000001668930054,-0.3714103400707245,0.8874925971031189,-0.9033695459365845,2.9982104301452637,-0.20911571383476257,-0.2034335732460022,-0.19214306771755219,-0.17868715524673462,-0.9222981333732605,-0.9084632396697998,-0.5481400489807129,-0.233140766620636
0.45,-0.03468719869852066,0.10997719317674637,0.0,0.7676675319671631,0.0,0.0,-0.6408483386039734,-0.3305729627609253,-0.8143472075462341,0.0,0.0,0.0,-8.142228126525879,-0.15815119445323944,0.9063236117362976,0.4471629559993744,0.8855510354042053,0.08843044936656952,-0.08538884669542313,-0.4479823410511017,6.6569013595581055,1.0721466541290283,0.874046266078949,20.635482788085938,-3.811866521835327,8.117610931396484,-0.1607055515050888,0.9107779264450073,0.4470478296279907,6.495777130126953,1.4553253650665283,0.7894402742385864,0.36670011281967163,0.6745692491531372,0.42000001668930054,-0.3558362126350403,1.020621657371521,-0.9295240640640259,-3.000002384185791,-0.22276459634304047,-0.21596281230449677,-0.19899563491344452,-0.1807476431131363,-0.9183024764060974,-0.7814253568649292,-0.44104596972465515,-0.16019104421138763
0.4666666666666667,-0.0421772226691246,0.10026256740093231,0.0,0.7417301535606384,0.0,0.0,-0.6706984043121338,-0.4842950999736786,-0.5256888270378113,0.0,0.0,0.0,-3.5378997325897217,-0.05073448643088341,0.916817843914032,0.4602738320827484,0.8172518610954285,0.09872517734766006,-0.07306218892335892,-0.5630404949188232,6.559468746185303,-0.4326968789100647,0.6997604370117188,4.1582536697387695,-14.191378593444824,-1.8252458572387695,-0.054796334356069565,0.9230504035949707,0.45935747027397156,6.19847297668457,-0.012516781687736511,0.8087384104728699,0.36670011281967163,0.6745692491531372,0.42000001668930054,-0.3391123116016388,0.8625932931900024,-0.9795480966567993,-3.000002384185791,-0.2368158996105194,-0.22963504493236542,-0.20839464664459229,-0.18458373844623566,-0.7931498885154724,-0.7157851457595825,-0.46869999170303345,-0.15296731889247894
0.48333333333333334,-0.047339439392089844,0.08685454726219177,0.0,0.716008186340332,0.0,0.0,-0.6980918645858765,-0.2781257629394531,-0.8457407355308533,0.0,0.0,0.0,-4.894764423370361,0.047948628664016724,0.9057062268257141,0.4698948860168457,0.7840515971183777,0.08438321202993393,-0.0598531998693943,-0.6120131015777588,5.529324054718018,-2.14719820022583,0.40323564410209656,-8.516408920288086,-12.876681327819824,25.067853927612305,0.0456288605928421,0.9133589267730713,0.46982240676879883,5.8745317459106445,-1.2745847702026367,0.6613771915435791,0.36670011281967163,0.6745692491531372,0.42000001668930054,-0.3261620104312897,0.5677884221076965,-1.0295711755752563,-3.00000262260437,-0.24005672335624695,-0.2398749142885208,-0.21425385773181915,-0.185219407081604,-0.10822442173957825,-0.24011000990867615,-0.3590778410434723,-0.03561023995280266
0.5,-0.049114830791950226,0.07836081087589264,0.0,0.7054011225700378,0.0,0.0,-0.7088083028793335,-0.03359461575746536,-0.4333701431751251,0.0,0.0,0.0,-0.7018539905548096,0.13575629889965057,0.8758446574211121,0.4764726758003235,0.7157129645347595,0.0563378669321537,-0.04569971561431885,-0.6946167945861816,4.45517635345459,-2.7325830459594727,0.09140496701002121,-18.242259979248047,9.38965129852295,10.70250129699707,0.13316181302070618,0.8848302960395813,0.47702962160110474,4.880768775939941,-1.960493564605713,0.3431762158870697,0.36670011281967163,0.6745692491531372,0.42000001668930054,-0.3177623450756073,0.3443473279476166,-1.079593300819397,-2.999999761581421,-0.23979847133159637,-0.23979759216308594,-0.2229006141424179,-0.18915113806724548,0.03455635905265808,0.05144529789686203,-0.31677502393722534,-0.14413367211818695
0.5166666666666666,-0.0473577044904232,0.06692563742399216,0.0,0.685870349407196,0.0,0.0,-0.7277237772941589,0.14988303184509277,-0.7253841161727905,0.0,0.0,0.0,-4.1497344970703125,0.20872212946414948,0.8410192728042603,0.47375962138175964,0.6535550355911255,-0.012799607589840889,-0.06327825784683228,-0.7541204690933228,3.795924186706543,-2.580489158630371,-0.4987751841545105,-22.93212127685547,8.846267700195312,-2.427825450897217,0.20549926161766052,0.8511141538619995,0.47757861018180847,3.928719997406006,-2.24625825881958,-0.08420984447002411,0.36670011281967163,0.6745692491531372,0.42000001668930054,-0.31025850772857666,0.5623033046722412,-1.1296154260635376,-3.0,-0.23567083477973938,-0.23542210459709167,-0.2242376208305359,-0.18932858109474182,0.2587067484855652,0.3060399889945984,0.019033676013350487,0.02739652618765831
0.5333333333333333,-0.04657157510519028,0.05995216593146324,0.0,0.6792294979095459,0.0,0.0,-0.7339259386062622,0.007484603673219681,-0.3141416013240814,0.0,0.0,0.0,-0.08761418610811234,0.26628321409225464,0.8002939820289612,0.4672859013080597,0.600914478302002,-0.05663955211639404,-0.05674897879362106,-0.7952817678451538,2.9560375213623047,-2.9191179275512695,-0.4209299683570862,-3.6661581993103027,3.363586902618408,1.794339656829834,0.2636443078517914,0.810183048248291,0.47238725423812866,3.0594663619995117,-2.5259006023406982,-0.44830968976020813,0.36670011281967163,0.6745692491531372,0.42000001668930054,-0.2935342788696289,1.2020084857940674,-1.1796375513076782,-3.0000016689300537,-0.2339465171098709,-0.2321261465549469,-0.2244909405708313,-0.19004270434379578,0.18483269214630127,0.26203739643096924,0.0651417076587677,-0.03205971047282219
0.55,-0.04403167590498924,0.04967958480119705,0.0,0.6628602743148804,0.0,0.0,-0.7487431168556213,0.17914949357509613,-0.653222918510437,0.0,0.0,0.0,-3.5068023204803467,0.31154370307922363,0.7616688013076782,0.4542231559753418,0.5707285404205322,-0.09654981642961502,-0.029045892879366875,-0.8149253129959106,2.299912214279175,-2.8814096450805664,-0.8392840623855591,-3.1058449745178223,2.907078742980957,15.288633346557617,0.31003761291503906,0.7709239721298218,0.45974600315093994,2.3449349403381348,-2.287820339202881,-0.921550452709198,0.36670011281967163,0.6745692491531372,0.42000001668930054,-0.2772749364376068,0.6352772116661072,-1.2296596765518188,-3.0000016689300537,-0.2257760912179947,-0.22372111678123474,-0.2197905331850052,-0.18856437504291534,0.49138152599334717,0.5080321431159973,0.316719651222229,0.08607692271471024
0.5666666666666667,-0.03909924998879433,0.04397285729646683,0.0,0.6591514945030212,0.0,0.0,-0.75201016664505,0.3236263394355774,-0.30551159381866455,0.0,0.0,0.0,0.3094295561313629,0.3441315293312073,0.7236506938934326,0.43616825342178345,0.5492480993270874,-0.11340367794036865,-0.028035789728164673,-0.8274540305137634,1.6115422248840332,-2.22118878364563,-1.0872879028320312,-2.925483465194702,1.86635160446167,-1.60531485080719,0.3423492908477783,0.7322056889533997,0.44173410534858704,1.59865403175354,-2.2184691429138184,-1.2336809635162354,0.36670011281967163,0.6745692491531372,0.42000001668930054,-0.2681286334991455,0.5811748504638672,-1.204275131225586,2.999999523162842,-0.22008611261844635,-0.21751104295253754,-0.21603459119796753,-0.18888413906097412,0.4639815390110016,0.4464077055454254,0.2840505540370941,-0.014170228503644466
0.5833333333333334,-0.03204509988427162,0.041769612580537796,0.0,0.6462103128433228,0.0,0.0,-0.7631593942642212,0.47216928005218506,-0.06975387781858444,0.0,0.0,0.0,-2.928776741027832,0.3633144497871399,0.6980324983596802,0.425055593252182,0.5438126921653748,-0.08824063092470169,0.029467236250638962,-0.8340341448783875,0.5590008497238159,-1.4858797788619995,0.0763246938586235,-5.693936824798584,1.5687099695205688,14.590638160705566,0.36115342378616333,0.7044888734817505,0.42835599184036255,0.5387083292007446,-1.0410078763961792,0.12564732134342194,0.36670011281967163,0.6745692491531372,0.42000001668930054,-0.25547337532043457,0.7869296073913574,-1.225582242012024,-2.99829363822937,-0.21140460669994354,-0.21013258397579193,-0.21170417964458466,-0.19022148847579956,0.5569908618927002,0.4544816315174103,0.27952876687049866,-0.07182802259922028
0.6,-0.028285497799515724,0.03404461219906807,0.0,0.6460128426551819,0.0,0.0,-0.7633265852928162,0.24594397842884064,-0.3604336082935333,0.0,0.0,0.0,0.9185490012168884,0.37143632769584656,0.6835556626319885,0.42451196908950806,0.5525718927383423,-0.07857663929462433,0.0440358929336071,-0.8285835385322571,0.03676342964172363,-1.4291279315948486,-0.06440402567386627,-6.399779796600342,-5.641767501831055,10.384559631347656,0.3683033883571625,0.6894040107727051,0.4278753995895386,0.09263687580823898,-0.8461302518844604,0.04733799770474434,0.36670011281967163,0.6745692491531372,0.42000001668930054,-0.2450248748064041,0.3493044376373291,-1.1876099109649658,3.000001907348633,-0.19662852585315704,-0.19727370142936707,-0.20214010775089264,-0.18717990815639496,0.510024905204773,0.510565459728241,0.40385934710502625,0.08060865104198456
0.6166666666666667,-0.020846696570515633,0.03254646062850952,0.0,0.63535475730896,0.0,0.0,-0.7722203731536865,0.4072814881801605,-0.09341667592525482,0.0,0.0,0.0,-2.3701460361480713,0.3711691200733185,0.6739567518234253,0.42496243119239807,0.5701327919960022,-0.08703240007162094,0.055643342435359955,-0.8150323033332825,-0.11423264443874359,-0.4350409507751465,0.11575663089752197,-2.535810708999634,4.393871784210205,8.170743942260742,0.3676661252975464,0.679379940032959,0.4286983013153076,-0.08382328599691391,-0.26466554403305054,0.14244207739830017,0.36670011281967163,0.6745692491531372,0.42000001668930054,-0.24312976002693176,0.03832042217254639,-1.2089941501617432,-3.0004518032073975,-0.18991243839263916,-0.19087350368499756,-0.1972752958536148,-0.1874978244304657,0.5770487189292908,0.5001406073570251,0.3827756643295288,0.05191086605191231
0.6333333333333333,-0.012318558990955353,0.025916991755366325,0.0,0.6385235786437988,0.0,0.0,-0.7696022391319275,0.49623531103134155,-0.36703336238861084,0.0,0.0,0.0,1.373558759689331,0.3693910539150238,0.6687195301055908,0.42479822039604187,0.5981243252754211,-0.08610349148511887,0.05187532305717468,-0.7950738072395325,-0.1900317519903183,-0.33441630005836487,-0.00679373275488615,-1.4583919048309326,-1.2035913467407227,4.220224857330322,0.3656284809112549,0.6764553785324097,0.42809438705444336,-0.21338218450546265,-0.09605146944522858,-0.0427728071808815,0.36670011281967163,0.6745692491531372,0.42000001668930054,-0.27488505840301514,-2.999999523162842,-1.1710550785064697,2.999795436859131,-0.17748554050922394,-0.1801048070192337,-0.18846078217029572,-0.1841418594121933,0.5810765027999878,0.5218431353569031,0.46064135432243347,0.18910621106624603
0.65,-0.001615907996892929,0.023753710091114044,0.0,0.6620789170265198,0.0,0.0,-0.7494341135025024,0.7002531886100769,-0.11760947108268738,0.0,0.0,0.0,4.554909706115723,0.36561280488967896,0.6640452146530151,0.4232925474643707,0.6152961254119873,-0.05766744539141655,0.03209531307220459,-0.7855284810066223,-0.2619394361972809,-0.23928159475326538,-0.10938475281000137,0.8751890063285828,-4.721243858337402,0.697098433971405,0.36297428607940674,0.6769826412200928,0.430011510848999,-0.12429410219192505,0.14136210083961487,0.19835901260375977,0.36670011281967163,0.6745692491531372,0.42000001668930054,-0.32487189769744873,-2.999669313430786,-1.1924043893814087,-2.998527765274048,-0.169860377907753,-0.1733110398054123,-0.18220524489879608,-0.18173082172870636,0.5568581223487854,0.47576871514320374,0.42939242720603943,0.19946086406707764
0.6666666666666666,0.006841638125479221,0.018569136038422585,0.0,0.6715288162231445,0.0,0.0,-0.7409784197807312,0.42381706833839417,-0.3508981168270111,0.0,0.0,0.0,0.4365648031234741,0.3635146915912628,0.6627534031867981,0.4220830798149109,0.611164391040802,-0.03601764142513275,0.016776004806160927,-0.7905056476593018,-0.21510690450668335,-0.1718030720949173,-0.19801339507102966,2.7993037700653076,-7.120622634887695,-0.04454513266682625,0.36169782280921936,0.679855227470398,0.4339352250099182,-0.08320251852273941,0.12897682189941406,0.25503426790237427,0.36670011281967163,0.6745692491531372,0.42000001668930054,-0.3748645484447479,-2.998781442642212,-1.2423659563064575,-2.9992833137512207,-0.16011476516723633,-0.16473953425884247,-0.17404282093048096,-0.17680636048316956,0.4786359369754791,0.44125568866729736,0.45604661107063293,0.3116915225982666
0.6833333333333333,0.01573018915951252,0.016215700656175613,0.0,0.6653435230255127,0.0,0.0,-0.7465373277664185,0.5516665577888489,-0.0586637444794178,0.0,0.0,0.0,-1.6379421949386597,0.36045557260513306,0.6611425876617432,0.42000052332878113,0.6097043752670288,-3.807185976256733e-06,1.670190795266535e-05,-0.7926288843154907,-0.1460311859846115,-0.04325015842914581,-0.0010280285496264696,-0.019722992554306984,-0.04484313353896141,-0.4802057147026062,0.3622274100780487,0.6813956499099731,0.43920862674713135,0.1756056249141693,0.05075810104608536,0.4735040068626404,0.36670011281967163,0.6745692491531372,0.42000001668930054,-0.4248782694339752,-3.0000009536743164,-1.292384147644043,-3.000000238418579,-0.15527382493019104,-0.15990924835205078,-0.1681595891714096,-0.17217852175235748,0.2622154951095581,0.2705342173576355,0.3530242443084717,0.31804975867271423
0.7,0.02658001519739628,0.01102230604737997,0.0,0.6395555138587952,0.0,0.0,-0.768744945526123,0.6930477023124695,-0.3539377450942993,0.0,0.0,0.0,-4.915071487426758,0.35899263620376587,0.6607080698013306,0.4199998378753662,0.6072190403938293,1.2568413012559176e-06,-4.970764621248236e-06,-0.79453444480896,-0.0671968013048172,-0.020241359248757362,-1.2472737580537796e-05,0.001170958625152707,-7.319068390643224e-05,-0.36248040199279785,0.37052425742149353,0.6824381351470947,0.4537995457649231,0.764112114906311,-0.022686712443828583,1.4160001277923584,0.36670011281967163,0.6745692491531372,0.42000001668930054,-0.47489133477211,-2.9999828338623047,-1.342402458190918,-2.9999988079071045,-0.1518241912126541,-0.15609042346477509,-0.16269688308238983,-0.16675861179828644,0.015445959754288197,0.0798531323671341,0.21938921511173248,0.2695592939853668
0.7166666666666667,0.040047332644462585,0.009471488185226917,0.0,0.6275447010993958,0.0,0.0,-0.7785805463790894,0.8241401314735413,-0.055134497582912445,0.0,0.0,0.0,-0.8209344148635864,0.3587404191493988,0.6606308817863464,0.41999974846839905,0.6064192652702332,-2.6799607439897954e-05,-7.4674094321380835e-06,-0.7951450943946838,-0.0014771813293918967,-0.001148901297710836,-0.00041146099101752043,0.031081851571798325,-0.029658988118171692,0.010605443269014359,0.38599732518196106,0.685799241065979,0.48275578022003174,1.1208066940307617,0.40622198581695557,2.0402653217315674,0.36670011281967163,0.6745692491531372,0.42000001668930054,-0.5235710144042969,-2.8167693614959717,-1.392420768737793,-2.9999990463256836,-0.1537398248910904,-0.15723352134227753,-0.16187787055969238,-0.16525763273239136,-0.03324072062969208,-0.0374443419277668,0.027962936088442802,0.03133457899093628
0.7333333333333333,0.05044391006231308,0.010498021729290485,0.0,0.6398339867591858,0.0,0.0,-0.7685131430625916,0.5498355031013489,0.10710873454809189,0.0,0.0,0.0,2.7624800205230713,0.35873958468437195,0.6606302261352539,0.42000001668930054,0.606421709060669,-2.3582481389894383e-06,-4.539387191471178e-06,-0.7951432466506958,7.386700599454343e-05,-0.0003582139906939119,-9.517045691609383e-05,0.008380623534321785,-0.0025147958658635616,-0.0005410260637290776,0.4054338335990906,0.6926298141479492,0.5094670057296753,1.1308672428131104,0.43573373556137085,1.2573721408843994,0.36670011281967163,0.6745692491531372,0.42000001668930054,-0.5427935719490051,0.2580293118953705,-1.442439079284668,-2.9999992847442627,-0.15355418622493744,-0.15708130598068237,-0.16070012748241425,-0.16392262279987335,0.05953989177942276,0.059325844049453735,0.11513624340295792,0.1265462189912796
0.75,0.05611518397927284,0.007177364081144333,0.0,0.6397716403007507,0.0,0.0,-0.7685650587081909,0.29976290464401245,-0.2293272167444229,0.0,0.0,0.0,-0.9607890248298645,0.35873958468437195,0.6606301665306091,0.41999998688697815,0.606421709060669,-2.6584623356029624e-06,-4.721974164567655e-06,-0.7951432466506958,6.470815424108878e-05,-0.00036467716563493013,-0.00010036514140665531,0.008497240021824837,-0.002660508267581463,-0.0005283256759867072,0.4175543189048767,0.7004581093788147,0.5251525640487671,0.2862663269042969,0.37883251905441284,0.7859069108963013,0.36670011281967163,0.6745692491531372,0.42000001668930054,-0.5472182035446167,-0.7018816471099854,-1.4038751125335693,3.0,-0.15001553297042847,-0.153789684176445,-0.1568576842546463,-0.16013912856578827,0.060695018619298935,0.08509231358766556,0.1464102566242218,0.17344123125076294
0.7666666666666666,0.05859965831041336,0.008622951805591583,0.0,0.6505635976791382,0.0,0.0,-0.7594518065452576,0.10959979146718979,0.10072144120931625,0.0,0.0,0.0,2.4520764350891113,0.35873958468437195,0.6606301665306091,0.41999998688697815,0.6064216494560242,-2.6208833787677577e-06,-4.773390173795633e-06,-0.7951432466506958,6.452537490986288e-05,-0.00036486852332018316,-0.00010048574768006802,0.0085011450573802,-0.0026640393771231174,-0.0005282947677187622,0.4184147119522095,0.7051330208778381,0.5348809957504272,-0.06344784051179886,0.3041677176952362,0.4087470769882202,0.36670011281967163,0.6745692491531372,0.42000001668930054,-0.5405409932136536,1.3240489959716797,-1.4218982458114624,-3.000000238418579,-0.15324395895004272,-0.15567752718925476,-0.15697945654392242,-0.15904831886291504,-0.10176321864128113,-0.041524000465869904,0.03957420215010643,0.09555566310882568
0.7833333333333333,0.05832928046584129,0.006122912745922804,0.0,0.6477788686752319,0.0,0.0,-0.7618284225463867,-0.08813220262527466,-0.14038346707820892,0.0,0.0,0.0,-1.2409013509750366,0.35873958468437195,0.6606302261352539,0.41999998688697815,0.6064213514328003,-2.614899585751118e-06,-4.552667633106466e-06,-0.7951433658599854,6.418958946596831e-05,-0.00036450664629228413,-0.0001005686353892088,0.008488760329782963,-0.002664631698280573,-0.0005269706598483026,0.41152769327163696,0.7100169658660889,0.5361016392707825,-0.8117122650146484,0.24171921610832214,-0.07725714147090912,0.36670011281967163,0.6745692491531372,0.42000001668930054,-0.5415441393852234,-1.2244648933410645,-1.383394479751587,2.9999992847442627,-0.15380848944187164,-0.15539784729480743,-0.1555946320295334,-0.1568632423877716,-0.15100623667240143,-0.07500677555799484,0.009578615427017212,0.07828488945960999
0.8,0.059491392225027084,0.007858213968575,0.0,0.6566007733345032,0.0,0.0,-0.7542383074760437,0.10857950150966644,0.14136739075183868,0.0,0.0,0.0,1.916747808456421,0.35873958468437195,0.6606301665306091,0.41999998688697815,0.606421709060669,-2.6211275780951837e-06,-4.733269179268973e-06,-0.7951432466506958,6.437276897486299e-05,-0.0003643396485131234,-0.00010038819164037704,0.008487827144563198,-0.0026620824355632067,-0.000527336960658431,0.3997794985771179,0.7132664918899536,0.5364912748336792,-0.4990871846675873,0.28292298316955566,0.11669500917196274,0.36670011281967163,0.6745692491531372,0.42000001668930054,-0.5438852310180664,0.7742038369178772,-1.4018363952636719,-2.999999761581421,-0.1588902324438095,-0.15880179405212402,-0.15718086063861847,-0.15675632655620575,-0.15210573375225067,-0.09732863306999207,-0.027796670794487,0.049205806106328964
0.8166666666666667,0.06272873282432556,0.005815726704895496,0.0,0.6521615386009216,0.0,0.0,-0.7580800652503967,0.2122553437948227,-0.16904564201831818,0.0,0.0,0.0,-1.7120506763458252,0.35873958468437195,0.6606302261352539,0.41999998688697815,0.6064214110374451,-2.6088905542565044e-06,-4.698735210695304e-06,-0.7951433658599854,6.400418351404369e-05,-0.0003644211683422327,-0.00010061054490506649,0.008485978469252586,-0.0026659842114895582,-0.0005265063373371959,0.3920087218284607,0.7172001600265503,0.5361689925193787,-0.4731583893299103,0.12481670081615448,0.005112884566187859,0.36670011281967163,0.6745692491531372,0.42000001668930054,-0.5706748962402344,-3.0000007152557373,-1.363389492034912,3.0,-0.15917091071605682,-0.1584704965353012,-0.15598313510417938,-0.1544366329908371,-0.06637058407068253,-0.008105713874101639,0.06220207363367081,0.15006844699382782
0.8333333333333334,0.0684359148144722,0.0010487812105566263,0.0,0.6361674070358276,0.0,0.0,-0.7715510725975037,0.3861047327518463,-0.3744300901889801,0.0,0.0,0.0,-3.025519371032715,0.35873958468437195,0.6606301665306091,0.41999998688697815,0.606421709060669,-2.612184289318975e-06,-4.692652510129847e-06,-0.7951430678367615,6.417759141186252e-05,-0.0003642450028564781,-0.00010042148642241955,0.008484870195388794,-0.002662659389898181,-0.0005267987144179642,0.3905455768108368,0.7188293933868408,0.5392259955406189,0.2846548557281494,0.0910155177116394,0.46135640144348145,0.36670011281967163,0.6745692491531372,0.42000001668930054,-0.6104078888893127,-1.8359129428863525,-1.3822064399719238,-2.999999761581421,-0.16245301067829132,-0.16052177548408508,-0.15661071240901947,-0.15328465402126312,-0.2006695419549942,-0.12965059280395508,-0.047357331961393356,0.0599551759660244
0.85,0.07732457667589188,0.00033418636303395033,0.0,0.634943425655365,0.0,0.0,-0.7725586295127869,0.527459442615509,-0.055742986500263214,0.0,0.0,0.0,0.6568793654441833,0.35873958468437195,0.6606302261352539,0.41999998688697815,0.6064215302467346,-2.6330314994993387e-06,-4.5988363126525655e-06,-0.7951432466506958,6.087150177336298e-05,-0.0003639967180788517,-0.00010138633660972118,0.008470444008708,-0.0026948237791657448,-0.0005195377161726356,0.3942282795906067,0.7207416296005249,0.5485787391662598,0.2889183759689331,0.25294169783592224,0.6125611066818237,0.36670011281967163,0.6745692491531372,0.42000001668930054,-0.6127845644950867,1.2841488122940063,-1.4322247505187988,-2.999999523162842,-0.16889110207557678,-0.1654106080532074,-0.15989089012145996,-0.15462690591812134,-0.17435623705387115,-0.14284232258796692,-0.10633707046508789,-0.04542465880513191
0.8666666666666667,0.08309680223464966,-0.005847952328622341,0.0,0.6557192206382751,0.0,0.0,-0.7550048232078552,0.29145440459251404,-0.38945308327674866,0.0,0.0,0.0,3.8710086345672607,0.35873958468437195,0.6606301665306091,0.41999998688697815,0.6064215302467346,-2.629632490425138e-06,-4.594349320541369e-06,-0.7951433062553406,6.294267950579524e-05,-0.0003640407230705023,-0.00010073673911392689,0.008477418683469296,-0.0026741919573396444,-0.0005239071906544268,0.39588290452957153,0.7227147817611694,0.5572574138641357,-0.13323335349559784,-0.054746534675359726,0.4415096044540405,0.36670011281967163,0.6745692491531372,0.42000001668930054,-0.6120493412017822,-0.9993723630905151,-1.393687129020691,3.000000238418579,-0.16883094608783722,-0.1648072600364685,-0.1587270051240921,-0.15253739058971405,-0.11594192683696747,-0.04415465146303177,0.022828157991170883,0.10588260740041733
0.8833333333333333,0.08516861498355865,-0.00740545429289341,0.0,0.6615460515022278,0.0,0.0,-0.7499045729637146,0.058285895735025406,-0.03728984296321869,0.0,0.0,0.0,-0.03792889788746834,0.35873958468437195,0.6606302261352539,0.41999998688697815,0.6064214110374451,-2.6191366941930028e-06,-4.544401690509403e-06,-0.7951434254646301,6.406537431757897e-05,-0.000364394742064178,-0.00010058213956654072,0.008485586382448673,-0.002664485014975071,-0.000526570132933557,0.393940806388855,0.7202739715576172,0.5596331357955933,-0.02535831555724144,-0.17074516415596008,-0.009272269904613495,0.36670011281967163,0.6745692491531372,0.42000001668930054,-0.6121069192886353,0.8341164588928223,-1.3436802625656128,3.000000238418579,-0.17371702194213867,-0.16814613342285156,-0.1606258898973465,-0.1527632176876068,-0.17965030670166016,-0.11723800748586655,-0.0584721677005291,0.01724209263920784
0.9,0.08860845863819122,-0.012517251074314117,0.0,0.6778185367584229,0.0,0.0,-0.7352292537689209,0.21211150288581848,-0.33647191524505615,0.0,0.0,0.0,3.372713804244995,0.35873958468437195,0.6606301665306091,0.41999998688697815,0.6064215302467346,-2.643646439537406e-06,-4.710910161520587e-06,-0.7951432466506958,6.424311141017824e-05,-0.000364223204087466,-0.00010040006600320339,0.008484444580972195,-0.0026618055999279022,-0.0005269142566248775,0.3913342356681824,0.7178756594657898,0.5636168718338013,-0.3186339735984802,-0.12037310004234314,0.47147491574287415,0.36670011281967163,0.6745692491531372,0.42000001668930054,-0.608016312122345,-0.2530921697616577,-1.2936657667160034,2.999999761581421,-0.1737011820077896,-0.16758647561073303,-0.15961109101772308,-0.15103580057621002,-0.01575613208115101,0.014112175442278385,0.036074139177799225,0.07025552541017532
