vladlanda/robotic-transformer/data/env_000_episode_0156.csv
sim_time_s,robot_box_x,robot_box_y,robot_box_z,robot_box_quat_w,robot_box_quat_x,robot_box_quat_y,robot_box_quat_z,robot_box_linvel_x,robot_box_linvel_y,robot_box_linvel_z,robot_box_angvel_x,robot_box_angvel_y,robot_box_angvel_z,cube_world_x,cube_world_y,cube_world_z,cube_quat_w,cube_quat_x,cube_quat_y,cube_quat_z,cube_linvel_x,cube_linvel_y,cube_linvel_z,cube_angvel_x,cube_angvel_y,cube_angvel_z,endpoint_world_x,endpoint_world_y,endpoint_world_z,endpoint_linvel_x,endpoint_linvel_y,endpoint_linvel_z,target_cube_world_x,target_cube_world_y,target_cube_world_z,gripper_actual_pos_rad_gp_leftgearjoint,gripper_actual_vel_rad_s_gp_leftgearjoint,gripper_actual_pos_rad_gp_rotatingjoint,gripper_actual_vel_rad_s_gp_rotatingjoint,motor_angle_rad_joint1,motor_angle_rad_joint2,motor_angle_rad_joint3,motor_angle_rad_joint4,motor_speed_rad_s_joint1,motor_speed_rad_s_joint2,motor_speed_rad_s_joint3,motor_speed_rad_s_joint4
0.0,0.0,0.0,0.0,1.0,0.0,0.0,0.0,0.0,0.0,0.0,0.0,0.0,0.0,-0.47325611114501953,0.7721496224403381,0.41999998688697815,1.0,0.0,0.0,0.0,0.0,0.0,0.0,0.0,0.0,0.0,3.42540442943573e-06,-0.005000244826078415,1.313499927520752,0.0,0.0,0.0,0.32007068395614624,0.7786946296691895,0.42000001668930054,-1.5707999467849731,0.0,0.0,0.0,0.0,0.0,0.0,0.0,0.0,0.0,0.0,0.0
0.016666666666666666,0.0028778850100934505,0.0021806680597364902,0.0,0.9998081922531128,0.0,0.0,0.019586581736803055,0.24087215960025787,0.18240931630134583,0.0,0.0,0.0,3.1418697834014893,-0.4732562303543091,0.7721493244171143,0.41999998688697815,1.0,3.2799832752061775e-06,-8.339598593920527e-07,8.465660528145236e-08,-1.9833856640616432e-05,0.00017983021098189056,-6.132945418357849e-05,0.0009432561928406358,-0.004689492750912905,-0.0003198107879143208,-0.007110234349966049,0.003379564033821225,1.3159373998641968,-0.8143353462219238,0.9868683815002441,0.18095196783542633,0.32007068395614624,0.7786946296691895,0.42000001668930054,-1.5301095247268677,3.0000011920928955,-0.04584788903594017,-2.9999992847442627,0.0008691533003002405,0.0007963840034790337,0.0007110277656465769,0.0006108740926720202,0.11094217747449875,0.09756709635257721,0.08334315568208694,0.06823883205652237
0.03333333333333333,0.008959327824413776,0.006805685814470053,0.0,0.9997952580451965,0.0,0.0,0.020234670490026474,0.4070603847503662,0.31532618403434753,0.0,0.0,0.0,-0.8701423406600952,-0.47325634956359863,0.7721492648124695,0.4200000464916229,1.0,3.3908784189407015e-06,-2.132447662006598e-06,-3.7113029094371086e-08,0.0002635781711433083,0.0002693779533728957,-0.00010509602725505829,-0.001770740025676787,0.004130825400352478,-0.00013548026618082076,-0.027554817497730255,0.026187915354967117,1.3165967464447021,-1.5914337635040283,1.6159300804138184,-0.08486433327198029,0.32007068395614624,0.7786946296691895,0.42000001668930054,-1.4800903797149658,3.000002384185791,-0.09588770568370819,-3.0,0.002989300526678562,0.0026519917882978916,0.0022766401525586843,0.0018601681804284453,0.1642419695854187,0.13978324830532074,0.11383972316980362,0.08631889522075653
0.05,0.01775832287967205,0.013777341693639755,0.0,0.9993736147880554,0.0,0.0,0.035389695316553116,0.5939987301826477,0.4651968777179718,0.0,0.0,0.0,2.646674871444702,-0.473256379365921,0.7721493244171143,0.4200000464916229,1.0,3.7651825550710782e-06,-2.211884293501498e-06,5.609665620909254e-09,0.0002653094124980271,0.0002669155364856124,-0.0001044049859046936,-0.001724360859952867,0.00417743343859911,-0.00012949237134307623,-0.0596984438598156,0.05435255914926529,1.3115204572677612,-2.1879239082336426,1.794823408126831,-0.4877391457557678,0.32007068395614624,0.7786946296691895,0.42000001668930054,-1.4300720691680908,3.0000011920928955,-0.1459263563156128,-3.000000238418579,0.005710129160434008,0.00491792568936944,0.004053592216223478,0.0031126851681619883,0.19262970983982086,0.1557277888059616,0.11695180088281631,0.07620792090892792
0.06666666666666667,0.029076842591166496,0.023072894662618637,0.0,0.9994463324546814,0.0,0.0,0.03327177092432976,0.7205719351768494,0.5953258872032166,0.0,0.0,0.0,-1.2123520374298096,-0.473256379365921,0.7721492648124695,0.4200000464916229,0.9999999403953552,3.4068248169205617e-06,-2.2856320356368087e-06,4.300777334265149e-07,0.00026702528703026474,0.00026791737764142454,-0.00010437797755002975,-0.0017406486440449953,0.004211665131151676,-0.00012849978520534933,-0.0967920571565628,0.08961515873670578,1.2991018295288086,-2.2894227504730225,2.320579767227173,-0.9746413826942444,0.32007068395614624,0.7786946296691895,0.42000001668930054,-1.3800537586212158,3.000000238418579,-0.19596368074417114,-3.000000238418579,0.008134215138852596,0.00659836083650589,0.004951740149408579,0.003187763039022684,0.1328165978193283,0.07619591802358627,0.017515989020466805,-0.0432756207883358
0.08333333333333333,0.03445178270339966,0.03570682182908058,0.0,0.9999982714653015,0.0,0.0,0.0018714083125814795,0.1905839592218399,0.8238503932952881,0.0,0.0,0.0,-4.938304424285889,-0.473256379365921,0.7721492648124695,0.4200000464916229,0.9999999403953552,3.626150828495156e-06,-2.3353632059297524e-06,3.0320998689603584e-07,0.00026613965746946633,0.00026685226475819945,-0.00010405294597148895,-0.0017284216592088342,0.004196350462734699,-0.0001279056741623208,-0.13274799287319183,0.13208787143230438,1.27882981300354,-2.0652577877044678,2.6779439449310303,-1.365684986114502,0.32007068395614624,0.7786946296691895,0.42000001668930054,-1.33003830909729,3.000002861022949,-0.24597883224487305,-3.0000009536743164,0.004748034756630659,0.0025572781451046467,0.00020453012257348746,-0.0023206130135804415,-0.29939666390419006,-0.3449343144893646,-0.3930509388446808,-0.44400689005851746
0.1,0.04406571015715599,0.04966381564736366,0.0,0.9999225735664368,0.0,0.0,-0.012442427687346935,0.675397515296936,0.850990891456604,0.0,0.0,0.0,-0.7090394496917725,-0.473256379365921,0.7721492648124695,0.4200000464916229,1.0,3.422215741011314e-06,-2.3086440705810674e-06,1.7961383491638117e-07,0.0002668150991667062,0.00026800442719832063,-0.00010440708138048649,-0.001743118860758841,0.004207138903439045,-0.0001289104257011786,-0.1703828126192093,0.17319810390472412,1.2568663358688354,-2.261739730834961,2.5381414890289307,-1.3527320623397827,0.32007068395614624,0.7786946296691895,0.42000001668930054,-1.2800238132476807,2.9999990463256836,-0.29599714279174805,-3.0000007152557373,0.004732765257358551,0.001016188645735383,-0.002858901396393776,-0.0069038234651088715,0.027358267456293106,-0.07470213621854782,-0.17587511241436005,-0.2760973572731018
0.11666666666666667,0.051649365574121475,0.06572355329990387,0.0,0.9992151856422424,0.0,0.0,-0.03961119428277016,0.4587338864803314,1.0251452922821045,0.0,0.0,0.0,-3.9407336711883545,-0.473256379365921,0.7721493244171143,0.4200000464916229,1.0,3.711592853505863e-06,-2.332753865630366e-06,2.574192592419422e-07,0.0002648566442076117,0.0002663531631696969,-0.0001042329240590334,-0.0017181416042149067,0.004169980529695749,-0.00012915612023789436,-0.20292972028255463,0.22132205963134766,1.235750675201416,-1.66362726688385,3.2438135147094727,-1.1653645038604736,0.32007068395614624,0.7786946296691895,0.42000001668930054,-1.2299983501434326,2.9999887943267822,-0.26171061396598816,3.0000016689300537,0.002974441275000572,-0.0026954568456858397,-0.008496095426380634,-0.014436831697821617,-0.0674142837524414,-0.21016913652420044,-0.34978699684143066,-0.48598363995552063
0.13333333333333333,0.056621722877025604,0.0845872312784195,0.0,0.9957833886146545,0.0,0.0,-0.09173551946878433,0.2334200143814087,1.178439974784851,0.0,0.0,0.0,-7.108424663543701,-0.473256379365921,0.7721492648124695,0.4200000464916229,1.0,3.3358085147483507e-06,-2.2319140953186434e-06,3.1129312105804274e-07,0.0002666973159648478,0.00026759272441267967,-0.00010428577661514282,-0.001737017184495926,0.004205896519124508,-0.00012840180716011673,-0.23073381185531616,0.2769351601600647,1.2167316675186157,-1.6364922523498535,3.472527027130127,-1.1959108114242554,0.32007068395614624,0.7786946296691895,0.42000001668930054,-1.195600152015686,1.249655842781067,-0.292750746011734,-3.0,0.0006035769474692643,-0.007383417803794146,-0.015433377586305141,-0.023550311103463173,-0.2195376753807068,-0.34517237544059753,-0.46658584475517273,-0.5834895372390747
0.15,0.05845041200518608,0.10145442187786102,0.0,0.9922847747802734,0.0,0.0,-0.12397965043783188,0.06182607635855675,0.9215889573097229,0.0,0.0,0.0,-2.8400330543518066,-0.473256379365921,0.7721492648124695,0.4200000464916229,1.0,3.5190378184779547e-06,-2.283064759467379e-06,-3.625691817887855e-07,0.00026618439005687833,0.0002673580020200461,-0.00010425783693790436,-0.001735009253025055,0.004195804707705975,-0.00012860787683166564,-0.26655542850494385,0.3324604630470276,1.19108247756958,-2.281782388687134,3.521052360534668,-1.840366005897522,0.32007068395614624,0.7786946296691895,0.42000001668930054,-1.1553069353103638,2.9999914169311523,-0.2585146725177765,2.999999523162842,-0.0037139977794140577,-0.013407981023192406,-0.02308463118970394,-0.032745085656642914,-0.30785107612609863,-0.38604736328125,-0.45961424708366394,-0.5285139083862305
0.16666666666666666,0.05677444487810135,0.11849009245634079,0.0,0.9857399463653564,0.0,0.0,-0.16827566921710968,-0.16299860179424286,1.0615103244781494,0.0,0.0,0.0,-6.240509510040283,-0.473256379365921,0.7721492648124695,0.4200000464916229,1.0,3.6667033782578073e-06,-2.339081675017951e-06,-3.150136080876109e-07,0.00026595877716317773,0.0002666739164851606,-0.00010403385385870934,-0.001725254813209176,0.00419270945712924,-0.00012778321979567409,-0.3016431927680969,0.39394670724868774,1.160154104232788,-1.836875557899475,3.9604604244232178,-1.9119226932525635,0.32007068395614624,0.7786946296691895,0.42000001668930054,-1.1094540357589722,2.5052289962768555,-0.28956469893455505,-2.9999992847442627,-0.010809000581502914,-0.021809527650475502,-0.03270811587572098,-0.0435044951736927,-0.5151557326316833,-0.5865515470504761,-0.6531258821487427,-0.7147864103317261
0.18333333333333332,0.059924665838479996,0.13754841685295105,0.0,0.9807918667793274,0.0,0.0,-0.19505709409713745,0.3078369200229645,1.185002326965332,0.0,0.0,0.0,-2.2754077911376953,-0.473256379365921,0.7721492648124695,0.4200000464916229,1.0,3.8144380596349947e-06,-2.3994705315999454e-06,-2.702848291846749e-07,0.00026549192261882126,0.000266112299868837,-0.00010391208343207836,-0.001717865583486855,0.004184891004115343,-0.000127535909996368,-0.33778706192970276,0.4570530652999878,1.120580792427063,-2.1216325759887695,3.9450695514678955,-2.817033290863037,0.32007068395614624,0.7786946296691895,0.42000001668930054,-1.0804598331451416,1.0754547119140625,-0.3395921587944031,-3.0000007152557373,-0.016977010294795036,-0.028893854469060898,-0.04062594100832939,-0.05217532441020012,-0.3746398389339447,-0.40302616357803345,-0.4273401200771332,-0.44789332151412964
0.2,0.05995546281337738,0.15374845266342163,0.0,0.9717565774917603,0.0,0.0,-0.23598548769950867,-0.07496858388185501,0.922916829586029,0.0,0.0,0.0,-5.667622089385986,-0.473256379365921,0.7721492648124695,0.4200000464916229,1.0,3.6001295029564062e-06,-2.291185865033185e-06,-2.2020017809154524e-07,0.0002657297591213137,0.0002664490893948823,-0.00010398216545581818,-0.0017226807540282607,0.004188799764961004,-0.00012773256457876414,-0.3723961412906647,0.5245614051818848,1.0672030448913574,-1.8747825622558594,4.295415878295898,-3.5583460330963135,0.32007068395614624,0.7786946296691895,0.42000001668930054,-1.036618947982788,2.9999887943267822,-0.3896176218986511,-3.0000007152557373,-0.028644366189837456,-0.040129154920578,-0.051413144916296005,-0.06251272559165955,-0.8549479246139526,-0.8051975965499878,-0.7552314400672913,-0.7058051228523254
0.21666666666666667,0.05613783746957779,0.17044313251972198,0.0,0.9665910005569458,0.0,0.0,-0.25632378458976746,-0.30789321660995483,1.0437299013137817,0.0,0.0,0.0,-1.497611403465271,-0.473256379365921,0.7721492648124695,0.4200000464916229,0.9999999403953552,3.639737315097591e-06,-2.261905365230632e-06,2.224729200861475e-07,0.00026687447098083794,0.00026754679856821895,-0.00010411837138235569,-0.0017404091777279973,0.004210993647575378,-0.00012784003047272563,-0.40662235021591187,0.5903164744377136,0.9997256398200989,-1.8777941465377808,3.8833630084991455,-4.467935562133789,0.32007068395614624,0.7786946296691895,0.42000001668930054,-0.987302839756012,2.8871638774871826,-0.4396429657936096,-3.000000476837158,-0.04446493089199066,-0.054757505655288696,-0.06474991887807846,-0.07457796484231949,-0.9837662577629089,-0.9088723659515381,-0.816141664981842,-0.7251956462860107
0.23333333333333334,0.054737407714128494,0.18842093646526337,0.0,0.9570245742797852,0.0,0.0,-0.2900069057941437,-0.09019574522972107,1.1872950792312622,0.0,0.0,0.0,-5.087413787841797,-0.47325634956359863,0.7721492648124695,0.4200000464916229,1.0,3.42076441484096e-06,-2.3167292511061532e-06,2.956030868972448e-07,0.0002668006345629692,0.00026803917717188597,-0.00010442500934004784,-0.0017438046634197235,0.00420692004263401,-0.0001289931678911671,-0.4369826912879944,0.6532619595527649,0.9186867475509644,-1.5770984888076782,3.603238105773926,-5.223319053649902,0.32007068395614624,0.7786946296691895,0.42000001668930054,-0.9373089075088501,2.9999992847442627,-0.48967036604881287,-3.0000011920928955,-0.06011252850294113,-0.06983441859483719,-0.07880528271198273,-0.08695726096630096,-0.9905181527137756,-0.9907264709472656,-0.9909636974334717,-0.8780980110168457
0.25,0.05706139653921127,0.20296688377857208,0.0,0.9522675275802612,0.0,0.0,-0.30526480078697205,0.22003988921642303,0.7710967659950256,0.0,0.0,0.0,-0.8856858015060425,-0.473256379365921,0.7721492648124695,0.4200000464916229,0.9999999403953552,3.347640813444741e-06,-2.259107077406952e-06,1.8085022190916789e-07,0.00026687653735280037,0.0002679111494217068,-0.00010439427569508553,-0.0017405003309249878,0.004208215046674013,-0.00012870266800746322,-0.4637441635131836,0.704208493232727,0.8256767392158508,-1.3365709781646729,2.7208995819091797,-5.892668724060059,0.32007068395614624,0.7786946296691895,0.42000001668930054,-0.8873000741004944,3.0000009536743164,-0.539699912071228,-3.000000238418579,-0.07631593197584152,-0.08596079796552658,-0.0948512926697731,-0.10138952732086182,-0.9880280494689941,-0.9739698767662048,-0.9559481739997864,-0.8746079206466675
0.26666666666666666,0.055789411067962646,0.21368145942687988,0.0,0.9428791403770447,0.0,0.0,-0.33313503861427307,-0.18517927825450897,0.5991504192352295,0.0,0.0,0.0,-4.477972030639648,-0.473256379365921,0.7721492648124695,0.4200000464916229,0.9999999403953552,3.5357268188818125e-06,-2.3001737190497806e-06,-1.2685268302448094e-07,0.00026601794525049627,0.00026712287217378616,-0.0001041970681399107,-0.0017317483434453607,0.004192880354821682,-0.00012849216000176966,-0.4808669090270996,0.7413588762283325,0.721867561340332,-0.6530003547668457,1.7995340824127197,-6.390885353088379,0.32007068395614624,0.7786946296691895,0.42000001668930054,-0.8372895121574402,3.000000476837158,-0.5897296667098999,-3.000000238418579,-0.09329992532730103,-0.10281498730182648,-0.1116136908531189,-0.1180897057056427,-0.9942547678947449,-0.9953088760375977,-0.99614018201828,-0.9968181252479553
0.2833333333333333,0.05020544305443764,0.22120174765586853,0.0,0.9389749765396118,0.0,0.0,-0.34398549795150757,-0.2812121510505676,0.3335287868976593,0.0,0.0,0.0,-0.398199200630188,-0.473256379365921,0.7721493244171143,0.4200000464916229,1.0,3.5934988318331307e-06,-2.2624899429501966e-06,-5.653167178820695e-08,0.0002670465619303286,0.0002677509910427034,-0.00010416633449494839,-0.0017431797459721565,0.004214051645249128,-0.0001278916170122102,-0.48833250999450684,0.7578948736190796,0.6161609888076782,-0.16523219645023346,0.46852123737335205,-6.333547115325928,0.32007068395614624,0.7786946296691895,0.42000001668930054,-0.7872805595397949,3.000001907348633,-0.6397594213485718,-2.9999988079071045,-0.10988641530275345,-0.11934246122837067,-0.12811695039272308,-0.13459345698356628,-0.7931860685348511,-0.8272104859352112,-0.8569444417953491,-0.8851051926612854
0.3,0.043300122022628784,0.2243918776512146,0.0,0.9317318797111511,0.0,0.0,-0.36314690113067627,-0.47169026732444763,0.14349956810474396,0.0,0.0,0.0,-3.696422576904297,-0.47325634956359863,0.7721492648124695,0.4200000464916229,0.9999999403953552,3.7250752029649448e-06,-2.235918827864225e-06,3.828830017482687e-07,0.0002647972432896495,0.00026673058164305985,-0.00010453932918608189,-0.0017189180944114923,0.004166692495346069,-0.0001301649317611009,-0.48773330450057983,0.7661789059638977,0.5136564373970032,0.3666462302207947,0.33127954602241516,-5.7969560623168945,0.32007068395614624,0.7786946296691895,0.42000001668930054,-0.737271785736084,2.9999983310699463,-0.6897872090339661,-3.0000009536743164,-0.1267930418252945,-0.13624639809131622,-0.14501221477985382,-0.15147368609905243,-1.0224788188934326,-1.0170023441314697,-1.012829065322876,-1.0094890594482422
0.31666666666666665,0.03412208706140518,0.2249588966369629,0.0,0.9299704432487488,0.0,0.0,-0.3676343560218811,-0.5833114981651306,-0.010136310942471027,0.0,0.0,0.0,0.36452436447143555,-0.473256379365921,0.7721492648124695,0.4200000464916229,0.9999999403953552,3.5577868402469903e-06,-2.278708961966913e-06,2.2836172774987062e-07,0.00026598546537570655,0.0002665847132448107,-0.00010398868471384048,-0.0017240389715880156,0.0041935034096241,-0.0001276976545341313,-0.4802516996860504,0.7681739926338196,0.4206983149051666,0.6757981777191162,-0.19744481146335602,-5.46799373626709,0.32007068395614624,0.7786946296691895,0.42000001668930054,-0.6872647404670715,2.999983310699463,-0.7398130297660828,-3.0000009536743164,-0.14377163350582123,-0.15312539041042328,-0.16181999444961548,-0.1682289093732834,-0.9998818635940552,-0.9996925592422485,-0.9995888471603394,-0.9995418787002563
0.3333333333333333,0.02280185930430889,0.22286321222782135,0.0,0.9384428262710571,0.0,0.0,-0.34543460607528687,-0.725283682346344,-0.1723550409078598,0.0,0.0,0.0,3.7165236473083496,-0.4732562005519867,0.772149384021759,0.41999998688697815,1.0,2.43014460465929e-06,2.4506002205271216e-07,1.231637298815258e-07,-7.488597475457937e-05,7.355290290433913e-05,-2.8462382033467293e-05,0.0028274203650653362,-0.006021085660904646,-0.0002106023021042347,-0.4837069511413574,0.7747402191162109,0.42680859565734863,-0.322989284992218,0.34882545471191406,-0.20916472375392914,0.32007068395614624,0.7786946296691895,0.42000001668930054,-0.6371630430221558,2.999990224838257,-0.7902412414550781,-3.0000033378601074,-0.14071159064769745,-0.15264637768268585,-0.16348797082901,-0.17151977121829987,0.0390353687107563,-0.06335729360580444,-0.14675191044807434,-0.2107856124639511
0.35,0.016952188685536385,0.21743442118167877,0.0,0.9404529333114624,0.0,0.0,-0.3399238586425781,-0.22766326367855072,-0.3757309019565582,0.0,0.0,0.0,-0.25721874833106995,-0.4732688069343567,0.7730137705802917,0.4200003743171692,0.9998453855514526,-2.4671457140357234e-05,1.0057154213427566e-05,-0.01758156344294548,0.018138881772756577,0.13355369865894318,-0.0006554481224156916,0.033838141709566116,-0.0015447573969140649,-4.488581657409668,-0.48618412017822266,0.7787339687347412,0.4233364760875702,0.00689086364582181,0.15845449268817902,-0.21881504356861115,0.32007068395614624,0.7786946296691895,0.42000001668930054,-0.5871573686599731,2.999979019165039,-0.8402737975120544,-2.9999654293060303,-0.13946868479251862,-0.15243251621723175,-0.16399484872817993,-0.17249678075313568,-0.010735271498560905,-0.015806760638952255,-0.0058332644402980804,0.012221582233905792
0.36666666666666664,0.008573669008910656,0.21062153577804565,0.0,0.9470124840736389,0.0,0.0,-0.32119670510292053,-0.7242200374603271,-0.4201730489730835,0.0,0.0,0.0,3.1387903690338135,-0.4703918695449829,0.7793882489204407,0.42000147700309753,0.9946743845939636,-3.172528522554785e-05,8.302334026666358e-05,-0.10306652635335922,0.2818545401096344,0.5355422496795654,-0.004029091913253069,0.08264242112636566,-0.19003596901893616,-14.393144607543945,-0.4840717911720276,0.7865957617759705,0.4206938147544861,0.19639530777931213,0.697861909866333,-0.0872197151184082,0.32007068395614624,0.7786946296691895,0.42000001668930054,-0.5371500849723816,3.000002145767212,-0.8903033137321472,-2.999283790588379,-0.1455112099647522,-0.15716102719306946,-0.16725105047225952,-0.17430318892002106,-0.607642412185669,-0.47515392303466797,-0.33641573786735535,-0.20501241087913513
0.3833333333333333,-0.005888317711651325,0.20229098200798035,0.0,0.9475856423377991,0.0,0.0,-0.3195018470287323,-1.0050089359283447,-0.5267648100852966,0.0,0.0,0.0,-0.7623751163482666,-0.46623694896698,0.7875059843063354,0.4200000464916229,0.9793486595153809,2.8036333787895273e-06,4.343676664575469e-06,-0.20217855274677277,0.23883916437625885,0.4714696407318115,-6.440267270590994e-07,-2.1732721506850794e-05,-3.229225330869667e-05,-11.277935028076172,-0.4783632159233093,0.7930393218994141,0.4212847054004669,0.5480506420135498,0.2541693449020386,0.07917796820402145,0.32007068395614624,0.7786946296691895,0.42000001668930054,-0.4871099591255188,2.999661445617676,-0.9403111338615417,-2.999979257583618,-0.1587623506784439,-0.16684144735336304,-0.1731969118118286,-0.1766250878572464,-0.8798076510429382,-0.6107075810432434,-0.3298608362674713,-0.05571616441011429
0.4,-0.018068887293338776,0.19117854535579681,0.0,0.9386547803878784,0.0,0.0,-0.34485819935798645,-0.6485810279846191,-0.7198947668075562,0.0,0.0,0.0,-4.011460781097412,-0.4601287841796875,0.7968186140060425,0.420836865901947,0.9793307185173035,-0.020617583766579628,0.004592539742588997,-0.2011592537164688,0.6117095947265625,0.7587395310401917,0.11089660972356796,-5.113798141479492,2.2914180755615234,-5.546867370605469,-0.4669705927371979,0.8005644083023071,0.4229414165019989,0.8501551151275635,0.5814100503921509,0.12294616550207138,0.32007068395614624,0.7786946296691895,0.42000001668930054,-0.437080055475235,2.9999587535858154,-0.9903234243392944,-2.999974250793457,-0.17122790217399597,-0.17488190531730652,-0.17653784155845642,-0.17530815303325653,-0.6575894355773926,-0.39082640409469604,-0.10606289654970169,0.17741155624389648
0.4166666666666667,-0.025657283142209053,0.1771160364151001,0.0,0.9192680716514587,0.0,0.0,-0.39363211393356323,-0.3803240656852722,-0.8960700035095215,0.0,0.0,0.0,-7.095348834991455,-0.4403019845485687,0.8132363557815552,0.4237951338291168,0.9669356346130371,-0.043154407292604446,-0.015991823747754097,-0.25083351135253906,1.850551724433899,1.0109121799468994,0.17731577157974243,30.240840911865234,-14.314529418945312,12.3788480758667,-0.44656282663345337,0.8183327913284302,0.4252137243747711,1.6311131715774536,1.4390406608581543,0.25883737206459045,0.32007068395614624,0.7786946296691895,0.42000001668930054,-0.39555156230926514,1.4708365201950073,-1.0403411388397217,-2.9999163150787354,-0.18143904209136963,-0.18087095022201538,-0.17798566818237305,-0.17221586406230927,-0.5716387629508972,-0.3308604955673218,-0.07338555157184601,0.182070791721344
0.43333333333333335,-0.0289524607360363,0.1600540727376938,0.0,0.8864408731460571,0.0,0.0,-0.46284183859825134,-0.1256822645664215,-1.0714032649993896,0.0,0.0,0.0,-9.866121292114258,-0.3931557834148407,0.8465971350669861,0.4260176122188568,0.9528676867485046,0.0089440131559968,-0.056517455726861954,-0.2979409992694855,4.152055740356445,2.2005674839019775,0.2559254467487335,8.218647956848145,-7.557127952575684,12.767475128173828,-0.398934543132782,0.8517003059387207,0.42744097113609314,3.842254161834717,2.607106924057007,0.21330596506595612,0.32007068395614624,0.7786946296691895,0.42000001668930054,-0.3788509666919708,0.8797435760498047,-1.0029321908950806,2.999417304992676,-0.19305571913719177,-0.18783798813819885,-0.18027009069919586,-0.1701061874628067,-0.7104189395904541,-0.4320318400859833,-0.16298680007457733,0.07829516381025314
0.45,-0.03667239472270012,0.1491442173719406,0.0,0.8352428078651428,0.0,0.0,-0.5498813390731812,-0.5684908628463745,-0.5125671029090881,0.0,0.0,0.0,-13.055770874023438,-0.3046934902667999,0.8901470899581909,0.43142980337142944,0.9305290579795837,0.06902891397476196,-0.09244564920663834,-0.3475692570209503,6.676819324493408,2.3056676387786865,0.5578652024269104,15.924592018127441,-17.569496154785156,12.66797161102295,-0.3103276789188385,0.8961994051933289,0.4328899681568146,6.556083679199219,2.9446163177490234,0.4873865246772766,0.32007068395614624,0.7786946296691895,0.42000001668930054,-0.3626061975955963,1.0374935865402222,-0.9528887867927551,2.997453212738037,-0.20904965698719025,-0.20210561156272888,-0.18999110162258148,-0.17454688251018524,-0.8921429514884949,-0.8933903574943542,-0.7362368106842041,-0.4310210347175598
0.4666666666666667,-0.040970392525196075,0.13915550708770752,0.0,0.788894772529602,0.0,0.0,-0.6145282983779907,-0.1545627862215042,-0.6653854846954346,0.0,0.0,0.0,-8.184976577758789,-0.1964019536972046,0.9276399612426758,0.4404972791671753,0.8880967497825623,0.08389762043952942,-0.1135164126753807,-0.4374462962150574,6.51558256149292,1.2528550624847412,0.7441180348396301,7.191832542419434,-3.283803701400757,14.632895469665527,-0.2016219198703766,0.936677098274231,0.4422527849674225,6.697702407836914,1.968569278717041,0.6114197969436646,0.32007068395614624,0.7786946296691895,0.42000001668930054,-0.345126211643219,0.9972328543663025,-0.9781121611595154,-2.9993906021118164,-0.22129115462303162,-0.21451625227928162,-0.19971489906311035,-0.17972315847873688,-0.5620951652526855,-0.5695987939834595,-0.4455753564834595,-0.23629175126552582
0.48333333333333334,-0.04566434025764465,0.13165605068206787,0.0,0.7643131613731384,0.0,0.0,-0.644845187664032,-0.3328950107097626,-0.365672767162323,0.0,0.0,0.0,-3.505953073501587,-0.08959213644266129,0.9464022517204285,0.4507628083229065,0.849547803401947,0.09520769119262695,-0.0772777646780014,-0.5130615234375,6.312150955200195,-0.4534878134727478,0.7207401990890503,-12.169455528259277,11.346525192260742,7.4481120109558105,-0.0932716429233551,0.9573312997817993,0.45142102241516113,6.450356483459473,0.5126750469207764,0.5876781940460205,0.32007068395614624,0.7786946296691895,0.42000001668930054,-0.32888278365135193,0.7857639193534851,-1.0281347036361694,-2.9984982013702393,-0.2344176173210144,-0.22591404616832733,-0.20783169567584991,-0.1836424320936203,-0.8317055106163025,-0.6691362857818604,-0.44551151990890503,-0.1901213824748993
0.5,-0.048686955124139786,0.12099259346723557,0.0,0.731442928314209,0.0,0.0,-0.6819026470184326,-0.1051836758852005,-0.6377168893814087,0.0,0.0,0.0,-6.6850080490112305,0.012384213507175446,0.9435756206512451,0.4564608931541443,0.7937271595001221,0.09189353883266449,-0.06788141280412674,-0.597448468208313,5.862569808959961,-1.953431487083435,0.4808007776737213,-9.827890396118164,13.229555130004883,10.560580253601074,0.009291373193264008,0.9560337066650391,0.4580279588699341,6.084694862365723,-0.7970461249351501,0.3153383135795593,0.32007068395614624,0.7786946296691895,0.42000001668930054,-0.3178916871547699,0.4154474437236786,-1.07815682888031,-2.998837471008301,-0.2400575429201126,-0.23531484603881836,-0.21317832171916962,-0.18471159040927887,-0.05407525971531868,-0.6987828612327576,-0.39790570735931396,-0.10515984892845154
0.5166666666666666,-0.048299264162778854,0.11506349593400955,0.0,0.7110675573348999,0.0,0.0,-0.7031236886978149,0.06388653814792633,-0.3178466856479645,0.0,0.0,0.0,-2.3806986808776855,0.10384304821491241,0.9212837219238281,0.4578999876976013,0.7383384704589844,0.04502958431839943,-0.08029193431138992,-0.6681180000305176,4.716701984405518,-2.6808669567108154,0.31005859375,6.766574382781982,-0.7199217677116394,42.046783447265625,0.10154291987419128,0.9350768327713013,0.4615151882171631,5.25487756729126,-1.6024978160858154,0.03471323475241661,0.32007068395614624,0.7786946296691895,0.42000001668930054,-0.31265684962272644,0.054155487567186356,-1.1281789541244507,-2.999993324279785,-0.2399343103170395,-0.23993314802646637,-0.22251345217227936,-0.18961670994758606,-0.04791651666164398,-0.020374218001961708,-0.4123867154121399,-0.2326955646276474
0.5333333333333333,-0.04798811674118042,0.1135779321193695,0.0,0.7131474614143372,0.0,0.0,-0.7010140419006348,-0.037996806204319,-0.011112052015960217,0.0,0.0,0.0,1.2722554206848145,0.1764237880706787,0.891977846622467,0.45148223638534546,0.6487172842025757,-0.07411918044090271,-0.13032925128936768,-0.746114194393158,3.387465476989746,-1.8925154209136963,-0.08043485879898071,6.4725799560546875,4.960911273956299,-0.9621953368186951,0.17405441403388977,0.9071228504180908,0.45976924896240234,3.5918073654174805,-1.8067744970321655,-0.4147040545940399,0.32007068395614624,0.7786946296691895,0.42000001668930054,-0.3125869631767273,0.05808084085583687,-1.1782010793685913,-2.999685764312744,-0.23911511898040771,-0.23907625675201416,-0.2280011773109436,-0.19384990632534027,0.17184953391551971,0.1584158092737198,-0.20298314094543457,-0.23196670413017273
0.55,-0.04532145336270332,0.10696569830179214,0.0,0.7040717005729675,0.0,0.0,-0.710128903388977,0.14942385256290436,-0.37374943494796753,0.0,0.0,0.0,-2.3004701137542725,0.22955812513828278,0.866599440574646,0.4404349625110626,0.5583735704421997,-0.09787443280220032,-0.11592494696378708,-0.8155984282493591,2.878154754638672,-1.523695468902588,-0.8333426713943481,-6.312882423400879,-1.0604592561721802,-22.86931037902832,0.22587881982326508,0.8814760446548462,0.44923222064971924,2.55718731880188,-1.6291813850402832,-0.796973705291748,0.32007068395614624,0.7786946296691895,0.42000001668930054,-0.30532482266426086,0.9745913743972778,-1.2282230854034424,-2.9999547004699707,-0.2294461727142334,-0.23058056831359863,-0.22571136057376862,-0.1939656287431717,0.4626907408237457,0.4445188641548157,0.15016143023967743,-0.015526547096669674
0.5666666666666667,-0.04099448025226593,0.10150591284036636,0.0,0.7070344090461731,0.0,0.0,-0.7071791291236877,0.2988510727882385,-0.3594042956829071,0.0,0.0,0.0,1.4120625257492065,0.266733318567276,0.8401598334312439,0.4247371554374695,0.540941596031189,-0.11998414993286133,-0.06664469838142395,-0.8297857642173767,1.8637140989303589,-1.5616545677185059,-0.5814839601516724,42.08823776245117,-8.810163497924805,-1.8813884258270264,0.2652435004711151,0.8516477346420288,0.43314021825790405,1.9741098880767822,-1.8024475574493408,-0.9919618964195251,0.32007068395614624,0.7786946296691895,0.42000001668930054,-0.2811044454574585,1.808576226234436,-1.2782436609268188,-3.0000061988830566,-0.22428545355796814,-0.2247728705406189,-0.2234075963497162,-0.19452457129955292,0.3423102796077728,0.385931134223938,0.21130670607089996,0.005599495489150286
0.5833333333333334,-0.034657128155231476,0.09330445528030396,0.0,0.6994405388832092,0.0,0.0,-0.7146908044815063,0.4581153392791748,-0.5166665315628052,0.0,0.0,0.0,-2.0695574283599854,0.2916610836982727,0.8260302543640137,0.4213819205760956,0.5431362986564636,-0.0050115990452468395,0.015986450016498566,-0.8394773602485657,1.0544447898864746,-1.553186058998108,-0.045157358050346375,-0.07078643888235092,-14.833171844482422,19.660444259643555,0.2888294458389282,0.831169605255127,0.4248330593109131,0.992067813873291,-0.9381582140922546,-0.13165399432182312,0.32007068395614624,0.7786946296691895,0.42000001668930054,-0.2495260387659073,1.5352554321289062,-1.2435858249664307,2.992628812789917,-0.2163703292608261,-0.216880202293396,-0.2184983342885971,-0.19391553103923798,0.3717065155506134,0.38562914729118347,0.25181910395622253,-0.008883211761713028
0.6,-0.029879193753004074,0.08884783089160919,0.0,0.7032123804092407,0.0,0.0,-0.7109798789024353,0.2156258523464203,-0.2432398498058319,0.0,0.0,0.0,1.422472357749939,0.30646809935569763,0.8083513379096985,0.42130720615386963,0.5444450378417969,-0.012897354550659657,0.023982439190149307,-0.8383542895317078,0.810283362865448,-1.2168365716934204,0.1953786015510559,5.732295989990234,11.778321266174316,8.056490898132324,0.30310237407684326,0.8128067255020142,0.4254644811153412,0.7066118121147156,-1.0401345491409302,0.09546227753162384,0.32007068395614624,0.7786946296691895,0.42000001668930054,-0.25069278478622437,-1.1377184391021729,-1.2640752792358398,-2.995237112045288,-0.21247054636478424,-0.21244007349014282,-0.215432807803154,-0.1949182152748108,0.31218957901000977,0.3203466236591339,0.24438150227069855,-0.01668584533035755
0.6166666666666667,-0.02497679367661476,0.08755738288164139,0.0,0.6964353919029236,0.0,0.0,-0.7176194787025452,0.3395046591758728,-0.018558287993073463,0.0,0.0,0.0,-1.9994016885757446,0.3157936632633209,0.7979196310043335,0.42302221059799194,0.5511863827705383,-0.03499289229512215,0.04212845861911774,-0.8325827717781067,0.39535781741142273,-0.2893475592136383,0.2304202765226364,5.032473087310791,5.110062122344971,-0.6934229731559753,0.3123377561569214,0.8025501370429993,0.4274557828903198,0.410176545381546,-0.3682059943675995,0.13205237686634064,0.32007068395614624,0.7786946296691895,0.42000001668930054,-0.25806915760040283,0.17271143198013306,-1.3140325546264648,-2.996307134628296,-0.20520125329494476,-0.20599818229675293,-0.21064972877502441,-0.19501632452011108,0.5151904225349426,0.4427658021450043,0.3434980511665344,0.03965626284480095
0.6333333333333333,-0.016639672219753265,0.08109015226364136,0.0,0.7015576958656311,0.0,0.0,-0.7126126289367676,0.46047788858413696,-0.37138938903808594,0.0,0.0,0.0,1.6903491020202637,0.3222864270210266,0.7930817008018494,0.4248410761356354,0.541812002658844,-0.045718882232904434,0.0977977067232132,-0.8335376381874084,0.33763283491134644,-0.29133811593055725,0.08687852323055267,2.284932851791382,2.6418344974517822,-6.520375728607178,0.3168347179889679,0.7955702543258667,0.4272027611732483,0.02563519775867462,-0.4009373188018799,-0.03283227980136871,0.32007068395614624,0.7786946296691895,0.42000001668930054,-0.29338231682777405,-2.9999146461486816,-1.2847250699996948,2.9997260570526123,-0.19267603754997253,-0.19504383206367493,-0.20143331587314606,-0.19107352197170258,0.6013069748878479,0.5544735789299011,0.5075712203979492,0.23807206749916077
0.65,-0.007648678962141275,0.07960031926631927,0.0,0.695411205291748,0.0,0.0,-0.718612015247345,0.6200910210609436,-0.09320226311683655,0.0,0.0,0.0,-1.8240251541137695,0.32372909784317017,0.7904175519943237,0.42557618021965027,0.5511902570724487,-0.04476277157664299,0.08950036764144897,-0.828356921672821,0.14534194767475128,-0.03011278808116913,-0.00943362433463335,-2.6215620040893555,-3.3402717113494873,2.2832143306732178,0.3167206645011902,0.7944742441177368,0.4295276701450348,0.051879845559597015,0.06042229384183884,0.2237829864025116,0.32007068395614624,0.7786946296691895,0.42000001668930054,-0.3433331549167633,-2.987790822982788,-1.304279088973999,-2.9983294010162354,-0.18381185829639435,-0.18709930777549744,-0.19413481652736664,-0.18802329897880554,0.6749820113182068,0.5772497057914734,0.511061429977417,0.23958303034305573
0.6666666666666666,0.004282659851014614,0.0770847350358963,0.0,0.701531171798706,0.0,0.0,-0.7126387357711792,0.7573496699333191,-0.15701927244663239,0.0,0.0,0.0,1.9432621002197266,0.3247133493423462,0.7899556159973145,0.4241017699241638,0.5697352290153503,-0.02807442843914032,0.042187370359897614,-0.820264458656311,-0.0672525092959404,-0.02539375051856041,-0.06573204696178436,-3.677434206008911,-5.6531147956848145,2.480189323425293,0.3163132071495056,0.7948578596115112,0.433077871799469,-0.06740088760852814,0.011295387521386147,0.22793982923030853,0.32007068395614624,0.7786946296691895,0.42000001668930054,-0.393339067697525,-2.999985694885254,-1.3542850017547607,-2.99995756149292,-0.17258653044700623,-0.17732323706150055,-0.18516725301742554,-0.18315578997135162,0.6243168711662292,0.5563739538192749,0.5303670167922974,0.31400713324546814
0.6833333333333333,0.013303311541676521,0.07535893470048904,0.0,0.6967204809188843,0.0,0.0,-0.717342734336853,0.4723624885082245,-0.1187300905585289,0.0,0.0,0.0,-1.7243164777755737,0.3235904276371002,0.7895320057868958,0.42096519470214844,0.5868072509765625,-0.00770665192976594,-0.01041803602129221,-0.8096228241920471,-0.06723462790250778,-0.0254166591912508,-0.22909857332706451,-3.6784605979919434,-5.657792091369629,2.477055311203003,0.31595945358276367,0.7952631115913391,0.4371618628501892,-0.03682989999651909,0.018643854185938835,0.26406094431877136,0.32007068395614624,0.7786946296691895,0.42000001668930054,-0.4433292746543884,-2.999765634536743,-1.4042532444000244,-2.9998111724853516,-0.16607776284217834,-0.1710273027420044,-0.17829212546348572,-0.17865419387817383,0.32445603609085083,0.34152519702911377,0.4083772301673889,0.3103927671909332
0.7,0.022857094183564186,0.07021467387676239,0.0,0.673568844795227,0.0,0.0,-0.7391244769096375,0.6194731593132019,-0.38065555691719055,0.0,0.0,0.0,-4.7960968017578125,0.3235827088356018,0.7890579104423523,0.4200000464916229,0.587096631526947,3.9763818904248183e-07,2.6194295514869737e-06,-0.8095167279243469,0.004518361296504736,0.007311035878956318,-5.026675353292376e-05,-0.001792510855011642,-0.002773970365524292,-0.20917442440986633,0.3165782690048218,0.795975923538208,0.4454379677772522,0.1484614610671997,0.02460528165102005,0.8551186323165894,0.32007068395614624,0.7786946296691895,0.42000001668930054,-0.49334287643432617,-2.9999825954437256,-1.4542713165283203,-2.9999988079071045,-0.16311059892177582,-0.16725744307041168,-0.1728225201368332,-0.1739332377910614,0.08436889946460724,0.1584899127483368,0.28801727294921875,0.2865980565547943
0.7166666666666667,0.035115260630846024,0.06849246472120285,0.0,0.6621842384338379,0.0,0.0,-0.7493410706520081,0.7521564364433289,-0.07722161710262299,0.0,0.0,0.0,-0.6863372921943665,0.32358232140541077,0.7890583872795105,0.41999995708465576,0.5870969891548157,-1.1553024705790449e-06,-6.2239782891992945e-06,-0.8095166087150574,0.0001296487607760355,-0.00044091083691455424,-8.528213948011398e-05,0.01094636507332325,-0.0033039685804396868,-0.0009574986179359257,0.3195394277572632,0.7985975742340088,0.46845874190330505,0.3008407652378082,0.34801316261291504,1.8738081455230713,0.32007068395614624,0.7786946296691895,0.42000001668930054,-0.5433509945869446,-2.999995708465576,-1.5042896270751953,-2.999999761581421,-0.16525378823280334,-0.168014794588089,-0.17129482328891754,-0.17204272747039795,-0.05420997366309166,-0.016405893489718437,0.07742337882518768,0.07580427080392838
0.7333333333333333,0.04455232992768288,0.0693998709321022,0.0,0.6745249032974243,0.0,0.0,-0.7382521033287048,0.5001087784767151,0.10436943918466568,0.0,0.0,0.0,2.828824281692505,0.32358238101005554,0.7890583872795105,0.41999995708465576,0.5870968699455261,-1.400419932906516e-06,-5.71498185308883e-06,-0.8095165491104126,0.00012439338024705648,-0.00040101484046317637,-7.977243512868881e-05,0.009837337769567966,-0.0026481698732823133,-0.0008734196308068931,0.3282763957977295,0.802610456943512,0.49459823966026306,0.661842405796051,0.18091940879821777,1.351243019104004,0.32007068395614624,0.7786946296691895,0.42000001668930054,-0.5740642547607422,-0.8495523929595947,-1.5543079376220703,-3.0000007152557373,-0.16606955230236053,-0.16797219216823578,-0.16946254670619965,-0.16972649097442627,-0.01020572055131197,0.050322890281677246,0.16399641335010529,0.21324509382247925
0.75,0.04947555437684059,0.06597752124071121,0.0,0.6747580766677856,0.0,0.0,-0.7380390167236328,0.2525832951068878,-0.2159280925989151,0.0,0.0,0.0,-0.8833442330360413,0.32358238101005554,0.7890583276748657,0.41999995708465576,0.5870969891548157,-1.1977036820098874e-06,-5.8684022405941505e-06,-0.8095165491104126,0.00012298706860747188,-0.00040174726746045053,-7.984088733792305e-05,0.009855985641479492,-0.0026619869749993086,-0.0008710286929272115,0.33688682317733765,0.8049663305282593,0.51060551404953,0.32579684257507324,-0.07540024816989899,0.714804470539093,0.32007068395614624,0.7786946296691895,0.42000001668930054,-0.6007677912712097,-2.2127177715301514,-1.5359410047531128,2.999999761581421,-0.16271477937698364,-0.16401226818561554,-0.16415712237358093,-0.163994699716568,0.05586564913392067,0.13193202018737793,0.24009652435779572,0.29557204246520996
0.7666666666666666,0.055834926664829254,0.06712489575147629,0.0,0.6849314570426941,0.0,0.0,-0.7286074757575989,0.39220869541168213,0.06675028800964355,0.0,0.0,0.0,2.5451912879943848,0.32358238101005554,0.7890583872795105,0.41999995708465576,0.5870967507362366,-1.2096940054107108e-06,-5.694115316146053e-06,-0.8095166683197021,0.00012429553316906095,-0.0004026694514323026,-7.982016541063786e-05,0.009888590313494205,-0.0026719761081039906,-0.0008755993330851197,0.34258925914764404,0.8038936853408813,0.5239298343658447,0.4216776192188263,0.06213203817605972,0.8831481337547302,0.32007068395614624,0.7786946296691895,0.42000001668930054,-0.6215279698371887,-0.41638851165771484,-1.5513476133346558,-3.000000238418579,-0.1643105447292328,-0.16416671872138977,-0.16246889531612396,-0.1612221896648407,0.05224715545773506,0.08984603732824326,0.14950954914093018,0.176627054810524
0.7833333333333333,0.05920828878879547,0.06432908028364182,0.0,0.6838657259941101,0.0,0.0,-0.729607880115509,0.1343146711587906,-0.20939476788043976,0.0,0.0,0.0,-0.9670805335044861,0.32358235120773315,0.7890583872795105,0.41999995708465576,0.5870969295501709,-1.1994518445135327e-06,-5.8899427131109405e-06,-0.8095166087150574,0.0001244685990968719,-0.00040158024057745934,-7.983786053955555e-05,0.009853080846369267,-0.0026554889045655727,-0.0008742776117287576,0.35040709376335144,0.8026954531669617,0.5319949388504028,0.4664151072502136,-0.2591858506202698,0.25563910603523254,0.32007068395614624,0.7786946296691895,0.42000001668930054,-0.6442657709121704,-2.1446259021759033,-1.5124759674072266,3.000000238418579,-0.16303235292434692,-0.16211503744125366,-0.15937106311321259,-0.1574995517730713,-0.007023174781352282,0.06685923784971237,0.14998984336853027,0.2117767333984375
0.8,0.06339329481124878,0.06533310562372208,0.0,0.680121660232544,0.0,0.0,-0.7330992817878723,0.27047839760780334,0.06294196099042892,0.0,0.0,0.0,-0.4394122362136841,0.32358238101005554,0.7890583872795105,0.41999995708465576,0.5870971083641052,-1.2251347243363853e-06,-5.741575023421319e-06,-0.8095165491104126,0.00012494991824496537,-0.0004013422876596451,-7.978337816894054e-05,0.009848366491496563,-0.0026518867816776037,-0.0008753034635446966,0.35913169384002686,0.7981503009796143,0.536952018737793,0.6422282457351685,-0.2193184494972229,0.398386687040329,0.32007068395614624,0.7786946296691895,0.42000001668930054,-0.6609802842140198,-0.0296160951256752,-1.5283796787261963,-3.0,-0.16544024646282196,-0.1631113886833191,-0.15883509814739227,-0.15564902126789093,-0.01892845705151558,0.03163990378379822,0.09122706204652786,0.14917120337486267
0.8166666666666667,0.06608722358942032,0.062143340706825256,0.0,0.6911768913269043,0.0,0.0,-0.7226856350898743,0.08199986815452576,-0.228966623544693,0.0,0.0,0.0,2.7943625450134277,0.32358235120773315,0.7890583276748657,0.41999995708465576,0.5870969295501709,-1.2858006357419072e-06,-5.460083229991142e-06,-0.8095165491104126,0.00012778695963788778,-0.0004033474251627922,-7.985509000718594e-05,0.009914328344166279,-0.0026686445344239473,-0.0008851233287714422,0.3706294000148773,0.7925301790237427,0.5440237522125244,0.6972379684448242,-0.466011643409729,0.5000422596931458,0.32007068395614624,0.7786946296691895,0.42000001668930054,-0.6683353781700134,-0.782059907913208,-1.5783838033676147,-2.9999992847442627,-0.16457372903823853,-0.16135069727897644,-0.1561034768819809,-0.15191318094730377,-0.02428278513252735,0.04879625141620636,0.12148690968751907,0.19762355089187622
0.8333333333333334,0.06912746280431747,0.060907281935214996,0.0,0.6908735036849976,0.0,0.0,-0.7229756712913513,0.22793594002723694,-0.05708951875567436,0.0,0.0,0.0,-0.8939418196678162,0.32358235120773315,0.7890583872795105,0.41999995708465576,0.5870969295501709,-1.1936105011045584e-06,-5.784321274404647e-06,-0.8095165491104126,0.00012122778571210802,-0.00040087351226247847,-7.97805842012167e-05,0.009827343747019768,-0.0026564309373497963,-0.0008652370888739824,0.3817203640937805,0.7849116325378418,0.5472357869148254,0.6502867937088013,-0.40849781036376953,0.011174734681844711,0.32007068395614624,0.7786946296691895,0.42000001668930054,-0.6704080104827881,0.42909663915634155,-1.6284021139144897,-2.999999523162842,-0.16649746894836426,-0.16200648248195648,-0.1555398851633072,-0.15002138912677765,0.024949567392468452,0.06569436192512512,0.10478281229734421,0.15680988132953644
0.85,0.07048060745000839,0.05705137178301811,0.0,0.6984164714813232,0.0,0.0,-0.7156915664672852,0.035152774304151535,-0.30774569511413574,0.0,0.0,0.0,2.2828824520111084,0.32358235120773315,0.7890583872795105,0.41999995708465576,0.5870970487594604,-1.1984539014520124e-06,-5.828166649735067e-06,-0.809516429901123,0.0001245372259290889,-0.00040121417259797454,-7.977709174156189e-05,0.009843881241977215,-0.0026512853801250458,-0.0008740894263610244,0.39160627126693726,0.7764649391174316,0.5500661730766296,0.5407161712646484,-0.5210233926773071,0.3590496778488159,0.32007068395614624,0.7786946296691895,0.42000001668930054,-0.6700091361999512,-0.31843820214271545,-1.6308168172836304,2.2565064430236816,-0.16660289466381073,-0.16133134067058563,-0.15418089926242828,-0.14777493476867676,0.004600811284035444,0.042328786104917526,0.07167329639196396,0.11371352523565292
0.8666666666666667,0.0692155659198761,0.05630653724074364,0.0,0.6952992081642151,0.0,0.0,-0.7187204360961914,-0.12022776901721954,0.012548253871500492,0.0,0.0,0.0,-1.3943148851394653,0.32358235120773315,0.7890583872795105,0.41999995708465576,0.5870969295501709,-1.3600454167317366e-06,-5.667513505613897e-06,-0.8095166087150574,0.00012734127813018858,-0.00040273790364153683,-7.978035137057304e-05,0.009897054173052311,-0.0026631304062902927,-0.0008831230225041509,0.3991614282131195,0.7686874866485596,0.5519280433654785,0.3458595275878906,-0.417197585105896,0.00041939690709114075,0.32007068395614624,0.7786946296691895,0.42000001668930054,-0.667962908744812,0.491083562374115,-1.6520992517471313,-3.000000238418579,-0.16764003038406372,-0.16200092434883118,-0.15458202362060547,-0.1476307064294815,0.017523927614092827,0.015166179277002811,0.008329594507813454,0.021366188302636147
0.8833333333333333,0.06990615278482437,0.05397437885403633,0.0,0.702946126461029,0.0,0.0,-0.7112430930137634,0.07616150379180908,-0.13231869041919708,0.0,0.0,0.0,2.0881404876708984,0.32358235120773315,0.7890583872795105,0.41999995708465576,0.5870970487594604,-1.1859889355037012e-06,-5.748546300310409e-06,-0.809516429901123,0.00012057392450515181,-0.00040071678813546896,-7.974100299179554e-05,0.009822949767112732,-0.0026574586518108845,-0.0008634844562038779,0.4042554497718811,0.7644245624542236,0.5539109706878662,0.22538895905017853,-0.13672754168510437,0.2719331383705139,0.32007068395614624,0.7786946296691895,0.42000001668930054,-0.6379785537719727,2.8761067390441895,-1.7021137475967407,-2.999999523162842,-0.16378222405910492,-0.15898549556732178,-0.1524735689163208,-0.1460631936788559,0.16102389991283417,0.11547768861055374,0.06197171285748482,0.026602033525705338
0.9,0.06919711828231812,0.05454116687178612,0.0,0.6984193921089172,0.0,0.0,-0.7156887054443359,-0.06736325472593307,0.13146162033081055,0.0,0.0,0.0,-1.6309932470321655,0.32358238101005554,0.7890583872795105,0.41999995708465576,0.5870969891548157,-1.3002481864532456e-06,-5.4088477554614656e-06,-0.8095166087150574,0.00012777365918736905,-0.00040287530282512307,-7.978687062859535e-05,0.009901827201247215,-0.0026641988661140203,-0.0008844182011671364,0.40847480297088623,0.7647782564163208,0.5586538314819336,0.2517000436782837,0.08472890406847,0.4329056739807129,0.32007068395614624,0.7786946296691895,0.42000001668930054,-0.6035020351409912,1.3635046482086182,-1.6628262996673584,2.999999761581421,-0.16133248805999756,-0.1577586531639099,-0.15248563885688782,-0.14690497517585754,0.1408068835735321,0.055779457092285156,-0.02637987956404686,-0.08099120110273361
