vladlanda/robotic-transformer/data/env_000_episode_0072.csv
sim_time_s,robot_box_x,robot_box_y,robot_box_z,robot_box_quat_w,robot_box_quat_x,robot_box_quat_y,robot_box_quat_z,robot_box_linvel_x,robot_box_linvel_y,robot_box_linvel_z,robot_box_angvel_x,robot_box_angvel_y,robot_box_angvel_z,cube_world_x,cube_world_y,cube_world_z,cube_quat_w,cube_quat_x,cube_quat_y,cube_quat_z,cube_linvel_x,cube_linvel_y,cube_linvel_z,cube_angvel_x,cube_angvel_y,cube_angvel_z,endpoint_world_x,endpoint_world_y,endpoint_world_z,endpoint_linvel_x,endpoint_linvel_y,endpoint_linvel_z,target_cube_world_x,target_cube_world_y,target_cube_world_z,gripper_actual_pos_rad_gp_leftgearjoint,gripper_actual_vel_rad_s_gp_leftgearjoint,gripper_actual_pos_rad_gp_rotatingjoint,gripper_actual_vel_rad_s_gp_rotatingjoint,motor_angle_rad_joint1,motor_angle_rad_joint2,motor_angle_rad_joint3,motor_angle_rad_joint4,motor_speed_rad_s_joint1,motor_speed_rad_s_joint2,motor_speed_rad_s_joint3,motor_speed_rad_s_joint4
0.0,0.0,0.0,0.0,1.0,0.0,0.0,0.0,0.0,0.0,0.0,0.0,0.0,0.0,-0.3692960739135742,0.7486374378204346,0.41999998688697815,1.0,0.0,0.0,0.0,0.0,0.0,0.0,0.0,0.0,0.0,3.42540442943573e-06,-0.005000244826078415,1.313499927520752,0.0,0.0,0.0,0.45165112614631653,0.763617753982544,0.42000001668930054,-1.5707999467849731,0.0,0.0,0.0,0.0,0.0,0.0,0.0,0.0,0.0,0.0,0.0
0.016666666666666666,0.0028912306297570467,0.002162919845432043,0.0,0.9998379945755005,0.0,0.0,0.018001191318035126,0.24119921028614044,0.18185678124427795,0.0,0.0,0.0,3.1417367458343506,-0.36929619312286377,0.7486371397972107,0.41999998688697815,1.0,3.279964630564791e-06,-8.339746386809566e-07,8.465587342243452e-08,-1.9833529222523794e-05,0.00017983045836444944,-6.132945418357849e-05,0.0009432713268324733,-0.004689474124461412,-0.00031981561915017664,-0.007104761898517609,0.0034191824961453676,1.3159406185150146,-0.8131030797958374,0.9882105588912964,0.1809743195772171,0.45165112614631653,0.763617753982544,0.42000001668930054,-1.5301094055175781,3.000002384185791,-0.04585131257772446,-3.0,0.0008709125686436892,0.0007976240012794733,0.0007121646194718778,0.0006125042564235628,0.11086036264896393,0.09749553352594376,0.08327134698629379,0.06815207749605179
0.03333333333333333,0.008976943790912628,0.006776052061468363,0.0,0.9998267889022827,0.0,0.0,0.018611997365951538,0.40720051527023315,0.3148247003555298,0.0,0.0,0.0,-0.8687590956687927,-0.3692963123321533,0.7486370801925659,0.4200000464916229,1.0,3.390805204617209e-06,-2.132404688381939e-06,-3.708747797759315e-08,0.0002635775599628687,0.0002693787682801485,-0.0001050964929163456,-0.0017706695944070816,0.004130705259740353,-0.00013547964044846594,-0.026252232491970062,0.026455067098140717,1.3167558908462524,-1.4478538036346436,1.6287617683410645,-0.06566733121871948,0.45165112614631653,0.763617753982544,0.42000001668930054,-1.4800901412963867,3.0000009536743164,-0.09589114040136337,-3.0000009536743164,0.002854786580428481,0.002469865372404456,0.002047151094302535,0.0015830344054847956,0.14792081713676453,0.11856915056705475,0.08772316575050354,0.05531022697687149
0.05,0.018488526344299316,0.013878901489078999,0.0,0.9999632239341736,0.0,0.0,-0.008578898385167122,0.6360889673233032,0.47205090522766113,0.0,0.0,0.0,-4.072741508483887,-0.3692963421344757,0.7486371397972107,0.4200000464916229,1.0,3.7651225284207612e-06,-2.211832452303497e-06,5.631207500300661e-09,0.0002653110132087022,0.000266915129031986,-0.00010440382175147533,-0.0017243130132555962,0.00417749211192131,-0.00012949398660566658,-0.05284027382731438,0.058627963066101074,1.3128077983856201,-1.7555828094482422,2.153562545776367,-0.401003360748291,0.45165112614631653,0.763617753982544,0.42000001668930054,-1.4300718307495117,2.999999523162842,-0.14592984318733215,-3.0000007152557373,0.00545854214578867,0.004481154028326273,0.0034314384683966637,0.002305055735632777,0.17466579377651215,0.12942424416542053,0.08226344734430313,0.03312595561146736
0.06666666666666667,0.030880575999617577,0.023373404517769814,0.0,0.9998369812965393,0.0,0.0,-0.018055981025099754,0.7742739319801331,0.6164798140525818,0.0,0.0,0.0,-0.02159644477069378,-0.3692963421344757,0.7486370801925659,0.4200000464916229,0.9999999403953552,3.4066986245306907e-06,-2.2855422230350086e-06,4.301130900330463e-07,0.0002670245012268424,0.00026791836717166007,-0.0001043803058564663,-0.0017406563274562359,0.004211660008877516,-0.00012850432540290058,-0.08529643714427948,0.09395018219947815,1.3037352561950684,-2.0158944129943848,2.2322793006896973,-0.6796882748603821,0.45165112614631653,0.763617753982544,0.42000001668930054,-1.3800495862960815,3.0000038146972656,-0.16131828725337982,0.8303799629211426,0.0074744694866240025,0.00566943408921361,0.0037517540622502565,0.001717143808491528,0.09510091692209244,0.037161700427532196,-0.02293158881366253,-0.08522503823041916
0.08333333333333333,0.03702429682016373,0.03675730898976326,0.0,0.9991264939308167,0.0,0.0,-0.0417887382209301,0.22725887596607208,0.8783828616142273,0.0,0.0,0.0,-3.795102119445801,-0.3692963421344757,0.7486370801925659,0.4200000464916229,1.0,3.697237389133079e-06,-2.188894086430082e-06,-2.632152131809562e-07,0.000263897207332775,0.0002658645680639893,-0.00010433699935674667,-0.0017081270925700665,0.00415023323148489,-0.0001299154246225953,-0.11411724984645844,0.13501858711242676,1.2900407314300537,-1.4697718620300293,2.6996114253997803,-0.8910268545150757,0.45165112614631653,0.763617753982544,0.42000001668930054,-1.3300459384918213,3.0000011920928955,-0.20396097004413605,-3.0000011920928955,0.002860145177692175,0.00027156766736879945,-0.002483678748831153,-0.005413547158241272,-0.40647292137145996,-0.46452778577804565,-0.5253421664237976,-0.5891605019569397
0.1,0.04684774950146675,0.05174923315644264,0.0,0.9956545829772949,0.0,0.0,-0.09312297403812408,0.7372339367866516,0.9048575162887573,0.0,0.0,0.0,-6.952371597290039,-0.3692963421344757,0.7486370801925659,0.4200000464916229,0.9999999403953552,3.6202645787852816e-06,-2.2652204734185943e-06,1.7464172685777157e-07,0.00026676952256821096,0.00026740870089270175,-0.0001040799543261528,-0.0017386189429089427,0.004209231119602919,-0.0001277522387681529,-0.13913896679878235,0.1819140911102295,1.2756896018981934,-1.5392539501190186,2.9593019485473633,-0.8898545503616333,0.45165112614631653,0.763617753982544,0.42000001668930054,-1.2800359725952148,3.0000009536743164,-0.23336321115493774,-0.6992006301879883,0.0004595652280841023,-0.003667189972475171,-0.00796414539217949,-0.012439416721463203,-0.05243271216750145,-0.15475432574748993,-0.25601208209991455,-0.35613319277763367
0.11666666666666667,0.05524563789367676,0.06429307162761688,0.0,0.9921388626098633,0.0,0.0,-0.1251416951417923,0.5455020666122437,0.6822038888931274,0.0,0.0,0.0,-2.565511465072632,-0.3692963421344757,0.7486370801925659,0.4200000464916229,1.0,3.798244051722577e-06,-2.2627962152910186e-06,-1.50183694813677e-07,0.000263741152593866,0.00026566089945845306,-0.00010428996756672859,-0.0017054296331480145,0.004147564060986042,-0.00012979822349734604,-0.16916757822036743,0.22917190194129944,1.2590258121490479,-1.7735810279846191,3.0498619079589844,-1.0048719644546509,0.45165112614631653,0.763617753982544,0.42000001668930054,-1.2301663160324097,2.962278127670288,-0.19427700340747833,3.000000476837158,-0.0028253868222236633,-0.008515813387930393,-0.014351113699376583,-0.02033926732838154,-0.08764490485191345,-0.2024010270833969,-0.3136484920978546,-0.4212060272693634
0.13333333333333333,0.06117275729775429,0.07771695405244827,0.0,0.9861934185028076,0.0,0.0,-0.16559743881225586,0.2852778136730194,0.8538441061973572,0.0,0.0,0.0,-5.680097579956055,-0.3692963421344757,0.7486371397972107,0.4200000464916229,0.9999999403953552,3.55031761500868e-06,-2.2298022486211266e-06,2.929353684066882e-07,0.0002670320973265916,0.0002677934244275093,-0.00010417005978524685,-0.0017440698575228453,0.004213511943817139,-0.00012799800606444478,-0.1970745027065277,0.28279948234558105,1.2414319515228271,-1.5033743381500244,3.5083718299865723,-1.1521250009536743,0.45165112614631653,0.763617753982544,0.42000001668930054,-1.1833624839782715,2.641939640045166,-0.22578164935112,-2.999999761581421,-0.005930653307586908,-0.013522759079933167,-0.021187229081988335,-0.0289288442581892,-0.25894778966903687,-0.3665889501571655,-0.46966853737831116,-0.5680012702941895
0.15,0.06947703659534454,0.09145674109458923,0.0,0.9792155623435974,0.0,0.0,-0.20282228291034698,0.5426647067070007,0.8242281675338745,0.0,0.0,0.0,-3.835422992706299,-0.3692963123321533,0.7486370801925659,0.4200000464916229,1.0,3.332025926283677e-06,-2.1019659470766783e-06,1.313283775061791e-07,0.00026730605168268085,0.00026859392528422177,-0.00010459637269377708,-0.0017496388172730803,0.004215574357658625,-0.00012928410433232784,-0.22851382195949554,0.3414260447025299,1.2152471542358398,-2.0395474433898926,3.710192918777466,-1.9409661293029785,0.45165112614631653,0.763617753982544,0.42000001668930054,-1.1552668809890747,0.8597669005393982,-0.1918407678604126,2.9999992847442627,-0.01042789127677679,-0.019339926540851593,-0.02825847640633583,-0.03718723729252815,-0.4054088294506073,-0.4464869797229767,-0.48500823974609375,-0.5209853053092957
0.16666666666666666,0.07533847540616989,0.10309015959501266,0.0,0.9670611023902893,0.0,0.0,-0.2545444369316101,0.3199462294578552,0.6126792430877686,0.0,0.0,0.0,-7.195343494415283,-0.3692963421344757,0.7486370801925659,0.4200000464916229,1.0,3.7371282815001905e-06,-2.233031636933447e-06,-1.8763215337003203e-07,0.000264328729826957,0.0002662690822035074,-0.00010445667430758476,-0.0017118192045018077,0.004157449118793011,-0.00013001686602365226,-0.26042628288269043,0.40668588876724243,1.1794977188110352,-1.656125783920288,4.206134796142578,-2.3305587768554688,0.45165112614631653,0.763617753982544,0.42000001668930054,-1.1120487451553345,3.000000476837158,-0.22336030006408691,-3.000000476837158,-0.019987978041172028,-0.029308322817087173,-0.03860216587781906,-0.047876834869384766,-0.6078794002532959,-0.6293724775314331,-0.6487689018249512,-0.6662781238555908
0.18333333333333332,0.07750487327575684,0.11543426662683487,0.0,0.9583584666252136,0.0,0.0,-0.28556787967681885,0.05824635177850723,0.7713585495948792,0.0,0.0,0.0,-2.769882917404175,-0.3692963421344757,0.7486371397972107,0.4200000464916229,0.9999999403953552,3.6600679322873475e-06,-2.302136635989882e-06,2.528700520088023e-07,0.00026690925005823374,0.0002676027943380177,-0.0001041253563016653,-0.0017412796150892973,0.0042115445248782635,-0.00012787021114490926,-0.2930601239204407,0.4750228524208069,1.1310791969299316,-1.8008795976638794,4.3239312171936035,-3.403426170349121,0.45165112614631653,0.763617753982544,0.42000001668930054,-1.0734254121780396,1.715194582939148,-0.2733885943889618,-2.999999761581421,-0.032254282385110855,-0.04140724614262581,-0.0504990853369236,-0.059545353055000305,-0.7721701264381409,-0.7443431615829468,-0.7146060466766357,-0.6835282444953918
0.2,0.08300495892763138,0.12926489114761353,0.0,0.9443401098251343,0.0,0.0,-0.3289707899093628,0.3143041729927063,0.8865177035331726,0.0,0.0,0.0,-6.349144458770752,-0.3692963421344757,0.7486370801925659,0.4200000464916229,1.0,3.5906386983697303e-06,-2.3002876332611777e-06,1.387365955451969e-07,0.0002665475767571479,0.0002673207491170615,-0.00010424014180898666,-0.0017325275111943483,0.004203495569527149,-0.00012820970732718706,-0.32294565439224243,0.5484358668327332,1.066962718963623,-1.5544813871383667,4.4782304763793945,-4.3367156982421875,0.45165112614631653,0.763617753982544,0.42000001668930054,-1.0260648727416992,2.999971866607666,-0.32341501116752625,-2.9999990463256836,-0.04377060383558273,-0.05240928754210472,-0.06095852702856064,-0.06944433599710464,-0.8722339868545532,-0.8034820556640625,-0.7355320453643799,-0.6692185401916504
0.21666666666666667,0.08518552780151367,0.14037753641605377,0.0,0.9349713921546936,0.0,0.0,-0.35472315549850464,0.09092431515455246,0.6060158014297485,0.0,0.0,0.0,-2.162506341934204,-0.3692963421344757,0.7486371397972107,0.4200000464916229,1.0,3.6067460769118043e-06,-2.260896735606366e-06,1.9630940428783106e-08,0.0002644705818966031,0.0002655840362422168,-0.00010396447032690048,-0.0017087544547393918,0.004164231941103935,-0.00012832245556637645,-0.34950798749923706,0.6165999174118042,0.985383152961731,-1.2566508054733276,4.008204460144043,-5.358993053436279,0.45165112614631653,0.763617753982544,0.42000001668930054,-0.9760575890541077,3.0000014305114746,-0.37344086170196533,-3.000000476837158,-0.05969444662332535,-0.06744017452001572,-0.0742582380771637,-0.0810541883111,-0.9488593935966492,-0.9431200623512268,-0.8310279250144958,-0.7179602384567261
0.23333333333333334,0.08884727954864502,0.15273036062717438,0.0,0.9199080467224121,0.0,0.0,-0.3921341300010681,0.2642475366592407,0.7592673301696777,0.0,0.0,0.0,-5.697788715362549,-0.3692963123321533,0.7486370801925659,0.4200000464916229,0.9999999403953552,3.742040007637115e-06,-2.2273377453529974e-06,4.589223294715339e-07,0.00026475079357624054,0.00026671396335586905,-0.0001045342069119215,-0.001718980842269957,0.004165731370449066,-0.00013019278412684798,-0.3682449162006378,0.678002119064331,0.8876557350158691,-0.8522429466247559,3.3798470497131348,-6.232873916625977,0.45165112614631653,0.763617753982544,0.42000001668930054,-0.926048219203949,3.0000014305114746,-0.423469603061676,-2.9999988079071045,-0.07575797289609909,-0.08350393176078796,-0.0902562066912651,-0.0950714498758316,-0.9775495529174805,-0.9742313623428345,-0.9693897366523743,-0.8757042288780212
0.25,0.09062694758176804,0.1621948778629303,0.0,0.911542534828186,0.0,0.0,-0.41120582818984985,0.04441416636109352,0.49148133397102356,0.0,0.0,0.0,-1.4508626461029053,-0.3692963421344757,0.7486370801925659,0.4200000464916229,1.0,3.3941641959245317e-06,-2.2818860543338815e-06,1.336301380661098e-07,0.0002667922817636281,0.0002679384488146752,-0.00010439474135637283,-0.0017417253693565726,0.004206556361168623,-0.00012884114403277636,-0.3817936182022095,0.7231400012969971,0.7790930867195129,-0.5001400709152222,2.203965425491333,-6.745044708251953,0.45165112614631653,0.763617753982544,0.42000001668930054,-0.8760375380516052,2.9999992847442627,-0.4735002815723419,-3.000000476837158,-0.09232115745544434,-0.0999753549695015,-0.10663529485464096,-0.11138276755809784,-0.9906240105628967,-0.9862529039382935,-0.9756757616996765,-0.9680081605911255
0.26666666666666666,0.08899793028831482,0.16739089787006378,0.0,0.9155998229980469,0.0,0.0,-0.40209078788757324,-0.15480448305606842,0.2463434636592865,0.0,0.0,0.0,2.0078237056732178,-0.3692963421344757,0.7486371397972107,0.4200000464916229,1.0,3.683193199321977e-06,-2.309913497811067e-06,2.101072880122956e-07,0.0002647913643158972,0.0002662580809555948,-0.00010421057231724262,-0.0017168582417070866,0.0041689565405249596,-0.00012909348879475147,-0.393298864364624,0.7464690208435059,0.6660264730453491,-0.6293855905532837,0.6759476065635681,-6.812081336975098,0.45165112614631653,0.763617753982544,0.42000001668930054,-0.826027512550354,2.9999749660491943,-0.5235316753387451,-2.9999990463256836,-0.10900431871414185,-0.11659195274114609,-0.12319619208574295,-0.12790992856025696,-0.99309241771698,-0.9944047927856445,-0.9905402064323425,-0.9869810342788696
0.2833333333333333,0.09023187309503555,0.16756026446819305,0.0,0.9133453369140625,0.0,0.0,-0.407185822725296,0.10481448471546173,-0.062347088009119034,0.0,0.0,0.0,-1.4060031175613403,-0.3692963421344757,0.7486370801925659,0.4200000464916229,1.0,3.3066860396502307e-06,-2.2123508642835077e-06,2.6256594765072805e-07,0.00026660787989385426,0.00026745101786218584,-0.00010424572974443436,-0.0017352577997371554,0.004204442724585533,-0.00012828593025915325,-0.39771878719329834,0.7548788785934448,0.5516259074211121,0.06307217478752136,0.016672223806381226,-6.674485206604004,0.45165112614631653,0.763617753982544,0.42000001668930054,-0.7760186791419983,3.0,-0.5735613703727722,-3.0000014305114746,-0.12582360208034515,-0.13328148424625397,-0.13977710902690887,-0.14445281028747559,-1.0102877616882324,-1.0077677965164185,-1.0058456659317017,-1.0043069124221802
0.3,0.0884074717760086,0.16583377122879028,0.0,0.9175992012023926,0.0,0.0,-0.39750686287879944,-0.19031305611133575,-0.12749025225639343,0.0,0.0,0.0,2.109264612197876,-0.3692963421344757,0.7486370801925659,0.4200000464916229,1.0,3.641024932221626e-06,-2.377741111558862e-06,-4.1939159700632445e-07,0.0002661148027982563,0.00026725901989266276,-0.00010423362255096436,-0.0017336049349978566,0.004194726701825857,-0.0001285561011172831,-0.3922768831253052,0.7530031204223633,0.4503994584083557,0.6211333274841309,-0.28894662857055664,-5.559920787811279,0.45165112614631653,0.763617753982544,0.42000001668930054,-0.7260102033615112,3.0000014305114746,-0.6235889792442322,-3.00000262260437,-0.14387406408786774,-0.15101929008960724,-0.1572810411453247,-0.1617729514837265,-1.0212990045547485,-1.016158938407898,-1.0122230052947998,-1.0090551376342773
0.31666666666666665,0.08238344639539719,0.16263347864151,0.0,0.9150930047035217,0.0,0.0,-0.40324291586875916,-0.4314398467540741,-0.22003912925720215,0.0,0.0,0.0,-1.6702734231948853,-0.36971747875213623,0.7473796606063843,0.42095136642456055,0.9997255802154541,0.017817478626966476,-0.006203156430274248,-0.013881037011742592,0.006545056588947773,0.008108636364340782,-0.032854966819286346,-0.7655134797096252,0.9415088295936584,1.3594602346420288,-0.38765665888786316,0.750775933265686,0.4172360301017761,0.25023365020751953,0.18398945033550262,-0.09121282398700714,0.45165112614631653,0.763617753982544,0.42000001668930054,-0.6761115789413452,2.994788885116577,-0.6742345690727234,-2.7913107872009277,-0.15384896099567413,-0.1614915430545807,-0.16803249716758728,-0.1725296527147293,-0.403664231300354,-0.41762661933898926,-0.41064563393592834,-0.3799951374530792
0.3333333333333333,0.0747055858373642,0.1569938212633133,0.0,0.9188790917396545,0.0,0.0,-0.3945391774177551,-0.4401589632034302,-0.40500423312187195,0.0,0.0,0.0,2.0314571857452393,-0.368630051612854,0.7491599917411804,0.420002281665802,0.9996931552886963,1.6027239325921983e-05,-1.9543196685845032e-05,-0.02477116882801056,0.14687782526016235,0.20496287941932678,-0.0004419207398314029,-0.027175504714250565,0.041823651641607285,-3.005800247192383,-0.3848046064376831,0.7552249431610107,0.4277417063713074,0.36807817220687866,0.19600632786750793,-0.20627810060977936,0.45165112614631653,0.763617753982544,0.42000001668930054,-0.6261041164398193,2.9999945163726807,-0.7242856621742249,-2.9999990463256836,-0.15926004946231842,-0.1665372997522354,-0.17233119904994965,-0.17570897936820984,-0.3763844668865204,-0.3131430149078369,-0.23236970603466034,-0.13758137822151184
0.35,0.06577490270137787,0.14870533347129822,0.0,0.9162394404411316,0.0,0.0,-0.4006311595439911,-0.5782417058944702,-0.5358995199203491,0.0,0.0,0.0,-1.7449464797973633,-0.36452731490135193,0.754271388053894,0.4202066957950592,0.9979023933410645,0.005147382151335478,-0.00023635875550098717,-0.064531110227108,0.3422669768333435,0.40754568576812744,0.012439023703336716,0.6773341298103333,-0.09051016718149185,-6.395580768585205,-0.37743884325027466,0.759506344795227,0.4250255823135376,0.5472140312194824,0.38535135984420776,-0.1377783715724945,0.45165112614631653,0.763617753982544,0.42000001668930054,-0.5760989785194397,2.9999892711639404,-0.774332582950592,-2.9999964237213135,-0.16591577231884003,-0.17202980816364288,-0.176410973072052,-0.17821498215198517,-0.386067271232605,-0.31425875425338745,-0.23126454651355743,-0.14361391961574554
0.36666666666666664,0.05468021333217621,0.13823089003562927,0.0,0.9197234511375427,0.0,0.0,-0.39256685972213745,-0.7058752179145813,-0.6662283539772034,0.0,0.0,0.0,2.031174421310425,-0.3568952977657318,0.7632867693901062,0.42010369896888733,0.9878522157669067,0.002544777700677514,-0.0004486376710701734,-0.15537483990192413,0.5341790914535522,0.6333974003791809,-0.005756632890552282,-0.23845192790031433,0.007430555298924446,-14.094937324523926,-0.36573317646980286,0.7683230638504028,0.42300328612327576,0.8464455604553223,0.6485892534255981,-0.0919838473200798,0.45165112614631653,0.763617753982544,0.42000001668930054,-0.5260940790176392,2.9999799728393555,-0.824370801448822,-2.999997854232788,-0.1733422428369522,-0.17762111127376556,-0.1799771934747696,-0.17971131205558777,-0.4326968491077423,-0.30482742190361023,-0.1655736267566681,-0.024831820279359818
0.3833333333333333,0.046085864305496216,0.1253889799118042,0.0,0.9171518087387085,0.0,0.0,-0.3985380232334137,-0.4317624568939209,-0.8172796368598938,0.0,0.0,0.0,-1.7061045169830322,-0.34711796045303345,0.774394690990448,0.42004451155662537,0.9704980254173279,0.0010596977081149817,-0.00016047920507844537,-0.2411065250635147,0.7792780995368958,0.8198462128639221,0.018481101840734482,0.9120324850082397,-0.4603980481624603,-4.8430609703063965,-0.349881649017334,0.777856707572937,0.4223167896270752,1.1218422651290894,0.6043499708175659,-0.025715794414281845,0.45165112614631653,0.763617753982544,0.42000001668930054,-0.476089745759964,2.9999918937683105,-0.8744195103645325,-2.9999985694885254,-0.1813872754573822,-0.18304014205932617,-0.18254020810127258,-0.17938238382339478,-0.4302558898925781,-0.26516905426979065,-0.08609148114919662,0.09469685703516006
0.4,0.035853829234838486,0.11080928146839142,0.0,0.9019115567207336,0.0,0.0,-0.43192076683044434,-0.6352151036262512,-0.92533278465271,0.0,0.0,0.0,-5.323163032531738,-0.32611867785453796,0.7919272184371948,0.42072975635528564,0.9560645222663879,0.004978854209184647,-0.012699142098426819,-0.2928386926651001,2.638437271118164,0.46655896306037903,0.42976441979408264,-23.405311584472656,6.788239002227783,-0.44797858595848083,-0.3267970681190491,0.7925480604171753,0.4233095049858093,1.5859062671661377,1.1265549659729004,0.11683602631092072,0.45165112614631653,0.763617753982544,0.42000001668930054,-0.4260883033275604,2.9266326427459717,-0.924456775188446,-2.9930238723754883,-0.18936137855052948,-0.18812191486358643,-0.1844688504934311,-0.17811203002929688,-0.426827609539032,-0.26279202103614807,-0.08312388509511948,0.09948171675205231
0.4166666666666667,0.028637422248721123,0.09321142733097076,0.0,0.8723984956741333,0.0,0.0,-0.48879531025886536,-0.370686799287796,-1.1089284420013428,0.0,0.0,0.0,-8.501840591430664,-0.2877265214920044,0.8148506879806519,0.4256512224674225,0.9353561997413635,0.00683949189260602,-0.037577707320451736,-0.3516386151313782,3.1794509887695312,1.664833426475525,0.5696145296096802,8.911308288574219,-8.839912414550781,1.3511801958084106,-0.2883540093898773,0.8162339925765991,0.4281722903251648,2.995746374130249,1.711914300918579,0.5778065919876099,0.45165112614631653,0.763617753982544,0.42000001668930054,-0.39157402515411377,1.2962738275527954,-0.9744791388511658,-3.0000011920928955,-0.19666892290115356,-0.1926259845495224,-0.18594607710838318,-0.17655536532402039,-0.4786500930786133,-0.29412248730659485,-0.10008925944566727,0.09018093347549438
0.43333333333333335,0.02418525330722332,0.08000262826681137,0.0,0.8261635303497314,0.0,0.0,-0.5634303689002991,-0.19099834561347961,-0.7863218784332275,0.0,0.0,0.0,-11.18177318572998,-0.2137380838394165,0.8474666476249695,0.4349727928638458,0.90878826379776,0.06499382108449936,-0.07366625219583511,-0.4055277705192566,5.732079029083252,1.6878796815872192,0.6632525324821472,12.63248062133789,-15.142098426818848,22.256383895874023,-0.21440580487251282,0.8486266732215881,0.43773138523101807,5.482889175415039,2.359309673309326,0.6968016624450684,0.45165112614631653,0.763617753982544,0.42000001668930054,-0.37251022458076477,1.135974645614624,-0.9370922446250916,2.996497392654419,-0.20964717864990234,-0.20215316116809845,-0.1912970393896103,-0.17812347412109375,-0.5841464400291443,-0.486553817987442,-0.2877734303474426,-0.11651364713907242
0.45,0.023187851533293724,0.06966668367385864,0.0,0.7888544797897339,0.0,0.0,-0.6145800352096558,0.007201188709586859,-0.5626891255378723,0.0,0.0,0.0,-6.411118984222412,-0.12154252827167511,0.8814182281494141,0.4477827548980713,0.863591730594635,0.10364972800016403,-0.09158924221992493,-0.48484790325164795,5.783721923828125,1.13432776927948,0.7674092054367065,3.889122247695923,-9.299781799316406,11.931578636169434,-0.12228427827358246,0.8828073143959045,0.4502701759338379,5.737706184387207,1.7073922157287598,0.7938789129257202,0.45165112614631653,0.763617753982544,0.42000001668930054,-0.3549376130104065,1.0140888690948486,-0.9626303315162659,-3.000001907348633,-0.21984723210334778,-0.21051667630672455,-0.19666481018066406,-0.1810668408870697,-0.5751402974128723,-0.4611406922340393,-0.3006241023540497,-0.1776047646999359
0.4666666666666667,0.01969536766409874,0.06465153396129608,0.0,0.7725989818572998,0.0,0.0,-0.6348943114280701,-0.18325819075107574,-0.25915393233299255,0.0,0.0,0.0,-1.7676341533660889,-0.02443592995405197,0.8987789750099182,0.46079832315444946,0.7886049151420593,0.12634018063545227,-0.09289572387933731,-0.5945676565170288,5.702915668487549,-0.10371878743171692,0.823871374130249,-4.833186626434326,6.639174938201904,8.390763282775879,-0.026452472433447838,0.9008743762969971,0.46230751276016235,5.969945430755615,0.6502636671066284,0.7634938955307007,0.45165112614631653,0.763617753982544,0.42000001668930054,-0.33466801047325134,1.1674492359161377,-1.0126538276672363,-2.999441385269165,-0.23269778490066528,-0.22049616277217865,-0.20330968499183655,-0.18504251539707184,-0.6706650257110596,-0.5153887867927551,-0.341420978307724,-0.20052456855773926
0.48333333333333334,0.020560940727591515,0.05408569797873497,0.0,0.7483389973640442,0.0,0.0,-0.6633164286613464,0.02091524377465248,-0.6454069018363953,0.0,0.0,0.0,-5.201686859130859,0.07212366908788681,0.8990411758422852,0.46921464800834656,0.718896210193634,0.12499595433473587,-0.09475372731685638,-0.6771897077560425,5.356494426727295,-1.4134564399719238,0.21731694042682648,-18.757143020629883,-17.86836814880371,25.363815307617188,0.06972230970859528,0.904098629951477,0.4705808758735657,5.778229713439941,-0.40954670310020447,0.5275118350982666,0.45165112614631653,0.763617753982544,0.42000001668930054,-0.3158802390098572,0.7817533016204834,-1.0626769065856934,-3.0000033378601074,-0.23804529011249542,-0.2237308770418167,-0.20417651534080505,-0.1838965266942978,-0.45365476608276367,-0.2614259719848633,-0.06458218395709991,0.1102469339966774
0.5,0.023030366748571396,0.0482713021337986,0.0,0.7367979884147644,0.0,0.0,-0.676112949848175,0.17719851434230804,-0.30292752385139465,0.0,0.0,0.0,-0.964925229549408,0.16288378834724426,0.8828975558280945,0.4732334613800049,0.6230679154396057,0.08055037260055542,-0.1269460767507553,-0.7675822973251343,5.291470527648926,-1.4717243909835815,0.44101962447166443,-7.063296318054199,-0.5098709464073181,1.0800482034683228,0.15923729538917542,0.8896709680557251,0.4768833816051483,5.118844032287598,-1.184759259223938,0.2814478576183319,0.45165112614631653,0.763617753982544,0.42000001668930054,-0.30627065896987915,0.33792170882225037,-1.112699031829834,-2.9982759952545166,-0.2399439960718155,-0.23128439486026764,-0.20846852660179138,-0.18543480336666107,-0.0058602457866072655,-0.32669782638549805,-0.1968710869550705,-0.0960332378745079
0.5166666666666666,0.028034191578626633,0.0454363115131855,0.0,0.718256950378418,0.0,0.0,-0.695777952671051,0.37550315260887146,-0.13042853772640228,0.0,0.0,0.0,-4.057827472686768,0.24165122210979462,0.8625513315200806,0.47238773107528687,0.5734937787055969,0.06108955293893814,-0.11488132178783417,-0.8088109493255615,4.31083345413208,-1.3028737306594849,-0.14887550473213196,-5.447587013244629,2.9291141033172607,-5.799465179443359,0.23877400159835815,0.8701704740524292,0.47634628415107727,4.431883811950684,-1.3287789821624756,-0.2822374999523163,0.45165112614631653,0.763617753982544,0.42000001668930054,-0.2955600619316101,0.765478789806366,-1.1627211570739746,-3.0000011920928955,-0.23784883320331573,-0.23428410291671753,-0.2106572985649109,-0.187120258808136,0.24036917090415955,-0.031269319355487823,-0.045836709439754486,-0.07330741733312607
0.5333333333333333,0.031510744243860245,0.04575204476714134,0.0,0.7132669687271118,0.0,0.0,-0.700892448425293,0.13214027881622314,0.07419142872095108,0.0,0.0,0.0,0.06810370832681656,0.3076280951499939,0.837115466594696,0.4644118547439575,0.5215853452682495,0.033775705844163895,-0.10088696330785751,-0.8465397953987122,3.271129846572876,-1.8164108991622925,-0.6954945921897888,-2.688553810119629,5.202285289764404,2.7415847778320312,0.3049313426017761,0.8438827991485596,0.4685264825820923,3.5983574390411377,-1.7558791637420654,-0.5949216485023499,0.45165112614631653,0.763617753982544,0.42000001668930054,-0.27799585461616516,1.3650062084197998,-1.2127432823181152,-2.999999523162842,-0.23475824296474457,-0.23452524840831757,-0.21140789985656738,-0.18858443200588226,0.21936435997486115,0.06387282907962799,2.154149115085602e-06,-0.071719691157341
0.55,0.036182306706905365,0.041343651711940765,0.0,0.6983141899108887,0.0,0.0,-0.7157913446426392,0.2734746038913727,-0.2873246967792511,0.0,0.0,0.0,-3.3095123767852783,0.36252522468566895,0.8128261566162109,0.4491487443447113,0.47751039266586304,0.0034454003907740116,-0.08857481926679611,-0.8741431832313538,3.030726671218872,-1.562617540359497,-0.7638883590698242,-6.529397487640381,6.047359943389893,-0.5775408744812012,0.36072081327438354,0.8189455270767212,0.45366013050079346,3.005359649658203,-1.5126508474349976,-1.104525089263916,0.45165112614631653,0.763617753982544,0.42000001668930054,-0.25763773918151855,0.767155110836029,-1.2627654075622559,-3.0000011920928955,-0.2258797585964203,-0.22865571081638336,-0.20805945992469788,-0.18774716556072235,0.4810308814048767,0.34849312901496887,0.1855180710554123,0.021168099716305733
0.5666666666666667,0.04294858127832413,0.041698552668094635,0.0,0.6956838369369507,0.0,0.0,-0.7183480858802795,0.4318268895149231,0.026769591495394707,0.0,0.0,0.0,0.4338753819465637,0.406671404838562,0.7852782607078552,0.4297487735748291,0.4439970850944519,-0.027668070048093796,-0.07978314161300659,-0.8920401930809021,2.2257533073425293,-1.9137606620788574,-1.1857413053512573,4.205226898193359,5.455928802490234,1.6272687911987305,0.4043726325035095,0.790808916091919,0.43461039662361145,2.363335132598877,-1.6739375591278076,-1.2633934020996094,0.45165112614631653,0.763617753982544,0.42000001668930054,-0.25090810656547546,0.3051295578479767,-1.31278657913208,-2.9997177124023438,-0.22230979800224304,-0.22595641016960144,-0.207601398229599,-0.18963401019573212,0.31498953700065613,0.25174480676651,0.07231928408145905,-0.10650423169136047
0.5833333333333334,0.05142864212393761,0.0442628376185894,0.0,0.6827303767204285,0.0,0.0,-0.7306703925132751,0.5447088479995728,0.22168588638305664,0.0,0.0,0.0,-3.0752742290496826,0.4350317716598511,0.7718530893325806,0.42242443561553955,0.4293821454048157,0.009116103872656822,0.018092811107635498,-0.9028956294059753,1.1827934980392456,-0.31322774291038513,0.11673706024885178,5.551261901855469,-1.3844889402389526,5.718036651611328,0.4329887628555298,0.7765082120895386,0.42658549547195435,1.131912350654602,-0.3350461423397064,0.05361117795109749,0.45165112614631653,0.763617753982544,0.42000001668930054,-0.2437501847743988,0.3343331813812256,-1.2786630392074585,2.9965643882751465,-0.21308648586273193,-0.21899811923503876,-0.2050335705280304,-0.19109049439430237,0.6671189665794373,0.5113093256950378,0.21147795021533966,-0.05765504762530327
0.6,0.057265762239694595,0.0430695079267025,0.0,0.6816335916519165,0.0,0.0,-0.731693685054779,0.2941422164440155,-0.1114131510257721,0.0,0.0,0.0,0.7464313507080078,0.45290109515190125,0.7662835121154785,0.42183104157447815,0.44222182035446167,0.024543609470129013,0.02660195343196392,-0.8961750864982605,0.9714630842208862,-0.2641424834728241,-0.02257056161761284,-0.4047310948371887,-3.5524895191192627,2.774728298187256,0.4458810091018677,0.7677061557769775,0.42457738518714905,0.42789286375045776,-0.6460884213447571,-0.1996474266052246,0.45165112614631653,0.763617753982544,0.42000001668930054,-0.27256354689598083,-2.99990177154541,-1.299005150794983,-2.9998812675476074,-0.20187117159366608,-0.2094547152519226,-0.199924498796463,-0.19000832736492157,0.5263920426368713,0.48961305618286133,0.26995450258255005,0.06777109205722809
0.6166666666666667,0.06407977640628815,0.045989010483026505,0.0,0.6697544455528259,0.0,0.0,-0.7425826787948608,0.40318554639816284,0.19814039766788483,0.0,0.0,0.0,-2.840916633605957,0.46054738759994507,0.7644194960594177,0.4202940762042999,0.4744945168495178,0.004314077086746693,-0.0012183472281321883,-0.8802470564842224,0.26662400364875793,-0.016067374497652054,-0.07678516209125519,-5.334863662719727,2.0466835498809814,4.231834888458252,0.4516422152519226,0.764739990234375,0.42553824186325073,0.3755781054496765,0.1082000583410263,0.18426494300365448,0.45165112614631653,0.763617753982544,0.42000001668930054,-0.3038576543331146,-0.9260580539703369,-1.3489474058151245,-2.9985289573669434,-0.19420380890369415,-0.20241788029670715,-0.19657164812088013,-0.18997320532798767,0.6285293698310852,0.5526974201202393,0.29715582728385925,0.06995627284049988
0.6333333333333333,0.07250538468360901,0.045243117958307266,0.0,0.6701148748397827,0.0,0.0,-0.7422573566436768,0.5308802127838135,-0.07552526146173477,0.0,0.0,0.0,0.9928150773048401,0.462577223777771,0.7645130753517151,0.4200066328048706,0.4938458204269409,-4.772971442434937e-05,0.00022029737010598183,-0.8695493936538696,-0.07299341261386871,0.029424091801047325,0.003746660426259041,0.09175609797239304,0.19341634213924408,2.6820430755615234,0.45184755325317383,0.7644282579421997,0.4286697506904602,-0.2242262363433838,-0.09094510972499847,0.215005025267601,0.45165112614631653,0.763617753982544,0.42000001668930054,-0.347975492477417,-2.9999876022338867,-1.3989348411560059,-2.999539613723755,-0.18456555902957916,-0.19329683482646942,-0.19098955392837524,-0.18756762146949768,0.425101101398468,0.4471728801727295,0.2874944806098938,0.14196287095546722
0.65,0.08268897235393524,0.04719860479235649,0.0,0.6597455739974976,0.0,0.0,-0.7514890432357788,0.6408438682556152,0.16531674563884735,0.0,0.0,0.0,-2.609872817993164,0.4619567096233368,0.7646679878234863,0.42000001668930054,0.5005751252174377,7.195008606686315e-07,1.4609883010052727e-06,-0.8656930327415466,-0.009085806086659431,0.001356329070404172,-1.5623285435140133e-05,-0.0007278002449311316,-0.000632524664979428,0.18948911130428314,0.4530561566352844,0.7654943466186523,0.43232548236846924,0.16854412853717804,0.13747015595436096,0.24215273559093475,0.45165112614631653,0.763617753982544,0.42000001668930054,-0.39803221821784973,-2.99988055229187,-1.448893427848816,-2.9991040229797363,-0.17696236073970795,-0.18579456210136414,-0.18638192117214203,-0.1855386197566986,0.5327073931694031,0.508110523223877,0.32688796520233154,0.16568739712238312
0.6666666666666666,0.09473912417888641,0.04576794430613518,0.0,0.6614316701889038,0.0,0.0,-0.7500054240226746,0.7500974535942078,-0.10803522169589996,0.0,0.0,0.0,1.1922277212142944,0.4619565010070801,0.7646682858467102,0.41999995708465576,0.5005755424499512,-7.96733331753785e-07,-4.639188318833476e-06,-0.8656928539276123,4.71517450932879e-05,-0.0003186683461535722,-5.5188313126564026e-05,0.009021133184432983,-0.003745896276086569,-0.0010519387433305383,0.45231541991233826,0.7674082517623901,0.4369490146636963,-0.2661883234977722,0.08873100578784943,0.3695634603500366,0.45165112614631653,0.763617753982544,0.42000001668930054,-0.4480462372303009,-2.9999992847442627,-1.4989118576049805,-2.9999985694885254,-0.16874906420707703,-0.177536278963089,-0.1805555522441864,-0.18191109597682953,0.30619609355926514,0.35421454906463623,0.26074671745300293,0.17388111352920532
0.6833333333333333,0.10405773669481277,0.047328200191259384,0.0,0.6533096432685852,0.0,0.0,-0.7570908069610596,0.48875129222869873,0.11023939400911331,0.0,0.0,0.0,-2.476778507232666,0.46122995018959045,0.7646637558937073,0.41999998688697815,0.5095989108085632,2.1656655917468015e-06,-8.35293519685365e-07,-0.860412061214447,0.0007657210808247328,0.00016487925313413143,-5.076526213088073e-05,-0.003197871148586273,0.004569331184029579,-0.0076010748744010925,0.45153290033340454,0.7677597999572754,0.4404466152191162,0.13868136703968048,0.024235574528574944,0.2892327606678009,0.45165112614631653,0.763617753982544,0.42000001668930054,-0.4980494976043701,-2.9991743564605713,-1.5489156246185303,-2.999952793121338,-0.16536501049995422,-0.17299310863018036,-0.17685075104236603,-0.178839772939682,0.24413271248340607,0.31410452723503113,0.2841774821281433,0.27211230993270874
0.7,0.11389891803264618,0.04574768990278244,0.0,0.6221671104431152,0.0,0.0,-0.7828844785690308,0.6113455891609192,-0.14868776500225067,0.0,0.0,0.0,-5.727570056915283,0.4612298607826233,0.7646641135215759,0.4199999272823334,0.5095991492271423,-1.939601361300447e-06,-5.2527207117236685e-06,-0.8604118227958679,-5.2372961363289505e-06,-0.00036196134169586003,-6.740610115230083e-05,0.010028949938714504,-0.0037981036584824324,-0.001059600617736578,0.4561033844947815,0.7702570557594299,0.4529305696487427,0.4340261220932007,0.20438972115516663,1.3208205699920654,0.45165112614631653,0.763617753982544,0.42000001668930054,-0.5480619072914124,-2.999966621398926,-1.5989317893981934,-2.9999990463256836,-0.16335691511631012,-0.16959120333194733,-0.1734938621520996,-0.17526313662528992,-0.016296569257974625,0.08836691081523895,0.11810063570737839,0.16056540608406067
0.7166666666666667,0.12630479037761688,0.04780597612261772,0.0,0.6044198274612427,0.0,0.0,-0.7966659665107727,0.7529101967811584,0.12772995233535767,0.0,0.0,0.0,-1.6168266534805298,0.4612298905849457,0.7646640539169312,0.41999995708465576,0.5095990300178528,-1.8768753307085717e-06,-4.91752871312201e-06,-0.8604119420051575,7.870842637203168e-06,-0.0003451830998528749,-6.360188126564026e-05,0.00958391185849905,-0.003625885583460331,-0.001032967702485621,0.4634607136249542,0.775948166847229,0.48085394501686096,0.526414155960083,0.5448464155197144,1.980950117111206,0.45165112614631653,0.763617753982544,0.42000001668930054,-0.5859411954879761,-1.6335411071777344,-1.6489462852478027,-3.0000007152557373,-0.16702021658420563,-0.17138755321502686,-0.1745058298110962,-0.1753573715686798,-0.10718457400798798,-0.05047514662146568,-0.04480932652950287,-0.028807232156395912
0.7333333333333333,0.13519011437892914,0.04910622909665108,0.0,0.6122658252716064,0.0,0.0,-0.7906519770622253,0.47839727997779846,0.14454734325408936,0.0,0.0,0.0,2.045750379562378,0.4612298905849457,0.7646640539169312,0.41999995708465576,0.5095992088317871,-1.8444649185767048e-06,-4.7168050514301285e-06,-0.8604118227958679,3.919231858162675e-06,-0.0003452360979281366,-6.367778405547142e-05,0.009584038518369198,-0.0036192545667290688,-0.0010245797457173467,0.47451090812683105,0.7843750715255737,0.5063225626945496,0.67466139793396,0.40683889389038086,1.150240182876587,0.45165112614631653,0.763617753982544,0.42000001668930054,-0.5862645506858826,1.3356380462646484,-1.635411024093628,2.999999523162842,-0.16703711450099945,-0.1704622209072113,-0.1733500063419342,-0.17387592792510986,-0.06732326745986938,0.01660546287894249,0.06236601620912552,0.10642151534557343
0.75,0.13982079923152924,0.04725554957985878,0.0,0.6079795360565186,0.0,0.0,-0.7939527034759521,0.1766078621149063,-0.15695352852344513,0.0,0.0,0.0,-1.4725427627563477,0.4612298905849457,0.7646640539169312,0.41999995708465576,0.5095991492271423,-1.8782485540214111e-06,-4.663325398723828e-06,-0.8604119420051575,4.280776011000853e-06,-0.00034520236658863723,-6.366381421685219e-05,0.009583398699760437,-0.0036202198825776577,-0.0010252799838781357,0.48289626836776733,0.7888706922531128,0.519823431968689,0.2886877954006195,0.11979538202285767,0.6374241709709167,0.45165112614631653,0.763617753982544,0.42000001668930054,-0.5965026617050171,-2.2459237575531006,-1.5853545665740967,2.9999992847442627,-0.16796432435512543,-0.1698884665966034,-0.1718311756849289,-0.17154145240783691,-0.11249667406082153,-0.005118211731314659,0.0717175155878067,0.13390474021434784
0.7666666666666666,0.1464434415102005,0.050696756690740585,0.0,0.6170889139175415,0.0,0.0,-0.7868934273719788,0.35166028141975403,0.24663974344730377,0.0,0.0,0.0,2.219782590866089,0.4612298905849457,0.7646640539169312,0.41999995708465576,0.5095990300178528,-1.7915779153554467e-06,-4.596723101712996e-06,-0.8604119420051575,4.375842763693072e-06,-0.00034520370536483824,-6.36344775557518e-05,0.009584438055753708,-0.0036217886954545975,-0.001025378704071045,0.4887939393520355,0.7887293696403503,0.5293130278587341,0.44670814275741577,0.10190185904502869,0.5367441177368164,0.45165112614631653,0.763617753982544,0.42000001668930054,-0.6050229668617249,0.9505428075790405,-1.599648118019104,-2.999999761581421,-0.17492996156215668,-0.17416316270828247,-0.17385824024677277,-0.17166203260421753,-0.2618313431739807,-0.14547626674175262,-0.04398499056696892,0.04268911853432655
0.7833333333333333,0.14887656271457672,0.049394793808460236,0.0,0.613752007484436,0.0,0.0,-0.7894988656044006,0.09293044358491898,-0.118386410176754,0.0,0.0,0.0,-1.3667206764221191,0.4612298607826233,0.7646640539169312,0.41999995708465576,0.5095991492271423,-1.9285400867374847e-06,-4.9054438022722024e-06,-0.8604118824005127,2.3884222173364833e-06,-0.0003453020181041211,-6.373785436153412e-05,0.009584599174559116,-0.003615276888012886,-0.0010215041693300009,0.49664175510406494,0.7884646654129028,0.5331487655639648,0.4420853853225708,-0.2452176958322525,0.06691223382949829,0.45165112614631653,0.763617753982544,0.42000001668930054,-0.6280124187469482,-3.000000238418579,-1.5606399774551392,3.000000238418579,-0.17589862644672394,-0.17370536923408508,-0.172102689743042,-0.1688263863325119,-0.17476052045822144,-0.06026677414774895,0.048464808613061905,0.14009663462638855
0.8,0.15281492471694946,0.0517873615026474,0.0,0.6215559840202332,0.0,0.0,-0.7833697199821472,0.25218629837036133,0.14384840428829193,0.0,0.0,0.0,2.0913050174713135,0.4612298905849457,0.7646640539169312,0.41999995708465576,0.5095990300178528,-1.8769244434224674e-06,-4.827120392292272e-06,-0.8604120016098022,7.491996257158462e-06,-0.000345247593941167,-6.363959982991219e-05,0.009584933519363403,-0.00362594798207283,-0.0010324616450816393,0.5057090520858765,0.7839163541793823,0.5372008085250854,0.6930950284004211,-0.18030548095703125,0.4384128153324127,0.45165112614631653,0.763617753982544,0.42000001668930054,-0.651698112487793,-0.07626190036535263,-1.5754996538162231,-2.9999992847442627,-0.18091422319412231,-0.17671367526054382,-0.1730683594942093,-0.1679798811674118,-0.15569426119327545,-0.0813368484377861,0.005935247987508774,0.0877191424369812
0.8166666666666667,0.15400607883930206,0.049738410860300064,0.0,0.6178192496299744,0.0,0.0,-0.786320149898529,0.003342192154377699,-0.1545676440000534,0.0,0.0,0.0,-1.3868037462234497,0.4612298905849457,0.7646640539169312,0.41999995708465576,0.5095992088317871,-1.8386381270829588e-06,-4.656931650970364e-06,-0.8604118824005127,3.917065896530403e-06,-0.00034525259980000556,-6.369105540215969e-05,0.009584232233464718,-0.0036193309351801872,-0.0010246847523376346,0.5182301998138428,0.7799954414367676,0.5418373346328735,0.7413351535797119,-0.38423359394073486,0.25071701407432556,0.45165112614631653,0.763617753982544,0.42000001668930054,-0.6755504012107849,-2.55082106590271,-1.5640497207641602,2.999999523162842,-0.18119153380393982,-0.1761161983013153,-0.17131194472312927,-0.16511808335781097,-0.08463851362466812,-0.014769789762794971,0.07233931869268417,0.1540825366973877
0.8333333333333334,0.156724750995636,0.05215840041637421,0.0,0.6256204843521118,0.0,0.0,-0.7801275849342346,0.18227724730968475,0.13829956948757172,0.0,0.0,0.0,2.089973211288452,0.4612298905849457,0.7646640539169312,0.41999995708465576,0.5095990896224976,-1.7899521935760276e-06,-4.592702680383809e-06,-0.8604118824005127,4.3025393097195774e-06,-0.00034519939799793065,-6.363797001540661e-05,0.009583976119756699,-0.0036210278049111366,-0.0010252256179228425,0.5303052663803101,0.772987961769104,0.55027174949646,0.795278787612915,-0.30804359912872314,0.759796679019928,0.45165112614631653,0.763617753982544,0.42000001668930054,-0.6934658885002136,0.17905621230602264,-1.5788378715515137,-3.0,-0.1854955554008484,-0.17897440493106842,-0.17241692543029785,-0.16456548869609833,-0.09154453873634338,-0.0567048117518425,0.003792331088334322,0.06613669544458389
0.85,0.15685884654521942,0.05004992336034775,0.0,0.6222952008247375,0.0,0.0,-0.7827826738357544,-0.033478930592536926,-0.13670779764652252,0.0,0.0,0.0,-1.4767650365829468,0.4612298607826233,0.7646640539169312,0.41999995708465576,0.5095992088317871,-1.926800678120344e-06,-4.901385636912892e-06,-0.8604118227958679,2.3888369469204918e-06,-0.00034530076663941145,-6.373832002282143e-05,0.009584606625139713,-0.003615222405642271,-0.0010214966023340821,0.5434535145759583,0.7687467932701111,0.560545802116394,0.6988202333450317,-0.31207138299942017,0.5878674983978271,0.45165112614631653,0.763617753982544,0.42000001668930054,-0.7001320719718933,-0.8810761570930481,-1.6288447380065918,-3.0,-0.18419964611530304,-0.1776176542043686,-0.1705673784017563,-0.16217274963855743,0.003692477708682418,0.021934324875473976,0.062424901872873306,0.10237458348274231
0.8666666666666667,0.15882845222949982,0.05231458321213722,0.0,0.6300560832023621,0.0,0.0,-0.7765496373176575,0.14191818237304688,0.14147759974002838,0.0,0.0,0.0,1.9001104831695557,0.4612298905849457,0.7646640539169312,0.41999995708465576,0.5095990896224976,-1.8751642301140237e-06,-4.823091785510769e-06,-0.8604119420051575,7.4936961027560756e-06,-0.0003452457021921873,-6.363959982991219e-05,0.009584850631654263,-0.00362594798207283,-0.0010324639733880758,0.5539417862892151,0.7629448175430298,0.5704172849655151,0.6596288084983826,-0.2464129775762558,0.6276614665985107,0.45165112614631653,0.763617753982544,0.42000001668930054,-0.6858116388320923,2.310312509536743,-1.6788609027862549,-2.999999761581421,-0.18610645830631256,-0.17902326583862305,-0.1711413860321045,-0.16195715963840485,0.04473673179745674,0.03032751940190792,0.03863942250609398,0.04918408766388893
0.8833333333333333,0.15852826833724976,0.05055692419409752,0.0,0.625254213809967,0.0,0.0,-0.7804211378097534,-0.05590110644698143,-0.12198729068040848,0.0,0.0,0.0,-1.5364165306091309,0.4612298607826233,0.7646640539169312,0.41999995708465576,0.5095990896224976,-1.803969325919752e-06,-4.652629286283627e-06,-0.8604118824005127,6.824156571383355e-06,-0.00034522433998063207,-6.360444240272045e-05,0.009585469029843807,-0.0036279126070439816,-0.0010308928322046995,0.5614091753959656,0.7621328830718994,0.5807435512542725,0.18987441062927246,0.009789064526557922,0.7197473049163818,0.45165112614631653,0.763617753982544,0.42000001668930054,-0.6687549352645874,-0.07044520974159241,-1.6396331787109375,3.0000007152557373,-0.18273606896400452,-0.17655222117900848,-0.16921605169773102,-0.16052278876304626,0.12070246040821075,0.07590171694755554,0.04718644917011261,0.018014589324593544
0.9,0.15597039461135864,0.052418846637010574,0.0,0.6327435970306396,0.0,0.0,-0.7743613719940186,-0.18263676762580872,0.13680176436901093,0.0,0.0,0.0,1.9647749662399292,0.4612298905849457,0.7646640539169312,0.41999995708465576,0.5095990896224976,-1.861266468949907e-06,-4.741843895317288e-06,-0.8604118824005127,3.705444669321878e-06,-0.000345042091794312,-6.365380249917507e-05,0.00957826804369688,-0.003612905042245984,-0.0010233820648863912,0.5627273917198181,0.7600398063659668,0.5915669202804565,0.05107695609331131,-0.1014983057975769,0.6305893659591675,0.45165112614631653,0.763617753982544,0.42000001668930054,-0.6443334817886353,2.736184597015381,-1.6526185274124146,-3.000000238418579,-0.1827012151479721,-0.17675504088401794,-0.1694488525390625,-0.1608397513628006,0.09957599639892578,0.06758895516395569,0.04851795732975006,0.028620587661862373
