vladlanda/robotic-transformer/data/env_000_episode_0190.csv
sim_time_s,robot_box_x,robot_box_y,robot_box_z,robot_box_quat_w,robot_box_quat_x,robot_box_quat_y,robot_box_quat_z,robot_box_linvel_x,robot_box_linvel_y,robot_box_linvel_z,robot_box_angvel_x,robot_box_angvel_y,robot_box_angvel_z,cube_world_x,cube_world_y,cube_world_z,cube_quat_w,cube_quat_x,cube_quat_y,cube_quat_z,cube_linvel_x,cube_linvel_y,cube_linvel_z,cube_angvel_x,cube_angvel_y,cube_angvel_z,endpoint_world_x,endpoint_world_y,endpoint_world_z,endpoint_linvel_x,endpoint_linvel_y,endpoint_linvel_z,target_cube_world_x,target_cube_world_y,target_cube_world_z,gripper_actual_pos_rad_gp_leftgearjoint,gripper_actual_vel_rad_s_gp_leftgearjoint,gripper_actual_pos_rad_gp_rotatingjoint,gripper_actual_vel_rad_s_gp_rotatingjoint,motor_angle_rad_joint1,motor_angle_rad_joint2,motor_angle_rad_joint3,motor_angle_rad_joint4,motor_speed_rad_s_joint1,motor_speed_rad_s_joint2,motor_speed_rad_s_joint3,motor_speed_rad_s_joint4
0.0,0.0,0.0,0.0,1.0,0.0,0.0,0.0,0.0,0.0,0.0,0.0,0.0,0.0,-0.36224889755249023,0.6506960988044739,0.41999998688697815,1.0,0.0,0.0,0.0,0.0,0.0,0.0,0.0,0.0,0.0,3.42540442943573e-06,-0.005000244826078415,1.313499927520752,0.0,0.0,0.0,0.45538634061813354,0.6962723731994629,0.42000001668930054,-1.5707999467849731,0.0,0.0,0.0,0.0,0.0,0.0,0.0,0.0,0.0,0.0,0.0
0.016666666666666666,0.0028856683056801558,0.0021710675209760666,0.0,0.9998260736465454,0.0,0.0,0.018651112914085388,0.24108286201953888,0.18208208680152893,0.0,0.0,0.0,3.1417453289031982,-0.3622490167617798,0.65069580078125,0.41999998688697815,1.0,3.279964630564791e-06,-8.339746386809566e-07,8.465587342243452e-08,-1.9833529222523794e-05,0.00017983045836444944,-6.132945418357849e-05,0.0009432713268324733,-0.004689474124461412,-0.00031981561915017664,-0.007106989622116089,0.003402754431590438,1.3159393072128296,-0.8136016130447388,0.9876912832260132,0.1809726357460022,0.45538634061813354,0.6962723731994629,0.42000001668930054,-1.5301094055175781,3.000001907348633,-0.0458499938249588,-3.000002145767212,0.000870557501912117,0.0007973136380314827,0.0007117652567103505,0.000611639756243676,0.11098092049360275,0.09761498123407364,0.08339325338602066,0.06828571110963821
0.03333333333333333,0.008970289491117,0.006787410005927086,0.0,0.999814510345459,0.0,0.0,0.0192613173276186,0.40711119771003723,0.31501305103302,0.0,0.0,0.0,-0.8689734935760498,-0.36224913597106934,0.6506957411766052,0.4200000464916229,1.0,3.3908354453160428e-06,-2.1324485715012997e-06,-3.710144014235084e-08,0.00026357831666246057,0.00026937946677207947,-0.00010509486310184002,-0.0017707672668620944,0.004130808170884848,-0.000135478752781637,-0.027511300519108772,0.026205485686659813,1.3166059255599976,-1.5887283086776733,1.6190346479415894,-0.08397406339645386,0.45538634061813354,0.6962723731994629,0.42000001668930054,-1.4800900220870972,3.000002145767212,-0.09588984400033951,-3.0000014305114746,0.002990171080455184,0.0026525913272053003,0.002277145627886057,0.001860718009993434,0.1641194224357605,0.13967940211296082,0.1137489452958107,0.08623672276735306
0.05,0.018480736762285233,0.01388852670788765,0.0,0.9999698400497437,0.0,0.0,-0.0077659315429627895,0.6361191868782043,0.47211578488349915,0.0,0.0,0.0,-4.073631286621094,-0.3622491657733917,0.65069580078125,0.4200000464916229,1.0,3.7651125239790417e-06,-2.211879063906963e-06,5.622505128144439e-09,0.000265308452071622,0.0002669153327587992,-0.00010440615005791187,-0.001724260626360774,0.004177352879196405,-0.00012949221127200872,-0.057126548141241074,0.0571102648973465,1.3120286464691162,-1.9516973495483398,2.0194289684295654,-0.44600364565849304,0.45538634061813354,0.6962723731994629,0.42000001668930054,-1.4300717115402222,3.0000038146972656,-0.14591507613658905,-2.999999523162842,0.006010518409311771,0.0051716468296945095,0.004260384012013674,0.0032725052442401648,0.20690596103668213,0.16660121083259583,0.12437523901462555,0.08014605194330215
0.06666666666666667,0.03079778328537941,0.023375479504466057,0.0,0.9998664259910583,0.0,0.0,-0.016343865543603897,0.7724872827529907,0.6160399913787842,0.0,0.0,0.0,-0.03682684898376465,-0.3622491657733917,0.6506957411766052,0.4200000464916229,0.9999999403953552,3.4066883927152958e-06,-2.285532218593289e-06,4.300976286231162e-07,0.0002670241810847074,0.00026791772688739,-0.00010438147000968456,-0.00174069800414145,0.00421178387477994,-0.00012850729399360716,-0.09456785023212433,0.0897766500711441,1.3012937307357788,-2.389651298522949,2.0678915977478027,-0.8317506909370422,0.45538634061813354,0.6962723731994629,0.42000001668930054,-1.3800435066223145,2.9999985694885254,-0.12566334009170532,2.999999761581421,0.008737916126847267,0.007191251032054424,0.005532018840312958,0.003755063284188509,0.15186938643455505,0.10210681706666946,0.05020946264266968,-0.0038962538819760084
0.08333333333333333,0.04557328671216965,0.030823905020952225,0.0,0.9992379546165466,0.0,0.0,-0.0390324704349041,0.950512170791626,0.3761720359325409,0.0,0.0,0.0,-3.5378875732421875,-0.3622491657733917,0.6506957411766052,0.4200000464916229,0.9999999403953552,3.626031229941873e-06,-2.3352447442448465e-06,3.032197639640799e-07,0.0002661392209120095,0.0002668500819709152,-0.00010405294597148895,-0.0017282416811212897,0.00419628107920289,-0.00012790791515726596,-0.12940022349357605,0.12884704768657684,1.286846399307251,-1.8364498615264893,2.591428756713867,-0.8889927268028259,0.45538634061813354,0.6962723731994629,0.42000001668930054,-1.330035924911499,3.0000007152557373,-0.15761195123195648,-3.0000014305114746,0.009822318330407143,0.007150142453610897,0.004323688801378012,0.0013364519691094756,0.01291707158088684,-0.07249745726585388,-0.16023054718971252,-0.2501751482486725
0.1,0.05444774776697159,0.04045267775654793,0.0,0.9957971572875977,0.0,0.0,-0.09158580750226974,0.39301416277885437,0.6598314642906189,0.0,0.0,0.0,-7.289459228515625,-0.3622491657733917,0.6506957411766052,0.4200000464916229,1.0,3.4220790894323727e-06,-2.3084901386027923e-06,1.7962952369998675e-07,0.00026681559393182397,0.0002680041070561856,-0.00010440824553370476,-0.001743067754432559,0.004207110498100519,-0.0001289140636799857,-0.16133946180343628,0.17509572207927704,1.2668731212615967,-1.9481477737426758,2.944855213165283,-1.4214258193969727,0.45538634061813354,0.6962723731994629,0.42000001668930054,-1.2800172567367554,2.999995231628418,-0.1240462064743042,3.0000009536743164,0.003497907193377614,1.6623402188997716e-05,-0.003672742983326316,-0.0075793759897351265,-0.49852174520492554,-0.5385655760765076,-0.581193208694458,-0.6266533136367798
0.11666666666666667,0.058878760784864426,0.05234765633940697,0.0,0.9922440648078918,0.0,0.0,-0.12430504709482193,0.19550226628780365,0.6482570767402649,0.0,0.0,0.0,-2.6348178386688232,-0.3622491657733917,0.65069580078125,0.4200000464916229,1.0,3.7115073610038962e-06,-2.3326228983933106e-06,2.57426904681779e-07,0.00026485775015316904,0.0002663534542080015,-0.00010423525236546993,-0.0017181745497509837,0.004170077387243509,-0.0001291574299102649,-0.1997385323047638,0.2178874909877777,1.241431474685669,-2.357447385787964,2.6153900623321533,-1.5749497413635254,0.45538634061813354,0.6962723731994629,0.42000001668930054,-1.2300224304199219,3.0000009536743164,-0.15596593916416168,-3.0,-0.004645570181310177,-0.009039323776960373,-0.013648971915245056,-0.01848703622817993,-0.402853399515152,-0.47694092988967896,-0.5494241118431091,-0.6203972101211548
0.13333333333333333,0.07082945853471756,0.05965818464756012,0.0,0.9858794808387756,0.0,0.0,-0.1674565076828003,0.7988892793655396,0.5169769525527954,0.0,0.0,0.0,-5.722386360168457,-0.3622491657733917,0.6506957411766052,0.4200000464916229,0.9999999403953552,3.4247434541612165e-06,-2.301918129887781e-06,1.559943285656118e-07,0.00026707028155215085,0.0002681135665625334,-0.00010444503277540207,-0.0017433665925636888,0.0042120604775846004,-0.00012877194967586547,-0.2351570725440979,0.26888561248779297,1.2131083011627197,-1.8876135349273682,3.5564165115356445,-1.9238793849945068,0.45538634061813354,0.6962723731994629,0.42000001668930054,-1.1800029277801514,2.999983549118042,-0.158549964427948,2.2414236068725586,-0.004397518467158079,-0.010937555693089962,-0.01760868728160858,-0.024421388283371925,-0.13645431399345398,-0.2458532601594925,-0.35130107402801514,-0.4525710344314575
0.15,0.07968152314424515,0.06578570604324341,0.0,0.9808809161186218,0.0,0.0,-0.19460885226726532,0.4840735197067261,0.29879313707351685,0.0,0.0,0.0,-1.8945748805999756,-0.3622491657733917,0.6506957411766052,0.4200000464916229,1.0,3.713894102475024e-06,-2.207782927143853e-06,-1.690906259455005e-07,0.000263532972894609,0.0002653604024089873,-0.00010421779006719589,-0.0017012703465297818,0.004144108854234219,-0.00012960596359334886,-0.26991429924964905,0.32398441433906555,1.1743922233581543,-1.9994874000549316,3.422874689102173,-2.6569643020629883,0.45538634061813354,0.6962723731994629,0.42000001668930054,-1.1358413696289062,2.3215413093566895,-0.194576233625412,-2.999999523162842,-0.01097916066646576,-0.018646785989403725,-0.02639883942902088,-0.03424757346510887,-0.4286760985851288,-0.4832024574279785,-0.5347216725349426,-0.5834202766418457
0.16666666666666666,0.08391325920820236,0.07443591952323914,0.0,0.9731961488723755,0.0,0.0,-0.22997669875621796,0.22750458121299744,0.48228615522384644,0.0,0.0,0.0,-4.937110900878906,-0.3622491657733917,0.6506957411766052,0.4200000464916229,0.9999999403953552,3.638363523350563e-06,-2.2787546640756773e-06,2.7007297376258066e-07,0.00026682831230573356,0.0002675004070624709,-0.00010410277172923088,-0.0017399663338437676,0.004210250452160835,-0.00012781910481862724,-0.301938533782959,0.38475459814071655,1.1215968132019043,-1.814063549041748,3.827688694000244,-3.5049264430999756,0.45538634061813354,0.6962723731994629,0.42000001668930054,-1.0866780281066895,2.999998092651367,-0.18293552100658417,2.999999761581421,-0.021936260163784027,-0.029997453093528748,-0.03809874504804611,-0.046260133385658264,-0.5838643908500671,-0.6153982281684875,-0.6426434516906738,-0.6658846735954285
0.18333333333333332,0.09302911162376404,0.08188582956790924,0.0,0.9564984440803528,0.0,0.0,-0.2917373478412628,0.5246034860610962,0.43558189272880554,0.0,0.0,0.0,-8.445131301879883,-0.3622491657733917,0.6506957411766052,0.4200000464916229,1.0,3.386441903785453e-06,-2.3001909994491143e-06,1.4392985292488447e-07,0.00026674664695747197,0.00026787363458424807,-0.00010437029413878918,-0.0017413290916010737,0.004206034820526838,-0.00012878714187536389,-0.32789337635040283,0.4539960026741028,1.056016206741333,-1.2079391479492188,4.336199760437012,-4.312161445617676,0.45538634061813354,0.6962723731994629,0.42000001668930054,-1.0366727113723755,3.0000009536743164,-0.21451158821582794,-3.0,-0.030463777482509613,-0.039042599499225616,-0.04759426414966583,-0.05614439398050308,-0.7281019687652588,-0.7221124172210693,-0.7143673896789551,-0.7053176760673523
0.2,0.09837602823972702,0.08766616135835648,0.0,0.9430639743804932,0.0,0.0,-0.3326113820075989,0.28851741552352905,0.28210434317588806,0.0,0.0,0.0,-3.900233507156372,-0.3622491657733917,0.65069580078125,0.4200000464916229,1.0,3.67552570423868e-06,-2.326474941583001e-06,2.211330638601794e-07,0.0002648457884788513,0.0002663124760147184,-0.00010421779006719589,-0.0017177596455439925,0.004169980529695749,-0.00012909664656035602,-0.3495267629623413,0.5181943774223328,0.9759647846221924,-0.9137333631515503,3.801933765411377,-5.21267557144165,0.45538634061813354,0.6962723731994629,0.42000001668930054,-0.9866658449172974,2.999998092651367,-0.2645396888256073,-3.000000238418579,-0.04606093466281891,-0.054267171770334244,-0.06225321441888809,-0.06978695839643478,-0.9521515965461731,-0.9451598525047302,-0.919217586517334,-0.8419237732887268
0.21666666666666667,0.09987249970436096,0.09449455142021179,0.0,0.9409765005111694,0.0,0.0,-0.3384719789028168,0.012412186712026596,0.4413929879665375,0.0,0.0,0.0,0.2593299150466919,-0.3622491657733917,0.6506957411766052,0.4200000464916229,1.0,3.3223188893316546e-06,-2.207966417699936e-06,2.742777382991335e-07,0.0002666293876245618,0.0002674947609193623,-0.00010426202788949013,-0.0017357135657221079,0.004204758442938328,-0.00012833744403906167,-0.3693655729293823,0.5686498880386353,0.8857004046440125,-1.027997612953186,2.6201751232147217,-5.637140274047852,0.45538634061813354,0.6962723731994629,0.42000001668930054,-0.9366554617881775,2.9999985694885254,-0.3145700693130493,-2.999999761581421,-0.06180445849895477,-0.07003863155841827,-0.07796226441860199,-0.08543220162391663,-0.987513542175293,-0.9835231304168701,-0.9622148275375366,-0.9432861804962158
0.23333333333333334,0.0994417741894722,0.09757594764232635,0.0,0.9340782165527344,0.0,0.0,-0.3570684790611267,-0.09985791891813278,0.09851577132940292,0.0,0.0,0.0,-3.2151575088500977,-0.3622491657733917,0.6506957411766052,0.4200000464916229,1.0,3.656558874354232e-06,-2.373421239099116e-06,-4.07681653769032e-07,0.0002661168109625578,0.00026725910720415413,-0.00010423432104289532,-0.0017335852608084679,0.004194697830826044,-0.00012854808301199228,-0.38365814089775085,0.6102398633956909,0.7862896919250488,-0.6195748448371887,2.159160614013672,-6.163486003875732,0.45538634061813354,0.6962723731994629,0.42000001668930054,-0.8866447806358337,2.9999959468841553,-0.36460182070732117,-2.9999969005584717,-0.07768548280000687,-0.0859365239739418,-0.09376285970211029,-0.10075285285711288,-0.9801769852638245,-0.9699262976646423,-0.9655295610427856,-0.9277119040489197
0.25,0.09652989357709885,0.10328632593154907,0.0,0.9333120584487915,0.0,0.0,-0.35906627774238586,-0.21105122566223145,0.32562386989593506,0.0,0.0,0.0,0.5967702269554138,-0.3622491657733917,0.65069580078125,0.4200000464916229,1.0,3.6306089441495715e-06,-2.242697519250214e-06,1.1209660755184814e-08,0.0002667990338522941,0.00026706064818426967,-0.00010390975512564182,-0.0017342023784294724,0.004210567567497492,-0.00012703098764177412,-0.3933989405632019,0.6352678537368774,0.6833093166351318,-0.45810332894325256,0.9155763983726501,-6.136403560638428,0.45538634061813354,0.6962723731994629,0.42000001668930054,-0.8366347551345825,2.9999754428863525,-0.4146336317062378,-3.000002861022949,-0.09410788863897324,-0.10234992951154709,-0.11019252985715866,-0.11721295863389969,-0.8514738082885742,-0.8776389956474304,-0.9018155336380005,-0.9236313700675964
0.26666666666666666,0.09694784879684448,0.10466114431619644,0.0,0.9280083775520325,0.0,0.0,-0.37255939841270447,0.059501245617866516,0.038163747638463974,0.0,0.0,0.0,-2.3345725536346436,-0.36224913597106934,0.6506957411766052,0.4200000464916229,0.9999999403953552,3.740197143997648e-06,-2.2363960852089804e-06,4.499666488300136e-07,0.00026479605003260076,0.00026673078536987305,-0.0001045397948473692,-0.0017189658246934414,0.004166636615991592,-0.0001301682787016034,-0.39693084359169006,0.647361159324646,0.5774688720703125,0.14582552015781403,0.3017839193344116,-6.321833610534668,0.45538634061813354,0.6962723731994629,0.42000001668930054,-0.7866259813308716,3.000000238418579,-0.4646647274494171,-3.0000033378601074,-0.10946086794137955,-0.11779997497797012,-0.12575504183769226,-0.13289497792720795,-1.0016461610794067,-1.001240611076355,-1.0009304285049438,-1.0006825923919678
0.2833333333333333,0.09430933743715286,0.10428490489721298,0.0,0.9299752116203308,0.0,0.0,-0.3676222562789917,-0.2356898933649063,-0.046210769563913345,0.0,0.0,0.0,1.504062294960022,-0.3622491657733917,0.6506957411766052,0.4200000464916229,1.0,3.3917226573976222e-06,-2.291197006343282e-06,1.2458905018775113e-07,0.0002667724620550871,0.00026789188268594444,-0.0001043747179210186,-0.0017412834567949176,0.0042063589207828045,-0.00012878308189101517,-0.39147698879241943,0.6506701707839966,0.48135268688201904,0.5952344536781311,0.09032871574163437,-5.2478556632995605,0.45538634061813354,0.6962723731994629,0.42000001668930054,-0.7366171479225159,3.000002145767212,-0.514693558216095,-2.9999990463256836,-0.12751443684101105,-0.1355443298816681,-0.14326760172843933,-0.15022528171539307,-1.0209509134292603,-1.015851378440857,-1.0119526386260986,-1.008828043937683
0.3,0.08796154707670212,0.10204746574163437,0.0,0.9261929988861084,0.0,0.0,-0.37704983353614807,-0.3507193922996521,-0.21278296411037445,0.0,0.0,0.0,-2.0059854984283447,-0.3622491657733917,0.65069580078125,0.4200000464916229,1.0,3.680808276840253e-06,-2.3190982574305963e-06,2.0107574982830556e-07,0.0002647909277584404,0.0002662587212398648,-0.00010421173647046089,-0.0017168476479128003,0.004168904852122068,-0.00012909737415611744,-0.3858122229576111,0.6526164412498474,0.42847752571105957,0.18769939243793488,-0.09840302914381027,-0.270771324634552,0.45538634061813354,0.6962723731994629,0.42000001668930054,-0.6866125464439392,2.999389886856079,-0.565091609954834,-3.005378246307373,-0.1437031328678131,-0.15140897035598755,-0.15889041125774384,-0.1650419384241104,-0.36370426416397095,-0.4316847622394562,-0.5012300610542297,-0.4762592613697052
0.31666666666666665,0.08082933723926544,0.09702092409133911,0.0,0.9289368987083435,0.0,0.0,-0.3702380955219269,-0.47058922052383423,-0.34119027853012085,0.0,0.0,0.0,1.7665618658065796,-0.3622491657733917,0.6506957411766052,0.4200000464916229,1.0,3.3043245366570773e-06,-2.2214728687686147e-06,2.535407759296504e-07,0.0002666087239049375,0.0002674518327694386,-0.00010424456559121609,-0.0017352774739265442,0.004204465541988611,-0.00012828371836803854,-0.382573664188385,0.6598546504974365,0.4254296123981476,0.34729188680648804,0.6443592309951782,-0.188603013753891,0.45538634061813354,0.6962723731994629,0.42000001668930054,-0.6366197466850281,2.9999701976776123,-0.6151634454727173,-3.0000009536743164,-0.15033665299415588,-0.15834537148475647,-0.16608379781246185,-0.17120924592018127,-0.4248068630695343,-0.4106575548648834,-0.39149773120880127,-0.30930063128471375
0.3333333333333333,0.07140842825174332,0.08975310623645782,0.0,0.9257196187973022,0.0,0.0,-0.37821054458618164,-0.6090307235717773,-0.4752403199672699,0.0,0.0,0.0,-1.959507942199707,-0.35716426372528076,0.6575080752372742,0.42042508721351624,0.9976450800895691,0.010694828815758228,-0.0008405024418607354,-0.06774400919675827,0.24769848585128784,0.33015504479408264,-0.020760927349328995,-1.066789150238037,0.09015338122844696,-6.165269374847412,-0.3753719925880432,0.6656125783920288,0.42220568656921387,0.6248559355735779,0.3250686526298523,-0.1964719146490097,0.45538634061813354,0.6962723731994629,0.42000001668930054,-0.5866146683692932,2.999976873397827,-0.6652188301086426,-2.9999337196350098,-0.158867746591568,-0.16583573818206787,-0.17239786684513092,-0.17551058530807495,-0.5499719381332397,-0.44944727420806885,-0.3398168981075287,-0.19287367165088654
0.35,0.05983218923211098,0.08021530508995056,0.0,0.9284704327583313,0.0,0.0,-0.37140628695487976,-0.7384986877441406,-0.6144655346870422,0.0,0.0,0.0,1.7925093173980713,-0.3512638211250305,0.6658121943473816,0.4200437366962433,0.9881001710891724,0.00048570457147434354,0.000568771967664361,-0.15380939841270447,0.5146505236625671,0.7484480142593384,0.02304035611450672,0.5799304842948914,0.5988713502883911,-5.1339874267578125,-0.366291880607605,0.6746107339859009,0.42387181520462036,0.6204218864440918,0.7313262224197388,0.056948088109493256,0.45538634061813354,0.6962723731994629,0.42000001668930054,-0.5366096496582031,2.999995708465576,-0.7152436375617981,-2.9999992847442627,-0.16836252808570862,-0.17316795885562897,-0.1773499995470047,-0.1776084452867508,-0.5296627283096313,-0.39443060755729675,-0.24411676824092865,-0.07363966107368469
0.36666666666666664,0.0516490563750267,0.067910335958004,0.0,0.9253950715065002,0.0,0.0,-0.3790038824081421,-0.40599653124809265,-0.785475492477417,0.0,0.0,0.0,-1.8905730247497559,-0.34120407700538635,0.6796236038208008,0.42000046372413635,0.9811540842056274,-2.1814317733515054e-05,1.4105645277595613e-05,-0.19322679936885834,0.7124348878860474,0.9286340475082397,-0.0009408490150235593,0.048319458961486816,-0.024958357214927673,-5.437670707702637,-0.352394163608551,0.6869391202926636,0.42200398445129395,1.0689352750778198,0.7914968729019165,-0.25828883051872253,0.45538634061813354,0.6962723731994629,0.42000001668930054,-0.4866049587726593,2.999995708465576,-0.7652676701545715,-3.0000014305114746,-0.17686325311660767,-0.17896205186843872,-0.18011920154094696,-0.17711549997329712,-0.46674659848213196,-0.2875784933567047,-0.0881611555814743,0.11875227838754654
0.3833333333333333,0.04107409715652466,0.05407104268670082,0.0,0.9102455973625183,0.0,0.0,-0.41406872868537903,-0.7169567346572876,-0.853614091873169,0.0,0.0,0.0,-5.515894412994385,-0.324892520904541,0.6990780234336853,0.4202588200569153,0.9708537459373474,-0.0062627228908240795,0.001330382190644741,-0.23958712816238403,1.2163161039352417,1.3689961433410645,0.040249764919281006,-1.6271213293075562,0.010957877151668072,-6.702942848205566,-0.3311677575111389,0.7029595375061035,0.420595645904541,1.4714068174362183,1.1612622737884521,0.1469019055366516,0.45538634061813354,0.6962723731994629,0.42000001668930054,-0.43658170104026794,2.997994899749756,-0.8153107166290283,-3.0000176429748535,-0.18599388003349304,-0.1848190575838089,-0.18233661353588104,-0.17565356194972992,-0.48873090744018555,-0.30110371112823486,-0.0903744027018547,0.11906896531581879
0.4,0.03359947353601456,0.03731856495141983,0.0,0.8808764815330505,0.0,0.0,-0.47334620356559753,-0.4075466990470886,-1.0492136478424072,0.0,0.0,0.0,-8.70717716217041,-0.2891731262207031,0.723454475402832,0.4247986972332001,0.9558027386665344,-0.004758419468998909,-0.030328966677188873,-0.2924014627933502,2.961150884628296,1.8347597122192383,0.3954319953918457,6.175103187561035,-7.641774654388428,-2.9369258880615234,-0.29502004384994507,0.7285548448562622,0.4243464469909668,2.9109292030334473,1.8523719310760498,0.5114486813545227,0.45538634061813354,0.6962723731994629,0.42000001668930054,-0.39376333355903625,1.6894363164901733,-0.8653345108032227,-2.9999096393585205,-0.19400188326835632,-0.189537912607193,-0.18340212106704712,-0.17318092286586761,-0.5433676242828369,-0.32133015990257263,-0.08063056319952011,0.14617480337619781
0.4166666666666667,0.02825828827917576,0.025675512850284576,0.0,0.8346471786499023,0.0,0.0,-0.5507849454879761,-0.2725125551223755,-0.5744743943214417,0.0,0.0,0.0,-11.583277702331543,-0.21444839239120483,0.7577033042907715,0.43169111013412476,0.931784987449646,0.05319537967443466,-0.0756976529955864,-0.3510226011276245,6.036106586456299,1.8505196571350098,0.4487505257129669,5.987016677856445,-11.087966918945312,17.144920349121094,-0.2196357697248459,0.7632708549499512,0.4312918484210968,5.739784240722656,2.4269533157348633,0.5167900323867798,0.45538634061813354,0.6962723731994629,0.42000001668930054,-0.37600719928741455,0.7630617618560791,-0.828402042388916,2.9995014667510986,-0.20920918881893158,-0.20092372596263885,-0.18932318687438965,-0.174284890294075,-0.8927730917930603,-0.7645506858825684,-0.44007012248039246,-0.16650010645389557
0.43333333333333335,0.026433322578668594,0.017164740711450577,0.0,0.7971964478492737,0.0,0.0,-0.60371994972229,-0.048298709094524384,-0.4730057418346405,0.0,0.0,0.0,-6.596282482147217,-0.11925680935382843,0.7937443852424622,0.44195547699928284,0.8854081034660339,0.09083259850740433,-0.10450226813554764,-0.44371286034584045,6.098836421966553,1.3107832670211792,0.883439838886261,-2.485826253890991,-1.6568033695220947,0.02988268807530403,-0.12392643094062805,0.801061749458313,0.4411681294441223,5.911543369293213,1.935044527053833,0.6325459480285645,0.45538634061813354,0.6962723731994629,0.42000001668930054,-0.363002747297287,0.8479498624801636,-0.8552336692810059,-3.0000009536743164,-0.21922779083251953,-0.21147030591964722,-0.19578911364078522,-0.1775127500295639,-0.5226776003837585,-0.5411202311515808,-0.3406336009502411,-0.19285503029823303
0.45,0.027821794152259827,0.011923238635063171,0.0,0.7803440690040588,0.0,0.0,-0.6253504157066345,0.13778026401996613,-0.2609683573246002,0.0,0.0,0.0,-2.179699182510376,-0.019912712275981903,0.8154312372207642,0.4524286985397339,0.8203558325767517,0.08454810827970505,-0.14443422853946686,-0.5468149781227112,6.113253116607666,0.020023338496685028,0.7946697473526001,-9.283156394958496,2.178309202194214,1.557344675064087,-0.024643585085868835,0.8251278400421143,0.4518852233886719,6.103411674499512,0.9351391196250916,0.7535319924354553,0.45538634061813354,0.6962723731994629,0.42000001668930054,-0.3481005132198334,0.8327099680900574,-0.9052577018737793,-3.000000476837158,-0.22862111032009125,-0.22024387121200562,-0.2012026011943817,-0.18043994903564453,-0.5401953458786011,-0.4715358316898346,-0.2855079472064972,-0.1501854807138443
0.4666666666666667,0.027895869687199593,0.008786153048276901,0.0,0.7557646036148071,0.0,0.0,-0.6548433899879456,-0.009133012033998966,-0.12931586802005768,0.0,0.0,0.0,-5.337924003601074,0.0782722681760788,0.819465696811676,0.460708349943161,0.7468999028205872,0.06991083174943924,-0.15921811759471893,-0.6417962908744812,5.502359867095947,-1.2640924453735352,0.4714498519897461,-18.75419044494629,-15.427942276000977,32.16973876953125,0.0737348347902298,0.8318459987640381,0.4612618088722229,5.96489143371582,-0.10601907223463058,0.59031081199646,0.45538634061813354,0.6962723731994629,0.42000001668930054,-0.3359642028808594,0.4820529818534851,-0.9552818536758423,-3.0000052452087402,-0.2367820143699646,-0.2269957810640335,-0.2051895260810852,-0.18235868215560913,-0.44919317960739136,-0.3462233245372772,-0.19402644038200378,-0.07657977193593979
0.48333333333333334,0.030506035313010216,0.0045211962424218655,0.0,0.7433810234069824,0.0,0.0,-0.6688681840896606,0.213218092918396,-0.2975460886955261,0.0,0.0,0.0,-1.2232812643051147,0.17096249759197235,0.808702826499939,0.46336203813552856,0.6275052428245544,-0.004487819038331509,-0.22599172592163086,-0.745080292224884,4.92341423034668,-1.6373090744018555,0.061288487166166306,-24.02739143371582,10.784453392028809,-7.550915718078613,0.16460035741329193,0.823868989944458,0.4677105247974396,5.246021270751953,-0.8837061524391174,0.3103805184364319,0.45538634061813354,0.6962723731994629,0.42000001668930054,-0.328395813703537,0.4187174439430237,-1.0053056478500366,-2.9983174800872803,-0.2399674952030182,-0.22926059365272522,-0.2058209627866745,-0.1819157749414444,-0.023377569392323494,-0.03303394466638565,0.030364999547600746,0.05947424843907356
0.5,0.0319056399166584,0.0031851886305958033,0.0,0.7231251001358032,0.0,0.0,-0.6907170414924622,0.02746942825615406,-0.018508240580558777,0.0,0.0,0.0,-4.360692977905273,0.249704048037529,0.7894747853279114,0.46137291193008423,0.5739842057228088,-0.028727563098073006,-0.20812579989433289,-0.791454553604126,4.484605312347412,-1.778544306755066,-0.18811652064323425,-2.2892723083496094,3.1258339881896973,-2.2043633460998535,0.2455567568540573,0.8065452575683594,0.46651896834373474,4.538764953613281,-1.2596421241760254,-0.26316744089126587,0.45538634061813354,0.6962723731994629,0.42000001668930054,-0.3230898678302765,0.3485604226589203,-1.0553277730941772,-2.999752998352051,-0.2394922524690628,-0.2296142876148224,-0.2059047818183899,-0.18220683932304382,0.07415952533483505,0.058042027056217194,0.029352711513638496,-0.023604217916727066
0.5166666666666666,0.03423547372221947,0.004576307255774736,0.0,0.716535747051239,0.0,0.0,-0.697550356388092,0.17497387528419495,0.16514256596565247,0.0,0.0,0.0,-0.1435110867023468,0.3160272240638733,0.7648872137069702,0.4530744254589081,0.5210988521575928,-0.060826376080513,-0.186147078871727,-0.8307257294654846,3.4840126037597656,-1.6889883279800415,-0.6310451626777649,-4.006617546081543,5.047930717468262,-8.855669021606445,0.31387948989868164,0.7819715738296509,0.45862069725990295,3.639002799987793,-1.6494357585906982,-0.6321359872817993,0.45538634061813354,0.6962723731994629,0.42000001668930054,-0.31506961584091187,0.6883420944213867,-1.1053498983383179,-2.999793767929077,-0.23730649054050446,-0.2277194857597351,-0.20497767627239227,-0.1825874149799347,0.19689646363258362,0.1701572835445404,0.0793033242225647,-0.02819792367517948
0.5333333333333333,0.03923739865422249,0.0022488615941256285,0.0,0.7009654641151428,0.0,0.0,-0.7131952047348022,0.33283716440200806,-0.12978388369083405,0.0,0.0,0.0,-3.270189046859741,0.3701847493648529,0.7420951128005981,0.43691471219062805,0.4833223819732666,-0.09377152472734451,-0.17102394998073578,-0.8534384965896606,2.798560380935669,-1.6130235195159912,-1.0194135904312134,-7.490363121032715,8.848971366882324,-4.939425468444824,0.3695249557495117,0.7583478689193726,0.4427318572998047,2.9255311489105225,-1.4980437755584717,-1.1237437725067139,0.45538634061813354,0.6962723731994629,0.42000001668930054,-0.29967498779296875,0.9832133650779724,-1.1553720235824585,-2.9999990463256836,-0.229701429605484,-0.22140052914619446,-0.201269268989563,-0.1816311627626419,0.29795315861701965,0.2557397484779358,0.11481493711471558,-0.037379711866378784
0.55,0.04663168266415596,0.005243433639407158,0.0,0.6986890435218811,0.0,0.0,-0.7154254913330078,0.44502490758895874,0.1980046033859253,0.0,0.0,0.0,0.5252023935317993,0.40737733244895935,0.7221142053604126,0.4261469841003418,0.4754260182380676,-0.0611710362136364,-0.09409844875335693,-0.8725672364234924,1.5052461624145508,-1.1725205183029175,0.10191680490970612,-8.574888229370117,-6.283984661102295,2.0338428020477295,0.4068485200405121,0.7347069978713989,0.42968350648880005,1.5213871002197266,-1.024382472038269,-0.21293821930885315,0.45538634061813354,0.6962723731994629,0.42000001668930054,-0.28612464666366577,0.7311384081840515,-1.2053955793380737,-2.995988607406616,-0.22736838459968567,-0.21943742036819458,-0.2014952003955841,-0.18420900404453278,0.30950701236724854,0.23761150240898132,0.05800899490714073,-0.11953038722276688
0.5666666666666667,0.0555291511118412,0.003429190721362829,0.0,0.6862412095069885,0.0,0.0,-0.7273740172386169,0.5901176333427429,-0.14799654483795166,0.0,0.0,0.0,-2.8749446868896484,0.42810508608818054,0.714145302772522,0.42446377873420715,0.48006853461265564,-0.0511205680668354,-0.0730305165052414,-0.8726897835731506,0.6607146859169006,-0.7487854361534119,0.13714349269866943,-7.382916450500488,-0.21239954233169556,10.766693115234375,0.42672842741012573,0.7256759405136108,0.42771536111831665,0.7490029335021973,-0.27746617794036865,0.0939098596572876,0.45538634061813354,0.6962723731994629,0.42000001668930054,-0.2722342610359192,0.7339022755622864,-1.1766618490219116,2.9994544982910156,-0.2174500674009323,-0.21165429055690765,-0.19757342338562012,-0.183932363986969,0.5446770787239075,0.4327085018157959,0.21620135009288788,0.014104214496910572
0.5833333333333334,0.06220060959458351,0.004661720246076584,0.0,0.6863534450531006,0.0,0.0,-0.7272681593894958,0.3336668014526367,0.10100636631250381,0.0,0.0,0.0,0.9115332961082458,0.4379200339317322,0.7053782343864441,0.42442587018013,0.495318740606308,-0.05592899024486542,-0.009039605967700481,-0.8668619394302368,0.505954384803772,-0.5326200127601624,-0.002192070009186864,12.627006530761719,8.865665435791016,-2.1575562953948975,0.43560513854026794,0.7161399126052856,0.4260197579860687,0.4261644780635834,-0.6641374826431274,-0.3497258722782135,0.45538634061813354,0.6962723731994629,0.42000001668930054,-0.29903706908226013,-2.9999990463256836,-1.1984871625900269,-2.999999523162842,-0.21065635979175568,-0.20625445246696472,-0.19532883167266846,-0.1846424639225006,0.463020920753479,0.3652726709842682,0.1643121987581253,-0.02317766472697258
0.6,0.06958986073732376,0.009010201320052147,0.0,0.6756693124771118,0.0,0.0,-0.7372048497200012,0.45665329694747925,0.2940962016582489,0.0,0.0,0.0,-2.6850690841674805,0.4424873888492584,0.7007813453674316,0.42316845059394836,0.5025650858879089,-0.04825521260499954,0.048569824546575546,-0.8618239760398865,0.151930570602417,-0.1373613029718399,-0.0668930634856224,3.7776644229888916,-1.672451376914978,4.653511047363281,0.4404110014438629,0.7140508890151978,0.4255397915840149,0.2911476492881775,0.15327350795269012,0.18660461902618408,0.45538634061813354,0.6962723731994629,0.42000001668930054,-0.32866618037223816,-0.7813292145729065,-1.2484091520309448,-2.9986178874969482,-0.20136836171150208,-0.19942191243171692,-0.19241733849048615,-0.18523144721984863,0.690312922000885,0.5091691613197327,0.250165194272995,0.022428663447499275
0.6166666666666667,0.07869254797697067,0.008586819283664227,0.0,0.6767220497131348,0.0,0.0,-0.7362385988235474,0.5589949488639832,-0.024983705952763557,0.0,0.0,0.0,1.0293508768081665,0.44435712695121765,0.6989461183547974,0.4217086136341095,0.527747631072998,-0.023617373779416084,0.0375945009291172,-0.8482401371002197,0.09168385714292526,-0.09327948838472366,-0.07343428581953049,-1.9488024711608887,-3.748368978500366,2.603520393371582,0.44199931621551514,0.7155510187149048,0.4288075566291809,-0.06711748987436295,-0.028439084067940712,0.21604466438293457,0.45538634061813354,0.6962723731994629,0.42000001668930054,-0.37196964025497437,-2.9999141693115234,-1.298397421836853,-2.999558448791504,-0.18753965198993683,-0.18857499957084656,-0.18577954173088074,-0.1823200136423111,0.6084693074226379,0.4929259717464447,0.30407121777534485,0.13579851388931274
0.6333333333333333,0.09011394530534744,0.01279105432331562,0.0,0.6969661712646484,0.0,0.0,-0.7171039581298828,0.7106569409370422,0.24196265637874603,0.0,0.0,0.0,4.55887508392334,0.4452902376651764,0.6978949308395386,0.4200184643268585,0.5415357947349548,-0.0001395106955897063,0.00017237239808309823,-0.8406776785850525,0.006896234583109617,-0.019864540547132492,-0.009757439605891705,-0.2480459362268448,-0.46422475576400757,0.8268639445304871,0.44061410427093506,0.714881420135498,0.43221744894981384,-0.0760863646864891,0.07481887936592102,0.21489973366260529,0.45538634061813354,0.6962723731994629,0.42000001668930054,-0.4219614267349243,-2.9964160919189453,-1.3483630418777466,-2.998652458190918,-0.1807430237531662,-0.18301300704479218,-0.18257692456245422,-0.18119309842586517,0.5126296877861023,0.41820645332336426,0.26649197936058044,0.13449399173259735
0.65,0.10168545693159103,0.012591664679348469,0.0,0.7065194845199585,0.0,0.0,-0.7076936364173889,0.6913600564002991,-0.05026252940297127,0.0,0.0,0.0,0.5243870615959167,0.4447501301765442,0.6982417106628418,0.4200543463230133,0.5375573039054871,0.0007256774697452784,-0.0011469093151390553,-0.8432260155677795,-0.019400203600525856,0.010257518850266933,-0.012967549264431,0.26985639333724976,0.5913838744163513,-0.37633049488067627,0.4403301477432251,0.7178906202316284,0.4368937015533447,-0.02062787488102913,0.135029137134552,0.29500633478164673,0.45538634061813354,0.6962723731994629,0.42000001668930054,-0.4719697833061218,-2.9969234466552734,-1.398330569267273,-2.997605800628662,-0.1707296520471573,-0.17436276376247406,-0.17605870962142944,-0.1764417290687561,0.4761573374271393,0.4445194900035858,0.37311577796936035,0.32056519389152527
0.6666666666666666,0.11424469947814941,0.008932551369071007,0.0,0.6941426396369934,0.0,0.0,-0.719837486743927,0.7859705686569214,-0.29310697317123413,0.0,0.0,0.0,-2.979635238647461,0.4447990953922272,0.6982186436653137,0.41999998688697815,0.5375571846961975,1.4388581348612206e-06,-1.4486349755316041e-06,-0.843227207660675,0.00025237243971787393,-3.4572716685943305e-05,-3.7479912862181664e-05,9.641753422329202e-05,0.0034289229661226273,-0.0005300894263200462,0.4448520541191101,0.7211830615997314,0.44498884677886963,0.513392448425293,0.19273076951503754,0.7915928363800049,0.45538634061813354,0.6962723731994629,0.42000001668930054,-0.5219824314117432,-2.9999852180480957,-1.4483487606048584,-2.9999992847442627,-0.16519947350025177,-0.16877716779708862,-0.17091752588748932,-0.17142178118228912,0.2432442158460617,0.27573075890541077,0.28574851155281067,0.3145228624343872
0.6833333333333333,0.13010111451148987,0.010093053802847862,0.0,0.6599318385124207,0.0,0.0,-0.7513254284858704,0.920549213886261,0.05895974487066269,0.0,0.0,0.0,-6.409428119659424,0.4447990655899048,0.698218822479248,0.4200000464916229,0.5375574827194214,1.702639877976253e-07,-2.5595461465854896e-06,-0.8432270288467407,2.8475516955950297e-05,-0.0002425949787721038,-7.414841093122959e-05,0.006451323628425598,-0.002171196509152651,-0.0007037127506919205,0.4608967900276184,0.7216269373893738,0.4650288224220276,1.5140239000320435,-0.0005389712750911713,1.6909854412078857,0.45538634061813354,0.6962723731994629,0.42000001668930054,-0.5719948410987854,-2.9999935626983643,-1.4983670711517334,-3.000000238418579,-0.1689939945936203,-0.1706082820892334,-0.1711253970861435,-0.1698196828365326,-0.16357780992984772,-0.06180752068758011,0.02886282280087471,0.1336035430431366
0.7,0.14233848452568054,0.013468810357153416,0.0,0.6390078067779541,0.0,0.0,-0.7692002058029175,0.6853598356246948,0.18458418548107147,0.0,0.0,0.0,-2.1898531913757324,0.4447990655899048,0.698218822479248,0.4200000464916229,0.5375573635101318,1.3400861575973977e-07,-2.624427224873216e-06,-0.8432270884513855,2.738593320827931e-05,-0.000244524038862437,-7.368484511971474e-05,0.006513791158795357,-0.0021829912438988686,-0.0007048483239486814,0.4863971471786499,0.7249857783317566,0.4966982305049896,1.5839812755584717,0.4086515009403229,2.0503218173980713,0.45538634061813354,0.6962723731994629,0.42000001668930054,-0.5920516848564148,0.3214832544326782,-1.5483853816986084,-3.0,-0.1715608835220337,-0.17213445901870728,-0.17180569469928741,-0.16952213644981384,-0.018265927210450172,-0.01994081400334835,-0.031421881169080734,-0.03707275167107582
0.7166666666666667,0.1500660479068756,0.014272946864366531,0.0,0.643133282661438,0.0,0.0,-0.7657542824745178,0.4292038679122925,0.12697209417819977,0.0,0.0,0.0,1.4803727865219116,0.4447990655899048,0.698218822479248,0.4200000464916229,0.5375574231147766,1.168479784041665e-07,-2.6848633751797024e-06,-0.8432270884513855,2.868214505724609e-05,-0.00024467436014674604,-7.394375279545784e-05,0.0065108416602015495,-0.0021685706451535225,-0.0007082388619892299,0.5074743032455444,0.7322084903717041,0.5252172946929932,0.8576585054397583,0.3421849012374878,1.4189326763153076,0.45538634061813354,0.6962723731994629,0.42000001668930054,-0.5652069449424744,2.6732795238494873,-1.509518027305603,2.9999983310699463,-0.1690395325422287,-0.16981646418571472,-0.16983206570148468,-0.16785648465156555,-0.045948684215545654,-0.005002903752028942,0.023267393931746483,0.043708283454179764
0.7333333333333333,0.15439476072788239,0.01196502335369587,0.0,0.6356399655342102,0.0,0.0,-0.771985650062561,0.15052849054336548,-0.16869506239891052,0.0,0.0,0.0,-1.9175803661346436,0.4447990655899048,0.698218822479248,0.4200000464916229,0.5375573039054871,-3.2660064874789896e-08,-2.492704652468092e-06,-0.843227207660675,2.6998011890100315e-05,-0.0002446243306621909,-7.359846495091915e-05,0.006518656387925148,-0.0021876641549170017,-0.0007042150828056037,0.5138211846351624,0.7381748557090759,0.5419008135795593,-0.14869600534439087,0.35172486305236816,0.7635241746902466,0.45538634061813354,0.6962723731994629,0.42000001668930054,-0.5332353115081787,1.2571518421173096,-1.4594615697860718,2.9999892711639404,-0.16893936693668365,-0.16908591985702515,-0.16866432130336761,-0.16643190383911133,-0.06059863418340683,-0.0027345865964889526,0.04245855286717415,0.07178215682506561
0.75,0.15431007742881775,0.014844456687569618,0.0,0.6413282752037048,0.0,0.0,-0.7672666311264038,-0.026211246848106384,0.12836097180843353,0.0,0.0,0.0,1.5830451250076294,0.4447990655899048,0.698218822479248,0.4200000464916229,0.5375573039054871,1.429860105872649e-07,-2.5600713797757635e-06,-0.8432270884513855,2.6931793399853632e-05,-0.00024463716545142233,-7.357262074947357e-05,0.00651940843090415,-0.002188154961913824,-0.0007040744530968368,0.5074372291564941,0.7416962385177612,0.5519053936004639,-0.4449203610420227,0.2861732840538025,0.44334664940834045,0.45538634061813354,0.6962723731994629,0.42000001668930054,-0.5027388334274292,2.2904648780822754,-1.476436734199524,-3.0,-0.1746014803647995,-0.17285679280757904,-0.17081309854984283,-0.1673508584499359,-0.11665210872888565,-0.06430581957101822,-0.020760904997587204,0.005701730493456125
0.7666666666666666,0.1527549922466278,0.012665596790611744,0.0,0.634445309638977,0.0,0.0,-0.7729677557945251,-0.15184365212917328,-0.20716099441051483,0.0,0.0,0.0,-1.9906558990478516,0.4447990655899048,0.698218822479248,0.4200000464916229,0.5375574231147766,1.4049352614620148e-07,-2.6188902211288223e-06,-0.8432271480560303,2.7111429517390206e-05,-0.0002445346908643842,-7.359473966062069e-05,0.006515829358249903,-0.002185275312513113,-0.0007041755015961826,0.49428993463516235,0.7462383508682251,0.552579402923584,-1.1349480152130127,0.2010696977376938,-0.1772090345621109,0.45538634061813354,0.6962723731994629,0.42000001668930054,-0.49658307433128357,-1.2497717142105103,-1.437774658203125,3.000000238418579,-0.17429913580417633,-0.1720336377620697,-0.16956202685832977,-0.1659223437309265,0.04012994468212128,0.07485264539718628,0.10459131002426147,0.1184949204325676
0.7833333333333333,0.15265527367591858,0.015219256281852722,0.0,0.639573872089386,0.0,0.0,-0.7687296271324158,-0.02941754274070263,0.19666798412799835,0.0,0.0,0.0,1.5128740072250366,0.4447990655899048,0.698218822479248,0.4200000464916229,0.5375574827194214,1.234673447925161e-07,-2.678933924471494e-06,-0.8432271480560303,2.8679525712504983e-05,-0.000244673719862476,-7.394468411803246e-05,0.00651085190474987,-0.0021685475949198008,-0.0007082294323481619,0.47863805294036865,0.7485731840133667,0.5499595403671265,-0.6701587438583374,0.2898406386375427,-0.10267878323793411,0.45538634061813354,0.6962723731994629,0.42000001668930054,-0.4950072169303894,1.2238333225250244,-1.4551939964294434,-3.000000476837158,-0.178802028298378,-0.17522220313549042,-0.1715039610862732,-0.16690318286418915,-0.12979809939861298,-0.0994241014122963,-0.06490149348974228,-0.03897622227668762
0.8,0.15431489050388336,0.013475613668560982,0.0,0.6330397725105286,0.0,0.0,-0.7741192579269409,0.16055604815483093,-0.12800492346286774,0.0,0.0,0.0,-1.7438222169876099,0.4447990655899048,0.698218822479248,0.4200000464916229,0.5375573039054871,1.499210213751212e-07,-2.7439907626103377e-06,-0.8432271480560303,2.6876648917095736e-05,-0.0002446780854370445,-7.357285358011723e-05,0.0065206908620893955,-0.002189246006309986,-0.0007040742202661932,0.4695594608783722,0.7519347667694092,0.5452851057052612,-0.48830416798591614,-0.006250398233532906,-0.2986377477645874,0.45538634061813354,0.6962723731994629,0.42000001668930054,-0.5177652835845947,-3.0000011920928955,-1.4165923595428467,2.999999761581421,-0.17806611955165863,-0.17437191307544708,-0.17032992839813232,-0.16540640592575073,-0.0858679935336113,-0.03757576644420624,0.024645933881402016,0.08696579933166504
0.8166666666666667,0.158948615193367,0.008996082469820976,0.0,0.6070088744163513,0.0,0.0,-0.7946950793266296,0.3252902925014496,-0.3399770259857178,0.0,0.0,0.0,-4.862886905670166,0.4447990655899048,0.698218822479248,0.4200000464916229,0.5375573635101318,7.200731033663033e-08,-2.803543338814052e-06,-0.8432271480560303,2.6429341232869774e-05,-0.000244913186179474,-7.345317862927914e-05,0.006529556587338448,-0.0021946378983557224,-0.0007036027382127941,0.46844911575317383,0.749800443649292,0.5424479246139526,0.35967740416526794,-0.24492277204990387,0.10429977625608444,0.45538634061813354,0.6962723731994629,0.42000001668930054,-0.5677749514579773,-2.999904155731201,-1.434428334236145,-2.999993085861206,-0.18102699518203735,-0.17633377015590668,-0.17101219296455383,-0.1647634357213974,-0.20183806121349335,-0.1374986171722412,-0.05476049706339836,0.032725464552640915
0.8333333333333334,0.1664017289876938,0.007290034554898739,0.0,0.596100389957428,0.0,0.0,-0.8029099106788635,0.47564753890037537,-0.04357553645968437,0.0,0.0,0.0,-0.5583313703536987,0.4447990655899048,0.698218822479248,0.4200000464916229,0.5375574231147766,7.430079307368942e-08,-2.801140681185643e-06,-0.8432271480560303,2.7098612918052822e-05,-0.0002448861487209797,-7.357820868492126e-05,0.006525023374706507,-0.002186665777117014,-0.0007051893044263124,0.47480839490890503,0.7480791807174683,0.5457909107208252,0.41389286518096924,0.03777089715003967,0.2749345302581787,0.45538634061813354,0.6962723731994629,0.42000001668930054,-0.5878990292549133,0.3120288550853729,-1.48444664478302,-2.9999992847442627,-0.18501825630664825,-0.17967139184474945,-0.1734510213136673,-0.16626745462417603,-0.1448087841272354,-0.15064658224582672,-0.1441238671541214,-0.13587144017219543
0.85,0.17090584337711334,0.0015922224847599864,0.0,0.6102738380432129,0.0,0.0,-0.7921905517578125,0.20840150117874146,-0.3887602686882019,0.0,0.0,0.0,2.740760087966919,0.4447990655899048,0.698218822479248,0.4200000464916229,0.5375574827194214,5.7471329029112894e-08,-2.8620415832847357e-06,-0.8432271480560303,2.788447091006674e-05,-0.00024502736050635576,-7.377122528851032e-05,0.006524345371872187,-0.0021791053004562855,-0.0007073413580656052,0.4819270372390747,0.7487132549285889,0.5459756851196289,0.3366623520851135,-0.06890713423490524,-0.23748698830604553,0.45538634061813354,0.6962723731994629,0.42000001668930054,-0.5815991759300232,0.4263843297958374,-1.4457591772079468,3.000000476837158,-0.18373554944992065,-0.17869485914707184,-0.17260955274105072,-0.16554534435272217,-0.024503208696842194,-0.004979394376277924,0.019469762220978737,0.039441611617803574
0.8666666666666667,0.17213542759418488,0.0001424739311914891,0.0,0.6100208163261414,0.0,0.0,-0.7923853993415833,0.03351297229528427,-0.07585550099611282,0.0,0.0,0.0,-0.879311740398407,0.4447990655899048,0.698218822479248,0.4200000464916229,0.5375574827194214,8.099556225715787e-08,-2.857557092283969e-06,-0.8432270288467407,2.746313657553401e-05,-0.0002448117302265018,-7.366226054728031e-05,0.006521191913634539,-0.0021823658607900143,-0.0007058080518618226,0.48666912317276,0.7446088790893555,0.5396237969398499,0.34284016489982605,-0.28447234630584717,-0.39709651470184326,0.45538634061813354,0.6962723731994629,0.42000001668930054,-0.596647322177887,-2.00709867477417,-1.3957408666610718,2.999999761581421,-0.1875169277191162,-0.18168720602989197,-0.17474912106990814,-0.1669234037399292,-0.1084454283118248,-0.09339260309934616,-0.0708393082022667,-0.0485394261777401
