vladlanda/robotic-transformer/data/env_000_episode_0022.csv
sim_time_s,robot_box_x,robot_box_y,robot_box_z,robot_box_quat_w,robot_box_quat_x,robot_box_quat_y,robot_box_quat_z,robot_box_linvel_x,robot_box_linvel_y,robot_box_linvel_z,robot_box_angvel_x,robot_box_angvel_y,robot_box_angvel_z,cube_world_x,cube_world_y,cube_world_z,cube_quat_w,cube_quat_x,cube_quat_y,cube_quat_z,cube_linvel_x,cube_linvel_y,cube_linvel_z,cube_angvel_x,cube_angvel_y,cube_angvel_z,endpoint_world_x,endpoint_world_y,endpoint_world_z,endpoint_linvel_x,endpoint_linvel_y,endpoint_linvel_z,target_cube_world_x,target_cube_world_y,target_cube_world_z,gripper_actual_pos_rad_gp_leftgearjoint,gripper_actual_vel_rad_s_gp_leftgearjoint,gripper_actual_pos_rad_gp_rotatingjoint,gripper_actual_vel_rad_s_gp_rotatingjoint,motor_angle_rad_joint1,motor_angle_rad_joint2,motor_angle_rad_joint3,motor_angle_rad_joint4,motor_speed_rad_s_joint1,motor_speed_rad_s_joint2,motor_speed_rad_s_joint3,motor_speed_rad_s_joint4
0.0,0.0,0.0,0.0,1.0,0.0,0.0,0.0,0.0,0.0,0.0,0.0,0.0,0.0,-0.3300383687019348,0.6522030830383301,0.41999998688697815,1.0,0.0,0.0,0.0,0.0,0.0,0.0,0.0,0.0,0.0,3.42540442943573e-06,-0.005000244826078415,1.313499927520752,0.0,0.0,0.0,0.45211338996887207,0.7008758783340454,0.42000001668930054,-1.5707999467849731,0.0,0.0,0.0,0.0,0.0,0.0,0.0,0.0,0.0,0.0,0.0
0.016666666666666666,0.002872467041015625,0.002153345849364996,0.0,0.9998300075531006,0.0,0.0,-0.01843707449734211,0.23921748995780945,0.18006469309329987,0.0,0.0,0.0,-3.1458752155303955,-0.33003848791122437,0.6522027850151062,0.41999998688697815,1.0,3.2799905511637917e-06,-8.339794135281409e-07,8.465515577427141e-08,-1.9833774786093272e-05,0.00017983047291636467,-6.132945418357849e-05,0.0009432245860807598,-0.004689525347203016,-0.00031981084612198174,-0.006982579827308655,0.004096122458577156,1.3159267902374268,-0.7937570214271545,1.0447765588760376,0.17923541367053986,0.45211338996887207,0.7008758783340454,0.42000001668930054,-1.5301092863082886,3.000000476837158,-0.04587014764547348,-3.000000476837158,0.0008646112983115017,0.0007912972941994667,0.0007058584596961737,0.0006061581079848111,0.11038313806056976,0.0969463437795639,0.08264806121587753,0.0674525797367096
0.03333333333333333,0.008873624727129936,0.006733573041856289,0.0,0.999815821647644,0.0,0.0,-0.019192349165678024,0.4025947153568268,0.3139015734195709,0.0,0.0,0.0,0.862895667552948,-0.3300386071205139,0.6522027254104614,0.4200000464916229,1.0,3.3908531804627273e-06,-2.132488134520827e-06,-3.710428941872124e-08,0.0002635785494931042,0.0002693783608265221,-0.00010509602725505829,-0.0017707846127450466,0.004130862653255463,-0.00013547409616876394,-0.026432693004608154,0.025379065424203873,1.3168318271636963,-1.4733972549438477,1.54224693775177,-0.049083322286605835,0.45211338996887207,0.7008758783340454,0.42000001668930054,-1.4800899028778076,3.0000011920928955,-0.09590993821620941,-3.0000009536743164,0.002918919548392296,0.0025760119315236807,0.002195365261286497,0.001773835625499487,0.15881018340587616,0.13415059447288513,0.10800528526306152,0.08027365803718567
0.05,0.017526166513562202,0.013532452285289764,0.0,0.9994127154350281,0.0,0.0,-0.03426629304885864,0.5815047025680542,0.4505402147769928,0.0,0.0,0.0,-2.6404190063476562,-0.3300386369228363,0.6522027850151062,0.4200000464916229,1.0,3.7651284401363228e-06,-2.2118861124909017e-06,5.622759147172474e-09,0.00026530996547080576,0.00026691515813581645,-0.00010440382175147533,-0.00172425655182451,0.004177390597760677,-0.00012948956282343715,-0.05374135449528694,0.05672869831323624,1.3125869035720825,-1.7750173807144165,2.175686836242676,-0.4308205544948578,0.45211338996887207,0.7008758783340454,0.42000001668930054,-1.4300715923309326,3.000000476837158,-0.14591236412525177,-3.0000007152557373,0.005347160622477531,0.004473469685763121,0.0035279940348118544,0.0025061077903956175,0.16352571547031403,0.1195572093129158,0.07372976094484329,0.025946449488401413
0.06666666666666667,0.029699986800551414,0.02280355989933014,0.0,0.9971556663513184,0.0,0.0,-0.07536984235048294,0.7903133034706116,0.6013029217720032,0.0,0.0,0.0,-5.865654945373535,-0.3300386369228363,0.6522027254104614,0.4200000464916229,0.9999999403953552,3.406779342185473e-06,-2.285526988998754e-06,4.300881926155853e-07,0.00026702668401412666,0.00026791810523718596,-0.00010437914170324802,-0.0017406379338353872,0.004211799707263708,-0.00012850595521740615,-0.08492140471935272,0.09670916199684143,1.3021318912506104,-1.932403802871704,2.5837814807891846,-0.80926114320755,0.45211338996887207,0.7008758783340454,0.42000001668930054,-1.3800479173660278,3.0,-0.11240392923355103,2.999999523162842,0.007793591823428869,0.006131173577159643,0.004358130972832441,0.00246842997148633,0.14839306473731995,0.09384912252426147,0.03725482150912285,-0.0214335098862648
0.08333333333333333,0.04475937411189079,0.034342531114816666,0.0,0.995238721370697,0.0,0.0,-0.09746722131967545,0.9416092038154602,0.7525983452796936,0.0,0.0,0.0,-1.6443382501602173,-0.3300386369228363,0.6522027254104614,0.4200000464916229,1.0,3.6973510759708006e-06,-2.1889595700486097e-06,-2.632473012909031e-07,0.00026389595586806536,0.0002658632874954492,-0.0001043388620018959,-0.0017081330297514796,0.004150238819420338,-0.00012991279072593898,-0.11971843242645264,0.13593903183937073,1.2881006002426147,-2.039308786392212,2.4132609367370605,-0.8846063613891602,0.45211338996887207,0.7008758783340454,0.42000001668930054,-1.3300440311431885,3.0000014305114746,-0.14438852667808533,-3.0000007152557373,0.008865932002663612,0.006186219863593578,0.0033551156520843506,0.000366602762369439,0.015234635211527348,-0.05550685524940491,-0.12838205695152283,-0.20335109531879425
0.1,0.053994499146938324,0.044050924479961395,0.0,0.9909996390342712,0.0,0.0,-0.13386449217796326,0.4281385838985443,0.5241639614105225,0.0,0.0,0.0,-5.3303399085998535,-0.3300386369228363,0.6522027254104614,0.4200000464916229,0.9999999403953552,3.62046125701454e-06,-2.2652770894637797e-06,1.745990232393524e-07,0.0002667673397809267,0.00026740715838968754,-0.0001040794886648655,-0.0017385382670909166,0.004209098871797323,-0.0001277524424949661,-0.1510600447654724,0.18021635711193085,1.2706676721572876,-1.6798253059387207,2.953928232192993,-1.1466928720474243,0.45211338996887207,0.7008758783340454,0.42000001668930054,-1.2800202369689941,2.9999969005584717,-0.11088166385889053,3.0000011920928955,0.0032979859970510006,-0.000248782365815714,-0.003997966647148132,-0.007957637310028076,-0.45002609491348267,-0.5060845017433167,-0.5646299719810486,-0.6258147954940796
0.11666666666666667,0.06482017785310745,0.05681953951716423,0.0,0.9875946640968323,0.0,0.0,-0.1570248305797577,0.8491247296333313,0.8450896739959717,0.0,0.0,0.0,-1.383136510848999,-0.3300386369228363,0.6522027254104614,0.4200000464916229,1.0,3.7984573282301426e-06,-2.262856924062362e-06,-1.5021495869405044e-07,0.00026374036679044366,0.000265661277808249,-0.00010429229587316513,-0.001705389702692628,0.004147546831518412,-0.000129798921989277,-0.18436965346336365,0.22634421288967133,1.24640953540802,-2.1436524391174316,2.814908504486084,-1.686957597732544,0.45211338996887207,0.7008758783340454,0.42000001668930054,-1.2300283908843994,2.999999523162842,-0.14288774132728577,-3.000000238418579,-0.0024983976036310196,-0.0070979418233036995,-0.011908973567187786,-0.01694268360733986,-0.20880047976970673,-0.2835204601287842,-0.3569627106189728,-0.4292597472667694
0.13333333333333333,0.07612189650535583,0.06583413481712341,0.0,0.9826341867446899,0.0,0.0,-0.18555329740047455,0.6083328723907471,0.4579564929008484,0.0,0.0,0.0,-4.225298881530762,-0.3300386369228363,0.6522027850151062,0.4200000464916229,0.9999999403953552,3.5505674986779923e-06,-2.2298811472865054e-06,2.928988749317796e-07,0.0002670325629878789,0.0002677947923075408,-0.00010417005978524685,-0.0017441295785829425,0.004213639069348574,-0.00012800269178114831,-0.21852393448352814,0.2780002951622009,1.2173304557800293,-1.8766639232635498,3.3607513904571533,-1.8947162628173828,0.45211338996887207,0.7008758783340454,0.42000001668930054,-1.1800107955932617,3.0000007152557373,-0.12818071246147156,2.999999523162842,-0.005751503631472588,-0.011914581060409546,-0.018237270414829254,-0.02472916804254055,-0.25221478939056396,-0.3452982008457184,-0.434865266084671,-0.5208068490028381
0.15,0.08396437764167786,0.07103008031845093,0.0,0.9709075689315796,0.0,0.0,-0.23945458233356476,0.4173361361026764,0.25542116165161133,0.0,0.0,0.0,-7.47104549407959,-0.3300386071205139,0.6522027254104614,0.4200000464916229,1.0,3.3323158277198672e-06,-2.1020741769461893e-06,1.3129495357588894e-07,0.00026730698300525546,0.0002685973886400461,-0.00010459753684699535,-0.0017497893422842026,0.0042156679555773735,-0.00012928378419019282,-0.24780574440956116,0.3398171067237854,1.1796340942382812,-1.554255723953247,4.030666351318359,-2.608785629272461,0.45211338996887207,0.7008758783340454,0.42000001668930054,-1.1300153732299805,3.0000011920928955,-0.16011185944080353,-3.0000009536743164,-0.011289199814200401,-0.018806228414177895,-0.026415837928652763,-0.03412773832678795,-0.39578714966773987,-0.4618658721446991,-0.5239992737770081,-0.5822855234146118
0.16666666666666666,0.08777087926864624,0.07766208052635193,0.0,0.9625750780105591,0.0,0.0,-0.27101510763168335,0.1469401866197586,0.45329973101615906,0.0,0.0,0.0,-2.729191780090332,-0.3300386369228363,0.6522027254104614,0.4200000464916229,1.0,3.7374031762738014e-06,-2.2332269509206526e-06,-1.876583866078363e-07,0.00026432963204570115,0.000266269693383947,-0.00010446016676723957,-0.0017119431868195534,0.004157555289566517,-0.00013001271872781217,-0.2782752513885498,0.40340447425842285,1.1282405853271484,-1.6210321187973022,3.9627084732055664,-3.504030227661133,0.45211338996887207,0.7008758783340454,0.42000001668930054,-1.080361247062683,2.9276812076568604,-0.21013645827770233,-3.0,-0.01989210769534111,-0.028129419311881065,-0.036386944353580475,-0.044679053127765656,-0.5832938551902771,-0.6076153516769409,-0.6278780698776245,-0.6444610357284546
0.18333333333333332,0.09561032056808472,0.08153487741947174,0.0,0.9494717717170715,0.0,0.0,-0.3138524889945984,0.5046358704566956,0.15260061621665955,0.0,0.0,0.0,-5.933390140533447,-0.3300386369228363,0.6522027850151062,0.4200000464916229,0.9999999403953552,3.6603628359443974e-06,-2.302359689565492e-06,2.52847314641258e-07,0.0002669092209544033,0.00026760256150737405,-0.0001041253563016653,-0.0017412835732102394,0.004211553372442722,-0.00012787102605216205,-0.3030778169631958,0.4713336229324341,1.0620167255401611,-1.203033208847046,4.171250820159912,-4.405066967010498,0.45211338996887207,0.7008758783340454,0.42000001668930054,-1.0303544998168945,3.000002145767212,-0.2601631283760071,-3.000000476837158,-0.02823157049715519,-0.03676818311214447,-0.045267656445503235,-0.05375179648399353,-0.6784381866455078,-0.6617112159729004,-0.643541157245636,-0.6244292855262756
0.2,0.09829163551330566,0.08837500214576721,0.0,0.9416811466217041,0.0,0.0,-0.33650654554367065,0.1511278599500656,0.4027426838874817,0.0,0.0,0.0,-1.6130907535552979,-0.3300386369228363,0.6522027254104614,0.4200000464916229,1.0,3.5909113194065867e-06,-2.3004156446404522e-06,1.3872801218894892e-07,0.00026654769317246974,0.0002673235139809549,-0.00010424060747027397,-0.0017326237866654992,0.004203386604785919,-0.00012819955009035766,-0.32395339012145996,0.5305270552635193,0.979911744594574,-0.9982035160064697,3.336371898651123,-5.226546287536621,0.45211338996887207,0.7008758783340454,0.42000001668930054,-0.9803445935249329,3.0000009536743164,-0.3101905584335327,-3.0000009536743164,-0.04310287535190582,-0.051706090569496155,-0.06012744829058647,-0.06815530359745026,-0.6592949628829956,-0.6985152363777161,-0.7380936145782471,-0.7760617733001709
0.21666666666666667,0.10598046332597733,0.09094293415546417,0.0,0.9291307330131531,0.0,0.0,-0.36975133419036865,0.49070531129837036,0.08110883831977844,0.0,0.0,0.0,-4.7917070388793945,-0.3300386369228363,0.6522027850151062,0.4200000464916229,1.0,3.607003463912406e-06,-2.2610099676967366e-06,1.9621262836722053e-08,0.0002644715132191777,0.00026558490935713053,-0.00010396563448011875,-0.0017088435124605894,0.004164247307926416,-0.00012832065112888813,-0.33844536542892456,0.5841509103775024,0.8865392208099365,-0.5863988399505615,2.9545886516571045,-5.909581184387207,0.45211338996887207,0.7008758783340454,0.42000001668930054,-0.9303343892097473,2.999999761581421,-0.3602207899093628,-3.0000011920928955,-0.05360528826713562,-0.06256870180368423,-0.0713757798075676,-0.07979836314916611,-0.8620858788490295,-0.8384469747543335,-0.8184265494346619,-0.8019903302192688
0.23333333333333334,0.10863638669252396,0.09704925864934921,0.0,0.9234562516212463,0.0,0.0,-0.38370373845100403,0.1363384872674942,0.34178242087364197,0.0,0.0,0.0,-0.670866072177887,-0.3300386071205139,0.6522027254104614,0.4200000464916229,0.9999999403953552,3.742284661711892e-06,-2.2275266928772908e-06,4.589204536387115e-07,0.00026475160848349333,0.00026671282830648124,-0.00010453304275870323,-0.00171882554423064,0.004165722988545895,-0.0001301881711697206,-0.34780383110046387,0.6180229187011719,0.7854058146476746,-0.3385127782821655,1.4397692680358887,-6.091706275939941,0.45211338996887207,0.7008758783340454,0.42000001668930054,-0.8803237080574036,2.999999523162842,-0.4102521240711212,-3.000000476837158,-0.06992854177951813,-0.07887422293424606,-0.08769470453262329,-0.09612591564655304,-0.7568764090538025,-0.7991153597831726,-0.836117684841156,-0.8680984973907471
0.25,0.10976595431566238,0.09827744215726852,0.0,0.9131118059158325,0.0,0.0,-0.4077092707157135,0.03188209980726242,-0.012744713574647903,0.0,0.0,0.0,-4.117629528045654,-0.3300386369228363,0.6522027254104614,0.4200000464916229,1.0,3.3944668302865466e-06,-2.2821172933618072e-06,1.336286601372194e-07,0.00026679367874749005,0.0002679389144759625,-0.00010439474135637283,-0.0017417257186025381,0.004206514917314053,-0.00012883533781860024,-0.35203391313552856,0.63953697681427,0.681808590888977,-0.028936296701431274,0.973299503326416,-6.214376449584961,0.45211338996887207,0.7008758783340454,0.42000001668930054,-0.8303136825561523,2.9999964237213135,-0.4602833688259125,-2.9999992847442627,-0.08313270658254623,-0.09258005768060684,-0.10182864964008331,-0.11062880605459213,-0.8543914556503296,-0.8698397278785706,-0.8820093870162964,-0.8922197222709656
0.26666666666666666,0.10724487155675888,0.1029958724975586,0.0,0.9097795486450195,0.0,0.0,-0.4150918126106262,-0.1824287474155426,0.24235904216766357,0.0,0.0,0.0,0.0076184929348528385,-0.3300386369228363,0.6522027850151062,0.4200000464916229,1.0,3.683521072161966e-06,-2.3101358692656504e-06,2.1009377348946146e-07,0.0002647914516273886,0.0002662584010977298,-0.00010421173647046089,-0.0017169081838801503,0.004168983548879623,-0.00012909200449939817,-0.35343992710113525,0.6491883993148804,0.586020827293396,-0.016368266195058823,0.16016043722629547,-5.25830078125,0.45211338996887207,0.7008758783340454,0.42000001668930054,-0.7803049087524414,2.9999947547912598,-0.5103135108947754,-2.9999754428863525,-0.10059962421655655,-0.10986620932817459,-0.11897972971200943,-0.1276668906211853,-0.8516198992729187,-0.8838620185852051,-0.914242684841156,-0.9418262839317322
0.2833333333333333,0.10287031531333923,0.10337089747190475,0.0,0.9175424575805664,0.0,0.0,-0.39763784408569336,-0.35057127475738525,0.05709358677268028,0.0,0.0,0.0,3.3093295097351074,-0.3300386369228363,0.6522027254104614,0.4200000464916229,1.0,3.307066890556598e-06,-2.212535264334292e-06,2.6255446528011817e-07,0.00026660817093215883,0.0002674499119166285,-0.00010424223728477955,-0.0017352099530398846,0.004204348661005497,-0.0001282771409023553,-0.35908544063568115,0.6524149179458618,0.5008925795555115,-0.33108848333358765,-0.10129537433385849,-4.824465274810791,0.45211338996887207,0.7008758783340454,0.42000001668930054,-0.7302964925765991,3.000002384185791,-0.5603420734405518,-3.000002861022949,-0.11556379497051239,-0.12510301172733307,-0.13448815047740936,-0.14343681931495667,-1.0320417881011963,-1.0242533683776855,-1.0183088779449463,-1.0135512351989746
0.3,0.10103563219308853,0.10166970640420914,0.0,0.9181551337242126,0.0,0.0,-0.3962211012840271,-0.05244196951389313,-0.15131522715091705,0.0,0.0,0.0,-0.6862868666648865,-0.3300386369228363,0.6522027254104614,0.4200000464916229,1.0,3.6565252230502665e-06,-2.2969290967012057e-06,-2.4498103812220506e-07,0.0002653322007972747,0.0002659547026269138,-0.00010385178029537201,-0.001716420752927661,0.004181907512247562,-0.000127459890791215,-0.3563038110733032,0.6514423489570618,0.41751834750175476,0.5840718746185303,-0.14054705202579498,-5.01575231552124,0.45211338996887207,0.7008758783340454,0.42000001668930054,-0.6802945733070374,2.999983787536621,-0.6103687286376953,-2.9999988079071045,-0.1323845386505127,-0.1418103128671646,-0.15112167596817017,-0.1600019484758377,-1.0008352994918823,-1.0004918575286865,-1.000266432762146,-1.0001113414764404
0.31666666666666665,0.09628818184137344,0.0984758660197258,0.0,0.9244561195373535,0.0,0.0,-0.38128843903541565,-0.36865687370300293,-0.21647484600543976,0.0,0.0,0.0,2.8196120262145996,-0.3298664391040802,0.6510408520698547,0.4203515946865082,0.999808132648468,0.008858038112521172,-0.00013645697617903352,-0.01746601238846779,0.013545439578592777,-0.06381383538246155,0.013245930895209312,0.6709175705909729,-0.013900159858167171,-1.5984100103378296,-0.3571552634239197,0.6548045873641968,0.42263197898864746,0.024140898138284683,0.250165730714798,-0.16823692619800568,0.45211338996887207,0.7008758783340454,0.42000001668930054,-0.6303710341453552,2.999976873397827,-0.6608210802078247,-3.0000007152557373,-0.14065419137477875,-0.1489855945110321,-0.15693551301956177,-0.16412761807441711,-0.5815014243125916,-0.4787701964378357,-0.36214685440063477,-0.23002342879772186
0.3333333333333333,0.08854969590902328,0.09318894147872925,0.0,0.9242810606956482,0.0,0.0,-0.38171258568763733,-0.4382730722427368,-0.38289058208465576,0.0,0.0,0.0,-0.9956614971160889,-0.3296961188316345,0.6506716012954712,0.4200006127357483,0.999731183052063,1.4944826943974476e-05,4.552508471533656e-06,-0.023181157186627388,0.0019478630274534225,0.005574031267315149,-0.0005184120964258909,-0.023006489500403404,-0.028108486905694008,-0.13020110130310059,-0.3533264994621277,0.6577612161636353,0.42016181349754333,0.39837729930877686,0.27424001693725586,-0.1544584035873413,0.45211338996887207,0.7008758783340454,0.42000001668930054,-0.5803660154342651,2.999983072280884,-0.7108690738677979,-2.9999659061431885,-0.15122836828231812,-0.15739955008029938,-0.16292405128479004,-0.16742810606956482,-0.5420151948928833,-0.41559654474258423,-0.27152806520462036,-0.11086747795343399
0.35,0.0797165185213089,0.08524792641401291,0.0,0.9292094111442566,0.0,0.0,-0.3695535361766815,-0.5736627578735352,-0.5145516395568848,0.0,0.0,0.0,2.6809463500976562,-0.3251406252384186,0.6562877893447876,0.420607328414917,0.9978698492050171,-0.015248123556375504,0.0005863385158590972,-0.06342602521181107,0.4262230098247528,0.5172966718673706,0.0721440538764,-3.624906539916992,0.26150670647621155,-7.714540004730225,-0.34711790084838867,0.6643961668014526,0.4202064871788025,0.43174898624420166,0.5575724840164185,0.05123881250619888,0.45211338996887207,0.7008758783340454,0.42000001668930054,-0.5303362011909485,2.9998512268066406,-0.7608811855316162,-2.99997878074646,-0.1603824496269226,-0.16419333219528198,-0.16704882681369781,-0.1686164289712906,-0.5118222236633301,-0.3669370412826538,-0.20373912155628204,-0.025551142171025276
0.36666666666666664,0.0743444412946701,0.07466519623994827,0.0,0.928574800491333,0.0,0.0,-0.3711453676223755,-0.28136003017425537,-0.6675871014595032,0.0,0.0,0.0,-1.152019739151001,-0.31789055466651917,0.6646638512611389,0.4209836721420288,0.9896884560585022,-0.02498970553278923,0.003434735117480159,-0.14099769294261932,0.48173221945762634,0.5172933340072632,0.01830163039267063,-0.9498018622398376,0.18474514782428741,-12.744385719299316,-0.33690109848976135,0.6730362176895142,0.42176195979118347,0.7854145765304565,0.522172212600708,0.0955018401145935,0.45211338996887207,0.7008758783340454,0.42000001668930054,-0.48029229044914246,2.9998414516448975,-0.8108921647071838,-2.999953031539917,-0.16837938129901886,-0.16949476301670074,-0.16929996013641357,-0.1675412654876709,-0.4983149766921997,-0.3146754503250122,-0.10985244810581207,0.11015300452709198
0.3833333333333333,0.06581975519657135,0.06277548521757126,0.0,0.9161405563354492,0.0,0.0,-0.400857150554657,-0.5917261242866516,-0.7395067811012268,0.0,0.0,0.0,-4.8022379875183105,-0.305621474981308,0.677422046661377,0.42131733894348145,0.9728932976722717,-0.03193753957748413,0.005834332667291164,-0.22896389663219452,1.1037132740020752,1.1044970750808716,0.06117785722017288,-2.1648519039154053,-0.5923565626144409,-6.138464450836182,-0.31877416372299194,0.6854563355445862,0.4236680269241333,1.3541444540023804,0.9681757688522339,0.1402290016412735,0.45211338996887207,0.7008758783340454,0.42000001668930054,-0.43024489283561707,2.9994289875030518,-0.8609043955802917,-2.9999840259552,-0.17840787768363953,-0.17607419192790985,-0.17206358909606934,-0.16624462604522705,-0.5504183173179626,-0.3490067720413208,-0.12511689960956573,0.1135375127196312
0.4,0.06049535423517227,0.047975435853004456,0.0,0.8903196454048157,0.0,0.0,-0.4553360342979431,-0.27535438537597656,-0.9352237582206726,0.0,0.0,0.0,-8.002100944519043,-0.27347078919410706,0.6978604793548584,0.4256182014942169,0.9584147334098816,-0.036409176886081696,-0.02894257754087448,-0.28156331181526184,2.5113470554351807,1.4253277778625488,0.3104061186313629,30.138105392456055,-14.133792877197266,12.200129508972168,-0.2858937382698059,0.7078831195831299,0.42660000920295715,2.5848159790039062,1.6737843751907349,0.4195654094219208,0.45211338996887207,0.7008758783340454,0.42000001668930054,-0.389400839805603,1.3794885873794556,-0.9109267592430115,-2.9998726844787598,-0.18663129210472107,-0.181039497256279,-0.17340999841690063,-0.16374878585338593,-0.5159465074539185,-0.3133600652217865,-0.09238647669553757,0.1381470113992691
0.4166666666666667,0.057424407452344894,0.03711174800992012,0.0,0.8482685685157776,0.0,0.0,-0.52956622838974,-0.10018572956323624,-0.6736119389533997,0.0,0.0,0.0,-10.911319732666016,-0.20475168526172638,0.7310985922813416,0.4310019016265869,0.9397258758544922,0.01785167120397091,-0.07517817616462708,-0.33308371901512146,5.551205158233643,1.9631510972976685,0.37348639965057373,7.502429485321045,-9.62564468383789,21.211929321289062,-0.21614320576190948,0.7418160438537598,0.43130016326904297,5.247828483581543,2.5777688026428223,0.32013824582099915,0.45211338996887207,0.7008758783340454,0.42000001668930054,-0.3768481910228729,0.45768317580223083,-0.8739305734634399,2.999760627746582,-0.20027576386928558,-0.19095678627490997,-0.17851470410823822,-0.1642264872789383,-0.5467570424079895,-0.4599614143371582,-0.23387478291988373,-0.0226445235311985
0.43333333333333335,0.0581263042986393,0.028368838131427765,0.0,0.8057734370231628,0.0,0.0,-0.5922239422798157,0.09559637308120728,-0.4678592085838318,0.0,0.0,0.0,-8.109275817871094,-0.11597539484500885,0.7714114189147949,0.43807077407836914,0.9016067385673523,0.026726437732577324,-0.1259518414735794,-0.4129491448402405,5.508769512176514,1.9872044324874878,0.9344057440757751,-11.234662055969238,-16.954814910888672,-6.735032081604004,-0.12656694650650024,0.7851752638816833,0.438126802444458,5.599213123321533,2.387281894683838,0.44137924909591675,0.45211338996887207,0.7008758783340454,0.42000001668930054,-0.36769410967826843,0.6774158477783203,-0.9000779986381531,-2.999732494354248,-0.20817171037197113,-0.19796019792556763,-0.18288804590702057,-0.16628850996494293,-0.4088536202907562,-0.37004318833351135,-0.25582432746887207,-0.1649094969034195
0.45,0.05860736966133118,0.024114135652780533,0.0,0.7811461687088013,0.0,0.0,-0.6243482232093811,0.099784716963768,-0.22961615025997162,0.0,0.0,0.0,-3.567403554916382,-0.026513800024986267,0.8023999333381653,0.4497828483581543,0.8491202592849731,0.07849369943141937,-0.05428123474121094,-0.5195063948631287,5.514206409454346,1.426803469657898,0.937656819820404,38.747989654541016,3.4677281379699707,12.5838623046875,-0.03321174904704094,0.8171383142471313,0.4457651376724243,5.715947151184082,1.5134093761444092,0.4841267168521881,0.45211338996887207,0.7008758783340454,0.42000001668930054,-0.35434579849243164,0.8583911061286926,-0.9501016139984131,-3.00000262260437,-0.21737909317016602,-0.20563772320747375,-0.18827322125434875,-0.16990569233894348,-0.4172556698322296,-0.3539693355560303,-0.2636565566062927,-0.20280930399894714
0.4666666666666667,0.05843483656644821,0.0160695668309927,0.0,0.7730579972267151,0.0,0.0,-0.6343352794647217,-0.03095197305083275,-0.4425540268421173,0.0,0.0,0.0,-0.5134425759315491,0.06699815392494202,0.8164869546890259,0.4582422971725464,0.766079843044281,0.0899810940027237,-0.057616665959358215,-0.6338023543357849,5.304641246795654,-0.8883103728294373,0.48663318157196045,-15.51115608215332,-10.989439010620117,28.819738388061523,0.06145471706986427,0.8336705565452576,0.45462119579315186,5.8683061599731445,0.366070032119751,0.6611968278884888,0.45211338996887207,0.7008758783340454,0.42000001668930054,-0.34182679653167725,0.5153639912605286,-1.0001256465911865,-3.0000030994415283,-0.22313404083251953,-0.20983824133872986,-0.19070908427238464,-0.17102541029453278,-0.5438013672828674,-0.3797992765903473,-0.220105841755867,-0.09061145782470703
0.48333333333333334,0.05800958350300789,0.012436681427061558,0.0,0.7571274638175964,0.0,0.0,-0.6532672047615051,-0.018298378214240074,-0.19085447490215302,0.0,0.0,0.0,-3.7010533809661865,0.15729552507400513,0.8115479946136475,0.46396929025650024,0.6929599642753601,0.10277806222438812,-0.07059777528047562,-0.7101120352745056,4.669191360473633,-1.6420634984970093,0.44340696930885315,-9.16495418548584,16.498645782470703,28.169498443603516,0.15413840115070343,0.8305533528327942,0.4616100788116455,5.716401100158691,-0.6718569397926331,0.3360084593296051,0.45211338996887207,0.7008758783340454,0.42000001668930054,-0.3367968201637268,0.0023705996572971344,-1.0501477718353271,-2.9989395141601562,-0.2324458211660385,-0.21644680202007294,-0.19478489458560944,-0.17295421659946442,-0.4511614441871643,-0.3059144914150238,-0.17512710392475128,-0.06017583981156349
0.5,0.05987190082669258,0.010192258283495903,0.0,0.7538918852806091,0.0,0.0,-0.6569984555244446,0.1419082134962082,-0.03787954896688461,0.0,0.0,0.0,0.328203022480011,0.24076615273952484,0.7947596907615662,0.4642843008041382,0.5990774631500244,0.053358692675828934,-0.10333729535341263,-0.7921997308731079,4.108196258544922,-2.163926839828491,-0.16135956346988678,-15.216340065002441,-2.6014933586120605,26.441490173339844,0.23924432694911957,0.8140649795532227,0.4648290276527405,4.949565410614014,-1.3643264770507812,0.1635497659444809,0.45211338996887207,0.7008758783340454,0.42000001668930054,-0.33732298016548157,-0.14164268970489502,-1.1001698970794678,-3.0000016689300537,-0.23716646432876587,-0.21942800283432007,-0.19643838703632355,-0.17352379858493805,-0.22683057188987732,-0.14404413104057312,-0.09620378911495209,-0.06386903673410416
0.5166666666666666,0.06437639147043228,0.006149458698928356,0.0,0.7427414655685425,0.0,0.0,-0.6695783138275146,0.319807767868042,-0.3180941939353943,0.0,0.0,0.0,-2.786456823348999,0.31298714876174927,0.7721062898635864,0.45949724316596985,0.5122156143188477,0.03575323894619942,-0.08985164761543274,-0.8533952832221985,3.8986308574676514,-1.6215736865997314,-0.3645870089530945,0.021884089335799217,1.5444910526275635,-6.580348491668701,0.3121345639228821,0.7907930016517639,0.46039214730262756,3.9969215393066406,-1.6033172607421875,-0.4861948490142822,0.45211338996887207,0.7008758783340454,0.42000001668930054,-0.3359268307685852,0.38574469089508057,-1.1501920223236084,-3.000002145767212,-0.2381647229194641,-0.21975122392177582,-0.196747288107872,-0.1740267276763916,0.018862510100007057,0.03850318863987923,0.012664697133004665,-0.02531365305185318
0.5333333333333333,0.06732881814241409,0.005658007692545652,0.0,0.7431764602661133,0.0,0.0,-0.669095516204834,0.08883108198642731,-0.01288914866745472,0.0,0.0,0.0,0.869388222694397,0.36921200156211853,0.7411175966262817,0.4496372640132904,0.45072394609451294,0.015333482064306736,-0.07688970863819122,-0.8892135620117188,2.828517436981201,-2.350341320037842,-0.6112979650497437,-5.565876483917236,7.45884370803833,-0.2602185606956482,0.3702958822250366,0.7593655586242676,0.45106035470962524,3.074678421020508,-1.979276418685913,-0.6902438402175903,0.45211338996887207,0.7008758783340454,0.42000001668930054,-0.325653612613678,0.7250760793685913,-1.200214147567749,-2.999513626098633,-0.23992657661437988,-0.22125151753425598,-0.19859132170677185,-0.1764833629131317,0.051291801035404205,0.028975654393434525,-0.04979534447193146,-0.13808639347553253
0.55,0.07107557356357574,0.0014031043974682689,0.0,0.733496367931366,0.0,0.0,-0.679693341255188,0.27105867862701416,-0.31682804226875305,0.0,0.0,0.0,-2.4302430152893066,0.4146234393119812,0.713679313659668,0.4322298765182495,0.4069992005825043,-0.012159020639955997,-0.0677887573838234,-0.9108284711837769,2.126793146133423,-2.2471256256103516,-0.9306808114051819,-8.609230041503906,3.4653921127319336,11.69006633758545,0.41691046953201294,0.7310529351234436,0.43369820713996887,2.38916015625,-1.6416137218475342,-1.2394180297851562,0.45211338996887207,0.7008758783340454,0.42000001668930054,-0.3129655718803406,0.609478771686554,-1.2502362728118896,-3.0,-0.23412169516086578,-0.2171662449836731,-0.19708584249019623,-0.1775793582201004,0.31599122285842896,0.20784081518650055,0.046342406421899796,-0.11765246093273163
0.5666666666666667,0.07724972814321518,0.00032169310725294054,0.0,0.7356497645378113,0.0,0.0,-0.6773620843887329,0.40783196687698364,-0.04931480437517166,0.0,0.0,0.0,1.1762009859085083,0.44184187054634094,0.6933946013450623,0.42461204528808594,0.38579192757606506,-0.025476055219769478,-0.04765154793858528,-0.9210020899772644,0.8202232718467712,-1.4229730367660522,0.05484265089035034,-12.173762321472168,5.257086753845215,15.055505752563477,0.44431158900260925,0.7099711894989014,0.42636531591415405,1.0280942916870117,-0.7766441106796265,0.07140317559242249,0.45211338996887207,0.7008758783340454,0.42000001668930054,-0.304781049489975,0.3836474120616913,-1.300072193145752,-3.001291036605835,-0.22813723981380463,-0.21375121176242828,-0.1969689428806305,-0.18065041303634644,0.5291510224342346,0.3116294741630554,0.059906378388404846,-0.17550067603588104
0.5833333333333334,0.08530101180076599,0.001598665490746498,0.0,0.7274178266525269,0.0,0.0,-0.6861947774887085,0.5220373272895813,0.14437337219715118,0.0,0.0,0.0,-2.339510917663574,0.4578172266483307,0.6881122589111328,0.422662615776062,0.41463664174079895,-0.011492300778627396,-0.0479801781475544,-0.9086486101150513,0.4977082312107086,-0.44569987058639526,0.06668231636285782,-2.6149842739105225,-0.8171457052230835,4.657469749450684,0.4582298696041107,0.7043178081512451,0.424602746963501,0.6375440359115601,-0.11033768206834793,-0.12412216514348984,0.45211338996887207,0.7008758783340454,0.42000001668930054,-0.31712985038757324,-1.34245765209198,-1.2617669105529785,3.000460386276245,-0.2162569910287857,-0.20663870871067047,-0.19499364495277405,-0.18335649371147156,0.7661370635032654,0.4650363326072693,0.14576946198940277,-0.1440487802028656
0.6,0.09595087915658951,-0.0007700548740103841,0.0,0.7302830815315247,0.0,0.0,-0.6831446886062622,0.6518166661262512,-0.16308093070983887,0.0,0.0,0.0,1.3364858627319336,0.46332553029060364,0.6847266554832458,0.42256879806518555,0.44393089413642883,-0.0007352351094596088,-0.0495675653219223,-0.8946887254714966,0.16934335231781006,-0.10522777587175369,-0.0011446489952504635,0.02476910687983036,-0.0003156604652758688,4.1062445640563965,0.46222829818725586,0.70320725440979,0.42609402537345886,-0.036996349692344666,-0.124103844165802,0.16618801653385162,0.45211338996887207,0.7008758783340454,0.42000001668930054,-0.3620277941226959,-2.9998912811279297,-1.2818666696548462,-3.000007390975952,-0.20086830854415894,-0.19576796889305115,-0.18961310386657715,-0.18295806646347046,0.7115111947059631,0.5385610461235046,0.257309228181839,-1.2086338756489567e-06
0.6166666666666667,0.10788986086845398,0.0008812326705083251,0.0,0.7222591042518616,0.0,0.0,-0.6916225552558899,0.7656392455101013,0.09788443893194199,0.0,0.0,0.0,-2.3089261054992676,0.4641295373439789,0.6853776574134827,0.42203617095947266,0.48312997817993164,0.020343676209449768,-0.045353442430496216,-0.8741365075111389,-0.027099108323454857,0.17714864015579224,-0.029634132981300354,1.5322297811508179,-2.7745814323425293,6.029221534729004,0.46284306049346924,0.7070029973983765,0.42895209789276123,0.08382033556699753,0.46653980016708374,0.19257497787475586,0.45211338996887207,0.7008758783340454,0.42000001668930054,-0.401140958070755,-1.7512577772140503,-1.3318121433258057,-2.9985392093658447,-0.1890215426683426,-0.1873379349708557,-0.1860116720199585,-0.1837238371372223,0.8776732683181763,0.6247223615646362,0.30893078446388245,0.02544254995882511
0.6333333333333333,0.11779385805130005,-0.00092096853768453,0.0,0.7253013849258423,0.0,0.0,-0.6884315013885498,0.5124591588973999,-0.16733287274837494,0.0,0.0,0.0,1.4089040756225586,0.46242204308509827,0.6880101561546326,0.4214544892311096,0.5014524459838867,0.018961399793624878,-0.03264087438583374,-0.8643612265586853,-0.21606506407260895,0.17063161730766296,-0.04451010748744011,1.1593601703643799,2.073486089706421,1.3329143524169922,0.45754069089889526,0.7094346284866333,0.4284481704235077,-0.5159311890602112,0.002708572894334793,-0.07709489017724991,0.45211338996887207,0.7008758783340454,0.42000001668930054,-0.4489120841026306,-2.998950958251953,-1.3006240129470825,2.998957872390747,-0.17740434408187866,-0.17808650434017181,-0.18087375164031982,-0.18232932686805725,0.5429007411003113,0.4497377574443817,0.2610366940498352,0.086710624396801
0.65,0.12773004174232483,2.6476915081730112e-05,0.0,0.7179157137870789,0.0,0.0,-0.6961299777030945,0.6235893964767456,0.08011679351329803,0.0,0.0,0.0,-2.171351432800293,0.4593512713909149,0.6904547810554504,0.42001989483833313,0.5097076296806335,0.0002786711847875267,-0.00039814619231037796,-0.8603475093841553,-0.14104974269866943,0.11488931626081467,-0.02044176310300827,0.6674343347549438,0.8881494402885437,0.8090808987617493,0.4536195993423462,0.7143346667289734,0.43025803565979004,-0.14508144557476044,0.4674108028411865,0.19320714473724365,0.45211338996887207,0.7008758783340454,0.42000001668930054,-0.4989820718765259,-2.999969959259033,-1.3198375701904297,-2.9999916553497314,-0.16872723400592804,-0.17150633037090302,-0.1775263398885727,-0.18193557858467102,0.5822510123252869,0.4272099435329437,0.22642356157302856,0.04288550466299057
0.6666666666666666,0.13957153260707855,-0.0022009287495166063,0.0,0.7217950820922852,0.0,0.0,-0.6921068429946899,0.7329416275024414,-0.1860487312078476,0.0,0.0,0.0,1.5716252326965332,0.45631617307662964,0.6930855512619019,0.4202459156513214,0.5257289409637451,0.003191206604242325,-0.00527113676071167,-0.8506297469139099,-0.2545068860054016,0.1925499439239502,0.050680987536907196,-1.1729249954223633,-2.2484049797058105,2.4852542877197266,0.44931069016456604,0.7196022272109985,0.43391478061676025,-0.3671012222766876,0.22766153514385223,0.2760998606681824,0.45211338996887207,0.7008758783340454,0.42000001668930054,-0.5489957928657532,-2.9999983310699463,-1.369856357574463,-2.9999992847442627,-0.16103187203407288,-0.1655648648738861,-0.17378495633602142,-0.18015970289707184,0.2929159998893738,0.23689459264278412,0.16967731714248657,0.1129009798169136
0.6833333333333333,0.15303191542625427,-0.0012188038090243936,0.0,0.7150161266326904,0.0,0.0,-0.6991079449653625,0.8474696278572083,0.07428543269634247,0.0,0.0,0.0,-2.097162961959839,0.45250204205513,0.6959561109542847,0.4202239215373993,0.5407354235649109,0.003062922740355134,-0.004703943617641926,-0.8411738872528076,-0.21774359047412872,0.1641743779182434,-0.019011903554201126,0.41667720675468445,0.8753410577774048,1.9364664554595947,0.4480234384536743,0.7251055836677551,0.43744030594825745,0.18121330440044403,0.3816472291946411,0.26080387830734253,0.45211338996887207,0.7008758783340454,0.42000001668930054,-0.5990104675292969,-2.999532699584961,-1.4198676347732544,-2.9999325275421143,-0.15812724828720093,-0.16333909332752228,-0.17207354307174683,-0.17870545387268066,0.2212025672197342,0.1762104332447052,0.15906468033790588,0.16226716339588165
0.7,0.16871178150177002,-0.004282619804143906,0.0,0.6880434155464172,0.0,0.0,-0.7256695032119751,0.9719169735908508,-0.2378501445055008,0.0,0.0,0.0,-5.357424259185791,0.4497239291667938,0.6980558633804321,0.41999998688697815,0.5501023530960083,9.425830285181291e-07,-2.729246034505195e-06,-0.8350972533226013,-0.14537166059017181,0.10945162922143936,-5.730055272579193e-05,0.004969342146068811,0.0014923205599188805,1.0747630596160889,0.45614922046661377,0.7335010766983032,0.44899260997772217,0.7523910999298096,0.48403874039649963,1.243072509765625,0.45211338996887207,0.7008758783340454,0.42000001668930054,-0.6490211486816406,-2.999958038330078,-1.469886064529419,-2.999997138977051,-0.15615063905715942,-0.16161894798278809,-0.1699894219636917,-0.17595696449279785,-0.09957915544509888,-0.061631105840206146,0.01898868754506111,0.1126440167427063
0.7166666666666667,0.18171805143356323,-0.003932137507945299,0.0,0.6739296317100525,0.0,0.0,-0.7387955784797668,0.7155346274375916,0.027665190398693085,0.0,0.0,0.0,-1.2672873735427856,0.44811001420021057,0.6992674469947815,0.4200000464916229,0.5542660355567932,3.2418563478131546e-07,1.9493054992381076e-07,-0.8323394656181335,-0.0804978534579277,0.06013830751180649,-7.530441507697105e-06,-0.00021784847194794565,-0.0003400452551431954,0.45356518030166626,0.46954774856567383,0.7437016367912292,0.47477230429649353,0.9131771326065063,0.8203952312469482,1.765942096710205,0.45211338996887207,0.7008758783340454,0.42000001668930054,-0.666073739528656,0.648989200592041,-1.519904375076294,-3.0000007152557373,-0.16139286756515503,-0.16601984202861786,-0.17285776138305664,-0.17722287774085999,-0.22754910588264465,-0.22329497337341309,-0.17507755756378174,-0.12449879199266434
0.7333333333333333,0.19057974219322205,-0.004168692976236343,0.0,0.6830472350120544,0.0,0.0,-0.7303742170333862,0.4705495834350586,-0.026383662596344948,0.0,0.0,0.0,2.345634698867798,0.4475656747817993,0.6996739506721497,0.4200000464916229,0.5552375316619873,2.1331919697331614e-07,1.2861682385789663e-08,-0.8316918611526489,-0.015174521133303642,0.01118987426161766,-5.402194801717997e-06,-0.00026023396640084684,0.0003457984421402216,0.049799393862485886,0.4826136827468872,0.7531609535217285,0.4974275827407837,0.6236766576766968,0.4168526530265808,1.02386474609375,0.45211338996887207,0.7008758783340454,0.42000001668930054,-0.6403514742851257,2.272218704223633,-1.4811190366744995,2.9999988079071045,-0.16637946665287018,-0.17014048993587494,-0.1754257082939148,-0.17833110690116882,-0.32166191935539246,-0.24212493002414703,-0.124380923807621,-0.018454521894454956
0.75,0.19560366868972778,-0.007925526238977909,0.0,0.6804484128952026,0.0,0.0,-0.7327960133552551,0.24606925249099731,-0.31126096844673157,0.0,0.0,0.0,-1.319325566291809,0.4475654661655426,0.6996740698814392,0.4200000464916229,0.5552378296852112,8.447909181086288e-07,-1.837873583099281e-06,-0.8316915035247803,9.587563545210287e-05,-0.00016092971782200038,-7.330300286412239e-05,0.0038321439642459154,-0.0007261245627887547,-0.0005874991766177118,0.486538827419281,0.7583402395248413,0.507412314414978,-0.14841705560684204,0.2056507170200348,0.34078189730644226,0.45211338996887207,0.7008758783340454,0.42000001668930054,-0.6196614503860474,0.3595859706401825,-1.4311037063598633,2.999999523162842,-0.17179936170578003,-0.1739259958267212,-0.17699268460273743,-0.17795515060424805,-0.2936553359031677,-0.18550197780132294,-0.045963041484355927,0.07299595326185226
0.7666666666666666,0.19703787565231323,-0.007548867259174585,0.0,0.6885105967521667,0.0,0.0,-0.7252262830734253,0.06537696719169617,0.043423354625701904,0.0,0.0,0.0,2.036674976348877,0.4475654363632202,0.699674129486084,0.4200000464916229,0.5552377700805664,1.6056576157552627e-07,-2.835787427102332e-06,-0.8316916227340698,5.884558777324855e-05,-0.00025507781538181007,-8.05235467851162e-05,0.006497792899608612,-0.0019235590007156134,-0.0007155165076255798,0.4846799969673157,0.759211540222168,0.5135531425476074,0.0027958229184150696,0.10599552094936371,0.40153074264526367,0.45211338996887207,0.7008758783340454,0.42000001668930054,-0.5975558161735535,2.121168375015259,-1.4486292600631714,-3.000000238418579,-0.1807718425989151,-0.18042528629302979,-0.1805366426706314,-0.17892976105213165,-0.4159744679927826,-0.3087148368358612,-0.16900575160980225,-0.046356700360774994
0.7833333333333333,0.19885461032390594,-0.010466079227626324,0.0,0.6847824454307556,0.0,0.0,-0.728747546672821,0.16166897118091583,-0.1898166388273239,0.0,0.0,0.0,-1.4288878440856934,0.4475654661655426,0.699674129486084,0.4200000464916229,0.5552375316619873,2.1155076979084697e-07,-2.4323844627360813e-06,-0.8316917419433594,5.6492652220185846e-05,-0.0002539774577599019,-7.987488061189651e-05,0.006485363934189081,-0.0019398003350943327,-0.000707118830177933,0.47952309250831604,0.7619110345840454,0.5137810707092285,-0.618397057056427,0.078510582447052,-0.21379971504211426,0.45211338996887207,0.7008758783340454,0.42000001668930054,-0.5936304926872253,-1.3497997522354126,-1.410048246383667,2.999999761581421,-0.18462152779102325,-0.183027446269989,-0.18136262893676758,-0.178221195936203,-0.25347739458084106,-0.1686064600944519,-0.056100938469171524,0.0401095412671566
0.8,0.2031223624944687,-0.010647428222000599,0.0,0.6916038990020752,0.0,0.0,-0.7222769260406494,0.30061230063438416,0.03826426714658737,0.0,0.0,0.0,1.9287362098693848,0.4475654363632202,0.699674129486084,0.4200000464916229,0.5552377104759216,1.873016657327753e-07,-2.6998811790690525e-06,-0.8316916823387146,5.972681537969038e-05,-0.0002544039161875844,-8.058315142989159e-05,0.006478549912571907,-0.0019051491981372237,-0.0007155982311815023,0.47342896461486816,0.762803316116333,0.5130794048309326,-0.1545392870903015,0.09754068404436111,0.1801021695137024,0.45211338996887207,0.7008758783340454,0.42000001668930054,-0.6127591729164124,-0.964897096157074,-1.4279838800430298,-2.999999761581421,-0.18893195688724518,-0.18618400394916534,-0.1827915906906128,-0.1780291348695755,-0.19483676552772522,-0.14538025856018066,-0.057525139302015305,0.03154502436518669
0.8166666666666667,0.20952920615673065,-0.01390653196722269,0.0,0.6870419383049011,0.0,0.0,-0.7266177535057068,0.41466569900512695,-0.23428359627723694,0.0,0.0,0.0,-1.6166598796844482,0.4475654363632202,0.699674129486084,0.4200000464916229,0.555237889289856,2.1638653890931892e-07,-2.7833380045194644e-06,-0.831691563129425,5.6914443121058866e-05,-0.0002530324854888022,-7.990049198269844e-05,0.006459325086325407,-0.0019285986199975014,-0.0007064578821882606,0.4730059504508972,0.7645961046218872,0.5141080617904663,0.060396596789360046,-0.008865408599376678,0.08674648404121399,0.45211338996887207,0.7008758783340454,0.42000001668930054,-0.6516492366790771,-3.000000476837158,-1.477990746498108,-2.9999992847442627,-0.19014757871627808,-0.18672038614749908,-0.18197527527809143,-0.1757424920797348,-0.12147919833660126,-0.05266932025551796,0.05443726107478142,0.16888579726219177
0.8333333333333334,0.21815955638885498,-0.020461851730942726,0.0,0.6633520722389221,0.0,0.0,-0.7483074069023132,0.5638851523399353,-0.47445547580718994,0.0,0.0,0.0,-4.700099468231201,0.4475654363632202,0.699674129486084,0.4200000464916229,0.5552379488945007,1.9257505812220188e-07,-2.7813462111225817e-06,-0.8316914439201355,5.479857645696029e-05,-0.0002547272015362978,-7.949769496917725e-05,0.006514312699437141,-0.0019623753614723682,-0.0007055780733935535,0.47775423526763916,0.7649601697921753,0.5207338929176331,0.5265466570854187,0.015059439465403557,0.8216403722763062,0.45211338996887207,0.7008758783340454,0.42000001668930054,-0.7016504406929016,-2.9999489784240723,-1.528009057044983,-2.9999988079071045,-0.1932266354560852,-0.18858717381954193,-0.18204908072948456,-0.17390061914920807,-0.19142428040504456,-0.12035634368658066,-0.018383709713816643,0.09060506522655487
0.85,0.23023846745491028,-0.02232123352587223,0.0,0.652407169342041,0.0,0.0,-0.7578686475753784,0.6830509901046753,-0.05868033692240715,0.0,0.0,0.0,-0.7152687311172485,0.4475654363632202,0.6996740698814392,0.4200000464916229,0.5552377700805664,1.9886680036051985e-07,-2.861271241272334e-06,-0.831691563129425,5.731961573474109e-05,-0.00025302229914814234,-7.998733781278133e-05,0.006456864066421986,-0.0019237957894802094,-0.0007073403103277087,0.48368579149246216,0.7651463747024536,0.537102460861206,0.24663874506950378,0.2241201400756836,1.1144466400146484,0.45211338996887207,0.7008758783340454,0.42000001668930054,-0.7167664766311646,0.8601427674293518,-1.578027367591858,-2.9999992847442627,-0.20052331686019897,-0.19429436326026917,-0.18591350317001343,-0.17601247131824493,-0.2690556049346924,-0.2400224804878235,-0.2002561241388321,-0.1652437448501587
0.8666666666666667,0.23852354288101196,-0.027057522907853127,0.0,0.6646685004234314,0.0,0.0,-0.7471383810043335,0.47693583369255066,-0.33575841784477234,0.0,0.0,0.0,2.683279514312744,0.4475654363632202,0.699674129486084,0.4200000464916229,0.555237889289856,1.8089637876528286e-07,-2.7855069220095174e-06,-0.831691563129425,5.723463254980743e-05,-0.00025507333339191973,-8.013122715055943e-05,0.006508101709187031,-0.0019398729782551527,-0.0007117582717910409,0.48676687479019165,0.7676368951797485,0.5487918853759766,0.020637281239032745,0.0008637877181172371,0.34556248784065247,0.45211338996887207,0.7008758783340454,0.42000001668930054,-0.6925358176231384,1.932941198348999,-1.5390743017196655,3.000000238418579,-0.20055589079856873,-0.19434228539466858,-0.18585205078125,-0.1759122759103775,-0.02000340260565281,0.0027291257865726948,0.024761227890849113,0.03645024821162224
0.8833333333333333,0.24355745315551758,-0.02928265370428562,0.0,0.6637552380561829,0.0,0.0,-0.7479498386383057,0.24730254709720612,-0.05872678756713867,0.0,0.0,0.0,-1.0365914106369019,0.4475654363632202,0.699674129486084,0.4200000464916229,0.5552379488945007,1.9217894475787034e-07,-2.781641796900658e-06,-0.8316914439201355,5.480608524521813e-05,-0.00025473313871771097,-7.950258441269398e-05,0.006514411419630051,-0.001962368842214346,-0.0007056135218590498,0.4834096431732178,0.7666160464286804,0.5497226715087891,-0.37563836574554443,-0.12194828689098358,-0.09308091551065445,0.45211338996887207,0.7008758783340454,0.42000001668930054,-0.6826444864273071,-0.5386999845504761,-1.4890178442001343,2.999999523162842,-0.2012256234884262,-0.1948116570711136,-0.18615637719631195,-0.17620797455310822,0.01834266074001789,0.014412940479815006,0.006329894065856934,-0.010261901654303074
0.9,0.2450893372297287,-0.02958458848297596,0.0,0.6731954216957092,0.0,0.0,-0.7394646406173706,0.0570962056517601,0.09374969452619553,0.0,0.0,0.0,2.3075106143951416,0.4475654363632202,0.6996740698814392,0.4200000464916229,0.5552377700805664,2.3198899157250708e-07,-2.8621952878893353e-06,-0.831691563129425,5.7227109209634364e-05,-0.0002529849298298359,-7.996405474841595e-05,0.006456413771957159,-0.0019247053423896432,-0.0007070553256198764,0.4802648723125458,0.765094518661499,0.5483621954917908,-0.09223083406686783,-0.06188444793224335,-0.018119286745786667,0.45211338996887207,0.7008758783340454,0.42000001668930054,-0.6689500212669373,1.95228111743927,-1.439003348350525,3.000000476837158,-0.19958484172821045,-0.1935933232307434,-0.18539026379585266,-0.17595945298671722,0.07538915425539017,0.04882129281759262,0.020106922835111618,-0.011110059916973114
