vladlanda/robotic-transformer/data/env_000_episode_0056.csv
sim_time_s,robot_box_x,robot_box_y,robot_box_z,robot_box_quat_w,robot_box_quat_x,robot_box_quat_y,robot_box_quat_z,robot_box_linvel_x,robot_box_linvel_y,robot_box_linvel_z,robot_box_angvel_x,robot_box_angvel_y,robot_box_angvel_z,cube_world_x,cube_world_y,cube_world_z,cube_quat_w,cube_quat_x,cube_quat_y,cube_quat_z,cube_linvel_x,cube_linvel_y,cube_linvel_z,cube_angvel_x,cube_angvel_y,cube_angvel_z,endpoint_world_x,endpoint_world_y,endpoint_world_z,endpoint_linvel_x,endpoint_linvel_y,endpoint_linvel_z,target_cube_world_x,target_cube_world_y,target_cube_world_z,gripper_actual_pos_rad_gp_leftgearjoint,gripper_actual_vel_rad_s_gp_leftgearjoint,gripper_actual_pos_rad_gp_rotatingjoint,gripper_actual_vel_rad_s_gp_rotatingjoint,motor_angle_rad_joint1,motor_angle_rad_joint2,motor_angle_rad_joint3,motor_angle_rad_joint4,motor_speed_rad_s_joint1,motor_speed_rad_s_joint2,motor_speed_rad_s_joint3,motor_speed_rad_s_joint4
0.0,0.0,0.0,0.0,1.0,0.0,0.0,0.0,0.0,0.0,0.0,0.0,0.0,0.0,-0.36725348234176636,0.6310450434684753,0.41999998688697815,1.0,0.0,0.0,0.0,0.0,0.0,0.0,0.0,0.0,0.0,3.42540442943573e-06,-0.005000244826078415,1.313499927520752,0.0,0.0,0.0,0.4224972426891327,0.7521328926086426,0.42000001668930054,-1.5707999467849731,0.0,0.0,0.0,0.0,0.0,0.0,0.0,0.0,0.0,0.0,0.0
0.016666666666666666,0.0028807297348976135,0.0021773551125079393,0.0,0.9998147487640381,0.0,0.0,0.019247466698288918,0.24095553159713745,0.18228963017463684,0.0,0.0,0.0,3.1418042182922363,-0.3672536015510559,0.6310447454452515,0.41999998688697815,1.0,3.279964630564791e-06,-8.339746386809566e-07,8.465587342243452e-08,-1.9833529222523794e-05,0.00017983045836444944,-6.132945418357849e-05,0.0009432713268324733,-0.004689474124461412,-0.00031981561915017664,-0.0071091074496507645,0.003388193901628256,1.3159382343292236,-0.8140403032302856,0.9871967434883118,0.18096017837524414,0.4224972426891327,0.7521328926086426,0.42000001668930054,-1.5301094055175781,3.0000014305114746,-0.04584874212741852,-3.0000007152557373,0.0008700565667822957,0.0007967136334627867,0.0007112894672900438,0.0006111462134867907,0.11094951629638672,0.09758729487657547,0.08336403220891953,0.0682583600282669
0.03333333333333333,0.008964390493929386,0.006796733010560274,0.0,0.999802827835083,0.0,0.0,0.019857442006468773,0.4070557951927185,0.3151986002922058,0.0,0.0,0.0,-0.8690871596336365,-0.36725372076034546,0.6310446858406067,0.4200000464916229,1.0,3.3908354453160428e-06,-2.1324485715012997e-06,-3.710144014235084e-08,0.00026357831666246057,0.00026937946677207947,-0.00010509486310184002,-0.0017707672668620944,0.004130808170884848,-0.000135478752781637,-0.027533285319805145,0.02603507786989212,1.3166253566741943,-1.590505838394165,1.6152377128601074,-0.08175360411405563,0.4224972426891327,0.7521328926086426,0.42000001668930054,-1.4800901412963867,3.000001907348633,-0.09588857740163803,-2.999999761581421,0.002990450942888856,0.002652753610163927,0.002277334686368704,0.0018608412938192487,0.1641795039176941,0.13973839581012726,0.11380241066217422,0.08628736436367035
0.05,0.018468152731657028,0.0138851348310709,0.0,0.9999774694442749,0.0,0.0,-0.006715182680636644,0.6361213326454163,0.47186872363090515,0.0,0.0,0.0,-4.075771808624268,-0.36725375056266785,0.6310447454452515,0.4200000464916229,1.0,3.7651125239790417e-06,-2.211879063906963e-06,5.622505128144439e-09,0.000265308452071622,0.0002669153327587992,-0.00010440615005791187,-0.001724260626360774,0.004177352879196405,-0.00012949221127200872,-0.057242173701524734,0.05651760846376419,1.3121601343154907,-1.9578371047973633,1.97864830493927,-0.4333205223083496,0.4224972426891327,0.7521328926086426,0.42000001668930054,-1.4300718307495117,2.9999969005584717,-0.14592422544956207,-3.000001907348633,0.006009523756802082,0.005171118304133415,0.0042603942565619946,0.0032729979138821363,0.2070806473493576,0.16678708791732788,0.12456764280796051,0.0803472027182579
0.06666666666666667,0.030772145837545395,0.023364834487438202,0.0,0.9998853206634521,0.0,0.0,-0.015143266879022121,0.7723467350006104,0.6156494617462158,0.0,0.0,0.0,-0.041216492652893066,-0.36725375056266785,0.6310446858406067,0.4200000464916229,0.9999999403953552,3.4066883927152958e-06,-2.285532218593289e-06,4.300976286231162e-07,0.0002670241810847074,0.00026791772688739,-0.00010438147000968456,-0.00174069800414145,0.00421178387477994,-0.00012850729399360716,-0.09507855027914047,0.08820284903049469,1.3016414642333984,-2.4263906478881836,2.0022425651550293,-0.8179516196250916,0.4224972426891327,0.7521328926086426,0.42000001668930054,-1.3800458908081055,3.000002145767212,-0.15009728074073792,2.0597896575927734,0.008787336759269238,0.007255105301737785,0.005610349588096142,0.003847359912469983,0.15694347023963928,0.10816440731287003,0.05724984034895897,0.004139856901019812
0.08333333333333333,0.04554203897714615,0.030793605372309685,0.0,0.9992825984954834,0.0,0.0,-0.03787234425544739,0.9500128626823425,0.3763793408870697,0.0,0.0,0.0,-3.542473793029785,-0.36725375056266785,0.6310446858406067,0.4200000464916229,0.9999999403953552,3.626031229941873e-06,-2.3352447442448465e-06,3.032197639640799e-07,0.0002661392209120095,0.0002668500819709152,-0.00010405294597148895,-0.0017282416811212897,0.00419628107920289,-0.00012790791515726596,-0.13101153075695038,0.12634381651878357,1.2870415449142456,-1.9272871017456055,2.5431406497955322,-0.9168802499771118,0.4224972426891327,0.7521328926086426,0.42000001668930054,-1.3300366401672363,3.000002145767212,-0.18717119097709656,-3.000000238418579,0.00999071728438139,0.007365360856056213,0.0045844148844480515,0.0016425903886556625,0.02272101305425167,-0.06030360609292984,-0.14560246467590332,-0.23310130834579468
0.1,0.05441509932279587,0.040429241955280304,0.0,0.996109664440155,0.0,0.0,-0.08812212198972702,0.39268603920936584,0.6585916876792908,0.0,0.0,0.0,-7.293874263763428,-0.36725375056266785,0.6310446858406067,0.4200000464916229,1.0,3.4220790894323727e-06,-2.3084901386027923e-06,1.7962952369998675e-07,0.00026681559393182397,0.0002680041070561856,-0.00010440824553370476,-0.001743067754432559,0.004207110498100519,-0.0001289140636799857,-0.16510821878910065,0.17156970500946045,1.2660126686096191,-2.0843591690063477,2.9008984565734863,-1.5123708248138428,0.4224972426891327,0.7521328926086426,0.42000001668930054,-1.2800174951553345,2.9999983310699463,-0.15344984829425812,2.9999988079071045,0.003879971569404006,0.0004946047556586564,-0.003099179593846202,-0.006909909658133984,-0.4833393394947052,-0.5204984545707703,-0.5601821541786194,-0.6026729345321655
0.11666666666666667,0.06517509371042252,0.05276656895875931,0.0,0.9926040768623352,0.0,0.0,-0.12139645963907242,0.843311071395874,0.6875503063201904,0.0,0.0,0.0,-2.8424370288848877,-0.36725375056266785,0.6310447454452515,0.4200000464916229,1.0,3.7114921269676415e-06,-2.3325701477006078e-06,2.574244888364774e-07,0.0002648564986884594,0.0002663535706233233,-0.0001042329240590334,-0.0017182455630972981,0.004170000087469816,-0.00012915577099192888,-0.20529577136039734,0.21362674236297607,1.2383103370666504,-2.4141645431518555,2.631713628768921,-1.7702128887176514,0.4224972426891327,0.7521328926086426,0.42000001668930054,-1.2300184965133667,2.999998092651367,-0.1851912885904312,-3.000000238418579,-0.0027296324260532856,-0.007009165361523628,-0.011513215489685535,-0.01625273935496807,-0.18685723841190338,-0.2725633680820465,-0.35663363337516785,-0.439037561416626
0.13333333333333333,0.07548138499259949,0.06125778332352638,0.0,0.986266553401947,0.0,0.0,-0.16516123712062836,0.6998145580291748,0.5026880502700806,0.0,0.0,0.0,-6.037282466888428,-0.36725375056266785,0.6310446858406067,0.4200000464916229,0.9999999403953552,3.4247264011355583e-06,-2.301872882526368e-06,1.559877063073145e-07,0.0002670699032023549,0.000268113479251042,-0.0001044438686221838,-0.0017433533212170005,0.004212031606584787,-0.00012877589324489236,-0.24268749356269836,0.26186734437942505,1.205593228340149,-1.9893962144851685,3.3147518634796143,-2.0598912239074707,0.4224972426891327,0.7521328926086426,0.42000001668930054,-1.1799981594085693,2.9999983310699463,-0.1514713317155838,3.0000007152557373,-0.008494898676872253,-0.01414458453655243,-0.019984250888228416,-0.026026064530014992,-0.2046308070421219,-0.3173092007637024,-0.42544400691986084,-0.5289045572280884
0.15,0.08481242507696152,0.0669708177447319,0.0,0.9821983575820923,0.0,0.0,-0.1878468245267868,0.4981866180896759,0.27243757247924805,0.0,0.0,0.0,-1.6312122344970703,-0.36725375056266785,0.6310446858406067,0.4200000464916229,1.0,3.7138852349016815e-06,-2.2076646928326227e-06,-1.690935107490077e-07,0.0002635338169056922,0.00026536203222349286,-0.00010422198101878166,-0.0017013110918924212,0.0041441041976213455,-0.00012960704043507576,-0.27905064821243286,0.31415945291519165,1.1655864715576172,-2.062547206878662,3.331864356994629,-2.7398276329040527,0.4224972426891327,0.7521328926086426,0.42000001668930054,-1.130003571510315,2.9999988079071045,-0.18321922421455383,-3.000000476837158,-0.012855108827352524,-0.020090365782380104,-0.027432573959231377,-0.03489430993795395,-0.3183287978172302,-0.3955511152744293,-0.46797940135002136,-0.5357310771942139
0.16666666666666666,0.08975373208522797,0.07372677326202393,0.0,0.9756107926368713,0.0,0.0,-0.21950769424438477,0.21836364269256592,0.46447300910949707,0.0,0.0,0.0,-4.640698432922363,-0.36725375056266785,0.6310446858406067,0.4200000464916229,0.9999999403953552,3.638363523350563e-06,-2.278693045809632e-06,2.700642482977855e-07,0.0002668263914529234,0.00026750031975097954,-0.00010410090908408165,-0.0017399657517671585,0.004210122860968113,-0.00012781827535945922,-0.3133125305175781,0.3724786639213562,1.1123645305633545,-1.892559289932251,3.6632118225097656,-3.589656352996826,0.4224972426891327,0.7521328926086426,0.42000001668930054,-1.0799974203109741,3.000004291534424,-0.1512971669435501,2.9999985694885254,-0.020437121391296387,-0.02864912338554859,-0.03688221797347069,-0.04515290632843971,-0.5378196835517883,-0.5775414705276489,-0.6124811172485352,-0.6429442763328552
0.18333333333333332,0.09804480522871017,0.079140305519104,0.0,0.9606625437736511,0.0,0.0,-0.27771827578544617,0.5263952612876892,0.2655452787876129,0.0,0.0,0.0,-7.804851531982422,-0.36725375056266785,0.6310446858406067,0.4200000464916229,1.0,3.3864323540910846e-06,-2.300143023603596e-06,1.4392101377325162e-07,0.00026674565742723644,0.0002678720629774034,-0.00010437029413878918,-0.0017412372399121523,0.004205969627946615,-0.0001287883351324126,-0.3404250741004944,0.43923330307006836,1.0441508293151855,-1.25742506980896,4.229455471038818,-4.503021240234375,0.4224972426891327,0.7521328926086426,0.42000001668930054,-1.0299890041351318,3.000000476837158,-0.18308667838573456,-2.999999761581421,-0.02973497100174427,-0.038330357521772385,-0.046886708587408066,-0.055427197366952896,-0.7459891438484192,-0.7339661121368408,-0.7203305959701538,-0.7055521607398987
0.2,0.1016039103269577,0.08709122240543365,0.0,0.9493018388748169,0.0,0.0,-0.3143661320209503,0.18975959718227386,0.5015464425086975,0.0,0.0,0.0,-3.3226022720336914,-0.36725375056266785,0.6310447454452515,0.4200000464916229,1.0,3.6755022847501095e-06,-2.3264412902790355e-06,2.211315717204343e-07,0.00026484468253329396,0.00026631311629898846,-0.00010421779006719589,-0.0017176943365484476,0.0041699339635670185,-0.00012910230725537986,-0.3624730110168457,0.4991188943386078,0.9610292315483093,-0.9960356950759888,3.4730732440948486,-5.307847023010254,0.4224972426891327,0.7521328926086426,0.42000001668930054,-0.9799790978431702,2.999997854232788,-0.23311571776866913,-3.0000011920928955,-0.04518599435687065,-0.05386127531528473,-0.0624619759619236,-0.07101885974407196,-0.850020170211792,-0.8606829047203064,-0.871570348739624,-0.8818191885948181
0.21666666666666667,0.10341339558362961,0.09142736345529556,0.0,0.9476932883262634,0.0,0.0,-0.3191823959350586,0.07516150176525116,0.10631687939167023,0.0,0.0,0.0,0.6327747106552124,-0.36725375056266785,0.6310446858406067,0.4200000464916229,1.0,3.322260681670741e-06,-2.2079154859966366e-06,2.7427799409451836e-07,0.0002666290965862572,0.0002674963907338679,-0.00010426202788949013,-0.0017359007615596056,0.004204810131341219,-0.00012833699292968959,-0.3827097415924072,0.5459302663803101,0.8709993362426758,-1.052607536315918,2.3861680030822754,-5.531599998474121,0.4224972426891327,0.7521328926086426,0.42000001668930054,-0.9299684762954712,2.9999942779541016,-0.28314703702926636,-3.000000476837158,-0.05931147560477257,-0.06781921535730362,-0.07626602798700333,-0.08467570692300797,-0.8260504007339478,-0.8063488006591797,-0.7875908017158508,-0.7694949507713318
0.23333333333333334,0.10097470879554749,0.09807371348142624,0.0,0.9421275854110718,0.0,0.0,-0.3352545201778412,-0.2060595154762268,0.393047958612442,0.0,0.0,0.0,-2.7739923000335693,-0.36725375056266785,0.6310446858406067,0.4200000464916229,1.0,3.656489070635871e-06,-2.3733603029540973e-06,-4.076755999449233e-07,0.0002661180915310979,0.0002672612317837775,-0.0001042359508574009,-0.0017336306627839804,0.004194698762148619,-0.00012855089153163135,-0.3941584825515747,0.5830084085464478,0.7728817462921143,-0.4192979335784912,1.8154027462005615,-5.9818434715271,0.4224972426891327,0.7521328926086426,0.42000001668930054,-0.8799577951431274,2.999997615814209,-0.3331795632839203,-3.0000052452087402,-0.07618054747581482,-0.0845734179019928,-0.09290336817502975,-0.10118775069713593,-0.8226069211959839,-0.8563359379768372,-0.8869084715843201,-0.9139463901519775
0.25,0.10352085530757904,0.09919171780347824,0.0,0.9420798420906067,0.0,0.0,-0.3353886306285858,0.09045106917619705,0.07841213792562485,0.0,0.0,0.0,0.49089568853378296,-0.36725375056266785,0.6310447454452515,0.4200000464916229,1.0,3.630517994679394e-06,-2.2426397663366515e-06,1.121150816629779e-08,0.00026679891743697226,0.00026706024073064327,-0.00010390975512564182,-0.0017342222854495049,0.0042105624452233315,-0.00012703027459792793,-0.4034877419471741,0.6066300272941589,0.6746472120285034,-0.37608957290649414,0.8817625045776367,-5.925592422485352,0.4224972426891327,0.7521328926086426,0.42000001668930054,-0.8299482464790344,2.99963116645813,-0.3832117021083832,-3.0000007152557373,-0.08749856799840927,-0.09620141237974167,-0.10481493920087814,-0.11336695402860641,-1.0000776052474976,-1.0000247955322266,-1.0000008344650269,-0.9622717499732971
0.26666666666666666,0.100632444024086,0.09916763752698898,0.0,0.936156690120697,0.0,0.0,-0.3515830636024475,-0.26378023624420166,-0.03329571336507797,0.0,0.0,0.0,-2.9498884677886963,-0.36725372076034546,0.6310446858406067,0.4200000464916229,0.9999999403953552,3.7401498502731556e-06,-2.2362885374604957e-06,4.49968922566768e-07,0.0002647954970598221,0.0002667295339051634,-0.00010454049333930016,-0.001718834857456386,0.004166595637798309,-0.0001301696029258892,-0.4013615548610687,0.6180988550186157,0.576336681842804,0.5814084410667419,0.43407389521598816,-5.59218692779541,0.4224972426891327,0.7521328926086426,0.42000001668930054,-0.7799394726753235,3.000000238418579,-0.4332427978515625,-3.0000030994415283,-0.10559003055095673,-0.1139463260769844,-0.12229681015014648,-0.130643829703331,-1.0136425495147705,-1.0102612972259521,-1.0076848268508911,-1.0056376457214355
0.2833333333333333,0.10127385705709457,0.09625093638896942,0.0,0.936313807964325,0.0,0.0,-0.35116446018218994,0.06326718628406525,-0.20644639432430267,0.0,0.0,0.0,0.8313238620758057,-0.36725375056266785,0.6310446858406067,0.4200000464916229,1.0,3.3916360280272784e-06,-2.2911317500984296e-06,1.2459808829135e-07,0.00026677202549763024,0.0002678929304238409,-0.00010437355376780033,-0.0017412655288353562,0.004206337500363588,-0.0001287838094867766,-0.39219921827316284,0.6279963254928589,0.48780858516693115,0.771182119846344,0.5005049705505371,-4.990984916687012,0.4224972426891327,0.7521328926086426,0.42000001668930054,-0.7299309968948364,3.0000014305114746,-0.483271986246109,-3.0000033378601074,-0.12199581414461136,-0.13028238713741302,-0.13865557312965393,-0.14707888662815094,-1.0249791145324707,-1.0188878774642944,-1.0142309665679932,-1.010503888130188
0.3,0.09830091893672943,0.09200318902730942,0.0,0.9309191107749939,0.0,0.0,-0.3652253746986389,-0.25901690125465393,-0.28317299485206604,0.0,0.0,0.0,-2.7532055377960205,-0.36725375056266785,0.6310447454452515,0.4200000464916229,1.0,3.68068367606611e-06,-2.3190737010736484e-06,2.0108919329686614e-07,0.00026479075313545763,0.0002662576735019684,-0.00010421290062367916,-0.0017168199410662055,0.004168981220573187,-0.00012909970246255398,-0.3723004460334778,0.6332124471664429,0.40591999888420105,1.6079270839691162,0.1986067295074463,-4.814220428466797,0.4224972426891327,0.7521328926086426,0.42000001668930054,-0.6799240112304688,3.000000238418579,-0.5332996249198914,-3.000000476837158,-0.1398066133260727,-0.14780651032924652,-0.1559613049030304,-0.1642112135887146,-1.0024467706680298,-1.0018587112426758,-1.0014067888259888,-1.0010429620742798
0.31666666666666665,0.09343107044696808,0.08563937991857529,0.0,0.9314971566200256,0.0,0.0,-0.36374861001968384,-0.29560545086860657,-0.43112435936927795,0.0,0.0,0.0,1.1267169713974,-0.36638617515563965,0.6330337524414062,0.4210801124572754,0.9989570379257202,0.0020939342211931944,0.024994932115077972,-0.03815406188368797,0.124123215675354,0.21263714134693146,0.08639336377382278,1.7204434871673584,2.6040990352630615,-5.864165782928467,-0.3709486722946167,0.6365479230880737,0.42469727993011475,0.24525633454322815,0.2726939916610718,-0.158005490899086,0.4224972426891327,0.7521328926086426,0.42000001668930054,-0.6301050782203674,3.000001907348633,-0.583895742893219,-2.9998674392700195,-0.14495572447776794,-0.1525128334760666,-0.15986798703670502,-0.1668967306613922,-0.37199899554252625,-0.33240175247192383,-0.27336248755455017,-0.19192995131015778
0.3333333333333333,0.08670278638601303,0.07701222598552704,0.0,0.9266161322593689,0.0,0.0,-0.37600862979888916,-0.4559873342514038,-0.5598198175430298,0.0,0.0,0.0,-2.4547629356384277,-0.3640715181827545,0.6369571685791016,0.4211406111717224,0.9951504468917847,0.0048261163756251335,0.026879386976361275,-0.09449739754199982,0.1689084768295288,0.2830243408679962,-0.007171544246375561,0.8901413083076477,-1.6606388092041016,-8.807628631591797,-0.36623990535736084,0.6413580179214478,0.42257004976272583,0.31485360860824585,0.36762645840644836,-0.10384729504585266,0.4224972426891327,0.7521328926086426,0.42000001668930054,-0.5801000595092773,2.999972105026245,-0.6339595913887024,-2.9997198581695557,-0.15131144225597382,-0.15826085209846497,-0.1646839678287506,-0.1704193502664566,-0.3700672686100006,-0.3364662528038025,-0.28511324524879456,-0.21435846388339996
0.35,0.07750668376684189,0.0663679912686348,0.0,0.9279736876487732,0.0,0.0,-0.37264567613601685,-0.5926931500434875,-0.6833980679512024,0.0,0.0,0.0,1.3699899911880493,-0.3591667711734772,0.6459448337554932,0.4213426411151886,0.9899216294288635,0.02529338002204895,0.0065992288291454315,-0.13918232917785645,0.3574818968772888,0.711535632610321,0.06302502751350403,3.2732510566711426,-0.5083506107330322,-4.0270538330078125,-0.3606606721878052,0.6500774621963501,0.42125076055526733,0.4082142114639282,0.643526554107666,-0.048626162111759186,0.4224972426891327,0.7521328926086426,0.42000001668930054,-0.530095100402832,2.9995758533477783,-0.6840028762817383,-3.0000481605529785,-0.15808311104774475,-0.16400101780891418,-0.16906343400478363,-0.17310360074043274,-0.39303410053253174,-0.3144640028476715,-0.21566058695316315,-0.0970650166273117
0.36666666666666664,0.07059590518474579,0.05354425311088562,0.0,0.9235888719558716,0.0,0.0,-0.38338446617126465,-0.2767658233642578,-0.8448765873908997,0.0,0.0,0.0,-2.2838330268859863,-0.352680504322052,0.6582667231559753,0.4212428331375122,0.9851314425468445,0.03164413571357727,-0.005390341393649578,-0.16877634823322296,0.47967416048049927,0.8309454321861267,0.02721242979168892,1.3891793489456177,-0.44072017073631287,-3.8225936889648438,-0.3514406383037567,0.6601352095603943,0.4210827946662903,0.7106422185897827,0.6686182618141174,0.013948649168014526,0.4224972426891327,0.7521328926086426,0.42000001668930054,-0.48009076714515686,2.9999539852142334,-0.7340587377548218,-2.9999747276306152,-0.16502998769283295,-0.16911160945892334,-0.1719496250152588,-0.17340795695781708,-0.37645605206489563,-0.24798008799552917,-0.09543580561876297,0.07853125780820847
0.3833333333333333,0.06115809828042984,0.04471689462661743,0.0,0.9072734117507935,0.0,0.0,-0.42054128646850586,-0.6027844548225403,-0.4438278079032898,0.0,0.0,0.0,-5.56210470199585,-0.339377760887146,0.6773866415023804,0.4222274720668793,0.9781792759895325,0.034889400005340576,-0.025818010792136192,-0.203178271651268,1.13554847240448,1.4988257884979248,0.14720875024795532,-0.591853678226471,-5.240958213806152,-5.3594584465026855,-0.33652737736701965,0.6761580109596252,0.42286768555641174,1.1147412061691284,1.3508585691452026,0.16959133744239807,0.4224972426891327,0.7521328926086426,0.42000001668930054,-0.43008720874786377,2.999936580657959,-0.7841094732284546,-2.998232126235962,-0.17374621331691742,-0.17564235627651215,-0.17586283385753632,-0.174327552318573,-0.38982751965522766,-0.3053378760814667,-0.19231712818145752,-0.053503528237342834
0.4,0.05668585002422333,0.031561899930238724,0.0,0.8763372302055359,0.0,0.0,-0.4816981256008148,-0.25632157921791077,-0.7512959837913513,0.0,0.0,0.0,-8.8427152633667,-0.3049117922782898,0.7088963389396667,0.4264848232269287,0.9644982814788818,0.036290861666202545,-0.05739722028374672,-0.255208820104599,3.1664910316467285,2.2415571212768555,0.12407924979925156,17.5834903717041,-13.677774429321289,-0.4202316701412201,-0.3018811345100403,0.7081078886985779,0.4269867539405823,2.9737753868103027,2.2670044898986816,0.5365505218505859,0.4224972426891327,0.7521328926086426,0.42000001668930054,-0.3914557099342346,1.5350996255874634,-0.834133505821228,-3.000002384185791,-0.17622007429599762,-0.17669223248958588,-0.1750369518995285,-0.1712230145931244,-0.46140560507774353,-0.2824042737483978,-0.08333127200603485,0.12989941239356995
0.4166666666666667,0.053711213171482086,0.024248944595456123,0.0,0.8286221623420715,0.0,0.0,-0.5598083138465881,-0.10300015658140182,-0.45415568351745605,0.0,0.0,0.0,-11.627557754516602,-0.2282942682504654,0.7525733709335327,0.43340855836868286,0.9414815306663513,0.08878372609615326,-0.10024464130401611,-0.3093232214450836,5.956132411956787,2.7101192474365234,0.40622830390930176,16.84914207458496,-17.603158950805664,17.290672302246094,-0.22564461827278137,0.7516506910324097,0.4343089163303375,5.617363929748535,3.108170509338379,0.5678861141204834,0.4224972426891327,0.7521328926086426,0.42000001668930054,-0.3719106912612915,0.9918562173843384,-0.7973948121070862,2.995882272720337,-0.19026121497154236,-0.18726316094398499,-0.18096566200256348,-0.17264457046985626,-0.6012620329856873,-0.5222518444061279,-0.30267515778541565,-0.09521343559026718
0.43333333333333335,0.0514085553586483,0.0200403593480587,0.0,0.7890329957008362,0.0,0.0,-0.6143507957458496,-0.11679785698652267,-0.18784326314926147,0.0,0.0,0.0,-6.968040943145752,-0.13353128731250763,0.8000929355621338,0.4448889195919037,0.8950328230857849,0.12051354348659515,-0.1260756254196167,-0.4104844927787781,5.866537570953369,2.2749361991882324,0.8273590207099915,10.432117462158203,-7.42338228225708,-7.89552116394043,-0.13224312663078308,0.7988333702087402,0.4453516900539398,5.7756428718566895,2.4632568359375,0.7069286704063416,0.4224972426891327,0.7521328926086426,0.42000001668930054,-0.35256195068359375,1.380553960800171,-0.8244207501411438,-2.999563455581665,-0.20274338126182556,-0.1977490484714508,-0.18778471648693085,-0.17617923021316528,-0.7200191020965576,-0.5933674573898315,-0.39497867226600647,-0.22389188408851624
0.45,0.05269641429185867,0.015435710549354553,0.0,0.7689040303230286,0.0,0.0,-0.6393642425537109,0.1430549919605255,-0.2884314954280853,0.0,0.0,0.0,-2.7828116416931152,-0.03436869755387306,0.8335253596305847,0.4569299519062042,0.8331844806671143,0.13261942565441132,-0.13489457964897156,-0.5196335911750793,6.1169233322143555,0.7537303566932678,0.5291327238082886,-7.709759712219238,-22.05201530456543,14.47606086730957,-0.034288350492715836,0.8330066204071045,0.4564833641052246,6.0599799156188965,1.5595046281814575,0.8346109390258789,0.4224972426891327,0.7521328926086426,0.42000001668930054,-0.32845714688301086,1.2224394083023071,-0.8744447827339172,-3.000004291534424,-0.21333768963813782,-0.2058134824037552,-0.1924860179424286,-0.17797410488128662,-0.5968189835548401,-0.4260273277759552,-0.2236378788948059,-0.04782872647047043
0.4666666666666667,0.05280232056975365,0.013795287348330021,0.0,0.7419955730438232,0.0,0.0,-0.6704047322273254,-0.04372556880116463,-0.024307768791913986,0.0,0.0,0.0,-5.761899471282959,0.06277051568031311,0.8501425385475159,0.465884268283844,0.7885524034500122,0.12312275916337967,-0.13669194281101227,-0.5868058204650879,5.643615245819092,-0.2865516245365143,0.3298753499984741,-15.928489685058594,-23.442012786865234,18.62372589111328,0.06299000233411789,0.8498636484146118,0.4658660888671875,5.785037517547607,0.5133400559425354,0.6526635885238647,0.4224972426891327,0.7521328926086426,0.42000001668930054,-0.3107386827468872,0.7718227505683899,-0.9244704842567444,-3.0000038146972656,-0.2234545648097992,-0.21317291259765625,-0.19676163792610168,-0.1795205920934677,-0.5909446477890015,-0.42058882117271423,-0.24404728412628174,-0.0868355855345726
0.48333333333333334,0.054306719452142715,0.012132355011999607,0.0,0.7278171181678772,0.0,0.0,-0.6857712864875793,0.1359277218580246,-0.10791809856891632,0.0,0.0,0.0,-1.3163682222366333,0.15160220861434937,0.8512105941772461,0.47120925784111023,0.7478348016738892,0.10791714489459991,-0.14418281614780426,-0.6389899849891663,4.799554824829102,-0.6797612905502319,0.35398685932159424,-11.728650093078613,-2.0798733234405518,-2.5997650623321533,0.15178048610687256,0.8503777980804443,0.47159141302108765,5.063429832458496,-0.4991222620010376,0.17948481440544128,0.4224972426891327,0.7521328926086426,0.42000001668930054,-0.2961595356464386,1.0682533979415894,-0.9744948744773865,-2.999387502670288,-0.23305366933345795,-0.2195436656475067,-0.20013675093650818,-0.18033163249492645,-0.6055786609649658,-0.39170393347740173,-0.20876158773899078,-0.05708392709493637
0.5,0.05420856922864914,0.013193158432841301,0.0,0.7072126865386963,0.0,0.0,-0.7070008516311646,-0.05911092460155487,0.1331169754266739,0.0,0.0,0.0,-4.418968200683594,0.22898586094379425,0.8392699956893921,0.4692818820476532,0.7064815163612366,0.08121488988399506,-0.13455381989479065,-0.6900602579116821,4.116880416870117,-1.4419184923171997,-0.3019171357154846,-2.6820459365844727,-5.36447811126709,12.937058448791504,0.2287762463092804,0.83863365650177,0.4700896739959717,4.355620384216309,-1.0052000284194946,-0.24419541656970978,0.4224972426891327,0.7521328926086426,0.42000001668930054,-0.2797006368637085,0.8714218735694885,-1.0245184898376465,-3.000002145767212,-0.24001027643680573,-0.22551468014717102,-0.20369850099086761,-0.18186905980110168,-0.023537620902061462,-0.33164674043655396,-0.21391840279102325,-0.11541637778282166
0.5166666666666666,0.05536564439535141,0.011387335136532784,0.0,0.6991870999336243,0.0,0.0,-0.7149387001991272,0.10175471007823944,-0.11135155707597733,0.0,0.0,0.0,-0.31618979573249817,0.29513826966285706,0.8194495439529419,0.45934420824050903,0.6479726433753967,-0.001400442561134696,-0.16365991532802582,-0.7438715100288391,3.3935859203338623,-1.530163049697876,-0.8312578797340393,-13.77738094329834,3.19922137260437,-2.5341269969940186,0.2930814027786255,0.8191094398498535,0.46278059482574463,3.4756054878234863,-1.4208567142486572,-0.5435887575149536,0.4224972426891327,0.7521328926086426,0.42000001668930054,-0.2647298276424408,0.9801931381225586,-1.074540615081787,-2.9995429515838623,-0.23829706013202667,-0.22809594869613647,-0.2049836665391922,-0.18219707906246185,0.05869847163558006,-0.13541677594184875,-0.0755237266421318,-0.0384225994348526
0.5333333333333333,0.05906231328845024,0.013181251473724842,0.0,0.6825369000434875,0.0,0.0,-0.7308511734008789,0.26790550351142883,0.12909027934074402,0.0,0.0,0.0,-3.5934834480285645,0.3470759391784668,0.7969657182693481,0.4424659013748169,0.6083792448043823,-0.07978934794664383,-0.1785264015197754,-0.7691792249679565,2.679668664932251,-1.4503443241119385,-0.9343680739402771,7.984400749206543,-5.8180670738220215,11.518752098083496,0.3452390432357788,0.7975519895553589,0.4483959674835205,2.8846263885498047,-1.2586750984191895,-1.1019666194915771,0.4224972426891327,0.7521328926086426,0.42000001668930054,-0.2477734237909317,0.982231855392456,-1.1245627403259277,-3.0000007152557373,-0.23661677539348602,-0.22965340316295624,-0.20666803419589996,-0.18425199389457703,0.26397135853767395,0.05464706942439079,-0.026616187766194344,-0.11444833129644394
0.55,0.06506401300430298,0.01140904612839222,0.0,0.6786665916442871,0.0,0.0,-0.7344464659690857,0.3857685625553131,-0.13138733804225922,0.0,0.0,0.0,0.3185841739177704,0.3875652551651001,0.7764315605163574,0.42563188076019287,0.5890334248542786,-0.048907700926065445,-0.09789412468671799,-0.8006649613380432,1.7471922636032104,-1.1403791904449463,-0.479315847158432,31.49945831298828,-4.1624226570129395,17.515085220336914,0.38573551177978516,0.7757073640823364,0.42823511362075806,1.8670711517333984,-1.2930303812026978,-1.0300416946411133,0.4224972426891327,0.7521328926086426,0.42000001668930054,-0.2372482866048813,0.3183203935623169,-1.1745848655700684,-3.0000128746032715,-0.23105625808238983,-0.22698836028575897,-0.20575878024101257,-0.18521137535572052,0.2863928973674774,0.15415264666080475,0.04039640724658966,-0.0797065868973732
0.5666666666666667,0.07027406245470047,0.012748702429234982,0.0,0.6649389266967773,0.0,0.0,-0.7468976974487305,0.24685771763324738,0.09802468866109848,0.0,0.0,0.0,-3.0652449131011963,0.40771448612213135,0.7657583951950073,0.42297786474227905,0.5911164283752441,-0.0403323732316494,-0.04947973042726517,-0.8040562272071838,0.7622832655906677,-0.5400637984275818,-0.10872914642095566,2.208399772644043,3.921079635620117,7.3730363845825195,0.4052134156227112,0.7642866373062134,0.42426541447639465,0.9323780536651611,-0.47915488481521606,-0.17206229269504547,0.4224972426891327,0.7521328926086426,0.42000001668930054,-0.23036466538906097,0.5590433478355408,-1.2246885299682617,-2.9985077381134033,-0.2259620875120163,-0.2242020219564438,-0.2054871767759323,-0.18734487891197205,0.43347764015197754,0.2767869532108307,0.07729359716176987,-0.10837632417678833
0.5833333333333334,0.07576064765453339,0.011133844032883644,0.0,0.6642107367515564,0.0,0.0,-0.7475453615188599,0.35670754313468933,-0.1518941968679428,0.0,0.0,0.0,0.8083433508872986,0.41682496666908264,0.7599449157714844,0.42232877016067505,0.5775995254516602,-0.04921692982316017,-0.029068458825349808,-0.8143165111541748,0.36453261971473694,-0.23891094326972961,0.008011771366000175,0.8151993751525879,0.5940864682197571,-7.604857921600342,0.41343069076538086,0.7577970027923584,0.4242408871650696,0.17124661803245544,-0.3276653289794922,0.10317443311214447,0.4224972426891327,0.7521328926086426,0.42000001668930054,-0.21615929901599884,0.9550275206565857,-1.2746635675430298,-2.999509811401367,-0.218854159116745,-0.21898728609085083,-0.20336875319480896,-0.1880977898836136,0.38925155997276306,0.3109152317047119,0.1358279287815094,-0.026636816561222076
0.6,0.0831555724143982,0.012259175069630146,0.0,0.6531757116317749,0.0,0.0,-0.757206380367279,0.4918714165687561,0.1018342599272728,0.0,0.0,0.0,-2.6383373737335205,0.4196239113807678,0.7583142518997192,0.42161762714385986,0.5832372307777405,-0.03440157696604729,-0.02455344796180725,-0.8112015128135681,0.062154702842235565,-0.08269722014665604,-0.08904527127742767,4.870578765869141,-2.4744277000427246,10.214716911315918,0.41556859016418457,0.7552974224090576,0.42285460233688354,0.06775590777397156,0.005928799510002136,-0.08942729234695435,0.4224972426891327,0.7521328926086426,0.42000001668930054,-0.21396580338478088,-0.674538254737854,-1.2365381717681885,2.99452805519104,-0.212190642952919,-0.21391744911670685,-0.20170727372169495,-0.18952806293964386,0.501858115196228,0.3855980634689331,0.15114712715148926,-0.059188637882471085
0.6166666666666667,0.088018998503685,0.012491090223193169,0.0,0.6544710993766785,0.0,0.0,-0.7560870051383972,0.23487001657485962,0.03518364205956459,0.0,0.0,0.0,1.0663537979125977,0.4201197326183319,0.7571103572845459,0.42000651359558105,0.6121420860290527,0.00012724722910206765,-3.09174029098358e-05,-0.7907477021217346,-0.015742911025881767,-0.01753358729183674,-0.002952385228127241,-0.14691801369190216,0.09652452170848846,-0.05235287919640541,0.41559621691703796,0.7535823583602905,0.42400383949279785,-0.14825133979320526,-0.1570296287536621,0.14017720520496368,0.4224972426891327,0.7521328926086426,0.42000001668930054,-0.2574145793914795,-3.0,-1.2571569681167603,-2.9995689392089844,-0.20332910120487213,-0.20653003454208374,-0.19790028035640717,-0.1889137625694275,0.4131300151348114,0.37557944655418396,0.20265468955039978,0.047763895243406296
0.6333333333333333,0.09373825788497925,0.015873510390520096,0.0,0.6446374654769897,0.0,0.0,-0.7644883990287781,0.3570796251296997,0.2452593892812729,0.0,0.0,0.0,-2.461714029312134,0.4201242923736572,0.7571128010749817,0.42000001668930054,0.6121421456336975,-9.754901384440018e-07,-3.932497747882735e-06,-0.7907477617263794,7.025195372989401e-05,-0.00015808882017154247,-3.584078513085842e-05,-0.0011971598723903298,-0.001972304657101631,-0.00042568836943246424,0.41550976037979126,0.754439651966095,0.426746129989624,0.08125496655702591,0.15729650855064392,0.1995716542005539,0.4224972426891327,0.7521328926086426,0.42000001668930054,-0.3074243664741516,-2.9977986812591553,-1.3071173429489136,-2.9992194175720215,-0.19592872262001038,-0.20003129541873932,-0.19443458318710327,-0.18804959952831268,0.5418050289154053,0.4737606942653656,0.28274694085121155,0.121427021920681
0.65,0.1010093167424202,0.015398258343338966,0.0,0.6472698450088501,0.0,0.0,-0.762260913848877,0.4637432098388672,-0.037879928946495056,0.0,0.0,0.0,1.2938755750656128,0.4201243221759796,0.7571128606796265,0.42000001668930054,0.6121420860290527,-2.263747546749073e-06,-4.965885636920575e-06,-0.7907478213310242,7.349819497903809e-05,-0.00036485071177594364,-0.00010063941590487957,0.008384187705814838,-0.00253142137080431,-0.0004944106331095099,0.4154583513736725,0.7565305233001709,0.43246203660964966,-0.1434110701084137,0.02663622982800007,0.5422540307044983,0.4224972426891327,0.7521328926086426,0.42000001668930054,-0.3574385344982147,-3.000000238418579,-1.3571358919143677,-2.9999988079071045,-0.18673917651176453,-0.19147135317325592,-0.1884733885526657,-0.18420955538749695,0.3295145034790039,0.3582388460636139,0.2713596522808075,0.20765230059623718
0.6666666666666666,0.10978112369775772,0.012265277095139027,0.0,0.6385197639465332,0.0,0.0,-0.7696054577827454,0.5584368109703064,-0.2534150183200836,0.0,0.0,0.0,-2.3009767532348633,0.4201243221759796,0.7571128606796265,0.42000001668930054,0.6121422648429871,-2.2200545117812e-06,-4.951403752784245e-06,-0.7907475829124451,7.280286808963865e-05,-0.00036598776932805777,-0.00010115280747413635,0.008409795351326466,-0.002544484566897154,-0.0004938701749779284,0.41664570569992065,0.7566369771957397,0.43938586115837097,0.28641730546951294,-0.03493975102901459,0.4515168070793152,0.4224972426891327,0.7521328926086426,0.42000001668930054,-0.4074529707431793,-2.999999761581421,-1.4071542024612427,-2.999999761581421,-0.18246333301067352,-0.18625397980213165,-0.18406148254871368,-0.1801982969045639,0.23180054128170013,0.30817073583602905,0.28907978534698486,0.29422613978385925
0.6833333333333333,0.1208718940615654,0.007165187504142523,0.0,0.6080468893051147,0.0,0.0,-0.7939011454582214,0.7015618681907654,-0.4024917185306549,0.0,0.0,0.0,-5.5459747314453125,0.4201243221759796,0.7571128606796265,0.42000001668930054,0.6121422648429871,-2.21697928282083e-06,-4.95747008244507e-06,-0.7907475829124451,7.284933963092044e-05,-0.00036608963273465633,-0.00010116794146597385,0.008412469178438187,-0.0025454284623265266,-0.0004940896178595722,0.4234395921230316,0.755243182182312,0.4548543393611908,0.6079390048980713,-0.10340669006109238,1.4882416725158691,0.4224972426891327,0.7521328926086426,0.42000001668930054,-0.4574665427207947,-2.999992609024048,-1.4571725130081177,-3.000000476837158,-0.18176166713237762,-0.18380513787269592,-0.1813538372516632,-0.17691411077976227,-0.020197521895170212,0.091244637966156,0.12050401419401169,0.16562189161777496
0.7,0.13039405643939972,0.005927103105932474,0.0,0.5914475321769714,0.0,0.0,-0.8063434362411499,0.46264198422431946,-0.1557857096195221,0.0,0.0,0.0,-1.3416215181350708,0.4201243221759796,0.7571128606796265,0.42000001668930054,0.6121422648429871,-2.213768993897247e-06,-4.9635887080512475e-06,-0.7907475829124451,7.284813182195649e-05,-0.00036608983646146953,-0.00010117026977241039,0.00841243751347065,-0.002545546041801572,-0.0004940974176861346,0.4329529404640198,0.755072832107544,0.48435845971107483,0.658151388168335,0.23757198452949524,1.9505505561828613,0.4224972426891327,0.7521328926086426,0.42000001668930054,-0.4952373802661896,-1.619107961654663,-1.5071908235549927,-3.000000238418579,-0.18675051629543304,-0.1863667219877243,-0.18284466862678528,-0.17725856602191925,-0.015491541475057602,0.03689011558890343,0.021155009046196938,0.015011417679488659
0.7166666666666667,0.13499633967876434,0.005651022307574749,0.0,0.6003788709640503,0.0,0.0,-0.7997156977653503,0.21543116867542267,0.03454158455133438,0.0,0.0,0.0,2.1499881744384766,0.4201243221759796,0.7571128606796265,0.42000001668930054,0.6121422648429871,-2.210551883763401e-06,-4.9696845962898806e-06,-0.7907475829124451,7.284963794518262e-05,-0.00036609137896448374,-0.00010117143392562866,0.008412573486566544,-0.002545479219406843,-0.0004940961953252554,0.4459984302520752,0.7593339681625366,0.5093908309936523,0.76337730884552,0.25475022196769714,1.1361169815063477,0.4224972426891327,0.7521328926086426,0.42000001668930054,-0.49887388944625854,0.9594025611877441,-1.5572091341018677,-2.999999523162842,-0.18629758059978485,-0.18511933088302612,-0.18181529641151428,-0.1763533055782318,0.0883428305387497,0.13102509081363678,0.11801380664110184,0.1057666465640068
0.7333333333333333,0.13586533069610596,0.0067497012205421925,0.0,0.5961806178092957,0.0,0.0,-0.8028503656387329,-0.00045830284943804145,0.09920523315668106,0.0,0.0,0.0,-1.5588696002960205,0.4201243221759796,0.7571128606796265,0.42000001668930054,0.6121422648429871,-2.1625739918818e-06,-4.61362287751399e-06,-0.7907475829124451,7.294617535080761e-05,-0.00036613945849239826,-0.00010115164332091808,0.008414026349782944,-0.0025448130909353495,-0.0004943387466482818,0.4521620273590088,0.7614654302597046,0.5210355520248413,0.03619281202554703,0.05310003086924553,0.4370795488357544,0.4224972426891327,0.7521328926086426,0.42000001668930054,-0.4977581202983856,-0.6842094659805298,-1.5183175802230835,3.0,-0.18516673147678375,-0.183170348405838,-0.1798938810825348,-0.17453667521476746,0.11069176346063614,0.15401262044906616,0.15128619968891144,0.13985085487365723
0.75,0.13885770738124847,0.004471143241971731,0.0,0.6043369174003601,0.0,0.0,-0.7967288494110107,0.1493055522441864,-0.10888863354921341,0.0,0.0,0.0,1.8317610025405884,0.4201243221759796,0.7571128606796265,0.42000001668930054,0.6121421456336975,-2.2171200271259295e-06,-4.729296506411629e-06,-0.7907477617263794,7.16538488632068e-05,-0.00036508101038634777,-0.00010138191282749176,0.008381404913961887,-0.0025521779898554087,-0.0004905787063762546,0.45265308022499084,0.7613820433616638,0.5260208249092102,-0.13567054271697998,-0.10864463448524475,0.22061458230018616,0.4224972426891327,0.7521328926086426,0.42000001668930054,-0.5279930830001831,-2.7451882362365723,-1.5340901613235474,-3.000000476837158,-0.18195301294326782,-0.17934496700763702,-0.17613983154296875,-0.17105317115783691,0.02589668147265911,0.09734249114990234,0.13035868108272552,0.14529885351657867
0.7666666666666666,0.1435479074716568,0.006890549790114164,0.0,0.6024026274681091,0.0,0.0,-0.7981923818588257,0.267418771982193,0.10242992639541626,0.0,0.0,0.0,-1.4718670845031738,0.4201243221759796,0.7571128606796265,0.42000001668930054,0.6121421456336975,-2.2552412701770663e-06,-4.81873166791047e-06,-0.7907477021217346,7.371012179646641e-05,-0.0003654414031188935,-0.00010083895176649094,0.00839551817625761,-0.0025334868114441633,-0.0004953743773512542,0.4539868235588074,0.7570842504501343,0.5232590436935425,0.36759495735168457,-0.2732236981391907,-0.41854527592658997,0.4224972426891327,0.7521328926086426,0.42000001668930054,-0.5745269656181335,-2.7951252460479736,-1.5841084718704224,-2.999999523162842,-0.1830907166004181,-0.17908944189548492,-0.17490270733833313,-0.1690407544374466,0.14974412322044373,0.18692222237586975,0.21589235961437225,0.24365964531898499
0.7833333333333333,0.14949657022953033,0.0049659633077681065,0.0,0.5759944319725037,0.0,0.0,-0.8174536228179932,0.3897661566734314,-0.14284124970436096,0.0,0.0,0.0,-4.8493146896362305,0.4201243221759796,0.7571128606796265,0.42000001668930054,0.6121423244476318,-2.197268031522981e-06,-4.561380592349451e-06,-0.7907475829124451,7.459213520633057e-05,-0.00036619542515836656,-0.00010069413110613823,0.008417736738920212,-0.0025241440162062645,-0.000497738306876272,0.46062523126602173,0.7512429356575012,0.521336555480957,0.44814133644104004,-0.4640297293663025,0.30526870489120483,0.4224972426891327,0.7521328926086426,0.42000001668930054,-0.6244964599609375,-2.9999749660491943,-1.6341255903244019,-2.999999761581421,-0.18020004034042358,-0.1757679581642151,-0.17116592824459076,-0.16487184166908264,0.07091338187456131,0.11424602568149567,0.1599232405424118,0.20503279566764832
0.8,0.1579858809709549,0.005814799107611179,0.0,0.5645431280136108,0.0,0.0,-0.8254035711288452,0.5375987887382507,0.10366309434175491,0.0,0.0,0.0,-0.639339029788971,0.4201243221759796,0.7571128606796265,0.42000001668930054,0.6121420860290527,-2.2951248865865637e-06,-4.971600446879165e-06,-0.7907478213310242,7.283794548129663e-05,-0.0003652058949228376,-0.00010107154957950115,0.008386720903217793,-0.0025407392531633377,-0.0004931730218231678,0.4675583243370056,0.748981237411499,0.5299960374832153,0.3714107871055603,0.1343832165002823,0.712117075920105,0.4224972426891327,0.7521328926086426,0.42000001668930054,-0.6426116824150085,0.5340485572814941,-1.6841400861740112,-3.0000007152557373,-0.17910727858543396,-0.17469942569732666,-0.1700650304555893,-0.16377773880958557,0.14671385288238525,0.09430726617574692,0.0459686778485775,-0.005786833819001913
0.8166666666666667,0.16330796480178833,0.008305487222969532,0.0,0.5784388780593872,0.0,0.0,-0.8157257437705994,0.2654865086078644,0.24692675471305847,0.0,0.0,0.0,2.818101167678833,0.4201243221759796,0.7571128606796265,0.42000001668930054,0.6121422648429871,-2.2120368612377206e-06,-4.955295480613131e-06,-0.7907475829124451,7.279813871718943e-05,-0.00036597345024347305,-0.00010115024633705616,0.0084095299243927,-0.0025443315971642733,-0.0004938427591696382,0.47555452585220337,0.7533267736434937,0.5381454825401306,0.5158426761627197,0.29524266719818115,0.31869804859161377,0.4224972426891327,0.7521328926086426,0.42000001668930054,-0.6311777830123901,0.8040947914123535,-1.6448885202407837,2.9999992847442627,-0.17418786883354187,-0.1711636334657669,-0.1677868664264679,-0.16278645396232605,0.2892105281352997,0.2078470140695572,0.13375328481197357,0.055775150656700134
0.8333333333333334,0.16495631635189056,0.008135471493005753,0.0,0.5783411264419556,0.0,0.0,-0.8157950639724731,0.025489864870905876,-0.05096102133393288,0.0,0.0,0.0,-0.7848955988883972,0.4201243221759796,0.7571128606796265,0.42000001668930054,0.6121422648429871,-2.2090107449912466e-06,-4.961471859132871e-06,-0.7907475829124451,7.28489103494212e-05,-0.00036608814843930304,-0.00010117026977241039,0.00841254647821188,-0.0025454028509557247,-0.0004940919461660087,0.480857253074646,0.7564257383346558,0.539627730846405,0.09422845393419266,0.08745039254426956,0.02600919082760811,0.4224972426891327,0.7521328926086426,0.42000001668930054,-0.64951491355896,-2.6877570152282715,-1.5948320627212524,3.0,-0.16939020156860352,-0.16756778955459595,-0.1652909219264984,-0.1614983230829239,0.19232240319252014,0.14543062448501587,0.10159604996442795,0.046931058168411255
0.85,0.16914623975753784,0.013442385010421276,0.0,0.5921739339828491,0.0,0.0,-0.8058101534843445,0.23712767660617828,0.3763270974159241,0.0,0.0,0.0,2.740006446838379,0.4201243221759796,0.7571128606796265,0.42000001668930054,0.6121422648429871,-2.2057959085941548e-06,-4.967546828993363e-06,-0.7907475829124451,7.284959428943694e-05,-0.0003660905349534005,-0.00010117096826434135,0.00841264333575964,-0.0025453872513026,-0.0004940911312587559,0.484507292509079,0.7558737993240356,0.5383607745170593,0.3178958296775818,0.05582589656114578,-0.15014347434043884,0.4224972426891327,0.7521328926086426,0.42000001668930054,-0.6629560589790344,0.7816145420074463,-1.608891248703003,-2.999999761581421,-0.17209237813949585,-0.16970504820346832,-0.16682706773281097,-0.162664994597435,-0.0544067844748497,-0.04241124540567398,-0.01996195688843727,-0.003063514595851302
0.8666666666666667,0.16999296844005585,0.014025019481778145,0.0,0.5916920900344849,0.0,0.0,-0.8061640858650208,0.02054530940949917,0.003841120284050703,0.0,0.0,0.0,-0.959770143032074,0.4201243221759796,0.7571128606796265,0.42000001668930054,0.6121422648429871,-2.1376495169533882e-06,-4.800844180863351e-06,-0.7907475829124451,7.286476466106251e-05,-0.0003661410592030734,-0.00010117562487721443,0.008413842879235744,-0.0025452447589486837,-0.0004941356601193547,0.4887210726737976,0.7563619017601013,0.5349941253662109,0.15303152799606323,-0.09166402369737625,-0.11975649744272232,0.4224972426891327,0.7521328926086426,0.42000001668930054,-0.6863726377487183,-3.0000007152557373,-1.569862723350525,2.999999523162842,-0.16954997181892395,-0.16753984987735748,-0.1648162454366684,-0.1608319878578186,0.005338573828339577,0.014301550574600697,0.03430540859699249,0.0502912662923336
0.8833333333333333,0.1730111688375473,0.018255198374390602,0.0,0.6023722290992737,0.0,0.0,-0.7982153296470642,0.21595348417758942,0.2839539051055908,0.0,0.0,0.0,2.2724554538726807,0.4201243221759796,0.7571128606796265,0.42000001668930054,0.6121420860290527,-2.2317417460726574e-06,-4.782765245181508e-06,-0.7907477021217346,7.36682559363544e-05,-0.0003660852089524269,-0.00010094628669321537,0.008413338102400303,-0.002536486368626356,-0.0004957860219292343,0.4932565689086914,0.7555360198020935,0.5363236665725708,0.4042396545410156,0.06612109392881393,0.28893768787384033,0.4224972426891327,0.7521328926086426,0.42000001668930054,-0.7198551297187805,-1.1505184173583984,-1.584513545036316,-2.999999761581421,-0.17165939509868622,-0.16926537454128265,-0.16590309143066406,-0.16126450896263123,-0.034374337643384933,-0.03831027075648308,-0.02049587480723858,0.006275552324950695
