vladlanda/robotic-transformer/data/env_000_episode_0189.csv
sim_time_s,robot_box_x,robot_box_y,robot_box_z,robot_box_quat_w,robot_box_quat_x,robot_box_quat_y,robot_box_quat_z,robot_box_linvel_x,robot_box_linvel_y,robot_box_linvel_z,robot_box_angvel_x,robot_box_angvel_y,robot_box_angvel_z,cube_world_x,cube_world_y,cube_world_z,cube_quat_w,cube_quat_x,cube_quat_y,cube_quat_z,cube_linvel_x,cube_linvel_y,cube_linvel_z,cube_angvel_x,cube_angvel_y,cube_angvel_z,endpoint_world_x,endpoint_world_y,endpoint_world_z,endpoint_linvel_x,endpoint_linvel_y,endpoint_linvel_z,target_cube_world_x,target_cube_world_y,target_cube_world_z,gripper_actual_pos_rad_gp_leftgearjoint,gripper_actual_vel_rad_s_gp_leftgearjoint,gripper_actual_pos_rad_gp_rotatingjoint,gripper_actual_vel_rad_s_gp_rotatingjoint,motor_angle_rad_joint1,motor_angle_rad_joint2,motor_angle_rad_joint3,motor_angle_rad_joint4,motor_speed_rad_s_joint1,motor_speed_rad_s_joint2,motor_speed_rad_s_joint3,motor_speed_rad_s_joint4
0.0,0.0,0.0,0.0,1.0,0.0,0.0,0.0,0.0,0.0,0.0,0.0,0.0,0.0,-0.47082817554473877,0.6323448419570923,0.41999998688697815,1.0,0.0,0.0,0.0,0.0,0.0,0.0,0.0,0.0,0.0,3.42540442943573e-06,-0.005000244826078415,1.313499927520752,0.0,0.0,0.0,0.4541540741920471,0.6244446039199829,0.42000001668930054,-1.5707999467849731,0.0,0.0,0.0,0.0,0.0,0.0,0.0,0.0,0.0,0.0,0.0
0.016666666666666666,0.0028778850100934505,0.0021806680597364902,0.0,0.9998081922531128,0.0,0.0,0.019586581736803055,0.24087215960025787,0.18240931630134583,0.0,0.0,0.0,3.1418697834014893,-0.4708282947540283,0.6323445439338684,0.41999998688697815,1.0,3.2799832752061775e-06,-8.339598593920527e-07,8.465660528145236e-08,-1.9833856640616432e-05,0.00017983021098189056,-6.132945418357849e-05,0.0009432561928406358,-0.004689492750912905,-0.0003198107879143208,-0.007110234349966049,0.003379564033821225,1.3159373998641968,-0.8143353462219238,0.9868683815002441,0.18095196783542633,0.4541540741920471,0.6244446039199829,0.42000001668930054,-1.5301095247268677,3.0000011920928955,-0.04584788903594017,-2.9999992847442627,0.0008691533003002405,0.0007963840034790337,0.0007110277656465769,0.0006108740926720202,0.11094217747449875,0.09756709635257721,0.08334315568208694,0.06823883205652237
0.03333333333333333,0.00896048080176115,0.006809150334447622,0.0,0.9997946619987488,0.0,0.0,0.020264336839318275,0.4071080684661865,0.3153434991836548,0.0,0.0,0.0,-0.8711370825767517,-0.47082841396331787,0.6323444843292236,0.4200000464916229,1.0,3.3908236218849197e-06,-2.1324740373529494e-06,-3.7087911408661967e-08,0.0002635786950122565,0.00026937879738397896,-0.00010509719140827656,-0.0017707741353660822,0.004130927845835686,-0.00013548358401749283,-0.027537856251001358,0.02552943490445614,1.3166979551315308,-1.5905089378356934,1.5842859745025635,-0.07267579436302185,0.4541540741920471,0.6244446039199829,0.42000001668930054,-1.4800903797149658,3.0000009536743164,-0.09588770568370819,-3.0,0.0029897568747401237,0.002652509370818734,0.0022772110532969236,0.0018607896054163575,0.16427841782569885,0.13982437551021576,0.11388533562421799,0.08636847883462906
0.05,0.01775948330760002,0.01378075685352087,0.0,0.9993727803230286,0.0,0.0,0.03541266918182373,0.5939971208572388,0.4651857316493988,0.0,0.0,0.0,2.645845890045166,-0.47082844376564026,0.6323445439338684,0.4200000464916229,1.0,3.7651166167051997e-06,-2.2119024833955336e-06,5.637348365894468e-09,0.0002653102274052799,0.00026691530365496874,-0.0001044049859046936,-0.0017243424663320184,0.004177475813776255,-0.00012949523807037622,-0.059657126665115356,0.05248855799436569,1.3120486736297607,-2.1875171661376953,1.6880416870117188,-0.4468385875225067,0.4541540741920471,0.6244446039199829,0.42000001668930054,-1.4300720691680908,2.9999992847442627,-0.1459263563156128,-2.999999523162842,0.005714430008083582,0.004922461695969105,0.0040583256632089615,0.003117575543001294,0.1930222362279892,0.15612958371639252,0.1173599436879158,0.07661948353052139
0.06666666666666667,0.029077032580971718,0.02307598479092121,0.0,0.9994456171989441,0.0,0.0,0.033293239772319794,0.7205219864845276,0.5952820777893066,0.0,0.0,0.0,-1.213446021080017,-0.47082844376564026,0.6323444843292236,0.4200000464916229,0.9999999403953552,3.4067338674503844e-06,-2.2856738723930903e-06,4.301002434203838e-07,0.0002670263347681612,0.0002679180761333555,-0.00010437914170324802,-0.001740648876875639,0.004211838357150555,-0.00012851078645326197,-0.09861119091510773,0.0849684402346611,1.3000909090042114,-2.4868106842041016,2.100444793701172,-0.9601943492889404,0.4541540741920471,0.6244446039199829,0.42000001668930054,-1.3800537586212158,3.0000011920928955,-0.19595305621623993,-3.000000238418579,0.008371838368475437,0.00691096531227231,0.005339094437658787,0.0036503972951322794,0.1585966795682907,0.109184630215168,0.057738859206438065,0.004173204768449068
0.08333333333333333,0.03516848385334015,0.03574783727526665,0.0,0.9989073276519775,0.0,0.0,0.04673508182168007,0.17923478782176971,0.8360443115234375,0.0,0.0,0.0,2.6046879291534424,-0.47082844376564026,0.6323444843292236,0.4200000464916229,1.0,3.6972542147850618e-06,-2.189012548114988e-06,-2.632233417898533e-07,0.0002638970036059618,0.00026586418971419334,-0.00010433932766318321,-0.0017081733094528317,0.004150197375565767,-0.0001299117284361273,-0.1445242166519165,0.11756446212530136,1.2778756618499756,-2.918837308883667,1.8850560188293457,-1.6152729988098145,0.4541540741920471,0.6244446039199829,0.42000001668930054,-1.3300244808197021,3.0000007152557373,-0.1833777278661728,2.999997854232788,0.006185535341501236,0.004284800961613655,0.002224493073299527,-5.191945092519745e-06,-0.24349266290664673,-0.2676382064819336,-0.2943512797355652,-0.32398155331611633
0.1,0.04399560019373894,0.04946250841021538,0.0,0.9990337491035461,0.0,0.0,0.04394938424229622,0.6631922721862793,0.8324529528617859,0.0,0.0,0.0,-1.2906798124313354,-0.47082844376564026,0.6323444843292236,0.4200000464916229,0.9999999403953552,3.620308916651993e-06,-2.2652425286651123e-06,1.7463578672050062e-07,0.00026676832931116223,0.0002674081770237535,-0.0001040799543261528,-0.0017385705141350627,0.004209125880151987,-0.0001277521369047463,-0.18780775368213654,0.15299785137176514,1.2527717351913452,-2.402601480484009,2.2456798553466797,-1.452008843421936,0.4541540741920471,0.6244446039199829,0.42000001668930054,-1.280019998550415,3.000002145767212,-0.21496102213859558,-3.0000007152557373,0.00642252154648304,0.0031387743074446917,-0.00030539475847035646,-0.00392282335087657,0.08516702800989151,-0.028045907616615295,-0.14025162160396576,-0.2513861656188965
0.11666666666666667,0.0514356791973114,0.061001796275377274,0.0,0.9999165534973145,0.0,0.0,0.012920343317091465,0.4332984387874603,0.6487627625465393,0.0,0.0,0.0,-4.412107467651367,-0.47082844376564026,0.6323444843292236,0.4200000464916229,1.0,3.798331817961298e-06,-2.2628737497143447e-06,-1.5019459453924355e-07,0.0002637395809870213,0.00026566043379716575,-0.00010428996756672859,-0.0017054103082045913,0.0041475603356957436,-0.0001298010174650699,-0.22784623503684998,0.19575044512748718,1.225809097290039,-2.4401235580444336,2.687300443649292,-1.737919807434082,0.4541540741920471,0.6244446039199829,0.42000001668930054,-1.2299987077713013,2.999990701675415,-0.18109670281410217,3.0000009536743164,0.006052426528185606,0.0009096141438931227,-0.004363273270428181,-0.009777630679309368,0.02269456349313259,-0.09832888841629028,-0.21621455252170563,-0.33086976408958435
0.13333333333333333,0.05568068102002144,0.07308383285999298,0.0,0.9999970197677612,0.0,0.0,0.002435217844322324,0.1740979701280594,0.7511619329452515,0.0,0.0,0.0,-0.2085188627243042,-0.47082844376564026,0.6323445439338684,0.4200000464916229,0.9999999403953552,3.5504490369930863e-06,-2.2298452222457854e-06,2.929317872713e-07,0.0002670326502993703,0.00026779386098496616,-0.00010417005978524685,-0.0017441416857764125,0.004213591571897268,-0.00012799994146917015,-0.27148863673210144,0.23507113754749298,1.1963913440704346,-2.579845905303955,2.403432846069336,-1.8473739624023438,0.4541540741920471,0.6244446039199829,0.42000001668930054,-1.180008053779602,2.9999985694885254,-0.21264982223510742,-3.0000007152557373,0.005528551526367664,-0.0016496689058840275,-0.008891362696886063,-0.01620558463037014,-0.09617988020181656,-0.21274900436401367,-0.32519111037254333,-0.4333682954311371
0.15,0.058207884430885315,0.0830327495932579,0.0,0.9997770190238953,0.0,0.0,-0.021115915849804878,0.08265848457813263,0.5276059508323669,0.0,0.0,0.0,-3.6144442558288574,-0.47082844376564026,0.6323444843292236,0.4200000464916229,0.9999999403953552,3.3379828892066143e-06,-2.2429737782658776e-06,-2.8000011198514585e-08,0.0002667461521923542,0.0002675800060387701,-0.00010427623055875301,-0.001736729289405048,0.004206979181617498,-0.00012831634376198053,-0.3131542205810547,0.2811260521411896,1.1600780487060547,-2.4218201637268066,2.983229398727417,-2.459807872772217,0.4541540741920471,0.6244446039199829,0.42000001668930054,-1.1299928426742554,2.999994993209839,-0.17878589034080505,3.0,0.0029998579993844032,-0.00600048853084445,-0.014985593035817146,-0.023964082822203636,-0.24422584474086761,-0.3377554714679718,-0.42673709988594055,-0.5112186074256897
0.16666666666666666,0.05921086296439171,0.09394101798534393,0.0,0.9973914623260498,0.0,0.0,-0.07218215614557266,-0.010186360217630863,0.7045907974243164,0.0,0.0,0.0,-6.931119918823242,-0.47082844376564026,0.6323445439338684,0.4200000464916229,0.9999999403953552,3.6477658795774914e-06,-2.3074287582858233e-06,3.527969738570391e-08,0.00026727005024440587,0.0002680135949049145,-0.00010418915189802647,-0.0017472486943006516,0.004217661917209625,-0.00012798381794709712,-0.3514513373374939,0.3374577462673187,1.1154667139053345,-2.098595142364502,3.6570045948028564,-2.87319278717041,0.4541540741920471,0.6244446039199829,0.42000001668930054,-1.0824190378189087,2.6930081844329834,-0.21039791405200958,-3.0,-0.002679435769096017,-0.013169050216674805,-0.023562116548419,-0.03386824205517769,-0.45170122385025024,-0.5266921520233154,-0.5971971750259399,-0.6632871627807617
0.18333333333333332,0.06383809447288513,0.10484783351421356,0.0,0.9945161938667297,0.0,0.0,-0.10458283126354218,0.2626054584980011,0.6113041043281555,0.0,0.0,0.0,-2.6241302490234375,-0.47082844376564026,0.6323444843292236,0.4200000464916229,0.9999999403953552,3.290518861831515e-06,-2.1940602437098278e-06,-2.792300222154154e-07,0.0002667784283403307,0.0002677590528037399,-0.00010434072464704514,-0.001739021739922464,0.004206892568618059,-0.00012845716264564544,-0.38947975635528564,0.39308828115463257,1.0605765581130981,-2.1375560760498047,3.417771816253662,-3.724881410598755,0.4541540741920471,0.6244446039199829,0.42000001668930054,-1.040568232536316,2.3249218463897705,-0.26042792201042175,-3.0000011920928955,-0.009952734224498272,-0.0211778674274683,-0.03224699944257736,-0.043176401406526566,-0.6803768873214722,-0.6722307205200195,-0.6630396842956543,-0.6533510684967041
0.2,0.06393007189035416,0.11719576269388199,0.0,0.9890733957290649,0.0,0.0,-0.14742404222488403,-0.015393673442304134,0.7768474221229553,0.0,0.0,0.0,-5.936115264892578,-0.47082844376564026,0.6323444843292236,0.4200000464916229,1.0,3.2806988201627973e-06,-2.2193432869244134e-06,1.5948184284297895e-07,0.0002662798506207764,0.00026740229805000126,-0.0001042510848492384,-0.0017357115866616368,0.004197767470031977,-0.00012865093594882637,-0.4240536093711853,0.4511244595050812,0.9926129579544067,-1.8328444957733154,3.6122589111328125,-4.2751054763793945,0.4541540741920471,0.6244446039199829,0.42000001668930054,-0.9912526607513428,2.999999761581421,-0.310456246137619,-3.000000476837158,-0.02497471496462822,-0.03636200353503227,-0.04755555838346481,-0.05829722434282303,-0.9119672179222107,-0.9169087409973145,-0.9202564358711243,-0.9269746541976929
0.21666666666666667,0.06235949322581291,0.1267230063676834,0.0,0.9853608012199402,0.0,0.0,-0.17048192024230957,-0.1476421058177948,0.49113401770591736,0.0,0.0,0.0,-1.7344597578048706,-0.47082844376564026,0.6323445439338684,0.4200000464916229,1.0,3.613101398514118e-06,-2.270231107104337e-06,2.210174301353618e-07,0.00026712517137639225,0.00026781667838804424,-0.00010414118878543377,-0.001744576497003436,0.0042152018286287785,-0.00012786168372258544,-0.4556877017021179,0.5030732750892639,0.916620135307312,-1.635390043258667,2.96757435798645,-4.854561805725098,0.4541540741920471,0.6244446039199829,0.42000001668930054,-0.9412457942962646,3.000000476837158,-0.3604855239391327,-2.9999983310699463,-0.04083501547574997,-0.05178207531571388,-0.06248209998011589,-0.07280737161636353,-0.985602855682373,-0.9528834819793701,-0.9003974199295044,-0.8534563779830933
0.23333333333333334,0.05845072492957115,0.13747556507587433,0.0,0.9785181879997253,0.0,0.0,-0.20616064965724945,-0.3051145076751709,0.6738443374633789,0.0,0.0,0.0,-5.123147010803223,-0.47082844376564026,0.6323444843292236,0.4200000464916229,1.0,3.3818532756413333e-06,-2.291060127390665e-06,2.727961714299454e-07,0.0002669147797860205,0.0002677999727893621,-0.00010433257557451725,-0.0017395797185599804,0.004209762904793024,-0.00012843632430303842,-0.48067665100097656,0.5506958961486816,0.8286980390548706,-1.2401551008224487,2.7275876998901367,-5.498907089233398,0.4541540741920471,0.6244446039199829,0.42000001668930054,-0.8912351131439209,2.9999990463256836,-0.41051623225212097,-3.0000011920928955,-0.05714225769042969,-0.06813711673021317,-0.07888476550579071,-0.0892234519124031,-0.9968386888504028,-0.9967480301856995,-0.996658980846405,-0.9965843558311462
0.25,0.05885320156812668,0.14446566998958588,0.0,0.974808394908905,0.0,0.0,-0.2230439931154251,0.02399774268269539,0.32845863699913025,0.0,0.0,0.0,-0.8263113498687744,-0.47082841396331787,0.6323444843292236,0.4200000464916229,0.9999999403953552,3.7065613014419796e-06,-2.22313519770978e-06,-2.2550631229023566e-07,0.0002642478502821177,0.0002665684442035854,-0.00010457867756485939,-0.0017169876955449581,0.004155559465289116,-0.00013063046208117157,-0.5017244815826416,0.5874682664871216,0.7356165647506714,-0.9382895827293396,1.8189764022827148,-5.757461071014404,0.4541540741920471,0.6244446039199829,0.42000001668930054,-0.8412248492240906,2.9999945163726807,-0.46054723858833313,-3.000002145767212,-0.07235395908355713,-0.08321075141429901,-0.09380245208740234,-0.1037152037024498,-0.990078866481781,-0.9917523264884949,-0.9932329058647156,-0.9925294518470764
0.26666666666666666,0.05383628234267235,0.14793376624584198,0.0,0.9679850339889526,0.0,0.0,-0.2510080635547638,-0.4113142490386963,0.1665937453508377,0.0,0.0,0.0,-4.346283435821533,-0.47082844376564026,0.6323444843292236,0.4200000464916229,0.9999999403953552,3.7196393805061234e-06,-2.4035975911829155e-06,-1.830753433296195e-07,0.0002662325860001147,0.00026729193632490933,-0.00010425969958305359,-0.0017327084206044674,0.004196519032120705,-0.00012850586790591478,-0.5087995529174805,0.6083194017410278,0.6373488903045654,0.11011835932731628,0.8139554262161255,-5.824731349945068,0.4541540741920471,0.6244446039199829,0.42000001668930054,-0.7912159562110901,3.000001907348633,-0.5105777382850647,-3.000001907348633,-0.09054700285196304,-0.1010047122836113,-0.11129158735275269,-0.12096396833658218,-1.0020079612731934,-1.0015039443969727,-1.00111985206604,-1.0008177757263184
0.2833333333333333,0.052558332681655884,0.1484626680612564,0.0,0.9656121134757996,0.0,0.0,-0.2599870264530182,0.0268213152885437,-0.010404312051832676,0.0,0.0,0.0,-0.07248689234256744,-0.47082844376564026,0.6323445439338684,0.4200000464916229,0.9999999403953552,3.584038495318964e-06,-2.3155648705142085e-06,7.404717194958721e-08,0.0002652202092576772,0.00026455349870957434,-0.00010317075066268444,-0.0017022540559992194,0.004185175523161888,-0.00012499988952185959,-0.506523847579956,0.6238268613815308,0.5447328090667725,0.3648759126663208,0.9917615652084351,-5.310781955718994,0.4541540741920471,0.6244446039199829,0.42000001668930054,-0.7412071824073792,3.000001907348633,-0.5606074929237366,-2.9999990463256836,-0.10670493543148041,-0.11726202815771103,-0.12760664522647858,-0.13735973834991455,-1.0118094682693481,-1.0088791847229004,-1.0066462755203247,-1.0048738718032837
0.3,0.047962088137865067,0.1468842476606369,0.0,0.959578812122345,0.0,0.0,-0.28144001960754395,-0.38282036781311035,-0.1319146454334259,0.0,0.0,0.0,-3.556210517883301,-0.47082844376564026,0.6323444843292236,0.4200000464916229,1.0,3.7242393773340154e-06,-2.272014398840838e-06,9.635331821300497e-08,0.000263127323705703,0.0002652598777785897,-0.00010438216850161552,-0.0016961408546194434,0.004134894348680973,-0.00013027827662881464,-0.492448091506958,0.6350769400596619,0.4579217731952667,1.3117287158966064,0.48579081892967224,-5.026833534240723,0.4541540741920471,0.6244446039199829,0.42000001668930054,-0.691199779510498,3.0,-0.6106352210044861,-3.0000016689300537,-0.1248645931482315,-0.13504602015018463,-0.1451030671596527,-0.15462741255760193,-1.002927541732788,-1.002206802368164,-1.0016518831253052,-1.0012056827545166
0.31666666666666665,0.04120168462395668,0.14278224110603333,0.0,0.9587696194648743,0.0,0.0,-0.2841845154762268,-0.42050841450691223,-0.2948618531227112,0.0,0.0,0.0,0.6709497570991516,-0.4705154597759247,0.6333383917808533,0.42033207416534424,0.9997297525405884,-3.295714486739598e-05,0.00823014136403799,-0.021736551076173782,0.0009544712374918163,0.0087240319699049,-0.03488796949386597,0.05968029052019119,-1.6850833892822266,0.5225418210029602,-0.4822220504283905,0.6401165723800659,0.4235144853591919,0.06704943627119064,-0.06858605146408081,-0.18695133924484253,0.4541540741920471,0.6244446039199829,0.42000001668930054,-0.6413050889968872,3.0000898838043213,-0.6610439419746399,-2.9864635467529297,-0.13542261719703674,-0.1456316113471985,-0.15546144545078278,-0.1644762009382248,-0.4296194911003113,-0.4055732786655426,-0.35544970631599426,-0.27834799885749817
0.3333333333333333,0.032418083399534225,0.13618487119674683,0.0,0.9541991353034973,0.0,0.0,-0.29917222261428833,-0.5800905227661133,-0.43943098187446594,0.0,0.0,0.0,-2.8018670082092285,-0.4705635607242584,0.6348426938056946,0.4200001358985901,0.9988380670547485,-1.14136200863868e-05,-3.98914471588796e-06,-0.04819192364811897,0.019358137622475624,0.14800718426704407,-0.0005635718698613346,0.02966879867017269,-0.003094103652983904,-4.884785175323486,-0.48242050409317017,0.6418623924255371,0.42098909616470337,0.10062830150127411,0.17034949362277985,-0.1883939802646637,0.4541540741920471,0.6244446039199829,0.42000001668930054,-0.5912997722625732,2.9999842643737793,-0.7111025452613831,-2.9999632835388184,-0.14296594262123108,-0.15253522992134094,-0.16131286323070526,-0.16886882483959198,-0.48538854718208313,-0.4264858663082123,-0.34703749418258667,-0.2485516220331192
0.35,0.02126149646937847,0.12728329002857208,0.0,0.9544990658760071,0.0,0.0,-0.29821398854255676,-0.708892285823822,-0.5732143521308899,0.0,0.0,0.0,1.0568900108337402,-0.4695925712585449,0.6402472853660583,0.42032569646835327,0.9963116645812988,-0.007934563793241978,0.000720614567399025,-0.08543744683265686,0.06779821217060089,0.5679633617401123,0.07406909763813019,-3.324439525604248,0.8384796977043152,-3.6829845905303955,-0.4818505048751831,0.6470723152160645,0.4220072031021118,0.06175920367240906,0.4897766709327698,0.13171732425689697,0.4541540741920471,0.6244446039199829,0.42000001668930054,-0.5412948131561279,2.9999923706054688,-0.7611269354820251,-3.0000014305114746,-0.15122003853321075,-0.15936869382858276,-0.1663803607225418,-0.1718708723783493,-0.46383652091026306,-0.36639001965522766,-0.2495896816253662,-0.11681374907493591
0.36666666666666664,0.00787416473031044,0.11610712110996246,0.0,0.9502117037773132,0.0,0.0,-0.31160515546798706,-0.8509880900382996,-0.7100915908813477,0.0,0.0,0.0,-2.5981757640838623,-0.4666327238082886,0.6517525315284729,0.4209015667438507,0.9932239651679993,-0.022925082594156265,0.002563732210546732,-0.11390335857868195,0.3220023214817047,0.8686087131500244,0.013842391781508923,-0.7059875726699829,0.14240571856498718,-4.095783710479736,-0.4772176146507263,0.6571976542472839,0.42173314094543457,0.4860910177230835,0.7531765699386597,-0.14338652789592743,0.4541540741920471,0.6244446039199829,0.42000001668930054,-0.49129003286361694,2.999992847442627,-0.8111509680747986,-3.0000011920928955,-0.15929287672042847,-0.16542702913284302,-0.17006035149097443,-0.1728830188512802,-0.4790383279323578,-0.3378966748714447,-0.1754281371831894,0.0032308136578649282
0.3833333333333333,-0.0030021523125469685,0.10215027630329132,0.0,0.9366937875747681,0.0,0.0,-0.3501496911048889,-0.5796817541122437,-0.8916608095169067,0.0,0.0,0.0,-5.7018842697143555,-0.4588269293308258,0.6690391898155212,0.4206071197986603,0.98943692445755,-0.012903755530714989,-0.0006556231528520584,-0.1443869173526764,0.6512418389320374,1.286116600036621,0.024271642789244652,0.5791651606559753,-2.722236156463623,-4.517779350280762,-0.46651703119277954,0.6729668974876404,0.4218299686908722,0.8189742565155029,1.183689832687378,0.13852451741695404,0.4541540741920471,0.6244446039199829,0.42000001668930054,-0.44120457768440247,2.999998092651367,-0.8611536026000977,-2.9999775886535645,-0.16680076718330383,-0.1703471541404724,-0.17198045551776886,-0.17148925364017487,-0.3839239478111267,-0.22287069261074066,-0.03640495985746384,0.16927336156368256
0.4,-0.00988633930683136,0.08500268310308456,0.0,0.9113325476646423,0.0,0.0,-0.4116709232330322,-0.34841737151145935,-1.0828808546066284,0.0,0.0,0.0,-8.799365043640137,-0.4331565499305725,0.697695791721344,0.42289599776268005,0.982104480266571,0.015015379525721073,-0.04163094609975815,-0.18306320905685425,2.492217779159546,1.962380290031433,0.026978174224495888,41.9111213684082,-15.948284149169922,13.294615745544434,-0.4410107731819153,0.701852023601532,0.4232828617095947,2.3084001541137695,2.3582496643066406,0.3363153636455536,0.4541540741920471,0.6244446039199829,0.42000001668930054,-0.3978440463542938,1.6437640190124512,-0.824414849281311,2.9916322231292725,-0.17487749457359314,-0.17509736120700836,-0.17303697764873505,-0.1686093509197235,-0.5460090041160583,-0.3142000734806061,-0.06500794738531113,0.1929985135793686
0.4166666666666667,-0.014912635087966919,0.07241430878639221,0.0,0.870172381401062,0.0,0.0,-0.49274739623069763,-0.26582545042037964,-0.6326305866241455,0.0,0.0,0.0,-11.660442352294922,-0.3690645396709442,0.7441493272781372,0.42765501141548157,0.9644970297813416,0.08459439873695374,-0.08842259645462036,-0.23403134942054749,5.32299280166626,3.0058183670043945,0.35387659072875977,23.974246978759766,-15.045121192932129,13.545426368713379,-0.37668830156326294,0.7490338683128357,0.4281044602394104,5.045449733734131,3.424405097961426,0.38008835911750793,0.4541540741920471,0.6244446039199829,0.42000001668930054,-0.380916565656662,0.7670197486877441,-0.7743866443634033,3.00028133392334,-0.19010630249977112,-0.1865575909614563,-0.17880642414093018,-0.16892588138580322,-0.8942095637321472,-0.7763545513153076,-0.43547555804252625,-0.12061192095279694
0.43333333333333335,-0.017377562820911407,0.06617847084999084,0.0,0.8096372485160828,0.0,0.0,-0.5869305729866028,-0.07510601729154587,-0.4660053253173828,0.0,0.0,0.0,-14.011077880859375,-0.26330506801605225,0.7963160872459412,0.43551966547966003,0.9371033906936646,0.09859246760606766,-0.09517942368984222,-0.32102563977241516,7.496700286865234,2.8311853408813477,0.7053993344306946,20.393152236938477,-2.651402711868286,20.74182891845703,-0.2708015441894531,0.8036948442459106,0.43552565574645996,7.27616024017334,3.3913841247558594,0.5120846033096313,0.4541540741920471,0.6244446039199829,0.42000001668930054,-0.36520570516586304,1.0960630178451538,-0.8015995025634766,-3.0000038146972656,-0.20442679524421692,-0.20114880800247192,-0.1910642683506012,-0.17518149316310883,-0.46184930205345154,-0.5643152594566345,-0.6449580192565918,-0.3689698576927185
0.45,-0.022766979411244392,0.06156107038259506,0.0,0.7536520957946777,0.0,0.0,-0.657273530960083,-0.428210586309433,-0.1609726846218109,0.0,0.0,0.0,-9.726561546325684,-0.1424950808286667,0.834771990776062,0.44541433453559875,0.892198920249939,0.16136284172534943,-0.12353558838367462,-0.4033385217189789,7.540216445922852,0.8372693061828613,0.8511263728141785,-7.939201831817627,-2.515753984451294,4.214935302734375,-0.15005254745483398,0.845545768737793,0.4454193115234375,7.342654228210449,1.7622636556625366,0.6371273398399353,0.4541540741920471,0.6244446039199829,0.42000001668930054,-0.3464847505092621,0.9947338700294495,-0.7648363709449768,2.9999985694885254,-0.21945840120315552,-0.21539659798145294,-0.20377717912197113,-0.1821042150259018,-0.9722191691398621,-0.9083900451660156,-0.7630451321601868,-0.4323826730251312
0.4666666666666667,-0.025224527344107628,0.05218970403075218,0.0,0.7152688503265381,0.0,0.0,-0.6988493800163269,-0.05062759667634964,-0.7093170881271362,0.0,0.0,0.0,-5.821382522583008,-0.020432598888874054,0.8521093130111694,0.45667901635169983,0.8275871872901917,0.15813785791397095,-0.13155557215213776,-0.5222881436347961,7.380573749542236,-0.6416637897491455,0.7227903604507446,-0.38769465684890747,-10.087845802307129,22.78841209411621,-0.02783016674220562,0.8650354146957397,0.45650333166122437,7.404676914215088,0.3766850531101227,0.7916761040687561,0.4541540741920471,0.6244446039199829,0.42000001668930054,-0.331564337015152,0.6503101587295532,-0.7917224168777466,-3.0000033378601074,-0.23244290053844452,-0.22597037255764008,-0.21107611060142517,-0.18399356305599213,-0.7113747596740723,-0.5039384365081787,-0.26807376742362976,0.04844508320093155
0.48333333333333334,-0.027675941586494446,0.04423079639673233,0.0,0.7017669081687927,0.0,0.0,-0.7124066352844238,-0.16997738182544708,-0.2690778374671936,0.0,0.0,0.0,-0.9273087978363037,0.09158779680728912,0.8481281995773315,0.46514397859573364,0.7398417592048645,0.135029137134552,-0.14661216735839844,-0.6425776481628418,5.778674125671387,-2.130323886871338,0.5333627462387085,10.254590034484863,6.204703330993652,17.20878028869629,0.08402644097805023,0.8640817999839783,0.4668389856815338,6.057334899902344,-0.6471837759017944,0.5103040933609009,0.4541540741920471,0.6244446039199829,0.42000001668930054,-0.32497134804725647,-0.0332772396504879,-0.8417483568191528,-3.000000476837158,-0.24001482129096985,-0.23571597039699554,-0.21672651171684265,-0.18494129180908203,-0.058401353657245636,-0.7629826664924622,-0.4996042549610138,-0.23940923810005188
0.5,-0.02812846191227436,0.037175487726926804,0.0,0.6826210618019104,0.0,0.0,-0.7307724952697754,0.0296341422945261,-0.4884076714515686,0.0,0.0,0.0,-4.0507893562316895,0.182034432888031,0.8252386450767517,0.46919381618499756,0.6586956977844238,0.11258398741483688,-0.15272897481918335,-0.7280924320220947,5.338682651519775,-2.2259159088134766,0.2239198535680771,-12.54858112335205,5.906653881072998,14.40803050994873,0.17482703924179077,0.8444376587867737,0.4723968505859375,4.952201843261719,-1.782930612564087,0.24942095577716827,0.4541540741920471,0.6244446039199829,0.42000001668930054,-0.3290426433086395,-0.5743449330329895,-0.8917739987373352,-3.000001907348633,-0.24004259705543518,-0.2400221973657608,-0.2249058336019516,-0.1890157163143158,-0.018224433064460754,0.0015108849620446563,-0.3694726228713989,-0.15748907625675201
0.5166666666666666,-0.025660062208771706,0.03349771350622177,0.0,0.6765059232711792,0.0,0.0,-0.736437201499939,0.17135398089885712,-0.17255105078220367,0.0,0.0,0.0,-0.011408358812332153,0.25807493925094604,0.7915871143341064,0.4693557322025299,0.598185658454895,0.0784379169344902,-0.13138850033283234,-0.7866120338439941,4.145562648773193,-2.5818874835968018,-0.02922641485929489,-0.15095911920070648,5.602420806884766,-4.362629413604736,0.2524834871292114,0.810386061668396,0.47324198484420776,4.2377400398254395,-2.2214198112487793,-0.14050030708312988,0.4541540741920471,0.6244446039199829,0.42000001668930054,-0.3361702263355255,-0.10947085171937943,-0.9417980909347534,-2.9999423027038574,-0.23985880613327026,-0.23981931805610657,-0.23112238943576813,-0.1926804631948471,0.03546544164419174,0.05773216858506203,-0.17168046534061432,-0.1197483018040657
0.5333333333333333,-0.02076423540711403,0.026168473064899445,0.0,0.6605202555656433,0.0,0.0,-0.7508081793785095,0.3171084523200989,-0.4722103178501129,0.0,0.0,0.0,-3.4663755893707275,0.3208876848220825,0.756126344203949,0.46149641275405884,0.5573464035987854,0.047916799783706665,-0.11708171665668488,-0.8205856680870056,3.303631067276001,-2.2385969161987305,-0.6110562682151794,1.4895695447921753,3.759650468826294,-4.852787971496582,0.31697285175323486,0.7744397521018982,0.4662599563598633,3.4225170612335205,-2.2487621307373047,-0.6132981181144714,0.4541540741920471,0.6244446039199829,0.42000001668930054,-0.3282495439052582,0.9663243293762207,-0.9918221235275269,-3.0000009536743164,-0.23534417152404785,-0.23518109321594238,-0.23014318943023682,-0.1925448328256607,0.28997376561164856,0.3211093842983246,0.1440446972846985,0.03365272656083107
0.55,-0.013552607968449593,0.022657092660665512,0.0,0.6573527455329895,0.0,0.0,-0.7535830140113831,0.46283501386642456,-0.16417406499385834,0.0,0.0,0.0,0.43197372555732727,0.36923545598983765,0.7181576490402222,0.4480035603046417,0.5199252367019653,0.009334931150078773,-0.09245090186595917,-0.8491427898406982,2.425912380218506,-3.0074334144592285,-0.6635467410087585,-7.1722331047058105,5.409722805023193,9.468351364135742,0.367435485124588,0.7354238033294678,0.45324796438217163,2.619809627532959,-2.324510097503662,-0.9662631750106812,0.4541540741920471,0.6244446039199829,0.42000001668930054,-0.3093319237232208,0.9380507469177246,-1.0418446063995361,-3.0000007152557373,-0.2323729246854782,-0.23115397989749908,-0.22815269231796265,-0.19295920431613922,0.262913316488266,0.3113407790660858,0.19913315773010254,-0.003961988724768162
0.5666666666666667,-0.005527972709387541,0.016568224877119064,0.0,0.6435829997062683,0.0,0.0,-0.7653763294219971,0.510259211063385,-0.4437364935874939,0.0,0.0,0.0,-2.901784658432007,0.4076508581638336,0.6833043098449707,0.4274487793445587,0.4940720200538635,-0.03868412971496582,-0.06874120980501175,-0.8658353686332703,1.936630368232727,-2.680697441101074,-1.3130336999893188,-2.424420118331909,-1.335458755493164,12.248604774475098,0.40695565938949585,0.6995223760604858,0.4328247308731079,1.9241211414337158,-2.028587579727173,-1.362939715385437,0.4541540741920471,0.6244446039199829,0.42000001668930054,-0.29966339468955994,0.3374880850315094,-1.0918667316436768,-3.00000262260437,-0.224214106798172,-0.22301225364208221,-0.22225473821163177,-0.19169564545154572,0.4383430480957031,0.44953471422195435,0.34628504514694214,0.04962272197008133
0.5833333333333334,0.003887325059622526,0.013386998325586319,0.0,0.6436066627502441,0.0,0.0,-0.7653564214706421,0.6147632598876953,-0.1218024417757988,0.0,0.0,0.0,0.8975600600242615,0.4292399287223816,0.6591783165931702,0.4207408130168915,0.48579689860343933,-0.009423866868019104,0.014984220266342163,-0.8738923668861389,0.6275895833969116,-1.4744905233383179,0.37247028946876526,7.874980926513672,8.797850608825684,5.530357837677002,0.42778992652893066,0.6723794937133789,0.42441630363464355,0.7273806929588318,-1.1276764869689941,0.1406920999288559,0.4541540741920471,0.6244446039199829,0.42000001668930054,-0.2920089066028595,0.5328237414360046,-1.1418213844299316,-2.991981029510498,-0.21775603294372559,-0.21654842793941498,-0.217212975025177,-0.19176463782787323,0.4538228213787079,0.42158612608909607,0.32911720871925354,-0.003842384787276387
0.6,0.01079235877841711,0.008841126225888729,0.0,0.6322791576385498,0.0,0.0,-0.7747406363487244,0.38383224606513977,-0.2828388512134552,0.0,0.0,0.0,-2.6468935012817383,0.4410356879234314,0.6451079845428467,0.4200856685638428,0.5114061832427979,-0.001268994645215571,0.002532089129090309,-0.859334409236908,0.45042726397514343,-0.8985911011695862,0.012300092726945877,0.6152670383453369,0.798500120639801,8.821967124938965,0.43811678886413574,0.6574410200119019,0.42384618520736694,0.3948604464530945,-0.7514183521270752,-0.01340421475470066,0.4541540741920471,0.6244446039199829,0.42000001668930054,-0.2878442406654358,0.0634753480553627,-1.104080080986023,3.0000014305114746,-0.20638982951641083,-0.20649395883083344,-0.2091216742992401,-0.1898309290409088,0.6033341884613037,0.5465764403343201,0.46300652623176575,0.11334532499313354
0.6166666666666667,0.0190708227455616,0.007894916459918022,0.0,0.6338524222373962,0.0,0.0,-0.7734540104866028,0.4985913038253784,-0.00611064862459898,0.0,0.0,0.0,1.1284198760986328,0.4456463158130646,0.6335209608078003,0.42010682821273804,0.5370424389839172,0.0014048065058887005,-0.0022262539714574814,-0.8435510396957397,0.18471261858940125,-0.560024619102478,0.01630554161965847,-0.45466741919517517,-0.7769801616668701,2.9630799293518066,0.44224047660827637,0.6465083360671997,0.42468202114105225,0.14773762226104736,-0.4676026701927185,0.13986824452877045,0.4541540741920471,0.6244446039199829,0.42000001668930054,-0.30394843220710754,-1.7985963821411133,-1.1267105340957642,-2.9996416568756104,-0.19822821021080017,-0.19922709465026855,-0.20293453335762024,-0.1891724020242691,0.5388999581336975,0.4632394313812256,0.3903478682041168,0.054973751306533813
0.6333333333333333,0.028768297284841537,0.00753058772534132,0.0,0.6235669851303101,0.0,0.0,-0.7817699313163757,0.6203687787055969,-0.0012235547183081508,0.0,0.0,0.0,-2.572474956512451,0.4480189085006714,0.6286023855209351,0.42058414220809937,0.5530381202697754,-0.00934405717998743,0.00618431530892849,-0.833080530166626,0.1212456002831459,-0.2525000274181366,-0.011857510544359684,0.32834532856941223,-0.32070082426071167,4.520042896270752,0.44478553533554077,0.6442943215370178,0.4274362325668335,0.133116215467453,0.024168021976947784,0.19289349019527435,0.4541540741920471,0.6244446039199829,0.42000001668930054,-0.3358294367790222,-1.9851869344711304,-1.1766630411148071,-2.998992681503296,-0.18670684099197388,-0.189732626080513,-0.1951582282781601,-0.18723095953464508,0.7487431168556213,0.6134673357009888,0.5052495002746582,0.16107554733753204
0.65,0.04025549069046974,0.0033803407568484545,0.0,0.6254249811172485,0.0,0.0,-0.7802842855453491,0.7153565883636475,-0.22259514033794403,0.0,0.0,0.0,1.1656913757324219,0.44923582673072815,0.626366913318634,0.42034444212913513,0.57724928855896,-0.0052318694069981575,-0.00027022897847928107,-0.816551148891449,0.011847740039229393,-0.13773438334465027,-0.09020280092954636,-2.550772190093994,-4.821279525756836,2.690903425216675,0.44590044021606445,0.6448198556900024,0.4308452010154724,-0.018185149878263474,-0.020311547443270683,0.2157777100801468,0.4541540741920471,0.6244446039199829,0.42000001668930054,-0.3841833472251892,-2.9999988079071045,-1.2266448736190796,-2.9990482330322266,-0.1729668527841568,-0.17817656695842743,-0.18527044355869293,-0.1827400177717209,0.5844100713729858,0.5124579071998596,0.4706714153289795,0.21286645531654358
0.6666666666666666,0.05142669752240181,0.003158505540341139,0.0,0.6498686671257019,0.0,0.0,-0.7600464820861816,0.6054113507270813,-0.00436762161552906,0.0,0.0,0.0,4.555967807769775,0.4484320282936096,0.6258010864257812,0.4202931821346283,0.5726471543312073,0.004258404485881329,-0.005986460484564304,-0.8197689652442932,-0.12252363562583923,0.05320161208510399,0.051579494029283524,-0.8438051342964172,-2.4391424655914307,-2.854621171951294,0.44455158710479736,0.6456743478775024,0.4343094825744629,-0.1421542763710022,0.20612318813800812,0.22767138481140137,0.4541540741920471,0.6244446039199829,0.42000001668930054,-0.4341362714767456,-2.996337890625,-1.2766081094741821,-2.998995780944824,-0.1656297892332077,-0.17151087522506714,-0.17872354388237,-0.17962870001792908,0.4995308220386505,0.449904203414917,0.4373016357421875,0.24550041556358337
0.6833333333333333,0.06264004856348038,2.9492499379557557e-05,0.0,0.6596113443374634,0.0,0.0,-0.7516068816184998,0.7016600966453552,-0.2274574488401413,0.0,0.0,0.0,0.49266135692596436,0.44670408964157104,0.6265694499015808,0.4203285872936249,0.5644699335098267,0.004657837096601725,-0.006839169654995203,-0.8254121541976929,-0.08346686512231827,0.03513221815228462,-0.015707604587078094,0.284626841545105,0.7477760910987854,-1.6801379919052124,0.44386160373687744,0.6490006446838379,0.4395867884159088,-0.053842879831790924,0.14867427945137024,0.3595421314239502,0.4541540741920471,0.6244446039199829,0.42000001668930054,-0.48413532972335815,-2.997877597808838,-1.3265780210494995,-2.9999754428863525,-0.15793992578983307,-0.1639653444290161,-0.1705969125032425,-0.17350180447101593,0.3674278259277344,0.407575786113739,0.49351921677589417,0.4441210925579071
0.7,0.07548948377370834,-0.0060608768835663795,0.0,0.6463363170623779,0.0,0.0,-0.7630526423454285,0.8033669590950012,-0.43245381116867065,0.0,0.0,0.0,-3.0128114223480225,0.4461687207221985,0.6267803311347961,0.4200000464916229,0.5601558089256287,-1.719019309120995e-07,-5.320527520780161e-07,-0.8283872008323669,-0.003552831709384918,0.0012102369219064713,-1.6130972653627396e-05,0.0013138848589733243,4.8691948904888704e-05,-0.04452057182788849,0.4490202069282532,0.6515816450119019,0.4511025547981262,0.6411402225494385,0.12802329659461975,1.1315895318984985,0.4541540741920471,0.6244446039199829,0.42000001668930054,-0.5341476202011108,-2.9999806880950928,-1.3765963315963745,-2.9999992847442627,-0.15468654036521912,-0.15963105857372284,-0.16441330313682556,-0.16739054024219513,0.10162986814975739,0.18346664309501648,0.31037279963493347,0.33975979685783386
0.7166666666666667,0.09120199829339981,-0.008153903298079967,0.0,0.6108587980270386,0.0,0.0,-0.7917395234107971,0.9650418758392334,-0.1448039412498474,0.0,0.0,0.0,-6.243937969207764,0.4461684823036194,0.6267805099487305,0.4200000464916229,0.5601558685302734,4.2197484617645387e-07,-3.043778178835055e-06,-0.8283872008323669,0.00010040181950898841,-0.0002575649996288121,-7.93561339378357e-05,0.006361339241266251,-0.0011899087112396955,-0.0007641054107807577,0.4693812131881714,0.6487324237823486,0.4759026765823364,1.8564720153808594,-0.36119115352630615,1.941021203994751,0.4541540741920471,0.6244446039199829,0.42000001668930054,-0.584159255027771,-2.9999985694885254,-1.4266146421432495,-2.999999761581421,-0.15914514660835266,-0.16168101131916046,-0.16336768865585327,-0.16463573276996613,-0.23684272170066833,-0.10444225370883942,0.07004911452531815,0.18051336705684662
0.7333333333333333,0.10406915843486786,-0.00895590428262949,0.0,0.5903322696685791,0.0,0.0,-0.8071603775024414,0.6916160583496094,-0.00036601925967261195,0.0,0.0,0.0,-2.0539772510528564,0.4461684823036194,0.6267805099487305,0.4200000464916229,0.5601560473442078,8.560922637457224e-09,-3.12106544697599e-06,-0.8283870816230774,6.472589302575216e-05,-0.00025901279877871275,-8.163833990693092e-05,0.006531492806971073,-0.001880394876934588,-0.0007092959713190794,0.5015352964401245,0.6472771167755127,0.5107430219650269,1.9002480506896973,0.14211106300354004,2.1960935592651367,0.4541540741920471,0.6244446039199829,0.42000001668930054,-0.6037717461585999,0.3691026568412781,-1.4766329526901245,-2.9999988079071045,-0.16150732338428497,-0.16278527677059174,-0.1626376211643219,-0.16294443607330322,-0.05092587321996689,-0.026502573862671852,0.02493126504123211,0.033962659537792206
0.75,0.11193186044692993,-0.007359863258898258,0.0,0.5954885482788086,0.0,0.0,-0.8033638000488281,0.39362064003944397,0.14014317095279694,0.0,0.0,0.0,1.6423925161361694,0.4461684823036194,0.6267804503440857,0.4200000464916229,0.5601558685302734,1.7985387046337564e-07,-2.5785416255530436e-06,-0.8283871412277222,6.856621621409431e-05,-0.00025577572523616254,-8.235103450715542e-05,0.006428453605622053,-0.0018169735558331013,-0.0007115719490684569,0.5274132490158081,0.6512046456336975,0.5427660942077637,1.1678290367126465,0.3374693989753723,1.6986865997314453,0.4541540741920471,0.6244446039199829,0.42000001668930054,-0.5758695602416992,2.748899221420288,-1.4379724264144897,3.0,-0.16081364452838898,-0.16187894344329834,-0.16115659475326538,-0.16142241656780243,0.10737887769937515,0.11177228391170502,0.13185454905033112,0.12772808969020844
0.7666666666666666,0.1155843660235405,-0.00972890667617321,0.0,0.5887244939804077,0.0,0.0,-0.8083337545394897,0.17702852189540863,-0.2194025069475174,0.0,0.0,0.0,-1.9378286600112915,0.4461684823036194,0.6267805099487305,0.4200000464916229,0.5601558685302734,1.474203230600324e-07,-2.608423528727144e-06,-0.8283872008323669,6.754155037924647e-05,-0.0002560203429311514,-8.220458403229713e-05,0.006439558696001768,-0.001832362962886691,-0.0007095687906257808,0.5393959879875183,0.657654881477356,0.5642566680908203,0.23014621436595917,0.4099457859992981,1.0757992267608643,0.4541540741920471,0.6244446039199829,0.42000001668930054,-0.5384175777435303,1.7956833839416504,-1.3879197835922241,2.9999992847442627,-0.15809355676174164,-0.1591484248638153,-0.15825583040714264,-0.15864242613315582,0.13009564578533173,0.14340226352214813,0.15920810401439667,0.16137132048606873
0.7833333333333333,0.11606863886117935,-0.007103532552719116,0.0,0.5946290493011475,0.0,0.0,-0.804000198841095,-0.018235161900520325,0.29213204979896545,0.0,0.0,0.0,1.7525995969772339,0.4461684823036194,0.6267805099487305,0.4200000464916229,0.5601561069488525,1.0192089661131831e-07,-2.622058218548773e-06,-0.8283870816230774,6.866514013381675e-05,-0.0002563551242928952,-8.23349691927433e-05,0.006442754529416561,-0.001817848882637918,-0.0007127530407160521,0.5349515080451965,0.6637147665023804,0.5786622762680054,-0.6668731570243835,0.4026052951812744,0.689799427986145,0.4541540741920471,0.6244446039199829,0.42000001668930054,-0.4945785403251648,3.0000007152557373,-1.3761039972305298,-1.2262197732925415,-0.16136936843395233,-0.16097258031368256,-0.15876904129981995,-0.15811781585216522,-0.24914534389972687,-0.15177388489246368,-0.06801976263523102,0.0024846133310347795
0.8,0.11446945369243622,-0.00765759963542223,0.0,0.5890109539031982,0.0,0.0,-0.8081250190734863,-0.13613376021385193,-0.1402221918106079,0.0,0.0,0.0,-1.8462709188461304,0.4461684823036194,0.6267805099487305,0.4200000464916229,0.5601561069488525,1.1920369757945082e-07,-2.8260992621653713e-06,-0.8283869624137878,6.749531894456595e-05,-0.00025615401682443917,-8.209794759750366e-05,0.006443951744586229,-0.0018308345461264253,-0.0007099054055288434,0.5177747011184692,0.6705030798912048,0.5836365222930908,-1.399977207183838,0.40083837509155273,0.10245125740766525,0.4541540741920471,0.6244446039199829,0.42000001668930054,-0.47647592425346375,-0.5375145673751831,-1.3316348791122437,3.0000007152557373,-0.16282863914966583,-0.16133373975753784,-0.15823625028133392,-0.15676116943359375,-0.018135156482458115,0.037072837352752686,0.07926718145608902,0.12258902192115784
0.8166666666666667,0.1146913394331932,-0.003967474680393934,0.0,0.5951478481292725,0.0,0.0,-0.8036162257194519,0.015874402597546577,0.1535586714744568,0.0,0.0,0.0,1.3851653337478638,0.4461684823036194,0.6267805099487305,0.4200000464916229,0.5601561069488525,3.46706627851745e-08,-3.081784143432742e-06,-0.8283870816230774,6.376470264513046e-05,-0.00025947505491785705,-8.138781413435936e-05,0.006549047771841288,-0.0018924771575257182,-0.0007079415954649448,0.49483606219291687,0.6770009994506836,0.5845149159431458,-1.1520065069198608,0.5727728009223938,-0.0010288134217262268,0.4541540741920471,0.6244446039199829,0.42000001668930054,-0.46585091948509216,1.6221474409103394,-1.3509812355041504,-2.999999761581421,-0.167720228433609,-0.16474862396717072,-0.16043052077293396,-0.15769539773464203,0.003762679174542427,0.0018922631861642003,-0.0053526125848293304,0.004660742357373238
0.8333333333333334,0.11676817387342453,-0.005232795607298613,0.0,0.6184936165809631,0.0,0.0,-0.7857897877693176,0.16923177242279053,-0.09169565886259079,0.0,0.0,0.0,4.771071434020996,0.4461684823036194,0.6267804503440857,0.4200000464916229,0.5601559281349182,1.5979956913270144e-07,-2.537210320951999e-06,-0.8283871412277222,6.843594746896997e-05,-0.0002558190899435431,-8.231704123318195e-05,0.006430238950997591,-0.0018186741508543491,-0.0007113665342330933,0.4752892553806305,0.6850148439407349,0.5837843418121338,-1.23634672164917,0.34569209814071655,-0.018214793875813484,0.4541540741920471,0.6244446039199829,0.42000001668930054,-0.48463740944862366,-3.0000011920928955,-1.3126736879348755,3.0000007152557373,-0.16632170975208282,-0.1632457673549652,-0.15887486934661865,-0.15572430193424225,1.5133991837501526e-09,0.042469680309295654,0.07950688153505325,0.13857893645763397
0.85,0.12128596752882004,-0.009053184650838375,0.0,0.6288020610809326,0.0,0.0,-0.7775654196739197,0.31962987780570984,-0.263637900352478,0.0,0.0,0.0,0.49884024262428284,0.4461684823036194,0.6267805099487305,0.4200000464916229,0.5601556897163391,1.3260945763704513e-07,-2.5676545192254707e-06,-0.8283873200416565,6.798272806918249e-05,-0.0002564838214311749,-8.228281512856483e-05,0.006448876578360796,-0.0018291701562702656,-0.0007113228784874082,0.4604799151420593,0.6893342733383179,0.5775653123855591,-0.5791432857513428,0.1260964274406433,-0.5203922390937805,0.4541540741920471,0.6244446039199829,0.42000001668930054,-0.5346385836601257,-3.000000476837158,-1.2993463277816772,-1.0603418350219727,-0.16744273900985718,-0.16321749985218048,-0.15769635140895844,-0.15294547379016876,-0.09826904535293579,-0.005406202282756567,0.09048242121934891,0.21600307524204254
0.8666666666666667,0.12808531522750854,-0.015566766262054443,0.0,0.6160325407981873,0.0,0.0,-0.7877207398414612,0.4496232271194458,-0.45529454946517944,0.0,0.0,0.0,-2.8281149864196777,0.4461684823036194,0.6267805099487305,0.4200000464916229,0.5601561069488525,1.1596834781357757e-07,-2.7680364382831613e-06,-0.8283870816230774,6.712888716720045e-05,-0.00025621545501053333,-8.201273158192635e-05,0.006447664462029934,-0.0018350930185988545,-0.0007091733859851956,0.45591458678245544,0.6881800889968872,0.570582926273346,0.002092033624649048,-0.24074940383434296,-0.14873827993869781,0.4541540741920471,0.6244446039199829,0.42000001668930054,-0.5846459269523621,-2.999979019165039,-1.3461904525756836,-3.000000238418579,-0.17070059478282928,-0.1647610068321228,-0.15744814276695251,-0.1504017859697342,-0.20614001154899597,-0.10277459025382996,0.006002132315188646,0.14491932094097137
0.8833333333333333,0.13797317445278168,-0.018870558589696884,0.0,0.5817837119102478,0.0,0.0,-0.8133435249328613,0.6282883286476135,-0.18004430830478668,0.0,0.0,0.0,-5.923208236694336,0.4461684823036194,0.6267805099487305,0.4200000464916229,0.5601561665534973,2.5097266487250636e-08,-3.025552132385201e-06,-0.8283869624137878,6.335134094115347e-05,-0.0002591421362012625,-8.125323802232742e-05,0.006543060764670372,-0.0018944639014080167,-0.0007065593963488936,0.46459442377090454,0.6807301044464111,0.5688719153404236,1.00026273727417,-0.5086711049079895,0.1008121445775032,0.4541540741920471,0.6244446039199829,0.42000001668930054,-0.6038767695426941,0.4094744920730591,-1.3962087631225586,-2.999990940093994,-0.17627087235450745,-0.16883012652397156,-0.15997309982776642,-0.15094925463199615,-0.21295060217380524,-0.17609690129756927,-0.13619589805603027,-0.07025811076164246
0.9,0.14535003900527954,-0.020328661426901817,0.0,0.5634491443634033,0.0,0.0,-0.8261507749557495,0.36292919516563416,-0.04625196382403374,0.0,0.0,0.0,-1.6187899112701416,0.4461684823036194,0.6267805099487305,0.4200000464916229,0.5601558685302734,1.7087891990286153e-07,-2.4822568320814753e-06,-0.8283872604370117,6.799633410992101e-05,-0.00025586914853192866,-8.220039308071136e-05,0.006434137001633644,-0.0018232939764857292,-0.0007104271790012717,0.48088136315345764,0.6775539517402649,0.5732954740524292,0.9066237211227417,0.02192319929599762,0.32842642068862915,0.4541540741920471,0.6244446039199829,0.42000001668930054,-0.5753264427185059,2.7866029739379883,-1.357764482498169,2.999999761581421,-0.17700622975826263,-0.16987217962741852,-0.16129735112190247,-0.1521616131067276,0.07428845763206482,0.010723208077251911,-0.05385882779955864,-0.0978383868932724
