vladlanda/robotic-transformer/data/env_000_episode_0142.csv
sim_time_s,robot_box_x,robot_box_y,robot_box_z,robot_box_quat_w,robot_box_quat_x,robot_box_quat_y,robot_box_quat_z,robot_box_linvel_x,robot_box_linvel_y,robot_box_linvel_z,robot_box_angvel_x,robot_box_angvel_y,robot_box_angvel_z,cube_world_x,cube_world_y,cube_world_z,cube_quat_w,cube_quat_x,cube_quat_y,cube_quat_z,cube_linvel_x,cube_linvel_y,cube_linvel_z,cube_angvel_x,cube_angvel_y,cube_angvel_z,endpoint_world_x,endpoint_world_y,endpoint_world_z,endpoint_linvel_x,endpoint_linvel_y,endpoint_linvel_z,target_cube_world_x,target_cube_world_y,target_cube_world_z,gripper_actual_pos_rad_gp_leftgearjoint,gripper_actual_vel_rad_s_gp_leftgearjoint,gripper_actual_pos_rad_gp_rotatingjoint,gripper_actual_vel_rad_s_gp_rotatingjoint,motor_angle_rad_joint1,motor_angle_rad_joint2,motor_angle_rad_joint3,motor_angle_rad_joint4,motor_speed_rad_s_joint1,motor_speed_rad_s_joint2,motor_speed_rad_s_joint3,motor_speed_rad_s_joint4
0.0,0.0,0.0,0.0,1.0,0.0,0.0,0.0,0.0,0.0,0.0,0.0,0.0,0.0,-0.4552460312843323,0.6919853091239929,0.41999998688697815,1.0,0.0,0.0,0.0,0.0,0.0,0.0,0.0,0.0,0.0,3.42540442943573e-06,-0.005000244826078415,1.313499927520752,0.0,0.0,0.0,0.3295768201351166,0.6913977265357971,0.42000001668930054,-1.5707999467849731,0.0,0.0,0.0,0.0,0.0,0.0,0.0,0.0,0.0,0.0,0.0
0.016666666666666666,0.0028778850100934505,0.0021806680597364902,0.0,0.9998081922531128,0.0,0.0,0.019586581736803055,0.24087215960025787,0.18240931630134583,0.0,0.0,0.0,3.1418697834014893,-0.4552461504936218,0.691985011100769,0.41999998688697815,1.0,3.2799832752061775e-06,-8.339598593920527e-07,8.465660528145236e-08,-1.9833856640616432e-05,0.00017983021098189056,-6.132945418357849e-05,0.0009432561928406358,-0.004689492750912905,-0.0003198107879143208,-0.007110234349966049,0.003379564033821225,1.3159373998641968,-0.8143353462219238,0.9868683815002441,0.18095196783542633,0.3295768201351166,0.6913977265357971,0.42000001668930054,-1.5301095247268677,3.0000011920928955,-0.04584788903594017,-2.9999992847442627,0.0008691533003002405,0.0007963840034790337,0.0007110277656465769,0.0006108740926720202,0.11094217747449875,0.09756709635257721,0.08334315568208694,0.06823883205652237
0.03333333333333333,0.008960963226854801,0.0068018436431884766,0.0,0.9997960329055786,0.0,0.0,0.020196836441755295,0.40701964497566223,0.3153058886528015,0.0,0.0,0.0,-0.8691299557685852,-0.4552462697029114,0.6919849514961243,0.4200000464916229,1.0,3.3908236218849197e-06,-2.1324740373529494e-06,-3.7087911408661967e-08,0.0002635786950122565,0.00026937879738397896,-0.00010509719140827656,-0.0017707741353660822,0.004130927845835686,-0.00013548358401749283,-0.027544133365154266,0.02587219513952732,1.3166464567184448,-1.5913166999816895,1.6077473163604736,-0.0790492594242096,0.3295768201351166,0.6913977265357971,0.42000001668930054,-1.4800904989242554,3.0000007152557373,-0.09588771313428879,-3.000000238418579,0.0029901862144470215,0.0026528292801231146,0.0022774306125938892,0.001860913704149425,0.1642281711101532,0.13977426290512085,0.11383561789989471,0.08631982654333115
0.05,0.017759568989276886,0.013772946782410145,0.0,0.9993746876716614,0.0,0.0,0.035358838737010956,0.5939763188362122,0.4651605784893036,0.0,0.0,0.0,2.647448778152466,-0.45524629950523376,0.691985011100769,0.4200000464916229,1.0,3.7651166167051997e-06,-2.2119024833955336e-06,5.637348365894468e-09,0.0002653102274052799,0.00026691530365496874,-0.0001044049859046936,-0.0017243424663320184,0.004177475813776255,-0.00012949523807037622,-0.059675708413124084,0.053416382521390915,1.3117924928665161,-2.187593460083008,1.7326953411102295,-0.46493929624557495,0.3295768201351166,0.6913977265357971,0.42000001668930054,-1.4300721883773804,3.000001907348633,-0.1459263563156128,-2.9999992847442627,0.0057127876207232475,0.004920641425997019,0.004056350793689489,0.0031154733151197433,0.19281980395317078,0.15592491626739502,0.11715396493673325,0.076414093375206
0.06666666666666667,0.029077546671032906,0.023067714646458626,0.0,0.9994471669197083,0.0,0.0,0.03324626013636589,0.720527172088623,0.5952808856964111,0.0,0.0,0.0,-1.2118215560913086,-0.45524629950523376,0.6919849514961243,0.4200000464916229,0.9999999403953552,3.4067338674503844e-06,-2.2856738723930903e-06,4.301002434203838e-07,0.0002670263347681612,0.0002679180761333555,-0.00010437914170324802,-0.001740648876875639,0.004211838357150555,-0.00012851078645326197,-0.0982140451669693,0.08719511330127716,1.2993910312652588,-2.451539993286133,2.206219434738159,-0.9977894425392151,0.3295768201351166,0.6913977265357971,0.42000001668930054,-1.3800538778305054,2.999997615814209,-0.19596369564533234,-2.9999992847442627,0.008311085402965546,0.0068343523889780045,0.005246712360531092,0.003542304504662752,0.15326979756355286,0.10277660936117172,0.050249893218278885,-0.0043915631249547005
0.08333333333333333,0.034593790769577026,0.0356966033577919,0.0,0.9997715950012207,0.0,0.0,0.021372096613049507,0.18720820546150208,0.8236013650894165,0.0,0.0,0.0,-1.4980146884918213,-0.45524629950523376,0.6919849514961243,0.4200000464916229,0.9999999403953552,3.6260375964047853e-06,-2.335399813091499e-06,3.0323869282256055e-07,0.0002661397447809577,0.0002668508095666766,-0.00010405457578599453,-0.0017283371416851878,0.004196438007056713,-0.00012790974869858474,-0.13951662182807922,0.1255803257226944,1.2775925397872925,-2.487671375274658,2.3647239208221436,-1.5165207386016846,0.3295768201351166,0.6913977265357971,0.42000001668930054,-1.3300241231918335,2.9999988079071045,-0.18819716572761536,3.0,0.005467388778924942,0.0034584864042699337,0.0012887467164546251,-0.0010519991628825665,-0.26644718647003174,-0.30327799916267395,-0.3426375389099121,-0.3848254382610321
0.1,0.044395141303539276,0.04968254640698433,0.0,0.9999342560768127,0.0,0.0,-0.011467380449175835,0.7200974225997925,0.8585281372070312,0.0,0.0,0.0,-4.7668986320495605,-0.45524629950523376,0.6919849514961243,0.4200000464916229,1.0,3.4220713587274076e-06,-2.3086856799636735e-06,1.7965174947676132e-07,0.0002668143715709448,0.00026800335035659373,-0.00010440708138048649,-0.0017429604195058346,0.0042070322670042515,-0.00012891279766336083,-0.17687229812145233,0.16818644106388092,1.2548178434371948,-2.056523323059082,2.7247138023376465,-1.3140456676483154,0.3295768201351166,0.6913977265357971,0.42000001668930054,-1.2800227403640747,2.9999983310699463,-0.2197444885969162,-3.000000238418579,0.005724749527871609,0.0021516364067792892,-0.0015816815430298448,-0.005485623609274626,0.05584607273340225,-0.059277258813381195,-0.17351655662059784,-0.2867812514305115
0.11666666666666667,0.05183928459882736,0.06394215673208237,0.0,0.9996621012687683,0.0,0.0,-0.0259938333183527,0.41288459300994873,0.859499454498291,0.0,0.0,0.0,-0.680461049079895,-0.45524629950523376,0.691985011100769,0.4200000464916229,1.0,3.7114145925443154e-06,-2.3327797862293664e-06,2.5745856646608445e-07,0.00026485841954126954,0.0002663533086888492,-0.0001042329240590334,-0.0017181563889607787,0.004170076455920935,-0.0001291552762268111,-0.21563531458377838,0.21076634526252747,1.2309694290161133,-2.3726096153259277,2.6711463928222656,-1.4633002281188965,0.3295768201351166,0.6913977265357971,0.42000001668930054,-1.230001449584961,2.9999935626983643,-0.18581458926200867,2.9999992847442627,0.004111660178750753,-0.001231155009008944,-0.006710567511618137,-0.01233622431755066,-0.03871431574225426,-0.1587882936000824,-0.27593958377838135,-0.3899990916252136
0.13333333333333333,0.05613384768366814,0.07549650222063065,0.0,0.9986329674720764,0.0,0.0,-0.05227087065577507,0.19941484928131104,0.6263663172721863,0.0,0.0,0.0,-3.9597744941711426,-0.45524629950523376,0.6919849514961243,0.4200000464916229,1.0,3.33562343257654e-06,-2.231935468444135e-06,3.113336504156905e-07,0.0002666971704456955,0.00026759487809613347,-0.00010428461246192455,-0.001737144310027361,0.004205835517495871,-0.00012839905684813857,-0.2523823380470276,0.25955796241760254,1.20589280128479,-2.064361095428467,3.16448974609375,-1.5746017694473267,0.3295768201351166,0.6913977265357971,0.42000001668930054,-1.1800130605697632,3.0000009536743164,-0.2173713594675064,-3.0000009536743164,0.002345011569559574,-0.005101383198052645,-0.012619874440133572,-0.020216822624206543,-0.17960074543952942,-0.3019157350063324,-0.42016059160232544,-0.5341479778289795
0.15,0.056860387325286865,0.08800787478685379,0.0,0.9945579767227173,0.0,0.0,-0.10418476909399033,-0.018108278512954712,0.8026045560836792,0.0,0.0,0.0,-7.1204118728637695,-0.45524629950523376,0.6919849514961243,0.4200000464916229,1.0,3.5188593301427318e-06,-2.2830813577456865e-06,-3.625297324560961e-07,0.00026618369156494737,0.0002673570706974715,-0.00010425481013953686,-0.001734902267344296,0.00419566361233592,-0.00012860818242188543,-0.2881068289279938,0.3160715103149414,1.174120545387268,-2.1055471897125244,3.604299545288086,-2.2349624633789062,0.3295768201351166,0.6913977265357971,0.42000001668930054,-1.1402578353881836,1.836469292640686,-0.1834927797317505,3.000001907348633,-0.0022900633048266172,-0.011514843441545963,-0.02073274552822113,-0.029948052018880844,-0.3585837483406067,-0.4436153471469879,-0.5240355730056763,-0.599831759929657
0.16666666666666666,0.06276988238096237,0.10318820178508759,0.0,0.9903815984725952,0.0,0.0,-0.1383630335330963,0.48223909735679626,0.9723240733146667,0.0,0.0,0.0,-3.120961904525757,-0.45524629950523376,0.6919849514961243,0.4200000464916229,1.0,3.6665835523308488e-06,-2.3391182821796974e-06,-3.149922918055381e-07,0.000265958602540195,0.00026667420752346516,-0.00010403734631836414,-0.001725313370116055,0.0041927797719836235,-0.00012778645032085478,-0.3272281587123871,0.3727185130119324,1.1329926252365112,-2.2289974689483643,3.5879673957824707,-2.7143168449401855,0.3295768201351166,0.6913977265357971,0.42000001668930054,-1.0948011875152588,3.000000476837158,-0.21502910554409027,-2.999999523162842,-0.005530715454369783,-0.016207922250032425,-0.02678816206753254,-0.03727715462446213,-0.19387170672416687,-0.2681240141391754,-0.3373706340789795,-0.4017544984817505
0.18333333333333332,0.06497762352228165,0.11546840518712997,0.0,0.9825965762138367,0.0,0.0,-0.18575243651866913,0.09712433815002441,0.7296649813652039,0.0,0.0,0.0,-6.431447982788086,-0.45524629950523376,0.6919849514961243,0.4200000464916229,1.0,3.8143025449244305e-06,-2.399538061581552e-06,-2.702604433579836e-07,0.00026549160247668624,0.0002661106991581619,-0.00010391208343207836,-0.0017177729168906808,0.004184826277196407,-0.0001275383838219568,-0.3627285361289978,0.435165137052536,1.0812041759490967,-1.8564674854278564,4.048892021179199,-3.427093982696533,0.3295768201351166,0.6913977265357971,0.42000001668930054,-1.0478944778442383,2.6203298568725586,-0.265057772397995,-3.000000238418579,-0.015801867470145226,-0.02676849626004696,-0.03760197013616562,-0.04831763356924057,-0.7192897200584412,-0.7203112244606018,-0.7195447087287903,-0.7175253629684448
0.2,0.06392193585634232,0.1284390091896057,0.0,0.9773298501968384,0.0,0.0,-0.21172235906124115,-0.1353253573179245,0.8252911567687988,0.0,0.0,0.0,-2.1241817474365234,-0.45524629950523376,0.6919849514961243,0.4200000464916229,1.0,3.6000003547087545e-06,-2.291237706231186e-06,-2.2017823653186497e-07,0.00026573086506687105,0.0002664501662366092,-0.00010398100130259991,-0.0017227214993909001,0.0041888258419930935,-0.00012773244816344231,-0.3972315788269043,0.4965495467185974,1.0172884464263916,-1.885072946548462,3.684093713760376,-4.2204976081848145,0.3295768201351166,0.6913977265357971,0.42000001668930054,-0.999454915523529,3.0,-0.31508466601371765,-2.999999761581421,-0.02918168157339096,-0.03975452110171318,-0.05016254633665085,-0.0604332871735096,-0.864519476890564,-0.8210629820823669,-0.7762653827667236,-0.7309244871139526
0.21666666666666667,0.06602846086025238,0.13846874237060547,0.0,0.9684326648712158,0.0,0.0,-0.24927537143230438,0.1913858950138092,0.4961705803871155,0.0,0.0,0.0,-5.367160797119141,-0.45524629950523376,0.6919849514961243,0.4200000464916229,0.9999999403953552,3.6396120322024217e-06,-2.2620149593421957e-06,2.2248472930641583e-07,0.0002668747620191425,0.0002675442665349692,-0.00010411837138235569,-0.0017403680831193924,0.004211135674268007,-0.00012783527199644595,-0.42661237716674805,0.5580471754074097,0.9393328428268433,-1.4820780754089355,3.64520263671875,-5.051126480102539,0.3295768201351166,0.6913977265357971,0.42000001668930054,-0.9494498372077942,3.000000238418579,-0.36511343717575073,-2.999999761581421,-0.04403173178434372,-0.05419938266277313,-0.063557468354702,-0.07275442779064178,-0.9675543308258057,-0.9542731046676636,-0.8714529275894165,-0.7863683104515076
0.23333333333333334,0.06312140077352524,0.1507597416639328,0.0,0.9631861448287964,0.0,0.0,-0.26883530616760254,-0.15249502658843994,0.7171755433082581,0.0,0.0,0.0,-1.3760137557983398,-0.4552462697029114,0.6919849514961243,0.4200000464916229,1.0,3.420692110012169e-06,-2.3168713596533053e-06,2.955990510145057e-07,0.00026680133305490017,0.00026803885702975094,-0.0001044226810336113,-0.001743639470078051,0.004206772428005934,-0.0001289946085307747,-0.44963669776916504,0.6054356098175049,0.8500585556030273,-1.0965701341629028,2.5286006927490234,-5.510149002075195,0.3295768201351166,0.6913977265357971,0.42000001668930054,-0.8994391560554504,2.999973773956299,-0.4151439070701599,-2.999997138977051,-0.06041860952973366,-0.07050107419490814,-0.0798371285200119,-0.08902014791965485,-0.7347900867462158,-0.7696888446807861,-0.8060070872306824,-0.840194046497345
0.25,0.06564757227897644,0.15831883251667023,0.0,0.9538149237632751,0.0,0.0,-0.30039483308792114,0.16256241500377655,0.3936561942100525,0.0,0.0,0.0,-4.576286792755127,-0.45524629950523376,0.6919849514961243,0.4200000464916229,0.9999999403953552,3.3476046610303456e-06,-2.259236225654604e-06,1.8083763109189022e-07,0.0002668767119757831,0.0002679122262634337,-0.00010439427569508553,-0.0017404244281351566,0.004208163358271122,-0.00012870550563093275,-0.46603643894195557,0.6453256607055664,0.7526891231536865,-0.675750732421875,2.1119120121002197,-6.08493709564209,0.3295768201351166,0.6913977265357971,0.42000001668930054,-0.8494285941123962,2.9999985694885254,-0.46517542004585266,-3.000002384185791,-0.07317457348108292,-0.08343091607093811,-0.09290724247694016,-0.10222980380058289,-0.9899658560752869,-0.9789904952049255,-0.9370547533035278,-0.8981143832206726
0.26666666666666666,0.06373469531536102,0.1628592163324356,0.0,0.95000159740448,0.0,0.0,-0.31224513053894043,-0.190851628780365,0.20415768027305603,0.0,0.0,0.0,-0.48298531770706177,-0.45524629950523376,0.6919849514961243,0.4200000464916229,0.9999999403953552,3.535753194228164e-06,-2.3003594833426178e-06,-1.2686646755355468e-07,0.0002660174504853785,0.00026712234830483794,-0.00010419590398669243,-0.001731633092276752,0.004192822612822056,-0.0001284947502426803,-0.4753584861755371,0.6682302951812744,0.6541289687156677,-0.23676979541778564,0.8425918221473694,-5.712380409240723,0.3295768201351166,0.6913977265357971,0.42000001668930054,-0.7994194626808167,3.0,-0.515206515789032,-3.000001907348633,-0.09057103097438812,-0.10062824189662933,-0.10996197909116745,-0.11917945742607117,-1.007780909538269,-1.0058372020721436,-1.0043615102767944,-1.0031927824020386
0.2833333333333333,0.0586409866809845,0.16391028463840485,0.0,0.942169189453125,0.0,0.0,-0.3351375460624695,-0.3204072415828705,-0.0002708706888370216,0.0,0.0,0.0,-3.7265892028808594,-0.45524629950523376,0.691985011100769,0.4200000464916229,1.0,3.5935188407165697e-06,-2.262744601466693e-06,-5.655506285506817e-08,0.00026704822084866464,0.000267749244812876,-0.00010416633449494839,-0.0017431654268875718,0.004214244429022074,-0.00012789323227480054,-0.4746573567390442,0.6791875958442688,0.5600594282150269,0.29471954703330994,0.5267444849014282,-5.570691108703613,0.3295768201351166,0.6913977265357971,0.42000001668930054,-0.7494106888771057,2.9999988079071045,-0.5652362108230591,-3.0000007152557373,-0.10707873106002808,-0.11713573336601257,-0.126508891582489,-0.13577699661254883,-1.000467300415039,-1.0003318786621094,-1.0002329349517822,-1.0001561641693115
0.3,0.051654841750860214,0.16215570271015167,0.0,0.9404035806655884,0.0,0.0,-0.34006044268608093,-0.45171043276786804,-0.1466691642999649,0.0,0.0,0.0,0.32237714529037476,-0.4552462697029114,0.6919849514961243,0.4200000464916229,0.9999999403953552,3.725037913682172e-06,-2.236182581327739e-06,3.828752426215942e-07,0.0002647983201313764,0.0002667314256541431,-0.00010453932918608189,-0.001718917046673596,0.004166685976088047,-0.00013016501907259226,-0.46918338537216187,0.686331033706665,0.4716547727584839,0.504513144493103,0.27038443088531494,-5.0527873039245605,0.3295768201351166,0.6913977265357971,0.42000001668930054,-0.6994028091430664,3.000000476837158,-0.6152639985084534,-3.0000009536743164,-0.1242547258734703,-0.13419494032859802,-0.14348329603672028,-0.1526869833469391,-1.0094330310821533,-1.0071430206298828,-1.0053967237472534,-1.0039973258972168
0.31666666666666665,0.042752329260110855,0.15804623067378998,0.0,0.9386208057403564,0.0,0.0,-0.34495067596435547,-0.5738081336021423,-0.28665995597839355,0.0,0.0,0.0,-1.0792226791381836,-0.45515090227127075,0.6916595101356506,0.41999781131744385,0.9999785423278809,0.00020610439241863787,3.444116737227887e-05,-0.0065367212519049644,0.02466931939125061,-0.09920036792755127,-0.006432421505451202,-0.3220641314983368,-0.10080011188983917,-4.791164398193359,-0.46447813510894775,0.6897321939468384,0.42756402492523193,0.10582888126373291,-0.006961967796087265,-0.25081607699394226,0.3295768201351166,0.6913977265357971,0.42000001668930054,-0.6493982672691345,3.000002384185791,-0.6656787991523743,-2.999763011932373,-0.13685257732868195,-0.14671894907951355,-0.15580181777477264,-0.16461989283561707,-0.4993787705898285,-0.48257318139076233,-0.4493335783481598,-0.3944295644760132
0.3333333333333333,0.03169797733426094,0.1516074538230896,0.0,0.9433093667030334,0.0,0.0,-0.33191487193107605,-0.7075549960136414,-0.42694759368896484,0.0,0.0,0.0,2.5230207443237305,-0.4547618329524994,0.6907942295074463,0.4200000464916229,0.9997848272323608,-4.141107865507365e-07,-3.5480104543239577e-07,-0.020739668980240822,0.020237943157553673,-0.034156352281570435,-1.7793849110603333e-05,0.0008592335507273674,-6.438051514123799e-06,-1.1028578281402588,-0.4646252989768982,0.6958750486373901,0.42425471544265747,0.05269089341163635,0.46159470081329346,-0.20015642046928406,0.3295768201351166,0.6913977265357971,0.42000001668930054,-0.5993929505348206,2.999974012374878,-0.7157465219497681,-2.999999761581421,-0.14561055600643158,-0.15471550822257996,-0.16277801990509033,-0.1702302247285843,-0.5165155529975891,-0.45573511719703674,-0.3812123239040375,-0.2875497043132782
0.35,0.018367554992437363,0.14288900792598724,0.0,0.9423479437828064,0.0,0.0,-0.3346346616744995,-0.8409773707389832,-0.5629051327705383,0.0,0.0,0.0,-1.3023185729980469,-0.4521409571170807,0.6943013668060303,0.4200150668621063,0.996421754360199,0.0003231203299947083,-0.00019538095511961728,-0.08451946824789047,0.16272735595703125,0.21828478574752808,-0.02255116030573845,-1.103921890258789,0.09598297625780106,-7.604434967041016,-0.4615924060344696,0.6999585628509521,0.4210304617881775,0.364218533039093,0.24255037307739258,-0.18892188370227814,0.3295768201351166,0.6913977265357971,0.42000001668930054,-0.5493879914283752,2.9999802112579346,-0.7657986879348755,-2.9999990463256836,-0.1555185317993164,-0.1628514975309372,-0.16887728869915009,-0.17395175993442535,-0.6231551170349121,-0.48135530948638916,-0.32358619570732117,-0.14591898024082184
0.36666666666666664,0.006738739553838968,0.13170397281646729,0.0,0.9459943771362305,0.0,0.0,-0.32418307662010193,-0.6265767812728882,-0.7157690525054932,0.0,0.0,0.0,2.3284430503845215,-0.4472067952156067,0.7017874121665955,0.4200281500816345,0.990017294883728,8.981514110928401e-05,-0.00012759972014464438,-0.1409454643726349,0.41037338972091675,0.6722318530082703,0.022502264007925987,0.12805888056755066,-0.15535829961299896,-5.5416975021362305,-0.45578014850616455,0.7073776721954346,0.42164063453674316,0.45689982175827026,0.6237134337425232,-0.01071343943476677,0.3295768201351166,0.6913977265357971,0.42000001668930054,-0.4993830621242523,2.999992609024048,-0.8158228397369385,-3.0000007152557373,-0.1669204980134964,-0.17116332054138184,-0.17382799088954926,-0.17522820830345154,-0.6793169379234314,-0.47846412658691406,-0.26178115606307983,-0.02736610360443592
0.3833333333333333,-0.0064750188030302525,0.11859530955553055,0.0,0.9445650577545166,0.0,0.0,-0.3283243477344513,-0.8019645810127258,-0.83352130651474,0.0,0.0,0.0,-1.4829894304275513,-0.4382547438144684,0.7151487469673157,0.4199974834918976,0.9820700287818909,0.00021544752235058695,-8.724621147848666e-05,-0.18851615488529205,0.6026442050933838,0.8593130707740784,-0.002830793149769306,-0.11223571002483368,0.14139573276042938,-6.100959300994873,-0.44398611783981323,0.7187364101409912,0.4203481674194336,0.8151256442070007,0.6910214424133301,0.12300602346658707,0.3295768201351166,0.6913977265357971,0.42000001668930054,-0.4493348002433777,3.0000033378601074,-0.8658323287963867,-2.9999730587005615,-0.17884692549705505,-0.17929042875766754,-0.17786648869514465,-0.17488013207912445,-0.5507466793060303,-0.3369137942790985,-0.10210104286670685,0.1539381444454193
0.4,-0.016389675438404083,0.10282143205404282,0.0,0.9332554936408997,0.0,0.0,-0.35921332240104675,-0.5235395431518555,-0.9940045475959778,0.0,0.0,0.0,-4.781702995300293,-0.42148056626319885,0.7302504777908325,0.42310571670532227,0.96872478723526,-0.031791314482688904,-0.01698901876807213,-0.24550534784793854,1.4218698740005493,0.6376937031745911,0.06260036677122116,32.02302551269531,-15.781846046447754,7.752466678619385,-0.42684683203697205,0.7346100807189941,0.4228959083557129,1.306746482849121,1.1308865547180176,0.33525919914245605,0.3295768201351166,0.6913977265357971,0.42000001668930054,-0.40235596895217896,2.0614161491394043,-0.915847659111023,-2.9998161792755127,-0.18679484724998474,-0.18377308547496796,-0.17848804593086243,-0.17125901579856873,-0.4284147024154663,-0.22197510302066803,0.00691780261695385,0.25688639283180237
0.4166666666666667,-0.02216321974992752,0.08419754356145859,0.0,0.9101454019546509,0.0,0.0,-0.4142889678478241,-0.27818620204925537,-1.168642282485962,0.0,0.0,0.0,-8.0101957321167,-0.3919373154640198,0.7537209987640381,0.4286501407623291,0.9526503086090088,-0.023119792342185974,-0.0479791983962059,-0.2993674874305725,2.5529589653015137,1.2633916139602661,0.6360506415367126,17.834510803222656,-8.863842964172363,17.819028854370117,-0.3968954086303711,0.7579141855239868,0.42820462584495544,2.3037304878234863,1.753770112991333,0.5714423060417175,0.3295768201351166,0.6913977265357971,0.42000001668930054,-0.38165783882141113,0.8882218599319458,-0.9479662775993347,-1.019243836402893,-0.19420868158340454,-0.18783260881900787,-0.17889399826526642,-0.16774633526802063,-0.4477662146091461,-0.24696466326713562,-0.03341515734791756,0.1902470588684082
0.43333333333333335,-0.02593790926039219,0.07013645768165588,0.0,0.871734619140625,0.0,0.0,-0.4899783730506897,-0.19098451733589172,-0.721750020980835,0.0,0.0,0.0,-10.93968391418457,-0.328241765499115,0.7884761691093445,0.43658560514450073,0.9298058748245239,0.03317096829414368,-0.09260024130344391,-0.35466310381889343,5.201395034790039,1.9156779050827026,0.4903135895729065,14.818866729736328,-10.052997589111328,18.79718017578125,-0.3330652117729187,0.7930222749710083,0.435828298330307,5.056031227111816,2.6206486225128174,0.5478342771530151,0.3295768201351166,0.6913977265357971,0.42000001668930054,-0.3658892810344696,0.9484928846359253,-0.903528094291687,2.9970269203186035,-0.20842838287353516,-0.19754032790660858,-0.1836613565683365,-0.16781452298164368,-0.9052302837371826,-0.6666746735572815,-0.3701356053352356,-0.10120923072099686
0.45,-0.033882323652505875,0.06324251741170883,0.0,0.8132739663124084,0.0,0.0,-0.5818809866905212,-0.5924442410469055,-0.4245832860469818,0.0,0.0,0.0,-13.798999786376953,-0.2245788872241974,0.8257690668106079,0.4479202926158905,0.8949522972106934,0.0649794340133667,-0.10911555588245392,-0.42770540714263916,7.144386291503906,1.7316032648086548,0.8222029209136963,7.432317733764648,-10.814237594604492,9.662712097167969,-0.22886806726455688,0.8316395878791809,0.44734060764312744,7.173222541809082,2.34366512298584,0.8734221458435059,0.3295768201351166,0.6913977265357971,0.42000001668930054,-0.349795401096344,1.021515130996704,-0.9270358085632324,-3.0000011920928955,-0.2228163778781891,-0.21211013197898865,-0.19598941504955292,-0.17489448189735413,-0.6104255318641663,-0.6793925762176514,-0.7517428994178772,-0.501097559928894
0.4666666666666667,-0.03823178634047508,0.05561373010277748,0.0,0.7595200538635254,0.0,0.0,-0.6504839062690735,-0.13871535658836365,-0.4739389419555664,0.0,0.0,0.0,-9.20538330078125,-0.10662034153938293,0.8489977717399597,0.46077093482017517,0.8517805933952332,0.10683303326368332,-0.12598882615566254,-0.4971751868724823,7.058775424957275,0.18649610877037048,0.8691327571868896,28.153705596923828,-10.65005111694336,27.214752197265625,-0.11103244125843048,0.8590930104255676,0.460155725479126,7.063394546508789,0.9687798023223877,0.7075175642967224,0.3295768201351166,0.6913977265357971,0.42000001668930054,-0.3317883014678955,0.9363438487052917,-0.8899203538894653,2.9944465160369873,-0.2340964823961258,-0.2226831614971161,-0.20626667141914368,-0.18085913360118866,-0.583160936832428,-0.5218885540962219,-0.49383023381233215,-0.28263455629348755
0.48333333333333334,-0.04244834929704666,0.050986334681510925,0.0,0.727451741695404,0.0,0.0,-0.6861588358879089,-0.31136175990104675,-0.21143871545791626,0.0,0.0,0.0,-4.601621150970459,0.006334945559501648,0.8547190427780151,0.47113844752311707,0.7946599721908569,0.10990589112043381,-0.12758466601371765,-0.5832309126853943,6.417536735534668,-1.3271070718765259,0.6853426694869995,6.846673488616943,-6.990162372589111,28.78350830078125,0.0020889844745397568,0.8655915260314941,0.47097188234329224,6.613068103790283,-0.29326489567756653,0.618709921836853,0.3295768201351166,0.6913977265357971,0.42000001668930054,-0.319313108921051,0.4651944041252136,-0.9154091477394104,-3.0000014305114746,-0.2400224208831787,-0.23431487381458282,-0.2160644382238388,-0.1867581307888031,-0.048966918140649796,-0.7204853296279907,-0.5792813301086426,-0.3613443076610565
0.5,-0.04411831498146057,0.04089585319161415,0.0,0.7175769805908203,0.0,0.0,-0.6964792013168335,-0.030015423893928528,-0.7322767376899719,0.0,0.0,0.0,-0.7832242250442505,0.10455327481031418,0.8426881432533264,0.477473646402359,0.7253671288490295,0.07432806491851807,-0.13317672908306122,-0.6712538003921509,4.864055633544922,-1.9851858615875244,0.3291267156600952,-2.3354055881500244,-7.735825538635254,26.157215118408203,0.1007128655910492,0.8549999594688416,0.47905904054641724,5.4261579513549805,-1.1033203601837158,0.41945984959602356,0.3295768201351166,0.6913977265357971,0.42000001668930054,-0.31541797518730164,-0.02827107533812523,-0.9654331803321838,-3.0000016689300537,-0.23626281321048737,-0.239841029047966,-0.21990621089935303,-0.18817515671253204,0.2981967329978943,-0.1308710277080536,-0.045137323439121246,0.054785460233688354
0.5166666666666666,-0.04333701729774475,0.033784277737140656,0.0,0.6992491483688354,0.0,0.0,-0.7148780822753906,0.05985988304018974,-0.2592680752277374,0.0,0.0,0.0,-3.9601118564605713,0.18205250799655914,0.821621835231781,0.47814714908599854,0.6729125380516052,0.052821215242147446,-0.12197190523147583,-0.7276822328567505,3.9007859230041504,-1.9618427753448486,-0.18209564685821533,-4.006595611572266,-1.6545922756195068,13.296012878417969,0.17858898639678955,0.8342857360839844,0.4803270697593689,4.256852149963379,-1.572509527206421,-0.08975087106227875,0.3295768201351166,0.6913977265357971,0.42000001668930054,-0.314120888710022,0.18906357884407043,-1.0154565572738647,-3.0,-0.23375160992145538,-0.23995168507099152,-0.22147487103939056,-0.1889670491218567,0.03500950708985329,-0.00665503041818738,-0.10000187903642654,-0.09065678715705872
0.5333333333333333,-0.04110860079526901,0.032881900668144226,0.0,0.6942812204360962,0.0,0.0,-0.7197037935256958,0.2153574675321579,-0.08785558491945267,0.0,0.0,0.0,0.05286493897438049,0.24514448642730713,0.7934437990188599,0.46918168663978577,0.5834258794784546,-0.040092192590236664,-0.16761282086372375,-0.7936703562736511,3.440406084060669,-1.7391201257705688,-0.6950051784515381,-5.048225402832031,-4.155510425567627,-12.328241348266602,0.23980754613876343,0.8065252304077148,0.475719690322876,3.2902746200561523,-1.7996172904968262,-0.4767915904521942,0.3295768201351166,0.6913977265357971,0.42000001668930054,-0.3050293028354645,1.045886754989624,-1.0654786825180054,-3.000000238418579,-0.23360998928546906,-0.23941628634929657,-0.22247333824634552,-0.19051557779312134,0.1911357045173645,0.19916212558746338,0.08079095184803009,-0.02648811787366867
0.55,-0.03562557324767113,0.02741873823106289,0.0,0.6797866821289062,0.0,0.0,-0.7334098815917969,0.37411993741989136,-0.31157681345939636,0.0,0.0,0.0,-3.11061429977417,0.2942347824573517,0.7676329016685486,0.45266193151474,0.5420102477073669,-0.029910432174801826,-0.23188959062099457,-0.8071911334991455,2.6089587211608887,-1.5448801517486572,-1.1741909980773926,-4.151591777801514,-15.289193153381348,5.018766403198242,0.2884168326854706,0.7795194983482361,0.4622271656990051,2.408592462539673,-1.6484493017196655,-0.9920659065246582,0.3295768201351166,0.6913977265357971,0.42000001668930054,-0.27993983030319214,1.8953560590744019,-1.115500807762146,-3.0,-0.22789616882801056,-0.23354268074035645,-0.21901968121528625,-0.18986035883426666,0.2453843057155609,0.3005708158016205,0.1742926836013794,-0.009025856852531433
0.5666666666666667,-0.02812107466161251,0.026162898167967796,0.0,0.678688108921051,0.0,0.0,-0.7344265580177307,0.5016621351242065,-0.037202365696430206,0.0,0.0,0.0,0.7480034232139587,0.32837533950805664,0.7435526251792908,0.42480963468551636,0.5674639344215393,-0.091823048889637,-0.13532719016075134,-0.8069941401481628,1.4768177270889282,-1.5535849332809448,-1.3972493410110474,-12.12710189819336,-2.921952486038208,-6.720580101013184,0.32159778475761414,0.7512168884277344,0.4442441761493683,1.6230032444000244,-1.6294357776641846,-1.3227736949920654,0.3295768201351166,0.6913977265357971,0.42000001668930054,-0.24713295698165894,2.3770036697387695,-1.1655229330062866,-2.9999985694885254,-0.22511515021324158,-0.22945864498615265,-0.21689854562282562,-0.19105565547943115,0.2749439477920532,0.3299556374549866,0.18194463849067688,-0.062133774161338806
0.5833333333333334,-0.01834684982895851,0.021313829347491264,0.0,0.6669249534606934,0.0,0.0,-0.745124876499176,0.6310999989509583,-0.3154313862323761,0.0,0.0,0.0,-2.7712955474853516,0.34233659505844116,0.7277374863624573,0.42078128457069397,0.6463671922683716,0.015125093050301075,0.00880321767181158,-0.7628257274627686,0.6906309723854065,-0.22361184656620026,0.243161141872406,10.614482879638672,-23.1212158203125,-15.30064868927002,0.338554322719574,0.7330954074859619,0.43014049530029297,0.0111355260014534,-0.49019655585289,0.3183058798313141,0.3295768201351166,0.6913977265357971,0.42000001668930054,-0.2111348807811737,1.0202670097351074,-1.1276917457580566,3.0000030994415283,-0.2166825383901596,-0.22078979015350342,-0.21129301190376282,-0.19017702341079712,0.5605781078338623,0.5747894048690796,0.39867910742759705,0.12015461921691895
0.6,-0.01087369117885828,0.01967606507241726,0.0,0.6675844788551331,0.0,0.0,-0.7445340156555176,0.3799448311328888,-0.06535638868808746,0.0,0.0,0.0,0.9713177680969238,0.3439638912677765,0.7203667759895325,0.42457616329193115,0.6791308522224426,-0.008287117816507816,0.08646918833255768,-0.7288591265678406,0.060045961290597916,-1.3430039882659912,0.12745410203933716,-0.6846868395805359,5.7502665519714355,-16.770729064941406,0.3420689105987549,0.7231926918029785,0.4348161220550537,0.17719267308712006,-0.4488861858844757,0.13099142909049988,0.3295768201351166,0.6913977265357971,0.42000001668930054,-0.24729511141777039,-2.982584238052368,-1.150012493133545,-3.0000102519989014,-0.2093101143836975,-0.2128080576658249,-0.20581747591495514,-0.1890495866537094,0.48976650834083557,0.5116158127784729,0.35276854038238525,0.08055506646633148
0.6166666666666667,-0.003005347214639187,0.02146417275071144,0.0,0.6581107378005981,0.0,0.0,-0.7529211640357971,0.49580082297325134,0.1514901965856552,0.0,0.0,0.0,-2.5566556453704834,0.3453260064125061,0.7185938358306885,0.4270387291908264,0.6893337368965149,-0.014021901413798332,0.13966412842273712,-0.7107152342796326,0.19318339228630066,-0.18398088216781616,0.053361162543296814,2.357353448867798,1.9583936929702759,-0.9892221689224243,0.34716498851776123,0.7192612886428833,0.43566781282424927,0.19846156239509583,0.007069912739098072,0.001150675117969513,0.3295768201351166,0.6913977265357971,0.42000001668930054,-0.28966763615608215,-1.9187825918197632,-1.200034499168396,-3.000001907348633,-0.19965969026088715,-0.203579843044281,-0.1997402012348175,-0.18787741661071777,0.6633853912353516,0.6132365465164185,0.41127967834472656,0.10784544795751572
0.6333333333333333,0.0020126954186707735,0.0185342188924551,0.0,0.6596248745918274,0.0,0.0,-0.7515950202941895,0.24331730604171753,-0.2105751931667328,0.0,0.0,0.0,1.0525126457214355,0.3474145233631134,0.7164848446846008,0.4268392026424408,0.6781346201896667,-0.012069295160472393,0.13572221994400024,-0.7221959829330444,0.047400735318660736,-0.10322864353656769,-0.04355181008577347,-0.3265197277069092,-2.7374398708343506,-6.4823198318481445,0.3460747003555298,0.7179720997810364,0.4331393241882324,-0.37165623903274536,-0.2077222764492035,-0.2726558446884155,0.3295768201351166,0.6913977265357971,0.42000001668930054,-0.33638906478881836,-2.9999966621398926,-1.2500529289245605,-2.99999737739563,-0.18715739250183105,-0.19149237871170044,-0.1907154768705368,-0.1836368292570114,0.5465660691261292,0.5873053669929504,0.4585886597633362,0.22253115475177765
0.65,0.008142546750605106,0.020621174946427345,0.0,0.6590462327003479,0.0,0.0,-0.7521024346351624,0.3644094169139862,0.13096146285533905,0.0,0.0,0.0,-0.6234767436981201,0.3475453853607178,0.7149812579154968,0.42479175329208374,0.6430785059928894,0.009438776411116123,0.08984170854091644,-0.7604534029960632,0.01875971257686615,-0.09162142127752304,-0.14411067962646484,-3.991375684738159,-5.146576881408691,-5.226525783538818,0.3419675827026367,0.7166880369186401,0.43191829323768616,0.017566215246915817,0.08264613896608353,0.2015235424041748,0.3295768201351166,0.6913977265357971,0.42000001668930054,-0.38490813970565796,-2.8060426712036133,-1.2999812364578247,-2.9960644245147705,-0.18199355900287628,-0.18522292375564575,-0.1858292818069458,-0.18182437121868134,0.40014222264289856,0.43253353238105774,0.3391819894313812,0.15696024894714355
0.6666666666666666,0.015611227601766586,0.018076999112963676,0.0,0.6721059083938599,0.0,0.0,-0.7404549717903137,0.48544958233833313,-0.16076789796352386,0.0,0.0,0.0,2.8339333534240723,0.34663471579551697,0.7138236165046692,0.42148256301879883,0.6285929083824158,0.027279814705252647,0.01952533982694149,-0.7770106196403503,-0.2777079641819,-0.05385679006576538,-0.08852671831846237,-1.737528681755066,-2.825519561767578,0.9630832076072693,0.3393372893333435,0.7172982692718506,0.4356366991996765,-0.29586148262023926,-0.09905308485031128,0.2510963976383209,0.3295768201351166,0.6913977265357971,0.42000001668930054,-0.43490180373191833,-2.997285842895508,-1.3499853610992432,-2.999950408935547,-0.17416329681873322,-0.17670896649360657,-0.17840783298015594,-0.17684271931648254,0.2594498097896576,0.35434770584106445,0.35663118958473206,0.28097692131996155
0.6833333333333333,0.024876506999135017,0.013278022408485413,0.0,0.6718555688858032,0.0,0.0,-0.7406821846961975,0.5872182250022888,-0.33937934041023254,0.0,0.0,0.0,-1.0196880102157593,0.34286290407180786,0.7134663462638855,0.42000851035118103,0.6339292526245117,-0.00015189277473837137,-4.506575351115316e-05,-0.7733908891677856,-0.1683310568332672,0.002706284634768963,-0.004334200639277697,0.13667038083076477,-0.08547211438417435,0.6095845699310303,0.3368549644947052,0.7156582474708557,0.4405057728290558,-0.08750420808792114,-0.15203464031219482,0.320241242647171,0.3295768201351166,0.6913977265357971,0.42000001668930054,-0.484914630651474,-2.9999401569366455,-1.399985671043396,-2.9998981952667236,-0.1712365448474884,-0.17183560132980347,-0.17274527251720428,-0.17145836353302002,0.15603134036064148,0.28425365686416626,0.3616226315498352,0.3860664367675781
0.7,0.03608948737382889,0.004960281774401665,0.0,0.6509236693382263,0.0,0.0,-0.7591431736946106,0.7132841348648071,-0.5656152963638306,0.0,0.0,0.0,-4.221070289611816,0.3410998284816742,0.7134892344474792,0.42000001668930054,0.6361650824546814,3.765358655982709e-07,3.1208941209115437e-07,-0.7715529203414917,-0.08463294804096222,0.0009471293888054788,-1.6989652067422867e-06,-6.47419728920795e-05,-0.00011831567098852247,0.2586269974708557,0.33978864550590515,0.7142068147659302,0.4535144567489624,0.4505487382411957,-0.03439320996403694,1.353447437286377,0.3295768201351166,0.6913977265357971,0.42000001668930054,-0.5349271893501282,-2.999967098236084,-1.4500038623809814,-2.9999988079071045,-0.1706116646528244,-0.16918401420116425,-0.16866588592529297,-0.1666845828294754,-0.016253817826509476,0.09568744897842407,0.1839706003665924,0.23582881689071655
0.7166666666666667,0.05131732299923897,0.0018714799080044031,0.0,0.6422977447509766,0.0,0.0,-0.7664551734924316,0.8356937766075134,-0.14746184647083282,0.0,0.0,0.0,-0.2967202663421631,0.3406684994697571,0.713493287563324,0.42000001668930054,0.6366055607795715,1.2445054835552583e-06,2.1251312318781856e-06,-0.7711894512176514,-0.003010955173522234,0.00010641100379871204,-3.501522587612271e-05,-0.0014603561721742153,-0.0005062944837845862,0.00895006489008665,0.348425030708313,0.7149950265884399,0.4840538799762726,0.6333081126213074,0.29522204399108887,2.2625484466552734,0.3295768201351166,0.6913977265357971,0.42000001668930054,-0.5849337577819824,-2.9999990463256836,-1.5000221729278564,-2.9999992847442627,-0.1761583685874939,-0.17244894802570343,-0.1699012666940689,-0.16643500328063965,-0.13955378532409668,-0.07819976657629013,-0.01574624329805374,0.02878079004585743
0.7333333333333333,0.06224074214696884,0.0008322960929945111,0.0,0.6569134593009949,0.0,0.0,-0.7539659738540649,0.6008480787277222,-0.0632951632142067,0.0,0.0,0.0,3.092196464538574,0.3406681716442108,0.7134936451911926,0.4200000464916229,0.6366055607795715,3.7142947917345737e-07,-3.786439719988266e-06,-0.7711895108222961,0.00019475677981972694,-0.0003211132425349206,-0.00010066945105791092,0.0065949601121246815,-0.0003180725616402924,-0.0005028578452765942,0.36156174540519714,0.7177438735961914,0.5163702368736267,0.8656531572341919,0.07893900573253632,1.6915149688720703,0.3295768201351166,0.6913977265357971,0.42000001668930054,-0.6189947128295898,-1.2153135538101196,-1.5500404834747314,-3.0,-0.17682692408561707,-0.17219731211662292,-0.16852115094661713,-0.16408249735832214,0.07853533327579498,0.12447112798690796,0.1908535659313202,0.2541259825229645
0.75,0.0688924491405487,-0.004982113838195801,0.0,0.6586011052131653,0.0,0.0,-0.7524922490119934,0.3648015558719635,-0.33323460817337036,0.0,0.0,0.0,-0.7237725257873535,0.3406681716442108,0.7134935855865479,0.4200000464916229,0.6366055607795715,5.186354883335298e-07,-3.7940378661005525e-06,-0.7711895108222961,0.00019498907204251736,-0.00028299607220105827,-0.00010333419777452946,0.005618365481495857,-0.00024826356093399227,-0.0005109588382765651,0.373329222202301,0.7180388569831848,0.5379129648208618,0.5044901967048645,-0.19996732473373413,1.0338526964187622,0.3295768201351166,0.6913977265357971,0.42000001668930054,-0.6492730975151062,-2.298222303390503,-1.5238616466522217,2.999999523162842,-0.17197847366333008,-0.16711387038230896,-0.16287437081336975,-0.15793362259864807,0.1538681834936142,0.1981997787952423,0.2568260133266449,0.3054468035697937
0.7666666666666666,0.07760439068078995,-0.005656763911247253,0.0,0.6706843972206116,0.0,0.0,-0.7417428493499756,0.5157838463783264,-0.05323777720332146,0.0,0.0,0.0,2.6127841472625732,0.3406681716442108,0.7134936451911926,0.4200000464916229,0.6366055607795715,4.4296675127952767e-07,-3.591110043998924e-06,-0.7711895108222961,0.0001900726929306984,-0.00028402547468431294,-0.00010185129940509796,0.005665476433932781,-0.0003127141681034118,-0.0004999937955290079,0.3804015517234802,0.7148230075836182,0.5555049180984497,0.4226262867450714,-0.055347707122564316,1.0752999782562256,0.3295768201351166,0.6913977265357971,0.42000001668930054,-0.6642539501190186,0.28914785385131836,-1.5395233631134033,-2.999999761581421,-0.17169097065925598,-0.16595245897769928,-0.1606322079896927,-0.15480858087539673,0.21837301552295685,0.2106086015701294,0.22009992599487305,0.2242790311574936
0.7833333333333333,0.08301326632499695,-0.01054416410624981,0.0,0.6695554256439209,0.0,0.0,-0.7427620887756348,0.24203026294708252,-0.2884123623371124,0.0,0.0,0.0,-1.093782901763916,0.3406681716442108,0.7134936451911926,0.4200000464916229,0.6366055011749268,4.0384838939644396e-07,-3.5890905110136373e-06,-0.7711895704269409,0.00018870607891585678,-0.0002838578075170517,-0.00010152626782655716,0.005669181235134602,-0.0003291842294856906,-0.0004970294539816678,0.3890702724456787,0.7126485109329224,0.5680601596832275,0.5411859750747681,-0.303991436958313,0.5914490818977356,0.3295768201351166,0.6913977265357971,0.42000001668930054,-0.6789535880088806,-1.8559705018997192,-1.500687599182129,2.9999992847442627,-0.166676864027977,-0.16124720871448517,-0.15594086050987244,-0.15018999576568604,0.16414767503738403,0.17493954300880432,0.200291708111763,0.219540074467659
0.8,0.08913709223270416,-0.011121707037091255,0.0,0.6788561940193176,0.0,0.0,-0.7342712879180908,0.40210527181625366,-0.019181275740265846,0.0,0.0,0.0,2.251033306121826,0.3406681716442108,0.7134936451911926,0.4200000464916229,0.6366055011749268,4.183992814432713e-07,-3.5985251543024788e-06,-0.7711895108222961,0.00018979559536091983,-0.00028426857898011804,-0.00010172813199460506,0.005673343315720558,-0.00031561884679831564,-0.0004992798203602433,0.3972262740135193,0.7070633769035339,0.5776995420455933,0.5081154108047485,-0.2846592366695404,0.5965566635131836,0.3295768201351166,0.6913977265357971,0.42000001668930054,-0.6841440200805664,0.9916002750396729,-1.5168089866638184,-2.9999992847442627,-0.16544175148010254,-0.15966112911701202,-0.15375840663909912,-0.1474924087524414,0.19204320013523102,0.18406258523464203,0.19373464584350586,0.2034253627061844
0.8166666666666667,0.09284846484661102,-0.015586407855153084,0.0,0.6760876178741455,0.0,0.0,-0.7368212342262268,0.15765635669231415,-0.294027715921402,0.0,0.0,0.0,-1.2449432611465454,0.3406681716442108,0.7134936451911926,0.4200000464916229,0.6366055607795715,4.3666943838616135e-07,-3.6101534988119965e-06,-0.7711895704269409,0.00018979408196173608,-0.0002842726244125515,-0.00010172650218009949,0.005673497915267944,-0.00031557658803649247,-0.0004992716712877154,0.40747636556625366,0.702013373374939,0.5851142406463623,0.6479307413101196,-0.4030574858188629,0.43235301971435547,0.3295768201351166,0.6913977265357971,0.42000001668930054,-0.687479555606842,-1.200453758239746,-1.4780409336090088,2.999999523162842,-0.16075915098190308,-0.15545496344566345,-0.14973489940166473,-0.1436140239238739,0.18116356432437897,0.1688697189092636,0.17095154523849487,0.17351174354553223
0.8333333333333334,0.09656523168087006,-0.01619228906929493,0.0,0.6845836639404297,0.0,0.0,-0.7289342880249023,0.26727986335754395,-0.014784368686378002,0.0,0.0,0.0,2.082895040512085,0.3406681716442108,0.7134936451911926,0.4200000464916229,0.6366055607795715,4.2488738927204395e-07,-3.6233029732102295e-06,-0.7711895108222961,0.00018992539844475687,-0.0002842758840415627,-0.0001017602626234293,0.005672900937497616,-0.00031396522535942495,-0.0004995556664653122,0.4170212149620056,0.694610595703125,0.5920259952545166,0.5769500732421875,-0.37172889709472656,0.4191102981567383,0.3295768201351166,0.6913977265357971,0.42000001668930054,-0.678096354007721,2.0383152961730957,-1.4946260452270508,-3.0,-0.15936914086341858,-0.15401342511177063,-0.14803047478199005,-0.14164407551288605,0.19534015655517578,0.17050457000732422,0.1604650467634201,0.15473851561546326
0.85,0.09825541079044342,-0.01990441232919693,0.0,0.6807695031166077,0.0,0.0,-0.7324976921081543,0.04769827052950859,-0.27116525173187256,0.0,0.0,0.0,-1.404909372329712,0.3406681716442108,0.7134936451911926,0.4200000464916229,0.636605441570282,4.2489290308367345e-07,-3.4523643535067094e-06,-0.7711895704269409,0.00018884273595176637,-0.00028390888473950326,-0.00010155653581023216,0.005669515114277601,-0.00032766713411547244,-0.0004973147297278047,0.42744117975234985,0.6894488334655762,0.5981475114822388,0.6017732620239258,-0.3293231129646301,0.4388694763183594,0.3295768201351166,0.6913977265357971,0.42000001668930054,-0.6602638959884644,0.24132561683654785,-1.4559218883514404,3.0,-0.15487147867679596,-0.1503608524799347,-0.14498324692249298,-0.1390986442565918,0.1804748922586441,0.13979874551296234,0.11009583622217178,0.08470804244279861
0.8666666666666667,0.09720488637685776,-0.02022225596010685,0.0,0.6877983808517456,0.0,0.0,-0.7259017825126648,-0.1114790067076683,0.0197284072637558,0.0,0.0,0.0,1.8799537420272827,0.3406681716442108,0.7134936451911926,0.4200000464916229,0.6366055011749268,4.5667886183764494e-07,-3.457134425843833e-06,-0.7711895108222961,0.00018877613183576614,-0.00028379360446706414,-0.00010154047049582005,0.005667406599968672,-0.0003277630021329969,-0.0004971667076461017,0.4355721175670624,0.6823824644088745,0.6048576235771179,0.4402250349521637,-0.3916047215461731,0.40503644943237305,0.3295768201351166,0.6913977265357971,0.42000001668930054,-0.6346439719200134,2.606398820877075,-1.4729620218276978,-3.000000476837158,-0.15354396402835846,-0.1493697464466095,-0.14417777955532074,-0.13842174410820007,0.15770575404167175,0.12187214195728302,0.09581754356622696,0.0754111111164093
0.8833333333333333,0.09393303841352463,-0.01742638275027275,0.0,0.6830231547355652,0.0,0.0,-0.7303967475891113,-0.24022653698921204,0.2423166036605835,0.0,0.0,0.0,-1.6243743896484375,0.3406681716442108,0.7134936451911926,0.4200000464916229,0.6366055011749268,4.4274852939452103e-07,-3.645425977083505e-06,-0.7711895108222961,0.00018997096049133688,-0.0002842754765879363,-0.00010178051888942719,0.005672512110322714,-0.0003136287268716842,-0.0004996684147045016,0.4418850541114807,0.6794942617416382,0.6107956171035767,0.2733546495437622,-0.045579761266708374,0.4568493664264679,0.3295768201351166,0.6913977265357971,0.42000001668930054,-0.5865262746810913,2.999983549118042,-1.434317946434021,3.0000011920928955,-0.15042413771152496,-0.14756514132022858,-0.1434623748064041,-0.13861016929149628,0.19342836737632751,0.09940055757761002,0.018131164833903313,-0.051300108432769775
0.9,0.08730268478393555,-0.019058367237448692,0.0,0.6900060176849365,0.0,0.0,-0.7238036394119263,-0.3724094331264496,-0.1089504212141037,0.0,0.0,0.0,1.9037792682647705,0.3406681716442108,0.7134936451911926,0.4200000464916229,0.6366055607795715,4.402317586027493e-07,-3.6631586226576474e-06,-0.7711895704269409,0.0001900489442050457,-0.00028428283985704184,-0.00010179285891354084,0.005672450177371502,-0.00031244553974829614,-0.0004998224903829396,0.44290539622306824,0.6799877882003784,0.6224748492240906,-0.14648795127868652,0.006812404841184616,0.9264853000640869,0.3295768201351166,0.6913977265357971,0.42000001668930054,-0.5404796004295349,2.5312938690185547,-1.3855679035186768,2.8231887817382812,-0.1431896984577179,-0.14222586154937744,-0.13982917368412018,-0.13648144900798798,0.2710266411304474,0.1921074241399765,0.11957727372646332,0.05468812584877014
