vladlanda/robotic-transformer/data/env_000_episode_0111.csv
sim_time_s,robot_box_x,robot_box_y,robot_box_z,robot_box_quat_w,robot_box_quat_x,robot_box_quat_y,robot_box_quat_z,robot_box_linvel_x,robot_box_linvel_y,robot_box_linvel_z,robot_box_angvel_x,robot_box_angvel_y,robot_box_angvel_z,cube_world_x,cube_world_y,cube_world_z,cube_quat_w,cube_quat_x,cube_quat_y,cube_quat_z,cube_linvel_x,cube_linvel_y,cube_linvel_z,cube_angvel_x,cube_angvel_y,cube_angvel_z,endpoint_world_x,endpoint_world_y,endpoint_world_z,endpoint_linvel_x,endpoint_linvel_y,endpoint_linvel_z,target_cube_world_x,target_cube_world_y,target_cube_world_z,gripper_actual_pos_rad_gp_leftgearjoint,gripper_actual_vel_rad_s_gp_leftgearjoint,gripper_actual_pos_rad_gp_rotatingjoint,gripper_actual_vel_rad_s_gp_rotatingjoint,motor_angle_rad_joint1,motor_angle_rad_joint2,motor_angle_rad_joint3,motor_angle_rad_joint4,motor_speed_rad_s_joint1,motor_speed_rad_s_joint2,motor_speed_rad_s_joint3,motor_speed_rad_s_joint4
0.0,0.0,0.0,0.0,1.0,0.0,0.0,0.0,0.0,0.0,0.0,0.0,0.0,0.0,-0.42939072847366333,0.6333428025245667,0.41999998688697815,1.0,0.0,0.0,0.0,0.0,0.0,0.0,0.0,0.0,0.0,3.42540442943573e-06,-0.005000244826078415,1.313499927520752,0.0,0.0,0.0,0.3203825354576111,0.7770959734916687,0.42000001668930054,-1.5707999467849731,0.0,0.0,0.0,0.0,0.0,0.0,0.0,0.0,0.0,0.0,0.0
0.016666666666666666,0.0028778850100934505,0.0021806680597364902,0.0,0.9998081922531128,0.0,0.0,0.019586581736803055,0.24087215960025787,0.18240931630134583,0.0,0.0,0.0,3.1418697834014893,-0.4293908476829529,0.6333425045013428,0.41999998688697815,1.0,3.279964630564791e-06,-8.339746386809566e-07,8.465587342243452e-08,-1.9833529222523794e-05,0.00017983045836444944,-6.132945418357849e-05,0.0009432713268324733,-0.004689474124461412,-0.00031981561915017664,-0.007110234349966049,0.003379564033821225,1.3159373998641968,-0.8143353462219238,0.9868683815002441,0.18095196783542633,0.3203825354576111,0.7770959734916687,0.42000001668930054,-1.5301095247268677,3.0000011920928955,-0.04584788903594017,-2.9999992847442627,0.0008691533003002405,0.0007963840034790337,0.0007110277656465769,0.0006108740926720202,0.11094217747449875,0.09756709635257721,0.08334315568208694,0.06823883205652237
0.03333333333333333,0.008960943669080734,0.00680176168680191,0.0,0.9997960329055786,0.0,0.0,0.02019682712852955,0.4070175290107727,0.31530052423477173,0.0,0.0,0.0,-0.8691306710243225,-0.42939096689224243,0.633342444896698,0.4200000464916229,1.0,3.3908354453160428e-06,-2.1324485715012997e-06,-3.710144014235084e-08,0.00026357831666246057,0.00026937946677207947,-0.00010509486310184002,-0.0017707672668620944,0.004130808170884848,-0.000135478752781637,-0.027539053931832314,0.0256815068423748,1.3166756629943848,-1.5908784866333008,1.5952415466308594,-0.07553945481777191,0.3203825354576111,0.7770959734916687,0.42000001668930054,-1.4800904989242554,3.000001907348633,-0.09588770568370819,-3.000000476837158,0.0029902225360274315,0.002652883529663086,0.0022775002289563417,0.0018609975231811404,0.16423411667346954,0.13978193700313568,0.11384459584951401,0.08633029460906982
0.05,0.017759503796696663,0.01377280056476593,0.0,0.9993746876716614,0.0,0.0,0.035358820110559464,0.5939739942550659,0.46515896916389465,0.0,0.0,0.0,2.6474497318267822,-0.4293909966945648,0.6333425045013428,0.4200000464916229,1.0,3.765139354072744e-06,-2.2119161258160602e-06,5.630195420991413e-09,0.0002653095289133489,0.00026691411039792,-0.00010440382175147533,-0.0017242460744455457,0.004177400842308998,-0.00012949357915204018,-0.05966661870479584,0.053078338503837585,1.3118863105773926,-2.187642812728882,1.7269949913024902,-0.4607437551021576,0.3203825354576111,0.7770959734916687,0.42000001668930054,-1.4300721883773804,2.999999761581421,-0.1459263563156128,-3.0000007152557373,0.005713602527976036,0.004921510349959135,0.004057267680764198,0.003116437466815114,0.19288454949855804,0.15599007904529572,0.1172197163105011,0.07648006826639175
0.06666666666666667,0.029077274724841118,0.023067327216267586,0.0,0.999447226524353,0.0,0.0,0.03324592486023903,0.7205047607421875,0.5952556133270264,0.0,0.0,0.0,-1.2118867635726929,-0.4293909966945648,0.633342444896698,0.4200000464916229,0.9999999403953552,3.4067529668391217e-06,-2.2856381747260457e-06,4.300985096961085e-07,0.00026702662580646574,0.00026791892014443874,-0.00010437914170324802,-0.001740677747875452,0.004211848136037588,-0.0001285130565520376,-0.09856460243463516,0.08619921654462814,1.2996156215667725,-2.480421304702759,2.1383213996887207,-0.9828987717628479,0.3203825354576111,0.7770959734916687,0.42000001668930054,-1.3800538778305054,3.0000033378601074,-0.1959470957517624,-3.000000238418579,0.008367769420146942,0.006906167604029179,0.005333620589226484,0.003643781179562211,0.1583537608385086,0.1088857650756836,0.057385701686143875,0.0037788955960422754
0.08333333333333333,0.042494919151067734,0.03471532464027405,0.0,0.9991248250007629,0.0,0.0,0.04182760417461395,0.8532791137695312,0.7432717680931091,0.0,0.0,0.0,2.3875012397766113,-0.4293909966945648,0.633342444896698,0.4200000464916229,0.9999999403953552,3.62606829185097e-06,-2.335380486329086e-06,3.0323212740768213e-07,0.0002661412872839719,0.00026685078046284616,-0.00010405294597148895,-0.001728333649225533,0.00419644033536315,-0.0001279062998946756,-0.1436404585838318,0.12053124606609344,1.2790684700012207,-2.8747196197509766,1.995241641998291,-1.4559987783432007,0.3203825354576111,0.7770959734916687,0.42000001668930054,-1.3300244808197021,3.0000016689300537,-0.19309048354625702,2.8332784175872803,0.010024569928646088,0.007753062527626753,0.005329258739948273,0.0027499175630509853,0.08659258484840393,0.03250864893198013,-0.02350952848792076,-0.08158471435308456
0.1,0.04976898804306984,0.04310930147767067,0.0,0.9992952346801758,0.0,0.0,0.037537433207035065,0.3026561439037323,0.41397732496261597,0.0,0.0,0.0,-1.4646515846252441,-0.4293909966945648,0.633342444896698,0.4200000464916229,1.0,3.4221370697196107e-06,-2.3086815872375155e-06,1.796389312858082e-07,0.00026681539020501077,0.00026800509658642113,-0.00010440591722726822,-0.0017431024461984634,0.004207069985568523,-0.00012891364167444408,-0.18683835864067078,0.15881547331809998,1.252018928527832,-2.420403242111206,2.4337944984436035,-1.714513897895813,0.3203825354576111,0.7770959734916687,0.42000001668930054,-1.2800209522247314,2.9999992847442627,-0.22560660541057587,-3.000000238418579,0.004984758794307709,0.0020502847619354725,-0.0010848809033632278,-0.004429249092936516,-0.4236849844455719,-0.4741535484790802,-0.5269559025764465,-0.5824184417724609
0.11666666666666667,0.06133760139346123,0.05482098460197449,0.0,0.9999950528144836,0.0,0.0,0.0031415605917572975,0.7393866777420044,0.6693340539932251,0.0,0.0,0.0,-4.64693546295166,-0.4293909966945648,0.6333425045013428,0.4200000464916229,1.0,3.7115064515091944e-06,-2.332746817046427e-06,2.5743378273546114e-07,0.0002648558293003589,0.0002663525810930878,-0.0001042329240590334,-0.0017181531293317676,0.004169990308582783,-0.00012915756087750196,-0.2263106107711792,0.20579855144023895,1.218090295791626,-2.489342212677002,2.918952465057373,-2.249959707260132,0.3203825354576111,0.7770959734916687,0.42000001668930054,-1.2299952507019043,2.9999961853027344,-0.20247575640678406,2.999999523162842,0.0025905123911798,-0.001742307678796351,-0.006266991142183542,-0.010994916781783104,-0.22605584561824799,-0.2976472079753876,-0.36902329325675964,-0.4402444660663605
0.13333333333333333,0.07092831283807755,0.06780235469341278,0.0,0.998916506767273,0.0,0.0,-0.0465378612279892,0.5581771731376648,0.8257893323898315,0.0,0.0,0.0,-6.599227428436279,-0.4293909966945648,0.633342444896698,0.4200000464916229,0.9999999403953552,3.4247123039676808e-06,-2.3020688786346e-06,1.560015192580977e-07,0.00026707074721343815,0.00026811304269358516,-0.0001044438686221838,-0.0017433598404750228,0.004212041385471821,-0.0001287737104576081,-0.26669684052467346,0.2548541724681854,1.182577133178711,-2.2234466075897217,3.200721263885498,-2.0894131660461426,0.3203825354576111,0.7770959734916687,0.42000001668930054,-1.1800026893615723,3.000001907348633,-0.23391324281692505,-2.9999988079071045,-0.002177668735384941,-0.008047973737120628,-0.014079192653298378,-0.0202822033315897,-0.2707456946372986,-0.38101789355278015,-0.48811158537864685,-0.5918799638748169
0.15,0.07774205505847931,0.07888608425855637,0.0,0.9973000288009644,0.0,0.0,-0.07343490421772003,0.3487786054611206,0.5980342626571655,0.0,0.0,0.0,-2.1236162185668945,-0.4293909966945648,0.633342444896698,0.4200000464916229,1.0,3.713835667440435e-06,-2.2079088921600487e-06,-1.6908700217754813e-07,0.00026353431167081,0.0002653607807587832,-0.00010421895422041416,-0.001701335422694683,0.004144207574427128,-0.00012960559979546815,-0.3077992796897888,0.3033105731010437,1.1431231498718262,-2.350888252258301,3.103421688079834,-2.6435976028442383,0.3203825354576111,0.7770959734916687,0.42000001668930054,-1.1299996376037598,3.000000238418579,-0.28393104672431946,-3.0000011920928955,-0.007766262162476778,-0.015283619984984398,-0.022894207388162613,-0.03060847893357277,-0.39693573117256165,-0.4826887845993042,-0.5642745494842529,-0.6417466402053833
0.16666666666666666,0.08113212138414383,0.08787190169095993,0.0,0.9938392043113708,0.0,0.0,-0.11083140224218369,0.1501731127500534,0.48904597759246826,0.0,0.0,0.0,-5.334728240966797,-0.4293909966945648,0.633342444896698,0.4200000464916229,0.9999999403953552,3.6383278256835183e-06,-2.2788660771766445e-06,2.7006709046872857e-07,0.00026682831230573356,0.00026749991229735315,-0.00010409974493086338,-0.001739937230013311,0.004210133571177721,-0.00012781568511854857,-0.34528103470802307,0.3587597608566284,1.0935230255126953,-2.037703037261963,3.564098834991455,-3.292327880859375,0.3203825354576111,0.7770959734916687,0.42000001668930054,-1.0799885988235474,3.000000238418579,-0.29191386699676514,1.647689938545227,-0.016357969492673874,-0.025095157325267792,-0.033848512917757034,-0.042631443589925766,-0.5969387888908386,-0.6539903283119202,-0.7066935896873474,-0.7553039193153381
0.18333333333333332,0.08109733462333679,0.09843646734952927,0.0,0.9847607016563416,0.0,0.0,-0.17391468584537506,-0.07338257879018784,0.6906172037124634,0.0,0.0,0.0,-8.466083526611328,-0.4293909966945648,0.633342444896698,0.4200000464916229,1.0,3.3863871067296714e-06,-2.3002933176030638e-06,1.4393209823992947e-07,0.00026674504624679685,0.0002678726159501821,-0.00010436959564685822,-0.0017412756569683552,0.0042059458792209625,-0.00012878415873274207,-0.3771820664405823,0.4234158992767334,1.0321950912475586,-1.5902972221374512,4.154863357543945,-4.000089168548584,0.3203825354576111,0.7770959734916687,0.42000001668930054,-1.0299924612045288,2.9999992847442627,-0.33040812611579895,-3.0,-0.029042361304163933,-0.03847164660692215,-0.047840386629104614,-0.05716774985194206,-0.8581048250198364,-0.8825125098228455,-0.9027614593505859,-0.9192364811897278
0.2,0.08660002797842026,0.1051236093044281,0.0,0.9757109880447388,0.0,0.0,-0.21906189620494843,0.462482213973999,0.2811439335346222,0.0,0.0,0.0,-4.554657936096191,-0.4293909966945648,0.6333425045013428,0.4200000464916229,1.0,3.6754549910256173e-06,-2.3265376967174234e-06,2.211360623505243e-07,0.0002648445370141417,0.0002663123595993966,-0.00010421779006719589,-0.0017176861874759197,0.004169856198132038,-0.0001290989457629621,-0.4066007137298584,0.48556920886039734,0.9598289728164673,-1.45162034034729,3.7479307651519775,-4.735254287719727,0.3203825354576111,0.7770959734916687,0.42000001668930054,-0.9799894094467163,3.0000016689300537,-0.3804364502429962,-3.000001907348633,-0.039765454828739166,-0.049431439489126205,-0.05897953361272812,-0.06843796372413635,-0.6280175447463989,-0.6203482747077942,-0.6107012629508972,-0.5997052788734436
0.21666666666666667,0.08917247503995895,0.11466782540082932,0.0,0.9728228449821472,0.0,0.0,-0.23155081272125244,0.04878217726945877,0.685658872127533,0.0,0.0,0.0,-0.5179663896560669,-0.4293909966945648,0.633342444896698,0.4200000464916229,1.0,3.322217935419758e-06,-2.208007572335191e-06,2.74274469802549e-07,0.00026662900927476585,0.00026749528478831053,-0.00010426086373627186,-0.0017358182230964303,0.0042048669420182705,-0.00012833988876082003,-0.43224528431892395,0.5357717275619507,0.8768287897109985,-1.2813208103179932,2.72511625289917,-5.230889320373535,0.3203825354576111,0.7770959734916687,0.42000001668930054,-0.9299787282943726,2.9999985694885254,-0.4304666817188263,-3.0000011920928955,-0.05572883039712906,-0.06479267030954361,-0.07378096878528595,-0.08266287297010422,-0.9863982796669006,-0.9727664589881897,-0.9621212482452393,-0.9526892900466919
0.23333333333333334,0.08871118724346161,0.12112563848495483,0.0,0.9666891694068909,0.0,0.0,-0.2559531629085541,-0.15685808658599854,0.3217233121395111,0.0,0.0,0.0,-3.584350347518921,-0.4293909966945648,0.633342444896698,0.4200000464916229,1.0,3.6563753837981494e-06,-2.3734169189992826e-06,-4.076635491401248e-07,0.0002661168691702187,0.0002672604168765247,-0.00010423548519611359,-0.0017336057499051094,0.0041946847923099995,-0.00012855084787588567,-0.45187026262283325,0.579996645450592,0.7836604118347168,-0.8798850774765015,2.3828511238098145,-5.863346099853516,0.3203825354576111,0.7770959734916687,0.42000001668930054,-0.8799680471420288,2.999997854232788,-0.4804973900318146,-2.9999990463256836,-0.07107280939817429,-0.08013628423213959,-0.08916919678449631,-0.09811647236347198,-0.985471248626709,-0.986314058303833,-0.9877498149871826,-0.9893423914909363
0.25,0.08932652324438095,0.12290121614933014,0.0,0.965679943561554,0.0,0.0,-0.2597350478172302,0.1082315742969513,0.03182484582066536,0.0,0.0,0.0,0.37655848264694214,-0.4293909966945648,0.6333425045013428,0.4200000464916229,1.0,3.630414312283392e-06,-2.2426120267482474e-06,1.1219849938015614e-08,0.00026680229348130524,0.0002670614921953529,-0.00010390742681920528,-0.001734247081913054,0.00421068025752902,-0.0001270313368877396,-0.465869665145874,0.6086505651473999,0.6836806535720825,-0.5986506938934326,1.2359328269958496,-6.101929664611816,0.3203825354576111,0.7770959734916687,0.42000001668930054,-0.8299576044082642,3.0,-0.5305284857749939,-3.000000476837158,-0.08773531019687653,-0.09674851596355438,-0.10573719441890717,-0.11455368250608444,-0.9931778311729431,-0.99411940574646,-0.9948716163635254,-0.9948186874389648
0.26666666666666666,0.08607020974159241,0.12203945964574814,0.0,0.9606682658195496,0.0,0.0,-0.27769848704338074,-0.2976168692111969,-0.08827278763055801,0.0,0.0,0.0,-3.1332223415374756,-0.42939096689224243,0.633342444896698,0.4200000464916229,0.9999999403953552,3.7400070596049773e-06,-2.2362767140293727e-06,4.499789270084875e-07,0.0002647957589942962,0.000266729824943468,-0.00010454049333930016,-0.0017189320642501116,0.004166644066572189,-0.0001301643205806613,-0.4671751856803894,0.620069146156311,0.5819200277328491,0.40806838870048523,0.22317053377628326,-5.950434684753418,0.3203825354576111,0.7770959734916687,0.42000001668930054,-0.7799487113952637,3.0000011920928955,-0.580558180809021,-3.000000238418579,-0.10600322484970093,-0.1146102026104927,-0.12328881025314331,-0.13186000287532806,-1.0035701990127563,-1.0026793479919434,-1.0020008087158203,-1.0014630556106567
0.2833333333333333,0.08680975437164307,0.11863059550523758,0.0,0.9604206085205078,0.0,0.0,-0.27855387330055237,0.046957653015851974,-0.24836613237857819,0.0,0.0,0.0,0.7295794486999512,-0.4293909966945648,0.633342444896698,0.4200000464916229,1.0,3.3915171115950216e-06,-2.291076953042648e-06,1.2460760956400918e-07,0.0002667710359673947,0.00026789153343997896,-0.0001043747179210186,-0.0017412302549928427,0.004206305835396051,-0.00012878209236077964,-0.4597111940383911,0.6283313035964966,0.48916512727737427,0.6760839223861694,0.51875901222229,-5.122024059295654,0.3203825354576111,0.7770959734916687,0.42000001668930054,-0.7299400568008423,3.000001907348633,-0.6305864453315735,-3.0000035762786865,-0.12226475775241852,-0.1310652792453766,-0.1398346722126007,-0.14847540855407715,-1.080635666847229,-1.0608291625976562,-1.0456994771957397,-1.0336209535598755
0.3,0.08289813250303268,0.11394312977790833,0.0,0.9556000232696533,0.0,0.0,-0.2946668863296509,-0.16692760586738586,-0.35470765829086304,0.0,0.0,0.0,-2.858652353286743,-0.4293909966945648,0.6333425045013428,0.4200000464916229,1.0,3.6806081880058628e-06,-2.319014583918033e-06,2.010969240018312e-07,0.0002647903747856617,0.0002662577899172902,-0.00010421173647046089,-0.0017169492784887552,0.004168972838670015,-0.00012909305223729461,-0.44162076711654663,0.6345025300979614,0.4092665910720825,1.483078956604004,0.4439376890659332,-4.721229553222656,0.3203825354576111,0.7770959734916687,0.42000001668930054,-0.6800354719161987,2.999999523162842,-0.6806126236915588,-2.9999990463256836,-0.13995900750160217,-0.14849495887756348,-0.1570667177438736,-0.1655527651309967,-0.7280669212341309,-0.7856130003929138,-0.8386145234107971,-0.885685384273529
0.31666666666666665,0.07832525670528412,0.10685109347105026,0.0,0.9558117389678955,0.0,0.0,-0.2939795255661011,-0.3187893033027649,-0.4585251808166504,0.0,0.0,0.0,1.0187910795211792,-0.4293909966945648,0.633342444896698,0.4200000464916229,1.0,3.3041189908544766e-06,-2.2213887405087007e-06,2.535577721118898e-07,0.0002666086074896157,0.00026745055220089853,-0.00010424223728477955,-0.001735188765451312,0.004204343073070049,-0.0001282775483559817,-0.44119930267333984,0.63698410987854,0.42651546001434326,0.061770349740982056,0.1651328206062317,-0.14375010132789612,0.3203825354576111,0.7770959734916687,0.42000001668930054,-0.6302615404129028,2.999988317489624,-0.7311143279075623,-3.000000238418579,-0.14101140201091766,-0.15066802501678467,-0.15975286066532135,-0.16810663044452667,-0.2478659301996231,-0.2682592570781708,-0.2627059817314148,-0.23023150861263275
0.3333333333333333,0.07115710526704788,0.09768883883953094,0.0,0.9516105651855469,0.0,0.0,-0.30730655789375305,-0.4793916344642639,-0.5890880823135376,0.0,0.0,0.0,-2.568291425704956,-0.42851734161376953,0.6347445845603943,0.4200000762939453,0.9999256134033203,-2.0496015622484265e-06,3.6173162243358092e-06,-0.012194354087114334,0.09916884452104568,0.16700652241706848,-0.00015079577860888094,0.006863880902528763,-0.002674649003893137,-3.5412962436676025,-0.4387761652469635,0.6389191150665283,0.42405498027801514,0.2676284909248352,0.16378016769886017,-0.14381366968154907,0.3203825354576111,0.7770959734916687,0.42000001668930054,-0.5802563428878784,2.999985456466675,-0.7811626195907593,-2.999988555908203,-0.14638462662696838,-0.15589366853237152,-0.1643877923488617,-0.1717054396867752,-0.37769195437431335,-0.3348747789859772,-0.2683119475841522,-0.17863942682743073
0.35,0.06155576929450035,0.08643588423728943,0.0,0.9524454474449158,0.0,0.0,-0.3047091066837311,-0.617402195930481,-0.7122147679328918,0.0,0.0,0.0,1.2667701244354248,-0.42404502630233765,0.6411653757095337,0.4200000762939453,0.9969722032546997,5.383784809964709e-06,-2.82407745544333e-06,-0.0777587816119194,0.38167834281921387,0.5644746422767639,-0.0001487206609454006,-0.008096050471067429,0.009573697112500668,-13.882874488830566,-0.43265992403030396,0.6459966897964478,0.42216959595680237,0.4703282117843628,0.6702831983566284,-0.06938944011926651,0.3203825354576111,0.7770959734916687,0.42000001668930054,-0.5302513837814331,2.999981164932251,-0.8311977982521057,-3.000000476837158,-0.1536872833967209,-0.16198770701885223,-0.1688757985830307,-0.1742134541273117,-0.4384192228317261,-0.349594384431839,-0.2379935383796692,-0.10527637600898743
0.36666666666666664,0.05521446838974953,0.07280325889587402,0.0,0.9486757516860962,0.0,0.0,-0.3162504732608795,-0.2985300123691559,-0.8619338870048523,0.0,0.0,0.0,-2.3480582237243652,-0.4163022041320801,0.6520966291427612,0.4200076758861542,0.9844952821731567,0.00012154960131738335,1.2414228876878042e-05,-0.1754106730222702,0.6302146911621094,0.8348811864852905,0.004759899340569973,0.4133634567260742,-0.24213926494121552,-4.173651695251465,-0.4227278232574463,0.656981348991394,0.42146801948547363,0.7612287998199463,0.7265666127204895,-0.016554735600948334,0.3203825354576111,0.7770959734916687,0.42000001668930054,-0.48024705052375793,2.999992609024048,-0.8812472224235535,-2.9999730587005615,-0.16123545169830322,-0.16749215126037598,-0.17192809283733368,-0.17444957792758942,-0.44234001636505127,-0.29332247376441956,-0.1207798644900322,0.07205946743488312
0.3833333333333333,0.045270491391420364,0.06077248230576515,0.0,0.9343233704566956,0.0,0.0,-0.3564264476299286,-0.6161319613456726,-0.6297010183334351,0.0,0.0,0.0,-5.968809127807617,-0.4000711739063263,0.6724885106086731,0.4211616516113281,0.9758657217025757,-0.004439901560544968,-0.015560039319097996,-0.21777072548866272,1.330733060836792,1.649595856666565,0.2037356197834015,-0.2562038004398346,-3.122485637664795,-6.534684658050537,-0.40672460198402405,0.675673246383667,0.4230464696884155,1.2507445812225342,1.577195167541504,0.16408656537532806,0.3203825354576111,0.7770959734916687,0.42000001668930054,-0.43024054169654846,2.9999635219573975,-0.9312916994094849,-2.998812437057495,-0.17100635170936584,-0.17457285523414612,-0.17596900463104248,-0.17516155540943146,-0.51685631275177,-0.38381078839302063,-0.23048020899295807,-0.05988321453332901
0.4,0.03876142576336861,0.04629891738295555,0.0,0.9072843194007874,0.0,0.0,-0.4205177128314972,-0.3479481637477875,-0.8983674645423889,0.0,0.0,0.0,-9.068155288696289,-0.3659815490245819,0.7061772346496582,0.42707639932632446,0.9616547226905823,0.04394041374325752,-0.05130583047866821,-0.265813946723938,3.1575088500976562,2.6004247665405273,0.450422465801239,23.68927001953125,-13.533668518066406,8.963602066040039,-0.37219470739364624,0.7106295228004456,0.42843520641326904,2.8773672580718994,2.499797821044922,0.6108762621879578,0.3203825354576111,0.7770959734916687,0.42000001668930054,-0.3927510678768158,1.3934752941131592,-0.8943473696708679,2.996551275253296,-0.1795407235622406,-0.18033552169799805,-0.17867901921272278,-0.1746094524860382,-0.6738938689231873,-0.45075684785842896,-0.2163929045200348,0.023093434050679207
0.4166666666666667,0.03518277406692505,0.03507046401500702,0.0,0.864921510219574,0.0,0.0,-0.5019071698188782,-0.14843828976154327,-0.619016170501709,0.0,0.0,0.0,-11.710822105407715,-0.29488277435302734,0.7555394768714905,0.43613946437835693,0.9370480179786682,0.11112365871667862,-0.08802996575832367,-0.31912872195243835,5.722883701324463,2.89695405960083,0.7008054256439209,12.527902603149414,-16.00016212463379,20.297760009765625,-0.300662100315094,0.7606478929519653,0.4375596046447754,5.352124214172363,3.471775770187378,0.6753115057945251,0.3203825354576111,0.7770959734916687,0.42000001668930054,-0.3743657171726227,0.9620754718780518,-0.844325602054596,2.9960989952087402,-0.19425392150878906,-0.19080300629138947,-0.18459579348564148,-0.17617125809192657,-0.8856632709503174,-0.6362690925598145,-0.378684401512146,-0.14215593039989471
0.43333333333333335,0.03499701991677284,0.027406087145209312,0.0,0.8295767307281494,0.0,0.0,-0.5583927035331726,0.05218963697552681,-0.4002993702888489,0.0,0.0,0.0,-6.841301441192627,-0.20599424839019775,0.8051828145980835,0.4484291970729828,0.8888869285583496,0.15267173945903778,-0.1030910313129425,-0.41945621371269226,5.629286766052246,1.8993442058563232,0.9258752465248108,-7.00545597076416,1.5811017751693726,4.522826194763184,-0.21203678846359253,0.8113992214202881,0.44971227645874023,5.510571479797363,2.632253408432007,0.7329623103141785,0.3203825354576111,0.7770959734916687,0.42000001668930054,-0.3584512174129486,0.9526637196540833,-0.8710489869117737,-2.9989731311798096,-0.2095496952533722,-0.20194347202777863,-0.1915426254272461,-0.1794210523366928,-0.8877670764923096,-0.6485011577606201,-0.40864548087120056,-0.20355790853500366
0.45,0.03268782049417496,0.024560371413826942,0.0,0.8135807514190674,0.0,0.0,-0.5814518928527832,-0.16251812875270844,-0.10296788066625595,0.0,0.0,0.0,-2.106696128845215,-0.11319498717784882,0.8380735516548157,0.46012234687805176,0.8262502551078796,0.16864995658397675,-0.11127299070358276,-0.5258193016052246,5.573163032531738,0.5708733797073364,0.7411257028579712,-12.240836143493652,6.607048988342285,11.390091896057129,-0.11954669654369354,0.8454961776733398,0.4611392021179199,5.797738075256348,1.6050035953521729,0.75210040807724,0.3203825354576111,0.7770959734916687,0.42000001668930054,-0.3424045443534851,0.8434547185897827,-0.9210730791091919,-2.999117851257324,-0.22463460266590118,-0.2147790938615799,-0.19996711611747742,-0.18403273820877075,-0.8687768578529358,-0.7300611138343811,-0.4808337688446045,-0.26517367362976074
0.4666666666666667,0.033220093697309494,0.016800327226519585,0.0,0.7895904183387756,0.0,0.0,-0.6136342287063599,0.0610046423971653,-0.5241485238075256,0.0,0.0,0.0,-5.528763771057129,-0.018771938979625702,0.8540879487991333,0.4665662944316864,0.7444829344749451,0.1498492807149887,-0.13510838150978088,-0.6364242434501648,5.415613174438477,-0.18263506889343262,0.17117980122566223,-22.54208755493164,1.019330620765686,-0.47238266468048096,-0.026665223762392998,0.8636789321899414,0.46856820583343506,5.629500389099121,0.48039817810058594,0.3928362727165222,0.3203825354576111,0.7770959734916687,0.42000001668930054,-0.3293594717979431,0.6837877035140991,-0.9710972905158997,-2.99949049949646,-0.23333971202373505,-0.22138749063014984,-0.20295611023902893,-0.18377764523029327,-0.566926896572113,-0.38385212421417236,-0.1321692168712616,0.09855199605226517
0.48333333333333334,0.03158758953213692,0.014763954095542431,0.0,0.7777451276779175,0.0,0.0,-0.6285797357559204,-0.1226855218410492,-0.08694720268249512,0.0,0.0,0.0,-0.9408565759658813,0.06958368420600891,0.8513842225074768,0.4707639813423157,0.6930369138717651,0.11899696290493011,-0.11434201896190643,-0.7017587423324585,5.22520637512207,-0.48326635360717773,0.17781512439250946,0.5896972417831421,-1.2275381088256836,-4.250769138336182,0.06323321908712387,0.8620337247848511,0.47386014461517334,5.178224086761475,-0.38838255405426025,0.2988918125629425,0.3203825354576111,0.7770959734916687,0.42000001668930054,-0.3199464678764343,0.703774094581604,-1.0211220979690552,-3.0000016689300537,-0.2399236261844635,-0.23353393375873566,-0.21040421724319458,-0.1871066689491272,0.037685561925172806,-0.6011067628860474,-0.4092617630958557,-0.24537576735019684
0.5,0.03271222487092018,0.010467376559972763,0.0,0.7587469816207886,0.0,0.0,-0.651385486125946,0.08409643173217773,-0.26200905442237854,0.0,0.0,0.0,-4.422486782073975,0.14927072823047638,0.8414731621742249,0.46939370036125183,0.6392390131950378,0.10182198882102966,-0.10681471973657608,-0.7547160387039185,4.473142623901367,-1.2563098669052124,-0.23911195993423462,-6.920179843902588,0.35445302724838257,1.4734447002410889,0.1443682610988617,0.8529038429260254,0.4729923605918884,4.498636245727539,-0.8855014443397522,-0.24593552947044373,0.3203825354576111,0.7770959734916687,0.42000001668930054,-0.3101000487804413,0.6323009133338928,-1.071144700050354,-3.000000476837158,-0.23590505123138428,-0.23860424757003784,-0.21355842053890228,-0.18866322934627533,0.17410583794116974,-0.23076307773590088,-0.1333186775445938,-0.05534737929701805
0.5166666666666666,0.0357491709291935,0.009172779507935047,0.0,0.7518686056137085,0.0,0.0,-0.6593129634857178,0.2310403287410736,-0.04580105468630791,0.0,0.0,0.0,-0.2253924310207367,0.2166351079940796,0.8236377239227295,0.46131008863449097,0.5919890403747559,0.07108525931835175,-0.09071588516235352,-0.797663152217865,3.56866717338562,-1.327409029006958,-0.5661658644676208,-0.023141218349337578,5.7649993896484375,-7.612048625946045,0.212173730134964,0.8340643644332886,0.4650305509567261,3.6975646018981934,-1.3154795169830322,-0.657264769077301,0.3203825354576111,0.7770959734916687,0.42000001668930054,-0.29480645060539246,1.1997636556625366,-1.1211668252944946,-2.9999983310699463,-0.2341034710407257,-0.239683136343956,-0.21566441655158997,-0.19007723033428192,0.20223315060138702,0.09935303032398224,-0.03559928759932518,-0.05339290201663971
0.5333333333333333,0.041536156088113785,0.01016813050955534,0.0,0.7372534871101379,0.0,0.0,-0.6756162643432617,0.39199933409690857,0.13881681859493256,0.0,0.0,0.0,-3.488476037979126,0.27025604248046875,0.806576669216156,0.445952445268631,0.5615041255950928,0.04001818969845772,-0.08318503946065903,-0.8223087787628174,2.8280487060546875,-1.565047025680542,-0.8501709699630737,-2.5987048149108887,3.096714496612549,12.913938522338867,0.26711589097976685,0.8161535263061523,0.45023322105407715,2.8656344413757324,-0.998241126537323,-1.026631474494934,0.3203825354576111,0.7770959734916687,0.42000001668930054,-0.27795329689979553,0.7148268818855286,-1.1711889505386353,-3.0000009536743164,-0.22840283811092377,-0.23590020835399628,-0.21523886919021606,-0.19130291044712067,0.3846525251865387,0.2887190878391266,0.056535255163908005,-0.0928255096077919
0.55,0.045217301696538925,0.008854212239384651,0.0,0.734468936920166,0.0,0.0,-0.6786422729492188,0.15120892226696014,-0.12152868509292603,0.0,0.0,0.0,0.43085989356040955,0.3101942241191864,0.7857112884521484,0.42684808373451233,0.5388535857200623,0.00392494210973382,-0.07067666202783585,-0.8394200801849365,1.8612972497940063,-1.6832225322723389,-1.1710834503173828,-2.2878353595733643,5.229290962219238,3.6879115104675293,0.30709633231163025,0.7946816682815552,0.43145275115966797,1.9057252407073975,-1.4163447618484497,-1.2010741233825684,0.3203825354576111,0.7770959734916687,0.42000001668930054,-0.2692383825778961,0.3986571431159973,-1.2212110757827759,-3.0000016689300537,-0.2228674739599228,-0.23076696693897247,-0.21353495121002197,-0.19209283590316772,0.26033976674079895,0.28701654076576233,0.0970916822552681,-0.05844547599554062
0.5666666666666667,0.0495266392827034,0.01041568722575903,0.0,0.7225390076637268,0.0,0.0,-0.6913301348686218,0.30355072021484375,0.1082729622721672,0.0,0.0,0.0,-2.90651798248291,0.33011743426322937,0.7747886180877686,0.4200834333896637,0.5358256101608276,-0.0023956873919814825,0.0011285353684797883,-0.84432452917099,0.49441835284233093,-0.5885360836982727,0.2467631846666336,6.324233055114746,16.08554458618164,7.808501720428467,0.3270043134689331,0.7823953032493591,0.4242316782474518,0.6675204634666443,-0.21775159239768982,0.2311529815196991,0.3203825354576111,0.7770959734916687,0.42000001668930054,-0.26188305020332336,0.4413723647594452,-1.2712877988815308,-2.979933500289917,-0.21739338338375092,-0.22534987330436707,-0.21190430223941803,-0.19369593262672424,0.4954693615436554,0.4555990397930145,0.18653865158557892,-0.05217058211565018
0.5833333333333334,0.05198870226740837,0.008502842858433723,0.0,0.7221844792366028,0.0,0.0,-0.6917004585266113,0.08459281176328659,-0.16216227412223816,0.0,0.0,0.0,0.7025522589683533,0.3371240496635437,0.766846239566803,0.4217342436313629,0.549518883228302,-0.024894719943404198,0.03777817636728287,-0.8342553377151489,0.16055898368358612,-0.45301640033721924,0.12255097925662994,3.5013935565948486,6.867299556732178,0.15415479242801666,0.33328136801719666,0.7736417651176453,0.4232460856437683,0.08322456479072571,-0.5679053068161011,0.02386113628745079,0.3203825354576111,0.7770959734916687,0.42000001668930054,-0.274901807308197,-1.7291216850280762,-1.235944151878357,2.944017171859741,-0.2102513611316681,-0.21789546310901642,-0.20816141366958618,-0.19347703456878662,0.35572510957717896,0.415399968624115,0.22935138642787933,0.041543785482645035
0.6,0.05524054542183876,0.009882546029984951,0.0,0.7112963199615479,0.0,0.0,-0.7028922438621521,0.24233831465244293,0.09062935411930084,0.0,0.0,0.0,-2.673149585723877,0.3378089368343353,0.7612591981887817,0.4226799011230469,0.5604651570320129,-0.038247160613536835,0.059122879058122635,-0.8251789212226868,0.3179980218410492,-0.07612859457731247,0.06634105741977692,0.8213527202606201,4.40676736831665,-9.736053466796875,0.33438342809677124,0.7694065570831299,0.42273226380348206,0.2891748547554016,-0.04187646508216858,0.1645442545413971,0.3203825354576111,0.7770959734916687,0.42000001668930054,-0.2996727228164673,-1.3514232635498047,-1.257678508758545,-2.995389223098755,-0.20453321933746338,-0.21142522990703583,-0.2048792988061905,-0.19346223771572113,0.5031057000160217,0.5061770677566528,0.2854616641998291,0.06047707051038742
0.6166666666666667,0.061020128428936005,0.010403547435998917,0.0,0.7125029563903809,0.0,0.0,-0.7016691565513611,0.37421876192092896,0.06266138702630997,0.0,0.0,0.0,1.0754858255386353,0.3405553102493286,0.7603315114974976,0.42314139008522034,0.5607625246047974,-0.04100891202688217,0.04766899719834328,-0.8255853056907654,0.038726191967725754,-0.07107400894165039,0.009619547054171562,-1.639536738395691,-1.6790403127670288,3.5946309566497803,0.33529382944107056,0.7680476903915405,0.425431489944458,-0.15570460259914398,-0.09575152397155762,0.17395834624767303,0.3203825354576111,0.7770959734916687,0.42000001668930054,-0.3439662456512451,-2.9999961853027344,-1.3076657056808472,-2.999830722808838,-0.19580699503421783,-0.2025284767150879,-0.19937972724437714,-0.1915542185306549,0.43008947372436523,0.4660358130931854,0.2965835928916931,0.10661795735359192
0.6333333333333333,0.0684075728058815,0.013671919703483582,0.0,0.7034947872161865,0.0,0.0,-0.7107003927230835,0.48005411028862,0.2489030510187149,0.0,0.0,0.0,-2.534986972808838,0.341044545173645,0.7593064308166504,0.42157724499702454,0.5872987508773804,-0.024549713358283043,0.028848836198449135,-0.8084831833839417,0.02066294103860855,-0.0527791790664196,-0.11263620108366013,0.8967820405960083,-4.355981826782227,3.605415105819702,0.3342543840408325,0.7705146074295044,0.42881274223327637,-0.04761653393507004,0.25860586762428284,0.23328080773353577,0.3203825354576111,0.7770959734916687,0.42000001668930054,-0.3939906358718872,-2.9999709129333496,-1.3576231002807617,-2.9989659786224365,-0.18647567927837372,-0.19347265362739563,-0.1936357170343399,-0.1893719881772995,0.6253129839897156,0.5919024348258972,0.39253267645835876,0.17701512575149536
0.65,0.07772483676671982,0.013732045888900757,0.0,0.7055426239967346,0.0,0.0,-0.708667516708374,0.5832794308662415,-0.0535140335559845,0.0,0.0,0.0,1.2637929916381836,0.3395337164402008,0.7591636180877686,0.42013242840766907,0.622774064540863,0.0017100800760090351,-0.00267378194257617,-0.7823951840400696,-0.2681991457939148,-0.00344788352958858,0.07060181349515915,-0.9195142984390259,-3.322033643722534,2.856184720993042,0.330822229385376,0.7730761170387268,0.4336520731449127,-0.32609450817108154,0.08610424399375916,0.3884710967540741,0.3203825354576111,0.7770959734916687,0.42000001668930054,-0.44400477409362793,-3.0000009536743164,-1.4076415300369263,-2.9999992847442627,-0.17788663506507874,-0.1847429871559143,-0.1872892826795578,-0.18577583134174347,0.37489569187164307,0.41985517740249634,0.32699155807495117,0.20705941319465637
0.6666666666666666,0.08666414767503738,0.015844402834773064,0.0,0.7017014026641846,0.0,0.0,-0.7124711275100708,0.4736681580543518,0.1313900351524353,0.0,0.0,0.0,-1.5693800449371338,0.33561059832572937,0.7590912580490112,0.4203997850418091,0.638215184211731,0.006445567589253187,-0.007770351134240627,-0.7697917819023132,-0.2236151546239853,-0.004493172280490398,-0.0011978214606642723,0.012315336614847183,0.05979769304394722,2.2363955974578857,0.3276359438896179,0.7740380764007568,0.437879741191864,0.005550086498260498,0.08768093585968018,0.2146812230348587,0.3203825354576111,0.7770959734916687,0.42000001668930054,-0.49401798844337463,-3.0000014305114746,-1.4576598405838013,-2.999999523162842,-0.17430175840854645,-0.17978297173976898,-0.1828860342502594,-0.18233132362365723,0.30680036544799805,0.37025541067123413,0.34232786297798157,0.29901015758514404
0.6833333333333333,0.09585601836442947,0.014545341953635216,0.0,0.6781994104385376,0.0,0.0,-0.7348779439926147,0.5919895172119141,-0.15897537767887115,0.0,0.0,0.0,-4.75675630569458,0.3327016234397888,0.758987545967102,0.420000284910202,0.6489129662513733,3.971781552536413e-06,3.628068270700169e-06,-0.7608625292778015,-0.14273330569267273,-0.0060226693749427795,-4.734715912491083e-05,-0.002352336421608925,0.0004848380049224943,1.294438123703003,0.3291712999343872,0.7773756980895996,0.44890296459198,0.23467247188091278,0.2773720920085907,1.2255903482437134,0.3203825354576111,0.7770959734916687,0.42000001668930054,-0.5440307259559631,-2.9999701976776123,-1.5076781511306763,-2.9999983310699463,-0.17157188057899475,-0.17576973140239716,-0.17884844541549683,-0.1785307675600052,0.07356240600347519,0.15943218767642975,0.1831594854593277,0.1905532032251358
0.7,0.10771576315164566,0.016812574118375778,0.0,0.6672878861427307,0.0,0.0,-0.7447999119758606,0.7285136580467224,0.13114526867866516,0.0,0.0,0.0,-0.7321937084197998,0.3313148021697998,0.7589142322540283,0.42000001668930054,0.653121829032898,1.1498554641775627e-07,1.0897030051637557e-06,-0.7572528123855591,-0.06214657798409462,-0.003944264724850655,-6.6622160375118256e-06,-0.0001887375401565805,-0.0004224529257044196,0.46887853741645813,0.3336569666862488,0.7835917472839355,0.47622746229171753,0.37799981236457825,0.5723730325698853,2.0080513954162598,0.3203825354576111,0.7770959734916687,0.42000001668930054,-0.5940337777137756,-2.9999923706054688,-1.5576964616775513,-3.0,-0.17426656186580658,-0.17672085762023926,-0.1788870245218277,-0.1779525876045227,-0.03816420957446098,0.012127749621868134,0.02932245470583439,0.035494111478328705
0.7166666666666667,0.11657264828681946,0.017708303406834602,0.0,0.6796820759773254,0.0,0.0,-0.7335067987442017,0.47765490412712097,0.09356753528118134,0.0,0.0,0.0,2.8467190265655518,0.3311116397380829,0.7588986754417419,0.4200000464916229,0.6536224484443665,1.811308720789384e-05,1.396372795170464e-06,-0.7568207383155823,0.0012352103367447853,0.0008910717442631721,-0.0005757671315222979,-0.03869377076625824,0.0006208660779520869,-0.003675704589113593,0.34298819303512573,0.7925870418548584,0.5038877129554749,0.6201359033584595,0.4489392638206482,1.3927536010742188,0.3203825354576111,0.7770959734916687,0.42000001668930054,-0.6132243871688843,0.41480615735054016,-1.6077134609222412,-3.0,-0.17355114221572876,-0.17501002550125122,-0.1765640676021576,-0.1752135306596756,-0.029974719509482384,0.06402584910392761,0.14075133204460144,0.2016049176454544
0.7333333333333333,0.12136199325323105,0.0157746784389019,0.0,0.6796367168426514,0.0,0.0,-0.7335488796234131,0.18927337229251862,-0.16953635215759277,0.0,0.0,0.0,-0.8930352330207825,0.33111312985420227,0.7588995099067688,0.42000001668930054,0.6536210775375366,-1.7970498902286636e-06,-4.853990049014101e-06,-0.756821870803833,0.00014279474271461368,-0.00038561326800845563,-0.0001089414581656456,0.00792175903916359,-0.0014689783565700054,-0.0002598478749860078,0.35080578923225403,0.7968162298202515,0.521257758140564,0.3188325762748718,0.06533902883529663,0.8599264621734619,0.3203825354576111,0.7770959734916687,0.42000001668930054,-0.6346639394760132,-2.7003097534179688,-1.5686839818954468,2.9999992847442627,-0.17434926331043243,-0.17406658828258514,-0.1741373986005783,-0.17167264223098755,-0.07130273431539536,0.04215670004487038,0.14100442826747894,0.21203406155109406
0.75,0.12685921788215637,0.018099486827850342,0.0,0.690291166305542,0.0,0.0,-0.7235317230224609,0.3282206654548645,0.17295211553573608,0.0,0.0,0.0,2.6167490482330322,0.33111312985420227,0.7588995099067688,0.42000001668930054,0.6536211967468262,-1.6458320715173613e-06,-4.783386430062819e-06,-0.7568218111991882,0.0001465636887587607,-0.00036838219966739416,-0.00010024593211710453,0.007639425341039896,-0.0013023077044636011,-0.00027344332193024457,0.35634303092956543,0.7968111038208008,0.536155104637146,0.35977792739868164,0.08422505855560303,0.9692336320877075,0.3203825354576111,0.7770959734916687,0.42000001668930054,-0.6507496237754822,0.5040836334228516,-1.583349347114563,-3.000000238418579,-0.17891085147857666,-0.17627139389514923,-0.17415744066238403,-0.1700018048286438,-0.1546708196401596,-0.0501943863928318,0.05255883187055588,0.13111475110054016
0.7666666666666666,0.12963105738162994,0.01571420580148697,0.0,0.6891185641288757,0.0,0.0,-0.7246485948562622,0.13281144201755524,-0.1936844438314438,0.0,0.0,0.0,-1.085367202758789,0.33111312985420227,0.7588995099067688,0.42000001668930054,0.6536213159561157,-1.666709522396559e-06,-4.9923751248570625e-06,-0.7568216919898987,0.00014973040379118174,-0.0003710731689352542,-9.999028407037258e-05,0.007708527613431215,-0.0012666790280491114,-0.000279188621789217,0.36294057965278625,0.7963733673095703,0.5476545691490173,0.38537532091140747,-0.25940582156181335,0.5769292116165161,0.3203825354576111,0.7770959734916687,0.42000001668930054,-0.6729960441589355,-2.8626773357391357,-1.5443893671035767,3.000000238418579,-0.17858344316482544,-0.17462237179279327,-0.17110200226306915,-0.16587205231189728,-0.03673431649804115,0.06429595500230789,0.1713545024394989,0.2566746473312378
0.7833333333333333,0.1335376799106598,0.016529252752661705,0.0,0.6964219212532043,0.0,0.0,-0.7176325917243958,0.26906490325927734,0.05963245406746864,0.0,0.0,0.0,2.308976888656616,0.33111312985420227,0.7588995099067688,0.42000001668930054,0.6536208391189575,-1.619221279725025e-06,-4.631759111362044e-06,-0.7568220496177673,0.0001459040358895436,-0.0003672547172755003,-0.00010015652514994144,0.007611858658492565,-0.0013070557033643126,-0.00027226112433709204,0.37150144577026367,0.7926204204559326,0.5599542856216431,0.6668618321418762,-0.10939916968345642,0.9328340291976929,0.3203825354576111,0.7770959734916687,0.42000001668930054,-0.6872179508209229,0.8462573289871216,-1.5596050024032593,-3.000000238418579,-0.18046094477176666,-0.17492933571338654,-0.16965526342391968,-0.16297303140163422,0.024695713073015213,0.07442426681518555,0.14223507046699524,0.19912348687648773
0.8,0.13504184782505035,0.014243935234844685,0.0,0.6939128041267395,0.0,0.0,-0.7200590372085571,0.033477503806352615,-0.18523666262626648,0.0,0.0,0.0,-1.2611594200134277,0.33111312985420227,0.7588995099067688,0.42000001668930054,0.6536210179328918,-1.6480408930874546e-06,-4.528554200078361e-06,-0.7568219900131226,0.00014612043742090464,-0.00036723780795000494,-0.00010007037781178951,0.007612759713083506,-0.0013041471829637885,-0.00027274584863334894,0.38163119554519653,0.7895838022232056,0.5731680989265442,0.5428932905197144,-0.29302293062210083,0.7821639776229858,0.3203825354576111,0.7770959734916687,0.42000001668930054,-0.6958454251289368,-1.657395839691162,-1.5207173824310303,2.9999988079071045,-0.17986953258514404,-0.17354819178581238,-0.16718119382858276,-0.1595849245786667,0.01601005159318447,0.06792091578245163,0.13652899861335754,0.193381667137146
0.8166666666666667,0.13763120770454407,0.015260309912264347,0.0,0.7021989226341248,0.0,0.0,-0.7119808197021484,0.19904211163520813,0.07664813846349716,0.0,0.0,0.0,2.1119439601898193,0.33111312985420227,0.7588995099067688,0.42000001668930054,0.6536210179328918,-1.5367280639111414e-06,-4.749178060592385e-06,-0.7568219304084778,0.00014699289749842137,-0.00036780574009753764,-9.997165761888027e-05,0.007627903018146753,-0.0012951166136190295,-0.00027446672902442515,0.3908078968524933,0.7842190861701965,0.5871264934539795,0.6065508127212524,-0.23233193159103394,0.9258023500442505,0.3203825354576111,0.7770959734916687,0.42000001668930054,-0.6924669146537781,1.7629486322402954,-1.5364331007003784,-2.9999992847442627,-0.1808454990386963,-0.1736384630203247,-0.16609744727611542,-0.1574994921684265,0.08065446466207504,0.09354360401630402,0.1275208294391632,0.1569286286830902
0.8333333333333334,0.13823792338371277,0.012847651727497578,0.0,0.698624849319458,0.0,0.0,-0.7154881358146667,-0.018770772963762283,-0.16894879937171936,0.0,0.0,0.0,-1.4230749607086182,0.33111312985420227,0.7588995099067688,0.42000001668930054,0.6536210179328918,-1.611430548109638e-06,-4.67332483822247e-06,-0.7568219900131226,0.0001455030287615955,-0.00036743778036907315,-0.00010030600242316723,0.0076156239956617355,-0.0013140173396095634,-0.00027143704937770963,0.39856040477752686,0.781169056892395,0.6005818843841553,0.3023204207420349,-0.23702408373355865,0.8055753707885742,0.3203825354576111,0.7770959734916687,0.42000001668930054,-0.6851488351821899,-0.6788557171821594,-1.4976110458374023,2.9999992847442627,-0.17786525189876556,-0.17086666822433472,-0.16321179270744324,-0.15456479787826538,0.11880325525999069,0.11372718960046768,0.12344678491353989,0.12651635706424713
0.85,0.13950155675411224,0.01375752966850996,0.0,0.7053095102310181,0.0,0.0,-0.7088994383811951,0.15759654343128204,0.0852346196770668,0.0,0.0,0.0,1.8254488706588745,0.33111312985420227,0.7588995099067688,0.42000001668930054,0.6536209583282471,-1.5204506098598358e-06,-4.702192200056743e-06,-0.7568220496177673,0.00014686393842566758,-0.0003673151950351894,-9.987386874854565e-05,0.007615861017256975,-0.0012926132185384631,-0.00027423183200880885,0.4036964774131775,0.7768550515174866,0.6133897304534912,0.3469388782978058,-0.16265225410461426,0.7803360223770142,0.3203825354576111,0.7770959734916687,0.42000001668930054,-0.6685640215873718,2.388303518295288,-1.5137977600097656,-3.000000238418579,-0.17657414078712463,-0.16972099244594574,-0.16197216510772705,-0.15331827104091644,0.18720172345638275,0.14602498710155487,0.12088268995285034,0.09475115686655045
0.8666666666666667,0.13957421481609344,0.011810323223471642,0.0,0.7001652717590332,0.0,0.0,-0.7139807939529419,-0.0494193397462368,-0.14749467372894287,0.0,0.0,0.0,-1.681433081626892,0.33111312985420227,0.7588995099067688,0.42000001668930054,0.6536208987236023,-1.5181458365987055e-06,-4.724369318864774e-06,-0.7568219900131226,0.00014707501395605505,-0.00036733917659148574,-9.981822222471237e-05,0.007617336697876453,-0.0012903832830488682,-0.00027472025249153376,0.4054206609725952,0.7756121158599854,0.6231229305267334,-0.15424448251724243,-0.09551119804382324,0.5155191421508789,0.3203825354576111,0.7770959734916687,0.42000001668930054,-0.6500778794288635,0.02030857279896736,-1.4750373363494873,3.000000476837158,-0.172086700797081,-0.16625170409679413,-0.15929386019706726,-0.15144166350364685,0.20481152832508087,0.15591327846050262,0.11560805886983871,0.07159662246704102
0.8833333333333333,0.13718385994434357,0.013032355345785618,0.0,0.7058152556419373,0.0,0.0,-0.7083959579467773,-0.17899981141090393,0.12621073424816132,0.0,0.0,0.0,1.7079168558120728,0.33111312985420227,0.7588995099067688,0.42000001668930054,0.6536210775375366,-1.6288233837258304e-06,-4.63060814581695e-06,-0.7568219304084778,0.00014642135647591203,-0.00036745419492945075,-0.00010004080832004547,0.007618391886353493,-0.0013009592657908797,-0.00027332923491485417,0.40312671661376953,0.7726808786392212,0.6309069991111755,-0.09788791835308075,-0.11936052143573761,0.478493869304657,0.3203825354576111,0.7770959734916687,0.42000001668930054,-0.6250724196434021,2.723651885986328,-1.4250258207321167,2.9999988079071045,-0.1698482483625412,-0.1647428423166275,-0.15839456021785736,-0.15120834112167358,0.19592706859111786,0.13132542371749878,0.074245885014534,0.016394566744565964
