vladlanda/robotic-transformer/data/env_000_episode_0116.csv
sim_time_s,robot_box_x,robot_box_y,robot_box_z,robot_box_quat_w,robot_box_quat_x,robot_box_quat_y,robot_box_quat_z,robot_box_linvel_x,robot_box_linvel_y,robot_box_linvel_z,robot_box_angvel_x,robot_box_angvel_y,robot_box_angvel_z,cube_world_x,cube_world_y,cube_world_z,cube_quat_w,cube_quat_x,cube_quat_y,cube_quat_z,cube_linvel_x,cube_linvel_y,cube_linvel_z,cube_angvel_x,cube_angvel_y,cube_angvel_z,endpoint_world_x,endpoint_world_y,endpoint_world_z,endpoint_linvel_x,endpoint_linvel_y,endpoint_linvel_z,target_cube_world_x,target_cube_world_y,target_cube_world_z,gripper_actual_pos_rad_gp_leftgearjoint,gripper_actual_vel_rad_s_gp_leftgearjoint,gripper_actual_pos_rad_gp_rotatingjoint,gripper_actual_vel_rad_s_gp_rotatingjoint,motor_angle_rad_joint1,motor_angle_rad_joint2,motor_angle_rad_joint3,motor_angle_rad_joint4,motor_speed_rad_s_joint1,motor_speed_rad_s_joint2,motor_speed_rad_s_joint3,motor_speed_rad_s_joint4
0.0,0.0,0.0,0.0,1.0,0.0,0.0,0.0,0.0,0.0,0.0,0.0,0.0,0.0,-0.4156564772129059,0.69455885887146,0.41999998688697815,1.0,0.0,0.0,0.0,0.0,0.0,0.0,0.0,0.0,0.0,3.42540442943573e-06,-0.005000244826078415,1.313499927520752,0.0,0.0,0.0,0.4478772282600403,0.7412776947021484,0.42000001668930054,-1.5707999467849731,0.0,0.0,0.0,0.0,0.0,0.0,0.0,0.0,0.0,0.0,0.0
0.016666666666666666,0.0028778850100934505,0.0021806680597364902,0.0,0.9998081922531128,0.0,0.0,0.019586581736803055,0.24087215960025787,0.18240931630134583,0.0,0.0,0.0,3.1418697834014893,-0.41565659642219543,0.6945585608482361,0.41999998688697815,1.0,3.2799914606584935e-06,-8.339814598912199e-07,8.465387679734704e-08,-1.9833554688375443e-05,0.00017983050202019513,-6.133061833679676e-05,0.0009432226070202887,-0.004689437802881002,-0.0003198152990080416,-0.007110234349966049,0.003379564033821225,1.3159373998641968,-0.8143353462219238,0.9868683815002441,0.18095196783542633,0.4478772282600403,0.7412776947021484,0.42000001668930054,-1.5301095247268677,3.0000011920928955,-0.04584788903594017,-2.9999992847442627,0.0008691533003002405,0.0007963840034790337,0.0007110277656465769,0.0006108740926720202,0.11094217747449875,0.09756709635257721,0.08334315568208694,0.06823883205652237
0.03333333333333333,0.008960986509919167,0.00680199172347784,0.0,0.9997960329055786,0.0,0.0,0.020196838304400444,0.40702176094055176,0.3153078556060791,0.0,0.0,0.0,-0.8691331148147583,-0.415656715631485,0.6945585012435913,0.4200000464916229,1.0,3.390914116607746e-06,-2.132455392711563e-06,-3.71076644967161e-08,0.0002635782293509692,0.00026937935035675764,-0.00010509486310184002,-0.001770757487975061,0.0041308156214654446,-0.00013547815615311265,-0.027553444728255272,0.026219096034765244,1.3165926933288574,-1.5913877487182617,1.6160633563995361,-0.08548302203416824,0.4478772282600403,0.7412776947021484,0.42000001668930054,-1.4800903797149658,3.0,-0.09588771313428879,-3.0,0.0029901000671088696,0.0026527084410190582,0.0022772778756916523,0.0018607318634167314,0.16421446204185486,0.13975827395915985,0.11381711065769196,0.08629922568798065
0.05,0.01730458438396454,0.013694779947400093,0.0,0.999592661857605,0.0,0.0,0.02853914350271225,0.559943437576294,0.453930526971817,0.0,0.0,0.0,1.9149186611175537,-0.4156567454338074,0.6945585608482361,0.4200000464916229,1.0,3.7652293940482195e-06,-2.2118967990536476e-06,5.613899567435965e-09,0.000265309150563553,0.0002669153909664601,-0.0001044049859046936,-0.00172426737844944,0.004177379421889782,-0.0001294983085244894,-0.05925685167312622,0.05504237860441208,1.3113481998443604,-2.1658544540405273,1.8272199630737305,-0.5005502104759216,0.4478772282600403,0.7412776947021484,0.42000001668930054,-1.4300720691680908,3.0,-0.145926371216774,-3.0000011920928955,0.005538254976272583,0.004754217807203531,0.003898139577358961,0.0029653843957930803,0.18044988811016083,0.14403213560581207,0.10575636476278305,0.06551705300807953
0.06666666666666667,0.028198933228850365,0.02277197316288948,0.0,0.999783992767334,0.0,0.0,0.02078503556549549,0.7043874263763428,0.5805515050888062,0.0,0.0,0.0,-1.8514543771743774,-0.4156567454338074,0.6945585012435913,0.4200000464916229,0.9999999403953552,3.4068445984303253e-06,-2.2855729184811935e-06,4.300823945868615e-07,0.000267024093773216,0.0002679175231605768,-0.0001043803058564663,-0.0017406325787305832,0.004211729858070612,-0.00012850853090640157,-0.09602180123329163,0.09083719551563263,1.298797607421875,-2.2791457176208496,2.3445634841918945,-0.9785799980163574,0.4478772282600403,0.7412776947021484,0.42000001668930054,-1.3800537586212158,2.9999988079071045,-0.1959526091814041,-3.0,0.00788523443043232,0.00637446902692318,0.004753253422677517,0.0030167577788233757,0.13597971200942993,0.08081112802028656,0.02363208495080471,-0.03564033284783363
0.08333333333333333,0.04258272424340248,0.034067004919052124,0.0,0.9998931288719177,0.0,0.0,-0.014621039852499962,0.9275314807891846,0.7206491231918335,0.0,0.0,0.0,-5.098254680633545,-0.4156567454338074,0.6945585012435913,0.4200000464916229,1.0,3.697329248097958e-06,-2.1889204617764335e-06,-2.632361599808064e-07,0.00026389621780253947,0.00026586378226056695,-0.00010433816350996494,-0.0017081365222111344,0.004150137305259705,-0.00012991174298804253,-0.13295596837997437,0.13399085402488708,1.2803421020507812,-2.171062469482422,2.728625774383545,-1.24114990234375,0.4478772282600403,0.7412776947021484,0.42000001668930054,-1.3300265073776245,2.999998092651367,-0.1655464768409729,2.9999990463256836,0.009425273165106773,0.00688366312533617,0.004190973937511444,0.0013429457321763039,0.06720604002475739,-0.002860597101971507,-0.07499956339597702,-0.1491992026567459
0.1,0.0511460155248642,0.049456045031547546,0.0,0.9994502067565918,0.0,0.0,-0.033155106008052826,0.37618231773376465,1.0042973756790161,0.0,0.0,0.0,-1.13351571559906,-0.4156567454338074,0.6945585012435913,0.4200000464916229,0.9999999403953552,3.620433972173487e-06,-2.265166358483839e-06,1.7460881451825117e-07,0.00026676940615288913,0.00026740849716588855,-0.0001040794886648655,-0.0017386502586305141,0.0042092143557965755,-0.00012775196228176355,-0.17089538276195526,0.17488348484039307,1.2583684921264648,-2.196552038192749,2.4711174964904785,-1.3310267925262451,0.4478772282600403,0.7412776947021484,0.42000001668930054,-1.2800301313400269,3.000002145767212,-0.197206512093544,-3.0000014305114746,0.00398970115929842,0.0006533118430525064,-0.002885648515075445,-0.006634548772126436,-0.452595591545105,-0.5047268867492676,-0.5593960881233215,-0.6168187260627747
0.11666666666666667,0.055064063519239426,0.06568063795566559,0.0,0.9980069994926453,0.0,0.0,-0.06310302764177322,0.2304958701133728,0.9476656913757324,0.0,0.0,0.0,-4.35854434967041,-0.4156567454338074,0.6945585012435913,0.4200000464916229,1.0,3.7984186747053172e-06,-2.262772341055097e-06,-1.5020653165720432e-07,0.00026373984292149544,0.00026565982261672616,-0.00010428996756672859,-0.0017054551281034946,0.004147582221776247,-0.000129800770082511,-0.20589058101177216,0.2192336916923523,1.2367610931396484,-1.9860870838165283,2.9149346351623535,-1.3057441711425781,0.4478772282600403,0.7412776947021484,0.42000001668930054,-1.230019450187683,3.000000238418579,-0.2472371906042099,-3.0000016689300537,-0.0030063544400036335,-0.007654090411961079,-0.012506833299994469,-0.017574012279510498,-0.3542413115501404,-0.4530608355998993,-0.5501909852027893,-0.6456568241119385
0.13333333333333333,0.06741439551115036,0.07871216535568237,0.0,0.996324360370636,0.0,0.0,-0.0856609120965004,0.6710944771766663,0.7595686316490173,0.0,0.0,0.0,-1.8196361064910889,-0.4156567454338074,0.6945585608482361,0.4200000464916229,0.9999999403953552,3.5505179312167456e-06,-2.2298092972050654e-06,2.9291240366546845e-07,0.0002670329704415053,0.0002677935699466616,-0.00010416889563202858,-0.0017439755611121655,0.004213570151478052,-0.00012800609692931175,-0.2421775758266449,0.26846665143966675,1.2127376794815063,-2.254439353942871,3.128014087677002,-1.7082390785217285,0.4478772282600403,0.7412776947021484,0.42000001668930054,-1.1812173128128052,2.829531669616699,-0.21317404508590698,3.000000238418579,-0.0017764184158295393,-0.008762413635849953,-0.015867596492171288,-0.02309790812432766,-0.19995467364788055,-0.2952309250831604,-0.38752007484436035,-0.4766836166381836
0.15,0.07508332282304764,0.08927381038665771,0.0,0.9925208687782288,0.0,0.0,-0.12207481265068054,0.40775495767593384,0.5563927292823792,0.0,0.0,0.0,-5.2163310050964355,-0.4156567454338074,0.6945585012435913,0.4200000464916229,0.9999999403953552,3.3380795230186777e-06,-2.2429178443417186e-06,-2.8019679021440425e-08,0.00026674545370042324,0.0002675825380720198,-0.00010427855886518955,-0.0017367409309372306,0.004206846002489328,-0.00012831656204070896,-0.27646228671073914,0.3241233229637146,1.1824324131011963,-1.8690868616104126,3.566232204437256,-1.9186097383499146,0.4478772282600403,0.7412776947021484,0.42000001668930054,-1.1314560174942017,3.000002145767212,-0.244544118642807,-3.0000007152557373,-0.008111156523227692,-0.01647978276014328,-0.024917762726545334,-0.03343157470226288,-0.4456499218940735,-0.5242699384689331,-0.5996212363243103,-0.671748697757721
0.16666666666666666,0.07799924165010452,0.10221971571445465,0.0,0.9826817512512207,0.0,0.0,-0.18530143797397614,0.1722448170185089,0.741245687007904,0.0,0.0,0.0,-8.330257415771484,-0.4156567454338074,0.6945585608482361,0.4200000464916229,0.9999999403953552,3.6478086258284748e-06,-2.307298927917145e-06,3.5287062161160065e-08,0.0002672687987796962,0.0002680137986317277,-0.0001041849609464407,-0.0017472092295065522,0.004217576701194048,-0.00012798466195818037,-0.3074056804180145,0.3880453407764435,1.1410619020462036,-1.7773449420928955,4.135073661804199,-2.8335752487182617,0.4478772282600403,0.7412776947021484,0.42000001668930054,-1.0953370332717896,1.4344793558120728,-0.2945477068424225,-2.999999523162842,-0.019737286493182182,-0.028803179040551186,-0.037874579429626465,-0.046964626759290695,-0.6194130182266235,-0.6672049760818481,-0.7081267237663269,-0.7423962950706482
0.18333333333333332,0.08662179857492447,0.11577927321195602,0.0,0.9735527634620667,0.0,0.0,-0.2284623384475708,0.6285815834999084,0.8683978915214539,0.0,0.0,0.0,-4.247952461242676,-0.4156567454338074,0.6945585012435913,0.4200000464916229,0.9999999403953552,3.2905161333474098e-06,-2.1939308680885006e-06,-2.7921495870941726e-07,0.0002667803782969713,0.0002677594602573663,-0.00010433956049382687,-0.0017390174325555563,0.004206987097859383,-0.00012845761375501752,-0.3418595790863037,0.4537894129753113,1.086164951324463,-1.882889747619629,4.163297653198242,-3.7481298446655273,0.4478772282600403,0.7412776947021484,0.42000001668930054,-1.0504907369613647,3.0,-0.34457507729530334,-2.999999523162842,-0.02797424979507923,-0.03759662061929703,-0.047118812799453735,-0.05656072124838829,-0.49351024627685547,-0.5075122117996216,-0.5162307024002075,-0.5201367139816284
0.2,0.09146980196237564,0.12659475207328796,0.0,0.9709597229957581,0.0,0.0,-0.23924295604228973,0.20957842469215393,0.5962479114532471,0.0,0.0,0.0,-0.27166229486465454,-0.4156567454338074,0.6945585012435913,0.4200000464916229,1.0,3.2807702154968865e-06,-2.2192509732121835e-06,1.5948818088418193e-07,0.0002662783954292536,0.00026740110479295254,-0.0001042510848492384,-0.0017357355682179332,0.004197742789983749,-0.00012865533062722534,-0.37603098154067993,0.5133236646652222,1.016921043395996,-1.8161585330963135,3.542686700820923,-4.512801647186279,0.4478772282600403,0.7412776947021484,0.42000001668930054,-1.0004838705062866,2.99999737739563,-0.3946010172367096,-3.0000011920928955,-0.04091406986117363,-0.05014743283390999,-0.05929771438241005,-0.068235382437706,-0.7609351277351379,-0.7699608206748962,-0.7938343286514282,-0.794526219367981
0.21666666666666667,0.09172961860895157,0.13813427090644836,0.0,0.9649502038955688,0.0,0.0,-0.2624330222606659,-0.05470149591565132,0.7303041815757751,0.0,0.0,0.0,-3.7340104579925537,-0.4156567454338074,0.6945585608482361,0.4200000464916229,1.0,3.6131550587015226e-06,-2.2701437956129666e-06,2.2102723562511528e-07,0.0002671259571798146,0.00026781647466123104,-0.0001041400246322155,-0.001744531444273889,0.004215213470160961,-0.00012786476872861385,-0.4040570855140686,0.5715106129646301,0.9355630874633789,-1.4789355993270874,3.34993314743042,-5.160658836364746,0.4478772282600403,0.7412776947021484,0.42000001668930054,-0.9504745602607727,3.000001907348633,-0.44462841749191284,-2.9999990463256836,-0.056398674845695496,-0.06545836478471756,-0.074562206864357,-0.08314245194196701,-0.9841927289962769,-0.9624719619750977,-0.9461268186569214,-0.9147180318832397
0.23333333333333334,0.09606693685054779,0.14580775797367096,0.0,0.9548360109329224,0.0,0.0,-0.29713326692581177,0.2860828638076782,0.3856745958328247,0.0,0.0,0.0,-4.461021423339844,-0.4156567454338074,0.6945585012435913,0.4200000464916229,1.0,3.381868964424939e-06,-2.290964630446979e-06,2.728199035573198e-07,0.00026691248058341444,0.0002677997399587184,-0.00010433257557451725,-0.0017395582981407642,0.004209650680422783,-0.00012844071898143739,-0.4263136386871338,0.6245709657669067,0.8427520990371704,-0.9952758550643921,2.963348388671875,-5.945782661437988,0.4478772282600403,0.7412776947021484,0.42000001668930054,-0.900463879108429,2.999999523162842,-0.49465781450271606,-2.999999761581421,-0.07141900807619095,-0.08025912195444107,-0.08906104415655136,-0.09685927629470825,-0.9886376857757568,-0.9902421832084656,-0.9875769019126892,-0.9157688021659851
0.25,0.09478592127561569,0.1565326452255249,0.0,0.9509302377700806,0.0,0.0,-0.3094053268432617,-0.060471657663583755,0.6307466626167297,0.0,0.0,0.0,-0.5433098673820496,-0.415656715631485,0.6945585012435913,0.4200000464916229,0.9999999403953552,3.7066108689032262e-06,-2.2230169633985497e-06,-2.2550023004441755e-07,0.00026424735551699996,0.00026656591217033565,-0.00010457867756485939,-0.001716934028081596,0.004155629314482212,-0.00013063238293398172,-0.4405350387096405,0.6570355892181396,0.741639256477356,-0.5510337948799133,1.4408178329467773,-6.11915397644043,0.4478772282600403,0.7412776947021484,0.42000001668930054,-0.8504531979560852,2.999932289123535,-0.5446876287460327,-2.9999969005584717,-0.08840463310480118,-0.09706684947013855,-0.10576192289590836,-0.11349920928478241,-0.7196620106697083,-0.7665305733680725,-0.8118448257446289,-0.853890597820282
0.26666666666666666,0.09863203018903732,0.16224460303783417,0.0,0.9425907135009766,0.0,0.0,-0.3339502513408661,0.2472124844789505,0.2788090109825134,0.0,0.0,0.0,-3.7418105602264404,-0.4156567454338074,0.6945585012435913,0.4200000464916229,0.9999999403953552,3.7197162328084232e-06,-2.4034857233345974e-06,-1.8307420646124228e-07,0.0002662334591150284,0.000267290830379352,-0.00010425737127661705,-0.001732664299197495,0.004196626134216785,-0.00012850995699409395,-0.4472508132457733,0.6790192127227783,0.6369149684906006,-0.07083360105752945,1.018248200416565,-6.330683708190918,0.4478772282600403,0.7412776947021484,0.42000001668930054,-0.8004438877105713,2.9999985694885254,-0.5947173833847046,-3.0000007152557373,-0.10102085024118423,-0.11001133173704147,-0.11899960041046143,-0.12704958021640778,-0.9929643869400024,-0.9793107509613037,-0.9464334845542908,-0.9197372198104858
0.2833333333333333,0.09843253344297409,0.16471895575523376,0.0,0.9406302571296692,0.0,0.0,-0.33943289518356323,-0.0896616205573082,0.09005087614059448,0.0,0.0,0.0,0.23355068266391754,-0.4156567454338074,0.6945585608482361,0.4200000464916229,0.9999999403953552,3.5841367207467556e-06,-2.3154134396463633e-06,7.404404556154986e-08,0.0002652216353453696,0.0002645539352670312,-0.00010317075066268444,-0.0017022255342453718,0.004185160622000694,-0.00012499756121542305,-0.4455447196960449,0.6888527274131775,0.5380661487579346,0.40417972207069397,0.24254167079925537,-5.51270866394043,0.4478772282600403,0.7412776947021484,0.42000001668930054,-0.7504351139068604,3.0000014305114746,-0.6447460651397705,-3.0000011920928955,-0.11864249408245087,-0.12740015983581543,-0.13621985912322998,-0.1441425085067749,-1.0153652429580688,-1.0116016864776611,-1.0087354183197021,-1.0064486265182495
0.3,0.09440916031599045,0.16427095234394073,0.0,0.9341275691986084,0.0,0.0,-0.35693931579589844,-0.23027867078781128,-0.09711159765720367,0.0,0.0,0.0,-3.0466864109039307,-0.4156567454338074,0.6945585012435913,0.4200000464916229,1.0,3.7243221413518768e-06,-2.271844550705282e-06,9.635388664719358e-08,0.00026312549016438425,0.0002652580733411014,-0.00010438100434839725,-0.0016960209468379617,0.004134732764214277,-0.00013027961540501565,-0.43352359533309937,0.6915192604064941,0.4491806626319885,0.9763619303703308,0.13581404089927673,-5.199793815612793,0.4478772282600403,0.7412776947021484,0.42000001668930054,-0.7004272937774658,2.9999959468841553,-0.6947727799415588,-3.000000476837158,-0.13536766171455383,-0.14409154653549194,-0.15291379392147064,-0.1608561873435974,-0.9381973743438721,-0.9508750438690186,-0.9625831842422485,-0.9738379120826721
0.31666666666666665,0.08891462534666061,0.16101700067520142,0.0,0.9340628385543823,0.0,0.0,-0.3571087718009949,-0.3667876422405243,-0.23596405982971191,0.0,0.0,0.0,0.8843693137168884,-0.4156566560268402,0.6945583820343018,0.4200000464916229,0.9999999403953552,4.6499762902385555e-06,-1.3855833458364941e-06,-5.894143214391079e-06,0.0003093875420745462,0.00029609649209305644,-0.00015263310342561454,-0.0011596467811614275,0.007975718937814236,0.02428535930812359,-0.4265936613082886,0.695263147354126,0.4185292720794678,0.2380848228931427,0.09487170726060867,-0.15467262268066406,0.4478772282600403,0.7412776947021484,0.42000001668930054,-0.6506226062774658,2.9860122203826904,-0.7453922629356384,-2.8381714820861816,-0.1431380957365036,-0.1528148651123047,-0.16233700513839722,-0.17066273093223572,-0.1027229055762291,-0.17382366955280304,-0.22216171026229858,-0.24299322068691254
0.3333333333333333,0.08105211704969406,0.1554844230413437,0.0,0.9286893010139465,0.0,0.0,-0.3708587884902954,-0.5220895409584045,-0.3728649616241455,0.0,0.0,0.0,-2.6615211963653564,-0.41494861245155334,0.695733904838562,0.42008137702941895,0.999927818775177,0.002045591361820698,3.09941719933704e-06,-0.01183720026165247,0.18954890966415405,0.2940319776535034,0.025713615119457245,1.286772608757019,-0.0007738281856290996,-5.491811275482178,-0.423719584941864,0.700358510017395,0.4246259331703186,0.3014340400695801,0.32696032524108887,-0.14951162040233612,0.4478772282600403,0.7412776947021484,0.42000001668930054,-0.600612461566925,2.9999992847442627,-0.7954558730125427,-3.0000040531158447,-0.14467477798461914,-0.1550796627998352,-0.1649056226015091,-0.17308227717876434,-0.2360432893037796,-0.2315191626548767,-0.2064766138792038,-0.1624327301979065
0.35,0.070943683385849,0.14766061305999756,0.0,0.9294454455375671,0.0,0.0,-0.36895957589149475,-0.6442521214485168,-0.5089630484580994,0.0,0.0,0.0,1.1816750764846802,-0.40981003642082214,0.7034879922866821,0.42013517022132874,0.9953994154930115,0.0033610821701586246,-0.00025162321981042624,-0.09575236588716507,0.3879971206188202,0.5772684216499329,0.014408053830265999,0.7826979160308838,-0.11366555839776993,-13.465521812438965,-0.41753920912742615,0.7093753814697266,0.4221605062484741,0.4583629369735718,0.7117706537246704,-0.12553928792476654,0.4478772282600403,0.7412776947021484,0.42000001668930054,-0.5506073832511902,2.9999892711639404,-0.8454844355583191,-2.999999523162842,-0.1503225713968277,-0.15989039838314056,-0.16854192316532135,-0.1752786487340927,-0.3785838484764099,-0.2997630834579468,-0.20138603448867798,-0.08968594670295715
0.36666666666666664,0.05866566672921181,0.1376166194677353,0.0,0.9244600534439087,0.0,0.0,-0.381278932094574,-0.7833482027053833,-0.6417872309684753,0.0,0.0,0.0,-2.5264644622802734,-0.40071481466293335,0.7164702415466309,0.42000120878219604,0.9909217357635498,4.877578976447694e-05,-9.854837117018178e-06,-0.13443982601165771,0.6649561524391174,0.922103762626648,-0.002684298437088728,-0.1334564983844757,0.020605940371751785,-4.197573184967041,-0.40741944313049316,0.7215749025344849,0.4210506081581116,0.728262186050415,0.8408324718475342,0.05323173850774765,0.4478772282600403,0.7412776947021484,0.42000001668930054,-0.5005874037742615,2.9995832443237305,-0.8955174684524536,-2.9709370136260986,-0.15727950632572174,-0.16516616940498352,-0.17178559303283691,-0.1762700378894806,-0.4089110493659973,-0.2955208122730255,-0.16106601059436798,-0.014441276900470257
0.3833333333333333,0.04835333302617073,0.12491913139820099,0.0,0.9084012508392334,0.0,0.0,-0.4180995225906372,-0.5722501873970032,-0.8077239990234375,0.0,0.0,0.0,-5.5894551277160645,-0.3860831558704376,0.7359932661056519,0.4206189513206482,0.9847514033317566,-0.014753653667867184,0.0016850314568728209,-0.17333194613456726,1.133541464805603,1.4546250104904175,0.04471764713525772,-1.1777433156967163,-1.3120510578155518,-5.892571449279785,-0.3919926881790161,0.7392987608909607,0.42242032289505005,1.1710600852966309,1.348306655883789,0.10287916660308838,0.4478772282600403,0.7412776947021484,0.42000001668930054,-0.4505447447299957,3.0000033378601074,-0.9455280900001526,-2.9999797344207764,-0.16493117809295654,-0.1704881340265274,-0.1743760108947754,-0.17589841783046722,-0.46254003047943115,-0.3071645498275757,-0.12695133686065674,0.06704588234424591
0.4,0.04185701534152031,0.10928010940551758,0.0,0.8790139555931091,0.0,0.0,-0.47679606080055237,-0.31744080781936646,-0.9942413568496704,0.0,0.0,0.0,-8.682514190673828,-0.3550899028778076,0.7664451599121094,0.4229447841644287,0.97458815574646,0.009455166757106781,-0.02771013230085373,-0.22208252549171448,2.6858205795288086,2.2424516677856445,0.3540070652961731,15.532369613647461,-12.989113807678223,-1.243336796760559,-0.36078453063964844,0.7700074911117554,0.4246922731399536,2.6220359802246094,2.329922676086426,0.3237972855567932,0.4478772282600403,0.7412776947021484,0.42000001668930054,-0.40286922454833984,2.236410617828369,-0.9543206095695496,1.5547947883605957,-0.17410345375537872,-0.1765560656785965,-0.1769673228263855,-0.17484590411186218,-0.5881751179695129,-0.38136929273605347,-0.15610307455062866,0.07467786967754364
0.4166666666666667,0.03780863434076309,0.09850991517305374,0.0,0.8325648903846741,0.0,0.0,-0.553927481174469,-0.1993808150291443,-0.521587610244751,0.0,0.0,0.0,-11.61178970336914,-0.28641942143440247,0.8120483160018921,0.4294852912425995,0.9526068568229675,0.08745404332876205,-0.06749312579631805,-0.28343716263771057,5.608508110046387,2.8568177223205566,0.5501360297203064,0.4195789694786072,-5.961191177368164,7.726089954376221,-0.2919868230819702,0.8157352209091187,0.43127894401550293,5.272589683532715,3.2118160724639893,0.5477892160415649,0.4478772282600403,0.7412776947021484,0.42000001668930054,-0.38236406445503235,0.9399245381355286,-0.9048537015914917,3.0000009536743164,-0.18952995538711548,-0.18903140723705292,-0.18441852927207947,-0.17754168808460236,-0.9041913151741028,-0.8448326587677002,-0.5480901598930359,-0.27811509370803833
0.43333333333333335,0.030642639845609665,0.09331586956977844,0.0,0.7940272092819214,0.0,0.0,-0.6078822016716003,-0.3891398012638092,-0.312869668006897,0.0,0.0,0.0,-6.433474063873291,-0.1964917778968811,0.8570221662521362,0.4404532015323639,0.9121072292327881,0.12687361240386963,-0.08414775133132935,-0.38063451647758484,5.779054641723633,1.9953209161758423,0.8377360701560974,-5.831345081329346,1.6128901243209839,5.168144226074219,-0.2017882764339447,0.8624814748764038,0.441799521446228,5.719457626342773,2.635981559753418,0.6600685119628906,0.4478772282600403,0.7412776947021484,0.42000001668930054,-0.36676859855651855,0.9799423813819885,-0.9308586120605469,-2.9996213912963867,-0.20332872867584229,-0.20303067564964294,-0.19646787643432617,-0.1848735809326172,-0.6517422199249268,-0.677415132522583,-0.6109215021133423,-0.3968012034893036
0.45,0.02883804403245449,0.0813085213303566,0.0,0.7756040692329407,0.0,0.0,-0.631219744682312,-0.015394157730042934,-0.8609555959701538,0.0,0.0,0.0,-2.541943311691284,-0.09586772322654724,0.8912419080734253,0.4504716098308563,0.860205888748169,0.12137007713317871,-0.08513714373111725,-0.487920880317688,6.544451713562012,0.8181971907615662,0.4349588453769684,1.1094673871994019,-21.80124282836914,13.613911628723145,-0.10077038407325745,0.8989923000335693,0.45116308331489563,6.434256553649902,1.6365950107574463,0.6687359809875488,0.4478772282600403,0.7412776947021484,0.42000001668930054,-0.3502659499645233,0.8773512840270996,-0.9808825850486755,-3.0000033378601074,-0.21005061268806458,-0.2093459516763687,-0.20121175050735474,-0.1861032396554947,-0.3632221221923828,-0.2709430456161499,-0.12958680093288422,0.09874207526445389
0.4666666666666667,0.023523734882473946,0.07270751148462296,0.0,0.7477117776870728,0.0,0.0,-0.6640234589576721,-0.3118315637111664,-0.4952513873577118,0.0,0.0,0.0,-5.790449619293213,0.011340808123350143,0.9057270884513855,0.4602510929107666,0.7917192578315735,0.11909034103155136,-0.09901032596826553,-0.5909271836280823,6.429848670959473,-0.2601025402545929,0.86891108751297,14.51272964477539,-4.828110694885254,33.18920135498047,0.006985199637711048,0.9161081314086914,0.461958110332489,6.776759147644043,0.6691012382507324,0.6535399556159973,0.4478772282600403,0.7412776947021484,0.42000001668930054,-0.33748334646224976,0.5983787775039673,-1.0309057235717773,-3.0000014305114746,-0.2212802767753601,-0.21773959696292877,-0.20646871626377106,-0.1874387115240097,-0.5405394434928894,-0.4007357954978943,-0.257894903421402,-0.08829344809055328
0.48333333333333334,0.020893074572086334,0.067865751683712,0.0,0.7347105741500854,0.0,0.0,-0.6783806681632996,-0.09151459485292435,-0.19061803817749023,0.0,0.0,0.0,-1.1183480024337769,0.11569005250930786,0.9030187129974365,0.4701486825942993,0.7203302979469299,0.1649436503648758,-0.05241244658827782,-0.6716923117637634,5.5676164627075195,-1.512839913368225,-0.013268809765577316,-34.78812789916992,9.376611709594727,24.427480697631836,0.11424215137958527,0.9148639440536499,0.4694361388683319,6.417852401733398,-0.7640770077705383,0.5139482021331787,0.4478772282600403,0.7412776947021484,0.42000001668930054,-0.32898908853530884,0.298395574092865,-1.080927848815918,-3.000002384185791,-0.23202933371067047,-0.22526900470256805,-0.21101851761341095,-0.18899507820606232,-0.6751629114151001,-0.44652965664863586,-0.247324600815773,-0.06890164315700531
0.5,0.021822122856974602,0.06127892807126045,0.0,0.7148995995521545,0.0,0.0,-0.6992271542549133,0.11132253706455231,-0.4497202932834625,0.0,0.0,0.0,-4.285759449005127,0.20829464495182037,0.8836007118225098,0.4723445177078247,0.6525316834449768,0.17723029851913452,-0.017775660380721092,-0.7365294694900513,4.598995685577393,-2.590543508529663,-0.16344916820526123,3.9881205558776855,-24.2512149810791,42.06704330444336,0.2088598906993866,0.8955531716346741,0.4703320860862732,5.360418319702148,-1.6581186056137085,-0.019226565957069397,0.4478772282600403,0.7412776947021484,0.42000001668930054,-0.32523104548454285,0.032386913895606995,-1.1309499740600586,-3.000002861022949,-0.2400243580341339,-0.23140159249305725,-0.21371564269065857,-0.18887662887573242,-0.052791059017181396,-0.4061043858528137,-0.17903080582618713,-0.004170631989836693
0.5166666666666666,0.025475263595581055,0.05832844600081444,0.0,0.7076302766799927,0.0,0.0,-0.7065829038619995,0.24606835842132568,-0.15824364125728607,0.0,0.0,0.0,-0.20318295061588287,0.28713124990463257,0.8512358665466309,0.4673641324043274,0.5736729502677917,0.14321671426296234,-0.026072725653648376,-0.8060449957847595,3.8594751358032227,-2.3574578762054443,-0.8530464172363281,-27.81529426574707,21.051294326782227,6.403085231781006,0.2866922914981842,0.8631590604782104,0.4662601947784424,4.356586933135986,-2.1238865852355957,-0.2488211989402771,0.4478772282600403,0.7412776947021484,0.42000001668930054,-0.3234885632991791,0.17990204691886902,-1.1809720993041992,-3.000001907348633,-0.23991046845912933,-0.23888951539993286,-0.2177085280418396,-0.19049248099327087,0.021985745057463646,-0.22749723494052887,-0.09577671438455582,-0.032765381038188934
0.5333333333333333,0.03110569156706333,0.058194201439619064,0.0,0.6926121115684509,0.0,0.0,-0.7213102579116821,0.40684667229652405,0.056293196976184845,0.0,0.0,0.0,-3.4022271633148193,0.35260826349258423,0.8179889917373657,0.4501030147075653,0.5035327672958374,-0.018469102680683136,-0.12210265547037125,-0.855104923248291,3.6647019386291504,-1.9218343496322632,-1.1600691080093384,-12.424692153930664,7.668194770812988,-17.745176315307617,0.35119134187698364,0.8316162824630737,0.45617616176605225,3.475003957748413,-1.8580045700073242,-0.8132352828979492,0.4478772282600403,0.7412776947021484,0.42000001668930054,-0.3113045394420624,1.2833282947540283,-1.2309942245483398,-2.999551296234131,-0.23751915991306305,-0.2395465224981308,-0.21845710277557373,-0.19156213104724884,0.25701311230659485,0.11983013898134232,0.026836473494768143,-0.05863821879029274
0.55,0.04010198637843132,0.05358710512518883,0.0,0.6895396709442139,0.0,0.0,-0.7242478728294373,0.5105696320533752,-0.2750838100910187,0.0,0.0,0.0,0.4228041470050812,0.4039183557033539,0.7875362038612366,0.4307078719139099,0.45612502098083496,-0.07395138591527939,-0.12722745537757874,-0.8776640295982361,2.4019622802734375,-2.053582191467285,-0.9187065362930298,21.404926300048828,7.50912618637085,-0.0380680114030838,0.40345942974090576,0.8003542423248291,0.4398806393146515,2.6608400344848633,-1.900679111480713,-1.1236720085144043,0.4478772282600403,0.7412776947021484,0.42000001668930054,-0.282798171043396,1.9319934844970703,-1.2810163497924805,-3.000000476837158,-0.22950491309165955,-0.2335587739944458,-0.2147667407989502,-0.1902843415737152,0.41441020369529724,0.34705621004104614,0.20940807461738586,0.04786372184753418
0.5666666666666667,0.050656892359256744,0.053297415375709534,0.0,0.6762811541557312,0.0,0.0,-0.7366436123847961,0.6841593980789185,-0.02002805657684803,0.0,0.0,0.0,-3.0001347064971924,0.4375772178173065,0.7699857950210571,0.4218917489051819,0.4547421336174011,-0.03057294711470604,-0.0251013096421957,-0.8897441625595093,1.2791287899017334,-1.7642687559127808,0.6092224717140198,-27.323612213134766,7.550219535827637,29.478614807128906,0.4378267526626587,0.7795671224594116,0.4312788248062134,1.397839069366455,-0.5359500646591187,0.30564793944358826,0.4478772282600403,0.7412776947021484,0.42000001668930054,-0.25942862033843994,0.5756391882896423,-1.242924451828003,2.9970433712005615,-0.22229395806789398,-0.22775079309940338,-0.21203134953975677,-0.19099441170692444,0.5805390477180481,0.4679039418697357,0.23382854461669922,-0.018056586384773254
0.5833333333333334,0.058839473873376846,0.055162250995635986,0.0,0.6758319735527039,0.0,0.0,-0.7370557188987732,0.417751282453537,0.17471425235271454,0.0,0.0,0.0,0.8359899520874023,0.45809245109558105,0.7552934885025024,0.42376118898391724,0.4678177833557129,-0.04694530740380287,-0.022443613037467003,-0.882291853427887,0.9781447052955627,-1.0646796226501465,0.11525775492191315,-4.668641567230225,1.8786616325378418,-0.5081425309181213,0.4565964937210083,0.7653995752334595,0.4332773685455322,0.8313316106796265,-0.9245278835296631,-0.15140603482723236,0.4478772282600403,0.7412776947021484,0.42000001668930054,-0.28439944982528687,-2.594616174697876,-1.26376473903656,-3.0000007152557373,-0.21311193704605103,-0.21988391876220703,-0.20790891349315643,-0.19103141129016876,0.5369741320610046,0.484960675239563,0.2660553753376007,0.01485485304147005
0.6,0.0671413466334343,0.05451652407646179,0.0,0.6646547317504883,0.0,0.0,-0.7471506595611572,0.5219994187355042,-0.10440526157617569,0.0,0.0,0.0,-2.693469524383545,0.46922463178634644,0.742561936378479,0.4223065972328186,0.48996788263320923,-0.05054589360952377,-0.024082589894533157,-0.869940459728241,0.2588816285133362,-0.036268215626478195,-0.0802270695567131,5.350681781768799,-2.2839255332946777,5.664714813232422,0.468233585357666,0.7564062476158142,0.42625874280929565,0.23552106320858002,-0.07811857759952545,0.18846748769283295,0.4478772282600403,0.7412776947021484,0.42000001668930054,-0.30970948934555054,-0.5070313811302185,-1.3137211799621582,-2.9973247051239014,-0.20202811062335968,-0.20994092524051666,-0.20204070210456848,-0.18975983560085297,0.7025214433670044,0.6327885389328003,0.38387396931648254,0.10653819888830185
0.6166666666666667,0.07759365439414978,0.05685601010918617,0.0,0.6657165884971619,0.0,0.0,-0.746204674243927,0.648389995098114,0.16953440010547638,0.0,0.0,0.0,1.079578161239624,0.4716951549053192,0.741966724395752,0.4200957417488098,0.5218217372894287,-0.0011514317011460662,-0.001209358568303287,-0.8530529141426086,0.0011186667252331972,-0.027441171929240227,-0.10774482041597366,5.025853157043457,-2.750488758087158,3.1973326206207275,0.46691176295280457,0.7532545328140259,0.4269282817840576,-0.24278108775615692,-0.142316535115242,-0.021839551627635956,0.4478772282600403,0.7412776947021484,0.42000001668930054,-0.34812963008880615,-2.999972343444824,-1.3011304140090942,2.9996047019958496,-0.1932305097579956,-0.20163047313690186,-0.19726961851119995,-0.18906767666339874,0.5643251538276672,0.5317844748497009,0.31771567463874817,0.07236956804990768
0.6333333333333333,0.08718613535165787,0.05973010137677193,0.0,0.6874833106994629,0.0,0.0,-0.7262001633644104,0.5290058851242065,0.23148539662361145,0.0,0.0,0.0,4.585704326629639,0.46892082691192627,0.741706132888794,0.4200003147125244,0.5332133173942566,-2.281833440065384e-05,2.9293401894392446e-05,-0.8459807634353638,-0.3274648189544678,-0.0005620646406896412,-0.001110608340241015,-0.027686625719070435,-0.051674120128154755,0.6681552529335022,0.461731493473053,0.752034068107605,0.42900025844573975,-0.41370999813079834,-0.005802998319268227,0.19970518350601196,0.4478772282600403,0.7412776947021484,0.42000001668930054,-0.3981788456439972,-3.0,-1.3204933404922485,-2.9990179538726807,-0.18351928889751434,-0.19241414964199066,-0.19146397709846497,-0.18715885281562805,0.5588960647583008,0.5372211933135986,0.3463979959487915,0.12665115296840668
0.65,0.09720494598150253,0.05963496118783951,0.0,0.697059690952301,0.0,0.0,-0.7170130610466003,0.6202900409698486,-0.03600713238120079,0.0,0.0,0.0,0.5228945016860962,0.4644761085510254,0.7417027354240417,0.4200000464916229,0.5374395251274109,3.73991412061514e-07,4.30642273840931e-07,-0.8433022499084473,-0.24515478312969208,-0.00039581162855029106,-2.6238267309963703e-06,-9.88418105407618e-05,-3.1056097213877365e-05,0.5793544054031372,0.45928069949150085,0.7540788650512695,0.4335181713104248,-0.09962731599807739,0.089680977165699,0.3060001730918884,0.4478772282600403,0.7412776947021484,0.42000001668930054,-0.44825708866119385,-2.999735116958618,-1.3704537153244019,-2.999600648880005,-0.17345337569713593,-0.18236902356147766,-0.18398486077785492,-0.18260355293750763,0.4943537712097168,0.5407207608222961,0.44638147950172424,0.33260855078697205
0.6666666666666666,0.10860001295804977,0.05617593601346016,0.0,0.6845953464508057,0.0,0.0,-0.7289233207702637,0.716523289680481,-0.27997177839279175,0.0,0.0,0.0,-2.9659173488616943,0.4614099860191345,0.7416976094245911,0.419999897480011,0.5408209562301636,8.031563993426971e-06,-8.575039828428999e-06,-0.8411376476287842,-0.1635720282793045,-0.0005206424393691123,-0.0001624375581741333,0.00043040336458943784,0.007930462248623371,0.4405692219734192,0.46061402559280396,0.7567681074142456,0.4413784146308899,0.21765810251235962,0.16846632957458496,0.7501536011695862,0.4478772282600403,0.7412776947021484,0.42000001668930054,-0.4982701241970062,-2.9999988079071045,-1.4204720258712769,-3.0,-0.16742755472660065,-0.1750154346227646,-0.17739702761173248,-0.17704258859157562,0.27902382612228394,0.38529956340789795,0.3791279196739197,0.35979074239730835
0.6833333333333333,0.12339478731155396,0.05714324489235878,0.0,0.6500551700592041,0.0,0.0,-0.7598869800567627,0.853206217288971,0.07774811238050461,0.0,0.0,0.0,-6.4029927253723145,0.45969274640083313,0.7416910529136658,0.4200000464916229,0.5430495738983154,4.6567146227971534e-07,7.69354244312126e-07,-0.8397006392478943,-0.08187591284513474,-0.0005572439986281097,-1.7140511772595346e-05,-0.0006823376170359552,-0.0007615072536282241,0.27090102434158325,0.4703517258167267,0.757194459438324,0.46082907915115356,1.0959062576293945,-0.010565772652626038,1.670337438583374,0.4478772282600403,0.7412776947021484,0.42000001668930054,-0.5482826828956604,-2.999999761581421,-1.4704903364181519,-2.9999988079071045,-0.1702638417482376,-0.17487744987010956,-0.17600534856319427,-0.17467984557151794,-0.11815298348665237,0.038215603679418564,0.10762717574834824,0.16629596054553986
0.7,0.13898345828056335,0.06120499223470688,0.0,0.6289487481117249,0.0,0.0,-0.7774467468261719,0.9915474057197571,0.24195322394371033,0.0,0.0,0.0,-2.244055986404419,0.4593016505241394,0.7416874766349792,0.4200000762939453,0.5437325835227966,-3.2875361739570508e-06,-2.671976290002931e-06,-0.8392584323883057,-0.0005101196002215147,-8.362684457097203e-05,-9.574848809279501e-05,0.004267693497240543,-0.0017360474448651075,-0.000484062940813601,0.48850569128990173,0.7611119747161865,0.4904419779777527,1.130493402481079,0.43814828991889954,1.8894226551055908,0.4478772282600403,0.7412776947021484,0.42000001668930054,-0.5692575573921204,0.22205808758735657,-1.5205086469650269,-3.0,-0.17233218252658844,-0.17515867948532104,-0.17581707239151,-0.17423225939273834,-2.2584572434425354e-08,0.03661525622010231,0.0044453321024775505,-0.039392270147800446
0.7166666666666667,0.15144602954387665,0.06008124351501465,0.0,0.6328824162483215,0.0,0.0,-0.7742478847503662,0.721799910068512,-0.1374211609363556,0.0,0.0,0.0,1.4502490758895874,0.45930153131484985,0.7416875958442688,0.41999998688697815,0.5437324643135071,-3.078431745962007e-06,-3.5844429930875776e-06,-0.83925861120224,-3.459681829554029e-05,-0.00032248315983451903,-8.921767584979534e-05,0.008515606634318829,-0.003506685374304652,-0.0007608942105434835,0.505394697189331,0.7707799077033997,0.5153424739837646,0.7788140773773193,0.5087792873382568,1.134436845779419,0.4478772282600403,0.7412776947021484,0.42000001668930054,-0.5445958971977234,2.5183377265930176,-1.4831305742263794,3.0,-0.16753949224948883,-0.17026299238204956,-0.17181611061096191,-0.17132173478603363,0.12096433341503143,0.1744668334722519,0.17107334733009338,0.14872011542320251
0.7333333333333333,0.16046199202537537,0.062120258808135986,0.0,0.6246296763420105,0.0,0.0,-0.7809211015701294,0.4704601764678955,0.17419660091400146,0.0,0.0,0.0,-2.2331748008728027,0.45930153131484985,0.7416876554489136,0.41999998688697815,0.5437328219413757,-3.2297139114234596e-06,-3.9917104004416615e-06,-0.8392583727836609,-4.00669923692476e-05,-0.0003253555332776159,-9.24940686672926e-05,0.008557896129786968,-0.0035468903370201588,-0.0007602882687933743,0.5097171068191528,0.7787226438522339,0.5284936428070068,-0.14920705556869507,0.4890355169773102,0.5898078680038452,0.4478772282600403,0.7412776947021484,0.42000001668930054,-0.51515132188797,1.1143882274627686,-1.4330931901931763,2.9999992847442627,-0.1684958040714264,-0.16995102167129517,-0.17108066380023956,-0.17053082585334778,0.0014438304351642728,0.058146797120571136,0.07248032093048096,0.06597600877285004
0.75,0.16531790792942047,0.06039910018444061,0.0,0.6284522414207458,0.0,0.0,-0.7778481841087341,0.22912725806236267,-0.1971069872379303,0.0,0.0,0.0,1.431462287902832,0.45930153131484985,0.7416876554489136,0.41999998688697815,0.5437328815460205,-3.2553896289755357e-06,-4.008853466075379e-06,-0.8392581939697266,-3.598606417654082e-05,-0.00032493670005351305,-9.075994603335857e-05,0.008563828654587269,-0.0035226468462496996,-0.0007658425602130592,0.5035457611083984,0.7859343886375427,0.5340165495872498,-0.6263706684112549,0.4388222098350525,0.13298682868480682,0.4478772282600403,0.7412776947021484,0.42000001668930054,-0.49761098623275757,0.9851787090301514,-1.4505696296691895,-3.0000009536743164,-0.16775014996528625,-0.16811524331569672,-0.16877441108226776,-0.16813687980175018,0.07292910665273666,0.13616666197776794,0.16720378398895264,0.17429880797863007
0.7666666666666666,0.16635015606880188,0.06351906806230545,0.0,0.6202191710472107,0.0,0.0,-0.7844285368919373,0.0029301049653440714,0.324876070022583,0.0,0.0,0.0,-2.2545533180236816,0.45930153131484985,0.7416876554489136,0.41999998688697815,0.543732762336731,-3.2371053748647682e-06,-4.038690804009093e-06,-0.8392583131790161,-3.884447505697608e-05,-0.00032474996987730265,-9.162072092294693e-05,0.008553501218557358,-0.0035379871260374784,-0.0007601587567478418,0.48751598596572876,0.7912607192993164,0.5293537378311157,-1.1755175590515137,0.271391361951828,-0.5289797782897949,0.4478772282600403,0.7412776947021484,0.42000001668930054,-0.4928240478038788,-0.3018302619457245,-1.4119826555252075,3.000000476837158,-0.17157287895679474,-0.17014610767364502,-0.16950926184654236,-0.16804121434688568,-0.27943673729896545,-0.17215003073215485,-0.08973617106676102,-0.03505055233836174
0.7833333333333333,0.16883251070976257,0.06399953365325928,0.0,0.6225554943084717,0.0,0.0,-0.7825756072998047,0.1391851007938385,-0.040771327912807465,0.0,0.0,0.0,0.9514199495315552,0.45930153131484985,0.7416876554489136,0.41999998688697815,0.5437328815460205,-3.2593723062745994e-06,-3.950517566408962e-06,-0.8392581939697266,-3.9784696127753705e-05,-0.000324705324601382,-9.185215458273888e-05,0.008551988750696182,-0.003544794162735343,-0.0007580973324365914,0.46732932329177856,0.7947587966918945,0.5208104252815247,-1.3078668117523193,0.16550521552562714,-0.4749531149864197,0.4478772282600403,0.7412776947021484,0.42000001668930054,-0.515511691570282,-2.236356019973755,-1.4298838376998901,-3.000000238418579,-0.17401982843875885,-0.17129716277122498,-0.16963092982769012,-0.1675032377243042,-0.13019421696662903,-0.06826716661453247,-0.014911025762557983,0.020594323053956032
0.8,0.17250102758407593,0.061016350984573364,0.0,0.6140483021736145,0.0,0.0,-0.789268434047699,0.26768767833709717,-0.24479344487190247,0.0,0.0,0.0,-2.40380597114563,0.45930153131484985,0.7416875958442688,0.41999998688697815,0.5437327027320862,-3.176437076035654e-06,-3.5737687085202197e-06,-0.8392583727836609,-3.729196760104969e-05,-0.0003246981941629201,-9.104353375732899e-05,0.00855694618076086,-0.0035255770199000835,-0.0007626309525221586,0.4533325135707855,0.795425534248352,0.5065370798110962,-0.3926766514778137,-0.07031475007534027,-1.0492810010910034,0.4478772282600403,0.7412776947021484,0.42000001668930054,-0.5611668229103088,-2.9999845027923584,-1.4799021482467651,-3.0,-0.17694221436977386,-0.17287060618400574,-0.16979123651981354,-0.16639582812786102,-0.1630193591117859,-0.07080087810754776,0.03478538617491722,0.13858158886432648
0.8166666666666667,0.17884010076522827,0.05457596480846405,0.0,0.5832623839378357,0.0,0.0,-0.8122838139533997,0.42772477865219116,-0.44413432478904724,0.0,0.0,0.0,-5.530272006988525,0.45930153131484985,0.7416875958442688,0.41999998688697815,0.5437328815460205,-3.0826206511846976e-06,-3.7847855764994165e-06,-0.8392583131790161,-3.9694554288871586e-05,-0.00032477115746587515,-9.18142031878233e-05,0.008554738946259022,-0.003546179970726371,-0.0007586966385133564,0.4533247947692871,0.7885223627090454,0.49534595012664795,0.45370158553123474,-0.6626315116882324,-0.17677772045135498,0.4478772282600403,0.7412776947021484,0.42000001668930054,-0.6111775040626526,-2.9999003410339355,-1.5299204587936401,-2.9999945163726807,-0.1821931153535843,-0.17623482644557953,-0.1709907054901123,-0.16543789207935333,-0.3637138307094574,-0.24954193830490112,-0.1157076507806778,0.019642770290374756
0.8333333333333334,0.18828241527080536,0.05151614919304848,0.0,0.5673580169677734,0.0,0.0,-0.8234712481498718,0.5887061953544617,-0.1432218998670578,0.0,0.0,0.0,-1.1739530563354492,0.45930153131484985,0.7416876554489136,0.41999998688697815,0.543732762336731,-3.2245757211057935e-06,-3.9673982428212184e-06,-0.8392584323883057,-4.01384531869553e-05,-0.0003246800333727151,-9.197252802550793e-05,0.008550395257771015,-0.003546173917129636,-0.0007576901698485017,0.46260160207748413,0.7842831611633301,0.4980432987213135,0.676874041557312,0.08632267266511917,0.41876471042633057,0.4478772282600403,0.7412776947021484,0.42000001668930054,-0.629673182964325,0.4911206364631653,-1.5799371004104614,-3.0000007152557373,-0.18885985016822815,-0.18181516230106354,-0.17515447735786438,-0.16814756393432617,-0.2400282323360443,-0.2548925578594208,-0.2471924126148224,-0.23272055387496948
0.85,0.19437940418720245,0.04615512117743492,0.0,0.578012228012085,0.0,0.0,-0.8160280585289001,0.33817198872566223,-0.37179645895957947,0.0,0.0,0.0,2.3165347576141357,0.45930153131484985,0.7416875958442688,0.41999998688697815,0.5437325835227966,-3.1443601073988248e-06,-3.866244242090033e-06,-0.8392584919929504,-3.937604196835309e-05,-0.00032434193417429924,-9.147170931100845e-05,0.00854763574898243,-0.003540514735504985,-0.0007572903414256871,0.4771437346935272,0.7866300344467163,0.49961698055267334,0.9682767391204834,0.04405594244599342,-0.21086789667606354,0.4478772282600403,0.7412776947021484,0.42000001668930054,-0.6221690773963928,0.4095553755760193,-1.5409797430038452,3.0,-0.18928521871566772,-0.1827339082956314,-0.1761728674173355,-0.16912595927715302,-0.06525065749883652,-0.06441977620124817,-0.043160781264305115,-0.017065029591321945
0.8666666666666667,0.19744102656841278,0.04343768209218979,0.0,0.5753573179244995,0.0,0.0,-0.817902147769928,0.123557448387146,-0.08859613537788391,0.0,0.0,0.0,-1.2920244932174683,0.45930153131484985,0.7416876554489136,0.41999998688697815,0.543732762336731,-3.2623306651657913e-06,-4.044489287480246e-06,-0.8392583131790161,-3.843543163384311e-05,-0.0003248412976972759,-9.146146476268768e-05,0.008558155037462711,-0.0035387405660003424,-0.0007610888569615781,0.4917811155319214,0.7830651998519897,0.4929560720920563,0.8557798266410828,-0.3123331069946289,-0.45605704188346863,0.4478772282600403,0.7412776947021484,0.42000001668930054,-0.6453509330749512,-2.8855478763580322,-1.4909766912460327,3.000000238418579,-0.19240550696849823,-0.18555761873722076,-0.17838867008686066,-0.17068049311637878,-0.08565190434455872,-0.09692130982875824,-0.08776239305734634,-0.0722135677933693
