vladlanda/robotic-transformer/data/env_000_episode_0026.csv
sim_time_s,robot_box_x,robot_box_y,robot_box_z,robot_box_quat_w,robot_box_quat_x,robot_box_quat_y,robot_box_quat_z,robot_box_linvel_x,robot_box_linvel_y,robot_box_linvel_z,robot_box_angvel_x,robot_box_angvel_y,robot_box_angvel_z,cube_world_x,cube_world_y,cube_world_z,cube_quat_w,cube_quat_x,cube_quat_y,cube_quat_z,cube_linvel_x,cube_linvel_y,cube_linvel_z,cube_angvel_x,cube_angvel_y,cube_angvel_z,endpoint_world_x,endpoint_world_y,endpoint_world_z,endpoint_linvel_x,endpoint_linvel_y,endpoint_linvel_z,target_cube_world_x,target_cube_world_y,target_cube_world_z,gripper_actual_pos_rad_gp_leftgearjoint,gripper_actual_vel_rad_s_gp_leftgearjoint,gripper_actual_pos_rad_gp_rotatingjoint,gripper_actual_vel_rad_s_gp_rotatingjoint,motor_angle_rad_joint1,motor_angle_rad_joint2,motor_angle_rad_joint3,motor_angle_rad_joint4,motor_speed_rad_s_joint1,motor_speed_rad_s_joint2,motor_speed_rad_s_joint3,motor_speed_rad_s_joint4
0.0,0.0,0.0,0.0,1.0,0.0,0.0,0.0,0.0,0.0,0.0,0.0,0.0,0.0,-0.45146921277046204,0.7531816363334656,0.41999998688697815,1.0,0.0,0.0,0.0,0.0,0.0,0.0,0.0,0.0,0.0,3.42540442943573e-06,-0.005000244826078415,1.313499927520752,0.0,0.0,0.0,0.4643040895462036,0.7395954132080078,0.42000001668930054,-1.5707999467849731,0.0,0.0,0.0,0.0,0.0,0.0,0.0,0.0,0.0,0.0,0.0
0.016666666666666666,0.0028778850100934505,0.0021806680597364902,0.0,0.9998081922531128,0.0,0.0,0.019586581736803055,0.24087215960025787,0.18240931630134583,0.0,0.0,0.0,3.1418697834014893,-0.4514693319797516,0.7531813383102417,0.41999998688697815,1.0,3.2799914606584935e-06,-8.339814598912199e-07,8.465387679734704e-08,-1.9833554688375443e-05,0.00017983050202019513,-6.133061833679676e-05,0.0009432226070202887,-0.004689437802881002,-0.0003198152990080416,-0.007110234349966049,0.003379564033821225,1.3159373998641968,-0.8143353462219238,0.9868683815002441,0.18095196783542633,0.4643040895462036,0.7395954132080078,0.42000001668930054,-1.5301095247268677,3.0000011920928955,-0.04584788903594017,-2.9999992847442627,0.0008691533003002405,0.0007963840034790337,0.0007110277656465769,0.0006108740926720202,0.11094217747449875,0.09756709635257721,0.08334315568208694,0.06823883205652237
0.03333333333333333,0.00896099116653204,0.006802027579396963,0.0,0.9997960329055786,0.0,0.0,0.020196840167045593,0.4070222079753876,0.3153079152107239,0.0,0.0,0.0,-0.8691337704658508,-0.45146945118904114,0.7531812787055969,0.4200000464916229,1.0,3.390868869246333e-06,-2.1324674435163615e-06,-3.711417306817566e-08,0.00026357892784290016,0.0002693788555916399,-0.00010509602725505829,-0.001770795788615942,0.004130901303142309,-0.00013548035349231213,-0.027556639164686203,0.02629934810101986,1.3165804147720337,-1.5912965536117554,1.6163429021835327,-0.08707208186388016,0.4643040895462036,0.7395954132080078,0.42000001668930054,-1.4800903797149658,3.0000007152557373,-0.09588771313428879,-3.000000238418579,0.002990090986713767,0.0026526888832449913,0.0022772483061999083,0.0018606933299452066,0.1642124056816101,0.13975512981414795,0.11381323635578156,0.08629471808671951
0.05,0.017709527164697647,0.013763530179858208,0.0,0.9993895888328552,0.0,0.0,0.03493531048297882,0.592939019203186,0.46477314829826355,0.0,0.0,0.0,2.654676675796509,-0.4514694809913635,0.7531813383102417,0.4200000464916229,1.0,3.7651575439667795e-06,-2.211913852079306e-06,5.610705233749513e-09,0.0002653082774486393,0.0002669135865289718,-0.0001044049859046936,-0.0017242783214896917,0.0041773971170187,-0.00012949295341968536,-0.059678707271814346,0.05497637391090393,1.311330795288086,-2.1875216960906982,1.8478524684906006,-0.5059095621109009,0.4643040895462036,0.7395954132080078,0.42000001668930054,-1.4300720691680908,2.999999761581421,-0.1459263563156128,-3.0000009536743164,0.005691684316843748,0.004900272004306316,0.004036775324493647,0.003096762578934431,0.1923191249370575,0.15540455281734467,0.11662057787179947,0.07587279379367828
0.06666666666666667,0.02901109680533409,0.02305234968662262,0.0,0.9994592666625977,0.0,0.0,0.03288077190518379,0.7195466756820679,0.5949418544769287,0.0,0.0,0.0,-1.2047436237335205,-0.4514694809913635,0.7531812787055969,0.4200000464916229,0.9999999403953552,3.4068068544002017e-06,-2.2855970200907905e-06,4.300798082113033e-07,0.0002670251706149429,0.0002679169410839677,-0.0001043803058564663,-0.0017405967228114605,0.004211737308651209,-0.00012850314669776708,-0.09634050726890564,0.09107794612646103,1.2986524105072021,-2.2422876358032227,2.3662102222442627,-0.9850267171859741,0.4643040895462036,0.7395954132080078,0.42000001668930054,-1.3800537586212158,3.0000007152557373,-0.19596366584300995,-3.0000014305114746,0.008073014207184315,0.006523409392684698,0.004862363915890455,0.0030857138335704803,0.12808191776275635,0.06996150314807892,0.009796765632927418,-0.05251132324337959
0.08333333333333333,0.034604888409376144,0.035653647035360336,0.0,0.9999999403953552,0.0,0.0,-0.0003650237340480089,0.18688519299030304,0.8254417181015015,0.0,0.0,0.0,-4.928875923156738,-0.4514694809913635,0.7531812787055969,0.4200000464916229,0.9999999403953552,3.6261346849641996e-06,-2.33528749049583e-06,3.032092763533001e-07,0.00026613843510858715,0.00026685046032071114,-0.00010405108332633972,-0.0017283449415117502,0.004196330904960632,-0.00012790736218448728,-0.13100916147232056,0.13472837209701538,1.2784490585327148,-1.9840728044509888,2.74702787399292,-1.361251950263977,0.4643040895462036,0.7395954132080078,0.42000001668930054,-1.3300327062606812,3.00000262260437,-0.22246040403842926,-0.38099297881126404,0.004691310692578554,0.002443718956783414,3.385333184269257e-05,-0.002546862466260791,-0.3133557438850403,-0.3601810932159424,-0.40961921215057373,-0.4619711637496948
0.1,0.044141337275505066,0.04965495690703392,0.0,0.9998820424079895,0.0,0.0,-0.015357188880443573,0.6750810742378235,0.8512616753578186,0.0,0.0,0.0,-0.6876204609870911,-0.4514694809913635,0.7531812787055969,0.4200000464916229,1.0,3.422179361223243e-06,-2.3085308384906966e-06,1.796248056962213e-07,0.00026681533199734986,0.0002680046309251338,-0.00010440708138048649,-0.0017430472653359175,0.004207065794616938,-0.00012891196820419282,-0.16679947078227997,0.1771514117717743,1.2571029663085938,-2.1409950256347656,2.6075563430786133,-1.2878202199935913,0.4643040895462036,0.7395954132080078,0.42000001668930054,-1.2800284624099731,2.999999761581421,-0.26908352971076965,-3.000000476837158,0.004353917203843594,0.0005539738340303302,-0.0034076101146638393,-0.007538089528679848,0.012362109497189522,-0.0924939438700676,-0.19640608131885529,-0.29938024282455444
0.11666666666666667,0.05170804262161255,0.06571933627128601,0.0,0.9991026520729065,0.0,0.0,-0.042354516685009,0.45757824182510376,1.0247498750686646,0.0,0.0,0.0,-3.921778917312622,-0.4514694809913635,0.7531813383102417,0.4200000464916229,1.0,3.7115455597813707e-06,-2.332649273739662e-06,2.5742372145032277e-07,0.0002648553345352411,0.0002663533960003406,-0.00010423408821225166,-0.0017181431176140904,0.004169944208115339,-0.00012915971456095576,-0.19855500757694244,0.22572530806064606,1.236295223236084,-1.682119369506836,3.2309460639953613,-1.193696141242981,0.4643040895462036,0.7395954132080078,0.42000001668930054,-1.230004072189331,2.9999887943267822,-0.23493704199790955,3.000000238418579,0.002430112799629569,-0.0032903323881328106,-0.009143495000898838,-0.01513607520610094,-0.07234174758195877,-0.20933379232883453,-0.34310898184776306,-0.47347912192344666
0.13333333333333333,0.05665981024503708,0.08454746007919312,0.0,0.9955174922943115,0.0,0.0,-0.09457749873399734,0.23201404511928558,1.1782581806182861,0.0,0.0,0.0,-7.088772773742676,-0.4514694809913635,0.7531812787055969,0.4200000464916229,1.0,3.335725068609463e-06,-2.2318936316878535e-06,3.1131941113926587e-07,0.0002666966465767473,0.0002675946743693203,-0.00010428694076836109,-0.0017371214926242828,0.004205851349979639,-0.00012840802082791924,-0.22688190639019012,0.28037577867507935,1.217540979385376,-1.684896469116211,3.372744560241699,-1.141387701034546,0.4643040895462036,0.7395954132080078,0.42000001668930054,-1.196678638458252,1.132002592086792,-0.2661660611629486,-3.000000476837158,6.621922511840239e-05,-0.007906680926680565,-0.015943026170134544,-0.024045446887612343,-0.21736571192741394,-0.3406136929988861,-0.45955023169517517,-0.5739455223083496
0.15,0.058515287935733795,0.1012236699461937,0.0,0.9919450879096985,0.0,0.0,-0.12666842341423035,0.061362072825431824,0.9209638833999634,0.0,0.0,0.0,-2.8220200538635254,-0.4514694809913635,0.7531812787055969,0.4200000464916229,1.0,3.5189095797250047e-06,-2.2831156911706785e-06,-3.6253456414669927e-07,0.0002661842736415565,0.0002673580020200461,-0.00010425597429275513,-0.0017349525587633252,0.004195696674287319,-0.00012860969582106918,-0.2631882429122925,0.334696888923645,1.1930699348449707,-2.290834426879883,3.4740521907806396,-1.7633700370788574,0.4643040895462036,0.7395954132080078,0.42000001668930054,-1.1566402912139893,2.999998092651367,-0.24943861365318298,2.9999992847442627,-0.004208565689623356,-0.013881000690162182,-0.02353505976498127,-0.03317122906446457,-0.3095625936985016,-0.3885318636894226,-0.46280190348625183,-0.53236323595047
0.16666666666666666,0.057200830429792404,0.11828159540891647,0.0,0.9852734804153442,0.0,0.0,-0.1709858626127243,-0.16665267944335938,1.0612291097640991,0.0,0.0,0.0,-6.223052024841309,-0.4514694809913635,0.7531812787055969,0.4200000464916229,1.0,3.666511929623084e-06,-2.3391485228785314e-06,-3.1497177133132936e-07,0.000265957583906129,0.00026667368365451694,-0.0001040350180119276,-0.00172534235753119,0.0041928584687411785,-0.0001277906121686101,-0.2988881468772888,0.39541417360305786,1.1620631217956543,-1.9163181781768799,3.9017043113708496,-1.9831570386886597,0.4643040895462036,0.7395954132080078,0.42000001668930054,-1.1135849952697754,2.198112726211548,-0.2805531620979309,-2.999999523162842,-0.011224152520298958,-0.022144276648759842,-0.032962001860141754,-0.043677642941474915,-0.5160308480262756,-0.5806466341018677,-0.6404821276664734,-0.6955246329307556
0.18333333333333332,0.060363370925188065,0.13474583625793457,0.0,0.9801945090293884,0.0,0.0,-0.1980372667312622,0.3123110234737396,0.9467597603797913,0.0,0.0,0.0,-2.330402374267578,-0.4514694809913635,0.7531812787055969,0.4200000464916229,1.0,3.814258207057719e-06,-2.3995091851247707e-06,-2.7025083682019613e-07,0.0002654909039847553,0.0002661114267539233,-0.00010391208343207836,-0.001717755920253694,0.004184814170002937,-0.0001275418180739507,-0.3352348208427429,0.4586561918258667,1.120556354522705,-2.105081558227539,3.9687047004699707,-2.945929527282715,0.4643040895462036,0.7395954132080078,0.42000001668930054,-1.0815235376358032,1.669148564338684,-0.33058080077171326,-3.0000007152557373,-0.017479775473475456,-0.029137779027223587,-0.04062025994062424,-0.05193283036351204,-0.3802173137664795,-0.3966611921787262,-0.4098828434944153,-0.4204089939594269
0.2,0.060205601155757904,0.14779172837734222,0.0,0.971350371837616,0.0,0.0,-0.23765195906162262,-0.0793943777680397,0.7072098851203918,0.0,0.0,0.0,-5.5908894538879395,-0.4514694809913635,0.7531812787055969,0.4200000464916229,1.0,3.5999153169541387e-06,-2.291187911396264e-06,-2.2016379830347432e-07,0.0002657304867170751,0.00026644792524166405,-0.00010397983714938164,-0.0017226124182343483,0.004188839346170425,-0.00012773237540386617,-0.36917129158973694,0.5266656875610352,1.0634701251983643,-1.8300195932388306,4.249271392822266,-3.815476417541504,0.4643040895462036,0.7395954132080078,0.42000001668930054,-1.035448670387268,3.0,-0.3806062638759613,-2.999999761581421,-0.03001142293214798,-0.04159035533666611,-0.052402276545763016,-0.06296049058437347,-0.826885461807251,-0.8381903767585754,-0.785176694393158,-0.7218345403671265
0.21666666666666667,0.06108739972114563,0.1609901636838913,0.0,0.9662795066833496,0.0,0.0,-0.25749555230140686,0.10591045022010803,0.828854501247406,0.0,0.0,0.0,-1.4455831050872803,-0.4514694809913635,0.7531812787055969,0.4200000464916229,0.9999999403953552,3.6394887956703315e-06,-2.261938107039896e-06,2.225111614961861e-07,0.00026687642093747854,0.0002675454888958484,-0.00010411953553557396,-0.0017403915990144014,0.004211097024381161,-0.0001278359559364617,-0.40242016315460205,0.5904324054718018,0.9909757971763611,-1.802532434463501,3.7029409408569336,-4.7910661697387695,0.4643040895462036,0.7395954132080078,0.42000001668930054,-0.9854462146759033,3.0000007152557373,-0.43063172698020935,-3.000000238418579,-0.04610544443130493,-0.05738034471869469,-0.06697912514209747,-0.07574209570884705,-0.9820709228515625,-0.9636243581771851,-0.9020605683326721,-0.7768653035163879
0.23333333333333334,0.05977027118206024,0.17627422511577606,0.0,0.9571340084075928,0.0,0.0,-0.2896454930305481,-0.152694433927536,0.9631756544113159,0.0,0.0,0.0,-4.881828784942627,-0.45146945118904114,0.7531812787055969,0.4200000464916229,1.0,3.4205220345029375e-06,-2.3167776816990227e-06,2.956315086066752e-07,0.0002668011002242565,0.0002680400793906301,-0.00010442500934004784,-0.0017437192145735025,0.00420679897069931,-0.00012899402645416558,-0.43125033378601074,0.649957537651062,0.9053850173950195,-1.4847338199615479,3.415828227996826,-5.397855281829834,0.4643040895462036,0.7395954132080078,0.42000001668930054,-0.9354364275932312,3.0000016689300537,-0.4806600511074066,-3.0000011920928955,-0.06250452250242233,-0.07373808324337006,-0.08328787982463837,-0.09133098274469376,-0.9881659746170044,-0.9906083941459656,-0.9839451909065247,-0.9780788421630859
0.25,0.062369417399168015,0.1873563528060913,0.0,0.952552080154419,0.0,0.0,-0.3043755888938904,0.195662260055542,0.5651527643203735,0.0,0.0,0.0,-0.7637955546379089,-0.4514694809913635,0.7531812787055969,0.4200000464916229,0.9999999403953552,3.3473763778602006e-06,-2.2591107153857592e-06,1.8088424269535608e-07,0.00026687863282859325,0.00026791077107191086,-0.00010439497418701649,-0.001740471227094531,0.004208289086818695,-0.00012870471982751042,-0.4567885994911194,0.6979578733444214,0.8106651306152344,-1.2641574144363403,2.5083210468292236,-6.000791072845459,0.4643040895462036,0.7395954132080078,0.42000001668930054,-0.8854257464408875,3.000000238418579,-0.5306897759437561,-3.0,-0.07761089503765106,-0.08877319097518921,-0.09799935668706894,-0.10535174608230591,-0.9887418150901794,-0.9893724918365479,-0.9675285220146179,-0.8865184187889099
0.26666666666666666,0.060680121183395386,0.19477443397045135,0.0,0.943508505821228,0.0,0.0,-0.3313482403755188,-0.2088870108127594,0.404244601726532,0.0,0.0,0.0,-4.3143439292907715,-0.4514694809913635,0.7531812787055969,0.4200000464916229,0.9999999403953552,3.707820951603935e-06,-2.3923903427203186e-06,-1.2721770303869562e-07,0.00026603747392073274,0.00026716626598499715,-0.00010421453043818474,-0.0017322177300229669,0.004193147644400597,-0.000128546089399606,-0.4725038409233093,0.7306956052780151,0.7048001885414124,-0.5475726127624512,1.4885157346725464,-6.517144203186035,0.4643040895462036,0.7395954132080078,0.42000001668930054,-0.835415244102478,2.999998092651367,-0.580719530582428,-2.999999761581421,-0.09472809731960297,-0.10572758316993713,-0.1148364245891571,-0.12210337072610855,-0.9947471618652344,-0.9954830408096313,-0.9960781335830688,-0.9965786337852478
0.2833333333333333,0.06261958181858063,0.1981651484966278,0.0,0.9403098821640015,0.0,0.0,-0.3403194844722748,0.22030849754810333,0.1265888661146164,0.0,0.0,0.0,-0.1531423181295395,-0.4514694809913635,0.7531813383102417,0.4200000464916229,0.9999999403953552,3.572407877072692e-06,-2.303904466316453e-06,1.2990359721243294e-07,0.00026521814288571477,0.0002645525673869997,-0.00010317121632397175,-0.0017021826934069395,0.004185078199952841,-0.00012500252341851592,-0.47985318303108215,0.7470349669456482,0.5957870483398438,-0.14807438850402832,0.5025180578231812,-6.582140922546387,0.4643040895462036,0.7395954132080078,0.42000001668930054,-0.7854062914848328,2.999997138977051,-0.6307492852210999,-2.999999761581421,-0.11063871532678604,-0.12147500365972519,-0.1304905265569687,-0.13762244582176208,-0.9913691282272339,-0.9601696133613586,-0.9399437308311462,-0.9188430309295654
0.3,0.06117548421025276,0.1987019032239914,0.0,0.932662308216095,0.0,0.0,-0.360750675201416,-0.2045467048883438,-0.0032964013516902924,0.0,0.0,0.0,-3.4514451026916504,-0.4514694809913635,0.7531812787055969,0.4200000464916229,1.0,3.7448494367708918e-06,-2.2379372239811346e-06,-1.7673770003057143e-07,0.00026436097687110305,0.000266234390437603,-0.00010442966595292091,-0.0017119572730734944,0.004158670082688332,-0.00012990014511160553,-0.47569572925567627,0.7522168755531311,0.4913780987262726,0.6839908957481384,0.11330027878284454,-5.761961936950684,0.4643040895462036,0.7395954132080078,0.42000001668930054,-0.7354098558425903,3.0,-0.6807769536972046,-3.000001907348633,-0.12854398787021637,-0.13909155130386353,-0.14789357781410217,-0.15486027300357819,-1.022510290145874,-1.01702880859375,-1.012848138809204,-1.0095014572143555
0.31666666666666665,0.05476551130414009,0.1976289004087448,0.0,0.9316532015800476,0.0,0.0,-0.3633488118648529,-0.4324975907802582,-0.09836968034505844,0.0,0.0,0.0,0.6060752868652344,-0.4514694809913635,0.7531813383102417,0.4200000464916229,0.9999999403953552,3.6678875403595157e-06,-2.3070483621268068e-06,2.637760019297275e-07,0.0002669123059604317,0.00026760553009808064,-0.00010412652045488358,-0.0017413359601050615,0.004211626946926117,-0.00012787147716153413,-0.4615718722343445,0.7492517232894897,0.4017079472541809,1.1029877662658691,-0.46675270795822144,-5.1846723556518555,0.4643040895462036,0.7395954132080078,0.42000001668930054,-0.6854029297828674,2.999995708465576,-0.7308027744293213,-3.0000007152557373,-0.14603982865810394,-0.15636929869651794,-0.1650095134973526,-0.17185081541538239,-1.0003584623336792,-1.0002714395523071,-1.0002055168151855,-1.0001530647277832
0.3333333333333333,0.0463801808655262,0.19396117329597473,0.0,0.9399148225784302,0.0,0.0,-0.3414090871810913,-0.45361512899398804,-0.3082195818424225,0.0,0.0,0.0,3.8074164390563965,-0.45199328660964966,0.7515292763710022,0.4204614460468292,0.9997255206108093,0.008774583227932453,-0.002976495074108243,-0.02151361294090748,0.007391589693725109,0.0003869480569846928,-0.001383444992825389,0.16246186196804047,0.21324804425239563,0.4182896018028259,-0.4643455147743225,0.7550972700119019,0.4280937612056732,-0.0859128013253212,0.6618983745574951,-0.10262897610664368,0.4643040895462036,0.7395954132080078,0.42000001668930054,-0.6356655955314636,2.9992311000823975,-0.7811505794525146,-2.9374489784240723,-0.143785297870636,-0.15654070675373077,-0.16717040538787842,-0.17541740834712982,0.14639320969581604,-0.0061444733291864395,-0.14014455676078796,-0.24743634462356567
0.35,0.037087276577949524,0.18725498020648956,0.0,0.9421265125274658,0.0,0.0,-0.33525756001472473,-0.597297728061676,-0.441648930311203,0.0,0.0,0.0,-0.1940000355243683,-0.45106008648872375,0.754375159740448,0.420003205537796,0.9983109831809998,-9.811044947127812e-06,-8.62895612954162e-05,-0.05809494107961655,0.07850350439548492,0.1684693545103073,-0.00020639074500650167,0.01012687012553215,-0.0009456511470489204,-2.5912978649139404,-0.46395164728164673,0.7585935592651367,0.42571496963500977,0.19961148500442505,-0.04642079398036003,-0.18921618163585663,0.4643040895462036,0.7395954132080078,0.42000001668930054,-0.5856596231460571,2.999999523162842,-0.8311777710914612,-2.999957799911499,-0.14481759071350098,-0.15858711302280426,-0.16996146738529205,-0.178595170378685,-0.2134273499250412,-0.19598378241062164,-0.16632257401943207,-0.12157817929983139
0.36666666666666664,0.025285618379712105,0.17825983464717865,0.0,0.9342938661575317,0.0,0.0,-0.35650381445884705,-0.7721924781799316,-0.5899199843406677,0.0,0.0,0.0,-3.474384069442749,-0.44849011301994324,0.7582669854164124,0.4201834797859192,0.9956140518188477,0.004543807357549667,-0.00025115194148384035,-0.0934438481926918,0.3439750075340271,0.4439113438129425,0.050338078290224075,2.5999555587768555,-0.40981489419937134,-9.361717224121094,-0.4581485390663147,0.7628642320632935,0.4232288897037506,0.4890446066856384,0.5152665972709656,-0.1088133305311203,0.4643040895462036,0.7395954132080078,0.42000001668930054,-0.5356547236442566,2.999997138977051,-0.8812111616134644,-2.999962091445923,-0.14963401854038239,-0.16259168088436127,-0.17291970551013947,-0.1802443265914917,-0.3295413851737976,-0.25701892375946045,-0.16980835795402527,-0.0672013908624649
0.3833333333333333,0.015552174299955368,0.16609732806682587,0.0,0.9164853692054749,0.0,0.0,-0.40006816387176514,-0.510352611541748,-0.7885496616363525,0.0,0.0,0.0,-6.525003910064697,-0.43903741240501404,0.7697511315345764,0.420989066362381,0.9871465563774109,0.022317323833703995,-0.005417410284280777,-0.15815843641757965,0.8888702988624573,1.061389684677124,0.1066037267446518,-1.3630037307739258,-2.286529779434204,-3.1787729263305664,-0.4472200274467468,0.7750626802444458,0.4223720133304596,0.8560357689857483,0.9899038076400757,0.005093436688184738,0.4643040895462036,0.7395954132080078,0.42000001668930054,-0.4856502413749695,2.9999167919158936,-0.9312498569488525,-2.9995100498199463,-0.15615996718406677,-0.1672530621290207,-0.17546436190605164,-0.18043258786201477,-0.4073331356048584,-0.2690834403038025,-0.11701831221580505,0.04720204323530197
0.4,0.003633704502135515,0.15198257565498352,0.0,0.8840499520301819,0.0,0.0,-0.4673924744129181,-0.8028807640075684,-0.8619498014450073,0.0,0.0,0.0,-9.790339469909668,-0.4123562276363373,0.7996454834938049,0.42280951142311096,0.9795455932617188,0.018707558512687683,-0.02380135841667652,-0.19893202185630798,2.376499891281128,2.560805082321167,0.22686246037483215,0.3598760664463043,-2.7998037338256836,-7.162890434265137,-0.4184248745441437,0.8025616407394409,0.42427903413772583,2.6490869522094727,2.3946523666381836,0.23454737663269043,0.4643040895462036,0.7395954132080078,0.42000001668930054,-0.43565642833709717,3.00000262260437,-0.9812557697296143,-2.9998087882995605,-0.16739876568317413,-0.17492222785949707,-0.17944277822971344,-0.18067139387130737,-0.7758551836013794,-0.5259463787078857,-0.27393844723701477,-0.02558789774775505
0.4166666666666667,-0.005341661628335714,0.13539239764213562,0.0,0.8346518278121948,0.0,0.0,-0.5507779121398926,-0.47973111271858215,-1.0354666709899902,0.0,0.0,0.0,-12.262993812561035,-0.3456253111362457,0.8459411859512329,0.429132878780365,0.9616556167602539,0.07736506313085556,-0.05467139184474945,-0.2573794424533844,5.1129679679870605,3.2151196002960205,0.7683896422386169,-3.0996861457824707,-0.8709332346916199,-7.641606330871582,-0.3517846167087555,0.8507037162780762,0.4306189715862274,5.097433090209961,3.2513389587402344,0.572519063949585,0.4643040895462036,0.7395954132080078,0.42000001668930054,-0.39512547850608826,1.4313623905181885,-0.943825900554657,3.000000476837158,-0.18274183571338654,-0.18532760441303253,-0.18462511897087097,-0.18086785078048706,-0.9630081057548523,-0.6671987771987915,-0.33951103687286377,-0.031875770539045334
0.43333333333333335,-0.01140219159424305,0.1244092658162117,0.0,0.7649919986724854,0.0,0.0,-0.6440397500991821,-0.3030965030193329,-0.7144315838813782,0.0,0.0,0.0,-14.689375877380371,-0.23724976181983948,0.8936931490898132,0.44135189056396484,0.9192241430282593,0.15576370060443878,-0.08459731191396713,-0.35157912969589233,7.555983543395996,2.2176177501678467,0.8377330899238586,-7.14695405960083,-3.207676887512207,9.262847900390625,-0.244276762008667,0.8996212482452393,0.44254761934280396,7.6121110916137695,2.91355037689209,0.7643171548843384,0.4643040895462036,0.7395954132080078,0.42000001668930054,-0.37687915563583374,1.0175496339797974,-0.8937889337539673,2.9998416900634766,-0.19843435287475586,-0.200932115316391,-0.19764463603496552,-0.1873220056295395,-0.545949399471283,-0.6246469020843506,-0.6991323232650757,-0.38690897822380066
0.45,-0.015342611819505692,0.11595087498426437,0.0,0.7013147473335266,0.0,0.0,-0.7128517627716064,-0.1353927105665207,-0.45170632004737854,0.0,0.0,0.0,-10.064456939697266,-0.11235979199409485,0.9236667156219482,0.453745037317276,0.8690376877784729,0.17941424250602722,-0.09148889780044556,-0.4519001543521881,7.400683879852295,1.6723889112472534,0.5928563475608826,1.342187762260437,-0.4046616554260254,21.175439834594727,-0.11983787268400192,0.9333510398864746,0.4548679292201996,7.425617218017578,1.1266295909881592,0.7730633020401001,0.4643040895462036,0.7395954132080078,0.42000001668930054,-0.36152732372283936,0.8452936410903931,-0.9194870591163635,-3.000001907348633,-0.21382637321949005,-0.21560527384281158,-0.21091949939727783,-0.1941460222005844,-0.8385488986968994,-0.8247679471969604,-0.7311640977859497,-0.38490167260169983
0.4666666666666667,-0.019658036530017853,0.1113048866391182,0.0,0.660454273223877,0.0,0.0,-0.7508662939071655,-0.28034403920173645,-0.24785998463630676,0.0,0.0,0.0,-5.467222690582275,0.009836636483669281,0.9315783977508545,0.4635533094406128,0.8122445940971375,0.1809036284685135,-0.07904008775949478,-0.5488945245742798,7.304214954376221,0.35790085792541504,0.3208911418914795,-5.829906940460205,-16.56968116760254,22.028156280517578,0.0026368489488959312,0.9437627792358398,0.46440988779067993,7.150684356689453,-0.15516707301139832,0.43319159746170044,0.4643040895462036,0.7395954132080078,0.42000001668930054,-0.3501163721084595,0.555065393447876,-0.969511091709137,-3.0000030994415283,-0.2284005731344223,-0.22963018715381622,-0.22414430975914001,-0.2007041722536087,-0.7919459939002991,-0.7052051424980164,-0.6223657727241516,-0.26188817620277405
0.48333333333333334,-0.021525735035538673,0.10116171091794968,0.0,0.64466792345047,0.0,0.0,-0.7644627690315247,-0.0830632820725441,-0.4876185953617096,0.0,0.0,0.0,-1.4288668632507324,0.12158511579036713,0.9210518598556519,0.4665893018245697,0.7453527450561523,0.16303077340126038,-0.07190275937318802,-0.6424174904823303,6.457028388977051,-1.6656869649887085,0.09553395211696625,0.23390229046344757,-16.027475357055664,0.5547963380813599,0.11547188460826874,0.9368880391120911,0.4673348069190979,6.117443084716797,-1.136932373046875,0.03799329325556755,0.4643040895462036,0.7395954132080078,0.42000001668930054,-0.3439357578754425,0.22246800363063812,-1.0195353031158447,-3.000002384185791,-0.23854762315750122,-0.2372889518737793,-0.22958508133888245,-0.20078153908252716,-0.8612759709358215,-0.5884110331535339,-0.3483750820159912,-0.006309719290584326
0.5,-0.02100997045636177,0.0974072515964508,0.0,0.6199482679367065,0.0,0.0,-0.7846426963806152,0.11377960443496704,-0.20156154036521912,0.0,0.0,0.0,-4.614345550537109,0.21520395576953888,0.8928915858268738,0.4629453122615814,0.6852474808692932,0.13504596054553986,-0.06558400392532349,-0.7126690149307251,4.893280506134033,-2.782423496246338,-0.5198144316673279,-18.828889846801758,-11.91195011138916,22.24875259399414,0.21065254509449005,0.9096545577049255,0.46373018622398376,5.447327613830566,-2.0046238899230957,-0.38417088985443115,0.4643040895462036,0.7395954132080078,0.42000001668930054,-0.3438042104244232,-0.13809455931186676,-1.0695574283599854,-2.999488353729248,-0.23999258875846863,-0.23998916149139404,-0.23958033323287964,-0.2054722160100937,0.013218553736805916,0.03120950609445572,-0.4329339861869812,-0.20436915755271912
0.5166666666666666,-0.017114030197262764,0.09636814147233963,0.0,0.6115368604660034,0.0,0.0,-0.7912159562110901,0.2668907940387726,0.02299129217863083,0.0,0.0,0.0,-0.2504255175590515,0.29511067271232605,0.8580362200737,0.45263347029685974,0.6273264288902283,0.09433481097221375,-0.05698276683688164,-0.7709184885025024,4.065563201904297,-2.5348591804504395,-0.7284858822822571,-6.809025287628174,0.4475264847278595,4.022018909454346,0.2920757830142975,0.873549222946167,0.4532690644264221,4.410442352294922,-2.36253023147583,-0.7384945750236511,0.4643040895462036,0.7395954132080078,0.42000001668930054,-0.3438006639480591,0.19172468781471252,-1.119579553604126,-3.000001907348633,-0.23996123671531677,-0.23991534113883972,-0.23985518515110016,-0.20922614634037018,0.005434184335172176,0.04184570908546448,0.059658363461494446,-0.1648765206336975
0.5333333333333333,-0.010567194782197475,0.09040649980306625,0.0,0.592205822467804,0.0,0.0,-0.8057867288589478,0.4441540837287903,-0.48601189255714417,0.0,0.0,0.0,-3.9363174438476562,0.36046332120895386,0.8232218623161316,0.43703001737594604,0.5752179622650146,0.05654143542051315,-0.04458485543727875,-0.8148248791694641,3.4096322059631348,-2.1416962146759033,-1.0198863744735718,-0.5985773801803589,5.8003764152526855,-4.58131742477417,0.3578806519508362,0.8373454809188843,0.4376371204853058,3.5191996097564697,-2.1619765758514404,-1.0152475833892822,0.4643040895462036,0.7395954132080078,0.42000001668930054,-0.3313060700893402,1.256847858428955,-1.1696016788482666,-2.9997568130493164,-0.2337128221988678,-0.2340233027935028,-0.23449179530143738,-0.20879383385181427,0.5091566443443298,0.4768305718898773,0.4368230402469635,0.11132664233446121
0.55,-0.0023089670576155186,0.08787022531032562,0.0,0.5862892866134644,0.0,0.0,-0.8101017475128174,0.5247172117233276,-0.017952585592865944,0.0,0.0,0.0,0.07503834366798401,0.4097810685634613,0.7902345657348633,0.42224210500717163,0.5420582294464111,0.02231125347316265,-0.02258230373263359,-0.8397411108016968,2.1819958686828613,-2.4510443210601807,-0.1730542927980423,-9.79996109008789,-3.590513229370117,13.6574125289917,0.4081456661224365,0.8033443093299866,0.42317628860473633,2.2744596004486084,-1.730117678642273,-0.2387094348669052,0.4643040895462036,0.7395954132080078,0.42000001668930054,-0.3086482584476471,1.0737628936767578,-1.2197086811065674,-2.9924936294555664,-0.22926589846611023,-0.2292822003364563,-0.22959266602993011,-0.20878054201602936,0.19618065655231476,0.22877700626850128,0.25759077072143555,-0.020604657009243965
0.5666666666666667,0.002891796873882413,0.08321313560009003,0.0,0.5703092813491821,0.0,0.0,-0.8214300274848938,0.27718862891197205,-0.310960978269577,0.0,0.0,0.0,-3.1127238273620605,0.4404835104942322,0.7674736976623535,0.4209486246109009,0.5358709692955017,0.0032345664221793413,0.005847040098160505,-0.8442733287811279,1.2998918294906616,-1.7692190408706665,0.16046802699565887,-3.8260676860809326,1.5440363883972168,15.252581596374512,0.4381150007247925,0.7796028852462769,0.42269471287727356,1.3250235319137573,-1.2913475036621094,0.10702797770500183,0.4643040895462036,0.7395954132080078,0.42000001668930054,-0.296277791261673,0.4640265107154846,-1.269681453704834,-3.0006308555603027,-0.22353531420230865,-0.22329255938529968,-0.22328400611877441,-0.20712190866470337,0.20722933113574982,0.26096609234809875,0.3186022937297821,0.08120281994342804
0.5833333333333334,0.010191438719630241,0.0828460231423378,0.0,0.5686529874801636,0.0,0.0,-0.8225775361061096,0.43396875262260437,-0.00686209462583065,0.0,0.0,0.0,0.6625874638557434,0.4579498767852783,0.7476600408554077,0.42190787196159363,0.5327231287956238,-0.0121068824082613,0.029438065364956856,-0.8456907272338867,0.7307766079902649,-1.2927390336990356,0.08624840527772903,-0.8615185618400574,2.2840263843536377,7.318126678466797,0.45505964756011963,0.7589560747146606,0.4244178831577301,0.7627100944519043,-1.0014008283615112,0.1245313435792923,0.4643040895462036,0.7395954132080078,0.42000001668930054,-0.2877683639526367,0.5743955969810486,-1.31966233253479,-3.0003602504730225,-0.2227507382631302,-0.2212752252817154,-0.2199353277683258,-0.20715413987636566,0.19150950014591217,0.2193523496389389,0.26079636812210083,0.042010221630334854
0.6,0.01857299730181694,0.07834227383136749,0.0,0.5548909306526184,0.0,0.0,-0.8319230675697327,0.5201246738433838,-0.296074241399765,0.0,0.0,0.0,-2.9503257274627686,0.46729621291160583,0.7373071908950806,0.4208109378814697,0.5522023439407349,-0.005657751113176346,0.017038773745298386,-0.8335167765617371,0.23281420767307281,-0.8382781744003296,-0.10421033948659897,-1.8076286315917969,-4.327788352966309,14.971590042114258,0.4634774327278137,0.7476549744606018,0.42345672845840454,0.1682913601398468,-0.43249887228012085,-0.020828446373343468,0.4643040895462036,0.7395954132080078,0.42000001668930054,-0.2760947346687317,0.6964892148971558,-1.2814019918441772,2.9999990463256836,-0.21457315981388092,-0.21377186477184296,-0.21276681125164032,-0.20419281721115112,0.4663027822971344,0.43984371423721313,0.4325456917285919,0.20987093448638916
0.6166666666666667,0.02441059984266758,0.07698798924684525,0.0,0.5545986890792847,0.0,0.0,-0.8321179151535034,0.26609110832214355,-0.046843159943819046,0.0,0.0,0.0,0.8557385206222534,0.4695894122123718,0.729195773601532,0.4204890727996826,0.5747852325439453,-0.0071413288824260235,0.010099022649228573,-0.8182107210159302,0.0347256101667881,-0.455989271402359,-0.028826046735048294,-0.534603476524353,-1.3783576488494873,1.7677325010299683,0.4649873673915863,0.7409958839416504,0.42469221353530884,0.00872907042503357,-0.26204201579093933,0.14201760292053223,0.4643040895462036,0.7395954132080078,0.42000001668930054,-0.3022034168243408,-2.999974489212036,-1.3012868165969849,-2.9999897480010986,-0.20930597186088562,-0.2085503339767456,-0.20730535686016083,-0.2017699033021927,0.3368423879146576,0.31859472393989563,0.31775495409965515,0.14211128652095795
0.6333333333333333,0.03163514286279678,0.07949680835008621,0.0,0.5769404768943787,0.0,0.0,-0.8167861700057983,0.44171497225761414,0.20390404760837555,0.0,0.0,0.0,4.1248459815979,0.4685552418231964,0.7259679436683655,0.42051228880882263,0.5779096484184265,-0.009589829482138157,-0.002883053617551923,-0.8160392642021179,0.002452610060572624,0.06287655234336853,0.10977406799793243,-3.4174230098724365,3.074394702911377,-0.7209296822547913,0.4644884765148163,0.7402184009552002,0.4269223213195801,0.06749216467142105,0.1516447216272354,0.14190247654914856,0.4643040895462036,0.7395954132080078,0.42000001668930054,-0.332770437002182,-0.8849093914031982,-1.351236343383789,-2.9973349571228027,-0.20507049560546875,-0.2046244889497757,-0.20334048569202423,-0.20024843513965607,0.34341368079185486,0.2988511621952057,0.27780649065971375,0.13263338804244995
0.65,0.04025159403681755,0.07751832902431488,0.0,0.5851736068725586,0.0,0.0,-0.8109080195426941,0.5176436305046082,-0.10222135484218597,0.0,0.0,0.0,0.15776805579662323,0.4687161147594452,0.7268490195274353,0.4211089611053467,0.5766327381134033,-0.023298250511288643,-0.016451051458716393,-0.816505491733551,0.005802490748465061,0.030879436060786247,0.02040756866335869,-1.0118314027786255,0.3581520617008209,0.04118672013282776,0.4646577835083008,0.7447153329849243,0.42697906494140625,-0.1491752415895462,0.269090473651886,0.00565103255212307,0.4643040895462036,0.7395954132080078,0.42000001668930054,-0.37659865617752075,-3.000002861022949,-1.3166348934173584,2.9998371601104736,-0.1943558305501938,-0.19553349912166595,-0.19541512429714203,-0.19509166479110718,0.5363555550575256,0.47772857546806335,0.4424716830253601,0.3258877992630005
0.6666666666666666,0.049971118569374084,0.07321317493915558,0.0,0.6039309501647949,0.0,0.0,-0.7970366477966309,0.657996416091919,-0.29276448488235474,0.0,0.0,0.0,3.590970277786255,0.46777617931365967,0.7278913855552673,0.4208196699619293,0.5709527730941772,-0.01433247234672308,-0.01232633925974369,-0.8207651972770691,-0.09890187531709671,0.09399469941854477,-0.02486979216337204,1.5767366886138916,-1.1468766927719116,-1.124305248260498,0.46281152963638306,0.7491763830184937,0.4310705363750458,-0.10922899097204208,0.23293215036392212,0.5176844596862793,0.4643040895462036,0.7395954132080078,0.42000001668930054,-0.42660731077194214,-2.999997138977051,-1.3362627029418945,-2.9999990463256836,-0.18756049871444702,-0.18906907737255096,-0.18888673186302185,-0.18953931331634521,0.22752994298934937,0.25000664591789246,0.295432984828949,0.29419049620628357
0.6833333333333333,0.06227032095193863,0.06649559736251831,0.0,0.6084413528442383,0.0,0.0,-0.7935988306999207,0.7723296880722046,-0.44470706582069397,0.0,0.0,0.0,-0.34238824248313904,0.4666111171245575,0.7288124561309814,0.42000091075897217,0.5669679045677185,9.36776905291481e-06,4.93344168717158e-06,-0.8237398266792297,-0.03650230914354324,0.02493864670395851,-0.0004877508617937565,-0.023220017552375793,0.016861047595739365,-0.2342226356267929,0.4645455777645111,0.7530562877655029,0.4379114508628845,0.28649911284446716,0.19228620827198029,0.4508620500564575,0.4643040895462036,0.7395954132080078,0.42000001668930054,-0.4766205847263336,-2.9999985694885254,-1.3862810134887695,-3.000000238418579,-0.18482863903045654,-0.18559662997722626,-0.18426533043384552,-0.18425245583057404,0.15399131178855896,0.21157009899616241,0.2939220666885376,0.36209896206855774
0.7,0.07644613087177277,0.05720704793930054,0.0,0.5893324017524719,0.0,0.0,-0.8078906536102295,0.88347327709198,-0.6209996938705444,0.0,0.0,0.0,-3.792299509048462,0.46656906604766846,0.7288415431976318,0.42000001668930054,0.5668959617614746,-1.1115837423858466e-06,-6.741268407495227e-06,-0.8237893581390381,0.00016915230662561953,-0.0003459615109022707,-4.891701973974705e-05,0.005517289042472839,-0.0065421611070632935,-0.0014977913815528154,0.47148314118385315,0.7561452388763428,0.4527977705001831,0.5837319493293762,0.15314510464668274,1.4337248802185059,0.4643040895462036,0.7395954132080078,0.42000001668930054,-0.5266332030296326,-2.999960422515869,-1.4362993240356445,-2.9999990463256836,-0.18473109602928162,-0.18424838781356812,-0.18131443858146667,-0.17977723479270935,-0.0584026500582695,0.02290802076458931,0.12179591506719589,0.2242085337638855
0.7166666666666667,0.09461995959281921,0.052871666848659515,0.0,0.5833070278167725,0.0,0.0,-0.8122517466545105,1.0070462226867676,-0.1903555542230606,0.0,0.0,0.0,0.06962073594331741,0.4665692448616028,0.7288414835929871,0.41999995708465576,0.5668958425521851,-1.4135379160507e-06,-5.504419277713168e-06,-0.8237894177436829,8.766691462369636e-05,-0.00038906888221390545,-7.554818876087666e-05,0.00991152785718441,-0.003022303804755211,-0.0009574985597282648,0.4805566668510437,0.7588629722595215,0.4831414520740509,0.5583371520042419,0.3634794354438782,2.1773345470428467,0.4643040895462036,0.7395954132080078,0.42000001668930054,-0.5766362547874451,-2.9999964237213135,-1.4863176345825195,-3.0,-0.190766841173172,-0.18832112848758698,-0.18324489891529083,-0.1794646978378296,-0.19617626070976257,-0.14072583615779877,-0.07165389508008957,0.016495373100042343
0.7333333333333333,0.10781306773424149,0.0493713803589344,0.0,0.6011783480644226,0.0,0.0,-0.7991148829460144,0.7172431945800781,-0.1757287234067917,0.0,0.0,0.0,3.500490665435791,0.4665692150592804,0.7288414239883423,0.41999995708465576,0.5668956637382507,-1.6496265970999957e-06,-5.5763703130651265e-06,-0.8237894773483276,8.824799442663789e-05,-0.0003909531806129962,-7.575983181595802e-05,0.009966875426471233,-0.003054336179047823,-0.0009630591375753284,0.4942442774772644,0.7632615566253662,0.5121283531188965,0.8629881143569946,0.18685121834278107,1.4533425569534302,0.4643040895462036,0.7395954132080078,0.42000001668930054,-0.6007734537124634,-0.13080604374408722,-1.5363359451293945,-2.999999523162842,-0.19002766907215118,-0.18728256225585938,-0.1816326230764389,-0.17679058015346527,0.12790949642658234,0.14996767044067383,0.18417836725711823,0.2491600215435028
0.75,0.11658211797475815,0.043024174869060516,0.0,0.6052507162094116,0.0,0.0,-0.7960349321365356,0.4817351698875427,-0.4809940755367279,0.0,0.0,0.0,-0.44865813851356506,0.4665692448616028,0.7288414835929871,0.41999995708465576,0.5668956637382507,-1.7234319784620311e-06,-5.633440650854027e-06,-0.8237895369529724,8.919232641346753e-05,-0.0003905078337993473,-7.572188042104244e-05,0.009954272769391537,-0.0030439088586717844,-0.0009643835946917534,0.5043827295303345,0.7653113007545471,0.5300387740135193,0.35993242263793945,-0.02321651764214039,0.8578028678894043,0.4643040895462036,0.7395954132080078,0.42000001668930054,-0.6263282299041748,-2.6909966468811035,-1.4975061416625977,3.000000238418579,-0.18622630834579468,-0.18321281671524048,-0.17724229395389557,-0.17163361608982086,0.21162700653076172,0.2424926906824112,0.26679641008377075,0.31164711713790894
0.7666666666666666,0.12831436097621918,0.04114973172545433,0.0,0.6208984851837158,0.0,0.0,-0.783890962600708,0.6349550485610962,-0.07480520755052567,0.0,0.0,0.0,3.095201015472412,0.4665692448616028,0.7288414239883423,0.41999995708465576,0.5668956637382507,-1.6445810615550727e-06,-5.681248694600072e-06,-0.8237894773483276,8.846061246003956e-05,-0.000390985602280125,-7.574609480798244e-05,0.00996852945536375,-0.003054036060348153,-0.0009635643800720572,0.5089786648750305,0.7633281946182251,0.5437411665916443,0.26840585470199585,0.058415018022060394,0.8002769351005554,0.4643040895462036,0.7395954132080078,0.42000001668930054,-0.6399745345115662,0.7612720727920532,-1.5137072801589966,-3.0,-0.1875973343849182,-0.18327996134757996,-0.17629431188106537,-0.16948358714580536,0.10895950347185135,0.1279892921447754,0.13123619556427002,0.15013441443443298
0.7833333333333333,0.13555163145065308,0.03538176044821739,0.0,0.622470498085022,0.0,0.0,-0.7826432585716248,0.39797887206077576,-0.3763498067855835,0.0,0.0,0.0,-0.8133325576782227,0.4665692448616028,0.7288414239883423,0.41999995708465576,0.5668957233428955,-1.6688742334736162e-06,-5.505079116119305e-06,-0.8237895369529724,8.979154517874122e-05,-0.00039100166759453714,-7.575796917080879e-05,0.009969756938517094,-0.0030503009911626577,-0.000966767081990838,0.5114752650260925,0.763355016708374,0.5512372255325317,-0.004513580352067947,-0.19559434056282043,0.2537688612937927,0.4643040895462036,0.7395954132080078,0.42000001668930054,-0.6601892113685608,-2.8541576862335205,-1.4749443531036377,2.999999761581421,-0.1833857148885727,-0.1790015548467636,-0.1722288876771927,-0.1653708815574646,0.15978950262069702,0.19146981835365295,0.20216557383537292,0.2236841320991516
0.8,0.1438421756029129,0.03324420750141144,0.0,0.6339594125747681,0.0,0.0,-0.7733662724494934,0.5234643220901489,-0.09329403191804886,0.0,0.0,0.0,2.5160906314849854,0.4665692448616028,0.7288414835929871,0.41999995708465576,0.5668952465057373,-1.6915787455218378e-06,-5.766708000010112e-06,-0.8237897753715515,8.853944746078923e-05,-0.00039090390782803297,-7.583480328321457e-05,0.009962585754692554,-0.003049123100936413,-0.0009633389418013394,0.5134459733963013,0.7597832679748535,0.5554569363594055,0.2681799829006195,-0.1535244584083557,0.3008529245853424,0.4643040895462036,0.7395954132080078,0.42000001668930054,-0.674752950668335,0.8010371923446655,-1.4915968179702759,-3.0,-0.18203113973140717,-0.17713992297649384,-0.17015720903873444,-0.16287633776664734,0.1717585176229477,0.1725548654794693,0.15988031029701233,0.16381126642227173
0.8166666666666667,0.14908568561077118,0.028094695881009102,0.0,0.6323959827423096,0.0,0.0,-0.7746452689170837,0.23500525951385498,-0.34800782799720764,0.0,0.0,0.0,-1.1531651020050049,0.4665692448616028,0.7288414835929871,0.41999995708465576,0.566895604133606,-1.50851678881736e-06,-5.795425749965943e-06,-0.8237895965576172,9.071355452761054e-05,-0.00039164384361356497,-7.562665268778801e-05,0.009996970184147358,-0.0030647963285446167,-0.0009699023212306201,0.5170848965644836,0.7567234039306641,0.5580907464027405,0.13751424849033356,-0.2906801104545593,0.15643703937530518,0.4643040895462036,0.7395954132080078,0.42000001668930054,-0.6917046904563904,-2.530897855758667,-1.45290207862854,2.999999761581421,-0.17839315533638,-0.17359621822834015,-0.16692739725112915,-0.15970298647880554,0.15673035383224487,0.1657312512397766,0.15980331599712372,0.16565635800361633
0.8333333333333334,0.15545043349266052,0.02706301398575306,0.0,0.6419212818145752,0.0,0.0,-0.7667705416679382,0.41049715876579285,-0.048333458602428436,0.0,0.0,0.0,2.2163984775543213,0.4665692448616028,0.7288414239883423,0.41999995708465576,0.5668956637382507,-1.644324015614984e-06,-5.683190920535708e-06,-0.8237895965576172,8.868939767125994e-05,-0.0003911626699846238,-7.576891221106052e-05,0.009973716922104359,-0.00305723724886775,-0.000964540580753237,0.5209732055664062,0.7506539821624756,0.5623781681060791,0.3986641764640808,-0.29416441917419434,0.3812774121761322,0.4643040895462036,0.7395954132080078,0.42000001668930054,-0.7005696296691895,1.153826117515564,-1.4700088500976562,-2.9999992847442627,-0.17852731049060822,-0.17322129011154175,-0.166261225938797,-0.15856780111789703,0.10893554985523224,0.10469672828912735,0.09388376027345657,0.09877707064151764
0.85,0.15905119478702545,0.02173616923391819,0.0,0.6388710141181946,0.0,0.0,-0.7693138718605042,0.14891168475151062,-0.3391995131969452,0.0,0.0,0.0,-1.2721787691116333,0.4665692448616028,0.7288414239883423,0.41999995708465576,0.5668956637382507,-1.6687414472471573e-06,-5.506643447006354e-06,-0.8237895369529724,8.979154517874122e-05,-0.0003910053346771747,-7.575750350952148e-05,0.009969880804419518,-0.0030502728186547756,-0.0009667760459706187,0.5275256037712097,0.7468452453613281,0.5675499439239502,0.31187695264816284,-0.2981228828430176,0.3632858395576477,0.4643040895462036,0.7395954132080078,0.42000001668930054,-0.7060132026672363,-1.5653438568115234,-1.431376338005066,2.999999761581421,-0.1742824763059616,-0.16951094567775726,-0.1631726175546646,-0.15584255754947662,0.1368783563375473,0.12821827828884125,0.11159367114305496,0.10512840747833252
0.8666666666666667,0.16398142278194427,0.02092375047504902,0.0,0.6478462815284729,0.0,0.0,-0.7617710828781128,0.3260413110256195,-0.037555135786533356,0.0,0.0,0.0,2.0907976627349854,0.4665692448616028,0.7288414239883423,0.41999995708465576,0.566895604133606,-1.6693036286596907e-06,-5.4066449592937715e-06,-0.823789656162262,8.911930490285158e-05,-0.00039119223947636783,-7.577543146908283e-05,0.009974813088774681,-0.0030543908942490816,-0.0009653806337155402,0.5333520770072937,0.7404839992523193,0.5741814970970154,0.4773835241794586,-0.31063929200172424,0.4623121917247772,0.4643040895462036,0.7395954132080078,0.42000001668930054,-0.7009219527244568,1.8727492094039917,-1.4488824605941772,-2.999999761581421,-0.17474687099456787,-0.1697160005569458,-0.16324400901794434,-0.15565365552902222,0.09875840693712234,0.07933344691991806,0.0580766387283802,0.04843151941895485
0.8833333333333333,0.16637057065963745,0.017574742436408997,0.0,0.6441009640693665,0.0,0.0,-0.7649405002593994,0.1236148253083229,-0.2568076550960541,0.0,0.0,0.0,-1.409524917602539,0.4665692448616028,0.7288414239883423,0.41999995708465576,0.5668956637382507,-1.6170100707313395e-06,-5.665292974299518e-06,-0.8237895369529724,9.055616828845814e-05,-0.0003912379324901849,-7.57644884288311e-05,0.009978092275559902,-0.003053826978430152,-0.0009690794395282865,0.540259838104248,0.7379661798477173,0.5805773138999939,0.2995104491710663,-0.15174365043640137,0.42908352613449097,0.4643040895462036,0.7395954132080078,0.42000001668930054,-0.6899175047874451,-0.3649246394634247,-1.4103097915649414,3.000000476837158,-0.17044061422348022,-0.16640368103981018,-0.1609339416027069,-0.1541483849287033,0.20259293913841248,0.15327738225460052,0.09998319298028946,0.05321450158953667
0.9,0.16623783111572266,0.017007553949952126,0.0,0.6513553261756897,0.0,0.0,-0.7587728500366211,-0.0796082615852356,0.00644748704507947,0.0,0.0,0.0,1.863807201385498,0.4665692448616028,0.7288414239883423,0.41999995708465576,0.5668956637382507,-1.6751733937780955e-06,-5.378304649639176e-06,-0.8237895369529724,9.022949961945415e-05,-0.00039103630115278065,-7.575424388051033e-05,0.009971564635634422,-0.0030512006487697363,-0.0009679141221567988,0.5452631115913391,0.7336435317993164,0.5870035290718079,0.34974536299705505,-0.22586655616760254,0.3884970545768738,0.4643040895462036,0.7395954132080078,0.42000001668930054,-0.6687484383583069,2.6263883113861084,-1.4282087087631226,-2.9999992847442627,-0.16869719326496124,-0.16518621146678925,-0.16031737625598907,-0.15407298505306244,0.16695214807987213,0.11972983181476593,0.0698564276099205,0.024055106565356255
