vladlanda/robotic-transformer/data/env_000_episode_0234.csv
sim_time_s,robot_box_x,robot_box_y,robot_box_z,robot_box_quat_w,robot_box_quat_x,robot_box_quat_y,robot_box_quat_z,robot_box_linvel_x,robot_box_linvel_y,robot_box_linvel_z,robot_box_angvel_x,robot_box_angvel_y,robot_box_angvel_z,cube_world_x,cube_world_y,cube_world_z,cube_quat_w,cube_quat_x,cube_quat_y,cube_quat_z,cube_linvel_x,cube_linvel_y,cube_linvel_z,cube_angvel_x,cube_angvel_y,cube_angvel_z,endpoint_world_x,endpoint_world_y,endpoint_world_z,endpoint_linvel_x,endpoint_linvel_y,endpoint_linvel_z,target_cube_world_x,target_cube_world_y,target_cube_world_z,gripper_actual_pos_rad_gp_leftgearjoint,gripper_actual_vel_rad_s_gp_leftgearjoint,gripper_actual_pos_rad_gp_rotatingjoint,gripper_actual_vel_rad_s_gp_rotatingjoint,motor_angle_rad_joint1,motor_angle_rad_joint2,motor_angle_rad_joint3,motor_angle_rad_joint4,motor_speed_rad_s_joint1,motor_speed_rad_s_joint2,motor_speed_rad_s_joint3,motor_speed_rad_s_joint4
0.0,0.0,0.0,0.0,1.0,0.0,0.0,0.0,0.0,0.0,0.0,0.0,0.0,0.0,-0.34739622473716736,0.6461536884307861,0.41999998688697815,1.0,0.0,0.0,0.0,0.0,0.0,0.0,0.0,0.0,0.0,3.42540442943573e-06,-0.005000244826078415,1.313499927520752,0.0,0.0,0.0,0.4007294774055481,0.6944305300712585,0.42000001668930054,-1.5707999467849731,0.0,0.0,0.0,0.0,0.0,0.0,0.0,0.0,0.0,0.0,0.0
0.016666666666666666,0.0029036342166364193,0.002138609066605568,0.0,0.999865710735321,0.0,0.0,0.01638670824468136,0.24137307703495026,0.18129372596740723,0.0,0.0,0.0,3.1420576572418213,-0.3473963439464569,0.6461533904075623,0.41999998688697815,1.0,3.2799914606584935e-06,-8.339814598912199e-07,8.465387679734704e-08,-1.9833554688375443e-05,0.00017983050202019513,-6.133061833679676e-05,0.0009432226070202887,-0.004689437802881002,-0.0003198152990080416,-0.007096610963344574,0.0034597530029714108,1.3159453868865967,-0.812130331993103,0.9893414378166199,0.18092620372772217,0.4007294774055481,0.6944305300712585,0.42000001668930054,-1.5301096439361572,3.0000038146972656,-0.04585418105125427,-2.999999761581421,0.0008771060965955257,0.0008032730547711253,0.0007172327022999525,0.0006173962028697133,0.11081068962812424,0.09746073186397552,0.08325159549713135,0.06813681125640869
0.03333333333333333,0.008989335037767887,0.006742965895682573,0.0,0.9998555183410645,0.0,0.0,0.016998648643493652,0.40718042850494385,0.3142980933189392,0.0,0.0,0.0,-0.8683322072029114,-0.34739646315574646,0.6461533308029175,0.4200000464916229,1.0,3.39090593115543e-06,-2.1324372028175276e-06,-3.7106541839193596e-08,0.0002635782293509692,0.0002693790593184531,-0.00010509486310184002,-0.0017707175575196743,0.004130743443965912,-0.00013547750131692737,-0.027408838272094727,0.026322880759835243,1.3166139125823975,-1.5821270942687988,1.6267752647399902,-0.08354738354682922,0.4007294774055481,0.6944305300712585,0.42000001668930054,-1.4800903797149658,3.000002861022949,-0.09589401632547379,-3.000000238418579,0.0029897757340222597,0.002652190625667572,0.0022767786867916584,0.0018608429236337543,0.1636948585510254,0.13928864896297455,0.11338891088962555,0.08588952571153641
0.05,0.018493561074137688,0.013833536766469479,0.0,0.999948263168335,0.0,0.0,-0.010170569643378258,0.6355043649673462,0.47127416729927063,0.0,0.0,0.0,-4.073966026306152,-0.34739649295806885,0.6461533904075623,0.4200000464916229,1.0,3.765230758290272e-06,-2.211922264905297e-06,5.6083799826467384e-09,0.0002653090050444007,0.00026691501261666417,-0.00010440615005791187,-0.00172435212880373,0.0041774665005505085,-0.0001294955873163417,-0.05689896643161774,0.05725037306547165,1.3120710849761963,-1.9443331956863403,2.0145277976989746,-0.4418247938156128,0.4007294774055481,0.6944305300712585,0.42000001668930054,-1.4300720691680908,2.999999523162842,-0.1459040343761444,-3.0000009536743164,0.005997978150844574,0.005159966181963682,0.004249563440680504,0.003262737998738885,0.2060917317867279,0.1658470779657364,0.12368008494377136,0.07949616760015488
0.06666666666666667,0.030804824084043503,0.023310096934437752,0.0,0.9998232126235962,0.0,0.0,-0.0188042763620615,0.7718910574913025,0.6154043078422546,0.0,0.0,0.0,-0.03494806960225105,-0.34739649295806885,0.6461533308029175,0.4200000464916229,0.9999999403953552,3.406835730856983e-06,-2.2856456780573353e-06,4.3008122929677484e-07,0.0002670265967026353,0.0002679176104720682,-0.0001043803058564663,-0.0017406701808795333,0.004211854189634323,-0.0001285061298403889,-0.09414777159690857,0.08984233438968658,1.3014986515045166,-2.371504783630371,2.059717893600464,-0.8173098564147949,0.4007294774055481,0.6944305300712585,0.42000001668930054,-1.3800444602966309,3.000002384185791,-0.11610323190689087,3.0,0.008692622184753418,0.007142369169741869,0.005479515064507723,0.0036991159431636333,0.1488460898399353,0.09859670698642731,0.046211037784814835,-0.008396591059863567
0.08333333333333333,0.04557172209024429,0.030573640018701553,0.0,0.9991398453712463,0.0,0.0,-0.04146808013319969,0.9500847458839417,0.3764321208000183,0.0,0.0,0.0,-3.533945083618164,-0.34739649295806885,0.6461533308029175,0.4200000464916229,1.0,3.6973383430449758e-06,-2.188984808526584e-06,-2.6323331780986337e-07,0.0002638960722833872,0.0002658652374520898,-0.00010433932766318321,-0.0017081378027796745,0.00415008282288909,-0.0001299151626881212,-0.12885743379592896,0.12882021069526672,1.2872200012207031,-1.8392999172210693,2.583162784576416,-0.8821281790733337,0.4007294774055481,0.6944305300712585,0.42000001668930054,-1.3300367593765259,3.000000476837158,-0.148109570145607,-3.000000476837158,0.00975264422595501,0.007079846691340208,0.004250095225870609,0.0012606639647856355,0.012439832091331482,-0.07245589792728424,-0.15960164368152618,-0.24898752570152283
0.1,0.054438576102256775,0.040232568979263306,0.0,0.9955660700798035,0.0,0.0,-0.09406483173370361,0.39265796542167664,0.6621405482292175,0.0,0.0,0.0,-7.287672519683838,-0.34739649295806885,0.6461533308029175,0.4200000464916229,0.9999999403953552,3.6204280604579253e-06,-2.265225475639454e-06,1.7461863421885937e-07,0.00026676725246943533,0.0002674070419743657,-0.00010408065281808376,-0.0017385295359417796,0.004209065344184637,-0.00012775739014614373,-0.16100922226905823,0.17488476634025574,1.2672232389450073,-1.9703760147094727,2.9298346042633057,-1.4287128448486328,0.4007294774055481,0.6944305300712585,0.42000001668930054,-1.28001868724823,2.999995708465576,-0.11459285020828247,3.000000476837158,0.0034316382370889187,-3.589105108403601e-05,-0.003713079262524843,-0.007606859318912029,-0.49720248579978943,-0.5361684560775757,-0.5776551365852356,-0.6219969987869263
0.11666666666666667,0.06411329656839371,0.05245496705174446,0.0,0.9918401837348938,0.0,0.0,-0.12748728692531586,0.8125705122947693,0.686293363571167,0.0,0.0,0.0,-2.834470510482788,-0.34739649295806885,0.6461533308029175,0.4200000464916229,1.0,3.7983741094649304e-06,-2.2627561975241406e-06,-1.5019411137018324e-07,0.00026374030858278275,0.00026566023007035255,-0.00010428880341351032,-0.001705368747934699,0.004147524479776621,-0.00012980001338291913,-0.19941449165344238,0.21791580319404602,1.2412910461425781,-2.3169913291931152,2.6739425659179688,-1.6414605379104614,0.4007294774055481,0.6944305300712585,0.42000001668930054,-1.2300236225128174,2.9999959468841553,-0.14656990766525269,-3.000000238418579,-0.003182516433298588,-0.007632504682987928,-0.012301083654165268,-0.017198471352458,-0.16963660717010498,-0.2611282169818878,-0.3505503535270691,-0.4379095733165741
0.13333333333333333,0.0741039291024208,0.06103000044822693,0.0,0.985016942024231,0.0,0.0,-0.1724577397108078,0.668961763381958,0.501112163066864,0.0,0.0,0.0,-6.028661727905273,-0.34739649295806885,0.6461533904075623,0.4200000464916229,0.9999999403953552,3.550490419002017e-06,-2.2297924715530826e-06,2.9292351655385573e-07,0.0002670329122338444,0.0002677924057934433,-0.00010416773147881031,-0.001743975793942809,0.004213578533381224,-0.0001280030410271138,-0.23488830029964447,0.2674970030784607,1.2109589576721191,-1.8703246116638184,3.3986802101135254,-1.9178578853607178,0.4007294774055481,0.6944305300712585,0.42000001668930054,-1.1800036430358887,2.9999990463256836,-0.11305060982704163,3.000000238418579,-0.008458423428237438,-0.01438957080245018,-0.020496955141425133,-0.026792291551828384,-0.19738361239433289,-0.31250202655792236,-0.4228751063346863,-0.5283976197242737
0.15,0.0830342248082161,0.06671091169118881,0.0,0.9803536534309387,0.0,0.0,-0.19724774360656738,0.4763629734516144,0.2722867727279663,0.0,0.0,0.0,-1.5931086540222168,-0.34739649295806885,0.6461533308029175,0.4200000464916229,0.9999999403953552,3.338063152114046e-06,-2.2428623651649104e-06,-2.8019764286568716e-08,0.00026674510445445776,0.0002675803261809051,-0.00010427739471197128,-0.0017366883112117648,0.0042068189941346645,-0.00012831240019295365,-0.2697293162345886,0.3212406039237976,1.1730291843414307,-2.003323793411255,3.3964061737060547,-2.6382040977478027,0.4007294774055481,0.6944305300712585,0.42000001668930054,-1.1342614889144897,2.495410203933716,-0.14503657817840576,-3.000000238418579,-0.012651409953832626,-0.020180590450763702,-0.02780081517994404,-0.03552459552884102,-0.30793827772140503,-0.38359424471855164,-0.45440787076950073,-0.5205286741256714
0.16666666666666666,0.08799712359905243,0.0719791129231453,0.0,0.9734208583831787,0.0,0.0,-0.2290237545967102,0.22091369330883026,0.3592672049999237,0.0,0.0,0.0,-4.6625471115112305,-0.34739649295806885,0.6461533904075623,0.4200000464916229,0.9999999403953552,3.6477927096711937e-06,-2.3072821022651624e-06,3.5273473031338654e-08,0.00026726932264864445,0.0002680143225006759,-0.00010418728925287724,-0.001747259870171547,0.004217622336000204,-0.00012798597163055092,-0.3027685284614563,0.38126370310783386,1.1214756965637207,-1.8305392265319824,3.7775192260742188,-3.4991297721862793,0.4007294774055481,0.6944305300712585,0.42000001668930054,-1.084891676902771,3.0000009536743164,-0.11870966106653214,2.9999992847442627,-0.01976247876882553,-0.02822566218674183,-0.036696452647447586,-0.045192085206508636,-0.5092761516571045,-0.5455511212348938,-0.5772514343261719,-0.6047289967536926
0.18333333333333332,0.09479456394910812,0.07709916681051254,0.0,0.9582861065864563,0.0,0.0,-0.2858107388019562,0.46691766381263733,0.2841220200061798,0.0,0.0,0.0,-7.827816486358643,-0.34739649295806885,0.6461533308029175,0.4200000464916229,0.9999999403953552,3.290506583653041e-06,-2.193882892242982e-06,-2.792363034131995e-07,0.000266780611127615,0.00026776042068377137,-0.0001043418888002634,-0.0017391631845384836,0.0042070988565683365,-0.00012845758465118706,-0.3292691111564636,0.44908344745635986,1.054502010345459,-1.2160682678222656,4.260254859924316,-4.411535263061523,0.4007294774055481,0.6944305300712585,0.42000001668930054,-1.034883975982666,3.0000009536743164,-0.15069599449634552,-3.0,-0.030931999906897545,-0.039476677775382996,-0.04798572510480881,-0.05648446083068848,-0.7824790477752686,-0.764102578163147,-0.7444870471954346,-0.7241702675819397
0.2,0.09822417795658112,0.08498955518007278,0.0,0.9468769431114197,0.0,0.0,-0.32159608602523804,0.1611376404762268,0.5098912715911865,0.0,0.0,0.0,-3.259406089782715,-0.34739649295806885,0.6461533308029175,0.4200000464916229,1.0,3.2807513434818247e-06,-2.219149109805585e-06,1.594698204598899e-07,0.0002662786573637277,0.000267401133896783,-0.00010424992069602013,-0.0017357232281938195,0.004197727423161268,-0.00012864978634752333,-0.3512424826622009,0.5109864473342896,0.9729956388473511,-0.9871745705604553,3.61906099319458,-5.237746715545654,0.4007294774055481,0.6944305300712585,0.42000001668930054,-0.9848744869232178,2.9999959468841553,-0.2007247656583786,-3.0000009536743164,-0.04569648206233978,-0.05438806116580963,-0.06299709528684616,-0.07151829451322556,-0.8948051333427429,-0.8931701183319092,-0.8893609642982483,-0.881923258304596
0.21666666666666667,0.10029026865959167,0.08942809700965881,0.0,0.9304490089416504,0.0,0.0,-0.3664213716983795,0.05847478285431862,0.19050726294517517,0.0,0.0,0.0,-6.670875072479248,-0.34739649295806885,0.6461533904075623,0.4200000464916229,1.0,3.613105945987627e-06,-2.2700548925058683e-06,2.2101254160133976e-07,0.0002671255497261882,0.00026781795895658433,-0.00010414235293865204,-0.0017445943085476756,0.004215254448354244,-0.000127866180264391,-0.36550652980804443,0.5688998103141785,0.8790405988693237,-0.47189417481422424,3.3158516883850098,-5.949150085449219,0.4007294774055481,0.6944305300712585,0.42000001668930054,-0.9348642230033875,2.9999969005584717,-0.2507561147212982,-3.0000011920928955,-0.06077076867222786,-0.06917865574359894,-0.07748045027256012,-0.08565521985292435,-0.9579790234565735,-0.9235610961914062,-0.8886271715164185,-0.8526132702827454
0.23333333333333334,0.10393828898668289,0.09592187404632568,0.0,0.9187393188476562,0.0,0.0,-0.39486464858055115,0.20287656784057617,0.39694270491600037,0.0,0.0,0.0,-2.5575382709503174,-0.34739649295806885,0.6461533308029175,0.4200000464916229,1.0,3.3818123483797535e-06,-2.29084980674088e-06,2.7279790515422064e-07,0.0002669129753485322,0.00026779924519360065,-0.00010433141142129898,-0.0017395684262737632,0.004209680482745171,-0.00012843731383327395,-0.3736989498138428,0.6130340099334717,0.7768031358718872,-0.1957780420780182,2.1409497261047363,-6.301906585693359,0.4007294774055481,0.6944305300712585,0.42000001668930054,-0.8848535418510437,2.999992609024048,-0.3007887303829193,-2.9999985694885254,-0.07712466269731522,-0.08547917753458023,-0.09374184161424637,-0.10159064084291458,-0.9524198174476624,-0.9541874527931213,-0.9565187692642212,-0.9590017795562744
0.25,0.10458104312419891,0.09925661236047745,0.0,0.9197381734848022,0.0,0.0,-0.3925323486328125,-0.014762024395167828,0.13668374717235565,0.0,0.0,0.0,1.1305298805236816,-0.34739646315574646,0.6461533308029175,0.4200000464916229,0.9999999403953552,3.7065203741804e-06,-2.2228459783946164e-06,-2.255132756090461e-07,0.00026424904353916645,0.0002665679494384676,-0.00010457634925842285,-0.0017169411294162273,0.004155544564127922,-0.00013062905054539442,-0.3805074095726013,0.6369799375534058,0.6727069616317749,-0.262257844209671,0.8316383957862854,-6.214587688446045,0.4007294774055481,0.6944305300712585,0.42000001668930054,-0.8348438739776611,2.999981641769409,-0.3508213460445404,-2.999998092651367,-0.09399879723787308,-0.10227666050195694,-0.11048521101474762,-0.11828289180994034,-0.9967606067657471,-0.9970889687538147,-0.9973878264427185,-0.9976615309715271
0.26666666666666666,0.10210566222667694,0.09938352555036545,0.0,0.9153692722320557,0.0,0.0,-0.4026153087615967,-0.19820384681224823,-0.03416243940591812,0.0,0.0,0.0,-2.1790456771850586,-0.34739649295806885,0.6461533308029175,0.4200000464916229,0.9999999403953552,3.7195993627392454e-06,-2.40332542489341e-06,-1.8308921312382154e-07,0.00026623232406564057,0.00026729132514446974,-0.00010425853542983532,-0.0017326984088867903,0.004196567460894585,-0.000128512445371598,-0.378631591796875,0.6453201770782471,0.5680358409881592,0.4434296190738678,0.040932051837444305,-6.154911994934082,0.4007294774055481,0.6944305300712585,0.42000001668930054,-0.7848351001739502,3.0000014305114746,-0.4008527398109436,-3.000001907348633,-0.111501544713974,-0.11956628412008286,-0.12761296331882477,-0.13528285920619965,-1.003522515296936,-1.002657413482666,-1.001997709274292,-1.001470685005188
0.2833333333333333,0.09730947762727737,0.0971137210726738,0.0,0.9175447225570679,0.0,0.0,-0.39763256907463074,-0.33059683442115784,-0.1766250729560852,0.0,0.0,0.0,1.4940193891525269,-0.34739649295806885,0.6461533904075623,0.4200000464916229,0.9999999403953552,3.5840330383507535e-06,-2.31531180361344e-06,7.403321689025688e-08,0.0002652195980772376,0.0002645523054525256,-0.00010317121632397175,-0.0017020339146256447,0.004185074009001255,-0.00012500229058787227,-0.3711549639701843,0.6469786167144775,0.4737248420715332,0.5639301538467407,0.01907116360962391,-5.166398048400879,0.4007294774055481,0.6944305300712585,0.42000001668930054,-0.7348265647888184,3.0,-0.4508819580078125,-2.999999523162842,-0.12901337444782257,-0.1369076371192932,-0.14482815563678741,-0.1523996889591217,-1.0212256908416748,-1.0160958766937256,-1.012179970741272,-1.0090440511703491
0.3,0.09030559659004211,0.09251248091459274,0.0,0.9134829640388489,0.0,0.0,-0.40687692165374756,-0.4662928283214569,-0.3163600564002991,0.0,0.0,0.0,-2.0728626251220703,-0.34739649295806885,0.6461533308029175,0.4200000464916229,1.0,3.7241927657305496e-06,-2.2717581487086136e-06,9.636217157549254e-08,0.00026312493719160557,0.00026525757857598364,-0.0001043833326548338,-0.0016961178043857217,0.004134873393923044,-0.00013027516251895577,-0.36530444025993347,0.6486954689025879,0.42890533804893494,0.1108119785785675,-0.024058755487203598,-0.2481425702571869,0.4007294774055481,0.6944305300712585,0.42000001668930054,-0.6848223805427551,2.9999561309814453,-0.5013207793235779,-2.999643564224243,-0.14336249232292175,-0.1507158726453781,-0.15797361731529236,-0.1647280603647232,-0.6622117757797241,-0.6043624877929688,-0.5302669405937195,-0.43764787912368774
0.31666666666666665,0.08106429874897003,0.08561986684799194,0.0,0.9160850644111633,0.0,0.0,-0.4009840488433838,-0.5946670174598694,-0.45270705223083496,0.0,0.0,0.0,1.6813113689422607,-0.34658458828926086,0.6482595801353455,0.42002809047698975,0.9995894432067871,0.0006491350359283388,5.6376080465270206e-05,-0.028645047917962074,0.1472398340702057,0.3095815181732178,0.006683947518467903,0.45474889874458313,-0.07819860428571701,-7.429500102996826,-0.3642262816429138,0.6544792652130127,0.4255017638206482,0.16558228433132172,0.3829564154148102,-0.21785734593868256,0.4007294774055481,0.6944305300712585,0.42000001668930054,-0.6348162889480591,2.999990940093994,-0.5513886213302612,-3.000005006790161,-0.15493987500667572,-0.16072474420070648,-0.16612102091312408,-0.17071977257728577,-0.6809353828430176,-0.5684725046157837,-0.438476026058197,-0.2923142910003662
0.3333333333333333,0.0696134865283966,0.07643293589353561,0.0,0.9123297929763794,0.0,0.0,-0.4094561040401459,-0.7292245030403137,-0.5913165211677551,0.0,0.0,0.0,-2.048758029937744,-0.34457075595855713,0.6526287198066711,0.4200000464916229,0.9971243143081665,4.4674911237052584e-07,1.758985717970063e-06,-0.07578245550394058,0.11121602356433868,0.24418742954730988,-1.3818498700857162e-06,5.47706731595099e-05,-2.1034415112808347e-05,-5.05164909362793,-0.3605150580406189,0.6582015156745911,0.42438215017318726,0.22514554858207703,0.18537548184394836,0.22197169065475464,0.4007294774055481,0.6944305300712585,0.42000001668930054,-0.5848113298416138,2.999988079071045,-0.6014381051063538,-3.000000238418579,-0.1666490137577057,-0.17014193534851074,-0.1729217916727066,-0.17463286221027374,-0.650531530380249,-0.4976377785205841,-0.325335294008255,-0.138055682182312
0.35,0.056494053453207016,0.06502421200275421,0.0,0.915082573890686,0.0,0.0,-0.4032665193080902,-0.8565199375152588,-0.7238120436668396,0.0,0.0,0.0,1.7426437139511108,-0.341237336397171,0.6585363149642944,0.42022454738616943,0.9893845319747925,0.005461719818413258,-0.00041369989048689604,-0.145217627286911,0.40387922525405884,0.6197354197502136,0.041894860565662384,2.3021047115325928,-0.5457366704940796,-5.740869522094727,-0.3544909656047821,0.6659145355224609,0.42435604333877563,0.4719342589378357,0.6356322169303894,-0.13828441500663757,0.4007294774055481,0.6944305300712585,0.42000001668930054,-0.5348063707351685,2.9999892711639404,-0.65146404504776,-2.9999892711639404,-0.17793160676956177,-0.17850320041179657,-0.17803525924682617,-0.1762719601392746,-0.6041553616523743,-0.43310052156448364,-0.24182826280593872,-0.03686453402042389
0.36666666666666664,0.04625380039215088,0.05085257068276405,0.0,0.9115440249443054,0.0,0.0,-0.41120249032974243,-0.5288619995117188,-0.8994041681289673,0.0,0.0,0.0,-1.967225193977356,-0.3335694372653961,0.6700677275657654,0.42000219225883484,0.9817966818809509,-0.00016293858061544597,9.935073649103288e-06,-0.1899344027042389,0.45593810081481934,0.6856521368026733,-0.006707311142235994,0.320135235786438,-0.1360396444797516,-5.341575622558594,-0.342928409576416,0.675045371055603,0.41957977414131165,0.7854843139648438,0.43106865882873535,-0.04134442284703255,0.4007294774055481,0.6944305300712585,0.42000001668930054,-0.4848020374774933,2.9999759197235107,-0.7015198469161987,-2.9999759197235107,-0.18724142014980316,-0.1847773790359497,-0.18090692162513733,-0.17550475895404816,-0.4753207564353943,-0.2873176336288452,-0.07644698768854141,0.14871706068515778
0.3833333333333333,0.03430526703596115,0.035013798624277115,0.0,0.8948354721069336,0.0,0.0,-0.4463960528373718,-0.8130554556846619,-0.9708804488182068,0.0,0.0,0.0,-5.624875068664551,-0.32248443365097046,0.6845128536224365,0.42064353823661804,0.9745898842811584,0.015668164938688278,-0.0033379204105585814,-0.22342300415039062,0.9879120588302612,1.1677712202072144,0.08989869058132172,1.8644415140151978,-2.719417095184326,-4.456453800201416,-0.32578712701797485,0.6867683529853821,0.4207439124584198,1.2976548671722412,0.9477201104164124,0.14595773816108704,0.4007294774055481,0.6944305300712585,0.42000001668930054,-0.43479856848716736,2.9999754428863525,-0.7515727877616882,-2.998090982437134,-0.19552962481975555,-0.18994031846523285,-0.18254439532756805,-0.17336970567703247,-0.4336201250553131,-0.26481401920318604,-0.07280055433511734,0.13350234925746918
0.4,0.024822181090712547,0.016336843371391296,0.0,0.8629376292228699,0.0,0.0,-0.5053104758262634,-0.5145539045333862,-1.1706948280334473,0.0,0.0,0.0,-8.85135555267334,-0.28762611746788025,0.706043541431427,0.42548248171806335,0.9604095220565796,0.012022815644741058,-0.03762993589043617,-0.275777131319046,3.193472385406494,1.7328771352767944,0.2506971061229706,35.00131607055664,-21.624319076538086,8.214153289794922,-0.29070809483528137,0.7089987993240356,0.4249764084815979,2.9780688285827637,1.716221809387207,0.5546379685401917,0.4007294774055481,0.6944305300712585,0.42000001668930054,-0.39371317625045776,1.4725507497787476,-0.801596999168396,-3.0000007152557373,-0.20295079052448273,-0.19432872533798218,-0.18356245756149292,-0.17084233462810516,-0.48012226819992065,-0.27986758947372437,-0.06363502889871597,0.15814462304115295
0.4166666666666667,0.017938870936632156,0.0031744465231895447,0.0,0.8134310245513916,0.0,0.0,-0.5816614031791687,-0.36009925603866577,-0.6587892174720764,0.0,0.0,0.0,-11.696840286254883,-0.21096104383468628,0.7378765344619751,0.43249115347862244,0.9371834993362427,0.07151704281568527,-0.08596713840961456,-0.33042702078819275,6.180504322052002,1.6816281080245972,0.4441949427127838,16.678462982177734,-19.6729793548584,22.10599136352539,-0.21370044350624084,0.7412933111190796,0.432050883769989,5.843143939971924,2.270864486694336,0.5305166244506836,0.4007294774055481,0.6944305300712585,0.42000001668930054,-0.37591707706451416,0.8233988285064697,-0.7647754549980164,2.9957876205444336,-0.21737609803676605,-0.20477049052715302,-0.18922200798988342,-0.17202360928058624,-0.8582155704498291,-0.6867361664772034,-0.4150664806365967,-0.17228353023529053
0.43333333333333335,0.014469325542449951,-0.006580693181604147,0.0,0.7738011479377747,0.0,0.0,-0.6334285736083984,-0.14919191598892212,-0.5423832535743713,0.0,0.0,0.0,-6.65643835067749,-0.11536094546318054,0.770879864692688,0.4432900547981262,0.8892828226089478,0.11024365574121475,-0.11773762851953506,-0.42797231674194336,5.931848526000977,1.2931946516036987,0.7756624221801758,17.92072296142578,-6.829798698425293,9.066117286682129,-0.11807189881801605,0.7753129005432129,0.44235214591026306,5.834836959838867,1.6683238744735718,0.6860303282737732,0.4007294774055481,0.6944305300712585,0.42000001668930054,-0.3611106276512146,1.0073881149291992,-0.7922449111938477,-3.0000038146972656,-0.22744540870189667,-0.21419666707515717,-0.19535256922245026,-0.17534224689006805,-0.5008324980735779,-0.4718431532382965,-0.320082426071167,-0.19904322922229767
0.45,0.014180593192577362,-0.012665840797126293,0.0,0.7557926177978516,0.0,0.0,-0.6548110842704773,0.03725798800587654,-0.3095838725566864,0.0,0.0,0.0,-2.242267370223999,-0.018516987562179565,0.7895719408988953,0.454720139503479,0.8369623422622681,0.11039699614048004,-0.12218077480792999,-0.5218988656997681,5.8789544105529785,-0.08883937448263168,0.4770714342594147,-2.9072556495666504,-19.580476760864258,16.64860725402832,-0.020715009421110153,0.7955906391143799,0.45277631282806396,5.920191764831543,0.7473156452178955,0.7962225675582886,0.4007294774055481,0.6944305300712585,0.42000001668930054,-0.3431237041950226,0.9776009917259216,-0.8422699570655823,-3.000004768371582,-0.23657125234603882,-0.22221381962299347,-0.20077385008335114,-0.17869478464126587,-0.4950745403766632,-0.41891008615493774,-0.2809538245201111,-0.17260916531085968
0.4666666666666667,0.013432122766971588,-0.015094748698174953,0.0,0.7310997247695923,0.0,0.0,-0.6822706460952759,-0.08865959942340851,-0.09319137036800385,0.0,0.0,0.0,-5.264477252960205,0.07633768022060394,0.7911991477012634,0.4613878130912781,0.7718788385391235,0.08717615157365799,-0.1578826904296875,-0.6096526384353638,5.422989845275879,-0.8802066445350647,0.3646714687347412,-12.698786735534668,2.6279854774475098,-1.4118014574050903,0.0735279768705368,0.7985485792160034,0.4611295163631439,5.54733943939209,-0.3556804358959198,0.47610193490982056,0.4007294774055481,0.6944305300712585,0.42000001668930054,-0.32861825823783875,0.6876322031021118,-0.8922958374023438,-2.999999761581421,-0.24003435671329498,-0.22927464544773102,-0.20587018132209778,-0.18215864896774292,-0.025371957570314407,-0.37056300044059753,-0.26627999544143677,-0.17690126597881317
0.48333333333333334,0.014179780147969723,-0.014738726429641247,0.0,0.7199746966362,0.0,0.0,-0.6940003037452698,0.0866270586848259,0.09532903879880905,0.0,0.0,0.0,-0.8225501179695129,0.16203142702579498,0.7791723012924194,0.46426692605018616,0.6949998140335083,0.0414319783449173,-0.1832713633775711,-0.6940245628356934,4.433726787567139,-1.5341967344284058,0.17162127792835236,-0.005528483539819717,-2.353631019592285,18.482494354248047,0.1588088870048523,0.7875686883926392,0.4656904339790344,4.885842323303223,-1.0113909244537354,0.15970338881015778,0.4007294774055481,0.6944305300712585,0.42000001668930054,-0.31779950857162476,0.5755561590194702,-0.9423206448554993,-3.0000030994415283,-0.23976361751556396,-0.23393313586711884,-0.20947222411632538,-0.18494834005832672,0.0371875986456871,-0.18763506412506104,-0.16337895393371582,-0.15396727621555328
0.5,0.01938614249229431,-0.02001584880053997,0.0,0.6990163326263428,0.0,0.0,-0.7151056528091431,0.3930661380290985,-0.4625772535800934,0.0,0.0,0.0,-4.603932857513428,0.23598189651966095,0.7615185976028442,0.46111905574798584,0.6373941898345947,0.032876282930374146,-0.1729743778705597,-0.7501516938209534,3.8629932403564453,-1.3996859788894653,-0.49498695135116577,-3.1288187503814697,12.305875778198242,4.095301628112793,0.23276370763778687,0.7712135314941406,0.4625609219074249,4.163715362548828,-1.1423475742340088,-0.3185228109359741,0.4007294774055481,0.6944305300712585,0.42000001668930054,-0.3067828118801117,0.752444326877594,-0.9923446774482727,-2.999455690383911,-0.23186692595481873,-0.230250746011734,-0.20714804530143738,-0.1840645968914032,0.6219273805618286,0.39573541283607483,0.26829972863197327,0.13762322068214417
0.5166666666666666,0.021073583513498306,-0.02206953801214695,0.0,0.6895273923873901,0.0,0.0,-0.724259614944458,-0.010819894261658192,0.010620033368468285,0.0,0.0,0.0,-0.5985628962516785,0.29552391171455383,0.7395210862159729,0.4528751075267792,0.5909257531166077,0.001068518846295774,-0.15212060511112213,-0.7922530174255371,3.1114542484283447,-1.4954274892807007,-0.5159267783164978,-3.871304750442505,-1.6906242370605469,-2.7968626022338867,0.29271042346954346,0.749004602432251,0.454861581325531,3.170022487640381,-1.4946115016937256,-0.5423414707183838,0.4007294774055481,0.6944305300712585,0.42000001668930054,-0.2925930917263031,0.878592848777771,-1.0423671007156372,-3.000001907348633,-0.22609764337539673,-0.22643952071666718,-0.2048702985048294,-0.1835358738899231,0.28494781255722046,0.21698540449142456,0.11684802919626236,-4.8810456121373136e-08
0.5333333333333333,0.02448567934334278,-0.022273661568760872,0.0,0.6735913157463074,0.0,0.0,-0.7391040325164795,0.2521432042121887,0.10469646006822586,0.0,0.0,0.0,-3.4168717861175537,0.3437632620334625,0.7186961770057678,0.4369935095310211,0.5414608716964722,-0.04925379157066345,-0.15370716154575348,-0.8250868320465088,2.6726365089416504,-1.3654794692993164,-1.0242817401885986,-11.5660400390625,2.4803757667541504,13.833785057067871,0.34086155891418457,0.7280283570289612,0.44086867570877075,2.479506254196167,-1.187611699104309,-0.9986929893493652,0.4007294774055481,0.6944305300712585,0.42000001668930054,-0.2744857370853424,1.170083999633789,-1.0923892259597778,-3.000000476837158,-0.21750596165657043,-0.21996459364891052,-0.20157542824745178,-0.18342165648937225,0.5142291188240051,0.3950992524623871,0.17676493525505066,-0.03776584938168526
0.55,0.030219916254281998,-0.02531915158033371,0.0,0.6705183982849121,0.0,0.0,-0.7418928742408752,0.2717888057231903,-0.16435424983501434,0.0,0.0,0.0,0.40896210074424744,0.37562429904937744,0.7036985754966736,0.42464935779571533,0.5347398519515991,-0.05348631367087364,-0.07158669829368591,-0.8402784466743469,1.1029618978500366,-0.6076474785804749,0.09022645652294159,-8.796637535095215,-12.874764442443848,10.761190414428711,0.3732672333717346,0.7115300893783569,0.4277932047843933,0.961150050163269,-0.5657163262367249,0.07403884828090668,0.4007294774055481,0.6944305300712585,0.42000001668930054,-0.26323947310447693,0.3367997705936432,-1.1424130201339722,-2.9940927028656006,-0.2058996856212616,-0.21042589843273163,-0.19622042775154114,-0.18212202191352844,0.6012262105941772,0.5179466605186462,0.2864954471588135,0.06454594433307648
0.5666666666666667,0.037657611072063446,-0.023284411057829857,0.0,0.6574504971504211,0.0,0.0,-0.7534977197647095,0.4737304747104645,0.13878297805786133,0.0,0.0,0.0,-2.951735496520996,0.3903796076774597,0.6978177428245544,0.4237198233604431,0.5503799319267273,-0.022647855803370476,-0.060129061341285706,-0.8324381709098816,0.638931155204773,-0.11367380619049072,0.03428739681839943,-0.023332497105002403,2.276479482650757,3.478221893310547,0.3861543536186218,0.7041563987731934,0.4265007972717285,0.5916154384613037,-0.23315218091011047,0.02792588621377945,0.4007294774055481,0.6944305300712585,0.42000001668930054,-0.24945244193077087,1.2506731748580933,-1.1047194004058838,2.998225450515747,-0.19954606890678406,-0.20483505725860596,-0.1940736472606659,-0.1832199990749359,0.4693087041378021,0.41210225224494934,0.1887636035680771,-0.01581668108701706
0.5833333333333334,0.04202629625797272,-0.024801552295684814,0.0,0.6571953892707825,0.0,0.0,-0.753720223903656,0.18136677145957947,-0.15726859867572784,0.0,0.0,0.0,0.821016252040863,0.39967238903045654,0.695758044719696,0.42241063714027405,0.5618121027946472,-0.04302575811743736,-0.03717736154794693,-0.8253082633018494,0.4682689309120178,-0.1242276206612587,-0.12273566424846649,2.2633719444274902,6.393206596374512,-0.4295347332954407,0.39253753423690796,0.6967118978500366,0.4241864085197449,0.18227247893810272,-0.515760064125061,-0.19505012035369873,0.4007294774055481,0.6944305300712585,0.42000001668930054,-0.27339306473731995,-2.999915599822998,-1.127634882926941,-2.999985933303833,-0.19335845112800598,-0.19863538444042206,-0.19080553948879242,-0.1826779991388321,0.31390342116355896,0.3464556634426117,0.19706186652183533,0.05650514364242554
0.6,0.0474407784640789,-0.02205893211066723,0.0,0.6456061005592346,0.0,0.0,-0.7636705636978149,0.3186897039413452,0.21229201555252075,0.0,0.0,0.0,-2.730353593826294,0.4023427665233612,0.6937441229820251,0.42066988348960876,0.5791603326797485,-0.013417086564004421,-0.009839562699198723,-0.8150437474250793,0.10330972820520401,-0.10668639093637466,-0.09694641083478928,4.831851482391357,-1.8371057510375977,2.791228771209717,0.3948262631893158,0.6934899091720581,0.42464786767959595,0.17472520470619202,0.05794420465826988,0.15833313763141632,0.4007294774055481,0.6944305300712585,0.42000001668930054,-0.3050117790699005,-0.9402630925178528,-1.177573800086975,-2.9986724853515625,-0.1904144138097763,-0.19501763582229614,-0.1894322633743286,-0.1833418756723404,0.34076523780822754,0.33735230565071106,0.16896027326583862,0.01962960697710514
0.6166666666666667,0.05473581701517105,-0.02367650903761387,0.0,0.6464511752128601,0.0,0.0,-0.762955367565155,0.46153467893600464,-0.10304512828588486,0.0,0.0,0.0,1.007658839225769,0.40293145179748535,0.692773699760437,0.4200000464916229,0.5862627029418945,-1.2904057200557872e-07,1.672110983008679e-07,-0.8101209998130798,0.012122797779738903,-0.02472127415239811,-5.305511876940727e-06,-3.336862937430851e-05,-0.00022552369046024978,0.18042311072349548,0.3947754502296448,0.6934840679168701,0.42730891704559326,-0.1944604516029358,-0.08458171784877777,0.17609640955924988,0.4007294774055481,0.6944305300712585,0.42000001668930054,-0.34933871030807495,-2.999999761581421,-1.2275718450546265,-2.9999618530273438,-0.18270942568778992,-0.1874164491891861,-0.18458205461502075,-0.18096116185188293,0.2765938937664032,0.32014402747154236,0.2082313746213913,0.10578329861164093
0.6333333333333333,0.06407948583364487,-0.022549062967300415,0.0,0.665591299533844,0.0,0.0,-0.7463164329528809,0.6027394533157349,0.11621024459600449,0.0,0.0,0.0,4.32753849029541,0.4029310941696167,0.6927739381790161,0.4200000464916229,0.5862630009651184,6.068618745302956e-07,-3.923055828636279e-06,-0.8101208209991455,0.00017966308223549277,-0.00014706654474139214,-7.664645090699196e-05,0.00024629486142657697,-0.001359243760816753,-0.0008421322563663125,0.3928183317184448,0.6918724775314331,0.43094784021377563,-0.11894715577363968,-0.1116185262799263,0.2654666602611542,0.4007294774055481,0.6944305300712585,0.42000001668930054,-0.399357408285141,-2.999993085861206,-1.2775520086288452,-2.999966859817505,-0.17905080318450928,-0.18275326490402222,-0.1811562478542328,-0.1784905195236206,0.2296072542667389,0.30287864804267883,0.25817233324050903,0.23417168855667114
0.65,0.07533925771713257,-0.024546783417463303,0.0,0.6742232441902161,0.0,0.0,-0.7385275959968567,0.7003738284111023,-0.14639835059642792,0.0,0.0,0.0,0.34773051738739014,0.40293118357658386,0.6927739381790161,0.4200000464916229,0.5862630605697632,4.447007597718766e-07,-2.9532425287470687e-06,-0.8101207613945007,0.000113632959255483,-0.0002687791420612484,-9.088311344385147e-05,0.006275017745792866,-0.00136347278021276,-0.0006743656122125685,0.3919069766998291,0.6916849613189697,0.4360177516937256,-0.06784988939762115,-0.08496524393558502,0.3089531660079956,0.4007294774055481,0.6944305300712585,0.42000001668930054,-0.4493688642978668,-2.9999547004699707,-1.3275500535964966,-2.99992299079895,-0.17399799823760986,-0.17648020386695862,-0.17536477744579315,-0.17280398309230804,0.211130291223526,0.3142857551574707,0.32645565271377563,0.35830479860305786
0.6666666666666666,0.08811330050230026,-0.029518060386180878,0.0,0.6603612899780273,0.0,0.0,-0.7509480118751526,0.7986262440681458,-0.3690136671066284,0.0,0.0,0.0,-3.1356751918792725,0.40293118357658386,0.6927739381790161,0.4200000464916229,0.5862628221511841,3.094498310929339e-07,-3.3992605494859163e-06,-0.8101208209991455,0.00010710888454923406,-0.0002717519528232515,-8.953921496868134e-05,0.006386097986251116,-0.001457788166590035,-0.0006636165780946612,0.3953588008880615,0.6918895244598389,0.44745832681655884,0.45476460456848145,0.07486700266599655,1.1526789665222168,0.4007294774055481,0.6944305300712585,0.42000001668930054,-0.4993817210197449,-2.9999823570251465,-1.3775683641433716,-2.999999761581421,-0.17220792174339294,-0.17292040586471558,-0.17133106291294098,-0.16798557341098785,0.06593654304742813,0.17067629098892212,0.20904389023780823,0.2645076513290405
0.6833333333333333,0.10390627384185791,-0.030157510191202164,0.0,0.6242640614509583,0.0,0.0,-0.7812134027481079,0.9316684603691101,-0.00834102462977171,0.0,0.0,0.0,-6.5207414627075195,0.40293118357658386,0.6927738785743713,0.4200000464916229,0.5862628221511841,3.005130508881848e-07,-3.076210987273953e-06,-0.8101209402084351,0.0001131307435571216,-0.00026779287145473063,-9.100744500756264e-05,0.006254478823393583,-0.001368831959553063,-0.0006719453958794475,0.4118357300758362,0.6896857023239136,0.4726881980895996,1.5560762882232666,-0.1959715485572815,1.955486536026001,0.4007294774055481,0.6944305300712585,0.42000001668930054,-0.5493943095207214,-2.999847650527954,-1.4275866746902466,-2.9999783039093018,-0.1767943948507309,-0.17496857047080994,-0.17180135846138,-0.16669145226478577,-0.22659236192703247,-0.0976381003856659,-0.01335159782320261,0.0833849310874939
0.7,0.11649542301893234,-0.029477810487151146,0.0,0.602690577507019,0.0,0.0,-0.7979749441146851,0.6799480319023132,0.06931941211223602,0.0,0.0,0.0,-2.2265541553497314,0.40293118357658386,0.6927739381790161,0.4200000464916229,0.5862629413604736,5.224783876656147e-07,-3.2202440252149245e-06,-0.8101207613945007,0.00011227934010094032,-0.000268843665253371,-9.082932956516743e-05,0.006283972878009081,-0.001385689014568925,-0.0006715895142406225,0.43784019351005554,0.6907130479812622,0.5068913698196411,1.4551879167556763,0.26476728916168213,2.104611873626709,0.4007294774055481,0.6944305300712585,0.42000001668930054,-0.5702287554740906,0.22860956192016602,-1.4776049852371216,-3.0,-0.1779177337884903,-0.17504675686359406,-0.17145705223083496,-0.16576923429965973,0.05268814042210579,0.06128300726413727,0.03744891285896301,0.01880505681037903
0.7166666666666667,0.12424968183040619,-0.02676468901336193,0.0,0.6067498326301575,0.0,0.0,-0.7948928475379944,0.388753741979599,0.20623327791690826,0.0,0.0,0.0,1.4912242889404297,0.40293118357658386,0.6927739381790161,0.4200000464916229,0.5862628817558289,2.940065542134107e-07,-3.10610153064772e-06,-0.8101208209991455,0.0001094266990548931,-0.00027232946013100445,-9.000441059470177e-05,0.006387721747159958,-0.001432109740562737,-0.0006694607436656952,0.45807498693466187,0.6962679624557495,0.5366467237472534,0.8984783887863159,0.36892127990722656,1.5049556493759155,0.4007294774055481,0.6944305300712585,0.42000001668930054,-0.545512855052948,2.516907215118408,-1.4403057098388672,2.999999761581421,-0.17542685568332672,-0.17268168926239014,-0.16964702308177948,-0.16447967290878296,0.21308907866477966,0.1967504918575287,0.1587245762348175,0.1184835210442543
0.7333333333333333,0.1279575079679489,-0.028122298419475555,0.0,0.5993879437446594,0.0,0.0,-0.8004586696624756,0.1836758553981781,-0.1587906777858734,0.0,0.0,0.0,-2.0244557857513428,0.40293118357658386,0.6927738785743713,0.4200000464916229,0.5862626433372498,2.8680065611297323e-07,-3.1442450563190505e-06,-0.8101209402084351,0.00011390231520636007,-0.0002681730838958174,-9.1164605692029e-05,0.006259511224925518,-0.0013614798663184047,-0.0006740454700775445,0.46609628200531006,0.7015060186386108,0.5547446012496948,0.0458572693169117,0.23415274918079376,0.8450695276260376,0.4007294774055481,0.6944305300712585,0.42000001668930054,-0.5162197351455688,1.096201777458191,-1.3902530670166016,2.999999761581421,-0.17083118855953217,-0.16838783025741577,-0.16596192121505737,-0.16151542961597443,0.241443932056427,0.23817592859268188,0.21740558743476868,0.18392851948738098
0.75,0.12848645448684692,-0.024668192490935326,0.0,0.6047980189323425,0.0,0.0,-0.7963789105415344,-0.017272839322686195,0.34417465329170227,0.0,0.0,0.0,1.6939960718154907,0.4029311537742615,0.6927738785743713,0.4200000464916229,0.5862628817558289,3.2146292028301104e-07,-3.191613814124139e-06,-0.8101208209991455,0.00011316777090542018,-0.0002676919102668762,-9.101093746721745e-05,0.00625073816627264,-0.0013685261365026236,-0.0006721013342030346,0.4645846486091614,0.704049825668335,0.5647487640380859,-0.20695888996124268,0.16251325607299805,0.385132372379303,0.4007294774055481,0.6944305300712585,0.42000001668930054,-0.48143044114112854,2.89408016204834,-1.4085369110107422,-2.999999761581421,-0.17213058471679688,-0.16862517595291138,-0.16548322141170502,-0.16070783138275146,-0.13255833089351654,-0.06209530681371689,-0.010785335674881935,0.013939919881522655
0.7666666666666666,0.1269272118806839,-0.024553989991545677,0.0,0.5984266996383667,0.0,0.0,-0.8011775612831116,-0.17391084134578705,0.0037203170359134674,0.0,0.0,0.0,-1.6574933528900146,0.40293118357658386,0.6927738785743713,0.4200000464916229,0.5862627029418945,3.2833736440807115e-07,-3.259657432863605e-06,-0.8101209402084351,0.00011338530748616904,-0.0002675871946848929,-9.103002957999706e-05,0.006247292272746563,-0.0013644914142787457,-0.0006721605313941836,0.45586737990379333,0.7056698799133301,0.5648690462112427,-0.9063565731048584,0.010919235646724701,-0.1629958152770996,0.4007294774055481,0.6944305300712585,0.42000001668930054,-0.4636770784854889,-0.4890652000904083,-1.3700692653656006,2.9999992847442627,-0.17163173854351044,-0.1675001084804535,-0.16394241154193878,-0.1591399908065796,-0.055294230580329895,-0.001976877450942993,0.040684767067432404,0.05830373615026474
0.7833333333333333,0.12722629308700562,-0.019273532554507256,0.0,0.6053956151008606,0.0,0.0,-0.795924723148346,0.02253790944814682,0.24970126152038574,0.0,0.0,0.0,1.4486544132232666,0.40293118357658386,0.6927738785743713,0.4200000464916229,0.5862627029418945,4.951994583279884e-07,-3.1310032682085875e-06,-0.8101209998130798,0.00011472104961285368,-0.0002678691816981882,-9.13362018764019e-05,0.006246583536267281,-0.0013505916576832533,-0.0006756626535207033,0.44421082735061646,0.7049872279167175,0.5613257884979248,-0.40299689769744873,0.11354994773864746,-0.2686867415904999,0.4007294774055481,0.6944305300712585,0.42000001668930054,-0.4686805307865143,-0.13521011173725128,-1.3887449502944946,-2.9999990463256836,-0.17567847669124603,-0.1702239066362381,-0.16541996598243713,-0.15974414348602295,0.06504509598016739,0.059965211898088455,0.06678961217403412,0.06721074879169464
0.8,0.12912409007549286,-0.019375162199139595,0.0,0.5987027883529663,0.0,0.0,-0.800971269607544,0.1492213010787964,-0.0196040291339159,0.0,0.0,0.0,-2.0220413208007812,0.4029311537742615,0.6927739381790161,0.4200000464916229,0.5862630009651184,2.7269544489172404e-07,-2.933477162514464e-06,-0.8101207613945007,0.00011045210703741759,-0.0002686460502445698,-9.042373858392239e-05,0.006289253011345863,-0.0014061699621379375,-0.0006673488533124328,0.44004735350608826,0.7053683996200562,0.5530994534492493,-0.14316588640213013,-0.10818997025489807,-0.5449023246765137,0.4007294774055481,0.6944305300712585,0.42000001668930054,-0.5059186816215515,-3.000001907348633,-1.3503303527832031,3.000000476837158,-0.17234234511852264,-0.1673624962568283,-0.16273008286952972,-0.1572374403476715,0.10768387466669083,0.10501410067081451,0.12105721235275269,0.13575658202171326
0.8166666666666667,0.1333802342414856,-0.01923314295709133,0.0,0.602590799331665,0.0,0.0,-0.7980503439903259,0.2892323434352875,-0.02295033633708954,0.0,0.0,0.0,1.6226001977920532,0.40293118357658386,0.6927739381790161,0.4200000464916229,0.5862630009651184,3.1377979325952765e-07,-3.17725061904639e-06,-0.8101208209991455,0.00010766355990199372,-0.00027191059780307114,-8.961535058915615e-05,0.006387441884726286,-0.001450571115128696,-0.000664940569549799,0.4403788447380066,0.7037314772605896,0.5496792793273926,0.18719154596328735,-0.07413623481988907,0.12808458507061005,0.4007294774055481,0.6944305300712585,0.42000001668930054,-0.5559287667274475,-3.000000238418579,-1.369368553161621,-3.0000011920928955,-0.17188414931297302,-0.16671980917453766,-0.16153979301452637,-0.1554788053035736,0.041609201580286026,0.04541339352726936,0.07506260275840759,0.11026488244533539
0.8333333333333334,0.1393502801656723,-0.02190946601331234,0.0,0.5956381559371948,0.0,0.0,-0.8032528758049011,0.39373284578323364,-0.22348634898662567,0.0,0.0,0.0,-1.9540916681289673,0.40293118357658386,0.6927738785743713,0.4200000464916229,0.5862627625465393,2.9898686193519097e-07,-3.0449557471001754e-06,-0.8101209402084351,0.00011378409544704482,-0.0002679970639292151,-9.112339466810226e-05,0.0062558031640946865,-0.001361639006063342,-0.0006737504154443741,0.44815874099731445,0.6997624635696411,0.5471692681312561,0.7263184785842896,-0.3795989155769348,-0.219146266579628,0.4007294774055481,0.6944305300712585,0.42000001668930054,-0.6059337258338928,-2.999995231628418,-1.419386863708496,-2.999999761581421,-0.17223232984542847,-0.16660800576210022,-0.1604929119348526,-0.1533614844083786,-0.01995593123137951,0.023523107171058655,0.09643282741308212,0.17882439494132996
0.85,0.14799097180366516,-0.0223388634622097,0.0,0.5671563148498535,0.0,0.0,-0.8236101865768433,0.563356339931488,0.032089754939079285,0.0,0.0,0.0,-5.1017351150512695,0.4029311537742615,0.6927739381790161,0.4200000464916229,0.5862630009651184,2.6964400490214757e-07,-3.036122961930232e-06,-0.810120701789856,0.00011096363596152514,-0.00026860201614908874,-9.055715054273605e-05,0.006285215727984905,-0.0014004610711708665,-0.000668474764097482,0.4621787667274475,0.692021369934082,0.5459604263305664,0.953277587890625,-0.48078039288520813,0.21276640892028809,0.4007294774055481,0.6944305300712585,0.42000001668930054,-0.6491967439651489,-2.22422456741333,-1.469405174255371,-3.000000476837158,-0.173117533326149,-0.16727769374847412,-0.16046003997325897,-0.15244221687316895,-0.009404543787240982,-0.024585843086242676,-0.012579157017171383,0.010104517452418804
0.8666666666666667,0.1537885069847107,-0.02052411623299122,0.0,0.5536661148071289,0.0,0.0,-0.8327387571334839,0.2621282935142517,0.14361490309238434,0.0,0.0,0.0,-0.9261606931686401,0.4029311537742615,0.6927739381790161,0.4200000464916229,0.5862630009651184,2.9050110583739297e-07,-3.0918549782654736e-06,-0.8101207613945007,0.00010883334471145645,-0.00027214325382374227,-8.985982276499271e-05,0.006386582273989916,-0.0014376967446878552,-0.0006679455400444567,0.4741669297218323,0.6887402534484863,0.5502469539642334,0.4614661931991577,-0.03009359911084175,0.2542370557785034,0.4007294774055481,0.6944305300712585,0.42000001668930054,-0.6556409597396851,1.162858486175537,-1.519423484802246,-3.000000238418579,-0.1706395149230957,-0.16566821932792664,-0.15934015810489655,-0.1516697108745575,0.23405395448207855,0.1603129357099533,0.10324329137802124,0.05093314126133919
