vladlanda/robotic-transformer/data/env_000_episode_0217.csv
sim_time_s,robot_box_x,robot_box_y,robot_box_z,robot_box_quat_w,robot_box_quat_x,robot_box_quat_y,robot_box_quat_z,robot_box_linvel_x,robot_box_linvel_y,robot_box_linvel_z,robot_box_angvel_x,robot_box_angvel_y,robot_box_angvel_z,cube_world_x,cube_world_y,cube_world_z,cube_quat_w,cube_quat_x,cube_quat_y,cube_quat_z,cube_linvel_x,cube_linvel_y,cube_linvel_z,cube_angvel_x,cube_angvel_y,cube_angvel_z,endpoint_world_x,endpoint_world_y,endpoint_world_z,endpoint_linvel_x,endpoint_linvel_y,endpoint_linvel_z,target_cube_world_x,target_cube_world_y,target_cube_world_z,gripper_actual_pos_rad_gp_leftgearjoint,gripper_actual_vel_rad_s_gp_leftgearjoint,gripper_actual_pos_rad_gp_rotatingjoint,gripper_actual_vel_rad_s_gp_rotatingjoint,motor_angle_rad_joint1,motor_angle_rad_joint2,motor_angle_rad_joint3,motor_angle_rad_joint4,motor_speed_rad_s_joint1,motor_speed_rad_s_joint2,motor_speed_rad_s_joint3,motor_speed_rad_s_joint4
0.0,0.0,0.0,0.0,1.0,0.0,0.0,0.0,0.0,0.0,0.0,0.0,0.0,0.0,-0.4578148424625397,0.7382321357727051,0.41999998688697815,1.0,0.0,0.0,0.0,0.0,0.0,0.0,0.0,0.0,0.0,3.42540442943573e-06,-0.005000244826078415,1.313499927520752,0.0,0.0,0.0,0.3655708134174347,0.7789648771286011,0.42000001668930054,-1.5707999467849731,0.0,0.0,0.0,0.0,0.0,0.0,0.0,0.0,0.0,0.0,0.0
0.016666666666666666,0.0028778850100934505,0.0021806680597364902,0.0,0.9998081922531128,0.0,0.0,0.019586581736803055,0.24087215960025787,0.18240931630134583,0.0,0.0,0.0,3.1418697834014893,-0.4578149616718292,0.7382318377494812,0.41999998688697815,1.0,3.2799914606584935e-06,-8.339814598912199e-07,8.465387679734704e-08,-1.9833554688375443e-05,0.00017983050202019513,-6.133061833679676e-05,0.0009432226070202887,-0.004689437802881002,-0.0003198152990080416,-0.007110234349966049,0.003379564033821225,1.3159373998641968,-0.8143353462219238,0.9868683815002441,0.18095196783542633,0.3655708134174347,0.7789648771286011,0.42000001668930054,-1.5301095247268677,3.0000011920928955,-0.04584788903594017,-2.9999992847442627,0.0008691533003002405,0.0007963840034790337,0.0007110277656465769,0.0006108740926720202,0.11094217747449875,0.09756709635257721,0.08334315568208694,0.06823883205652237
0.03333333333333333,0.008960984647274017,0.006801984738558531,0.0,0.9997960329055786,0.0,0.0,0.020196834579110146,0.407021701335907,0.31530797481536865,0.0,0.0,0.0,-0.869132936000824,-0.4578150808811188,0.7382317781448364,0.4200000464916229,1.0,3.390885240150965e-06,-2.1324319732229924e-06,-3.711133800265998e-08,0.00026357753085903823,0.00026937859365716577,-0.00010509602725505829,-0.0017706351354718208,0.004130707122385502,-0.00013548039714805782,-0.02755313739180565,0.02620035409927368,1.3165959119796753,-1.5914053916931152,1.6159929037094116,-0.08506576716899872,0.3655708134174347,0.7789648771286011,0.42000001668930054,-1.4800903797149658,3.0,-0.09588771313428879,-3.0000007152557373,0.0029901075176894665,0.002652717288583517,0.002277288120239973,0.0018607439706102014,0.16421577334403992,0.13975940644741058,0.11381852626800537,0.08630071580410004
0.05,0.01775464229285717,0.013772421516478062,0.0,0.9993759989738464,0.0,0.0,0.03532101586461067,0.5939143896102905,0.46514102816581726,0.0,0.0,0.0,2.6480672359466553,-0.45781511068344116,0.7382318377494812,0.4200000464916229,1.0,3.7652134778909385e-06,-2.2118977085483493e-06,5.605784725304375e-09,0.0002653079864103347,0.00026691483799368143,-0.00010440615005791187,-0.0017242918256670237,0.0041773696430027485,-0.00012949654774274677,-0.05969541147351265,0.05448398366570473,1.3114821910858154,-2.1878504753112793,1.8076212406158447,-0.49192309379577637,0.3655708134174347,0.7789648771286011,0.42000001668930054,-1.4300720691680908,2.9999983310699463,-0.1459263563156128,-2.9999990463256836,0.005708754062652588,0.004916574340313673,0.004052279982715845,0.0031114292796701193,0.19258105754852295,0.15567806363105774,0.11690177023410797,0.07615901529788971
0.06666666666666667,0.029071718454360962,0.02306700497865677,0.0,0.9994482398033142,0.0,0.0,0.03321387246251106,0.7204808592796326,0.5952704548835754,0.0,0.0,0.0,-1.2111166715621948,-0.45781511068344116,0.7382317781448364,0.4200000464916229,0.9999999403953552,3.4068298191414215e-06,-2.28560702453251e-06,4.300801776935259e-07,0.00026702682953327894,0.0002679186000023037,-0.00010437914170324802,-0.0017406968399882317,0.004211870953440666,-0.00012850748316850513,-0.09733520448207855,0.0897279679775238,1.2987556457519531,-2.3505518436431885,2.3064193725585938,-1.0068440437316895,0.3655708134174347,0.7789648771286011,0.42000001668930054,-1.3800537586212158,3.000000238418579,-0.19596365094184875,-3.0000007152557373,0.00819287821650505,0.006680126301944256,0.005056388676166534,0.0033160350285470486,0.1401357203722,0.08591889590024948,0.029659410938620567,-0.028718726709485054
0.08333333333333333,0.03597353398799896,0.03545146808028221,0.0,0.9999996423721313,0.0,0.0,0.0008169247303158045,0.20510689914226532,0.8237287402153015,0.0,0.0,0.0,-4.927895545959473,-0.45781511068344116,0.7382317781448364,0.4200000464916229,1.0,3.6973638088966254e-06,-2.188969347116654e-06,-2.6325207613808743e-07,0.0002638972655404359,0.0002658646844793111,-0.00010433816350996494,-0.0017081599216908216,0.004150238819420338,-0.0001299150026170537,-0.13423603773117065,0.13228769600391388,1.2780252695083618,-2.1331212520599365,2.6861515045166016,-1.4305871725082397,0.3655708134174347,0.7789648771286011,0.42000001668930054,-1.3300361633300781,3.000002384185791,-0.24596604704856873,-3.0000011920928955,0.005812305957078934,0.00360216130502522,0.0012327485019341111,-0.0013051372952759266,-0.2968975603580475,-0.33850783109664917,-0.3828411400318146,-0.4301903247833252
0.1,0.04498377814888954,0.04976335167884827,0.0,0.9999059438705444,0.0,0.0,-0.013716102577745914,0.6903567910194397,0.8526239991188049,0.0,0.0,0.0,-0.7015818953514099,-0.45781511068344116,0.7382317781448364,0.4200000464916229,0.9999999403953552,3.6204753541824175e-06,-2.2652429834124632e-06,1.7459507262174156e-07,0.0002667691733222455,0.0002674090501386672,-0.0001040794886648655,-0.0017386652762070298,0.004209219943732023,-0.000127756706206128,-0.17298319935798645,0.17364484071731567,1.254199743270874,-2.3199210166931152,2.5467019081115723,-1.447620153427124,0.3655708134174347,0.7789648771286011,0.42000001668930054,-1.2800216674804688,3.0000007152557373,-0.29598531126976013,-3.000000476837158,0.004588257987052202,0.0010574822081252933,-0.002641261788085103,-0.00651831179857254,0.04024598374962807,-0.06139816716313362,-0.16208860278129578,-0.26178503036499023
0.11666666666666667,0.05275013670325279,0.06583826243877411,0.0,0.9991641640663147,0.0,0.0,-0.04087711498141289,0.4710819125175476,1.0270332098007202,0.0,0.0,0.0,-3.9372451305389404,-0.45781511068344116,0.7382317781448364,0.4200000464916229,1.0,3.7984361824783264e-06,-2.2628191800322384e-06,-1.502184687751651e-07,0.0002637402212712914,0.0002656611322890967,-0.00010429113171994686,-0.00170544080901891,0.004147577099502087,-0.00012980044994037598,-0.20689259469509125,0.221578910946846,1.2314213514328003,-1.7653520107269287,3.2138102054595947,-1.2689050436019897,0.3655708134174347,0.7789648771286011,0.42000001668930054,-1.2299950122833252,2.9999914169311523,-0.2616986036300659,3.000000476837158,0.003009274834766984,-0.002454034285619855,-0.008056904189288616,-0.013808284886181355,-0.0501360259950161,-0.19209358096122742,-0.3308432400226593,-0.46613696217536926
0.13333333333333333,0.05800850689411163,0.0833321288228035,0.0,0.9956538081169128,0.0,0.0,-0.09313168376684189,0.25096940994262695,1.081497311592102,0.0,0.0,0.0,-7.108514308929443,-0.45781511068344116,0.7382318377494812,0.4200000464916229,0.9999999403953552,3.5505424875736935e-06,-2.229828169220127e-06,2.9289728331605147e-07,0.0002670327667146921,0.00026779386098496616,-0.00010417122393846512,-0.0017440201481804252,0.004213609732687473,-0.0001280046271858737,-0.23641252517700195,0.276527464389801,1.2107255458831787,-1.751039981842041,3.4047412872314453,-1.2822908163070679,0.3655708134174347,0.7789648771286011,0.42000001668930054,-1.1948838233947754,1.3276575803756714,-0.2927364110946655,-3.0000016689300537,0.0010240704286843538,-0.006763196084648371,-0.014621106907725334,-0.022553961724042892,-0.19575069844722748,-0.3229280412197113,-0.4458145499229431,-0.5641556978225708
0.15,0.060157403349876404,0.09850308299064636,0.0,0.9921385645866394,0.0,0.0,-0.1251440942287445,0.07907328009605408,0.8295866250991821,0.0,0.0,0.0,-2.801518678665161,-0.45781511068344116,0.7382317781448364,0.4200000464916229,0.9999999403953552,3.3381334105797578e-06,-2.2429260297940345e-06,-2.8039233157528543e-08,0.00026674431865103543,0.0002675812866073102,-0.00010427669622004032,-0.0017367323162034154,0.004206859972327948,-0.00012831835192628205,-0.27336055040359497,0.3309011459350586,1.1834309101104736,-2.296807289123535,3.4632389545440674,-1.9536194801330566,0.3655708134174347,0.7789648771286011,0.42000001668930054,-1.1529290676116943,2.999992847442627,-0.2584320306777954,2.999999523162842,-0.003004767931997776,-0.012545487843453884,-0.02207554318010807,-0.031596969813108444,-0.2984106242656708,-0.38013073801994324,-0.45717722177505493,-0.5295447111129761
0.16666666666666666,0.05887075141072273,0.11403089016675949,0.0,0.9856324195861816,0.0,0.0,-0.16890458762645721,-0.14561228454113007,0.9714012145996094,0.0,0.0,0.0,-6.162322044372559,-0.45781511068344116,0.7382318377494812,0.4200000464916229,0.9999999403953552,3.6479050322668627e-06,-2.3073048396327067e-06,3.5250213414883547e-08,0.00026726938085630536,0.00026801350759342313,-0.0001041879877448082,-0.0017471633618697524,0.004217633046209812,-0.00012798757234122604,-0.3092636466026306,0.3917033076286316,1.1492376327514648,-1.919734001159668,3.9122214317321777,-2.174783229827881,0.3655708134174347,0.7789648771286011,0.42000001668930054,-1.1065372228622437,2.5640487670898438,-0.2894819378852844,-2.999999523162842,-0.009956431575119495,-0.020788295194506645,-0.0315251462161541,-0.04216877743601799,-0.5074236392974854,-0.5746352076530457,-0.6370704174041748,-0.6947219967842102
0.18333333333333332,0.06228972598910332,0.1313508301973343,0.0,0.9807931184768677,0.0,0.0,-0.19505077600479126,0.32229772210121155,1.0955194234848022,0.0,0.0,0.0,-2.1906051635742188,-0.45781511068344116,0.7382317781448364,0.4200000464916229,0.9999999403953552,3.2906407341215527e-06,-2.19392541112029e-06,-2.7926049028792477e-07,0.00026678023277781904,0.0002677612646948546,-0.0001043418888002634,-0.0017391652800142765,0.004207087680697441,-0.00012845821038354188,-0.3456076383590698,0.45432621240615845,1.1052167415618896,-2.0970592498779297,3.899282932281494,-3.0657968521118164,0.3655708134174347,0.7789648771286011,0.42000001668930054,-1.0726548433303833,1.5611538887023926,-0.3395093083381653,-3.000000476837158,-0.016095761209726334,-0.02778921276330948,-0.039306532591581345,-0.05065339058637619,-0.37337395548820496,-0.40089666843414307,-0.42435896396636963,-0.44413304328918457
0.2,0.062193263322114944,0.14595483243465424,0.0,0.9720061421394348,0.0,0.0,-0.23495551943778992,-0.0588250569999218,0.843066930770874,0.0,0.0,0.0,-5.609537124633789,-0.45781511068344116,0.7382317781448364,0.4200000464916229,1.0,3.2809034564706963e-06,-2.219204134235042e-06,1.5944489462071942e-07,0.0002662780461832881,0.0002674012794159353,-0.00010425224900245667,-0.0017357412725687027,0.004197692032903433,-0.00012865240569226444,-0.37952542304992676,0.5208151936531067,1.0467983484268188,-1.801520824432373,4.179637908935547,-3.887373447418213,0.3655708134174347,0.7789648771286011,0.42000001668930054,-1.0266356468200684,3.0000007152557373,-0.38953477144241333,-3.0000007152557373,-0.028365131467580795,-0.03969317302107811,-0.05066288262605667,-0.06146404147148132,-0.834060788154602,-0.8152978420257568,-0.7618939280509949,-0.7092598676681519
0.21666666666666667,0.06333577632904053,0.16125966608524323,0.0,0.9669044613838196,0.0,0.0,-0.25513866543769836,0.12043415755033493,0.9489896297454834,0.0,0.0,0.0,-1.47545325756073,-0.45781511068344116,0.7382318377494812,0.4200000464916229,1.0,3.613293756643543e-06,-2.270116283398238e-06,2.2098708996054484e-07,0.00026712549151852727,0.0002678165037650615,-0.0001041400246322155,-0.001744507229886949,0.004215178079903126,-0.00012786623847205192,-0.41188812255859375,0.5830187797546387,0.9737827777862549,-1.7489792108535767,3.5999083518981934,-4.784577369689941,0.3655708134174347,0.7789648771286011,0.42000001668930054,-0.9766334295272827,3.000002861022949,-0.4395611882209778,-3.0,-0.04451563209295273,-0.05538852512836456,-0.06505332142114639,-0.07421837002038956,-0.979762852191925,-0.9695844054222107,-0.8956328630447388,-0.7797205448150635
0.23333333333333334,0.06292232871055603,0.17390917241573334,0.0,0.9576762914657593,0.0,0.0,-0.28784745931625366,-0.08241313695907593,0.6822529435157776,0.0,0.0,0.0,-4.949425220489502,-0.45781511068344116,0.7382317781448364,0.4200000464916229,1.0,3.3819878808571957e-06,-2.290978500241181e-06,2.7277940262138145e-07,0.00026691509992815554,0.00026779965264722705,-0.00010433257557451725,-0.0017395686591044068,0.004209764301776886,-0.0001284358586417511,-0.43817436695098877,0.6410720944404602,0.8870546817779541,-1.2985501289367676,3.320302963256836,-5.508008003234863,0.3655708134174347,0.7789648771286011,0.42000001668930054,-0.9266228675842285,3.00000262260437,-0.4895896017551422,-2.9999990463256836,-0.06088603660464287,-0.07169567793607712,-0.08128097653388977,-0.08965268731117249,-0.9875434637069702,-0.9879319071769714,-0.9781032800674438,-0.9669134616851807
0.25,0.06435029953718185,0.1834455132484436,0.0,0.9533398747444153,0.0,0.0,-0.3018991947174072,0.17552676796913147,0.48312827944755554,0.0,0.0,0.0,-0.7103695273399353,-0.4578150808811188,0.7382317781448364,0.4200000464916229,0.9999999403953552,3.7066545246489113e-06,-2.2230651666177437e-06,-2.2551537881554395e-07,0.0002642491308506578,0.0002665681822691113,-0.00010458100587129593,-0.0017169631319120526,0.004155635833740234,-0.00013063169899396598,-0.46013519167900085,0.6854078769683838,0.7904173135757446,-1.077696442604065,2.240934133529663,-6.050090789794922,0.3655708134174347,0.7789648771286011,0.42000001668930054,-0.8766121864318848,2.9999983310699463,-0.5396193861961365,-2.9999990463256836,-0.0772634968161583,-0.08797389268875122,-0.09748817980289459,-0.10579247772693634,-0.9722931385040283,-0.9572250843048096,-0.9453127384185791,-0.9360228776931763
0.26666666666666666,0.0623796321451664,0.19048529863357544,0.0,0.9444038271903992,0.0,0.0,-0.32878783345222473,-0.11161411553621292,0.277213454246521,0.0,0.0,0.0,-4.189382076263428,-0.45781511068344116,0.7382317781448364,0.4200000464916229,0.9999999403953552,3.7197896745055914e-06,-2.4035318801907124e-06,-1.8309344795852667e-07,0.000266231712885201,0.0002672916743904352,-0.00010425737127661705,-0.0017326921224594116,0.004196560475975275,-0.00012851195060648024,-0.472308874130249,0.713739275932312,0.6853624582290649,-0.349176824092865,1.2809315919876099,-6.349454879760742,0.3655708134174347,0.7789648771286011,0.42000001668930054,-0.8266018033027649,2.999997854232788,-0.5896491408348083,-2.9999990463256836,-0.09462146461009979,-0.10512077808380127,-0.11447431147098541,-0.12265418469905853,-0.8033281564712524,-0.8390834331512451,-0.8719829320907593,-0.9015272259712219
0.2833333333333333,0.058306075632572174,0.1930655986070633,0.0,0.9417118430137634,0.0,0.0,-0.33642056584358215,-0.27783283591270447,0.10236308723688126,0.0,0.0,0.0,-0.0030266183894127607,-0.45781511068344116,0.7382318377494812,0.4200000464916229,0.9999999403953552,3.584217893148889e-06,-2.3155771486926824e-06,7.402578461324083e-08,0.0002652194525580853,0.0002645511704031378,-0.00010317121632397175,-0.0017020420636981726,0.004185081925243139,-0.00012500298907980323,-0.4781244993209839,0.728158712387085,0.5837873220443726,-0.11823716014623642,0.45300590991973877,-5.85310173034668,0.3655708134174347,0.7789648771286011,0.42000001668930054,-0.7765929698944092,3.0000030994415283,-0.6396788954734802,-2.9999992847442627,-0.11150193959474564,-0.12195737659931183,-0.13123559951782227,-0.1392851322889328,-1.0106760263442993,-1.0080446004867554,-1.006042242050171,-1.0044481754302979
0.3,0.05159721150994301,0.19291247427463531,0.0,0.9345566034317017,0.0,0.0,-0.35581448674201965,-0.45188838243484497,-0.05374813452363014,0.0,0.0,0.0,-3.3428075313568115,-0.45781511068344116,0.7382317781448364,0.4200000464916229,1.0,3.724424232132151e-06,-2.271987113999785e-06,9.634525355295409e-08,0.00026312601403333247,0.000265259004663676,-0.00010437984019517899,-0.0016961186192929745,0.004134838003665209,-0.00013027706881985068,-0.4752836227416992,0.7337403297424316,0.4874993562698364,0.5103503465652466,0.13893961906433105,-5.614938735961914,0.3655708134174347,0.7789648771286011,0.42000001668930054,-0.726584255695343,3.0,-0.6897066235542297,-3.0000007152557373,-0.1288854330778122,-0.13917121291160583,-0.1483214646577835,-0.15626990795135498,-1.0079429149627686,-1.006013035774231,-1.0045390129089355,-1.0033599138259888
0.31666666666666665,0.04258964583277702,0.19028902053833008,0.0,0.9336918592453003,0.0,0.0,-0.3580775856971741,-0.5757775902748108,-0.1995707005262375,0.0,0.0,0.0,0.6432325839996338,-0.45781511068344116,0.7382317781448364,0.4200000464916229,1.0,3.66637641491252e-06,-2.3925904315547086e-06,1.6798412616481073e-07,0.00026602184516377747,0.0002670702524483204,-0.00010418822057545185,-0.0017311248229816556,0.004193528555333614,-0.00012849378981627524,-0.4646758735179901,0.7340987324714661,0.39687997102737427,0.8721438646316528,-0.1848767250776291,-5.307365417480469,0.3655708134174347,0.7789648771286011,0.42000001668930054,-0.6765773892402649,2.9999964237213135,-0.7397325038909912,-3.0000038146972656,-0.14598789811134338,-0.1561547964811325,-0.16521847248077393,-0.1731012910604477,-1.0019159317016602,-1.0014575719833374,-1.001109004020691,-1.0008245706558228
0.3333333333333333,0.03135434910655022,0.1851903349161148,0.0,0.9418097734451294,0.0,0.0,-0.3361463248729706,-0.7232998013496399,-0.3504556715488434,0.0,0.0,0.0,3.9735944271087646,-0.4578235149383545,0.7378974556922913,0.4199995994567871,0.9999866485595703,1.983909896807745e-05,-4.816594810108654e-05,-0.005147291347384453,0.005615860689431429,0.0009205029346048832,-0.0012256891932338476,-0.03429843485355377,0.06069653853774071,0.013093034736812115,-0.4699612557888031,0.7385857105255127,0.42533642053604126,-0.40301889181137085,0.37942689657211304,-0.10051661729812622,0.3655708134174347,0.7789648771286011,0.42000001668930054,-0.6267656087875366,2.999814987182617,-0.7900712490081787,-2.946704387664795,-0.13921897113323212,-0.15243341028690338,-0.1640748828649521,-0.17391054332256317,0.2363981157541275,0.06952978670597076,-0.07483722269535065,-0.18809349834918976
0.35,0.02414073795080185,0.17714129388332367,0.0,0.9444268941879272,0.0,0.0,-0.3287215828895569,-0.402237206697464,-0.5177140831947327,0.0,0.0,0.0,-0.02986660972237587,-0.45805442333221436,0.7373862862586975,0.41999706625938416,0.9999372363090515,3.756027581403032e-05,8.835177709443087e-07,-0.011202231049537659,-0.07644979655742645,-0.17493970692157745,-0.0002367878332734108,-0.04639482870697975,0.034040894359350204,-4.340965747833252,-0.4741501212120056,0.739963948726654,0.42315351963043213,-0.07178988307714462,-0.14890775084495544,-0.13944900035858154,0.3655708134174347,0.7789648771286011,0.42000001668930054,-0.5767601728439331,3.0000035762786865,-0.8400968313217163,-3.000000476837158,-0.13783587515354156,-0.15232732892036438,-0.1649036854505539,-0.1752324104309082,-0.19256466627120972,-0.1658633053302765,-0.12304996699094772,-0.06108909100294113
0.36666666666666664,0.013329055160284042,0.16762463748455048,0.0,0.9366694688796997,0.0,0.0,-0.35021471977233887,-0.7427588701248169,-0.5987637042999268,0.0,0.0,0.0,-3.6774985790252686,-0.4572179317474365,0.7372270226478577,0.42031505703926086,0.9991250038146973,0.007842805236577988,-0.0001656426175031811,-0.041079871356487274,0.3212445080280304,0.29737934470176697,0.04209364205598831,2.4033474922180176,-0.3217949867248535,-7.979745864868164,-0.47154662013053894,0.7419044971466064,0.42129915952682495,0.32030415534973145,0.34807658195495605,-0.06349286437034607,0.3655708134174347,0.7789648771286011,0.42000001668930054,-0.5267552733421326,3.0000014305114746,-0.8901260495185852,-2.9992921352386475,-0.1456727534532547,-0.15840764343738556,-0.16897518932819366,-0.1770271509885788,-0.5620020627975464,-0.4162836968898773,-0.2559696435928345,-0.08127116411924362
0.3833333333333333,0.005762879271060228,0.15511377155780792,0.0,0.9176332950592041,0.0,0.0,-0.3974281847476959,-0.4270966947078705,-0.7979908585548401,0.0,0.0,0.0,-6.842099666595459,-0.44916558265686035,0.7453952431678772,0.4200015068054199,0.9895115494728088,-1.2456722288334277e-05,-0.00012826781312469393,-0.1444537341594696,0.6144142746925354,0.6690148711204529,-0.0006289559532888234,-0.0019084346713498235,0.016939472407102585,-19.114826202392578,-0.4620395302772522,0.7518723607063293,0.4221254587173462,0.8874632716178894,0.8864626288414001,0.10758201777935028,0.3655708134174347,0.7789648771286011,0.42000001668930054,-0.47672244906425476,2.9997196197509766,-0.9401376247406006,-2.999964952468872,-0.1538781076669693,-0.1638852059841156,-0.1714494526386261,-0.176240935921669,-0.568669855594635,-0.36505866050720215,-0.14660300314426422,0.08415749669075012
0.4,-0.00025194132467731833,0.13990283012390137,0.0,0.8849409222602844,0.0,0.0,-0.4657033383846283,-0.2903045415878296,-0.9622019529342651,0.0,0.0,0.0,-9.794520378112793,-0.42147040367126465,0.7751235961914062,0.4210706651210785,0.9830671548843384,0.025702865794301033,-0.004444306716322899,-0.1813793182373047,2.6141164302825928,2.51541805267334,0.28679805994033813,12.234731674194336,-5.279079437255859,-2.0540966987609863,-0.4301784038543701,0.7783329486846924,0.42447298765182495,2.8211488723754883,2.3727993965148926,0.2489905208349228,0.3655708134174347,0.7789648771286011,0.42000001668930054,-0.4267474114894867,3.000009059906006,-0.9105219841003418,3.000274419784546,-0.16601663827896118,-0.1716466099023819,-0.17470291256904602,-0.1749388426542282,-0.7492552399635315,-0.470418244600296,-0.18907912075519562,0.0887204110622406
0.4166666666666667,-0.010428848676383495,0.13068601489067078,0.0,0.8337254524230957,0.0,0.0,-0.552179217338562,-0.7078489661216736,-0.41443032026290894,0.0,0.0,0.0,-12.972037315368652,-0.3476182520389557,0.8215427994728088,0.42754754424095154,0.9622082114219666,0.09376781433820724,-0.03249155357480049,-0.2535886764526367,5.948111057281494,2.89611554145813,0.7050551176071167,-16.740938186645508,-2.736630916595459,4.473336696624756,-0.35725247859954834,0.8258616924285889,0.4310601055622101,5.587253570556641,3.400496244430542,0.5017361640930176,0.3655708134174347,0.7789648771286011,0.42000001668930054,-0.3871208429336548,1.91269850730896,-0.8605002164840698,2.999999761581421,-0.18211470544338226,-0.18654100596904755,-0.18497887253761292,-0.1791272908449173,-0.8964759707450867,-0.8952688574790955,-0.7522618770599365,-0.39894354343414307
0.43333333333333335,-0.015638189390301704,0.11759046465158463,0.0,0.7892003655433655,0.0,0.0,-0.6141358017921448,-0.24708381295204163,-0.8185897469520569,0.0,0.0,0.0,-7.679467678070068,-0.2505343556404114,0.8724239468574524,0.43723803758621216,0.9279531836509705,0.12514789402484894,-0.06264593452215195,-0.34542179107666016,6.355413436889648,2.7191827297210693,0.6435201168060303,-1.45095956325531,-3.212495803833008,-8.396503448486328,-0.2603759169578552,0.8810783624649048,0.44042566418647766,6.151427745819092,2.9247918128967285,0.6246527433395386,0.3655708134174347,0.7789648771286011,0.42000001668930054,-0.3685477674007416,0.956230878829956,-0.8871031403541565,-2.9992988109588623,-0.19308939576148987,-0.1968875378370285,-0.1930042803287506,-0.18217889964580536,-0.787635087966919,-0.6782573461532593,-0.5004844069480896,-0.2060159295797348
0.45,-0.017671003937721252,0.10759936273097992,0.0,0.7661392688751221,0.0,0.0,-0.6426745653152466,-0.06753166019916534,-0.5545703172683716,0.0,0.0,0.0,-3.265868902206421,-0.14781232178211212,0.9074555039405823,0.4474124014377594,0.8888922929763794,0.12724727392196655,-0.0699215680360794,-0.4344991147518158,6.616150379180908,0.9390686750411987,0.7983237504959106,-4.227395534515381,-9.608036994934082,12.68167781829834,-0.15531212091445923,0.9189595580101013,0.4507043957710266,6.434787273406982,1.6164064407348633,0.6548935174942017,0.3655708134174347,0.7789648771286011,0.42000001668930054,-0.35374021530151367,0.5995171666145325,-0.9371271729469299,-2.9998972415924072,-0.20751793682575226,-0.2108619660139084,-0.2028353363275528,-0.18639248609542847,-0.8493388295173645,-0.7637357711791992,-0.5078285932540894,-0.19448377192020416
0.4666666666666667,-0.021061209961771965,0.10164399445056915,0.0,0.7364717721939087,0.0,0.0,-0.6764682531356812,-0.24532084167003632,-0.29023727774620056,0.0,0.0,0.0,-6.302159309387207,-0.04342978075146675,0.9205777049064636,0.4546434283256531,0.833770751953125,0.12669654190540314,-0.0734647661447525,-0.5323317050933838,6.269217491149902,-0.5767483115196228,0.46719488501548767,11.96993637084961,-6.627871036529541,27.88074493408203,-0.04926750063896179,0.9341269731521606,0.4582156240940094,6.411564826965332,0.22629600763320923,0.36303606629371643,0.3655708134174347,0.7789648771286011,0.42000001668930054,-0.3434096872806549,0.5924468040466309,-0.9871512055397034,-3.0000007152557373,-0.22240310907363892,-0.22380571067333221,-0.21106670796871185,-0.1893884390592575,-0.8775878548622131,-0.7026577591896057,-0.40946242213249207,-0.1086466908454895
0.48333333333333334,-0.022020794451236725,0.0915876030921936,0.0,0.7179400324821472,0.0,0.0,-0.6961049437522888,-0.04279523715376854,-0.6218032836914062,0.0,0.0,0.0,-2.0668466091156006,0.05541222169995308,0.9160746932029724,0.45713672041893005,0.7801141738891602,0.10881668329238892,-0.06960852444171906,-0.6121563911437988,5.55562162399292,-1.5052590370178223,0.23816777765750885,13.245065689086914,-7.4122233390808105,25.028284072875977,0.05175192654132843,0.9307984113693237,0.46098437905311584,5.815901756286621,-0.7963210344314575,0.02656286582350731,0.3655708134174347,0.7789648771286011,0.42000001668930054,-0.33183130621910095,0.6938668489456177,-1.0371745824813843,-3.0000011920928955,-0.23299625515937805,-0.23112937808036804,-0.21408604085445404,-0.1884411871433258,-0.6815042495727539,-0.4277254045009613,-0.16333365440368652,0.052529819309711456
0.5,-0.020632104948163033,0.08594974875450134,0.0,0.6907636523246765,0.0,0.0,-0.723080575466156,0.12843966484069824,-0.28702741861343384,0.0,0.0,0.0,-5.489577770233154,0.1409263163805008,0.8960704207420349,0.452453076839447,0.7561765313148499,0.07541659474372864,-0.07440923154354095,-0.6457341909408569,4.764524459838867,-2.0674164295196533,-0.3135984241962433,12.649200439453125,-15.879912376403809,27.818878173828125,0.13995768129825592,0.9115934371948242,0.4578031003475189,4.902064323425293,-1.4763431549072266,-0.38977301120758057,0.3655708134174347,0.7789648771286011,0.42000001668930054,-0.3203725516796112,0.6440691351890564,-1.087196707725525,-3.0000016689300537,-0.23998847603797913,-0.2396506667137146,-0.21843646466732025,-0.18970900774002075,-0.02192019484937191,-0.40845972299575806,-0.21104343235492706,-0.08745968341827393
0.5166666666666666,-0.016450783237814903,0.08324039727449417,0.0,0.6785434484481812,0.0,0.0,-0.7345602512359619,0.31524232029914856,-0.09509925544261932,0.0,0.0,0.0,-0.9117324948310852,0.214054137468338,0.8688287734985352,0.4423094093799591,0.7132485508918762,0.03796107694506645,-0.05792160704731941,-0.6974814534187317,3.691211223602295,-2.5314526557922363,-0.4760764539241791,10.963808059692383,-3.5896048545837402,31.733020782470703,0.21483202278614044,0.8840564489364624,0.4478139281272888,4.11891508102417,-1.8538880348205566,-0.7770329713821411,0.3655708134174347,0.7789648771286011,0.42000001668930054,-0.309898316860199,0.5288193225860596,-1.1372188329696655,-2.999950885772705,-0.23992222547531128,-0.23987062275409698,-0.22171124815940857,-0.1918560117483139,-0.007189302705228329,0.030398359522223473,-0.1115507259964943,-0.09794194251298904
0.5333333333333333,-0.01356984581798315,0.08149690926074982,0.0,0.6574438810348511,0.0,0.0,-0.7535035610198975,0.1277291476726532,-0.04750395193696022,0.0,0.0,0.0,-4.336706638336182,0.2750159502029419,0.8397145867347717,0.42632704973220825,0.680844247341156,-0.0036290991120040417,-0.04408863186836243,-0.7310909628868103,2.95888090133667,-2.750062942504883,-0.7153865694999695,0.7132439613342285,-0.3398186266422272,37.34089279174805,0.2766804099082947,0.853836178779602,0.4322061538696289,3.4229726791381836,-1.8509796857833862,-1.0588264465332031,0.3655708134174347,0.7789648771286011,0.42000001668930054,-0.3043980002403259,0.054202739149332047,-1.1872409582138062,-2.999865770339966,-0.23693105578422546,-0.2367759346961975,-0.22162194550037384,-0.19297580420970917,0.19177739322185516,0.20841751992702484,0.02951658144593239,-0.08960173279047012
0.55,-0.009731394238770008,0.08311480283737183,0.0,0.6507683396339417,0.0,0.0,-0.7592763304710388,0.26171931624412537,0.16132794320583344,0.0,0.0,0.0,-0.09011531621217728,0.31836944818496704,0.8162797689437866,0.42096346616744995,0.6485540270805359,-0.016377875581383705,0.01688227616250515,-0.7608050107955933,1.4161297082901,-2.0661685466766357,0.3755892813205719,-0.4779875874519348,17.308700561523438,24.818666458129883,0.3193279802799225,0.8274072408676147,0.4257272779941559,1.9768590927124023,-1.305939793586731,0.2171236127614975,0.3655708134174347,0.7789648771286011,0.42000001668930054,-0.3053097128868103,-0.23470869660377502,-1.2372627258300781,-2.9967594146728516,-0.2327374517917633,-0.2324826866388321,-0.22036047279834747,-0.1942974478006363,0.27303120493888855,0.2859283983707428,0.11532242596149445,-0.06056618690490723
0.5666666666666667,-0.008291850797832012,0.08001667261123657,0.0,0.6334366798400879,0.0,0.0,-0.7737945318222046,0.0985993966460228,-0.22058290243148804,0.0,0.0,0.0,-3.493337869644165,0.346653550863266,0.8007468581199646,0.4220139682292938,0.636289119720459,-0.033756036311388016,0.04102436825633049,-0.7696191072463989,1.1094950437545776,-1.1451512575149536,0.16844110190868378,1.6398990154266357,8.917236328125,11.550039291381836,0.3462361991405487,0.8104214072227478,0.4277002811431885,1.3623855113983154,-0.9864511489868164,0.1116984486579895,0.3655708134174347,0.7789648771286011,0.42000001668930054,-0.30507922172546387,0.3306792378425598,-1.2872811555862427,-2.999523162841797,-0.22183915972709656,-0.22238220274448395,-0.21392391622066498,-0.1919628232717514,0.5386303067207336,0.5320616960525513,0.35688260197639465,0.1259494423866272
0.5833333333333334,-0.00489995488896966,0.08197733759880066,0.0,0.6301649212837219,0.0,0.0,-0.7764613032341003,0.20112259685993195,0.11042200028896332,0.0,0.0,0.0,0.4320951998233795,0.3632478415966034,0.7866120338439941,0.42288658022880554,0.6161421537399292,-0.04867956042289734,0.06169876456260681,-0.7837042808532715,0.8204588294029236,-0.6372054815292358,0.1560262143611908,1.6093266010284424,8.619865417480469,-7.695492744445801,0.36255118250846863,0.795316219329834,0.4291059076786041,0.7283384799957275,-0.6791002750396729,0.07937218993902206,0.3655708134174347,0.7789648771286011,0.42000001668930054,-0.2922356128692627,1.0870704650878906,-1.3372918367385864,-2.9986040592193604,-0.21675750613212585,-0.21679969131946564,-0.2105361819267273,-0.1920999139547348,0.4698318839073181,0.4486910402774811,0.2817203104496002,0.026754947379231453
0.6,-7.088537677191198e-05,0.08016011863946915,0.0,0.6165445446968079,0.0,0.0,-0.7873200178146362,0.3330676853656769,-0.13425703346729279,0.0,0.0,0.0,-2.955986738204956,0.37432053685188293,0.7818904519081116,0.421793133020401,0.5590468049049377,-0.02459637261927128,0.038969531655311584,-0.8278544545173645,0.5548059344291687,-0.17424185574054718,-0.14306330680847168,-2.3683907985687256,-8.115220069885254,-14.548925399780273,0.36882340908050537,0.7888012528419495,0.42731592059135437,0.1185457706451416,-0.24553701281547546,-0.14341279864311218,0.3655708134174347,0.7789648771286011,0.42000001668930054,-0.26795831322669983,1.8195074796676636,-1.2990139722824097,2.9998676776885986,-0.20681549608707428,-0.20777921378612518,-0.2046317458152771,-0.19090767204761505,0.5141681432723999,0.47185754776000977,0.3075830638408661,0.036965418606996536
0.6166666666666667,0.006905908230692148,0.07599532604217529,0.0,0.6164775490760803,0.0,0.0,-0.7873724699020386,0.4565608501434326,-0.29893559217453003,0.0,0.0,0.0,0.9046764373779297,0.37477365136146545,0.7794148325920105,0.4216354787349701,0.5944733619689941,-0.025505218654870987,0.034312378615140915,-0.8029778599739075,0.05098392069339752,-0.12575332820415497,-0.006115232594311237,-0.10323438793420792,-0.3155113756656647,4.382851600646973,0.3704356551170349,0.7850574851036072,0.42735832929611206,-0.032360803335905075,-0.16436457633972168,0.07207009196281433,0.3655708134174347,0.7789648771286011,0.42000001668930054,-0.27249690890312195,-2.0004007816314697,-1.3185462951660156,-2.99993634223938,-0.2010234296321869,-0.20201963186264038,-0.20076322555541992,-0.19084276258945465,0.31563833355903625,0.31704333424568176,0.2183002382516861,0.0016749869100749493
0.6333333333333333,0.011618075892329216,0.07442723959684372,0.0,0.6085742115974426,0.0,0.0,-0.7934969663619995,0.2255074828863144,-0.07769831269979477,0.0,0.0,0.0,-2.552597999572754,0.375200480222702,0.7777725458145142,0.4206811487674713,0.616725504398346,-0.010638897307217121,0.013253390789031982,-0.7869946956634521,0.029539747163653374,-0.08848105370998383,-0.07863324135541916,-1.10502290725708,-4.087698936462402,2.71537709236145,0.3701752722263336,0.7842330932617188,0.4291324019432068,0.02625400200486183,0.058781445026397705,0.1469191610813141,0.3655708134174347,0.7789648771286011,0.42000001668930054,-0.3193848431110382,-2.9995946884155273,-1.368499755859375,-2.9982848167419434,-0.19626304507255554,-0.19734038412570953,-0.1975136399269104,-0.19086997210979462,0.42473363876342773,0.3847624659538269,0.28132033348083496,0.0759609192609787
0.65,0.017044631764292717,0.0760645717382431,0.0,0.6110868453979492,0.0,0.0,-0.7915635108947754,0.3393666744232178,0.1508604735136032,0.0,0.0,0.0,1.2732800245285034,0.3752494752407074,0.7772932648658752,0.4200001358985901,0.6222121715545654,1.9315182726131752e-05,1.6476296877954155e-05,-0.7828485369682312,0.0006117457523941994,0.0013376279966905713,-0.0009892936795949936,0.0008355855825357139,0.007274800445884466,-0.003104262752458453,0.3690360188484192,0.7857202291488647,0.4315550923347473,-0.14300721883773804,0.14372187852859497,0.16047164797782898,0.3655708134174347,0.7789648771286011,0.42000001668930054,-0.36937761306762695,-2.999979257583618,-1.4185019731521606,-2.999964714050293,-0.1906718611717224,-0.1924106478691101,-0.1940634399652481,-0.19048519432544708,0.3450140357017517,0.29565227031707764,0.208382710814476,0.03210725635290146
0.6666666666666666,0.02403203397989273,0.07359202951192856,0.0,0.634833037853241,0.0,0.0,-0.772649347782135,0.4293646216392517,-0.18225298821926117,0.0,0.0,0.0,4.693508148193359,0.37449976801872253,0.7775494456291199,0.42033907771110535,0.6192793846130371,0.005201697815209627,-0.006671552080661058,-0.7851250171661377,-0.16446737945079803,0.009630591608583927,0.03231175243854523,-1.0439980030059814,-0.5094799399375916,-1.6346516609191895,0.36727556586265564,0.7882668375968933,0.4351738393306732,-0.17291946709156036,0.10663902759552002,0.2778388261795044,0.3655708134174347,0.7789648771286011,0.42000001668930054,-0.41937506198883057,-3.000009536743164,-1.4684861898422241,-3.0000317096710205,-0.18232467770576477,-0.18482676148414612,-0.18756546080112457,-0.1863042265176773,0.39540204405784607,0.404248982667923,0.4047040343284607,0.33855298161506653
0.6833333333333333,0.03302905708551407,0.06844933331012726,0.0,0.6445725560188293,0.0,0.0,-0.7645431160926819,0.577650249004364,-0.3461941182613373,0.0,0.0,0.0,0.4756470024585724,0.3723292350769043,0.7776440382003784,0.4200012981891632,0.611248254776001,-1.833441638154909e-05,-7.958998139656615e-06,-0.79143887758255,-0.10028404742479324,0.00281963380984962,-0.0001340983435511589,-0.00016188775771297514,-0.005488038994371891,-0.9022269248962402,0.3667312562465668,0.7903028726577759,0.4407561421394348,0.06307127326726913,0.11054326593875885,0.42391377687454224,0.3655708134174347,0.7789648771286011,0.42000001668930054,-0.4693889319896698,-3.000002145767212,-1.5185034275054932,-2.9999985694885254,-0.17838819324970245,-0.1801433563232422,-0.1821131408214569,-0.1810540109872818,0.18934717774391174,0.2475850135087967,0.31473612785339355,0.33158227801322937
0.7,0.043955523520708084,0.06064280495047569,0.0,0.6311355233192444,0.0,0.0,-0.7756725549697876,0.6903815269470215,-0.5283733606338501,0.0,0.0,0.0,-2.995265007019043,0.37163373827934265,0.777653694152832,0.41999998688697815,0.6090925335884094,-1.597476170900336e-06,1.2871544186054962e-06,-0.7930991053581238,-0.019611751660704613,-9.083370241569355e-05,-3.306602593511343e-05,-0.0002152209053747356,-0.001437424449250102,-0.15419356524944305,0.37087151408195496,0.7932256460189819,0.4546435475349426,0.4415947198867798,0.19885343313217163,1.3275396823883057,0.3655708134174347,0.7789648771286011,0.42000001668930054,-0.5194015502929688,-2.9999799728393555,-1.5685210227966309,-3.000000476837158,-0.1773769110441208,-0.1779785305261612,-0.17856642603874207,-0.17685551941394806,-4.103407263755798e-06,0.07373673468828201,0.164469912648201,0.21718533337116241
0.7166666666666667,0.05911190062761307,0.05825516954064369,0.0,0.5943397283554077,0.0,0.0,-0.8042140603065491,0.8320729732513428,-0.15127484500408173,0.0,0.0,0.0,-6.365408420562744,0.3716333508491516,0.7776539325714111,0.42000001668930054,0.6090927720069885,9.703676369099412e-07,-3.843029389827279e-06,-0.7930989861488342,0.00023036185302771628,-0.00027714084717445076,-9.640073403716087e-05,0.00571408262476325,0.0005905172438360751,-0.0007463921210728586,0.3866167366504669,0.7893420457839966,0.4822259545326233,1.569033145904541,-0.4010210335254669,2.0632309913635254,0.3655708134174347,0.7789648771286011,0.42000001668930054,-0.5694140791893005,-2.9999887943267822,-1.6185355186462402,-2.999999761581421,-0.1852380484342575,-0.18312372267246246,-0.1807597130537033,-0.176762655377388,-0.32001301646232605,-0.1987498551607132,-0.05521831661462784,0.06076312065124512
0.7333333333333333,0.06990823149681091,0.05724822357296944,0.0,0.5727661848068237,0.0,0.0,-0.8197187781333923,0.5785497426986694,-0.09378401190042496,0.0,0.0,0.0,-2.0265796184539795,0.371633380651474,0.7776538729667664,0.4200000464916229,0.6090925335884094,4.9326632733937e-07,-3.4972904359165113e-06,-0.7930991649627686,0.00015156333392951638,-0.00027710842550732195,-9.743939153850079e-05,0.006029019597917795,-0.0009071062668226659,-0.0006114823627285659,0.4119025766849518,0.7860186696052551,0.516455888748169,1.4325637817382812,-0.004980061203241348,2.027696371078491,0.3655708134174347,0.7789648771286011,0.42000001668930054,-0.5895861387252808,0.3085251748561859,-1.6685500144958496,-3.0000007152557373,-0.18858569860458374,-0.18522235751152039,-0.1812804639339447,-0.17612038552761078,-0.0060771978460252285,0.00465448247268796,0.034329455345869064,0.044110674411058426
0.75,0.07585866749286652,0.057424936443567276,0.0,0.5780779719352722,0.0,0.0,-0.8159815073013306,0.2813739776611328,0.05901944637298584,0.0,0.0,0.0,1.631885051727295,0.371633380651474,0.7776539325714111,0.4200000464916229,0.6090928316116333,4.839170060222386e-07,-3.3295416415057844e-06,-0.7930989265441895,0.00014951576304156333,-0.0002780078793875873,-9.691226296126842e-05,0.0060613420791924,-0.0009362877462990582,-0.0006076350691728294,0.43225520849227905,0.7874222993850708,0.544008195400238,0.9200245141983032,0.13074801862239838,1.3464475870132446,0.3655708134174347,0.7789648771286011,0.42000001668930054,-0.5629913210868835,2.655024290084839,-1.6293423175811768,3.0000007152557373,-0.1868155598640442,-0.1835147738456726,-0.17933689057826996,-0.1742156445980072,0.1775474101305008,0.16921831667423248,0.17544473707675934,0.16617031395435333
0.7666666666666666,0.07801210880279541,0.054421890527009964,0.0,0.5713821053504944,0.0,0.0,-0.8206841349601746,0.07912203669548035,-0.29122108221054077,0.0,0.0,0.0,-1.8927425146102905,0.3716333508491516,0.7776539325714111,0.4200000464916229,0.609092652797699,4.4329232196105295e-07,-3.465244844846893e-06,-0.7930989861488342,0.0001502677914686501,-0.00027878934633918107,-9.697256609797478e-05,0.006077482830733061,-0.0009274629410356283,-0.0006096280412748456,0.44059085845947266,0.7892365455627441,0.5603916645050049,0.09531895071268082,0.11382431536912918,0.7990433573722839,0.3655708134174347,0.7789648771286011,0.42000001668930054,-0.5271391868591309,1.6991429328918457,-1.5792858600616455,2.999999523162842,-0.18361671268939972,-0.18039490282535553,-0.17613264918327332,-0.17119403183460236,0.23799048364162445,0.22972136735916138,0.2265091985464096,0.20685680210590363
0.7833333333333333,0.0773312896490097,0.05627933517098427,0.0,0.5775215029716492,0.0,0.0,-0.8163754940032959,-0.08200934529304504,0.24249382317066193,0.0,0.0,0.0,1.7602362632751465,0.3716333508491516,0.7776538729667664,0.4200000464916229,0.6090925335884094,4.927208010485629e-07,-3.2328518955182517e-06,-0.7930991053581238,0.00015256367623806,-0.0002775476314127445,-9.757280349731445e-05,0.006035214755684137,-0.00089417485287413,-0.0006136875017546117,0.439825177192688,0.7897626161575317,0.5716228485107422,-0.16196084022521973,0.04985128343105316,0.5832269191741943,0.3655708134174347,0.7789648771286011,0.42000001668930054,-0.48441067337989807,2.9999961853027344,-1.529252290725708,3.000000476837158,-0.18536946177482605,-0.18105438351631165,-0.17574508488178253,-0.17013072967529297,-0.15479271113872528,-0.0814446285367012,-0.013031336478888988,0.034527599811553955
0.8,0.074537493288517,0.05558880791068077,0.0,0.571527898311615,0.0,0.0,-0.8205826282501221,-0.2235880196094513,-0.0460977740585804,0.0,0.0,0.0,-1.670237421989441,0.3716333508491516,0.7776539325714111,0.4200000464916229,0.6090927124023438,4.5802565296071407e-07,-3.3488172448414844e-06,-0.7930989861488342,0.00014987876056693494,-0.0002784245880320668,-9.688944555819035e-05,0.006070246919989586,-0.0009308056905865669,-0.0006085702916607261,0.4313168525695801,0.7897912263870239,0.5765444040298462,-0.895535945892334,-0.07697094976902008,0.1857668161392212,0.3655708134174347,0.7789648771286011,0.42000001668930054,-0.46140751242637634,3.3014657674357295e-07,-1.4792072772979736,3.000000476837158,-0.18574127554893494,-0.18058058619499207,-0.17446531355381012,-0.16828615963459015,-0.07795083522796631,-0.012913960963487625,0.04877474531531334,0.09748559445142746
0.8166666666666667,0.07421490550041199,0.05981604754924774,0.0,0.5784080624580383,0.0,0.0,-0.8157475590705872,-0.01118395570665598,0.1874828040599823,0.0,0.0,0.0,1.4209877252578735,0.3716333508491516,0.7776539325714111,0.4200000464916229,0.609092652797699,3.7224617699394e-07,-3.3875369354063878e-06,-0.793099045753479,0.0001477110927226022,-0.0002796795452013612,-9.625195525586605e-05,0.00611316692084074,-0.0009602723876014352,-0.000604225555434823,0.4199073910713196,0.7879881858825684,0.5803954601287842,-0.3957950472831726,0.08393625915050507,0.279374361038208,0.3655708134174347,0.7789648771286011,0.42000001668930054,-0.4626018702983856,-0.1291922926902771,-1.495803952217102,-2.9999990463256836,-0.18962569534778595,-0.1831144094467163,-0.175645649433136,-0.16823725402355194,0.0897030159831047,0.07801342755556107,0.08137649297714233,0.09574759751558304
0.8333333333333334,0.0754568949341774,0.05855194106698036,0.0,0.5723709464073181,0.0,0.0,-0.8199948072433472,0.11201005429029465,-0.09218677133321762,0.0,0.0,0.0,-1.9645369052886963,0.3716333508491516,0.7776538729667664,0.4200000464916229,0.6090925335884094,4.820777803615783e-07,-3.3407484352210304e-06,-0.7930991649627686,0.00015302201791200787,-0.0002775578759610653,-9.769224561750889e-05,0.006033005658537149,-0.0008888716693036258,-0.0006147276144474745,0.4156687259674072,0.7890490293502808,0.5817756652832031,-0.16300605237483978,-0.04264554753899574,0.036602381616830826,0.3655708134174347,0.7789648771286011,0.42000001668930054,-0.4953261613845825,-3.000000476837158,-1.4570865631103516,3.0000007152557373,-0.18492461740970612,-0.17916814982891083,-0.17213068902492523,-0.1648498773574829,0.2187175452709198,0.19669371843338013,0.19209113717079163,0.20503254234790802
0.85,0.07943263649940491,0.060377493500709534,0.0,0.5776136517524719,0.0,0.0,-0.8163102865219116,0.26793548464775085,0.17525391280651093,0.0,0.0,0.0,1.5686283111572266,0.3716333508491516,0.7776539325714111,0.4200000464916229,0.6090928912162781,4.628527960903739e-07,-3.5379043765715323e-06,-0.7930989265441895,0.00015023714513517916,-0.0002779096830636263,-9.707408025860786e-05,0.006055223289877176,-0.0009266265551559627,-0.0006091351970098913,0.41556471586227417,0.7879399657249451,0.5857070684432983,0.1681031584739685,-0.03462866693735123,0.43481212854385376,0.3655708134174347,0.7789648771286011,0.42000001668930054,-0.5381597876548767,-2.174973726272583,-1.4741464853286743,-2.999999523162842,-0.1829419732093811,-0.17736102640628815,-0.17021623253822327,-0.1625254899263382,0.18698687851428986,0.15150460600852966,0.13584627211093903,0.14284655451774597
0.8666666666666667,0.08503527194261551,0.05940413847565651,0.0,0.5740482211112976,0.0,0.0,-0.8188214898109436,0.3617956340312958,-0.07808026671409607,0.0,0.0,0.0,-1.671782374382019,0.3716333508491516,0.7776538729667664,0.4200000464916229,0.6090927124023438,4.660523416077922e-07,-3.311588898213813e-06,-0.7930989265441895,0.0001532264141133055,-0.0002774951281026006,-9.773275814950466e-05,0.006030375603586435,-0.000885894347447902,-0.0006152673740871251,0.42127516865730286,0.7862238883972168,0.5888761281967163,0.4665266275405884,-0.2604310214519501,0.09045594930648804,0.3655708134174347,0.7789648771286011,0.42000001668930054,-0.5823958516120911,-2.9999947547912598,-1.5241647958755493,-3.0,-0.17802004516124725,-0.17305436730384827,-0.1661859154701233,-0.15836723148822784,0.22304926812648773,0.22126713395118713,0.2358989268541336,0.2710927724838257
0.8833333333333333,0.09285516291856766,0.056391920894384384,0.0,0.5478183031082153,0.0,0.0,-0.8365973234176636,0.5080917477607727,-0.27466803789138794,0.0,0.0,0.0,-4.929140090942383,0.3716333508491516,0.7776539325714111,0.4200000464916229,0.6090928912162781,4.6320843694047653e-07,-3.4384447644697502e-06,-0.7930988073348999,0.00015030223585199565,-0.0002784293610602617,-9.699235670268536e-05,0.00606803223490715,-0.0009258485515601933,-0.0006095165153965354,0.43134158849716187,0.7795106172561646,0.590093731880188,0.7918696403503418,-0.515881359577179,0.19024598598480225,0.3655708134174347,0.7789648771286011,0.42000001668930054,-0.6072834730148315,-0.20661403238773346,-1.5741831064224243,-2.999997854232788,-0.17617741227149963,-0.17097879946231842,-0.1637130230665207,-0.15525539219379425,0.1024574264883995,0.11468672752380371,0.13187295198440552,0.15947523713111877
0.9,0.09847431629896164,0.05460586026310921,0.0,0.5356873273849487,0.0,0.0,-0.8444163799285889,0.25637978315353394,-0.060475435107946396,0.0,0.0,0.0,-0.6818104982376099,0.3716333508491516,0.7776539325714111,0.4200000464916229,0.6090927720069885,3.518604501095979e-07,-3.5566497444960987e-06,-0.7930989265441895,0.0001454751327401027,-0.00028069689869880676,-9.566731750965118e-05,0.006149721331894398,-0.0009916300186887383,-0.000599999213591218,0.44106030464172363,0.774040699005127,0.5939697623252869,0.38451728224754333,-0.17416022717952728,0.23245544731616974,0.3655708134174347,0.7789648771286011,0.42000001668930054,-0.5872164368629456,2.3731348514556885,-1.535238265991211,3.0000007152557373,-0.17441636323928833,-0.16921064257621765,-0.1619562953710556,-0.1534273475408554,0.19221973419189453,0.16320429742336273,0.1289898008108139,0.09676972776651382
