vladlanda/robotic-transformer/data/env_000_episode_0039.csv
sim_time_s,robot_box_x,robot_box_y,robot_box_z,robot_box_quat_w,robot_box_quat_x,robot_box_quat_y,robot_box_quat_z,robot_box_linvel_x,robot_box_linvel_y,robot_box_linvel_z,robot_box_angvel_x,robot_box_angvel_y,robot_box_angvel_z,cube_world_x,cube_world_y,cube_world_z,cube_quat_w,cube_quat_x,cube_quat_y,cube_quat_z,cube_linvel_x,cube_linvel_y,cube_linvel_z,cube_angvel_x,cube_angvel_y,cube_angvel_z,endpoint_world_x,endpoint_world_y,endpoint_world_z,endpoint_linvel_x,endpoint_linvel_y,endpoint_linvel_z,target_cube_world_x,target_cube_world_y,target_cube_world_z,gripper_actual_pos_rad_gp_leftgearjoint,gripper_actual_vel_rad_s_gp_leftgearjoint,gripper_actual_pos_rad_gp_rotatingjoint,gripper_actual_vel_rad_s_gp_rotatingjoint,motor_angle_rad_joint1,motor_angle_rad_joint2,motor_angle_rad_joint3,motor_angle_rad_joint4,motor_speed_rad_s_joint1,motor_speed_rad_s_joint2,motor_speed_rad_s_joint3,motor_speed_rad_s_joint4
0.0,0.0,0.0,0.0,1.0,0.0,0.0,0.0,0.0,0.0,0.0,0.0,0.0,0.0,-0.43378758430480957,0.7669932842254639,0.41999998688697815,1.0,0.0,0.0,0.0,0.0,0.0,0.0,0.0,0.0,0.0,3.42540442943573e-06,-0.005000244826078415,1.313499927520752,0.0,0.0,0.0,0.32367777824401855,0.6234175562858582,0.42000001668930054,-1.5707999467849731,0.0,0.0,0.0,0.0,0.0,0.0,0.0,0.0,0.0,0.0,0.0
0.016666666666666666,0.0028778850100934505,0.0021806680597364902,0.0,0.9998081922531128,0.0,0.0,0.019586581736803055,0.24087215960025787,0.18240931630134583,0.0,0.0,0.0,3.1418697834014893,-0.4337877035140991,0.76699298620224,0.41999998688697815,1.0,3.279964630564791e-06,-8.339746386809566e-07,8.465587342243452e-08,-1.9833529222523794e-05,0.00017983045836444944,-6.132945418357849e-05,0.0009432713268324733,-0.004689474124461412,-0.00031981561915017664,-0.007110234349966049,0.003379564033821225,1.3159373998641968,-0.8143353462219238,0.9868683815002441,0.18095196783542633,0.32367777824401855,0.6234175562858582,0.42000001668930054,-1.5301095247268677,3.0000011920928955,-0.04584788903594017,-2.9999992847442627,0.0008691533003002405,0.0007963840034790337,0.0007110277656465769,0.0006108740926720202,0.11094217747449875,0.09756709635257721,0.08334315568208694,0.06823883205652237
0.03333333333333333,0.008960984647274017,0.006801960524171591,0.0,0.9997960329055786,0.0,0.0,0.020196842029690742,0.40702176094055176,0.3153083920478821,0.0,0.0,0.0,-0.8691309690475464,-0.43378782272338867,0.7669929265975952,0.4200000464916229,1.0,3.390805204617209e-06,-2.132404688381939e-06,-3.708747797759315e-08,0.0002635775599628687,0.0002693787682801485,-0.0001050964929163456,-0.0017706695944070816,0.004130705259740353,-0.00013547964044846594,-0.02755155600607395,0.026139266788959503,1.3166053295135498,-1.5914628505706787,1.6157786846160889,-0.08385752141475677,0.32367777824401855,0.6234175562858582,0.42000001668930054,-1.4800903797149658,3.000001907348633,-0.09588773548603058,-3.0000016689300537,0.002990126144140959,0.0026527419686317444,0.002277318388223648,0.001860779244452715,0.16421860456466675,0.13976268470287323,0.11382219940423965,0.08630463480949402
0.05,0.017672128975391388,0.013755066320300102,0.0,0.9994013905525208,0.0,0.0,0.03459620848298073,0.5918822288513184,0.46447426080703735,0.0,0.0,0.0,2.660984516143799,-0.43378785252571106,0.76699298620224,0.4200000464916229,1.0,3.765131168620428e-06,-2.2118479137134273e-06,5.629145594099327e-09,0.00026531046023592353,0.00026691515813581645,-0.00010440382175147533,-0.001724305097013712,0.004177468363195658,-0.00012949509255122393,-0.05963714048266411,0.05381397157907486,1.3116720914840698,-2.1867012977600098,1.7341275215148926,-0.4679228663444519,0.32367777824401855,0.6234175562858582,0.42000001668930054,-1.4300720691680908,3.0000011920928955,-0.14592638611793518,-2.999999761581421,0.0056801289319992065,0.004889606963843107,0.004026982933282852,0.0030876901000738144,0.1923639178276062,0.15546339750289917,0.11669212579727173,0.0759577676653862
0.06666666666666667,0.028956839814782143,0.023038920015096664,0.0,0.9994687438011169,0.0,0.0,0.03259223699569702,0.7185384035110474,0.5946706533432007,0.0,0.0,0.0,-1.1985809803009033,-0.43378785252571106,0.7669929265975952,0.4200000464916229,0.9999999403953552,3.406752739465446e-06,-2.2855651877762284e-06,4.3010143713217985e-07,0.0002670265967026353,0.000267917406745255,-0.00010437914170324802,-0.0017406505066901445,0.004211799707263708,-0.00012850486382376403,-0.09494266659021378,0.08857416361570358,1.3005262613296509,-2.092668056488037,2.3176796436309814,-0.8449643850326538,0.32367777824401855,0.6234175562858582,0.42000001668930054,-1.3800537586212158,3.000004291534424,-0.19595764577388763,-3.000000476837158,0.007907216437160969,0.006298649590462446,0.0045787738636136055,0.0027420406695455313,0.10919459164142609,0.04482278600335121,-0.021630926057696342,-0.0902189090847969
0.08333333333333333,0.03430289775133133,0.03567362576723099,0.0,0.9999998211860657,0.0,0.0,-0.0006522659095935524,0.1886650174856186,0.8245723843574524,0.0,0.0,0.0,-4.921913146972656,-0.43378785252571106,0.7669929265975952,0.4200000464916229,1.0,3.6972376165067544e-06,-2.188903863498126e-06,-2.6322030066694424e-07,0.00026389601407572627,0.0002658639568835497,-0.00010434049181640148,-0.0017081866972148418,0.004150202497839928,-0.00012991315452381968,-0.12767107784748077,0.13107743859291077,1.2832186222076416,-1.883145809173584,2.658522129058838,-1.148580551147461,0.32367777824401855,0.6234175562858582,0.42000001668930054,-1.3300306797027588,2.9999935626983643,-0.1621941477060318,2.999999523162842,0.0040254066698253155,0.0016485267551615834,-0.0008915911894291639,-0.003604221623390913,-0.33514466881752014,-0.38625821471214294,-0.43998754024505615,-0.4965861141681671
0.1,0.0364711694419384,0.04876777529716492,0.0,0.9998821020126343,0.0,0.0,-0.015354343689978123,0.16910849511623383,0.839414119720459,0.0,0.0,0.0,-0.39052414894104004,-0.43378785252571106,0.7669929265975952,0.4200000464916229,0.9999999403953552,3.6203459785610903e-06,-2.2651347535429522e-06,1.7462500068177178e-07,0.000266767485300079,0.0002674072457011789,-0.0001040799543261528,-0.0017386269755661488,0.0042091254144907,-0.0001277512201340869,-0.1616719663143158,0.1715315282344818,1.2668793201446533,-2.0325779914855957,2.5131001472473145,-0.9147306680679321,0.32367777824401855,0.6234175562858582,0.42000001668930054,-1.2800382375717163,2.9999992847442627,-0.19388557970523834,-2.999999523162842,0.0010235378285869956,-0.0028645300772041082,-0.006909683812409639,-0.011122602969408035,-0.02308006025850773,-0.14600074291229248,-0.2661375105381012,-0.3834054470062256
0.11666666666666667,0.045784883201122284,0.06582491099834442,0.0,0.9991040825843811,0.0,0.0,-0.042320720851421356,0.6970723867416382,1.0887303352355957,0.0,0.0,0.0,-4.18553352355957,-0.43378785252571106,0.7669929265975952,0.4200000464916229,1.0,3.7984141272318084e-06,-2.2627370981354034e-06,-1.5020638954865717e-07,0.00026374036679044366,0.0002656599972397089,-0.00010428996756672859,-0.0017054114723578095,0.004147567320615053,-0.00012979685561731458,-0.1912529170513153,0.22043898701667786,1.2500720024108887,-1.578101634979248,3.2819738388061523,-1.1025335788726807,0.32367777824401855,0.6234175562858582,0.42000001668930054,-1.2300153970718384,2.9999935626983643,-0.16012252867221832,3.0000007152557373,0.00436822883784771,-0.0021257507614791393,-0.008699518628418446,-0.015360216610133648,0.20746959745883942,0.047632232308387756,-0.10731881111860275,-0.2571478486061096
0.13333333333333333,0.051312778145074844,0.07935219258069992,0.0,0.9950878024101257,0.0,0.0,-0.09899627417325974,0.34014439582824707,0.7961797714233398,0.0,0.0,0.0,-7.439564228057861,-0.43378785252571106,0.76699298620224,0.4200000464916229,0.9999999403953552,3.550497694959631e-06,-2.2297181203612126e-06,2.9291419423316256e-07,0.0002670333778951317,0.00026779333711601794,-0.00010416889563202858,-0.0017439303919672966,0.004213552922010422,-0.0001280046853935346,-0.2179274559020996,0.2750367820262909,1.2304832935333252,-1.5986273288726807,3.400736093521118,-1.2233474254608154,0.32367777824401855,0.6234175562858582,0.42000001668930054,-1.199208378791809,0.854767382144928,-0.1918809562921524,-2.9999992847442627,0.0014774949522688985,-0.0069181970320641994,-0.015343143604695797,-0.023804213851690292,-0.143180713057518,-0.259025901556015,-0.37080004811286926,-0.47831884026527405
0.15,0.05425143241882324,0.09083747118711472,0.0,0.9911970496177673,0.0,0.0,-0.13239488005638123,0.10916024446487427,0.6097772121429443,0.0,0.0,0.0,-2.8952383995056152,-0.43378782272338867,0.7669929265975952,0.4200000464916229,1.0,3.332216692797374e-06,-2.1019013729528524e-06,1.313122055535132e-07,0.0002673068374861032,0.00026859444915317,-0.00010459451004862785,-0.0017497956287115812,0.004215684719383717,-0.00012927704665344208,-0.25415360927581787,0.33010363578796387,1.2036306858062744,-2.298861026763916,3.5362582206726074,-1.9754328727722168,0.32367777824401855,0.6234175562858582,0.42000001668930054,-1.1583656072616577,2.9999916553497314,-0.15809598565101624,3.000000238418579,-0.0025646411813795567,-0.01238140370696783,-0.02215752750635147,-0.0318983793258667,-0.3220689594745636,-0.3786051571369171,-0.4314345419406891,-0.4806080460548401
0.16666666666666666,0.05340101197361946,0.10265003889799118,0.0,0.9843837022781372,0.0,0.0,-0.1760360449552536,-0.1186283677816391,0.7521892786026001,0.0,0.0,0.0,-6.1353278160095215,-0.43378785252571106,0.7669929265975952,0.4200000464916229,1.0,3.7372994938777993e-06,-2.233063014500658e-06,-1.8764163201012707e-07,0.00026432870072312653,0.0002662685001268983,-0.00010446133092045784,-0.0017119026742875576,0.004157518967986107,-0.00013001746265217662,-0.2891259491443634,0.3919888436794281,1.1702492237091064,-1.7668108940124512,4.007190704345703,-2.070347785949707,0.32367777824401855,0.6234175562858582,0.42000001668930054,-1.1083792448043823,2.999999523162842,-0.18984496593475342,-3.0,-0.009885314851999283,-0.020733995363116264,-0.031471025198698044,-0.04210129380226135,-0.5370273590087891,-0.5948522090911865,-0.6486669182777405,-0.6984207034111023
0.18333333333333332,0.054563019424676895,0.11656512320041656,0.0,0.9793654084205627,0.0,0.0,-0.20209762454032898,0.10981950908899307,0.8522380590438843,0.0,0.0,0.0,-2.0771048069000244,-0.43378785252571106,0.76699298620224,0.4200000464916229,0.9999999403953552,3.6603269109036773e-06,-2.3022055302135414e-06,2.5285271476604976e-07,0.00026690986123867333,0.0002676024450920522,-0.00010412652045488358,-0.0017412863671779633,0.004211564548313618,-0.0001278719719266519,-0.3246604800224304,0.45464232563972473,1.1274871826171875,-2.095510244369507,3.849841356277466,-3.0591728687286377,0.32367777824401855,0.6234175562858582,0.42000001668930054,-1.0823760032653809,0.3305622637271881,-0.23987334966659546,-2.9999992847442627,-0.01845131255686283,-0.02978155016899109,-0.04094230383634567,-0.051943037658929825,-0.6568043828010559,-0.6413705945014954,-0.6245706081390381,-0.6069212555885315
0.2,0.05335239693522453,0.13084934651851654,0.0,0.970721423625946,0.0,0.0,-0.24020802974700928,-0.11924989521503448,0.8736907243728638,0.0,0.0,0.0,-5.5325140953063965,-0.43378785252571106,0.7669929265975952,0.4200000464916229,1.0,3.59091814061685e-06,-2.3004013200988993e-06,1.3872175941287423e-07,0.00026654574321582913,0.000267320079728961,-0.0001042394433170557,-0.0017326025990769267,0.004203422926366329,-0.0001282018783967942,-0.3589746952056885,0.5217577219009399,1.0710077285766602,-1.846540927886963,4.220417022705078,-3.6882636547088623,0.32367777824401855,0.6234175562858582,0.42000001668930054,-1.0436700582504272,3.000002384185791,-0.2898994982242584,-3.000000476837158,-0.031849127262830734,-0.04263748973608017,-0.053239163011312485,-0.0636749267578125,-0.8423510193824768,-0.8028265237808228,-0.7623270153999329,-0.721484899520874
0.21666666666666667,0.05253171548247337,0.13943231105804443,0.0,0.9663746356964111,0.0,0.0,-0.257138192653656,-0.12364168465137482,0.03801955282688141,0.0,0.0,0.0,-0.4654512107372284,-0.43378785252571106,0.76699298620224,0.4200000464916229,1.0,3.607027110774652e-06,-2.2609576717513846e-06,1.960636986098052e-08,0.0002644723863340914,0.00026558543322607875,-0.00010396563448011875,-0.001708892290480435,0.004164312966167927,-0.0001283241290366277,-0.390114426612854,0.5858755111694336,0.9997391700744629,-1.5073063373565674,3.7270889282226562,-4.837552547454834,0.32367777824401855,0.6234175562858582,0.42000001668930054,-0.9940070509910583,2.928816318511963,-0.33992525935173035,-2.999957323074341,-0.04678325727581978,-0.05684446915984154,-0.0666232779622078,-0.0762389749288559,-0.7865795493125916,-0.8217790722846985,-0.8540343046188354,-0.8797417283058167
0.23333333333333334,0.04434158653020859,0.14161688089370728,0.0,0.9613726139068604,0.0,0.0,-0.27525022625923157,-0.5831630229949951,0.14944706857204437,0.0,0.0,0.0,-2.7771778106689453,-0.43378782272338867,0.7669929265975952,0.4200000464916229,0.9999999403953552,3.7423217236209894e-06,-2.2274525690590963e-06,4.588922308812471e-07,0.0002647516375873238,0.00026671364321373403,-0.0001045342069119215,-0.0017189101781696081,0.004165767692029476,-0.00013019373000133783,-0.4127649664878845,0.6436129808425903,0.9143518805503845,-1.1175038814544678,3.300992250442505,-5.294402122497559,0.32367777824401855,0.6234175562858582,0.42000001668930054,-0.944000244140625,2.9999992847442627,-0.3899535834789276,-2.9999992847442627,-0.061419613659381866,-0.07183139771223068,-0.08193178474903107,-0.09182772040367126,-0.9098311066627502,-0.9258866310119629,-0.9396158456802368,-0.9502480030059814
0.25,0.03383558243513107,0.14269782602787018,0.0,0.9513892531394958,0.0,0.0,-0.3079909682273865,-0.658673882484436,0.046479374170303345,0.0,0.0,0.0,-4.540374755859375,-0.43378785252571106,0.7669929265975952,0.4200000464916229,1.0,3.39448661179631e-06,-2.2819845071353484e-06,1.3360543960061477e-07,0.00026679469738155603,0.0002679398749023676,-0.0001043959055095911,-0.0017417483031749725,0.004206670913845301,-0.0001288425992242992,-0.4300236105918884,0.696033239364624,0.8197654485702515,-0.7670842409133911,2.8915886878967285,-5.974754333496094,0.32367777824401855,0.6234175562858582,0.42000001668930054,-0.8939951658248901,2.9999985694885254,-0.4399838149547577,-2.999999523162842,-0.07660474628210068,-0.08691751956939697,-0.09689857065677643,-0.1066453829407692,-0.952582061290741,-0.9231335520744324,-0.8937035799026489,-0.8637732267379761
0.26666666666666666,0.024873025715351105,0.14573638141155243,0.0,0.9480273723602295,0.0,0.0,-0.31818875670433044,-0.49586015939712524,0.24258311092853546,0.0,0.0,0.0,-0.17168699204921722,-0.43378785252571106,0.76699298620224,0.4200000464916229,1.0,3.683507657115115e-06,-2.3100117232388584e-06,2.1007953421303682e-07,0.0002647930814418942,0.0002662573242560029,-0.00010421173647046089,-0.0017168023623526096,0.004168960731476545,-0.00012909334327559918,-0.4447375535964966,0.7325295805931091,0.7171499729156494,-0.6741338968276978,1.6598279476165771,-6.2862701416015625,0.32367777824401855,0.6234175562858582,0.42000001668930054,-0.8439846634864807,2.999999761581421,-0.49001508951187134,-3.000001907348633,-0.09308185428380966,-0.10324227809906006,-0.11305616796016693,-0.1226164698600769,-0.9930291175842285,-0.9944576621055603,-0.9955754280090332,-0.9960932731628418
0.2833333333333333,0.019762855023145676,0.14702452719211578,0.0,0.9415466785430908,0.0,0.0,-0.3368825614452362,-0.26676055788993835,-0.05446431785821915,0.0,0.0,0.0,-2.826566219329834,-0.43378785252571106,0.7669929265975952,0.4200000464916229,1.0,3.307009365016711e-06,-2.2123917915450875e-06,2.6254483032062126e-07,0.00026660889852792025,0.00026745148352347314,-0.00010424572974443436,-0.0017353077419102192,0.004204495809972286,-0.0001282844168599695,-0.4529016613960266,0.7540782690048218,0.6075913906097412,-0.14151953160762787,0.906862199306488,-6.631352424621582,0.32367777824401855,0.6234175562858582,0.42000001668930054,-0.793975830078125,2.999933958053589,-0.5400462746620178,-2.9998834133148193,-0.11011557281017303,-0.12016142904758453,-0.12988775968551636,-0.13935638964176178,-0.9924517273902893,-0.9915133714675903,-0.9894825220108032,-0.9864783883094788
0.3,0.010115486569702625,0.1506211757659912,0.0,0.9417147636413574,0.0,0.0,-0.3364124298095703,-0.5299225449562073,0.19700850546360016,0.0,0.0,0.0,0.9954731464385986,-0.43378785252571106,0.7669929265975952,0.4200000464916229,1.0,3.6413346151675796e-06,-2.3777658952894853e-06,-4.194106395516428e-07,0.0002661141334101558,0.00026725803036242723,-0.00010423245839774609,-0.0017334752483293414,0.0041945013217628,-0.00012854678789153695,-0.45034801959991455,0.7594777345657349,0.5060250759124756,0.4334504008293152,0.10812760889530182,-5.649567604064941,0.32367777824401855,0.6234175562858582,0.42000001668930054,-0.7439670562744141,2.9999923706054688,-0.5900758504867554,-2.9999990463256836,-0.12768912315368652,-0.137508824467659,-0.14710284769535065,-0.15648764371871948,-0.706544816493988,-0.7735324501991272,-0.8374696969985962,-0.8950197696685791
0.31666666666666665,0.0052313837222754955,0.15034224092960358,0.0,0.9373173117637634,0.0,0.0,-0.3484770655632019,-0.21139290928840637,-0.043800029903650284,0.0,0.0,0.0,-2.157099485397339,-0.43378785252571106,0.76699298620224,0.4200000464916229,1.0,3.6219364574208157e-06,-2.288903033331735e-06,1.9688533825501509e-07,0.00026734021957963705,0.00026802706997841597,-0.00010420568287372589,-0.0017466004937887192,0.004219025373458862,-0.00012794003123417497,-0.44095665216445923,0.7626590728759766,0.4106273055076599,0.8889495730400085,0.08867715299129486,-5.5461835861206055,0.32367777824401855,0.6234175562858582,0.42000001668930054,-0.6939593553543091,2.9999992847442627,-0.6401036977767944,-2.9999992847442627,-0.14144489169120789,-0.15183742344379425,-0.16198813915252686,-0.17188040912151337,-1.009190559387207,-1.0069586038589478,-1.0052490234375,-1.00387442111969
0.3333333333333333,-0.0019836630672216415,0.14864367246627808,0.0,0.9394058585166931,0.0,0.0,-0.34280693531036377,-0.5198893547058105,-0.12725701928138733,0.0,0.0,0.0,1.6098413467407227,-0.43466222286224365,0.7635883092880249,0.42128700017929077,0.997248649597168,0.02665790170431137,-0.007636646740138531,-0.06874751299619675,0.017257913947105408,0.006738865748047829,-0.0527779683470726,-1.2386584281921387,1.5143485069274902,0.372222363948822,-0.44258880615234375,0.7670078277587891,0.4294409155845642,0.16647905111312866,0.279878169298172,-0.15420855581760406,0.32367777824401855,0.6234175562858582,0.42000001668930054,-0.6442312002182007,2.999983549118042,-0.6907535791397095,-2.9999005794525146,-0.1437305361032486,-0.15477855503559113,-0.16513976454734802,-0.17467772960662842,-0.3725433051586151,-0.3444192111492157,-0.3002152144908905,-0.23523564636707306
0.35,-0.011563415639102459,0.14447033405303955,0.0,0.9361096024513245,0.0,0.0,-0.35170847177505493,-0.5877750515937805,-0.30319857597351074,0.0,0.0,0.0,-2.019814968109131,-0.4327074885368347,0.7657229900360107,0.42001503705978394,0.9963871836662292,-5.8756122598424554e-05,-5.942670031799935e-05,-0.08492591977119446,0.07291046530008316,0.07099654525518417,-0.00020004995167255402,0.03382844477891922,-0.07428322732448578,-3.043027400970459,-0.44008928537368774,0.7682079076766968,0.4265126883983612,0.24705763161182404,0.033978380262851715,-0.1922878623008728,0.32367777824401855,0.6234175562858582,0.42000001668930054,-0.5942255854606628,2.998551845550537,-0.7408099174499512,-2.9995415210723877,-0.15041260421276093,-0.16052046418190002,-0.16968414187431335,-0.17771393060684204,-0.41060811281204224,-0.32720839977264404,-0.23094132542610168,-0.11995913833379745
0.36666666666666664,-0.022762462496757507,0.13777266442775726,0.0,0.9384991526603699,0.0,0.0,-0.34528160095214844,-0.712912917137146,-0.44155505299568176,0.0,0.0,0.0,1.7292888164520264,-0.42897576093673706,0.7685838937759399,0.4200006425380707,0.9894159436225891,4.5603333092003595e-06,1.6987543858704157e-05,-0.14510667324066162,0.3311881721019745,0.2620205581188202,-0.0010140039958059788,-0.0077461558394134045,-0.04739290475845337,-9.197880744934082,-0.4338432848453522,0.7705988883972168,0.42370110750198364,0.4582001268863678,0.26618391275405884,-0.13107898831367493,0.32367777824401855,0.6234175562858582,0.42000001668930054,-0.5442206263542175,2.999971389770508,-0.7908568978309631,-2.9998748302459717,-0.15851084887981415,-0.16668877005577087,-0.17372959852218628,-0.1794387549161911,-0.4730892479419708,-0.34803298115730286,-0.2125571370124817,-0.06708265095949173
0.3833333333333333,-0.03616361320018768,0.1287279725074768,0.0,0.9354524612426758,0.0,0.0,-0.3534524738788605,-0.849071204662323,-0.5876168012619019,0.0,0.0,0.0,-1.9303051233291626,-0.42288443446159363,0.7733808159828186,0.4200383722782135,0.9743041396141052,0.0009178435429930687,-0.0002260340697830543,-0.22523421049118042,0.43483513593673706,0.3397718369960785,0.005459556821733713,0.2943900525569916,-0.15349608659744263,-11.60614013671875,-0.4248124957084656,0.7752114534378052,0.4219464063644409,0.6644126176834106,0.33205822110176086,-0.1027081310749054,0.32367777824401855,0.6234175562858582,0.42000001668930054,-0.4942159652709961,2.9999876022338867,-0.8409086465835571,-2.999951124191284,-0.16641589999198914,-0.17225220799446106,-0.17671577632427216,-0.17963099479675293,-0.4456739127635956,-0.295071542263031,-0.1289869248867035,0.05092762038111687
0.4,-0.05037938803434372,0.11723390221595764,0.0,0.9218188524246216,0.0,0.0,-0.3876209557056427,-0.8668028116226196,-0.732875645160675,0.0,0.0,0.0,-5.281198024749756,-0.41045448184013367,0.7831239104270935,0.420651912689209,0.959447979927063,0.0027982904575765133,-0.0058099958114326,-0.2818119525909424,1.1065499782562256,0.8609320521354675,0.10259368270635605,-2.753871202468872,-1.8562453985214233,-5.18991756439209,-0.4111492931842804,0.7843834161758423,0.42138969898223877,1.0248429775238037,0.7643266916275024,0.020459331572055817,0.32367777824401855,0.6234175562858582,0.42000001668930054,-0.44421207904815674,2.9999730587005615,-0.890956699848175,-2.9999449253082275,-0.1738310307264328,-0.17698359489440918,-0.178442120552063,-0.17807620763778687,-0.3950916826725006,-0.23207822442054749,-0.048514384776353836,0.1523153930902481
0.4166666666666667,-0.06169913336634636,0.10271500051021576,0.0,0.8958048224449158,0.0,0.0,-0.4444476366043091,-0.6073406934738159,-0.9272408485412598,0.0,0.0,0.0,-8.285927772521973,-0.38412970304489136,0.8021679520606995,0.4228796064853668,0.9432085752487183,-0.02219158224761486,-0.026450032368302345,-0.3304020166397095,2.1643242835998535,1.1408288478851318,-0.08528721332550049,29.027389526367188,-19.40799903869629,7.3034443855285645,-0.38508594036102295,0.8036197423934937,0.42317312955856323,2.208289384841919,1.502342939376831,0.33858293294906616,0.32367777824401855,0.6234175562858582,0.42000001668930054,-0.3996061086654663,1.7614678144454956,-0.9409868121147156,-3.0000009536743164,-0.18118205666542053,-0.18129584193229675,-0.1793641895055771,-0.1753338724374771,-0.47753092646598816,-0.27534806728363037,-0.05479764938354492,0.17837755382061005
0.43333333333333335,-0.0689951479434967,0.08506186306476593,0.0,0.8542143702507019,0.0,0.0,-0.5199209451675415,-0.36748725175857544,-1.1050430536270142,0.0,0.0,0.0,-11.041015625,-0.3242913782596588,0.8324743509292603,0.4265420436859131,0.9225380420684814,0.026902806013822556,-0.06718819588422775,-0.37905874848365784,5.075732231140137,1.6979044675827026,0.3289548456668854,11.34012222290039,-12.661113739013672,16.964750289916992,-0.32499346137046814,0.8338549137115479,0.4273085594177246,4.793818473815918,2.2374043464660645,0.3007640242576599,0.32367777824401855,0.6234175562858582,0.42000001668930054,-0.38249000906944275,0.8945481777191162,-0.9039037823677063,3.0004265308380127,-0.19312657415866852,-0.18855984508991241,-0.18192091584205627,-0.17329730093479156,-0.7865628004074097,-0.48720043897628784,-0.19856387376785278,0.07032878696918488
0.45,-0.07940397411584854,0.073699451982975,0.0,0.7921907901763916,0.0,0.0,-0.610273540019989,-0.7832619547843933,-0.5257376432418823,0.0,0.0,0.0,-14.16748332977295,-0.22468340396881104,0.862012505531311,0.43512192368507385,0.8871259093284607,0.057316072285175323,-0.0814623013138771,-0.4506509304046631,7.055484771728516,1.1914072036743164,0.7355488538742065,4.374030113220215,-8.735031127929688,9.54649543762207,-0.22649112343788147,0.8639996647834778,0.435863733291626,6.92990779876709,1.6216074228286743,0.767350435256958,0.32367777824401855,0.6234175562858582,0.42000001668930054,-0.3640216290950775,1.3117835521697998,-0.9270771741867065,-2.999999761581421,-0.20971952378749847,-0.20370911061763763,-0.1926831156015396,-0.17807164788246155,-0.9662530422210693,-0.9574023485183716,-0.8364777565002441,-0.4738008677959442
0.4666666666666667,-0.08727314323186874,0.05983813479542732,0.0,0.7341986298561096,0.0,0.0,-0.6789346933364868,-0.4068828821182251,-0.835462749004364,0.0,0.0,0.0,-9.419785499572754,-0.11140759289264679,0.8735520839691162,0.44664835929870605,0.8394353985786438,0.08816783130168915,-0.1049334779381752,-0.5258931517601013,6.8108038902282715,-0.929438591003418,0.8855019807815552,20.715560913085938,-6.34649133682251,17.389249801635742,-0.1146230399608612,0.8791837692260742,0.44835591316223145,6.681338310241699,0.07747501134872437,0.7302623987197876,0.32367777824401855,0.6234175562858582,0.42000001668930054,-0.3414989113807678,1.1559635400772095,-0.9117781519889832,2.9961280822753906,-0.2242612987756729,-0.2178952991962433,-0.2043444961309433,-0.1831768900156021,-0.9887124300003052,-0.9503908753395081,-0.7535012364387512,-0.3372419774532318
0.48333333333333334,-0.09570387750864029,0.04906846210360527,0.0,0.6995248794555664,0.0,0.0,-0.7146082520484924,-0.5410657525062561,-0.6238241791725159,0.0,0.0,0.0,-4.701684474945068,-0.003940187394618988,0.8635221719741821,0.45740804076194763,0.7843856811523438,0.0993063673377037,-0.10820458084344864,-0.6026351451873779,5.985450744628906,-2.1797261238098145,0.4467829465866089,-1.1820544004440308,-3.431464195251465,26.077953338623047,-0.008021874353289604,0.8710238337516785,0.4594864249229431,6.279181003570557,-1.0529924631118774,0.6708629131317139,0.32367777824401855,0.6234175562858582,0.42000001668930054,-0.3266642987728119,0.4836532175540924,-0.937019407749176,-3.000002145767212,-0.237517312169075,-0.23114141821861267,-0.21750704944133759,-0.19014450907707214,-0.7293238043785095,-0.680274486541748,-0.6370719075202942,-0.31090667843818665
0.5,-0.10142389684915543,0.04237550497055054,0.0,0.6906636953353882,0.0,0.0,-0.723176121711731,-0.26353898644447327,-0.28726768493652344,0.0,0.0,0.0,-0.46443918347358704,0.08873054385185242,0.8369086384773254,0.46356239914894104,0.7104436159133911,0.0647784024477005,-0.1047203540802002,-0.692897617816925,4.847170829772949,-2.5760672092437744,0.3420121967792511,13.791016578674316,4.0809197425842285,-7.14249849319458,0.08363668620586395,0.8468731045722961,0.4669564962387085,4.823256015777588,-1.8817495107650757,0.33811479806900024,0.32367777824401855,0.6234175562858582,0.42000001668930054,-0.31959280371665955,0.41452401876449585,-0.9870434403419495,-3.0000009536743164,-0.24003788828849792,-0.240029975771904,-0.22935958206653595,-0.1969984471797943,-0.02375061810016632,-0.016912201419472694,-0.6760201454162598,-0.4244804084300995
0.5166666666666666,-0.10250945389270782,0.030936460942029953,0.0,0.6713662147521973,0.0,0.0,-0.741125762462616,-0.005806588567793369,-0.7782701253890991,0.0,0.0,0.0,-4.144908905029297,0.16242599487304688,0.8040317893028259,0.4640883207321167,0.663963794708252,0.04262852668762207,-0.09289829432964325,-0.7407459616661072,3.859853744506836,-2.4133081436157227,-0.10505931079387665,-2.9244384765625,1.6976830959320068,6.58134651184082,0.15857356786727905,0.8147046566009521,0.46826407313346863,4.130763053894043,-2.228414535522461,-0.05311964079737663,0.32367777824401855,0.6234175562858582,0.42000001668930054,-0.3153904676437378,0.36805638670921326,-1.037066102027893,-2.999985456466675,-0.23410843312740326,-0.23442210257053375,-0.23356470465660095,-0.1990504413843155,0.3976917862892151,0.4180787205696106,-0.05081964656710625,0.0190524123609066
0.5333333333333333,-0.10158746689558029,0.02457061968743801,0.0,0.6654792428016663,0.0,0.0,-0.7464163303375244,0.07714111357927322,-0.24940170347690582,0.0,0.0,0.0,0.011601004749536514,0.2215910404920578,0.7647707462310791,0.45983216166496277,0.6098157167434692,0.01400034036487341,-0.07099348306655884,-0.7892328500747681,2.998873710632324,-2.544942855834961,-0.3462297022342682,2.846369504928589,6.2748918533325195,-5.846290111541748,0.21793463826179504,0.7746431827545166,0.4644734263420105,3.121090888977051,-2.5411765575408936,-0.3521311283111572,0.32367777824401855,0.6234175562858582,0.42000001668930054,-0.30293217301368713,1.0832874774932861,-1.0870882272720337,-2.9998109340667725,-0.23222392797470093,-0.2309432327747345,-0.23541076481342316,-0.20016342401504517,0.1208413615822792,0.22473031282424927,-0.015500005334615707,-0.037760328501462936
0.55,-0.09798737615346909,0.014830103144049644,0.0,0.6493257880210876,0.0,0.0,-0.7605103254318237,0.23699721693992615,-0.613000750541687,0.0,0.0,0.0,-3.4311912059783936,0.26687008142471313,0.7263177633285522,0.4487667977809906,0.5810632705688477,-0.029082657769322395,-0.04119936376810074,-0.8122943639755249,2.2136762142181396,-2.7667953968048096,-0.6603314876556396,0.5055044293403625,11.289835929870605,10.84897518157959,0.26468583941459656,0.736046552658081,0.4539063572883606,2.345639705657959,-2.2641830444335938,-0.808414101600647,0.32367777824401855,0.6234175562858582,0.42000001668930054,-0.2845422625541687,0.8751333951950073,-1.1371103525161743,-2.999865770339966,-0.2245633900165558,-0.22267752885818481,-0.23101486265659332,-0.19799809157848358,0.44647547602653503,0.4893849492073059,0.3237408697605133,0.14479561150074005
0.5666666666666667,-0.09191880375146866,0.009238527156412601,0.0,0.646002471446991,0.0,0.0,-0.7633352875709534,0.3983973264694214,-0.29085245728492737,0.0,0.0,0.0,0.3672361969947815,0.30024653673171997,0.6892337203025818,0.4333500564098358,0.5539328455924988,-0.0728292465209961,-0.011836520396173,-0.8292852640151978,1.5906318426132202,-2.5399951934814453,-0.9685520529747009,-2.688734292984009,10.632362365722656,5.974544525146484,0.29833710193634033,0.6980737447738647,0.43877553939819336,1.7235989570617676,-2.14618182182312,-0.9919852018356323,0.32367777824401855,0.6234175562858582,0.42000001668930054,-0.27406296133995056,0.37916675209999084,-1.187132477760315,-2.9999804496765137,-0.21893131732940674,-0.2163880169391632,-0.22655147314071655,-0.1971120834350586,0.42352980375289917,0.41985374689102173,0.3226020336151123,0.050051912665367126
0.5833333333333334,-0.08369188010692596,0.007332161068916321,0.0,0.633122444152832,0.0,0.0,-0.7740516662597656,0.5402418375015259,-0.052540164440870285,0.0,0.0,0.0,-2.891989231109619,0.3217548429965973,0.6623994708061218,0.42196640372276306,0.5524794459342957,-0.026999900117516518,0.028675949200987816,-0.8325953483581543,0.8346534967422485,-1.193723440170288,-0.1408008635044098,-8.70273494720459,-9.598161697387695,10.642114639282227,0.3188062310218811,0.669292688369751,0.4250258803367615,0.6054947376251221,-1.1875956058502197,-0.05247735232114792,0.32367777824401855,0.6234175562858582,0.42000001668930054,-0.264279842376709,0.8477656245231628,-1.1492304801940918,2.9976024627685547,-0.21066968142986298,-0.20917996764183044,-0.22101636230945587,-0.19696544110774994,0.5546706914901733,0.4628102481365204,0.37993165850639343,0.03470412269234657
0.6,-0.07849860191345215,0.0008532664505764842,0.0,0.6330330967903137,0.0,0.0,-0.7741247415542603,0.29085594415664673,-0.3583374619483948,0.0,0.0,0.0,0.8846253752708435,0.3297558128833771,0.6464052200317383,0.42284345626831055,0.5572820901870728,-0.041177213191986084,0.05714253708720207,-0.827330470085144,0.1465439349412918,-1.3128000497817993,0.15659138560295105,0.9532608985900879,7.171031475067139,8.855015754699707,0.32642799615859985,0.6529561281204224,0.4262266457080841,0.15298834443092346,-0.9104958772659302,0.1161155179142952,0.32367777824401855,0.6234175562858582,0.42000001668930054,-0.2559118866920471,0.026798931881785393,-1.1710832118988037,-2.999350070953369,-0.1980186104774475,-0.19811268150806427,-0.2111680805683136,-0.19327226281166077,0.5044152736663818,0.48339977860450745,0.4826466143131256,0.1533779501914978
0.6166666666666667,-0.07071433961391449,-0.0004269983328413218,0.0,0.6221458911895752,0.0,0.0,-0.7829013466835022,0.4519251585006714,-0.07065840810537338,0.0,0.0,0.0,-2.4215023517608643,0.3304416537284851,0.6356763243675232,0.42262065410614014,0.5788701772689819,-0.03442000597715378,0.05731585621833801,-0.8126742243766785,-0.044414080679416656,-0.6070947647094727,0.09421926736831665,4.117604732513428,0.4375584125518799,8.944219589233398,0.32660040259361267,0.6417515277862549,0.42629724740982056,-0.07930031418800354,-0.3170408010482788,0.10583621263504028,0.32367777824401855,0.6234175562858582,0.42000001668930054,-0.25408869981765747,0.22166261076927185,-1.1332577466964722,3.0000007152557373,-0.19117429852485657,-0.19186241924762726,-0.20463399589061737,-0.19208577275276184,0.5636422634124756,0.48120370507240295,0.4811028838157654,0.1439002901315689
0.6333333333333333,-0.06657350063323975,-0.006539134308695793,0.0,0.6243897080421448,0.0,0.0,-0.7811129689216614,0.2130253165960312,-0.3944282531738281,0.0,0.0,0.0,1.1689032316207886,0.3288748264312744,0.6291024684906006,0.4227266013622284,0.5952873826026917,-0.03622869774699211,0.05746431648731232,-0.8006361126899719,-0.24138113856315613,-0.4104531705379486,0.004162592347711325,-0.2136266678571701,0.9430127739906311,1.01296865940094,0.3242734670639038,0.6369057297706604,0.4271125793457031,-0.2760797142982483,-0.2529658377170563,0.16597390174865723,0.32367777824401855,0.6234175562858582,0.42000001668930054,-0.288857638835907,-3.0000038146972656,-1.155639410018921,-2.9991295337677,-0.18027548491954803,-0.18229098618030548,-0.19476218521595,-0.1875331550836563,0.48607805371284485,0.44662606716156006,0.5154362916946411,0.24893267452716827
0.65,-0.06111564859747887,-0.007512729614973068,0.0,0.620812714099884,0.0,0.0,-0.783958911895752,0.3345118463039398,-0.06733997911214828,0.0,0.0,0.0,-1.3113843202590942,0.3255121111869812,0.6243646740913391,0.4224679172039032,0.6079838275909424,-0.04078633338212967,0.04503442347049713,-0.7916210889816284,0.03298766165971756,0.03915891796350479,0.13310988247394562,-2.5516395568847656,4.3440704345703125,1.0043119192123413,0.3219378590583801,0.6363011598587036,0.42983534932136536,0.07386825233697891,0.13124968111515045,0.17102199792861938,0.32367777824401855,0.6234175562858582,0.42000001668930054,-0.3201325237751007,-0.8999278545379639,-1.2055777311325073,-2.998304605484009,-0.17493367195129395,-0.17741337418556213,-0.18835192918777466,-0.18490833044052124,0.5208489894866943,0.4378136694431305,0.48623499274253845,0.23887008428573608
0.6666666666666666,-0.05405162647366524,-0.011972818523645401,0.0,0.6300526261329651,0.0,0.0,-0.7765524387359619,0.46650683879852295,-0.2872275710105896,0.0,0.0,0.0,2.206308603286743,0.32607319951057434,0.6253447532653809,0.4234303832054138,0.6042088866233826,-0.059656914323568344,0.03853908181190491,-0.7936543822288513,-0.02612767182290554,0.06510736793279648,0.03464606776833534,-2.5554721355438232,-0.08403103798627853,-1.6270408630371094,0.3212001919746399,0.638037919998169,0.4315798282623291,-0.17654719948768616,0.07068522274494171,0.054183557629585266,0.32367777824401855,0.6234175562858582,0.42000001668930054,-0.3641397953033447,-2.999997615814209,-1.2197540998458862,0.9623737335205078,-0.166630357503891,-0.1702120155096054,-0.1801043301820755,-0.1802753508090973,0.35302188992500305,0.3208737373352051,0.4123740792274475,0.23934324085712433
0.6833333333333333,-0.044912464916706085,-0.013070502318441868,0.0,0.6300368905067444,0.0,0.0,-0.7765651941299438,0.5696830749511719,-0.002632946241647005,0.0,0.0,0.0,-1.1605098247528076,0.3252902328968048,0.6262577176094055,0.42274463176727295,0.6023038029670715,-0.04895418509840965,0.01203835103660822,-0.7966735363006592,-0.051062215119600296,0.04816880449652672,-0.06602921336889267,-1.3766132593154907,-3.830949544906616,-0.005573322530835867,0.3201373517513275,0.6397125720977783,0.43533310294151306,-0.033472076058387756,0.12169438600540161,0.2959981858730316,0.32367777824401855,0.6234175562858582,0.42000001668930054,-0.414109468460083,-2.998783588409424,-1.2565548419952393,-3.000016689300537,-0.16160233318805695,-0.1656644642353058,-0.1738794893026352,-0.1762184202671051,0.3063763380050659,0.2853226065635681,0.39327019453048706,0.2982061207294464
0.7,-0.03409385308623314,-0.018099427223205566,0.0,0.6068125367164612,0.0,0.0,-0.7948449850082397,0.6558468341827393,-0.3478139638900757,0.0,0.0,0.0,-4.584436416625977,0.3240843415260315,0.6267668008804321,0.42057377099990845,0.6024459600448608,-0.01113757211714983,-0.00858300644904375,-0.7980358004570007,-0.0668686181306839,-0.011918745003640652,-0.0932723730802536,4.578983783721924,-1.0832500457763672,0.15577161312103271,0.32291388511657715,0.6411949396133423,0.44461488723754883,0.3127416968345642,-0.032001249492168427,0.9275691509246826,0.32367777824401855,0.6234175562858582,0.42000001668930054,-0.4641222357749939,-2.9999728202819824,-1.3065733909606934,-2.999999761581421,-0.1552983820438385,-0.15975210070610046,-0.16626064479351044,-0.16978153586387634,0.22202952206134796,0.2462080866098404,0.3881740868091583,0.3787705600261688
0.7166666666666667,-0.020552530884742737,-0.01903635263442993,0.0,0.5960524082183838,0.0,0.0,-0.8029455542564392,0.8209406137466431,-0.03469541296362877,0.0,0.0,0.0,-0.5793399214744568,0.32374054193496704,0.6262587904930115,0.4200000464916229,0.6028673052787781,3.753515613880154e-07,-3.902748346717999e-08,-0.7978413701057434,0.00017246587958652526,-0.0010506757535040379,-1.733587123453617e-05,-0.0008142415899783373,0.0008729710825718939,0.002413172507658601,0.3308996260166168,0.6438673138618469,0.4683035910129547,0.7232938408851624,0.3709580600261688,1.8814592361450195,0.32367777824401855,0.6234175562858582,0.42000001668930054,-0.5141329169273376,-3.0000009536743164,-1.3565917015075684,-3.0000007152557373,-0.15547558665275574,-0.1593562513589859,-0.16350407898426056,-0.16681161522865295,0.07084421813488007,0.058347079902887344,0.1470937430858612,0.13290221989154816
0.7333333333333333,-0.01046697422862053,-0.01899166963994503,0.0,0.6104328632354736,0.0,0.0,-0.7920680046081543,0.5369549989700317,0.10513099282979965,0.0,0.0,0.0,3.002685546875,0.32374027371406555,0.6262590289115906,0.4200000464916229,0.6028676629066467,3.32462889218732e-07,-3.462775794105255e-06,-0.7978411316871643,0.00012985983630642295,-0.0002846393908839673,-9.19620506465435e-05,0.006428617052733898,-0.001178051228635013,-0.0006094221025705338,0.34555649757385254,0.6508159041404724,0.49371659755706787,0.9485417008399963,0.4059024155139923,1.2525436878204346,0.32367777824401855,0.6234175562858582,0.42000001668930054,-0.5479869246482849,-1.1924991607666016,-1.4066100120544434,-2.9999990463256836,-0.15304380655288696,-0.1569012552499771,-0.1594996601343155,-0.16261877119541168,0.1347539722919464,0.1587270349264145,0.2634475529193878,0.303771436214447
0.75,-0.004839801695197821,-0.021264448761940002,0.0,0.6112528443336487,0.0,0.0,-0.7914353609085083,0.23125600814819336,-0.1810510903596878,0.0,0.0,0.0,-0.8249844908714294,0.32374027371406555,0.6262589693069458,0.4200000464916229,0.6028675436973572,4.2102948327737977e-07,-3.2505606668564724e-06,-0.7978412508964539,0.00014155617100186646,-0.00027514388784766197,-9.583239443600178e-05,0.006106171756982803,-0.0010356659768149257,-0.0006310676108114421,0.357641339302063,0.6541355848312378,0.508527398109436,0.49370381236076355,0.05116698145866394,0.7105729579925537,0.32367777824401855,0.6234175562858582,0.42000001668930054,-0.5854867100715637,-3.0000011920928955,-1.3681477308273315,2.999999523162842,-0.15131688117980957,-0.15441979467868805,-0.1552075296640396,-0.15742045640945435,0.04214340075850487,0.11092030256986618,0.22646048665046692,0.295716792345047
0.7666666666666666,0.0026393209118396044,-0.018254168331623077,0.0,0.6243141293525696,0.0,0.0,-0.7811733484268188,0.4051431715488434,0.2199464589357376,0.0,0.0,0.0,2.8346610069274902,0.32374027371406555,0.6262589693069458,0.4200000464916229,0.6028673052787781,3.572567948140204e-07,-3.4013955882983282e-06,-0.7978414297103882,0.00014203862519934773,-0.0002749946725089103,-9.599444456398487e-05,0.006098420824855566,-0.0010314697865396738,-0.0006322022527456284,0.3653521239757538,0.654823899269104,0.5230560302734375,0.48826056718826294,0.1797088384628296,1.036547303199768,0.32367777824401855,0.6234175562858582,0.42000001668930054,-0.6152002215385437,-0.7373336553573608,-1.3868659734725952,-3.0000009536743164,-0.1555461287498474,-0.15669019520282745,-0.1549755334854126,-0.15531499683856964,-0.1104440987110138,-0.03191890940070152,0.07384145259857178,0.15795636177062988
0.7833333333333333,0.005989557597786188,-0.019707972183823586,0.0,0.6273258328437805,0.0,0.0,-0.7787569165229797,0.1620265245437622,-0.14865486323833466,0.0,0.0,0.0,-0.9904706478118896,0.32374027371406555,0.6262590289115906,0.4200000464916229,0.602867603302002,5.510505616257433e-07,-3.261669689891278e-06,-0.7978412508964539,0.00014177284901961684,-0.0002764915698207915,-9.581656195223331e-05,0.006136351730674505,-0.0010398522717878222,-0.000632810581009835,0.3731752932071686,0.655343234539032,0.5349276065826416,0.421536922454834,-0.19124886393547058,0.5187276601791382,0.32367777824401855,0.6234175562858582,0.42000001668930054,-0.6417155861854553,-2.287724733352661,-1.3492352962493896,3.000000476837158,-0.1549822837114334,-0.154916912317276,-0.15166589617729187,-0.15064074099063873,-0.0549561083316803,0.046538371592760086,0.15835419297218323,0.26621848344802856
0.8,0.01064873207360506,-0.019296303391456604,0.0,0.6378397941589355,0.0,0.0,-0.7701690793037415,0.30220678448677063,0.050992101430892944,0.0,0.0,0.0,2.4180185794830322,0.32374027371406555,0.6262590289115906,0.4200000464916229,0.6028675436973572,2.624084061153553e-07,-3.2442858355352655e-06,-0.7978412508964539,0.00013419479364529252,-0.00027808654704131186,-9.398418478667736e-05,0.006217669695615768,-0.0011370070278644562,-0.0006171790882945061,0.38032346963882446,0.6533570289611816,0.5469697713851929,0.5199348330497742,-0.004705071449279785,0.9279091954231262,0.32367777824401855,0.6234175562858582,0.42000001668930054,-0.6532252430915833,0.6626265645027161,-1.368272066116333,-2.999999761581421,-0.15692609548568726,-0.15515612065792084,-0.15012803673744202,-0.14725899696350098,0.03106565587222576,0.09000265598297119,0.1521821916103363,0.22976958751678467
0.8166666666666667,0.012350775301456451,-0.02139892615377903,0.0,0.6426790952682495,0.0,0.0,-0.7661354541778564,0.035853851586580276,-0.16126513481140137,0.0,0.0,0.0,0.1151047945022583,0.32374027371406555,0.6262589693069458,0.4200000464916229,0.6028673648834229,4.297002647035697e-07,-3.220018015781534e-06,-0.7978413701057434,0.00014167178596835583,-0.0002750842832028866,-9.587127715349197e-05,0.006103768013417721,-0.0010346112539991736,-0.0006313247722573578,0.38815635442733765,0.6512981653213501,0.560273289680481,0.4262261390686035,-0.20810770988464355,0.8166571855545044,0.32367777824401855,0.6234175562858582,0.42000001668930054,-0.660565972328186,-1.3632267713546753,-1.329925775527954,3.0000007152557373,-0.157321959733963,-0.15438634157180786,-0.1482401341199875,-0.14394119381904602,-0.025458810850977898,0.045291222631931305,0.10753341019153595,0.19088506698608398
0.8333333333333334,0.015440680086612701,-0.023270342499017715,0.0,0.6600525379180908,0.0,0.0,-0.7512194514274597,0.23562738299369812,-0.13371004164218903,0.0,0.0,0.0,3.6127068996429443,0.32374027371406555,0.6262589693069458,0.4200000464916229,0.6028673052787781,3.720211623203795e-07,-2.999784783241921e-06,-0.7978413701057434,0.00014436617493629456,-0.0002753605367615819,-9.648315608501434e-05,0.006094693671911955,-0.0010042052017524838,-0.0006376047967933118,0.3938206434249878,0.6471391320228577,0.574271023273468,0.3006230592727661,-0.24552741646766663,0.8994277715682983,0.32367777824401855,0.6234175562858582,0.42000001668930054,-0.6544768810272217,1.8144272565841675,-1.3492766618728638,-3.000000238418579,-0.1591692715883255,-0.15461398661136627,-0.1470758318901062,-0.14102932810783386,-0.06803498417139053,0.026230061426758766,0.1043836697936058,0.2061559110879898
0.85,0.016840465366840363,-0.02798292227089405,0.0,0.662519097328186,0.0,0.0,-0.7490450143814087,0.04137013107538223,-0.3280635178089142,0.0,0.0,0.0,-0.6305678486824036,0.32374027371406555,0.6262590289115906,0.4200000464916229,0.602867603302002,3.890331470302044e-07,-3.386840489838505e-06,-0.7978411912918091,0.00013985780242364854,-0.0002759755006991327,-9.543914347887039e-05,0.006134101189672947,-0.001061958260834217,-0.0006282460526563227,0.39740729331970215,0.6428883671760559,0.5863390564918518,0.1178879588842392,-0.28644242882728577,0.707075834274292,0.32367777824401855,0.6234175562858582,0.42000001668930054,-0.641832709312439,-0.13980020582675934,-1.3109853267669678,3.0,-0.1607343703508377,-0.15480932593345642,-0.14619837701320648,-0.13866613805294037,-0.07102085649967194,-0.0022601268719881773,0.04653061553835869,0.12008117884397507
0.8666666666666667,0.019302375614643097,-0.02987029403448105,0.0,0.6741712689399719,0.0,0.0,-0.7385750412940979,0.2076866328716278,-0.085520900785923,0.0,0.0,0.0,2.5633039474487305,0.32374024391174316,0.6262590289115906,0.4200000464916229,0.602867603302002,2.8465868240346026e-07,-3.190674533470883e-06,-0.7978412508964539,0.00013387983199208975,-0.0002781537768896669,-9.390059858560562e-05,0.006221261341124773,-0.001140757231041789,-0.0006165007362142205,0.3998151421546936,0.6383180618286133,0.5996601581573486,0.2260473072528839,-0.2038719356060028,0.9092168807983398,0.32367777824401855,0.6234175562858582,0.42000001668930054,-0.6194208264350891,2.576124429702759,-1.330674171447754,-3.0,-0.16161571443080902,-0.15482380986213684,-0.1456308364868164,-0.13705335557460785,0.08095838129520416,0.09629258513450623,0.09851773828268051,0.13261422514915466
0.8833333333333333,0.020346231758594513,-0.03468528762459755,0.0,0.6730437874794006,0.0,0.0,-0.7396026253700256,0.02508932538330555,-0.3001779317855835,0.0,0.0,0.0,-1.0511924028396606,0.32374027371406555,0.6262590289115906,0.4200000464916229,0.6028673648834229,4.564086566460901e-07,-3.1518825380771887e-06,-0.7978413701057434,0.00013389933155849576,-0.0002785454271361232,-9.38153825700283e-05,0.006231022998690605,-0.0011403141543269157,-0.0006166346138343215,0.4028419852256775,0.6357423067092896,0.6131532192230225,0.0697745606303215,-0.18134969472885132,0.8378686308860779,0.32367777824401855,0.6234175562858582,0.42000001668930054,-0.5971962213516235,0.27073439955711365,-1.2924319505691528,3.0000011920928955,-0.15878504514694214,-0.15220102667808533,-0.14343343675136566,-0.13476182520389557,0.09852702915668488,0.09151285886764526,0.06897953152656555,0.07350794225931168
0.9,0.019451439380645752,-0.03601611405611038,0.0,0.6818975806236267,0.0,0.0,-0.731447696685791,-0.137962207198143,-0.032499805092811584,0.0,0.0,0.0,2.178650140762329,0.32374027371406555,0.6262589693069458,0.4200000464916229,0.6028673648834229,3.7882205106143374e-07,-2.928522235379205e-06,-0.7978413701057434,0.00014381205255631357,-0.0002757164475042373,-9.630061686038971e-05,0.0061073447577655315,-0.001010651933029294,-0.0006365124718286097,0.40437573194503784,0.6311688423156738,0.6277165412902832,0.16341319680213928,-0.29638755321502686,0.9526673555374146,0.32367777824401855,0.6234175562858582,0.42000001668930054,-0.5707313418388367,2.6751973628997803,-1.3017596006393433,-3.0000007152557373,-0.15746097266674042,-0.1509927362203598,-0.14257420599460602,-0.13382349908351898,0.15107542276382446,0.12841658294200897,0.09363112598657608,0.08408459275960922
