vladlanda/robotic-transformer/data/env_000_episode_0185.csv
sim_time_s,robot_box_x,robot_box_y,robot_box_z,robot_box_quat_w,robot_box_quat_x,robot_box_quat_y,robot_box_quat_z,robot_box_linvel_x,robot_box_linvel_y,robot_box_linvel_z,robot_box_angvel_x,robot_box_angvel_y,robot_box_angvel_z,cube_world_x,cube_world_y,cube_world_z,cube_quat_w,cube_quat_x,cube_quat_y,cube_quat_z,cube_linvel_x,cube_linvel_y,cube_linvel_z,cube_angvel_x,cube_angvel_y,cube_angvel_z,endpoint_world_x,endpoint_world_y,endpoint_world_z,endpoint_linvel_x,endpoint_linvel_y,endpoint_linvel_z,target_cube_world_x,target_cube_world_y,target_cube_world_z,gripper_actual_pos_rad_gp_leftgearjoint,gripper_actual_vel_rad_s_gp_leftgearjoint,gripper_actual_pos_rad_gp_rotatingjoint,gripper_actual_vel_rad_s_gp_rotatingjoint,motor_angle_rad_joint1,motor_angle_rad_joint2,motor_angle_rad_joint3,motor_angle_rad_joint4,motor_speed_rad_s_joint1,motor_speed_rad_s_joint2,motor_speed_rad_s_joint3,motor_speed_rad_s_joint4
0.0,0.0,0.0,0.0,1.0,0.0,0.0,0.0,0.0,0.0,0.0,0.0,0.0,0.0,-0.33670687675476074,0.6265431046485901,0.41999998688697815,1.0,0.0,0.0,0.0,0.0,0.0,0.0,0.0,0.0,0.0,3.42540442943573e-06,-0.005000244826078415,1.313499927520752,0.0,0.0,0.0,0.43641018867492676,0.6916614770889282,0.42000001668930054,-1.5707999467849731,0.0,0.0,0.0,0.0,0.0,0.0,0.0,0.0,0.0,0.0,0.0
0.016666666666666666,0.0028592345770448446,0.0018495717085897923,0.0,0.9999788999557495,0.0,0.0,-0.006493797991424799,0.24376174807548523,0.16666285693645477,0.0,0.0,0.0,-1.320937991142273,-0.3367069959640503,0.6265428066253662,0.41999998688697815,1.0,3.2799905511637917e-06,-8.339794135281409e-07,8.465515577427141e-08,-1.9833774786093272e-05,0.00017983047291636467,-6.132945418357849e-05,0.0009432245860807598,-0.004689525347203016,-0.00031981084612198174,-0.007029006257653236,0.003945299424231052,1.3159258365631104,-0.7987676858901978,1.0324512720108032,0.18089379370212555,0.43641018867492676,0.6916614770889282,0.42000001668930054,-1.5301088094711304,3.000002384185791,-0.045862141996622086,-3.000001907348633,0.0008656008285470307,0.0007919070194475353,0.0007056037429720163,0.0006061018211767077,0.11243876069784164,0.09885494410991669,0.08442575484514236,0.06908141821622849
0.03333333333333333,0.009587840177118778,0.006604501977562904,0.0,0.9994441270828247,0.0,0.0,-0.033337801694869995,0.468177855014801,0.3343161642551422,0.0,0.0,0.0,-4.500756740570068,-0.33670711517333984,0.6265427470207214,0.4200000464916229,1.0,3.3908531804627273e-06,-2.132488134520827e-06,-3.710428941872124e-08,0.0002635785494931042,0.0002693783608265221,-0.00010509602725505829,-0.0017707846127450466,0.004130862653255463,-0.00013547409616876394,-0.026033718138933182,0.026485159993171692,1.3170340061187744,-1.4244344234466553,1.6567623615264893,-0.03427699953317642,0.43641018867492676,0.6916614770889282,0.42000001668930054,-1.4800896644592285,3.000001907348633,-0.0959019586443901,-3.000000476837158,0.0032261470332741737,0.0028595784679055214,0.0024549297522753477,0.002010326599702239,0.184736430644989,0.15805019438266754,0.1298651546239853,0.10007147490978241
0.05,0.019384238868951797,0.013897441327571869,0.0,0.9990248084068298,0.0,0.0,-0.044152311980724335,0.6220203042030334,0.48308154940605164,0.0,0.0,0.0,-0.32443079352378845,-0.33670714497566223,0.6265428066253662,0.4200000464916229,1.0,3.7651284401363228e-06,-2.2118861124909017e-06,5.622759147172474e-09,0.00026530996547080576,0.00026691515813581645,-0.00010440382175147533,-0.00172425655182451,0.004177390597760677,-0.00012948956282343715,-0.05525074154138565,0.05444401875138283,1.3134629726409912,-1.9471571445465088,1.8356661796569824,-0.37217357754707336,0.43641018867492676,0.6916614770889282,0.42000001668930054,-1.4300713539123535,2.999997854232788,-0.1459023803472519,-3.000000238418579,0.006128378678113222,0.0052709500305354595,0.0043404921889305115,0.003333380678668618,0.1841694414615631,0.14624768495559692,0.10638884454965591,0.06446204334497452
0.06666666666666667,0.03186096251010895,0.02330348826944828,0.0,0.9976713061332703,0.0,0.0,-0.06820563226938248,0.8050203919410706,0.6131990551948547,0.0,0.0,0.0,-3.7358274459838867,-0.33670714497566223,0.6265427470207214,0.4200000464916229,0.9999999403953552,3.406779342185473e-06,-2.285526988998754e-06,4.300881926155853e-07,0.00026702668401412666,0.00026791810523718596,-0.00010437914170324802,-0.0017406379338353872,0.004211799707263708,-0.00012850595521740615,-0.0874488577246666,0.0901087075471878,1.3044307231903076,-1.8773219585418701,2.433485507965088,-0.6949915885925293,0.43641018867492676,0.6916614770889282,0.42000001668930054,-1.3800450563430786,3.000002145767212,-0.11239149421453476,2.9999988079071045,0.008437570184469223,0.0067667062394320965,0.004981983453035355,0.0030793931800872087,0.11904118210077286,0.05668853223323822,-0.007822132669389248,-0.07458063215017319
0.08333333333333333,0.04143126308917999,0.031062576919794083,0.0,0.9971372485160828,0.0,0.0,-0.07561296969652176,0.4296271800994873,0.384566992521286,0.0,0.0,0.0,0.19635091722011566,-0.33670714497566223,0.6265427470207214,0.4200000464916229,0.9999999403953552,3.6260987599234795e-06,-2.3352677089860663e-06,3.032194797469856e-07,0.00026614003581926227,0.0002668494707904756,-0.00010405294597148895,-0.001728319562971592,0.004196429159492254,-0.00012790538312401623,-0.12329237163066864,0.12743040919303894,1.2894389629364014,-2.2937092781066895,2.2220940589904785,-1.0543076992034912,0.43641018867492676,0.6916614770889282,0.42000001668930054,-1.3300434350967407,2.999999523162842,-0.14438313245773315,-3.0000009536743164,0.006604474037885666,0.004187780898064375,0.001609150436706841,-0.0011385756079107523,-0.2220001071691513,-0.2627009451389313,-0.3060612380504608,-0.35232654213905334
0.1,0.05308781936764717,0.040155909955501556,0.0,0.995317816734314,0.0,0.0,-0.09665611386299133,0.7148153781890869,0.5783914923667908,0.0,0.0,0.0,-3.2820334434509277,-0.33670714497566223,0.6265427470207214,0.4200000464916229,1.0,3.422146846787655e-06,-2.30855562222132e-06,1.7962889842237928e-07,0.0002668158267624676,0.00026800387422554195,-0.00010440708138048649,-0.001743036205880344,0.00420708442106843,-0.00012890443031210452,-0.15809538960456848,0.17245101928710938,1.2670259475708008,-1.9774014949798584,3.0589544773101807,-1.5245373249053955,0.43641018867492676,0.6916614770889282,0.42000001668930054,-1.2800155878067017,3.0000011920928955,-0.11087020486593246,2.999999761581421,0.0046044993214309216,0.0010888481047004461,-0.0026092107873409986,-0.006499272771179676,-0.2177276909351349,-0.28289180994033813,-0.3494107723236084,-0.4173751473426819
0.11666666666666667,0.061068322509527206,0.04776744544506073,0.0,0.989508867263794,0.0,0.0,-0.1444721817970276,0.5734124183654785,0.3555029332637787,0.0,0.0,0.0,-6.267352104187012,-0.33670714497566223,0.6265428066253662,0.4200000464916229,1.0,3.711535555339651e-06,-2.332714984731865e-06,2.574262509824621e-07,0.0002648575755301863,0.0002663539780769497,-0.00010423525236546993,-0.0017182475421577692,0.004170094151049852,-0.00012915261322632432,-0.19192631542682648,0.22402086853981018,1.237818956375122,-2.106769323348999,3.1214561462402344,-1.8346422910690308,0.43641018867492676,0.6916614770889282,0.42000001668930054,-1.2300225496292114,3.0000016689300537,-0.14291930198669434,-3.0,-0.0013355000410228968,-0.00580767123028636,-0.010472363792359829,-0.015341820195317268,-0.11257147789001465,-0.20554836094379425,-0.29596593976020813,-0.38376253843307495
0.13333333333333333,0.06752987205982208,0.055192071944475174,0.0,0.9858279228210449,0.0,0.0,-0.16775967180728912,0.3018028736114502,0.512526273727417,0.0,0.0,0.0,-1.666611909866333,-0.33670714497566223,0.6265427470207214,0.4200000464916229,0.9999999403953552,3.424748229008401e-06,-2.302055008840398e-06,1.559933053840723e-07,0.00026707007782533765,0.00026811257703229785,-0.0001044438686221838,-0.0017433564644306898,0.004212007392197847,-0.00012876644905190915,-0.23125416040420532,0.2732866406440735,1.202629566192627,-2.2463622093200684,3.11293363571167,-2.35105037689209,0.43641018867492676,0.6916614770889282,0.42000001668930054,-1.1800059080123901,2.9999959468841553,-0.10937253385782242,2.999999761581421,-0.004406071733683348,-0.010414772666990757,-0.016554534435272217,-0.022837147116661072,-0.24037803709506989,-0.3285284638404846,-0.41260331869125366,-0.49259769916534424
0.15,0.07869520783424377,0.059763044118881226,0.0,0.9789906740188599,0.0,0.0,-0.2039049118757248,0.7395966053009033,0.28779566287994385,0.0,0.0,0.0,-5.123482704162598,-0.33670714497566223,0.6265427470207214,0.4200000464916229,1.0,3.7139056985324714e-06,-2.207889565397636e-06,-1.6909206124182674e-07,0.00026353474822826684,0.0002653609844855964,-0.00010421895422041416,-0.00170131993945688,0.004144174512475729,-0.0001296033151447773,-0.264871209859848,0.3295665979385376,1.1605080366134644,-1.7587168216705322,3.6253771781921387,-2.759784698486328,0.43641018867492676,0.6916614770889282,0.42000001668930054,-1.130005121231079,3.000002145767212,-0.14141550660133362,-3.000000238418579,-0.005738941021263599,-0.013512077741324902,-0.021333595737814903,-0.029214441776275635,-0.23539018630981445,-0.31919145584106445,-0.39937663078308105,-0.47591692209243774
0.16666666666666666,0.08561154454946518,0.06293683499097824,0.0,0.96401047706604,0.0,0.0,-0.2658642828464508,0.40180161595344543,0.09919379651546478,0.0,0.0,0.0,-8.572646141052246,-0.33670714497566223,0.6265427470207214,0.4200000464916229,0.9999999403953552,3.638332827904378e-06,-2.278889496665215e-06,2.700760148854897e-07,0.00026682682801038027,0.00026750026154331863,-0.00010410090908408165,-0.0017399408388882875,0.004210108891129494,-0.00012781588884536177,-0.29043012857437134,0.39576447010040283,1.1035935878753662,-1.1973488330841064,4.2873148918151855,-3.841270923614502,0.43641018867492676,0.6916614770889282,0.42000001668930054,-1.0800020694732666,3.0000007152557373,-0.19143448770046234,-2.999999523162842,-0.01661437377333641,-0.024786923080682755,-0.0329878143966198,-0.04123576357960701,-0.6613914370536804,-0.6782999038696289,-0.6934373378753662,-0.7072643041610718
0.18333333333333332,0.08901551365852356,0.06713162362575531,0.0,0.9521552920341492,0.0,0.0,-0.3056146800518036,0.13167545199394226,0.29585105180740356,0.0,0.0,0.0,-3.7225356101989746,-0.33670714497566223,0.6265427470207214,0.4200000464916229,1.0,3.3864146189444e-06,-2.3003433398116613e-06,1.4393724256933638e-07,0.00026674557011574507,0.00026787290698848665,-0.00010437075980007648,-0.0017413449240848422,0.004206009674817324,-0.0001287815102841705,-0.3146795630455017,0.4592670500278473,1.032655119895935,-1.1521682739257812,3.7844042778015137,-4.621986389160156,0.43641018867492676,0.6916614770889282,0.42000001668930054,-1.0299952030181885,2.999999761581421,-0.2414615899324417,-3.0,-0.02986619807779789,-0.03797400742769241,-0.04607335105538368,-0.054193757474422455,-0.836296021938324,-0.8216337561607361,-0.8047224879264832,-0.7862163782119751
0.2,0.09597144275903702,0.07325496524572372,0.0,0.935149073600769,0.0,0.0,-0.3542543947696686,0.3766913115978241,0.48406749963760376,0.0,0.0,0.0,-7.173448085784912,-0.33670714497566223,0.6265428066253662,0.4200000464916229,1.0,3.6755166092916625e-06,-2.326601588720223e-06,2.2114075193258032e-07,0.00026484514819458127,0.0002663140476215631,-0.00010421662591397762,-0.0017176842084154487,0.004169825464487076,-0.00012909446377307177,-0.3328447639942169,0.521543025970459,0.9486868381500244,-0.6944249868392944,3.624382495880127,-5.449733734130859,0.43641018867492676,0.6916614770889282,0.42000001668930054,-0.9799845218658447,3.0000014305114746,-0.2914908528327942,-2.999999761581421,-0.04300711303949356,-0.05090322345495224,-0.05875063315033913,-0.06658913940191269,-1.0000100135803223,-1.0000003576278687,-0.9896541237831116,-0.9272570013999939
0.21666666666666667,0.09972019493579865,0.07753413170576096,0.0,0.9226011037826538,0.0,0.0,-0.385755330324173,0.20835864543914795,0.21684792637825012,0.0,0.0,0.0,-2.8024566173553467,-0.33670714497566223,0.6265427470207214,0.4200000464916229,1.0,3.322310249131988e-06,-2.2080130293034017e-06,2.742734466210095e-07,0.0002666299988050014,0.00026749627431854606,-0.0001042631920427084,-0.001735798199661076,0.0042047807946801186,-0.00012833732762373984,-0.3471224308013916,0.5706794261932373,0.8543422222137451,-0.5466974973678589,2.6128339767456055,-5.897905349731445,0.43641018867492676,0.6916614770889282,0.42000001668930054,-0.929973840713501,2.999990224838257,-0.3415220379829407,-3.000000238418579,-0.05812801793217659,-0.06615544110536575,-0.07415226846933365,-0.08210835605859756,-0.9439929723739624,-0.9420421719551086,-0.9416454434394836,-0.941199541091919
0.23333333333333334,0.09990178793668747,0.08322053402662277,0.0,0.9231436252593994,0.0,0.0,-0.38445529341697693,-0.059694793075323105,0.3667095899581909,0.0,0.0,0.0,1.0665733814239502,-0.33670714497566223,0.6265427470207214,0.4200000464916229,1.0,3.656517264971626e-06,-2.373446250203415e-06,-4.076827906374092e-07,0.0002661174803506583,0.00026726184296421707,-0.00010423432104289532,-0.001733548240736127,0.00419463450089097,-0.0001285507169086486,-0.36183321475982666,0.6018468141555786,0.7569762468338013,-0.8398611545562744,1.3280470371246338,-5.873854637145996,0.43641018867492676,0.6916614770889282,0.42000001668930054,-0.8799631595611572,2.999986410140991,-0.39155369997024536,-3.0,-0.0743231475353241,-0.08238043636083603,-0.09041807055473328,-0.09841793775558472,-0.9905593991279602,-0.9926658868789673,-0.9943109750747681,-0.9956341981887817
0.25,0.10335739701986313,0.08439871668815613,0.0,0.918404221534729,0.0,0.0,-0.395643413066864,0.2343362420797348,0.0187230184674263,0.0,0.0,0.0,-2.0768446922302246,-0.33670714497566223,0.6265428066253662,0.4200000464916229,1.0,3.6305575576989213e-06,-2.2426402210840024e-06,1.1203578509366707e-08,0.000266801449470222,0.00026706093922257423,-0.00010390859097242355,-0.00173426594119519,0.004210660234093666,-0.00012702868843916804,-0.37183716893196106,0.621758222579956,0.6541903018951416,-0.3003745377063751,0.759209394454956,-6.259078025817871,0.43641018867492676,0.6916614770889282,0.42000001668930054,-0.8299533128738403,2.999995708465576,-0.44158509373664856,-2.9999959468841553,-0.08991535753011703,-0.09804006665945053,-0.10605880618095398,-0.11405348032712936,-1.000001311302185,-1.0000007152557373,-1.0000003576278687,-0.9999085664749146
0.26666666666666666,0.10267210006713867,0.08376406878232956,0.0,0.9208934903144836,0.0,0.0,-0.3898143172264099,-0.11856088787317276,-0.06859970092773438,0.0,0.0,0.0,1.5997064113616943,-0.33670711517333984,0.6265427470207214,0.4200000464916229,0.9999999403953552,3.7401903227873845e-06,-2.2363135485647945e-06,4.4995837811256933e-07,0.0002647954097483307,0.0002667296212166548,-0.00010453932918608189,-0.0017188823549076915,0.004166571889072657,-0.00013016258890274912,-0.3748597800731659,0.6246731877326965,0.5580295324325562,0.018696263432502747,-0.30250656604766846,-5.3403778076171875,0.43641018867492676,0.6916614770889282,0.42000001668930054,-0.7799445390701294,2.999999761581421,-0.4916152060031891,-3.000002145767212,-0.10797876119613647,-0.11576689779758453,-0.12353168427944183,-0.13132697343826294,-1.011862874031067,-1.0089462995529175,-1.0067222118377686,-1.0049498081207275
0.2833333333333333,0.09862802177667618,0.08120235055685043,0.0,0.9171532392501831,0.0,0.0,-0.39853471517562866,-0.22693097591400146,-0.22187002003192902,0.0,0.0,0.0,-1.9810364246368408,-0.33670714497566223,0.6265427470207214,0.4200000464916229,1.0,3.3917124255822273e-06,-2.2911347059562104e-06,1.2458362164124992e-07,0.00026677135610952973,0.0002678919117897749,-0.00010437588207423687,-0.0017412183806300163,0.004206273704767227,-0.00012878302368335426,-0.36745935678482056,0.623022735118866,0.4728337228298187,0.7352709770202637,0.09050308167934418,-4.842100143432617,0.43641018867492676,0.6916614770889282,0.42000001668930054,-0.7299360632896423,2.99999737739563,-0.5416430830955505,-3.000000238418579,-0.12485820800065994,-0.1326180249452591,-0.1404043287038803,-0.14824087917804718,-0.8887887001037598,-0.9247872829437256,-0.9596801400184631,-0.9915639758110046
0.3,0.09331357479095459,0.07600047439336777,0.0,0.9199565052986145,0.0,0.0,-0.39202043414115906,-0.3589991629123688,-0.34975773096084595,0.0,0.0,0.0,1.747554898262024,-0.3364233076572418,0.6229327321052551,0.42000487446784973,0.9986493587493896,-0.000999937066808343,6.655068136751652e-05,-0.05194683372974396,0.024327177554368973,-0.3863618075847626,-0.021178623661398888,-1.3218443393707275,0.722494900226593,-11.266547203063965,-0.3612455725669861,0.6262389421463013,0.42629140615463257,0.18445149064064026,-0.08247669786214828,-0.3291492164134979,0.43641018867492676,0.6916614770889282,0.42000001668930054,-0.6799312233924866,2.9999935626983643,-0.5920044183731079,-3.0014946460723877,-0.1380639374256134,-0.14606350660324097,-0.1537119299173355,-0.16123083233833313,-0.3982427716255188,-0.4514002203941345,-0.45369279384613037,-0.43046891689300537
0.31666666666666665,0.08573560416698456,0.06870048493146896,0.0,0.9164645671844482,0.0,0.0,-0.40011584758758545,-0.4984820783138275,-0.4763249456882477,0.0,0.0,0.0,-1.9894614219665527,-0.3358365297317505,0.6174569725990295,0.4200000464916229,0.9929654598236084,6.015799272063305e-07,-3.6287631246523233e-06,-0.11840412020683289,0.0377105176448822,-0.31076496839523315,-3.0944356694817543e-06,7.772438402753323e-05,8.198745490517467e-05,-7.267595291137695,-0.35696810483932495,0.6294314861297607,0.42248743772506714,0.4704686403274536,0.34474942088127136,-0.1848495602607727,0.43641018867492676,0.6916614770889282,0.42000001668930054,-0.6299252510070801,2.999962568283081,-0.6420993804931641,-2.999932050704956,-0.14608022570610046,-0.15404285490512848,-0.16083024442195892,-0.1670154631137848,-0.5131630301475525,-0.47180065512657166,-0.38475242257118225,-0.269172340631485
0.3333333333333333,0.0759565532207489,0.0592331737279892,0.0,0.9193487763404846,0.0,0.0,-0.3934435248374939,-0.6267684698104858,-0.6066163778305054,0.0,0.0,0.0,1.7991878986358643,-0.3308328092098236,0.6245970129966736,0.4200005531311035,0.9917906522750854,-2.786020195344463e-05,1.6765632608439773e-05,-0.12787175178527832,0.3910994529724121,0.5058156847953796,-0.0011707370867952704,0.06403961032629013,-0.023953916504979134,-4.2293267250061035,-0.3495246171951294,0.6355993747711182,0.41929465532302856,0.5504858493804932,0.4881628155708313,-0.16284602880477905,0.43641018867492676,0.6916614770889282,0.42000001668930054,-0.57992023229599,2.999986410140991,-0.6921324133872986,-3.000001907348633,-0.15550440549850464,-0.16210108995437622,-0.16685731709003448,-0.17057685554027557,-0.5707544088363647,-0.46210744976997375,-0.31893718242645264,-0.1518602818250656
0.35,0.06871253252029419,0.04737941175699234,0.0,0.9161037802696228,0.0,0.0,-0.4009411633014679,-0.35456016659736633,-0.7567164897918701,0.0,0.0,0.0,-1.8936847448349,-0.32451826333999634,0.6326862573623657,0.4199996888637543,0.9884995222091675,2.316122299816925e-05,-8.256198270828463e-06,-0.15122373402118683,0.46039190888404846,0.5737095475196838,-0.0005285110091790557,-0.022419419139623642,0.026290973648428917,-2.846867561340332,-0.3385641574859619,0.6417796611785889,0.4186234772205353,0.7718760371208191,0.40714818239212036,0.05753104016184807,0.43641018867492676,0.6916614770889282,0.42000001668930054,-0.5298894047737122,3.0000007152557373,-0.7421597838401794,-2.9999725818634033,-0.1660633385181427,-0.17023149132728577,-0.1720307618379593,-0.1724051684141159,-0.6038828492164612,-0.4436485171318054,-0.2557080388069153,-0.04593442752957344
0.36666666666666664,0.059614915400743484,0.03388800472021103,0.0,0.9005990624427795,0.0,0.0,-0.43465080857276917,-0.5607566833496094,-0.8652571439743042,0.0,0.0,0.0,-5.49465799331665,-0.31292036175727844,0.6464149355888367,0.4205152988433838,0.9834601879119873,-0.012792377732694149,0.002158039016649127,-0.18065884709358215,0.9647985696792603,1.0985203981399536,0.07448480278253555,-3.5498063564300537,1.208992600440979,-5.197667121887207,-0.3219450116157532,0.6524007320404053,0.41997259855270386,1.2120232582092285,0.9515242576599121,0.1094597652554512,0.43641018867492676,0.6916614770889282,0.42000001668930054,-0.4798376262187958,2.999999761581421,-0.7921660542488098,-2.999972343444824,-0.1773029863834381,-0.17843492329120636,-0.1767708659172058,-0.17332397401332855,-0.5231801271438599,-0.36448052525520325,-0.1803937405347824,0.027502551674842834
0.3833333333333333,0.053683504462242126,0.0172259621322155,0.0,0.8703191876411438,0.0,0.0,-0.4924880564212799,-0.29684826731681824,-1.0540862083435059,0.0,0.0,0.0,-8.62396240234375,-0.28671208024024963,0.6739258766174316,0.4215538203716278,0.9733572602272034,-0.023010259494185448,-0.014419878832995892,-0.22767992317676544,2.1991639137268066,2.2100772857666016,0.08146313577890396,-0.43261033296585083,-6.5077948570251465,-6.5039567947387695,-0.29006004333496094,0.6759309768676758,0.4220283031463623,2.730272054672241,1.9085698127746582,0.24323266744613647,0.43641018867492676,0.6916614770889282,0.42000001668930054,-0.42980778217315674,2.999999761581421,-0.8421823978424072,-2.9998679161071777,-0.18595899641513824,-0.1841447651386261,-0.17915326356887817,-0.17201226949691772,-0.5298483967781067,-0.33335748314857483,-0.11944915354251862,0.11165809631347656
0.4,0.05027807503938675,0.004734914284199476,0.0,0.8225826025009155,0.0,0.0,-0.5686456561088562,-0.13262209296226501,-0.757192075252533,0.0,0.0,0.0,-11.508939743041992,-0.21408380568027496,0.7103899717330933,0.4254460334777832,0.9565613269805908,0.03540860116481781,-0.06093800440430641,-0.2828834354877472,5.514525890350342,2.691026449203491,0.44433820247650146,1.2038013935089111,-3.912776231765747,-5.367149829864502,-0.2174627184867859,0.71400386095047,0.42550671100616455,5.469184875488281,2.7065422534942627,0.340928316116333,0.43641018867492676,0.6916614770889282,0.42000001668930054,-0.38989004492759705,1.3616317510604858,-0.8053744435310364,3.0001649856567383,-0.19993305206298828,-0.19510599970817566,-0.1852153092622757,-0.17326584458351135,-0.5401824116706848,-0.5309587717056274,-0.2975409924983978,-0.07431191205978394
0.4166666666666667,0.050339873880147934,-0.005211770534515381,0.0,0.7831346988677979,0.0,0.0,-0.6218520998954773,0.055864717811346054,-0.5362290740013123,0.0,0.0,0.0,-6.820614337921143,-0.12363704293966293,0.7526326179504395,0.4331079423427582,0.924727201461792,0.08161637932062149,-0.09786057472229004,-0.35866647958755493,5.92605447769165,1.736589789390564,0.5124324560165405,9.929344177246094,-14.677563667297363,15.002559661865234,-0.1262633353471756,0.7574983835220337,0.43316590785980225,5.576711654663086,2.2584829330444336,0.5451990962028503,0.43641018867492676,0.6916614770889282,0.42000001668930054,-0.374919593334198,0.6237050294876099,-0.8246570825576782,-2.999999761581421,-0.2096123844385147,-0.20414157211780548,-0.19082194566726685,-0.17575733363628387,-0.5552020072937012,-0.4955941438674927,-0.3133683502674103,-0.155356764793396
0.43333333333333335,0.04766901955008507,-0.009817801415920258,0.0,0.7645134925842285,0.0,0.0,-0.644607663154602,-0.13639162480831146,-0.24297301471233368,0.0,0.0,0.0,-2.179089307785034,-0.029233556240797043,0.7816177010536194,0.44285836815834045,0.8632989525794983,0.09796558320522308,-0.11474481970071793,-0.4816130995750427,5.724330425262451,0.7798950672149658,0.5410946607589722,3.668036460876465,-12.671759605407715,14.143791198730469,-0.03270697593688965,0.7870238423347473,0.44155412912368774,5.766294479370117,1.446601152420044,0.6132974624633789,0.43641018867492676,0.6916614770889282,0.42000001668930054,-0.3619368374347687,0.8612567186355591,-0.8746811151504517,-3.000002384185791,-0.22183261811733246,-0.2143809199333191,-0.19775696098804474,-0.1799219846725464,-0.6066716313362122,-0.5071702003479004,-0.35825568437576294,-0.2385919839143753
0.45,0.04935314506292343,-0.019492443650960922,0.0,0.7375587821006775,0.0,0.0,-0.6752829551696777,0.06330221146345139,-0.6309882998466492,0.0,0.0,0.0,-5.622588634490967,0.06493079662322998,0.7955612540245056,0.4488207697868347,0.8228728175163269,0.09523709863424301,-0.12297964841127396,-0.546521782875061,5.618657112121582,-0.5144894123077393,0.28450876474380493,-3.4449825286865234,-22.20405387878418,15.28878116607666,0.06282263249158859,0.8023977279663086,0.44811367988586426,5.733980178833008,0.29846587777137756,0.5000668168067932,0.43641018867492676,0.6916614770889282,0.42000001668930054,-0.3455294966697693,0.9383419752120972,-0.9247052073478699,-3.00000262260437,-0.22684291005134583,-0.21797674894332886,-0.19943304359912872,-0.17999401688575745,-0.47007015347480774,-0.30447086691856384,-0.13313452899456024,0.01684628799557686
0.4666666666666667,0.05173744261264801,-0.025250067934393883,0.0,0.723304033279419,0.0,0.0,-0.6905297040939331,0.2273985594511032,-0.29148897528648376,0.0,0.0,0.0,-1.3708651065826416,0.15488891303539276,0.7941172122955322,0.455079585313797,0.7667060494422913,0.0816117376089096,-0.13300862908363342,-0.6227440237998962,5.04721212387085,-1.154995322227478,0.59694504737854,12.881019592285156,-6.862726211547852,25.700082778930664,0.15366651117801666,0.8013634085655212,0.4550297260284424,5.354371070861816,-0.34894686937332153,0.42666906118392944,0.43641018867492676,0.6916614770889282,0.42000001668930054,-0.329634428024292,0.8322128653526306,-0.9747292399406433,-3.0000011920928955,-0.23659279942512512,-0.22467108070850372,-0.2034749984741211,-0.18186569213867188,-0.4911460876464844,-0.33679795265197754,-0.22682052850723267,-0.14589399099349976
0.48333333333333334,0.05344952270388603,-0.027606986463069916,0.0,0.7024145722389221,0.0,0.0,-0.7117680907249451,0.06589685380458832,-0.09136306494474411,0.0,0.0,0.0,-4.396566390991211,0.23410212993621826,0.7831164002418518,0.45695891976356506,0.7277495861053467,0.06655099242925644,-0.1281071901321411,-0.6704773306846619,4.09304666519165,-1.6378087997436523,0.13927911221981049,7.987033843994141,-6.055825710296631,22.631420135498047,0.23370890319347382,0.7900850176811218,0.457567036151886,4.467820167541504,-1.0144803524017334,-0.007552165538072586,0.43641018867492676,0.6916614770889282,0.42000001668930054,-0.3175455629825592,0.6333482265472412,-1.0247523784637451,-3.000001907348633,-0.23999664187431335,-0.2296120971441269,-0.20730198919773102,-0.1849084049463272,-0.006359195336699486,-0.2506493628025055,-0.2063549906015396,-0.17897751927375793
0.5,0.05623584985733032,-0.026699144393205643,0.0,0.6955941319465637,0.0,0.0,-0.7184349894523621,0.20117825269699097,0.10780475288629532,0.0,0.0,0.0,-0.15901558101177216,0.2991006672382355,0.7640146613121033,0.4521200954914093,0.6805096864700317,0.03403710573911667,-0.12719732522964478,-0.7208111882209778,3.2930331230163574,-1.6326311826705933,-0.5089078545570374,-11.596427917480469,6.639437198638916,-0.8075956106185913,0.2984510064125061,0.7704410552978516,0.4536747336387634,3.4410717487335205,-1.3496053218841553,-0.36482155323028564,0.43641018867492676,0.6916614770889282,0.42000001668930054,-0.305488646030426,0.7629136443138123,-1.0747745037078857,-3.0,-0.23946359753608704,-0.23262515664100647,-0.21018198132514954,-0.18787553906440735,0.08589602261781693,-0.08961543440818787,-0.11590636521577835,-0.15357913076877594
0.5166666666666666,0.06206031143665314,-0.03087197244167328,0.0,0.678529679775238,0.0,0.0,-0.7345729470252991,0.3369253873825073,-0.25496646761894226,0.0,0.0,0.0,-3.584714889526367,0.3520771265029907,0.7448009848594666,0.4393758773803711,0.6532371044158936,0.0046662697568535805,-0.11378607898950577,-0.7485399842262268,2.489985466003418,-1.7225689888000488,-0.968675971031189,-7.539005279541016,3.709911346435547,19.85895538330078,0.3516784608364105,0.7508976459503174,0.4410948157310486,2.951860189437866,-1.2285525798797607,-0.8859090209007263,0.43641018867492676,0.6916614770889282,0.42000001668930054,-0.29208609461784363,0.732593834400177,-1.1247966289520264,-3.0000007152557373,-0.2318839281797409,-0.22860783338546753,-0.2081475853919983,-0.18785621225833893,0.35350653529167175,0.20160019397735596,0.08893971145153046,-0.02927863411605358
0.5333333333333333,0.06505807489156723,-0.03075752779841423,0.0,0.6738604307174683,0.0,0.0,-0.7388586401939392,0.08644039928913116,0.0323779471218586,0.0,0.0,0.0,0.0959271490573883,0.3925943970680237,0.7234615087509155,0.42468249797821045,0.6267317533493042,-0.021836617961525917,-0.08510051667690277,-0.774266242980957,1.3990387916564941,-1.471535563468933,-0.08889608085155487,4.266015529632568,-0.26089027523994446,21.601531982421875,0.3922696113586426,0.7285475134849548,0.4264681339263916,1.851186752319336,-1.1272835731506348,-0.18062756955623627,0.43641018867492676,0.6916614770889282,0.42000001668930054,-0.2783043384552002,0.7650676369667053,-1.174889087677002,-2.9929487705230713,-0.2286316156387329,-0.22689811885356903,-0.20811010897159576,-0.18962006270885468,0.22400610148906708,0.1435188353061676,0.025355998426675797,-0.09211859107017517
0.55,0.06919851154088974,-0.031142093241214752,0.0,0.6580918431282043,0.0,0.0,-0.7529376149177551,0.2687176465988159,-0.0734364315867424,0.0,0.0,0.0,-3.343390703201294,0.41583117842674255,0.7109575271606445,0.4226662516593933,0.6258527040481567,-0.021824778988957405,-0.04605958238244057,-0.7782741189002991,0.8016416430473328,-0.9606389999389648,-0.03226686269044876,4.130239963531494,-5.5464186668396,20.67218017578125,0.41508397459983826,0.7151473164558411,0.4238434433937073,1.1089682579040527,-0.64534592628479,-0.15534111857414246,0.43641018867492676,0.6916614770889282,0.42000001668930054,-0.2658412456512451,0.6121363639831543,-1.2249338626861572,-2.9972782135009766,-0.22333970665931702,-0.2231004536151886,-0.20689129829406738,-0.1908721923828125,0.3362685441970825,0.25923848152160645,0.09249532222747803,-0.06606210023164749
0.5666666666666667,0.07508485019207001,-0.02980000339448452,0.0,0.6566187143325806,0.0,0.0,-0.7542226910591125,0.3871936798095703,0.14241734147071838,0.0,0.0,0.0,0.6721234321594238,0.4286498427391052,0.702459990978241,0.42158612608909607,0.6225070953369141,-0.03201545774936676,-0.024125808849930763,-0.7815866470336914,0.24109750986099243,-0.554551899433136,0.287962406873703,14.056035041809082,20.287492752075195,9.964921951293945,0.42742061614990234,0.7059239149093628,0.42304491996765137,0.506375253200531,-0.4049564599990845,0.12081610411405563,0.43641018867492676,0.6916614770889282,0.42000001668930054,-0.2552243173122406,0.5509018898010254,-1.2749303579330444,-2.995035409927368,-0.21776509284973145,-0.2187304049730301,-0.20544755458831787,-0.19212238490581512,0.3507458567619324,0.28701546788215637,0.10680565983057022,-0.05724995210766792
0.5833333333333334,0.08187226206064224,-0.03162546455860138,0.0,0.6444168090820312,0.0,0.0,-0.7646744251251221,0.4486835300922394,-0.15119631588459015,0.0,0.0,0.0,-2.8029141426086426,0.433333158493042,0.6991188526153564,0.4209190011024475,0.6442452073097229,-0.017612557858228683,-0.015248076058924198,-0.7644640207290649,0.0713692307472229,-0.2099032700061798,-0.03826606646180153,2.108274221420288,-0.6221584677696228,5.125527381896973,0.4312538206577301,0.7025559544563293,0.4220707416534424,0.05172378569841385,-0.14361651241779327,-0.0654064267873764,0.43641018867492676,0.6916614770889282,0.42000001668930054,-0.26508069038391113,-1.4300236701965332,-1.2367838621139526,2.99981689453125,-0.2087440937757492,-0.21117886900901794,-0.2014261782169342,-0.1912965327501297,0.5156815052032471,0.44712409377098083,0.2470259964466095,0.06536003947257996
0.6,0.08689220994710922,-0.030540434643626213,0.0,0.6450361013412476,0.0,0.0,-0.7641521096229553,0.19224481284618378,0.0696815475821495,0.0,0.0,0.0,0.9716544151306152,0.4341813027858734,0.6963690519332886,0.42000046372413635,0.6650168895721436,4.067520876560593e-06,-4.212145995552419e-06,-0.7468281984329224,0.035976801067590714,-0.12032996118068695,-4.6188346459530294e-05,-0.0022594451438635588,0.0022185295820236206,2.190730571746826,0.43127065896987915,0.6992796659469604,0.42340177297592163,-0.02907385304570198,-0.09697932004928589,0.14255297183990479,0.43641018867492676,0.6916614770889282,0.42000001668930054,-0.31187090277671814,-3.0000014305114746,-1.2574043273925781,-2.9999890327453613,-0.20306190848350525,-0.20597144961357117,-0.19895602762699127,-0.1913170963525772,0.40490368008613586,0.3641154170036316,0.18842725455760956,0.028678342700004578
0.6166666666666667,0.09207093715667725,-0.02676558308303356,0.0,0.6424524784088135,0.0,0.0,-0.7663255333900452,0.3275212347507477,0.26261892914772034,0.0,0.0,0.0,-1.0662106275558472,0.43447914719581604,0.6953069567680359,0.4200000464916229,0.6707211136817932,-1.2784366276719084e-07,1.682060997154622e-07,-0.7417095303535461,0.011874780990183353,-0.04399386793375015,-2.1015293896198273e-06,-9.24529813346453e-05,3.064214615733363e-05,0.5484175682067871,0.4307899475097656,0.7004216313362122,0.4262007474899292,0.0026605837047100067,0.15847733616828918,0.2053627073764801,0.43641018867492676,0.6916614770889282,0.42000001668930054,-0.36185958981513977,-2.999593734741211,-1.3073608875274658,-2.9986114501953125,-0.1954466551542282,-0.1994459182024002,-0.19560295343399048,-0.19076533615589142,0.5778810381889343,0.48847490549087524,0.28165143728256226,0.10030968487262726
0.6333333333333333,0.09892547875642776,-0.026926526799798012,0.0,0.6530254483222961,0.0,0.0,-0.7573359608650208,0.44693422317504883,-0.011410740204155445,0.0,0.0,0.0,2.4312994480133057,0.434493750333786,0.6952487826347351,0.4200000464916229,0.6709046959877014,1.5158254882408073e-06,1.7564791505719768e-06,-0.7415434718132019,3.763941640499979e-05,0.00020049174781888723,-9.175622835755348e-05,-0.0031095717567950487,0.0010992783354595304,-0.00029727283981628716,0.4304105043411255,0.7028769254684448,0.42971235513687134,-0.09992831945419312,0.05149540305137634,0.22702600061893463,0.43641018867492676,0.6916614770889282,0.42000001668930054,-0.41187167167663574,-2.9988620281219482,-1.3573729991912842,-2.999746799468994,-0.18512806296348572,-0.19027788937091827,-0.1894276887178421,-0.18718279898166656,0.38979217410087585,0.3880294859409332,0.2790463864803314,0.18705756962299347
0.65,0.10738617181777954,-0.02960500493645668,0.0,0.6505842804908752,0.0,0.0,-0.7594340443611145,0.5372387170791626,-0.22089461982250214,0.0,0.0,0.0,-1.3575952053070068,0.43449336290359497,0.6952492594718933,0.4200000464916229,0.6709047555923462,4.5979663809703197e-07,-3.8224216041271575e-06,-0.7415434718132019,0.00023866043193265796,-0.00030756686464883387,-0.00010799174197018147,0.00557152833789587,0.0005239396705292165,-0.00033072722726501524,0.43011605739593506,0.7044158577919006,0.4340699315071106,0.05566146969795227,0.057734258472919464,0.2910076677799225,0.43641018867492676,0.6916614770889282,0.42000001668930054,-0.46186909079551697,-2.99985408782959,-1.40737783908844,-2.9998934268951416,-0.18005426228046417,-0.1846306324005127,-0.18474964797496796,-0.18313845992088318,0.2683447301387787,0.3298720121383667,0.3105033338069916,0.312209814786911
0.6666666666666666,0.11774223297834396,-0.03594433143734932,0.0,0.6270845532417297,0.0,0.0,-0.7789511680603027,0.6623486876487732,-0.4481191337108612,0.0,0.0,0.0,-4.553777694702148,0.43449339270591736,0.6952491998672485,0.4200000464916229,0.6709043979644775,8.499523005411902e-07,-4.069815986440517e-06,-0.7415437698364258,0.00023701725876890123,-0.00028090993873775005,-0.00010586855933070183,0.004967639222741127,0.0006620489875786006,-0.0003432377998251468,0.4330421984195709,0.7062315344810486,0.4464300870895386,0.3467259705066681,0.13875967264175415,1.2898907661437988,0.43641018867492676,0.6916614770889282,0.42000001668930054,-0.5118815898895264,-2.999962329864502,-1.4573960304260254,-2.9999985694885254,-0.17808955907821655,-0.1813163161277771,-0.18128950893878937,-0.17923033237457275,0.03498353064060211,0.12636029720306396,0.1532314121723175,0.19539611041545868
0.6833333333333333,0.13259321451187134,-0.036974478513002396,0.0,0.6164045333862305,0.0,0.0,-0.7874296307563782,0.8075857162475586,-0.02639390155673027,0.0,0.0,0.0,-0.6287960410118103,0.43449339270591736,0.6952491998672485,0.4200000464916229,0.6709046363830566,8.632065942038025e-07,-4.02540808863705e-06,-0.7415435314178467,0.00023619848070666194,-0.0002797443885356188,-0.00010594679042696953,0.004942682571709156,0.0006472335662692785,-0.0003429581120144576,0.43914979696273804,0.7087481617927551,0.47552934288978577,0.43353235721588135,0.3940359950065613,2.1439595222473145,0.43641018867492676,0.6916614770889282,0.42000001668930054,-0.5618865489959717,-2.9999959468841553,-1.5074143409729004,-2.999990463256836,-0.18393123149871826,-0.1847413331270218,-0.1832970678806305,-0.17969642579555511,-0.16980521380901337,-0.09335541725158691,-0.06167011708021164,-0.015749724581837654
0.7,0.14265963435173035,-0.036178458482027054,0.0,0.6298182606697083,0.0,0.0,-0.7767425179481506,0.5371914505958557,0.02442891150712967,0.0,0.0,0.0,2.869683027267456,0.43449339270591736,0.6952491998672485,0.4200000464916229,0.6709046363830566,8.59142176068417e-07,-4.009302301710704e-06,-0.7415435314178467,0.00023645181499887258,-0.00027981336461380124,-0.00010599684901535511,0.004943322855979204,0.0006510914536193013,-0.0003434212412685156,0.4507829546928406,0.7135213613510132,0.5061007142066956,0.8625815510749817,0.2235063761472702,1.5959815979003906,0.43641018867492676,0.6916614770889282,0.42000001668930054,-0.5972867608070374,-1.3631062507629395,-1.5574326515197754,-2.999999761581421,-0.1848563849925995,-0.18452374637126923,-0.18247570097446442,-0.1780034899711609,0.08317463099956512,0.13929465413093567,0.17279569804668427,0.22297270596027374
0.7166666666666667,0.14830534160137177,-0.04035228490829468,0.0,0.630059540271759,0.0,0.0,-0.7765467762947083,0.2972849905490875,-0.2821657359600067,0.0,0.0,0.0,-0.9899311065673828,0.43449339270591736,0.6952491998672485,0.4200000464916229,0.6709046363830566,8.818448691272351e-07,-3.990211098425789e-06,-0.7415435314178467,0.00023635962861590087,-0.0002797605702653527,-0.00010597938671708107,0.0049424730241298676,0.000649871421046555,-0.0003432874218560755,0.465107798576355,0.7152685523033142,0.5262741446495056,0.8237566947937012,-0.1030462235212326,0.9740719199180603,0.43641018867492676,0.6916614770889282,0.42000001668930054,-0.6394976377487183,-2.9999992847442627,-1.537830114364624,3.000000476837158,-0.1810404360294342,-0.17999571561813354,-0.17761310935020447,-0.17266692221164703,0.13803084194660187,0.20867390930652618,0.25364041328430176,0.295502245426178
0.7333333333333333,0.15612806379795074,-0.03950132802128792,0.0,0.6412339806556702,0.0,0.0,-0.7673454284667969,0.4276614189147949,0.08793844282627106,0.0,0.0,0.0,2.5499582290649414,0.43449339270591736,0.6952491998672485,0.4200000464916229,0.6709046363830566,8.667420843266882e-07,-3.96840459870873e-06,-0.7415435314178467,0.00023623702873010188,-0.00027971676900051534,-0.00010594865307211876,0.0049421400763094425,0.0006483336910605431,-0.00034308279282413423,0.47693949937820435,0.7122268676757812,0.5442712306976318,0.6342765092849731,-0.06578731536865234,1.202003002166748,0.43641018867492676,0.6916614770889282,0.42000001668930054,-0.6691386699676514,-0.731885552406311,-1.5531859397888184,-2.999999761581421,-0.18277807533740997,-0.17997632920742035,-0.17626871168613434,-0.1701912134885788,0.031800806522369385,0.09246712923049927,0.134220689535141,0.16625870764255524
0.75,0.1599879264831543,-0.04225727543234825,0.0,0.6400579810142517,0.0,0.0,-0.7683266401290894,0.16261444985866547,-0.21600206196308136,0.0,0.0,0.0,-1.0701903104782104,0.43449339270591736,0.6952491998672485,0.4200000464916229,0.6709046363830566,8.484080353809986e-07,-3.944761829188792e-06,-0.7415435314178467,0.00023622579465154558,-0.0002797406050376594,-0.00010593910701572895,0.00494258152320981,0.0006481062155216932,-0.00034303541178815067,0.4890074133872986,0.7089760303497314,0.5584840774536133,0.7637147307395935,-0.4063970744609833,0.6652200818061829,0.43641018867492676,0.6916614770889282,0.42000001668930054,-0.6927731037139893,-1.9765857458114624,-1.5143120288848877,3.000000476837158,-0.18099793791770935,-0.17713865637779236,-0.17259642481803894,-0.1658523678779602,0.03704787790775299,0.12765169143676758,0.20722851157188416,0.2734720706939697
0.7666666666666666,0.1649017333984375,-0.041680388152599335,0.0,0.6486006379127502,0.0,0.0,-0.7611289024353027,0.3303007185459137,0.055140722543001175,0.0,0.0,0.0,2.2790520191192627,0.43449339270591736,0.6952491998672485,0.4200000464916229,0.6709046363830566,8.677000096213305e-07,-4.114620878681308e-06,-0.7415435314178467,0.00023684465850237757,-0.0002799512876663357,-0.00010610604658722878,0.004944640677422285,0.0006557171000167727,-0.0003440981963649392,0.5003727078437805,0.7018714547157288,0.5716627836227417,0.6574382781982422,-0.34973517060279846,0.9478644132614136,0.43641018867492676,0.6916614770889282,0.42000001668930054,-0.7034132480621338,0.4937456250190735,-1.5301640033721924,-3.000000476837158,-0.1819579154253006,-0.17661333084106445,-0.17070960998535156,-0.16283762454986572,0.05972050130367279,0.10919380933046341,0.15726472437381744,0.19484685361385345
0.7833333333333333,0.16723863780498505,-0.04512563720345497,0.0,0.6462547183036804,0.0,0.0,-0.7631217837333679,0.08139577507972717,-0.24528232216835022,0.0,0.0,0.0,-1.19778311252594,0.43449339270591736,0.6952491998672485,0.4200000464916229,0.6709046363830566,8.767660233388597e-07,-4.10569100495195e-06,-0.7415435314178467,0.000236699910601601,-0.00027986778877675533,-0.00010606902651488781,0.004943485837429762,0.0006542100454680622,-0.00034387450432404876,0.5119431018829346,0.6967051029205322,0.5854818820953369,0.667237401008606,-0.39558035135269165,0.821029782295227,0.43641018867492676,0.6916614770889282,0.42000001668930054,-0.706135630607605,-0.7129003405570984,-1.4913605451583862,3.000000238418579,-0.1785137802362442,-0.17281293869018555,-0.16651630401611328,-0.15839821100234985,0.1308670938014984,0.16715113818645477,0.2051142454147339,0.23136623203754425
0.8,0.17106296122074127,-0.04431253671646118,0.0,0.6556941270828247,0.0,0.0,-0.755026638507843,0.2632049322128296,0.052835866808891296,0.0,0.0,0.0,2.1768858432769775,0.43449339270591736,0.6952491998672485,0.4200000464916229,0.6709046363830566,8.861638889356982e-07,-4.096782504348084e-06,-0.7415435314178467,0.00023669916845392436,-0.00027986636268906295,-0.00010606786236166954,0.004943485371768475,0.0006542373448610306,-0.00034387255436740816,0.5217528343200684,0.6890741586685181,0.5999987125396729,0.6089383959770203,-0.3583918511867523,0.9491254091262817,0.43641018867492676,0.6916614770889282,0.42000001668930054,-0.6893293261528015,2.4410204887390137,-1.5076744556427002,-3.0,-0.17881695926189423,-0.17224101722240448,-0.16504445672035217,-0.15625673532485962,0.1382766216993332,0.14419488608837128,0.15736281871795654,0.16228492558002472
0.8166666666666667,0.1722164750099182,-0.04404555261135101,0.0,0.6518134474754333,0.0,0.0,-0.758379340171814,0.01940770633518696,0.0651121437549591,0.0,0.0,0.0,-1.5287879705429077,0.43449339270591736,0.6952491998672485,0.4200000464916229,0.6709046363830566,8.61166938648239e-07,-4.0870168049877975e-06,-0.7415435314178467,0.00023668112407904118,-0.0002798836212605238,-0.00010605668649077415,0.004943902604281902,0.0006540074828080833,-0.00034381478326395154,0.5310028195381165,0.6858181953430176,0.6154775619506836,0.460038423538208,-0.1616801917552948,1.0186057090759277,0.43641018867492676,0.6916614770889282,0.42000001668930054,-0.6704559326171875,0.019375961273908615,-1.4689363241195679,2.999999761581421,-0.17370173335075378,-0.16792921721935272,-0.16133761405944824,-0.1532040685415268,0.3207441568374634,0.2600904703140259,0.21097618341445923,0.15880821645259857
0.8333333333333334,0.17102204263210297,-0.04108618572354317,0.0,0.6593027710914612,0.0,0.0,-0.7518775463104248,-0.13080336153507233,0.2479902058839798,0.0,0.0,0.0,1.9384690523147583,0.43449339270591736,0.6952491998672485,0.4200000464916229,0.6709046363830566,8.70580947776034e-07,-4.0781087591312826e-06,-0.7415435314178467,0.00023667937784921378,-0.0002798869973048568,-0.00010605598799884319,0.004943923093378544,0.0006538476445712149,-0.0003438109124545008,0.5380345582962036,0.6815395355224609,0.6320027112960815,0.3895195424556732,-0.21849733591079712,1.014529824256897,0.43641018867492676,0.6916614770889282,0.42000001668930054,-0.6447086334228516,2.8045356273651123,-1.4857066869735718,-3.0,-0.16856183111667633,-0.1637214869260788,-0.15789538621902466,-0.15060222148895264,0.34023839235305786,0.27355334162712097,0.21671053767204285,0.15587589144706726
0.85,0.16748076677322388,-0.03969741240143776,0.0,0.6545446515083313,0.0,0.0,-0.7560233473777771,-0.2567306458950043,-0.013838057406246662,0.0,0.0,0.0,-1.5800390243530273,0.43449339270591736,0.6952491998672485,0.4200000464916229,0.6709046363830566,8.72880548286048e-07,-4.0655645534570795e-06,-0.7415435314178467,0.00023658687132410705,-0.00027983039035461843,-0.00010603922419250011,0.004943036008626223,0.0006527180084958673,-0.00034367956686764956,0.540416955947876,0.6807095408439636,0.646802544593811,-0.08497518301010132,0.03058338165283203,0.8857224583625793,0.43641018867492676,0.6916614770889282,0.42000001668930054,-0.6109513640403748,1.3457492589950562,-1.4470287561416626,2.999999761581421,-0.16355715692043304,-0.15984076261520386,-0.15499387681484222,-0.14875313639640808,0.28781363368034363,0.22289665043354034,0.16442403197288513,0.10030635446310043
0.8666666666666667,0.16172195971012115,-0.03570478409528732,0.0,0.6619393825531006,0.0,0.0,-0.749557375907898,-0.37711241841316223,0.273592084646225,0.0,0.0,0.0,2.0050547122955322,0.43449339270591736,0.6952491998672485,0.4200000464916229,0.6709046363830566,8.75358182383934e-07,-4.0530235310143325e-06,-0.7415435314178467,0.00023658660938963294,-0.000279828644124791,-0.00010603852570056915,0.004943042062222958,0.0006527809309773147,-0.00034368105116300285,0.5381753444671631,0.6777464151382446,0.6613932847976685,-0.09419700503349304,-0.22241660952568054,0.932506799697876,0.43641018867492676,0.6916614770889282,0.42000001668930054,-0.5714597702026367,2.9999921321868896,-1.3969837427139282,3.000000238418579,-0.16163751482963562,-0.15833204984664917,-0.15383528172969818,-0.14808137714862823,0.16411398351192474,0.13074544072151184,0.10234470665454865,0.06830684840679169
