vladlanda/robotic-transformer/data/env_000_episode_0155.csv
sim_time_s,robot_box_x,robot_box_y,robot_box_z,robot_box_quat_w,robot_box_quat_x,robot_box_quat_y,robot_box_quat_z,robot_box_linvel_x,robot_box_linvel_y,robot_box_linvel_z,robot_box_angvel_x,robot_box_angvel_y,robot_box_angvel_z,cube_world_x,cube_world_y,cube_world_z,cube_quat_w,cube_quat_x,cube_quat_y,cube_quat_z,cube_linvel_x,cube_linvel_y,cube_linvel_z,cube_angvel_x,cube_angvel_y,cube_angvel_z,endpoint_world_x,endpoint_world_y,endpoint_world_z,endpoint_linvel_x,endpoint_linvel_y,endpoint_linvel_z,target_cube_world_x,target_cube_world_y,target_cube_world_z,gripper_actual_pos_rad_gp_leftgearjoint,gripper_actual_vel_rad_s_gp_leftgearjoint,gripper_actual_pos_rad_gp_rotatingjoint,gripper_actual_vel_rad_s_gp_rotatingjoint,motor_angle_rad_joint1,motor_angle_rad_joint2,motor_angle_rad_joint3,motor_angle_rad_joint4,motor_speed_rad_s_joint1,motor_speed_rad_s_joint2,motor_speed_rad_s_joint3,motor_speed_rad_s_joint4
0.0,0.0,0.0,0.0,1.0,0.0,0.0,0.0,0.0,0.0,0.0,0.0,0.0,0.0,-0.358406662940979,0.7221779823303223,0.41999998688697815,1.0,0.0,0.0,0.0,0.0,0.0,0.0,0.0,0.0,0.0,3.42540442943573e-06,-0.005000244826078415,1.313499927520752,0.0,0.0,0.0,0.47727641463279724,0.6474959850311279,0.42000001668930054,-1.5707999467849731,0.0,0.0,0.0,0.0,0.0,0.0,0.0,0.0,0.0,0.0,0.0
0.016666666666666666,0.002892273711040616,0.0019567254930734634,0.0,0.999964714050293,0.0,0.0,0.008397608064115047,0.2436676323413849,0.1736920326948166,0.0,0.0,0.0,1.6780450344085693,-0.35840678215026855,0.7221776843070984,0.41999998688697815,1.0,3.279964630564791e-06,-8.339746386809566e-07,8.465587342243452e-08,-1.9833529222523794e-05,0.00017983045836444944,-6.132945418357849e-05,0.0009432713268324733,-0.004689474124461412,-0.00031981561915017664,-0.007068749517202377,0.003671389538794756,1.3159406185150146,-0.8101932406425476,1.0022644996643066,0.18136192858219147,0.47727641463279724,0.6474959850311279,0.42000001668930054,-1.5301094055175781,3.000002145767212,-0.045857809484004974,-3.0000007152557373,0.000876454112585634,0.000802499707788229,0.0007159092929214239,0.0006158552714623511,0.11191979050636292,0.09846913814544678,0.08417201787233353,0.0689651370048523
0.03333333333333333,0.008752120658755302,0.006569202523678541,0.0,0.9999999403953552,0.0,0.0,-0.00041945857810787857,0.4176575541496277,0.3206639587879181,0.0,0.0,0.0,-1.8746391534805298,-0.3584069013595581,0.7221776247024536,0.4200000464916229,1.0,3.3908354453160428e-06,-2.1324485715012997e-06,-3.710144014235084e-08,0.00026357831666246057,0.00026937946677207947,-0.00010509486310184002,-0.0017707672668620944,0.004130808170884848,-0.000135478752781637,-0.026146184653043747,0.027162276208400726,1.3166091442108154,-1.443648338317871,1.6894290447235107,-0.06943171471357346,0.47727641463279724,0.6474959850311279,0.42000001668930054,-1.4800901412963867,3.0000007152557373,-0.0958976224064827,-3.0000007152557373,0.0028421126771718264,0.0024766193237155676,0.002073124749585986,0.0016293958760797977,0.16018833220005035,0.1320716291666031,0.1024853065609932,0.07131952047348022
0.05,0.018370645120739937,0.0138041777536273,0.0,0.9993703961372375,0.0,0.0,-0.035479817539453506,0.640449583530426,0.48070797324180603,0.0,0.0,0.0,-5.06567907333374,-0.3584069311618805,0.7221776843070984,0.4200000464916229,1.0,3.7651125239790417e-06,-2.211879063906963e-06,5.622505128144439e-09,0.000265308452071622,0.0002669153327587992,-0.00010440615005791187,-0.001724260626360774,0.004177352879196405,-0.00012949221127200872,-0.05302301421761513,0.059517186135053635,1.31251859664917,-1.7621994018554688,2.1511728763580322,-0.40830403566360474,0.47727641463279724,0.6474959850311279,0.42000001668930054,-1.4300718307495117,2.9999988079071045,-0.14592425525188446,-3.000000238418579,0.005673721898347139,0.004749585874378681,0.0037532448768615723,0.002681053476408124,0.19097715616226196,0.14797765016555786,0.10307633876800537,0.056175488978624344
0.06666666666666667,0.031011957675218582,0.02349899336695671,0.0,0.9986879825592041,0.0,0.0,-0.05120858922600746,0.7930193543434143,0.6282800436019897,0.0,0.0,0.0,-0.8857882618904114,-0.3584069311618805,0.7221776247024536,0.4200000464916229,0.9999999403953552,3.4066883927152958e-06,-2.285532218593289e-06,4.300976286231162e-07,0.0002670241810847074,0.00026791772688739,-0.00010438147000968456,-0.00174069800414145,0.00421178387477994,-0.00012850729399360716,-0.08561380207538605,0.09453535079956055,1.303584098815918,-1.9791615009307861,2.2353439331054688,-0.6582865118980408,0.47727641463279724,0.6474959850311279,0.42000001668930054,-1.380047082901001,2.9999959468841553,-0.11260008811950684,3.0,0.007958478294312954,0.006210478022694588,0.00434973044320941,0.0023728422820568085,0.10972001403570175,0.05037956312298775,-0.011112673208117485,-0.07484299689531326
0.08333333333333333,0.03734918311238289,0.03744647651910782,0.0,0.9966272711753845,0.0,0.0,-0.08206162601709366,0.24438881874084473,0.9190438389778137,0.0,0.0,0.0,-4.664887428283691,-0.3584069311618805,0.7221776247024536,0.4200000464916229,1.0,3.6972253383282805e-06,-2.188838152505923e-06,-2.632317830375541e-07,0.00026389729464426637,0.00026586424792185426,-0.00010433932766318321,-0.0017081560799852014,0.004150177352130413,-0.0001299097202718258,-0.1129089891910553,0.13498136401176453,1.2911779880523682,-1.3097877502441406,2.6662704944610596,-0.7594237327575684,0.47727641463279724,0.6474959850311279,0.42000001668930054,-1.3300470113754272,3.0000007152557373,-0.1446305513381958,-3.000000238418579,0.003321710042655468,0.0007343169418163598,-0.0020202542655169964,-0.004949657712131739,-0.4109285771846771,-0.47484034299850464,-0.5415164828300476,-0.6112234592437744
0.1,0.047684792429208755,0.052790138870477676,0.0,0.990179717540741,0.0,0.0,-0.13980042934417725,0.7438309192657471,0.9306322336196899,0.0,0.0,0.0,-7.796098232269287,-0.3584069311618805,0.7221776247024536,0.4200000464916229,0.9999999403953552,3.620277084337431e-06,-2.2651142899121623e-06,1.7461523782458244e-07,0.0002667682128958404,0.0002674072457011789,-0.0001040794886648655,-0.0017386354738846421,0.004209177568554878,-0.00012775110371876508,-0.137312650680542,0.18112121522426605,1.2783293724060059,-1.580047845840454,2.9450931549072266,-0.8572893738746643,0.47727641463279724,0.6474959850311279,0.42000001668930054,-1.2800439596176147,3.0000007152557373,-0.18648110330104828,-2.064603090286255,0.0015886876499280334,-0.0026285643689334393,-0.007011280860751867,-0.011567553505301476,-0.03877602517604828,-0.1381891369819641,-0.236515611410141,-0.3337271511554718
0.11666666666666667,0.056791216135025024,0.0652257576584816,0.0,0.9840312600135803,0.0,0.0,-0.17799563705921173,0.5424261689186096,0.7222983241081238,0.0,0.0,0.0,-3.332395553588867,-0.3584069311618805,0.7221776247024536,0.4200000464916229,1.0,3.798308171099052e-06,-2.262737325509079e-06,-1.5021218757738097e-07,0.0002637405996210873,0.000265660259174183,-0.00010428996756672859,-0.0017054072814062238,0.00414755754172802,-0.000129801788716577,-0.16812129318714142,0.22870855033397675,1.2614964246749878,-1.8124452829360962,3.125016689300537,-1.0747849941253662,0.47727641463279724,0.6474959850311279,0.42000001668930054,-1.230029821395874,2.999793529510498,-0.14798405766487122,3.0000011920928955,-0.0006035726983100176,-0.006419985555112362,-0.012371829710900784,-0.018467102199792862,-0.12040004134178162,-0.22333770990371704,-0.32348617911338806,-0.420707643032074
0.13333333333333333,0.06332989782094955,0.07504675537347794,0.0,0.974337637424469,0.0,0.0,-0.2250915765762329,0.3411887288093567,0.5219640731811523,0.0,0.0,0.0,-6.603799819946289,-0.3584069311618805,0.7221776843070984,0.4200000464916229,0.9999999403953552,3.55037650479062e-06,-2.229731535408064e-06,2.929058098288806e-07,0.0002670335816219449,0.0002677934826351702,-0.00010417238809168339,-0.0017440745141357183,0.004213663749396801,-0.0001280020660487935,-0.19584596157073975,0.2840123176574707,1.2417852878570557,-1.4432177543640137,3.63366436958313,-1.3021509647369385,0.47727641463279724,0.6474959850311279,0.42000001668930054,-1.1801397800445557,2.9690585136413574,-0.17979584634304047,-3.0000014305114746,-0.004010672215372324,-0.011507519520819187,-0.019085010513663292,-0.02674906514585018,-0.26037293672561646,-0.35664233565330505,-0.4493996500968933,-0.5385307669639587
0.15,0.06602398306131363,0.08534786105155945,0.0,0.9680627584457397,0.0,0.0,-0.2507078945636749,0.08449048548936844,0.6582443714141846,0.0,0.0,0.0,-2.083192825317383,-0.3584069013595581,0.7221776247024536,0.4200000464916229,1.0,3.332105279696407e-06,-2.1019018277002033e-06,1.3129569254033413e-07,0.0002673073613550514,0.00026859616627916694,-0.00010459683835506439,-0.0017497853841632605,0.004215648397803307,-0.00012928245996590704,-0.22740185260772705,0.3434566855430603,1.2128963470458984,-1.92201566696167,3.768860340118408,-2.126875162124634,0.47727641463279724,0.6474959850311279,0.42000001668930054,-1.1482409238815308,1.0048493146896362,-0.14606963098049164,3.000000476837158,-0.009496046230196953,-0.01827419549226761,-0.02705923654139042,-0.03585602715611458,-0.38827893137931824,-0.44275543093681335,-0.49293532967567444,-0.5388670563697815
0.16666666666666666,0.071637824177742,0.09669622778892517,0.0,0.9573237299919128,0.0,0.0,-0.28901779651641846,0.3391854166984558,0.7728074789047241,0.0,0.0,0.0,-5.6255202293396,-0.3584069311618805,0.7221776247024536,0.4200000464916229,1.0,3.737186489161104e-06,-2.233031182186096e-06,-1.876633604069866e-07,0.0002643294574227184,0.00026626838371157646,-0.00010445830412209034,-0.0017118845134973526,0.004157516174018383,-0.00013001053594052792,-0.25859493017196655,0.40961694717407227,1.1733371019363403,-1.6941895484924316,4.198394298553467,-2.669687509536743,0.47727641463279724,0.6474959850311279,0.42000001668930054,-1.1041791439056396,3.000002145767212,-0.17789722979068756,-3.0000007152557373,-0.01519573014229536,-0.024822162464261055,-0.03438485786318779,-0.043890658766031265,-0.511352002620697,-0.5326204895973206,-0.5512444972991943,-0.5674650073051453
0.18333333333333332,0.07421824336051941,0.10634924471378326,0.0,0.9510782361030579,0.0,0.0,-0.30895012617111206,0.11782236397266388,0.4983159601688385,0.0,0.0,0.0,-1.4243037700653076,-0.3584069311618805,0.7221776843070984,0.4200000464916229,0.9999999403953552,3.660124548332533e-06,-2.302147322552628e-06,2.52845069326213e-07,0.0002669083187356591,0.0002676025324035436,-0.00010412652045488358,-0.0017412957968190312,0.004211513791233301,-0.0001278699201066047,-0.289413183927536,0.47727590799331665,1.1193780899047852,-1.6387100219726562,4.204296112060547,-3.6808888912200928,0.47727641463279724,0.6474959850311279,0.42000001668930054,-1.055465579032898,2.819852590560913,-0.22792555391788483,-3.000000238418579,-0.026104645803570747,-0.03544193133711815,-0.044694527983665466,-0.053879234939813614,-0.6760751605033875,-0.6436247229576111,-0.6102749109268188,-0.5766720771789551
0.2,0.07837875187397003,0.1168237179517746,0.0,0.9399210214614868,0.0,0.0,-0.34139204025268555,0.30131667852401733,0.6457919478416443,0.0,0.0,0.0,-4.952159881591797,-0.3584069311618805,0.7221776247024536,0.4200000464916229,1.0,3.5906891753256787e-06,-2.300306277902564e-06,1.3872099202671961e-07,0.0002665471110958606,0.00026732077822089195,-0.00010423827916383743,-0.0017326769884675741,0.004203524440526962,-0.00012820553092751652,-0.31495845317840576,0.5468566417694092,1.0492291450500488,-1.3345839977264404,4.130252838134766,-4.615253448486328,0.47727641463279724,0.6474959850311279,0.42000001668930054,-1.0055012702941895,3.000001907348633,-0.2779519557952881,-3.000000238418579,-0.03989706560969353,-0.04818713292479515,-0.056410856544971466,-0.06460050493478775,-0.890510082244873,-0.8151741623878479,-0.741578996181488,-0.670612633228302
0.21666666666666667,0.0806119441986084,0.1277645379304886,0.0,0.934597373008728,0.0,0.0,-0.35570740699768066,0.06033462658524513,0.6941207051277161,0.0,0.0,0.0,-0.826038658618927,-0.3584069311618805,0.7221776843070984,0.4200000464916229,1.0,3.6067892779101385e-06,-2.2609169718634803e-06,1.961327633637211e-08,0.00026447148411534727,0.0002655840653460473,-0.00010396447032690048,-0.0017088138265535235,0.0041642808355391026,-0.00012832574429921806,-0.3386816382408142,0.608525812625885,0.9658536911010742,-1.2068594694137573,3.4303808212280273,-5.328799247741699,0.47727641463279724,0.6474959850311279,0.42000001668930054,-0.9554923176765442,2.999997854232788,-0.3279792368412018,-2.9999988079071045,-0.05592447891831398,-0.06282564997673035,-0.06954716891050339,-0.0762900784611702,-0.9795976281166077,-0.9025965929031372,-0.8086587190628052,-0.7181251049041748
0.23333333333333334,0.08009113371372223,0.13613666594028473,0.0,0.9240899682044983,0.0,0.0,-0.38217493891716003,-0.12769222259521484,0.4239758849143982,0.0,0.0,0.0,-4.216116905212402,-0.3584069013595581,0.7221776247024536,0.4200000464916229,0.9999999403953552,3.742087073987932e-06,-2.227409822808113e-06,4.589062712057057e-07,0.00026475198683328927,0.00026671282830648124,-0.0001045342069119215,-0.0017188993515446782,0.0041658165864646435,-0.00013019447214901447,-0.3563624918460846,0.6624050140380859,0.8704229593276978,-0.8150092363357544,2.8937602043151855,-6.008119583129883,0.47727641463279724,0.6474959850311279,0.42000001668930054,-0.905483067035675,2.999997138977051,-0.37800946831703186,-3.0000016689300537,-0.07183396816253662,-0.07825680822134018,-0.08421865850687027,-0.08931047469377518,-0.9747864007949829,-0.9666537642478943,-0.9609220027923584,-0.8539997935295105
0.25,0.08050259947776794,0.14542347192764282,0.0,0.9202739000320435,0.0,0.0,-0.39127472043037415,0.06375540792942047,0.5786105394363403,0.0,0.0,0.0,-0.1685055047273636,-0.3584069311618805,0.7221776247024536,0.4200000464916229,1.0,3.394239683984779e-06,-2.282012019350077e-06,1.3362385686832567e-07,0.0002667936496436596,0.0002679401950445026,-0.00010439474135637283,-0.0017418229253962636,0.00420664856210351,-0.00012884348689112812,-0.3716021776199341,0.6995865106582642,0.7677749395370483,-0.7916803359985352,1.664308786392212,-6.253892421722412,0.47727641463279724,0.6474959850311279,0.42000001668930054,-0.8554733395576477,2.9999945163726807,-0.4280407130718231,-2.999999523162842,-0.08814316242933273,-0.09454242140054703,-0.1004742905497551,-0.105323426425457,-0.9729499816894531,-0.9699162840843201,-0.9675450921058655,-0.9668229818344116
0.26666666666666666,0.0791143998503685,0.15214325487613678,0.0,0.9114977717399597,0.0,0.0,-0.4113050401210785,-0.14048166573047638,0.34658733010292053,0.0,0.0,0.0,-3.509559392929077,-0.3584069311618805,0.7221776843070984,0.4200000464916229,1.0,3.6832336718362058e-06,-2.31005606110557e-06,2.1009948625305697e-07,0.0002647906949277967,0.00026625851751305163,-0.00010421290062367916,-0.0017168435733765364,0.004168881103396416,-0.00012909741781186312,-0.3805120587348938,0.7215964794158936,0.6582843065261841,-0.24727201461791992,0.8473721146583557,-6.652144432067871,0.47727641463279724,0.6474959850311279,0.42000001668930054,-0.805464506149292,2.9999942779541016,-0.4780718684196472,-2.9999985694885254,-0.10494180023670197,-0.11127522587776184,-0.11715336889028549,-0.12192258983850479,-0.9937671422958374,-0.994845449924469,-0.9956924319267273,-0.9963839054107666
0.2833333333333333,0.0747794583439827,0.1554289013147354,0.0,0.9103595018386841,0.0,0.0,-0.4138182997703552,-0.2926756739616394,0.146542027592659,0.0,0.0,0.0,0.6422300338745117,-0.3584069311618805,0.7221776247024536,0.4200000464916229,1.0,3.3067506137740565e-06,-2.2124868337414227e-06,2.625712340886821e-07,0.0002666061627678573,0.0002674513962119818,-0.00010424340143799782,-0.0017352820141240954,0.004204321652650833,-0.00012828712351620197,-0.3844606280326843,0.7259677052497864,0.5512771606445312,-0.05150241032242775,-0.32835498452186584,-6.189665794372559,0.47727641463279724,0.6474959850311279,0.42000001668930054,-0.755455732345581,3.0000007152557373,-0.5281020402908325,-2.9999990463256836,-0.12220990657806396,-0.12838034331798553,-0.1341376006603241,-0.1388138085603714,-1.0015130043029785,-1.0011423826217651,-1.0008574724197388,-1.0006308555603027
0.3,0.06818781048059464,0.15595683455467224,0.0,0.9037739038467407,0.0,0.0,-0.42801016569137573,-0.44270309805870056,-0.016671521589159966,0.0,0.0,0.0,-2.7164835929870605,-0.3584069311618805,0.7221776247024536,0.4200000464916229,1.0,3.6407882362254895e-06,-2.3779157345416024e-06,-4.194236282728525e-07,0.0002660918398760259,0.00026721289032138884,-0.00010421476326882839,-0.0017330169212073088,0.004194211680442095,-0.00012849405175074935,-0.37907135486602783,0.7217988967895508,0.45187699794769287,0.6711374521255493,-0.2841159999370575,-5.528021812438965,0.47727641463279724,0.6474959850311279,0.42000001668930054,-0.7054478526115417,3.000002384185791,-0.5781297087669373,-2.999998092651367,-0.13994331657886505,-0.14588826894760132,-0.15147434175014496,-0.15601412951946259,-1.0206046104431152,-1.015624761581421,-1.0118063688278198,-1.0087389945983887
0.31666666666666665,0.059552617371082306,0.15381385385990143,0.0,0.9046884775161743,0.0,0.0,-0.42607370018959045,-0.5555753111839294,-0.17104004323482513,0.0,0.0,0.0,1.1509208679199219,-0.3585507273674011,0.7214391231536865,0.42040762305259705,0.9999302625656128,0.007400902453809977,-0.002724584424868226,-0.008791559375822544,0.020644759759306908,0.00514153391122818,0.043751899152994156,1.4094016551971436,-0.8290171027183533,0.6025808453559875,-0.37421077489852905,0.7221851348876953,0.41885906457901,0.26561930775642395,0.35230550169944763,-0.15279167890548706,0.47727641463279724,0.6474959850311279,0.42000001668930054,-0.6555929183959961,2.957568883895874,-0.6286829113960266,-2.817312002182007,-0.14855554699897766,-0.15497565269470215,-0.16083528101444244,-0.16539807617664337,-0.2321532517671585,-0.24561847746372223,-0.24030472338199615,-0.2132347822189331
0.3333333333333333,0.04876534268260002,0.14910662174224854,0.0,0.8991993069648743,0.0,0.0,-0.43753933906555176,-0.693916380405426,-0.32498106360435486,0.0,0.0,0.0,-2.4131946563720703,-0.3577728569507599,0.7229130268096924,0.4201366603374481,0.9996775984764099,0.0034154634922742844,-4.8500562115805224e-05,-0.02515665628015995,0.16740617156028748,0.34019631147384644,0.017919113859534264,0.9166173934936523,-0.010065277107059956,-9.038935661315918,-0.3706391453742981,0.729611337184906,0.4227687418460846,0.3498196005821228,0.4471626281738281,-0.16298428177833557,0.47727641463279724,0.6474959850311279,0.42000001668930054,-0.6055804491043091,2.9999544620513916,-0.6787524819374084,-2.999995231628418,-0.15224598348140717,-0.15855160355567932,-0.16398203372955322,-0.1677936464548111,-0.30356743931770325,-0.2712647318840027,-0.22569237649440765,-0.16861480474472046
0.35,0.035843249410390854,0.141941636800766,0.0,0.9009101986885071,0.0,0.0,-0.4340054988861084,-0.813133955001831,-0.47097912430763245,0.0,0.0,0.0,1.398443579673767,-0.35334163904190063,0.7310526967048645,0.42000019550323486,0.9901753067970276,3.499227204883937e-06,1.7239744920516387e-06,-0.13983164727687836,0.3089364469051361,0.5427550077438354,-0.0003208565176464617,0.015580742619931698,-0.001984501024708152,-15.309771537780762,-0.3637998402118683,0.7392581701278687,0.4198593497276306,0.518588662147522,0.6704086661338806,-0.15910623967647552,0.47727641463279724,0.6474959850311279,0.42000001668930054,-0.5555752515792847,2.999987840652466,-0.728783130645752,-2.9999985694885254,-0.15902872383594513,-0.16407036781311035,-0.16803380846977234,-0.17024658620357513,-0.4315636456012726,-0.332518994808197,-0.22228974103927612,-0.10671935230493546
0.36666666666666664,0.026393193751573563,0.13174158334732056,0.0,0.8961074948310852,0.0,0.0,-0.44383710622787476,-0.4857015013694763,-0.6623661518096924,0.0,0.0,0.0,-2.2009382247924805,-0.34731924533843994,0.7408409714698792,0.42003363370895386,0.9874140024185181,-0.0008427784196101129,0.00012830609921365976,-0.15815438330173492,0.39033329486846924,0.6140502095222473,0.009601929225027561,-0.4553484320640564,0.15620602667331696,3.2330222129821777,-0.3544793128967285,0.7473036050796509,0.42018842697143555,0.7167980670928955,0.525773823261261,0.046270113438367844,0.47727641463279724,0.6474959850311279,0.42000001668930054,-0.5055127739906311,3.0000011920928955,-0.7787824869155884,-2.9999747276306152,-0.16626454889774323,-0.16933855414390564,-0.17110750079154968,-0.17102253437042236,-0.4126167297363281,-0.2833315432071686,-0.14108185470104218,0.00586101645603776
0.3833333333333333,0.015238655731081963,0.119820736348629,0.0,0.8797934055328369,0.0,0.0,-0.4753562808036804,-0.7424498200416565,-0.7407938838005066,0.0,0.0,0.0,-5.476179599761963,-0.33587539196014404,0.7562562823295593,0.4201492667198181,0.9810561537742615,-0.0033858430106192827,0.0002177670830860734,-0.19369342923164368,0.9146027565002441,1.1385231018066406,0.03707979992032051,-1.8637171983718872,0.9344602227210999,-4.708655834197998,-0.3393127918243408,0.7590304017066956,0.42135632038116455,1.143317461013794,0.9515085220336914,0.09400446712970734,0.47727641463279724,0.6474959850311279,0.42000001668930054,-0.4554483890533447,2.9999401569366455,-0.8287878632545471,-2.9999778270721436,-0.1747281849384308,-0.17522460222244263,-0.17416702210903168,-0.17116452753543854,-0.47196313738822937,-0.31854647397994995,-0.14836062490940094,0.02880849875509739
0.4,0.006567466072738171,0.10489355027675629,0.0,0.8469276428222656,0.0,0.0,-0.5317081212997437,-0.4651874303817749,-0.9447627663612366,0.0,0.0,0.0,-8.62875747680664,-0.3065117299556732,0.7796582579612732,0.422158420085907,0.9695295095443726,-0.02554040402173996,-0.012050004675984383,-0.2433411329984665,2.798954725265503,1.3289834260940552,-0.09749272465705872,39.433563232421875,-21.46424102783203,6.917948246002197,-0.3078591227531433,0.781159520149231,0.4231986999511719,2.7631115913391113,1.7948087453842163,0.27672168612480164,0.47727641463279724,0.6474959850311279,0.42000001668930054,-0.4077126085758209,2.0753095149993896,-0.8788025379180908,-3.00000262260437,-0.1825311779975891,-0.18008501827716827,-0.17578059434890747,-0.1694093644618988,-0.5193498730659485,-0.309874027967453,-0.0840304046869278,0.1461666375398636
0.4166666666666667,0.0013181754620745778,0.08720829337835312,0.0,0.7968162298202515,0.0,0.0,-0.6042217016220093,-0.24671518802642822,-1.1577703952789307,0.0,0.0,0.0,-11.27751350402832,-0.23502177000045776,0.8143931031227112,0.42497289180755615,0.9504219889640808,0.04439583048224449,-0.06281813234090805,-0.3012986481189728,5.730119228363037,2.0110104084014893,0.33128926157951355,7.911231994628906,-9.626175880432129,17.671049118041992,-0.23638412356376648,0.8160949945449829,0.42628049850463867,5.418001174926758,2.510742425918579,0.3767105042934418,0.47727641463279724,0.6474959850311279,0.42000001668930054,-0.384747177362442,1.029199481010437,-0.8418315052986145,2.9999892711639404,-0.19376078248023987,-0.18707501888275146,-0.1785024255514145,-0.16805040836334229,-0.6481142044067383,-0.4041208028793335,-0.16703595221042633,0.05089285969734192
0.43333333333333335,-0.0070555745624005795,0.07511533796787262,0.0,0.7538307905197144,0.0,0.0,-0.6570686101913452,-0.6132282614707947,-0.5830537676811218,0.0,0.0,0.0,-7.106953144073486,-0.14304938912391663,0.8483650088310242,0.4338204860687256,0.908760130405426,0.0777350440621376,-0.09122170507907867,-0.39973852038383484,5.815422534942627,1.2283353805541992,0.598896324634552,7.33491849899292,-11.662014961242676,1.272186279296875,-0.14528630673885345,0.8509959578514099,0.4346267580986023,5.699354648590088,1.6625611782073975,0.6175351142883301,0.47727641463279724,0.6474959850311279,0.42000001668930054,-0.3678077161312103,1.0526844263076782,-0.8684255480766296,-2.9999992847442627,-0.2095889151096344,-0.20001806318759918,-0.18639975786209106,-0.1715419441461563,-0.8919439911842346,-0.8403135538101196,-0.5383109450340271,-0.280948281288147
0.45,-0.011564630083739758,0.06061750650405884,0.0,0.7314483523368835,0.0,0.0,-0.6818968653678894,-0.2455398440361023,-0.851760983467102,0.0,0.0,0.0,-2.733180284500122,-0.04484996944665909,0.8658220171928406,0.44428303837776184,0.8680340051651001,0.06606213003396988,-0.09452757239341736,-0.4829258322715759,6.173899173736572,-0.34901759028434753,0.7070702314376831,-1.9622633457183838,-10.146207809448242,16.114076614379883,-0.04602346569299698,0.8700690269470215,0.4446682333946228,6.183452606201172,0.45258235931396484,0.7822325229644775,0.47727641463279724,0.6474959850311279,0.42000001668930054,-0.34850388765335083,1.0942755937576294,-0.9184495210647583,-3.0000016689300537,-0.2226441204547882,-0.2112019807100296,-0.19236525893211365,-0.17297840118408203,-0.9455809593200684,-0.7452796697616577,-0.38888996839523315,-0.07359299808740616
0.4666666666666667,-0.0134190134704113,0.05068986862897873,0.0,0.701911449432373,0.0,0.0,-0.7122641801834106,-0.036352287977933884,-0.6654964089393616,0.0,0.0,0.0,-5.597516059875488,0.05758706480264664,0.8591811656951904,0.4540930390357971,0.7896909117698669,0.07243664562702179,-0.1096189022064209,-0.5992702841758728,5.914102554321289,-1.702075481414795,0.5617572665214539,-16.731948852539062,7.479524612426758,9.814967155456543,0.055026162415742874,0.8655217885971069,0.4547120928764343,6.197317123413086,-0.7329234480857849,0.5938805341720581,0.47727641463279724,0.6474959850311279,0.42000001668930054,-0.3318004906177521,0.75869220495224,-0.9684735536575317,-2.9995670318603516,-0.23611117899417877,-0.22475112974643707,-0.20041339099407196,-0.17582543194293976,-0.4645107388496399,-0.5388619303703308,-0.3116307556629181,-0.06867968291044235
0.48333333333333334,-0.011786705814301968,0.042906735092401505,0.0,0.6886231303215027,0.0,0.0,-0.725119411945343,0.1847638487815857,-0.39610669016838074,0.0,0.0,0.0,-1.088036060333252,0.15571628510951996,0.8395991921424866,0.4607565104961395,0.7138102650642395,0.03879270702600479,-0.11199384182691574,-0.6902371048927307,5.2988810539245605,-2.2194392681121826,0.6495161056518555,14.376593589782715,-2.348756790161133,28.417678833007812,0.15344886481761932,0.8471395969390869,0.46215730905532837,5.856734275817871,-1.532118797302246,0.3627013564109802,0.47727641463279724,0.6474959850311279,0.42000001668930054,-0.3212999403476715,0.4412805438041687,-1.0184968709945679,-3.000000476837158,-0.23996052145957947,-0.23322279751300812,-0.20595809817314148,-0.17828698456287384,-0.03220893070101738,-0.43122902512550354,-0.30665063858032227,-0.17955656349658966
0.5,-0.010712860152125359,0.038508765399456024,0.0,0.6678547859191895,0.0,0.0,-0.7442916035652161,0.015792373567819595,-0.1836480051279068,0.0,0.0,0.0,-4.2719573974609375,0.24433407187461853,0.8070502281188965,0.46302568912506104,0.6345170140266418,0.02322213724255562,-0.09400931000709534,-0.7668187618255615,4.536243438720703,-2.73016357421875,0.03519302234053612,-3.3596279621124268,1.2914743423461914,16.673583984375,0.24197793006896973,0.8166998624801636,0.46517235040664673,5.060153007507324,-2.2061586380004883,0.06499850004911423,0.47727641463279724,0.6474959850311279,0.42000001668930054,-0.31374648213386536,0.4476499855518341,-1.0685189962387085,-3.000002145767212,-0.2397385537624359,-0.23844097554683685,-0.20998956263065338,-0.18107253313064575,0.033490657806396484,-0.21078191697597504,-0.17860044538974762,-0.1453835517168045
0.5166666666666666,-0.007760879583656788,0.02946091815829277,0.0,0.6595967411994934,0.0,0.0,-0.7516196966171265,0.23579511046409607,-0.696826159954071,0.0,0.0,0.0,-0.38720589876174927,0.31843143701553345,0.7698818445205688,0.46054789423942566,0.5879730582237244,0.0001836888986872509,-0.07560081034898758,-0.8053398132324219,3.609814405441284,-2.7594704627990723,-0.24429477751255035,-4.281919956207275,3.73299503326416,12.338689804077148,0.31758031249046326,0.7788874506950378,0.46334168314933777,4.1474199295043945,-2.423558235168457,-0.19855618476867676,0.47727641463279724,0.6474959850311279,0.42000001668930054,-0.3036990761756897,0.6696638464927673,-1.1185411214828491,-3.0000009536743164,-0.23374810814857483,-0.2361021339893341,-0.20848141610622406,-0.18038222193717957,0.5071821212768555,0.3287079334259033,0.22551777958869934,0.12068898975849152
0.5333333333333333,-0.0027975498232990503,0.022679099813103676,0.0,0.6415736079216003,0.0,0.0,-0.7670614719390869,0.33294451236724854,-0.29923442006111145,0.0,0.0,0.0,-3.7703938484191895,0.37896040081977844,0.7311251163482666,0.4510818421840668,0.5361782908439636,-0.029163671657443047,-0.05497605353593826,-0.8418075442314148,3.0921409130096436,-2.442383289337158,-0.5352047681808472,5.962111473083496,-0.21277619898319244,8.07461929321289,0.37873998284339905,0.7403817176818848,0.45456650853157043,3.357822895050049,-2.3812108039855957,-0.772628664970398,0.47727641463279724,0.6474959850311279,0.42000001668930054,-0.29070550203323364,0.7481909990310669,-1.1685632467269897,-2.999999523162842,-0.22649969160556793,-0.23110300302505493,-0.20578214526176453,-0.1800009310245514,0.43927013874053955,0.3397866487503052,0.16925883293151855,-0.003466297872364521
0.55,0.00389299588277936,0.021495390683412552,0.0,0.6370962262153625,0.0,0.0,-0.7707842588424683,0.4527857303619385,-0.06166873127222061,0.0,0.0,0.0,0.20823843777179718,0.4279676079750061,0.6932364106178284,0.43508705496788025,0.4629853665828705,-0.09369227290153503,-0.05139343813061714,-0.8799005746841431,2.495123863220215,-2.19985294342041,-1.0033104419708252,-1.1757410764694214,8.893863677978516,-6.344210624694824,0.4267609715461731,0.7018039226531982,0.4403817653656006,2.574737548828125,-2.3014683723449707,-1.0023620128631592,0.47727641463279724,0.6474959850311279,0.42000001668930054,-0.27384671568870544,1.401141881942749,-1.2185853719711304,-3.0000011920928955,-0.2203226089477539,-0.22589634358882904,-0.20364312827587128,-0.18097394704818726,0.47242453694343567,0.4090975821018219,0.17889811098575592,-0.04958582669496536
0.5666666666666667,0.01360286958515644,0.014387402683496475,0.0,0.6207730174064636,0.0,0.0,-0.7839903235435486,0.5493215322494507,-0.363508403301239,0.0,0.0,0.0,-3.329827308654785,0.4634367525577545,0.666060745716095,0.42263758182525635,0.4562384784221649,-0.06155732646584511,-0.028612559661269188,-0.887264609336853,1.528649091720581,-1.4208070039749146,-0.13070324063301086,-5.128138542175293,-5.424964904785156,18.170024871826172,0.4627329409122467,0.6732381582260132,0.4267079830169678,1.3991528749465942,-1.114971399307251,-0.07963386178016663,0.47727641463279724,0.6474959850311279,0.42000001668930054,-0.25356099009513855,0.851384699344635,-1.1806480884552002,2.9791674613952637,-0.2064204216003418,-0.21401840448379517,-0.1970602422952652,-0.17947475612163544,0.6691420674324036,0.6087104082107544,0.3172035813331604,0.036793164908885956
0.5833333333333334,0.01949881948530674,0.012348138727247715,0.0,0.6174295544624329,0.0,0.0,-0.7866261601448059,0.30677253007888794,-0.06842700392007828,0.0,0.0,0.0,0.35333171486854553,0.48248526453971863,0.649078369140625,0.42325079441070557,0.45927348732948303,-0.0661841332912445,-0.007019852753728628,-0.8857980966567993,0.6681304574012756,-1.3601033687591553,0.32569512724876404,9.863046646118164,13.205501556396484,6.112281799316406,0.48115500807762146,0.6559211015701294,0.42796003818511963,0.8158514499664307,-0.9314589500427246,0.16180221736431122,0.47727641463279724,0.6474959850311279,0.42000001668930054,-0.25199198722839355,-0.8976297378540039,-1.2023372650146484,-3.0000007152557373,-0.19760672748088837,-0.20550595223903656,-0.1929740458726883,-0.17968252301216125,0.4675619900226593,0.46407920122146606,0.20504224300384521,-0.04571250081062317
0.6,0.027049556374549866,0.01452549360692501,0.0,0.6029542088508606,0.0,0.0,-0.7977758049964905,0.4541991055011749,0.16758210957050323,0.0,0.0,0.0,-3.0971367359161377,0.49361610412597656,0.6384320259094238,0.4220007061958313,0.48599234223365784,-0.038583215326070786,-0.003130521159619093,-0.8731052875518799,0.3689134120941162,-0.34698623418807983,-0.0652330294251442,0.5512317419052124,-2.193331480026245,5.196578025817871,0.49091917276382446,0.6446598768234253,0.42619985342025757,0.3574981391429901,-0.35775282979011536,-0.09662520885467529,0.47727641463279724,0.6474959850311279,0.42000001668930054,-0.25754958391189575,0.27271604537963867,-1.1644362211227417,2.999094009399414,-0.1898837685585022,-0.19826173782348633,-0.19040033221244812,-0.18155014514923096,0.5692618489265442,0.5120682120323181,0.20948289334774017,-0.07489252090454102
0.6166666666666667,0.03597179055213928,0.012191882357001305,0.0,0.6016047596931458,0.0,0.0,-0.7987939119338989,0.5285102725028992,-0.14284604787826538,0.0,0.0,0.0,0.7162624597549438,0.49561768770217896,0.6348679661750793,0.4215320944786072,0.5178110003471375,-0.0262086633592844,0.007895002141594887,-0.8550570011138916,-0.05445985868573189,-0.10741349309682846,-0.029225755482912064,2.23166823387146,-0.49878889322280884,3.5472609996795654,0.4924634099006653,0.6422253847122192,0.4271050691604614,-0.13268812000751495,-0.05153484642505646,0.13773809373378754,0.47727641463279724,0.6474959850311279,0.42000001668930054,-0.28446125984191895,-3.0000016689300537,-1.1861238479614258,-2.9996745586395264,-0.17809700965881348,-0.1875387579202652,-0.18469920754432678,-0.1805717945098877,0.5800051689147949,0.5542462468147278,0.2966422140598297,0.05127739533782005
0.6333333333333333,0.04719846695661545,0.013932724483311176,0.0,0.623645544052124,0.0,0.0,-0.781707227230072,0.706409752368927,0.11435777693986893,0.0,0.0,0.0,4.115042686462402,0.4934891164302826,0.6339133977890015,0.42008867859840393,0.5334078669548035,-0.0009552340488880873,0.001308771432377398,-0.8458566069602966,0.006621957756578922,0.025968017056584358,-0.005800287704914808,0.40155595541000366,0.554905354976654,-0.3551253080368042,0.4911080300807953,0.6430287957191467,0.42904603481292725,0.010881279595196247,0.19764113426208496,0.10797421634197235,0.47727641463279724,0.6474959850311279,0.42000001668930054,-0.31890201568603516,-1.25287926197052,-1.2360877990722656,-2.9971630573272705,-0.17090103030204773,-0.1805053949356079,-0.1814306080341339,-0.1808696985244751,0.5269519686698914,0.4875759184360504,0.2504149377346039,0.028483396396040916
0.65,0.05552583932876587,0.011638675816357136,0.0,0.6312021613121033,0.0,0.0,-0.7756183743476868,0.39046287536621094,-0.17537419497966766,0.0,0.0,0.0,0.08431649208068848,0.49331724643707275,0.6342371702194214,0.4199999272823334,0.5400811433792114,7.338967975556443e-07,-6.201632345437247e-07,-0.8416129946708679,-0.03715814650058746,0.013571410439908504,-5.374731699703261e-05,-0.0009354252251796424,-0.002393577480688691,2.879908561706543,0.48986953496932983,0.6468842029571533,0.4282785654067993,-0.17023630440235138,0.20274248719215393,-0.05165758356451988,0.47727641463279724,0.6474959850311279,0.42000001668930054,-0.36481982469558716,-2.999976873397827,-1.1980267763137817,2.999829053878784,-0.1617394983768463,-0.1717943400144577,-0.1762033849954605,-0.1789221614599228,0.42248740792274475,0.4319746196269989,0.2730998694896698,0.12119048833847046
0.6666666666666666,0.06471385061740875,0.013873063959181309,0.0,0.6493092775344849,0.0,0.0,-0.7605244517326355,0.567976713180542,0.12293057888746262,0.0,0.0,0.0,3.555382013320923,0.4910220503807068,0.6348093152046204,0.42024892568588257,0.5411964058876038,0.003397636814042926,-0.005217826459556818,-0.840873122215271,-0.16842161118984222,0.031176699325442314,0.04043183475732803,-0.8656390905380249,-1.857059121131897,-0.5169785618782043,0.48601800203323364,0.6483080387115479,0.4303617477416992,-0.1973779797554016,0.09395787864923477,0.24151529371738434,0.47727641463279724,0.6474959850311279,0.42000001668930054,-0.41483306884765625,-2.999993324279785,-1.2194817066192627,-2.9998905658721924,-0.15990300476551056,-0.16859622299671173,-0.17406442761421204,-0.1777026206254959,0.170294389128685,0.24668753147125244,0.20364034175872803,0.17634184658527374
0.6833333333333333,0.07534928619861603,0.01161710824817419,0.0,0.6536306142807007,0.0,0.0,-0.7568137049674988,0.665986955165863,-0.13584843277931213,0.0,0.0,0.0,-0.34260544180870056,0.48877793550491333,0.6352341771125793,0.4200744926929474,0.5389450788497925,0.000981939141638577,-0.001546850660815835,-0.8423389196395874,-0.12170155346393585,0.022536728531122208,-0.02732810005545616,0.5787383913993835,1.2611501216888428,-0.27536457777023315,0.486566960811615,0.6509640216827393,0.43566155433654785,0.05842068791389465,0.068738654255867,0.33049720525741577,0.47727641463279724,0.6474959850311279,0.42000001668930054,-0.4648457467556,-2.9996256828308105,-1.2694915533065796,-2.9999406337738037,-0.1551930159330368,-0.16259796917438507,-0.16837941110134125,-0.17199739813804626,0.10658233612775803,0.23665019869804382,0.2868430018424988,0.3543013334274292
0.7,0.08756215870380402,0.0067485300824046135,0.0,0.6355670690536499,0.0,0.0,-0.7720456719398499,0.7671210169792175,-0.362120658159256,0.0,0.0,0.0,-3.730815887451172,0.4879215359687805,0.6353763937950134,0.4200000464916229,0.538190484046936,1.938288249903053e-07,3.688048479943973e-07,-0.8428231477737427,-0.028019260615110397,0.004892141092568636,-1.0482559446245432e-05,-0.00046770385233685374,0.00010166868742089719,-0.06263299286365509,0.49378103017807007,0.6531636714935303,0.44871145486831665,0.7673764228820801,0.1582743525505066,1.3325895071029663,0.47727641463279724,0.6474959850311279,0.42000001668930054,-0.5148581862449646,-2.9999806880950928,-1.3195098638534546,-2.999999523162842,-0.15582673251628876,-0.16091233491897583,-0.16544310748577118,-0.1675562858581543,-0.11176566779613495,0.03182932734489441,0.12461956590414047,0.2302105873823166
0.7166666666666667,0.10283129662275314,0.0061467718333005905,0.0,0.596229076385498,0.0,0.0,-0.8028143644332886,0.9206024408340454,-0.04676768556237221,0.0,0.0,0.0,-7.026783466339111,0.4879213571548462,0.6353766322135925,0.41999998688697815,0.5381905436515808,2.066629889441174e-08,-3.913840828317916e-06,-0.8428230881690979,0.0001568621228216216,-0.0002833845792338252,-6.601051427423954e-05,0.007155831437557936,0.00012156853335909545,-0.0009897981071844697,0.5152203440666199,0.6510267853736877,0.47590136528015137,1.9692938327789307,-0.40661683678627014,2.0176329612731934,0.47727641463279724,0.6474959850311279,0.42000001668930054,-0.5648688673973083,-2.999312162399292,-1.3695281744003296,-2.999997615814209,-0.16350899636745453,-0.16531416773796082,-0.167226642370224,-0.1666010320186615,-0.4218144416809082,-0.23608018457889557,-0.07573746144771576,0.09273696690797806
0.7333333333333333,0.11495817452669144,0.0063391318544745445,0.0,0.5704066157341003,0.0,0.0,-0.8213624954223633,0.647261381149292,0.05598517507314682,0.0,0.0,0.0,-2.7762091159820557,0.4879213273525238,0.6353767514228821,0.41999995708465576,0.5381906628608704,-1.7934288507603924e-06,-5.271969257591991e-06,-0.8428230881690979,4.2849289457080886e-05,-0.00037083638017065823,-7.01029784977436e-05,0.009904764592647552,-0.003428857307881117,-0.0010417330777272582,0.5469425320625305,0.6485295295715332,0.5111862421035767,1.7517476081848145,0.07580363750457764,2.173875331878662,0.47727641463279724,0.6474959850311279,0.42000001668930054,-0.5852506756782532,0.28393736481666565,-1.4195464849472046,-3.0000011920928955,-0.1679912507534027,-0.16780321300029755,-0.16803686320781708,-0.1656734049320221,-0.14959169924259186,-0.0870288535952568,-0.03896496072411537,0.007734793238341808
0.75,0.12200623005628586,0.0086990250274539,0.0,0.571138858795166,0.0,0.0,-0.8208534717559814,0.37667548656463623,0.23651842772960663,0.0,0.0,0.0,0.973345160484314,0.4879213273525238,0.6353767514228821,0.41999995708465576,0.5381905436515808,-1.7024973431034596e-06,-5.156806309969397e-06,-0.8428232073783875,4.269104465493001e-05,-0.00037024798803031445,-6.990507245063782e-05,0.00989211443811655,-0.0034247408621013165,-0.001039201277308166,0.5704607963562012,0.6518769264221191,0.5429115891456604,0.9729963541030884,0.26269158720970154,1.6492116451263428,0.47727641463279724,0.6474959850311279,0.42000001668930054,-0.5592572093009949,2.6118950843811035,-1.4695647954940796,-2.999985456466675,-0.16855378448963165,-0.16762325167655945,-0.1672607809305191,-0.16438691318035126,-0.08797211199998856,-0.031008107587695122,0.018486496061086655,0.0558951310813427
0.7666666666666666,0.1260574907064438,0.007760302629321814,0.0,0.5941064953804016,0.0,0.0,-0.8043863773345947,0.19627745449543,-0.15442028641700745,0.0,0.0,0.0,4.232304573059082,0.4879213273525238,0.6353767514228821,0.41999995708465576,0.5381905436515808,-1.6933829556364799e-06,-5.085551947558997e-06,-0.8428230881690979,4.2579522414598614e-05,-0.0003703308757394552,-6.992742419242859e-05,0.009894105605781078,-0.003426135051995516,-0.0010392231633886695,0.5768539905548096,0.6582132577896118,0.5659865140914917,-0.18765506148338318,0.5315011143684387,1.1965068578720093,0.47727641463279724,0.6474959850311279,0.42000001668930054,-0.5128780007362366,2.8898072242736816,-1.4309260845184326,3.0,-0.1678854078054428,-0.16619229316711426,-0.16515567898750305,-0.16188226640224457,0.12288999557495117,0.15609174966812134,0.18561053276062012,0.19522354006767273
0.7833333333333333,0.12695598602294922,0.00621581356972456,0.0,0.6011754274368286,0.0,0.0,-0.7991170883178711,-0.0077376775443553925,-0.04895838350057602,0.0,0.0,0.0,-0.04709896445274353,0.4879212975502014,0.6353767514228821,0.41999995708465576,0.5381908416748047,-1.672464350122027e-06,-5.360412160371197e-06,-0.8428229093551636,4.283863017917611e-05,-0.0003702723188325763,-6.981892511248589e-05,0.009896118193864822,-0.0034300226252526045,-0.0010396691504865885,0.5686498284339905,0.6655168533325195,0.5800507664680481,-0.7678841352462769,0.35513782501220703,0.6663360595703125,0.47727641463279724,0.6474959850311279,0.42000001668930054,-0.5092533230781555,-2.030823230743408,-1.380873441696167,2.999999761581421,-0.16883935034275055,-0.1658972203731537,-0.16361074149608612,-0.15944641828536987,-0.10947827249765396,-0.01642429269850254,0.08053763210773468,0.15583258867263794
0.8,0.13128933310508728,0.011471259407699108,0.0,0.6197740435600281,0.0,0.0,-0.7847803235054016,0.36214882135391235,0.4714701771736145,0.0,0.0,0.0,3.782900094985962,0.4879213273525238,0.6353767514228821,0.41999995708465576,0.5381905436515808,-1.6998204728224664e-06,-5.196046913624741e-06,-0.8428231477737427,4.270014323992655e-05,-0.0003701081150211394,-6.988015957176685e-05,0.009888271801173687,-0.0034220784436911345,-0.0010388060472905636,0.557094395160675,0.6686379909515381,0.5880235433578491,-0.5851953029632568,0.14825478196144104,0.36354535818099976,0.47727641463279724,0.6474959850311279,0.42000001668930054,-0.5180785059928894,0.739286482334137,-1.3993488550186157,-2.9999992847442627,-0.17542734742164612,-0.1699065864086151,-0.16498272120952606,-0.1586105078458786,-0.41191840171813965,-0.25329259037971497,-0.08761963248252869,0.05408814176917076
0.8166666666666667,0.13195070624351501,0.013212624937295914,0.0,0.625268280506134,0.0,0.0,-0.7804098725318909,0.033583976328372955,-0.023708831518888474,0.0,0.0,0.0,0.04640866816043854,0.4879213273525238,0.6353767514228821,0.41999995708465576,0.5381906032562256,-1.7072489981728722e-06,-5.114433861308498e-06,-0.8428231477737427,4.265838288119994e-05,-0.0003703318361658603,-6.992300041019917e-05,0.009894367307424545,-0.003426436334848404,-0.0010393933625891805,0.5437430143356323,0.6737303733825684,0.5886788368225098,-1.098223090171814,0.20879486203193665,-0.20263874530792236,0.47727641463279724,0.6474959850311279,0.42000001668930054,-0.5417988300323486,-2.9998180866241455,-1.360903024673462,2.9999916553497314,-0.174900621175766,-0.16830165684223175,-0.16209223866462708,-0.1547219157218933,0.003500050865113735,0.065828338265419,0.13812291622161865,0.19045257568359375
0.8333333333333334,0.13458210229873657,0.010346190072596073,0.0,0.6399945020675659,0.0,0.0,-0.7683795094490051,0.20905084908008575,-0.2359427809715271,0.0,0.0,0.0,3.223554849624634,0.4879213273525238,0.6353767514228821,0.41999995708465576,0.5381907820701599,-1.7020738596329466e-06,-5.209923074289691e-06,-0.8428229689598083,4.4290180085226893e-05,-0.0003703286056406796,-6.988039240241051e-05,0.009896224364638329,-0.00342875556088984,-0.0010432288981974125,0.5305966138839722,0.6760306358337402,0.5871309041976929,-0.5109742879867554,0.10443144291639328,0.07374729961156845,0.47727641463279724,0.6474959850311279,0.42000001668930054,-0.5679571032524109,-0.34733736515045166,-1.3797452449798584,-3.000000476837158,-0.17531822621822357,-0.16752012073993683,-0.15988081693649292,-0.15133996307849884,0.008402730338275433,0.07503149658441544,0.15890319645404816,0.23191696405410767
0.85,0.13960058987140656,0.004449071362614632,0.0,0.6412883996963501,0.0,0.0,-0.7672998905181885,0.33823445439338684,-0.3971436023712158,0.0,0.0,0.0,-0.7719851732254028,0.4879213273525238,0.6353767514228821,0.41999995708465576,0.5381906628608704,-1.7013073829730274e-06,-5.103462171973661e-06,-0.8428230881690979,4.238718975102529e-05,-0.0003702106769196689,-6.991601549088955e-05,0.009890354238450527,-0.0034230523742735386,-0.0010384221095591784,0.5257842540740967,0.6758410930633545,0.5853842496871948,-0.09635471552610397,-0.152398020029068,-0.07988016307353973,0.47727641463279724,0.6474959850311279,0.42000001668930054,-0.6035515666007996,-3.000000238418579,-1.3413606882095337,3.0,-0.17609168589115143,-0.16711951792240143,-0.15794742107391357,-0.14797168970108032,-0.03305860236287117,0.03902089223265648,0.13456937670707703,0.22744295001029968
0.8666666666666667,0.14720961451530457,0.0009819809347391129,0.0,0.6213160157203674,0.0,0.0,-0.7835600972175598,0.5011141896247864,-0.13523425161838531,0.0,0.0,0.0,-3.8881783485412598,0.4879213273525238,0.6353767514228821,0.41999995708465576,0.5381905436515808,-1.6805660152385826e-06,-5.184982455830323e-06,-0.8428232073783875,4.278505366528407e-05,-0.0003702696121763438,-6.990251131355762e-05,0.009893028996884823,-0.0034255508799105883,-0.001039469032548368,0.5307823419570923,0.6720116138458252,0.5866983532905579,0.6212313175201416,-0.29786789417266846,0.3853060007095337,0.47727641463279724,0.6474959850311279,0.42000001668930054,-0.6388294100761414,-1.3484114408493042,-1.3605549335479736,-2.999999761581421,-0.1774614155292511,-0.16774345934391022,-0.1573747992515564,-0.14615410566329956,-0.041461654007434845,-0.024143271148204803,0.021710749715566635,0.07418753206729889
0.8833333333333333,0.15695297718048096,0.0015372870257124305,0.0,0.6163887977600098,0.0,0.0,-0.7874419689178467,0.6179141998291016,0.10368286818265915,0.0,0.0,0.0,0.203288733959198,0.4879213273525238,0.6353767514228821,0.41999995708465576,0.5381907224655151,-1.6560592257519602e-06,-5.2608957048505545e-06,-0.8428229689598083,4.436601011548191e-05,-0.0003703277325257659,-6.987596862018108e-05,0.009896451607346535,-0.0034289390314370394,-0.0010433857096359134,0.5417741537094116,0.6701694130897522,0.596494734287262,0.6850536465644836,0.04799725115299225,0.7679946422576904,0.47727641463279724,0.6474959850311279,0.42000001668930054,-0.6333839893341064,1.7307798862457275,-1.4105732440948486,-2.999999761581421,-0.17653591930866241,-0.1674814671278,-0.15735729038715363,-0.14628009498119354,0.14089365303516388,0.0545094758272171,-0.012074208818376064,-0.07409397512674332
0.9,0.16311070322990417,-0.003183349734172225,0.0,0.6359468698501587,0.0,0.0,-0.7717328667640686,0.3902013599872589,-0.3298902213573456,0.0,0.0,0.0,3.6569650173187256,0.4879213273525238,0.6353767514228821,0.41999995708465576,0.5381904244422913,-1.7276912558372715e-06,-5.059746399638243e-06,-0.8428231477737427,4.443601574166678e-05,-0.00037034443812444806,-6.988085806369781e-05,0.009896796196699142,-0.0034292195923626423,-0.0010433217976242304,0.548648476600647,0.6718065738677979,0.6069581508636475,0.12114934623241425,-0.010808932594954967,0.44184839725494385,0.47727641463279724,0.6474959850311279,0.42000001668930054,-0.6247618794441223,-0.5059930682182312,-1.3720970153808594,3.0000007152557373,-0.1677248775959015,-0.16077585518360138,-0.152510866522789,-0.14324131608009338,0.38944119215011597,0.3000119626522064,0.2159806340932846,0.12726116180419922
