vladlanda/robotic-transformer/data/env_000_episode_0202.csv
sim_time_s,robot_box_x,robot_box_y,robot_box_z,robot_box_quat_w,robot_box_quat_x,robot_box_quat_y,robot_box_quat_z,robot_box_linvel_x,robot_box_linvel_y,robot_box_linvel_z,robot_box_angvel_x,robot_box_angvel_y,robot_box_angvel_z,cube_world_x,cube_world_y,cube_world_z,cube_quat_w,cube_quat_x,cube_quat_y,cube_quat_z,cube_linvel_x,cube_linvel_y,cube_linvel_z,cube_angvel_x,cube_angvel_y,cube_angvel_z,endpoint_world_x,endpoint_world_y,endpoint_world_z,endpoint_linvel_x,endpoint_linvel_y,endpoint_linvel_z,target_cube_world_x,target_cube_world_y,target_cube_world_z,gripper_actual_pos_rad_gp_leftgearjoint,gripper_actual_vel_rad_s_gp_leftgearjoint,gripper_actual_pos_rad_gp_rotatingjoint,gripper_actual_vel_rad_s_gp_rotatingjoint,motor_angle_rad_joint1,motor_angle_rad_joint2,motor_angle_rad_joint3,motor_angle_rad_joint4,motor_speed_rad_s_joint1,motor_speed_rad_s_joint2,motor_speed_rad_s_joint3,motor_speed_rad_s_joint4
0.0,0.0,0.0,0.0,1.0,0.0,0.0,0.0,0.0,0.0,0.0,0.0,0.0,0.0,-0.4272812008857727,0.6388888359069824,0.41999998688697815,1.0,0.0,0.0,0.0,0.0,0.0,0.0,0.0,0.0,0.0,3.42540442943573e-06,-0.005000244826078415,1.313499927520752,0.0,0.0,0.0,0.4280291497707367,0.740927517414093,0.42000001668930054,-1.5707999467849731,0.0,0.0,0.0,0.0,0.0,0.0,0.0,0.0,0.0,0.0,0.0
0.016666666666666666,0.0028778850100934505,0.0021806680597364902,0.0,0.9998081922531128,0.0,0.0,0.019586581736803055,0.24087215960025787,0.18240931630134583,0.0,0.0,0.0,3.1418697834014893,-0.42728132009506226,0.6388885378837585,0.41999998688697815,1.0,3.279964630564791e-06,-8.339746386809566e-07,8.465587342243452e-08,-1.9833529222523794e-05,0.00017983045836444944,-6.132945418357849e-05,0.0009432713268324733,-0.004689474124461412,-0.00031981561915017664,-0.007110234349966049,0.003379564033821225,1.3159373998641968,-0.8143353462219238,0.9868683815002441,0.18095196783542633,0.4280291497707367,0.740927517414093,0.42000001668930054,-1.5301095247268677,3.0000011920928955,-0.04584788903594017,-2.9999992847442627,0.0008691533003002405,0.0007963840034790337,0.0007110277656465769,0.0006108740926720202,0.11094217747449875,0.09756709635257721,0.08334315568208694,0.06823883205652237
0.03333333333333333,0.008960961364209652,0.006801843177527189,0.0,0.9997960329055786,0.0,0.0,0.020196838304400444,0.4070195257663727,0.31530582904815674,0.0,0.0,0.0,-0.8691297173500061,-0.4272814393043518,0.6388884782791138,0.4200000464916229,1.0,3.3908354453160428e-06,-2.1324485715012997e-06,-3.710144014235084e-08,0.00026357831666246057,0.00026937946677207947,-0.00010509486310184002,-0.0017707672668620944,0.004130808170884848,-0.000135478752781637,-0.02754427306354046,0.025870703160762787,1.3166468143463135,-1.5913143157958984,1.607676386833191,-0.07902181893587112,0.4280291497707367,0.740927517414093,0.42000001668930054,-1.4800903797149658,3.0000016689300537,-0.09588773548603058,-3.000001907348633,0.002990187145769596,0.0026528299786150455,0.002277431543916464,0.0018609141698107123,0.16422824561595917,0.13977433741092682,0.11383569240570068,0.08631987124681473
0.05,0.01773396134376526,0.013768961653113365,0.0,0.9993816018104553,0.0,0.0,0.0351627953350544,0.5935200452804565,0.46495145559310913,0.0,0.0,0.0,2.650627851486206,-0.4272814691066742,0.6388885378837585,0.4200000464916229,1.0,3.765139354072744e-06,-2.2119161258160602e-06,5.630195420991413e-09,0.0002653095289133489,0.00026691411039792,-0.00010440382175147533,-0.0017242460744455457,0.004177400842308998,-0.00012949357915204018,-0.05966296046972275,0.05344262719154358,1.311781406402588,-2.187356472015381,1.7342705726623535,-0.4653838574886322,0.4280291497707367,0.740927517414093,0.42000001668930054,-1.4300720691680908,3.00000262260437,-0.14592638611793518,-2.999999523162842,0.005703769624233246,0.004912063013762236,0.004048231989145279,0.003107814583927393,0.19277489185333252,0.15587186813354492,0.11709483712911606,0.07634945213794708
0.06666666666666667,0.029044413939118385,0.023060357198119164,0.0,0.9994528889656067,0.0,0.0,0.033074960112571716,0.7200671434402466,0.595081627368927,0.0,0.0,0.0,-1.2088756561279297,-0.4272814691066742,0.6388884782791138,0.4200000464916229,0.9999999403953552,3.4067529668391217e-06,-2.2856381747260457e-06,4.300985096961085e-07,0.00026702662580646574,0.00026791892014443874,-0.00010437914170324802,-0.001740677747875452,0.004211848136037588,-0.0001285130565520376,-0.09852553904056549,0.08679831027984619,1.299385905265808,-2.4770431518554688,2.1576902866363525,-0.9934211373329163,0.4280291497707367,0.740927517414093,0.42000001668930054,-1.3800537586212158,2.9999992847442627,-0.19594067335128784,-3.0000014305114746,0.00835626944899559,0.0068945628590881824,0.0053219725377857685,0.003632231382653117,0.1582433581352234,0.10873337090015411,0.05719389766454697,0.0035475254990160465
0.08333333333333333,0.04342057555913925,0.034420084208250046,0.0,0.999987006187439,0.0,0.0,0.005100185051560402,0.9337271451950073,0.7233185172080994,0.0,0.0,0.0,-4.564924240112305,-0.4272814691066742,0.6388884782791138,0.4200000464916229,1.0,3.697281499626115e-06,-2.1890098196308827e-06,-2.632294240356714e-07,0.00026389621780253947,0.00026586363674141467,-0.00010433816350996494,-0.0017081034602597356,0.004150185268372297,-0.00012991165567655116,-0.1397579461336136,0.12655217945575714,1.279703140258789,-2.4767584800720215,2.5182158946990967,-1.3562616109848022,0.4280291497707367,0.740927517414093,0.42000001668930054,-1.3300236463546753,2.999997854232788,-0.18173357844352722,3.000000476837158,0.010271401144564152,0.007895993068814278,0.0053698113188147545,0.0026853340677917004,0.09958463907241821,0.03629195690155029,-0.029083583503961563,-0.09649964421987534
0.1,0.05207659304141998,0.04966163635253906,0.0,0.9999659657478333,0.0,0.0,-0.00824911892414093,0.38126593828201294,0.9909228682518005,0.0,0.0,0.0,-0.6132524609565735,-0.4272814691066742,0.6388884782791138,0.4200000464916229,0.9999999403953552,3.6203855415806174e-06,-2.265273224111297e-06,1.7462159007664013e-07,0.0002667683002073318,0.00026740814791992307,-0.0001040794886648655,-0.0017385776154696941,0.004209164995700121,-0.00012775571667589247,-0.1826644241809845,0.1626203954219818,1.255603551864624,-2.5051937103271484,2.1210577487945557,-1.467759370803833,0.4280291497707367,0.740927517414093,0.42000001668930054,-1.2800209522247314,2.9999985694885254,-0.21327780187129974,-2.999999523162842,0.005495032761245966,0.0024084802716970444,-0.0008802945958450437,-0.004381348378956318,-0.4080187976360321,-0.4568515717983246,-0.5082435607910156,-0.562374472618103
0.11666666666666667,0.055995456874370575,0.062321070581674576,0.0,0.9993710517883301,0.0,0.0,-0.0354619175195694,0.3828527331352234,0.7194843292236328,0.0,0.0,0.0,-3.5470588207244873,-0.4272814691066742,0.6388884782791138,0.4200000464916229,1.0,3.7983813854225446e-06,-2.2628894384979503e-06,-1.5019897148249584e-07,0.00026373917353339493,0.00026566049200482666,-0.00010429113171994686,-0.0017053951742127538,0.004147559404373169,-0.00012979967868886888,-0.22203797101974487,0.20220732688903809,1.2298662662506104,-2.2687630653381348,2.711740493774414,-1.5247682332992554,0.4280291497707367,0.740927517414093,0.42000001668930054,-1.230006456375122,3.0000014305114746,-0.2632962763309479,-2.999999761581421,-0.001972347730770707,-0.0061670877039432526,-0.01057773269712925,-0.015217221342027187,-0.10072118043899536,-0.22840730845928192,-0.3525436818599701,-0.4729560315608978
0.13333333333333333,0.06029914319515228,0.07309313118457794,0.0,0.9965183138847351,0.0,0.0,-0.08337376266717911,0.18007530272006989,0.5744695663452148,0.0,0.0,0.0,-6.744492530822754,-0.4272814691066742,0.6388885378837585,0.4200000464916229,0.9999999403953552,3.55046631739242e-06,-2.229890242233523e-06,2.9291771852513193e-07,0.00026703221374191344,0.00026779237668961287,-0.00010416773147881031,-0.0017439918592572212,0.0042135524563491344,-0.00012800241529475898,-0.2597445845603943,0.25236377120018005,1.2004292011260986,-2.1893954277038574,3.2740650177001953,-2.007073163986206,0.4280291497707367,0.740927517414093,0.42000001668930054,-1.1799908876419067,2.9999947547912598,-0.22917452454566956,3.0,-0.004596839193254709,-0.01087555568665266,-0.01729331724345684,-0.023860950022935867,-0.22296097874641418,-0.3376907408237457,-0.447517454624176,-0.5523659586906433
0.15,0.06964138895273209,0.08501435071229935,0.0,0.993443489074707,0.0,0.0,-0.11432430893182755,0.6898181438446045,0.7602081894874573,0.0,0.0,0.0,-2.7157862186431885,-0.4272814393043518,0.6388884782791138,0.4200000464916229,1.0,3.3322221497655846e-06,-2.1020302938268287e-06,1.3131158027590573e-07,0.0002673070412129164,0.0002685954386834055,-0.00010459451004862785,-0.0017497260123491287,0.004215645603835583,-0.00012928212527185678,-0.29919081926345825,0.3032379150390625,1.163120985031128,-2.2474312782287598,3.2342991828918457,-2.473499059677124,0.4280291497707367,0.740927517414093,0.42000001668930054,-1.130001425743103,3.0000007152557373,-0.2603878974914551,-3.0000011920928955,-0.005251726135611534,-0.013600843027234077,-0.02198643423616886,-0.03041815385222435,-0.036019064486026764,-0.14962182939052582,-0.25727319717407227,-0.3589445948600769
0.16666666666666666,0.07579316943883896,0.09372355788946152,0.0,0.9871750473976135,0.0,0.0,-0.15964138507843018,0.3904689848423004,0.4984737038612366,0.0,0.0,0.0,-6.150836944580078,-0.4272814691066742,0.6388884782791138,0.4200000464916229,1.0,3.737278348125983e-06,-2.2331944364850642e-06,-1.8764472997645498e-07,0.00026432870072312653,0.00026626777253113687,-0.00010446063242852688,-0.0017119222320616245,0.004157560411840677,-0.00013001241313759238,-0.33515745401382446,0.36075860261917114,1.1153180599212646,-1.9446327686309814,3.781683921813965,-3.117342948913574,0.4280291497707367,0.740927517414093,0.42000001668930054,-1.0799964666366577,2.9973690509796143,-0.22628560662269592,2.999999761581421,-0.011855142191052437,-0.021295983344316483,-0.030710158869624138,-0.04011371359229088,-0.37022289633750916,-0.4379805326461792,-0.5010395050048828,-0.5596350431442261
0.18333333333333332,0.0791042149066925,0.10319296270608902,0.0,0.9831817746162415,0.0,0.0,-0.18262982368469238,0.10837575793266296,0.6256794929504395,0.0,0.0,0.0,-1.6614176034927368,-0.4272814691066742,0.6388885378837585,0.4200000464916229,0.9999999403953552,3.6602618820325006e-06,-2.3023178528092103e-06,2.528582569993887e-07,0.0002669094246812165,0.0002676024450920522,-0.0001041253563016653,-0.001741250162012875,0.004211540333926678,-0.0001278737763641402,-0.37034034729003906,0.41838887333869934,1.0576839447021484,-1.9193506240844727,3.5245697498321533,-3.7779033184051514,0.4280291497707367,0.740927517414093,0.42000001668930054,-1.0303508043289185,2.927459716796875,-0.25752145051956177,-3.0000009536743164,-0.020181462168693542,-0.030291400849819183,-0.04029920697212219,-0.050227899104356766,-0.5942363739013672,-0.6111811399459839,-0.6243140697479248,-0.6341320872306824
0.2,0.0841379463672638,0.11017376184463501,0.0,0.9765022993087769,0.0,0.0,-0.21550704538822174,0.39717599749565125,0.324919193983078,0.0,0.0,0.0,-4.725549697875977,-0.4272814691066742,0.6388884782791138,0.4200000464916229,1.0,3.5908608424506383e-06,-2.300466803717427e-06,1.3872747217646975e-07,0.00026654714019969106,0.00026732240803539753,-0.00010424014180898666,-0.0017327213427051902,0.004203526768833399,-0.0001282061421079561,-0.4005054831504822,0.4784350097179413,0.9863425493240356,-1.564495325088501,3.61452579498291,-4.663768768310547,0.4280291497707367,0.740927517414093,0.42000001668930054,-0.9803449511528015,3.000001907348633,-0.30754953622817993,-2.999999523162842,-0.033056993037462234,-0.04280572757124901,-0.05242732912302017,-0.061954986304044724,-0.8756740093231201,-0.8286142945289612,-0.7815258502960205,-0.7350295782089233
0.21666666666666667,0.08457250148057938,0.11930239200592041,0.0,0.972485363483429,0.0,0.0,-0.2329639196395874,0.029374688863754272,0.5313376188278198,0.0,0.0,0.0,-0.6578711867332458,-0.4272814691066742,0.6388885378837585,0.4200000464916229,1.0,3.6069873203814495e-06,-2.261009740323061e-06,1.9610945756198817e-08,0.00026447101845405996,0.000265582901192829,-0.00010396563448011875,-0.0017088254680857062,0.004164384678006172,-0.00012832769425585866,-0.42482617497444153,0.5275933146476746,0.9028204679489136,-1.2131571769714355,2.655456066131592,-5.161201000213623,0.4280291497707367,0.740927517414093,0.42000001668930054,-0.9303346276283264,2.99997615814209,-0.35757967829704285,-2.999990701675415,-0.0492783822119236,-0.05899723619222641,-0.06859023869037628,-0.07805286347866058,-0.7511060833930969,-0.7834230661392212,-0.8143071532249451,-0.8423668742179871
0.23333333333333334,0.08589957654476166,0.12408582121133804,0.0,0.9656603336334229,0.0,0.0,-0.25980791449546814,0.02801046147942543,0.22117404639720917,0.0,0.0,0.0,-4.179815769195557,-0.4272814393043518,0.6388884782791138,0.4200000464916229,0.9999999403953552,3.742314447663375e-06,-2.2275469291344052e-06,4.588965509810805e-07,0.00026475070626474917,0.00026671463274396956,-0.0001045342069119215,-0.001718964078463614,0.004165732767432928,-0.0001301961310673505,-0.4431179165840149,0.5708030462265015,0.8110295534133911,-0.8166303038597107,2.3864755630493164,-5.736348628997803,0.4280291497707367,0.740927517414093,0.42000001668930054,-0.8803239464759827,2.9999983310699463,-0.4076107144355774,-2.9999988079071045,-0.062386948615312576,-0.07233120501041412,-0.08213397115468979,-0.0917745903134346,-0.8930501341819763,-0.8802808523178101,-0.8675482869148254,-0.8542561531066895
0.25,0.08295146375894547,0.1312374621629715,0.0,0.9630711674690247,0.0,0.0,-0.2692469656467438,-0.20448417961597443,0.4095066785812378,0.0,0.0,0.0,-0.15718449652194977,-0.4272814691066742,0.6388884782791138,0.4200000464916229,1.0,3.394471605133731e-06,-2.28208023145271e-06,1.3361282924506668e-07,0.0002667925728019327,0.00026793935103341937,-0.00010439474135637283,-0.001741714426316321,0.004206551238894463,-0.00012884216266684234,-0.45583128929138184,0.6010334491729736,0.7156975269317627,-0.579883337020874,1.411362886428833,-5.653353691101074,0.4280291497707367,0.740927517414093,0.42000001668930054,-0.8303141593933105,2.9999959468841553,-0.45764225721359253,-2.9999961853027344,-0.07858679443597794,-0.0885392427444458,-0.09839063137769699,-0.10806450247764587,-0.8990747928619385,-0.9093484878540039,-0.9227834939956665,-0.9366446733474731
0.26666666666666666,0.08390593528747559,0.13424192368984222,0.0,0.9570906162261963,0.0,0.0,-0.28978878259658813,0.08525490015745163,0.12949635088443756,0.0,0.0,0.0,-3.17474102973938,-0.4272814691066742,0.6388885378837585,0.4200000464916229,1.0,3.683473778437474e-06,-2.310144282091642e-06,2.1009151396356174e-07,0.0002647919754963368,0.00026625837199389935,-0.00010421406477689743,-0.0017168897902593017,0.004169071558862925,-0.00012909626821056008,-0.4619947373867035,0.6219121217727661,0.6159148216247559,0.016896463930606842,0.9093983769416809,-6.103931427001953,0.4280291497707367,0.740927517414093,0.42000001668930054,-0.7803053259849548,2.9999945163726807,-0.5076728463172913,-2.9999990463256836,-0.09411806613206863,-0.10405253618955612,-0.11391738057136536,-0.12362275272607803,-0.9978883862495422,-0.9976372718811035,-0.99744713306427,-0.9973093271255493
0.2833333333333333,0.08057913184165955,0.13495218753814697,0.0,0.9567867517471313,0.0,0.0,-0.2907905578613281,-0.28465208411216736,0.01656165160238743,0.0,0.0,0.0,0.8010380268096924,-0.4272814691066742,0.6388884782791138,0.4200000464916229,1.0,3.306992994112079e-06,-2.2125836949271616e-06,2.6255548846165766e-07,0.0002666075888555497,0.0002674507559277117,-0.00010424456559121609,-0.0017352629220113158,0.004204458557069302,-0.0001282876473851502,-0.457764208316803,0.631432831287384,0.522318959236145,0.5705822706222534,0.3732110261917114,-5.185702323913574,0.4280291497707367,0.740927517414093,0.42000001668930054,-0.7302965521812439,3.0000007152557373,-0.5577019453048706,-3.0000007152557373,-0.11216098815202713,-0.12177310138940811,-0.1313960999250412,-0.14091238379478455,-1.0140656232833862,-1.010596752166748,-1.0079541206359863,-1.0058505535125732
0.3,0.07503118366003036,0.13323241472244263,0.0,0.9523851275444031,0.0,0.0,-0.3048977255821228,-0.3579358458518982,-0.1568724811077118,0.0,0.0,0.0,-2.603782892227173,-0.4272814691066742,0.6388884782791138,0.4200000464916229,1.0,3.64134757546708e-06,-2.3780066840117797e-06,-4.194093037312996e-07,0.0002661148027982563,0.0002672590489964932,-0.00010423548519611359,-0.0017336418386548758,0.004194686189293861,-0.0001285519974771887,-0.44296950101852417,0.6385241150856018,0.4358612298965454,1.2091883420944214,0.4474724531173706,-5.128145217895508,0.4280291497707367,0.740927517414093,0.42000001668930054,-0.6802895665168762,2.999995708465576,-0.6077296733856201,-2.999999761581421,-0.12850895524024963,-0.13815203309059143,-0.14782632887363434,-0.15739911794662476,-1.0008597373962402,-1.0006141662597656,-1.0004336833953857,-1.0002931356430054
0.31666666666666665,0.06755003333091736,0.12900593876838684,0.0,0.9531511068344116,0.0,0.0,-0.3024945855140686,-0.48991677165031433,-0.29219287633895874,0.0,0.0,0.0,1.2008370161056519,-0.4272814691066742,0.6388885378837585,0.4200000464916229,1.0,3.621927362473798e-06,-2.2891222215548623e-06,1.9689053942784085e-07,0.0002673399867489934,0.00026802747743204236,-0.00010420684702694416,-0.0017466300632804632,0.004218979272991419,-0.0001279420976061374,-0.43480271100997925,0.643567681312561,0.4132489562034607,0.384385347366333,0.05502748489379883,-0.08698511123657227,0.4280291497707367,0.740927517414093,0.42000001668930054,-0.6303640007972717,2.8910481929779053,-0.6578278541564941,-3.001765251159668,-0.134238138794899,-0.14447155594825745,-0.1546488255262375,-0.16458234190940857,-0.5059249401092529,-0.4939776659011841,-0.4640727937221527,-0.4118867516517639
0.3333333333333333,0.058741938322782516,0.12312467396259308,0.0,0.9489346742630005,0.0,0.0,-0.31547263264656067,-0.5778070688247681,-0.39509227871894836,0.0,0.0,0.0,-2.518104076385498,-0.42522844672203064,0.6442217230796814,0.42196759581565857,0.9924694299697876,0.03740384057164192,0.011841516010463238,-0.11603954434394836,0.3086131513118744,0.6032801270484924,0.12721344828605652,7.541723728179932,-1.7975646257400513,-23.20734214782715,-0.4317651391029358,0.6527594327926636,0.42170289158821106,0.27402356266975403,0.9153774380683899,-0.024379868060350418,0.4280291497707367,0.740927517414093,0.42000001668930054,-0.5811644792556763,3.0000014305114746,-0.7079505920410156,-3.0000057220458984,-0.1368730664253235,-0.14736296236515045,-0.15733635425567627,-0.16653700172901154,-0.20148593187332153,-0.2021443396806717,-0.17632998526096344,-0.120694600045681
0.35,0.05283223092556,0.11469722539186478,0.0,0.9494427442550659,0.0,0.0,-0.31394025683403015,-0.26187822222709656,-0.548115611076355,0.0,0.0,0.0,1.3353570699691772,-0.4205411374568939,0.661474883556366,0.421856552362442,0.9913362860679626,0.04376174882054329,-0.00048478186363354325,-0.12384232878684998,0.3515414595603943,1.0192012786865234,-0.008681973442435265,0.21067000925540924,-0.8992956280708313,-5.593829154968262,-0.4256930649280548,0.6672842502593994,0.42105603218078613,0.4924703538417816,0.9093641042709351,-0.03442365676164627,0.4280291497707367,0.740927517414093,0.42000001668930054,-0.531159520149231,2.999962091445923,-0.7579843997955322,-2.9999611377716064,-0.14214612543582916,-0.15162114799022675,-0.1601829081773758,-0.16755422949790955,-0.4080966114997864,-0.29981890320777893,-0.17056764662265778,-0.02068190462887287
0.36666666666666664,0.044297605752944946,0.10469628125429153,0.0,0.945502758026123,0.0,0.0,-0.3256140649318695,-0.6022142767906189,-0.6269034147262573,0.0,0.0,0.0,-2.4303672313690186,-0.4136768579483032,0.6794062256813049,0.4205229878425598,0.9854757785797119,0.010714712552726269,-0.003879763185977936,-0.16943305730819702,0.5304459929466248,1.2010819911956787,-0.08288387209177017,-5.682751655578613,0.5967588424682617,-6.310234546661377,-0.41415202617645264,0.6821722984313965,0.4211682379245758,0.8831135034561157,0.9810417890548706,0.023805759847164154,0.4280291497707367,0.740927517414093,0.42000001668930054,-0.4811544418334961,2.999981641769409,-0.8080300092697144,-2.999986410140991,-0.15262526273727417,-0.15934330224990845,-0.16484616696834564,-0.1688930243253708,-0.6682811975479126,-0.4822249412536621,-0.2803410291671753,-0.06570460647344589
0.3833333333333333,0.039153311401605606,0.09206340461969376,0.0,0.9313352108001709,0.0,0.0,-0.36416301131248474,-0.27643856406211853,-0.8006907105445862,0.0,0.0,0.0,-5.690383434295654,-0.4009726643562317,0.7028880715370178,0.42003360390663147,0.9767482280731201,-0.0008176906267181039,0.00014473727787844837,-0.21438798308372498,0.9599366188049316,1.5926024913787842,0.016505863517522812,-0.7884950041770935,0.3438621163368225,-6.1656107902526855,-0.39585232734680176,0.7009921669960022,0.42299962043762207,1.3910181522369385,1.260551929473877,0.1466161012649536,0.4280291497707367,0.740927517414093,0.42000001668930054,-0.43110132217407227,2.998889923095703,-0.8580381870269775,-3.000000476837158,-0.16149890422821045,-0.16509002447128296,-0.16711288690567017,-0.16738641262054443,-0.5443075895309448,-0.3299190402030945,-0.09364663809537888,0.15970486402511597
0.4,0.03159096837043762,0.07753067463636398,0.0,0.9041178822517395,0.0,0.0,-0.4272831082344055,-0.47943729162216187,-0.9323671460151672,0.0,0.0,0.0,-9.09605884552002,-0.3640202283859253,0.7320993542671204,0.42391741275787354,0.9621885418891907,-0.0006862379377707839,-0.028154097497463226,-0.2709241807460785,3.276540756225586,2.34208083152771,0.25342515110969543,28.443571090698242,-17.025754928588867,5.5670061111450195,-0.3592057228088379,0.729911208152771,0.42690160870552063,2.9465994834899902,2.292233943939209,0.44026702642440796,0.4280291497707367,0.740927517414093,0.42000001668930054,-0.3919750452041626,1.4605337381362915,-0.9080438017845154,-3.000000238418579,-0.17455711960792542,-0.17372013628482819,-0.1710822582244873,-0.16657337546348572,-0.7096943855285645,-0.4620705842971802,-0.20320016145706177,0.06020302698016167
0.4166666666666667,0.026178207248449326,0.0649629533290863,0.0,0.8603584170341492,0.0,0.0,-0.5096895098686218,-0.2687520980834961,-0.6867765784263611,0.0,0.0,0.0,-11.865915298461914,-0.28950512409210205,0.7791733741760254,0.42909520864486694,0.9417350888252258,0.059954091906547546,-0.0706644132733345,-0.3233371376991272,5.918362617492676,3.0302858352661133,0.43557631969451904,18.300573348999023,-16.539480209350586,12.965591430664062,-0.285470187664032,0.7767757773399353,0.4326465427875519,5.486573219299316,3.2484660148620605,0.44561663269996643,0.4280291497707367,0.740927517414093,0.42000001668930054,-0.3711390197277069,1.1852006912231445,-0.8710889220237732,2.997002124786377,-0.18902449309825897,-0.18346042931079865,-0.17610345780849457,-0.16702093183994293,-0.8655205368995667,-0.5943543910980225,-0.33217406272888184,-0.0871349424123764
0.43333333333333335,0.024208568036556244,0.0562533438205719,0.0,0.8214435577392578,0.0,0.0,-0.5702897906303406,-0.0597030408680439,-0.46314728260040283,0.0,0.0,0.0,-7.033875942230225,-0.19486841559410095,0.8302849531173706,0.4382297396659851,0.8967409133911133,0.09469109028577805,-0.09705479443073273,-0.42127156257629395,6.013493537902832,2.4027931690216064,0.682187557220459,14.6807222366333,-4.254728317260742,6.506850719451904,-0.19285723567008972,0.8280039429664612,0.441464364528656,5.784056186676025,2.6846156120300293,0.5711289048194885,0.4280291497707367,0.740927517414093,0.42000001668930054,-0.3495045304298401,1.3656914234161377,-0.897463858127594,-3.0000035762786865,-0.20359280705451965,-0.19384482502937317,-0.18257148563861847,-0.1699734926223755,-0.8214492797851562,-0.5873923897743225,-0.37365490198135376,-0.18795070052146912
0.45,0.021218735724687576,0.052014805376529694,0.0,0.8039388656616211,0.0,0.0,-0.59471195936203,-0.25007227063179016,-0.16293418407440186,0.0,0.0,0.0,-2.2771313190460205,-0.09515009820461273,0.8652961850166321,0.4485775828361511,0.840372622013092,0.10703291743993759,-0.10621320456266403,-0.5206117630004883,6.149453639984131,1.570543885231018,0.5430729985237122,9.416840553283691,-6.755133628845215,-9.004759788513184,-0.09449370950460434,0.8637285232543945,0.45116400718688965,6.0536322593688965,1.5631577968597412,0.744225025177002,0.4280291497707367,0.740927517414093,0.42000001668930054,-0.3258374035358429,1.313387393951416,-0.9474878907203674,-3.000000238418579,-0.2191605418920517,-0.20519237220287323,-0.19001516699790955,-0.17398801445960999,-0.9000257253646851,-0.6621882319450378,-0.44139987230300903,-0.24731695652008057
0.4666666666666667,0.020485632121562958,0.043727852404117584,0.0,0.7791867256164551,0.0,0.0,-0.6267918944358826,0.0030617136508226395,-0.5029361248016357,0.0,0.0,0.0,-5.518746852874756,0.006693728268146515,0.8808585405349731,0.45643386244773865,0.7710117101669312,0.09511331468820572,-0.1071571335196495,-0.6204931139945984,5.987725734710693,-0.5813955664634705,0.6429477334022522,10.26036262512207,-5.562767505645752,27.220882415771484,0.00565381720662117,0.880401611328125,0.4594821333885193,6.14046049118042,0.24463140964508057,0.4453108310699463,0.4280291497707367,0.740927517414093,0.42000001668930054,-0.30938005447387695,0.7090070247650146,-0.9975119233131409,-3.0000016689300537,-0.2306233048439026,-0.21280919015407562,-0.19395364820957184,-0.17459022998809814,-0.8326120972633362,-0.5478336811065674,-0.27237752079963684,-0.019157331436872482
0.48333333333333334,0.017686281353235245,0.041019801050424576,0.0,0.7662875652313232,0.0,0.0,-0.642497718334198,-0.1961386799812317,-0.13652724027633667,0.0,0.0,0.0,-1.0821253061294556,0.10483388602733612,0.8731142282485962,0.4634699523448944,0.695309042930603,0.08519110083580017,-0.10568660497665405,-0.7057747840881348,5.608583927154541,-0.9101729393005371,0.329059362411499,-4.201474189758301,-4.592976093292236,-3.529831647872925,0.10254372656345367,0.87465500831604,0.46685418486595154,5.67484188079834,-0.765582263469696,0.40209269523620605,0.4280291497707367,0.740927517414093,0.42000001668930054,-0.29826369881629944,0.7077003121376038,-1.0475351810455322,-2.9988021850585938,-0.2399607002735138,-0.22622135281562805,-0.20252476632595062,-0.17887252569198608,-0.0046258848160505295,-0.6917898058891296,-0.48319011926651,-0.3014635443687439
0.5,0.01744636707007885,0.03333601355552673,0.0,0.7462831139564514,0.0,0.0,-0.6656286120414734,-0.00120527483522892,-0.5211186408996582,0.0,0.0,0.0,-4.479994773864746,0.1947459578514099,0.8538964986801147,0.464350163936615,0.6182500123977661,0.06642934679985046,-0.10567554831504822,-0.7760069370269775,4.722029209136963,-1.9317227602005005,-0.1397661417722702,-12.558603286743164,0.11340905725955963,13.98193073272705,0.19192536175251007,0.8583604097366333,0.4687157869338989,5.1923370361328125,-1.4144344329833984,-0.024960916489362717,0.4280291497707367,0.740927517414093,0.42000001668930054,-0.28660649061203003,0.5959610342979431,-1.0975573062896729,-3.0000016689300537,-0.2366291731595993,-0.23254629969596863,-0.2063334584236145,-0.18046750128269196,0.16721764206886292,-0.2752246856689453,-0.1391664445400238,-0.018779924139380455
0.5166666666666666,0.01956757716834545,0.030196424573659897,0.0,0.738152265548706,0.0,0.0,-0.6746341586112976,0.1497850865125656,-0.183414489030838,0.0,0.0,0.0,-0.39826500415802,0.2711299657821655,0.823543906211853,0.45958051085472107,0.5870059132575989,0.03932906314730644,-0.11170107871294022,-0.8008745312690735,4.494947910308838,-1.7776662111282349,-0.26316672563552856,5.974910259246826,7.696253776550293,-24.712696075439453,0.2698892056941986,0.8280194401741028,0.4648674726486206,4.278102874755859,-2.0513927936553955,-0.4856818914413452,0.4280291497707367,0.740927517414093,0.42000001668930054,-0.27454501390457153,1.0299701690673828,-1.1475794315338135,-3.0000007152557373,-0.23810569941997528,-0.23882439732551575,-0.21035823225975037,-0.18263886868953705,0.1193215474486351,-0.14178435504436493,-0.10180060565471649,-0.07646265625953674
0.5333333333333333,0.02393975853919983,0.029582614079117775,0.0,0.7225591540336609,0.0,0.0,-0.6913090944290161,0.31088659167289734,0.02575831115245819,0.0,0.0,0.0,-3.6102380752563477,0.3365396559238434,0.7940611839294434,0.44991669058799744,0.5517853498458862,0.08895701915025711,-0.059165794402360916,-0.8271147608757019,3.4116296768188477,-1.7668445110321045,-0.9263657927513123,-1.0796841382980347,3.0090906620025635,5.989998817443848,0.33643317222595215,0.7973120808601379,0.4521900415420532,3.663925886154175,-1.8280372619628906,-0.8585305213928223,0.4280291497707367,0.740927517414093,0.42000001668930054,-0.2589947581291199,0.9816737771034241,-1.197601556777954,-2.99999737739563,-0.23423346877098083,-0.2390039563179016,-0.21139076352119446,-0.18458788096904755,0.33506304025650024,0.12093667685985565,-1.2143317462687264e-07,-0.11759583652019501
0.55,0.03072812408208847,0.0316464900970459,0.0,0.7195189595222473,0.0,0.0,-0.6944727897644043,0.43509259819984436,0.2123626321554184,0.0,0.0,0.0,0.41118574142456055,0.3920794725418091,0.7649139761924744,0.43378275632858276,0.4112466871738434,0.0835379883646965,-0.043308425694704056,-0.9066541790962219,2.983210802078247,-1.560840129852295,-1.010036587715149,10.999216079711914,-5.022116184234619,-20.507061004638672,0.3860573470592499,0.7671216726303101,0.4351557195186615,2.4484376907348633,-1.783697485923767,-1.1396315097808838,0.4280291497707367,0.740927517414093,0.42000001668930054,-0.24687471985816956,1.0119984149932861,-1.2476236820220947,-2.99965763092041,-0.22812636196613312,-0.23574933409690857,-0.21088002622127533,-0.1867147535085678,0.41237977147102356,0.26902762055397034,0.05898658186197281,-0.14150772988796234
0.5666666666666667,0.04022497311234474,0.02927565760910511,0.0,0.7061516642570496,0.0,0.0,-0.708060622215271,0.5415661334991455,-0.191119983792305,0.0,0.0,0.0,-3.1385836601257324,0.4266556203365326,0.745212972164154,0.42014309763908386,0.35677316784858704,-0.0013401018222793937,-0.003953827079385519,-0.9341816902160645,1.6933187246322632,-0.7570798397064209,-0.0030728154815733433,0.342369019985199,-0.04018396884202957,-14.797176361083984,0.422067791223526,0.7500649690628052,0.4270523488521576,1.5302516222000122,-0.5038231015205383,0.005948780104517937,0.4280291497707367,0.740927517414093,0.42000001668930054,-0.22491130232810974,1.6137385368347168,-1.2097396850585938,2.9999539852142334,-0.2163856476545334,-0.22513964772224426,-0.20481182634830475,-0.1853720247745514,0.6381585597991943,0.7219217419624329,0.465832382440567,0.1603342592716217
0.5833333333333334,0.046364326030015945,0.03142847120761871,0.0,0.7049186825752258,0.0,0.0,-0.7092881202697754,0.31846892833709717,0.15442700684070587,0.0,0.0,0.0,0.6895049810409546,0.4488277733325958,0.7389020919799805,0.420014888048172,0.4369296431541443,-0.0006370036862790585,0.000923832063563168,-0.8994949460029602,1.2420169115066528,-0.629829466342926,-0.0341266393661499,-0.9582206010818481,-1.3060752153396606,-0.24395842850208282,0.4418475329875946,0.7357233762741089,0.4258556365966797,0.8803310990333557,-0.9104294776916504,-0.2309035062789917,0.4280291497707367,0.740927517414093,0.42000001668930054,-0.2459999918937683,-3.0000014305114746,-1.2311738729476929,-2.9999845027923584,-0.2112368792295456,-0.21755144000053406,-0.2006738930940628,-0.1854378581047058,0.3465086817741394,0.4712837040424347,0.24202574789524078,-0.019687660038471222
0.6,0.053569305688142776,0.03651503473520279,0.0,0.6931849718093872,0.0,0.0,-0.7207596898078918,0.4397430419921875,0.3241911232471466,0.0,0.0,0.0,-2.8958585262298584,0.46094077825546265,0.7333734035491943,0.4208288788795471,0.46162012219429016,-0.008032898418605328,0.01365114189684391,-0.8869361877441406,0.4326885938644409,-0.08403395861387253,0.06046656519174576,0.19879131019115448,1.0539486408233643,4.073716640472412,0.4529377818107605,0.7304690480232239,0.42572343349456787,0.55177903175354,0.019258614629507065,0.1545468419790268,0.4280291497707367,0.740927517414093,0.42000001668930054,-0.27819567918777466,-1.0279957056045532,-1.2811317443847656,-2.9993784427642822,-0.20309437811374664,-0.2085471898317337,-0.19639140367507935,-0.1860349327325821,0.6713181734085083,0.663864254951477,0.3381480872631073,0.01940334588289261
0.6166666666666667,0.0630546361207962,0.03595593199133873,0.0,0.6930719614028931,0.0,0.0,-0.7208684086799622,0.5192373991012573,-0.057431016117334366,0.0,0.0,0.0,0.8838232159614563,0.4645397961139679,0.7329686880111694,0.4209570288658142,0.4886251986026764,-0.013983518816530704,0.011321064084768295,-0.8723082542419434,-0.0693313404917717,0.03432423248887062,0.05449691414833069,1.3650214672088623,1.5648255348205566,2.490327835083008,0.45566868782043457,0.7310802936553955,0.42842867970466614,-0.12399093806743622,0.07879898697137833,0.19184653460979462,0.4280291497707367,0.740927517414093,0.42000001668930054,-0.32083359360694885,-3.0002152919769287,-1.3311164379119873,-2.9979159832000732,-0.1886768341064453,-0.19434380531311035,-0.18780426681041718,-0.18282648921012878,0.7460969090461731,0.7841577529907227,0.48565346002578735,0.20224687457084656
0.6333333333333333,0.0739772841334343,0.039733875542879105,0.0,0.6859984397888184,0.0,0.0,-0.727603018283844,0.6925210952758789,0.2083747386932373,0.0,0.0,0.0,-2.293537139892578,0.4624441862106323,0.7347498536109924,0.42063668370246887,0.5196967720985413,-0.008444021455943584,0.013687506318092346,-0.8541994094848633,-0.14519260823726654,0.14941288530826569,-0.03647059202194214,-0.9399471879005432,-1.6571226119995117,4.382919788360596,0.4541158378124237,0.7350720167160034,0.4314298927783966,-0.033599480986595154,0.40348756313323975,0.21985045075416565,0.4280291497707367,0.740927517414093,0.42000001668930054,-0.3708733916282654,-2.9997494220733643,-1.3810864686965942,-2.9990053176879883,-0.17795096337795258,-0.18332059681415558,-0.181537464261055,-0.1809537261724472,0.7988201975822449,0.7565256953239441,0.4461961090564728,0.16743184626102448
0.65,0.08649837225675583,0.04001929983496666,0.0,0.6894679665565491,0.0,0.0,-0.7243161201477051,0.7791320085525513,-0.04257870092988014,0.0,0.0,0.0,1.48809814453125,0.4578683078289032,0.7385554909706116,0.42004865407943726,0.5503924489021301,0.0006700604571960866,-0.0009982174960896373,-0.8349051475524902,-0.4332119822502136,0.25760045647621155,-0.002020785352215171,0.01660694181919098,0.0978223979473114,3.696937322616577,0.44908004999160767,0.7394493222236633,0.43493470549583435,-0.4821435809135437,0.2178255021572113,0.22317901253700256,0.4280291497707367,0.740927517414093,0.42000001668930054,-0.4209095239639282,-3.0000007152557373,-1.4310771226882935,-2.999692678451538,-0.1674572229385376,-0.1728423684835434,-0.1750812828540802,-0.17806096374988556,0.5264348983764648,0.5456336140632629,0.3509103059768677,0.18080098927021027
0.6666666666666666,0.09623879194259644,0.04317433759570122,0.0,0.6908596158027649,0.0,0.0,-0.7229889035224915,0.5160751342773438,0.2093542218208313,0.0,0.0,0.0,-0.3856191039085388,0.4515071213245392,0.7423244714736938,0.4200000464916229,0.5713701248168945,1.4900474525347818e-06,1.5394456340800389e-06,-0.8206924200057983,-0.3631623089313507,0.21477960050106049,-1.85034004971385e-05,-0.0004436466842889786,-0.000890202063601464,2.805421829223633,0.4442831575870514,0.7428544759750366,0.43853604793548584,-0.0858403742313385,0.19947108626365662,0.23417478799819946,0.4280291497707367,0.740927517414093,0.42000001668930054,-0.4709627032279968,-3.000001907348633,-1.481041431427002,-2.998884677886963,-0.16127783060073853,-0.1661483347415924,-0.17089535295963287,-0.17595024406909943,0.420200914144516,0.4287220239639282,0.28665199875831604,0.17344830930233002
0.6833333333333333,0.10671341419219971,0.04252786189317703,0.0,0.704448401927948,0.0,0.0,-0.7097551822662354,0.6337859034538269,-0.09022635966539383,0.0,0.0,0.0,3.1281933784484863,0.44632405042648315,0.7453790903091431,0.4200000464916229,0.5863966941833496,1.0533145768931718e-06,1.1883288379976875e-06,-0.8100240230560303,-0.2935955226421356,0.17277021706104279,-1.525913830846548e-05,-0.0003319604438729584,-0.0007492908625863492,2.0187997817993164,0.4403058886528015,0.7442941665649414,0.4427485466003418,-0.3941953778266907,0.03076416254043579,0.3302431106567383,0.4280291497707367,0.740927517414093,0.42000001668930054,-0.5209767818450928,-3.0000007152557373,-1.5310592651367188,-3.000000476837158,-0.15552738308906555,-0.15973585844039917,-0.16585418581962585,-0.17181448638439178,0.2124679833650589,0.2852151691913605,0.2609196603298187,0.2627028822898865
0.7,0.11833717674016953,0.03853878006339073,0.0,0.705793023109436,0.0,0.0,-0.708418071269989,0.7280996441841125,-0.293000191450119,0.0,0.0,0.0,-0.7642255425453186,0.4423045516014099,0.7477372884750366,0.4200000464916229,0.5964892506599426,6.315045197879954e-07,8.447583468296216e-07,-0.8026209473609924,-0.2237078994512558,0.13104186952114105,-1.3072218280285597e-05,-0.00026332613197155297,-0.0006501607713289559,1.3344017267227173,0.43927520513534546,0.7453886866569519,0.4471232295036316,0.15162990987300873,0.03720990940928459,0.2842109799385071,0.4280291497707367,0.740927517414093,0.42000001668930054,-0.5709881782531738,-2.9997987747192383,-1.5810717344284058,-2.9999096393585205,-0.15341797471046448,-0.15614448487758636,-0.16191473603248596,-0.16703622043132782,0.09148843586444855,0.19137927889823914,0.24724380671977997,0.333966463804245
0.7166666666666667,0.13168512284755707,0.031068090349435806,0.0,0.6867431998252869,0.0,0.0,-0.7269001007080078,0.8375430703163147,-0.5278542041778564,0.0,0.0,0.0,-4.043128490447998,0.4394533932209015,0.7494033575057983,0.4200000464916229,0.6024981141090393,3.8801977098046336e-07,5.397246809479839e-07,-0.7981203198432922,-0.15355171263217926,0.08955176174640656,-1.1599448043853045e-05,-0.0002263839269289747,-0.0005835912306793034,0.7597024440765381,0.44722652435302734,0.7483524084091187,0.4591677486896515,0.7745518684387207,0.26887863874435425,1.2704522609710693,0.4280291497707367,0.740927517414093,0.42000001668930054,-0.6209990382194519,-2.9999797344207764,-1.6310864686965942,-3.000000238418579,-0.15425902605056763,-0.15523597598075867,-0.15966260433197021,-0.16295218467712402,-0.12469880282878876,-0.017613200470805168,0.08124588429927826,0.2071387618780136
0.7333333333333333,0.14870578050613403,0.029096342623233795,0.0,0.647922933101654,0.0,0.0,-0.7617058753967285,1.0957493782043457,0.02203257754445076,0.0,0.0,0.0,-7.645257949829102,0.4377714693546295,0.7503833770751953,0.4200000464916229,0.6052781343460083,2.754815113803488e-07,1.3418619460026093e-07,-0.7960139513015747,-0.08316224068403244,0.04826056584715843,-4.258239641785622e-06,-0.00015433327644132078,0.00023355381563305855,0.3122788965702057,0.4694805443286896,0.7472232580184937,0.48516571521759033,2.139277458190918,-0.4771788716316223,1.933456540107727,0.4280291497707367,0.740927517414093,0.42000001668930054,-0.6710011959075928,-2.997344732284546,-1.6811009645462036,-2.9997661113739014,-0.16514156758785248,-0.16281725466251373,-0.16396071016788483,-0.16371232271194458,-0.8803512454032898,-0.6340365409851074,-0.3808023929595947,-0.1197650209069252
0.75,0.1623053401708603,0.03265184164047241,0.0,0.6195525527000427,0.0,0.0,-0.7849551439285278,0.7249985933303833,-0.005166612099856138,0.0,0.0,0.0,-3.0314927101135254,0.43724551796913147,0.7506890296936035,0.4200000464916229,0.6058768033981323,2.278990649529078e-07,-1.398747997427563e-07,-0.7955584526062012,-0.012547447346150875,0.007194092962890863,-5.97233884036541e-06,-0.0003295974456705153,0.0003446891496423632,0.026655182242393494,0.498319536447525,0.743061900138855,0.51903235912323,1.575066328048706,0.022889122366905212,2.0286738872528076,0.4280291497707367,0.740927517414093,0.42000001668930054,-0.6862627863883972,0.7801704406738281,-1.7311152219772339,-3.0,-0.17728497087955475,-0.17268216609954834,-0.17047230899333954,-0.16683515906333923,-0.2375844269990921,-0.24355652928352356,-0.175139918923378,-0.09626114368438721
0.7666666666666666,0.17083634436130524,0.03415897116065025,0.0,0.618908703327179,0.0,0.0,-0.7854629158973694,0.43114230036735535,0.13979651033878326,0.0,0.0,0.0,0.8168137073516846,0.43724524974823,0.7506892085075378,0.4200000464916229,0.6058772206306458,1.0229693998553557e-06,-2.9136087960068835e-06,-0.7955581545829773,0.0001672346843406558,-0.00020647748897317797,-9.349430911242962e-05,0.004227862693369389,-0.00020346490782685578,-0.0006055047851987183,0.5207130908966064,0.7439455986022949,0.5482311844825745,0.9775892496109009,0.07766589522361755,1.4809074401855469,0.4280291497707367,0.740927517414093,0.42000001668930054,-0.6500973105430603,2.9999773502349854,-1.691756010055542,2.999999761581421,-0.17942273616790771,-0.17517483234405518,-0.17214246094226837,-0.16754774749279022,-0.04079447314143181,-0.07302393019199371,-0.04055676981806755,-0.0036271994467824697
0.7833333333333333,0.17483386397361755,0.032011307775974274,0.0,0.6408188939094543,0.0,0.0,-0.7676920890808105,0.2653343677520752,-0.226822629570961,0.0,0.0,0.0,4.048691749572754,0.43724524974823,0.7506892085075378,0.4200000464916229,0.6058768630027771,6.514707706628542e-07,-3.223052317480324e-06,-0.7955584526062012,0.0001466352550778538,-0.00027534441323950887,-9.667081758379936e-05,0.006048164330422878,-0.0009686058619990945,-0.0006217893678694963,0.5285098552703857,0.7471479177474976,0.5686996579170227,-0.09599270671606064,0.16720937192440033,0.9623381495475769,0.4280291497707367,0.740927517414093,0.42000001668930054,-0.6000969409942627,2.999973773956299,-1.6416995525360107,3.000000238418579,-0.1760341376066208,-0.1727326512336731,-0.16967813670635223,-0.16503091156482697,0.10890692472457886,0.08318054676055908,0.10529746860265732,0.12177509814500809
0.8,0.17666752636432648,0.03393253684043884,0.0,0.6477434039115906,0.0,0.0,-0.7618585824966431,0.04349447041749954,0.10937365889549255,0.0,0.0,0.0,0.039102885872125626,0.4372452199459076,0.7506892681121826,0.4200000464916229,0.6058768033981323,6.68437053263915e-07,-3.2733332773204893e-06,-0.795558512210846,0.00014521449338644743,-0.0002760013740044087,-9.638117626309395e-05,0.0060726250521838665,-0.0009894235990941525,-0.0006192164146341383,0.5240912437438965,0.7482468485832214,0.5810036659240723,-0.2977267801761627,0.046822354197502136,0.6291452050209045,0.4280291497707367,0.740927517414093,0.42000001668930054,-0.5848162174224854,-0.8442180752754211,-1.5916430950164795,2.999999523162842,-0.17878177762031555,-0.1750212162733078,-0.17080086469650269,-0.16512511670589447,-0.03901210054755211,-0.03490953519940376,0.01233907975256443,0.05675789341330528
0.8166666666666667,0.17545951902866364,0.03553790971636772,0.0,0.6639809012413025,0.0,0.0,-0.7477495074272156,-0.1174754872918129,0.08726189285516739,0.0,0.0,0.0,3.4131970405578613,0.4372452199459076,0.7506892681121826,0.4200000464916229,0.605876624584198,5.964558908999607e-07,-3.1467909593629884e-06,-0.795558512210846,0.00014722792548127472,-0.0002767912810668349,-9.668688289821148e-05,0.00608222046867013,-0.0009644776582717896,-0.0006239335634745657,0.5201703310012817,0.7477269172668457,0.5878000855445862,-0.2014252096414566,-0.029189016669988632,0.259996235370636,0.4280291497707367,0.740927517414093,0.42000001668930054,-0.5846976637840271,0.7210078239440918,-1.6057764291763306,-3.0000007152557373,-0.17953988909721375,-0.1752772331237793,-0.1699318140745163,-0.16321347653865814,0.0054775713942945,0.04137001186609268,0.10977844148874283,0.17280364036560059
0.8333333333333334,0.17540965974330902,0.03488697484135628,0.0,0.6661938428878784,0.0,0.0,-0.7457786202430725,0.03766563534736633,-0.08912495523691177,0.0,0.0,0.0,-0.5649757981300354,0.4372452199459076,0.7506892681121826,0.4200000464916229,0.6058769226074219,4.5530956072070694e-07,-3.1540810141450493e-06,-0.7955583333969116,0.00014461006503552198,-0.0002761580399237573,-9.61644109338522e-05,0.006080984603613615,-0.0009948954684659839,-0.0006176418391987681,0.5146758556365967,0.749305248260498,0.5878775119781494,-0.4299377501010895,0.1480845808982849,-0.07511302083730698,0.4280291497707367,0.740927517414093,0.42000001668930054,-0.5877038836479187,-0.9356366991996765,-1.5667518377304077,3.000000476837158,-0.17964090406894684,-0.17503859102725983,-0.1688898503780365,-0.1614520102739334,0.011943725869059563,0.020944876596331596,0.052348650991916656,0.07823380082845688
0.85,0.17790967226028442,0.03337850049138069,0.0,0.6775175333023071,0.0,0.0,-0.7355066537857056,0.20249225199222565,-0.08742105215787888,0.0,0.0,0.0,2.6912436485290527,0.4372452199459076,0.7506892681121826,0.4200000464916229,0.6058768033981323,5.897863388781843e-07,-3.021584689122392e-06,-0.7955584526062012,0.00014682754408568144,-0.0002768202393781394,-9.659351781010628e-05,0.006085157860070467,-0.0009694101754575968,-0.0006230662111192942,0.5095323920249939,0.7506487965583801,0.5878430008888245,-0.2105882316827774,0.04402252659201622,0.13188886642456055,0.4280291497707367,0.740927517414093,0.42000001668930054,-0.6082065105438232,-1.4624892473220825,-1.5814741849899292,-2.999999523162842,-0.17910631000995636,-0.17427214980125427,-0.16750645637512207,-0.15946663916110992,0.0694098174571991,0.08541490137577057,0.12352509796619415,0.16371245682239532
0.8666666666666667,0.182540625333786,0.029615120962262154,0.0,0.6763564348220825,0.0,0.0,-0.7365744709968567,0.3140261769294739,-0.2842070758342743,0.0,0.0,0.0,-1.0776093006134033,0.43724524974823,0.7506892681121826,0.4200000464916229,0.6058768630027771,5.147601882526942e-07,-3.2987770737236133e-06,-0.7955583930015564,0.00014399901556316763,-0.0002792416780721396,-9.577255696058273e-05,0.006159196607768536,-0.0010128231951966882,-0.0006182839279063046,0.5082367062568665,0.7512499094009399,0.5852972865104675,0.01923263818025589,-0.03952421247959137,-0.24397161602973938,0.4280291497707367,0.740927517414093,0.42000001668930054,-0.6438466906547546,-2.680030107498169,-1.6314918994903564,-2.9999992847442627,-0.17838913202285767,-0.1731012761592865,-0.16553613543510437,-0.1566278636455536,0.06596990674734116,0.10352011770009995,0.15877993404865265,0.21849891543388367
0.8833333333333333,0.18975168466567993,0.02818484604358673,0.0,0.6549898982048035,0.0,0.0,-0.7556376457214355,0.4795112907886505,-0.025371085852384567,0.0,0.0,0.0,-4.243812561035156,0.4372452199459076,0.7506892085075378,0.4200000464916229,0.6058770418167114,5.657731207975303e-07,-3.24116649608186e-06,-0.7955582737922668,0.00014403460954781622,-0.0002778456546366215,-9.590829722583294e-05,0.006124965380877256,-0.0010081051150336862,-0.0006177420145832002,0.5128588080406189,0.7507774829864502,0.5823919773101807,0.5052474141120911,-0.03753771260380745,0.04532516375184059,0.4280291497707367,0.740927517414093,0.42000001668930054,-0.6741951107978821,-1.0763788223266602,-1.6815063953399658,-2.9999992847442627,-0.17830827832221985,-0.1727176308631897,-0.1645798534154892,-0.15499050915241241,0.04373806342482567,0.03987942263484001,0.04989292845129967,0.06746233999729156
0.9,0.19480346143245697,0.029670801013708115,0.0,0.648070752620697,0.0,0.0,-0.7615801095962524,0.22683219611644745,0.1365756392478943,0.0,0.0,0.0,-0.11652419716119766,0.4372452199459076,0.7506892085075378,0.4200000464916229,0.6058768033981323,4.593979667788517e-07,-3.0915880415705033e-06,-0.7955584526062012,0.00014555742382071912,-0.0002758361806627363,-9.642401710152626e-05,0.006067400798201561,-0.0009830939816311002,-0.0006197556504048407,0.5191801190376282,0.7520039081573486,0.5859434604644775,0.24036508798599243,0.2110719382762909,0.35470813512802124,0.4280291497707367,0.740927517414093,0.42000001668930054,-0.6636760234832764,2.0573041439056396,-1.731513261795044,-2.999999761581421,-0.17640896141529083,-0.1713884323835373,-0.16371184587478638,-0.1545211523771286,0.1828351616859436,0.11758093535900116,0.05192696675658226,-0.013474913313984871
0.9166666666666666,0.1958996206521988,0.026862818747758865,0.0,0.6638268232345581,0.0,0.0,-0.7478863596916199,0.06161696836352348,-0.21666395664215088,0.0,0.0,0.0,3.2283198833465576,0.4372452199459076,0.7506892681121826,0.4200000464916229,0.6058766841888428,5.867321419827931e-07,-3.1235058486345224e-06,-0.795558512210846,0.00014760627527721226,-0.0002765618555713445,-9.683310054242611e-05,0.006073541007936001,-0.000960837525781244,-0.0006247625569812953,0.5195199847221375,0.7567405700683594,0.5924005508422852,-0.21244050562381744,0.2954513430595398,0.40519392490386963,0.4280291497707367,0.740927517414093,0.42000001668930054,-0.635890543460846,1.3188676834106445,-1.6921508312225342,2.9999992847442627,-0.1702224761247635,-0.1666882038116455,-0.16060200333595276,-0.15304583311080933,0.2920662462711334,0.21589845418930054,0.1262645274400711,0.028513601049780846
