vladlanda/robotic-transformer/data/env_000_episode_0067.csv
sim_time_s,robot_box_x,robot_box_y,robot_box_z,robot_box_quat_w,robot_box_quat_x,robot_box_quat_y,robot_box_quat_z,robot_box_linvel_x,robot_box_linvel_y,robot_box_linvel_z,robot_box_angvel_x,robot_box_angvel_y,robot_box_angvel_z,cube_world_x,cube_world_y,cube_world_z,cube_quat_w,cube_quat_x,cube_quat_y,cube_quat_z,cube_linvel_x,cube_linvel_y,cube_linvel_z,cube_angvel_x,cube_angvel_y,cube_angvel_z,endpoint_world_x,endpoint_world_y,endpoint_world_z,endpoint_linvel_x,endpoint_linvel_y,endpoint_linvel_z,target_cube_world_x,target_cube_world_y,target_cube_world_z,gripper_actual_pos_rad_gp_leftgearjoint,gripper_actual_vel_rad_s_gp_leftgearjoint,gripper_actual_pos_rad_gp_rotatingjoint,gripper_actual_vel_rad_s_gp_rotatingjoint,motor_angle_rad_joint1,motor_angle_rad_joint2,motor_angle_rad_joint3,motor_angle_rad_joint4,motor_speed_rad_s_joint1,motor_speed_rad_s_joint2,motor_speed_rad_s_joint3,motor_speed_rad_s_joint4
0.0,0.0,0.0,0.0,1.0,0.0,0.0,0.0,0.0,0.0,0.0,0.0,0.0,0.0,-0.37505072355270386,0.7033026814460754,0.41999998688697815,1.0,0.0,0.0,0.0,0.0,0.0,0.0,0.0,0.0,0.0,3.42540442943573e-06,-0.005000244826078415,1.313499927520752,0.0,0.0,0.0,0.42766374349594116,0.7179616689682007,0.42000001668930054,-1.5707999467849731,0.0,0.0,0.0,0.0,0.0,0.0,0.0,0.0,0.0,0.0,0.0
0.016666666666666666,0.002881035441532731,0.002177012152969837,0.0,0.9998153448104858,0.0,0.0,0.019215138629078865,0.2409626543521881,0.1822783499956131,0.0,0.0,0.0,3.141801118850708,-0.3750508427619934,0.7033023834228516,0.41999998688697815,1.0,3.279964630564791e-06,-8.339746386809566e-07,8.465587342243452e-08,-1.9833529222523794e-05,0.00017983045836444944,-6.132945418357849e-05,0.0009432713268324733,-0.004689474124461412,-0.00031981561915017664,-0.007109090685844421,0.0033890954218804836,1.3159382343292236,-0.8140131831169128,0.9872269630432129,0.18096089363098145,0.42766374349594116,0.7179616689682007,0.42000001668930054,-1.5301094055175781,3.0000011920928955,-0.04584880545735359,-2.999999523162842,0.0008701254264451563,0.0007967790006659925,0.000711353903170675,0.0006112083792686462,0.11095035821199417,0.09758827090263367,0.08336500078439713,0.06825929880142212
0.03333333333333333,0.008964813314378262,0.006796305533498526,0.0,0.9998034834861755,0.0,0.0,0.019825292751193047,0.4070613384246826,0.3151877820491791,0.0,0.0,0.0,-0.8690730333328247,-0.37505096197128296,0.7033023238182068,0.4200000464916229,1.0,3.3908354453160428e-06,-2.1324485715012997e-06,-3.710144014235084e-08,0.00026357831666246057,0.00026937946677207947,-0.00010509486310184002,-0.0017707672668620944,0.004130808170884848,-0.000135478752781637,-0.027539454400539398,0.02630971558392048,1.3165830373764038,-1.590226650238037,1.6175745725631714,-0.08679012954235077,0.42766374349594116,0.7179616689682007,0.42000001668930054,-1.4800901412963867,3.00000262260437,-0.0958886444568634,-3.000000476837158,0.0029903838876634836,0.0026526653673499823,0.0022772233933210373,0.0018607106758281589,0.16416668891906738,0.1397240310907364,0.11378591507673264,0.08626936376094818
0.05,0.018476620316505432,0.013900895603001118,0.0,0.9999741911888123,0.0,0.0,-0.00718609569594264,0.6362586617469788,0.47236910462379456,0.0,0.0,0.0,-4.073380470275879,-0.37505099177360535,0.7033023834228516,0.4200000464916229,1.0,3.7651125239790417e-06,-2.211879063906963e-06,5.622505128144439e-09,0.000265308452071622,0.0002669153327587992,-0.00010440615005791187,-0.001724260626360774,0.004177352879196405,-0.00012949221127200872,-0.057135771960020065,0.05781438201665878,1.3118048906326294,-1.9480355978012085,2.08740234375,-0.4692811965942383,0.42766374349594116,0.7179616689682007,0.42000001668930054,-1.4300718307495117,3.000002861022949,-0.1459273397922516,-3.0000009536743164,0.006013565696775913,0.005174000281840563,0.004262127913534641,0.0032736193388700485,0.2070939838886261,0.16673456132411957,0.12445182353258133,0.0801708772778511
0.06666666666666667,0.03080124966800213,0.023392371833324432,0.0,0.999875009059906,0.0,0.0,-0.015811622142791748,0.7727504968643188,0.6162834763526917,0.0,0.0,0.0,-0.03609783574938774,-0.37505099177360535,0.7033023238182068,0.4200000464916229,0.9999999403953552,3.4066883927152958e-06,-2.285532218593289e-06,4.300976286231162e-07,0.0002670241810847074,0.00026791772688739,-0.00010438147000968456,-0.00174069800414145,0.00421178387477994,-0.00012850729399360716,-0.09278370440006256,0.09178578853607178,1.3012609481811523,-2.1965172290802,2.155830144882202,-0.7852234840393066,0.42766374349594116,0.7179616689682007,0.42000001668930054,-1.380046010017395,3.000000476837158,-0.1605391651391983,0.9149680137634277,0.008571536280214787,0.006957740522921085,0.0052313474006950855,0.003386848606169224,0.13075150549411774,0.0741799846291542,0.015439965762197971,-0.04551112651824951
0.08333333333333333,0.037512216717004776,0.03662121295928955,0.0,0.9992169141769409,0.0,0.0,-0.03956742212176323,0.2192358672618866,0.8791221380233765,0.0,0.0,0.0,-3.810849905014038,-0.37505099177360535,0.7033023238182068,0.4200000464916229,0.9999999403953552,3.626031229941873e-06,-2.3352447442448465e-06,3.032197639640799e-07,0.0002661392209120095,0.0002668500819709152,-0.00010405294597148895,-0.0017282416811212897,0.00419628107920289,-0.00012790791515726596,-0.12459469586610794,0.13169412314891815,1.2861664295196533,-1.6466953754425049,2.6397876739501953,-0.9741849899291992,0.42766374349594116,0.7179616689682007,0.42000001668930054,-1.3300387859344482,3.0000014305114746,-0.202846959233284,-2.999999761581421,0.004873823374509811,0.0024425205774605274,-0.00015472163795493543,-0.0029266667552292347,-0.38192886114120483,-0.4401687979698181,-0.5012950897216797,-0.5655478835105896
0.1,0.04701940342783928,0.051724888384342194,0.0,0.995837390422821,0.0,0.0,-0.09114758670330048,0.7393295764923096,0.9026411771774292,0.0,0.0,0.0,-6.965000629425049,-0.37505099177360535,0.7033023238182068,0.4200000464916229,1.0,3.4220790894323727e-06,-2.3084901386027923e-06,1.7962952369998675e-07,0.00026681559393182397,0.0002680041070561856,-0.00010440824553370476,-0.001743067754432559,0.004207110498100519,-0.0001289140636799857,-0.15358345210552216,0.17802301049232483,1.2693367004394531,-1.8221986293792725,2.931694507598877,-1.0786471366882324,0.42766374349594116,0.7179616689682007,0.42000001668930054,-1.2800214290618896,2.999998092651367,-0.1998661756515503,2.8523776531219482,0.002651512622833252,-0.0012619607150554657,-0.00534969475120306,-0.009620663709938526,-0.0033735069446265697,-0.10592006146907806,-0.2073882520198822,-0.30771228671073914
0.11666666666666667,0.05554492026567459,0.06375069916248322,0.0,0.9924183487892151,0.0,0.0,-0.1229056790471077,0.5403993725776672,0.6838982701301575,0.0,0.0,0.0,-2.57743239402771,-0.37505099177360535,0.7033023834228516,0.4200000464916229,1.0,3.7115073610038962e-06,-2.3326228983933106e-06,2.57426904681779e-07,0.00026485775015316904,0.0002663534542080015,-0.00010423525236546993,-0.0017181745497509837,0.004170077387243509,-0.0001291574299102649,-0.1869867444038391,0.22382885217666626,1.2502985000610352,-1.93084716796875,2.9435338973999023,-1.1226844787597656,0.42766374349594116,0.7179616689682007,0.42000001668930054,-1.2300326824188232,3.0000014305114746,-0.23218871653079987,-2.999999523162842,0.0003032448294106871,-0.00527002289891243,-0.010990954004228115,-0.016868067905306816,-0.05573858693242073,-0.176712766289711,-0.2943423092365265,-0.4084358811378479
0.13333333333333333,0.061855118721723557,0.07307835668325424,0.0,0.9864052534103394,0.0,0.0,-0.16433082520961761,0.32834628224372864,0.4804944396018982,0.0,0.0,0.0,-5.801847457885742,-0.37505099177360535,0.7033023238182068,0.4200000464916229,0.9999999403953552,3.4247434541612165e-06,-2.301918129887781e-06,1.559943285656118e-07,0.00026707028155215085,0.0002681135665625334,-0.00010444503277540207,-0.0017433665925636888,0.0042120604775846004,-0.00012877194967586547,-0.21784469485282898,0.2783019542694092,1.2273987531661987,-1.7170597314834595,3.643184185028076,-1.591506838798523,0.42766374349594116,0.7179616689682007,0.42000001668930054,-1.1800192594528198,2.9999916553497314,-0.19822752475738525,2.9999992847442627,-0.002212452469393611,-0.009640595875680447,-0.01715315319597721,-0.02475663460791111,-0.19642281532287598,-0.29946860671043396,-0.39842215180397034,-0.49317634105682373
0.15,0.06435246020555496,0.08325313031673431,0.0,0.975122332572937,0.0,0.0,-0.22166749835014343,0.07300310581922531,0.6668087244033813,0.0,0.0,0.0,-7.619124412536621,-0.37505099177360535,0.7033023238182068,0.4200000464916229,1.0,3.713894102475024e-06,-2.207782927143853e-06,-1.690906259455005e-07,0.000263532972894609,0.0002653604024089873,-0.00010421779006719589,-0.0017012703465297818,0.004144108854234219,-0.00012960596359334886,-0.24948003888130188,0.33929499983787537,1.1963014602661133,-1.8021595478057861,3.9119062423706055,-2.1779470443725586,0.42766374349594116,0.7179616689682007,0.42000001668930054,-1.1459718942642212,1.2132518291473389,-0.22970008850097656,-2.999999523162842,-0.007171100005507469,-0.016087858006358147,-0.025009244680404663,-0.03394049033522606,-0.37903890013694763,-0.4493401348590851,-0.5150145888328552,-0.5760653614997864
0.16666666666666666,0.06991337239742279,0.09465569257736206,0.0,0.9660434126853943,0.0,0.0,-0.25837981700897217,0.34233003854751587,0.7549877166748047,0.0,0.0,0.0,-3.445978879928589,-0.37505099177360535,0.7033023238182068,0.4200000464916229,0.9999999403953552,3.638363523350563e-06,-2.2787546640756773e-06,2.7007297376258066e-07,0.00026682831230573356,0.0002675004070624709,-0.00010410277172923088,-0.0017399663338437676,0.004210250452160835,-0.00012781910481862724,-0.28579914569854736,0.4021124839782715,1.1526803970336914,-2.0736122131347656,4.0076985359191895,-3.0552351474761963,0.42766374349594116,0.7179616689682007,0.42000001668930054,-1.101900339126587,3.0000007152557373,-0.2797137200832367,-3.0000009536743164,-0.01280384324491024,-0.022579578682780266,-0.03228680416941643,-0.04193365201354027,-0.4863671660423279,-0.5021546483039856,-0.5151405334472656,-0.5256644487380981
0.18333333333333332,0.07236743718385696,0.10474372655153275,0.0,0.9520577788352966,0.0,0.0,-0.30591827630996704,0.1265053153038025,0.5332860946655273,0.0,0.0,0.0,-6.791083812713623,-0.37505099177360535,0.7033023238182068,0.4200000464916229,1.0,3.386441903785453e-06,-2.3001909994491143e-06,1.4392985292488447e-07,0.00026674664695747197,0.00026787363458424807,-0.00010437029413878918,-0.0017413290916010737,0.004206034820526838,-0.00012878714187536389,-0.31691935658454895,0.4712873101234436,1.094313144683838,-1.5168848037719727,4.378642559051514,-3.8206355571746826,0.42766374349594116,0.7179616689682007,0.42000001668930054,-1.0518972873687744,3.0000007152557373,-0.3297405242919922,-3.000000476837158,-0.02451194077730179,-0.03404979407787323,-0.04349670931696892,-0.05287076160311699,-0.7174243330955505,-0.699523389339447,-0.6802895069122314,-0.6602859497070312
0.2,0.07672907412052155,0.11550293862819672,0.0,0.9422284364700317,0.0,0.0,-0.33497098088264465,0.3009345233440399,0.6671701669692993,0.0,0.0,0.0,-2.592449903488159,-0.37505099177360535,0.7033023834228516,0.4200000464916229,1.0,3.67552570423868e-06,-2.326474941583001e-06,2.211330638601794e-07,0.0002648457884788513,0.0002663124760147184,-0.00010421779006719589,-0.0017177596455439925,0.004169980529695749,-0.00012909664656035602,-0.3445538878440857,0.5380547642707825,1.0221960544586182,-1.3986661434173584,3.9570584297180176,-4.74593448638916,0.42766374349594116,0.7179616689682007,0.42000001668930054,-1.001894235610962,3.0000007152557373,-0.37976595759391785,-2.999999761581421,-0.03935045376420021,-0.04785608872771263,-0.056288689374923706,-0.0646822452545166,-0.9485341906547546,-0.8703854084014893,-0.794032871723175,-0.7204431295394897
0.21666666666666667,0.07927972823381424,0.12388240545988083,0.0,0.9274247288703918,0.0,0.0,-0.3740098178386688,0.09483465552330017,0.42071980237960815,0.0,0.0,0.0,-5.9435834884643555,-0.37505099177360535,0.7033023238182068,0.4200000464916229,1.0,3.3223188893316546e-06,-2.207966417699936e-06,2.742777382991335e-07,0.0002666293876245618,0.0002674947609193623,-0.00010426202788949013,-0.0017357135657221079,0.004204758442938328,-0.00012833744403906167,-0.36501002311706543,0.6018737554550171,0.9349625110626221,-0.8887032270431519,3.6871299743652344,-5.618379592895508,0.42766374349594116,0.7179616689682007,0.42000001668930054,-0.951884925365448,3.0000011920928955,-0.4297938048839569,-2.9999992847442627,-0.05561935529112816,-0.06395909190177917,-0.07162562012672424,-0.07846149057149887,-0.985580563545227,-0.978692352771759,-0.9696182608604431,-0.870331883430481
0.23333333333333334,0.07784972339868546,0.1330939531326294,0.0,0.9189849495887756,0.0,0.0,-0.39429256319999695,-0.16141068935394287,0.596214771270752,0.0,0.0,0.0,-1.5598715543746948,-0.37505099177360535,0.7033023238182068,0.4200000464916229,1.0,3.656558874354232e-06,-2.373421239099116e-06,-4.07681653769032e-07,0.0002661168109625578,0.00026725910720415413,-0.00010423432104289532,-0.0017335852608084679,0.004194697830826044,-0.00012854808301199228,-0.3818734288215637,0.652541995048523,0.8371561765670776,-0.763679027557373,2.6247751712799072,-6.099262237548828,0.42766374349594116,0.7179616689682007,0.42000001668930054,-0.9018742442131042,3.0000009536743164,-0.4798237979412079,-3.000000476837158,-0.07210666686296463,-0.08042121678590775,-0.08806205540895462,-0.09487508982419968,-0.9890187382698059,-0.9910712242126465,-0.9840266108512878,-0.9775257706642151
0.25,0.07975653558969498,0.13751423358917236,0.0,0.9191797375679016,0.0,0.0,-0.3938383162021637,0.13259387016296387,0.19080831110477448,0.0,0.0,0.0,0.7906720638275146,-0.37505099177360535,0.7033023834228516,0.4200000464916229,1.0,3.6305639241618337e-06,-2.242603613922256e-06,1.1206775951677628e-08,0.00026679999427869916,0.0002670604735612869,-0.00010390859097242355,-0.0017342414939776063,0.0042106076143682,-0.00012702932872343808,-0.3981602191925049,0.6867563128471375,0.7344102263450623,-0.898185133934021,1.463304877281189,-6.280745506286621,0.42766374349594116,0.7179616689682007,0.42000001668930054,-0.8518635630607605,2.999978542327881,-0.5298540592193604,-3.0,-0.08700205385684967,-0.09528061002492905,-0.10281229019165039,-0.1095234677195549,-0.989534854888916,-0.9912933707237244,-0.985586404800415,-0.9766919612884521
0.26666666666666666,0.0778701901435852,0.13915322721004486,0.0,0.913276731967926,0.0,0.0,-0.4073396325111389,-0.19930219650268555,0.06143784523010254,0.0,0.0,0.0,-2.6428909301757812,-0.37505096197128296,0.7033023238182068,0.4200000464916229,0.9999999403953552,3.740145530173322e-06,-2.2362976324075134e-06,4.499700310134358e-07,0.0002647962246555835,0.00026673031970858574,-0.00010454049333930016,-0.0017189658246934414,0.004166740458458662,-0.00013016746379435062,-0.4051649272441864,0.7036109566688538,0.6265388131141663,-0.056285105645656586,0.4117400050163269,-6.42117977142334,0.42766374349594116,0.7179616689682007,0.42000001668930054,-0.8018542528152466,3.000002861022949,-0.5798838138580322,-3.000001907348633,-0.10453362762928009,-0.11256835609674454,-0.11991807073354721,-0.12648887932300568,-1.0047566890716553,-1.0035792589187622,-1.002681016921997,-1.0019675493240356
0.2833333333333333,0.07205981016159058,0.13906510174274445,0.0,0.9141510128974915,0.0,0.0,-0.40537387132644653,-0.4029834270477295,-0.03908996656537056,0.0,0.0,0.0,1.1373708248138428,-0.37505099177360535,0.7033023238182068,0.4200000464916229,1.0,3.3916744541784283e-06,-2.291099690410192e-06,1.245939671434826e-07,0.0002667730441316962,0.00026789261028170586,-0.0001043747179210186,-0.001741221291013062,0.00420632166787982,-0.00012878607958555222,-0.40470433235168457,0.7041858434677124,0.5284169316291809,0.21248915791511536,-0.35614386200904846,-5.42726993560791,0.42766374349594116,0.7179616689682007,0.42000001668930054,-0.7518454790115356,3.000000476837158,-0.6299124360084534,-3.0000011920928955,-0.12231628596782684,-0.13009095191955566,-0.13724590837955475,-0.14366409182548523,-1.0124996900558472,-1.009448528289795,-1.0071189403533936,-1.005255937576294
0.3,0.0716269388794899,0.13511338829994202,0.0,0.9090068936347961,0.0,0.0,-0.41678115725517273,0.09883404523134232,-0.3113209903240204,0.0,0.0,0.0,-2.3998963832855225,-0.37505099177360535,0.7033023834228516,0.4200000464916229,1.0,3.680724148580339e-06,-2.319047325727297e-06,2.0107752618514496e-07,0.0002647917135618627,0.00026625802274793386,-0.00010421290062367916,-0.0017169015482068062,0.0041690124198794365,-0.00012909753422718495,-0.3963357210159302,0.7051130533218384,0.43691301345825195,0.7843877077102661,0.20672005414962769,-5.362395763397217,0.42766374349594116,0.7179616689682007,0.42000001668930054,-0.7018376588821411,2.9999985694885254,-0.6799392104148865,-3.0000009536743164,-0.13813142478466034,-0.14607170224189758,-0.15340344607830048,-0.16001799702644348,-1.0052350759506226,-1.0039728879928589,-1.0030086040496826,-1.0022321939468384
0.31666666666666665,0.06786003708839417,0.130311980843544,0.0,0.9109413027763367,0.0,0.0,-0.41253602504730225,-0.30681318044662476,-0.30280908942222595,0.0,0.0,0.0,1.4832109212875366,-0.37505099177360535,0.7033023238182068,0.4200000464916229,1.0,3.3042595077859005e-06,-2.2214348973648157e-06,2.535415148940956e-07,0.00026660808362066746,0.00026745093055069447,-0.00010424340143799782,-0.0017352963332086802,0.004204468801617622,-0.0001282812445424497,-0.39759382605552673,0.7093977928161621,0.42639124393463135,0.03756390139460564,0.3145424425601959,-0.2193428874015808,0.42766374349594116,0.7179616689682007,0.42000001668930054,-0.6518328189849854,2.999983549118042,-0.7303982377052307,-3.0000016689300537,-0.1508404016494751,-0.15863735973834991,-0.16581185162067413,-0.170603409409523,-0.7191764712333679,-0.6939965486526489,-0.6670987606048584,-0.5429622530937195
0.3333333333333333,0.06038108840584755,0.1240004375576973,0.0,0.9063962697982788,0.0,0.0,-0.4224284589290619,-0.38418304920196533,-0.4698864817619324,0.0,0.0,0.0,-2.2060322761535645,-0.3740127384662628,0.7048794627189636,0.4200000464916229,0.9999064207077026,1.682431684457697e-05,-9.168603355647065e-06,-0.013681326992809772,0.15636380016803741,0.2292083203792572,-0.0004995460622012615,-0.028946129605174065,0.03870570287108421,-3.8870437145233154,-0.39279067516326904,0.7117190361022949,0.4232649803161621,0.485015332698822,0.16866259276866913,-0.17740079760551453,0.42766374349594116,0.7179616689682007,0.42000001668930054,-0.601827085018158,3.0000014305114746,-0.7804675698280334,-3.0000011920928955,-0.16556470096111298,-0.1715504676103592,-0.17680035531520844,-0.17832404375076294,-0.7051295638084412,-0.5939181447029114,-0.4677634537220001,-0.270426869392395
0.35,0.05233200639486313,0.11470556259155273,0.0,0.9087415933609009,0.0,0.0,-0.41735923290252686,-0.5269556641578674,-0.59432452917099,0.0,0.0,0.0,1.600016474723816,-0.3697221577167511,0.7108957767486572,0.4200001060962677,0.9975520968437195,-3.872949946526205e-06,9.793481694941875e-06,-0.069925956428051,0.31131523847579956,0.4276406168937683,-0.0003221857186872512,0.01743265800178051,-0.005227658431977034,-8.317261695861816,-0.3841014504432678,0.7172838449478149,0.4201693534851074,0.6007637977600098,0.44019412994384766,-0.1476794332265854,0.42766374349594116,0.7179616689682007,0.42000001668930054,-0.5518221259117126,2.999966621398926,-0.8305166959762573,-2.9999778270721436,-0.1776317059993744,-0.18126538395881653,-0.18386797606945038,-0.18180567026138306,-0.6711446642875671,-0.5172244906425476,-0.34403592348098755,-0.12777327001094818
0.36666666666666664,0.0419159010052681,0.1032692939043045,0.0,0.9045281410217285,0.0,0.0,-0.42641395330429077,-0.6679728627204895,-0.7248557806015015,0.0,0.0,0.0,-2.147095203399658,-0.3624756336212158,0.7202888131141663,0.42000705003738403,0.9872446060180664,-0.00018679469940252602,-1.9835586499539204e-05,-0.15921077132225037,0.6409664750099182,0.7903679013252258,0.024859823286533356,-1.2181882858276367,0.28635314106941223,-4.40947961807251,-0.3721961975097656,0.7269730567932129,0.4194486737251282,0.803621768951416,0.6685317754745483,0.07712399959564209,0.42766374349594116,0.7179616689682007,0.42000001668930054,-0.5017932653427124,2.999901294708252,-0.8805308938026428,-2.9995510578155518,-0.18788978457450867,-0.18892276287078857,-0.18854840099811554,-0.18295952677726746,-0.5228952765464783,-0.37340089678764343,-0.20033596456050873,-0.004255620297044516
0.3833333333333333,0.03388874605298042,0.08920282870531082,0.0,0.8874062895774841,0.0,0.0,-0.46098819375038147,-0.388437420129776,-0.8987841010093689,0.0,0.0,0.0,-5.4818291664123535,-0.3478497862815857,0.737621545791626,0.42073801159858704,0.9796803593635559,-0.016135485842823982,0.0004920545616187155,-0.19991439580917358,1.1479817628860474,1.3177300691604614,0.05872006714344025,-1.268594741821289,-2.3131747245788574,-5.944242000579834,-0.35540613532066345,0.742059588432312,0.4211658239364624,1.2642991542816162,1.1957765817642212,0.12795360386371613,0.42766374349594116,0.7179616689682007,0.42000001668930054,-0.45174309611320496,3.0000016689300537,-0.9305387735366821,-2.999971866607666,-0.1953544169664383,-0.19394972920417786,-0.19067031145095825,-0.18188485503196716,-0.34485557675361633,-0.20652635395526886,-0.038807813078165054,0.13987372815608978
0.4,0.03010478802025318,0.07197806984186172,0.0,0.8559194803237915,0.0,0.0,-0.5171091556549072,-0.13893069326877594,-1.0945569276809692,0.0,0.0,0.0,-8.453814506530762,-0.3154236078262329,0.7647165060043335,0.4242168068885803,0.967471182346344,-0.014834852889180183,-0.025528810918331146,-0.25125208497047424,2.8854267597198486,2.0619070529937744,0.2828962206840515,33.677703857421875,-20.297435760498047,-0.9607749581336975,-0.3213180899620056,0.7686582803726196,0.42498183250427246,2.8647966384887695,2.053009271621704,0.515661358833313,0.42766374349594116,0.7179616689682007,0.42000001668930054,-0.40506842732429504,2.084132671356201,-0.980528712272644,-3.0000009536743164,-0.20223639905452728,-0.19810210168361664,-0.19168269634246826,-0.17977707087993622,-0.41080886125564575,-0.235453799366951,-0.0402919203042984,0.143411323428154
0.4166666666666667,0.02851285971701145,0.05998527258634567,0.0,0.8070133328437805,0.0,0.0,-0.5905331969261169,-0.03123253956437111,-0.5859246253967285,0.0,0.0,0.0,-11.380088806152344,-0.24203020334243774,0.802492618560791,0.43287187814712524,0.9476319551467896,0.0459718257188797,-0.061282675713300705,-0.3100395202636719,5.930106163024902,2.696486234664917,0.5947714447975159,17.762577056884766,-16.36111068725586,7.579048156738281,-0.2475297749042511,0.8075861930847168,0.43318796157836914,5.572928428649902,2.6113767623901367,0.6302766799926758,0.42766374349594116,0.7179616689682007,0.42000001668930054,-0.37635287642478943,1.1081962585449219,-0.9431086778640747,2.9982717037200928,-0.2160855382680893,-0.20773659646511078,-0.19689561426639557,-0.1812308430671692,-0.8572441935539246,-0.6280428767204285,-0.3788798153400421,-0.1833161562681198
0.43333333333333335,0.023417435586452484,0.055207110941410065,0.0,0.7663955688476562,0.0,0.0,-0.6423689126968384,-0.42556032538414,-0.26072806119918823,0.0,0.0,0.0,-6.712677478790283,-0.14860376715660095,0.8363863825798035,0.44503897428512573,0.907311737537384,0.09289190918207169,-0.07902988791465759,-0.40238144993782043,5.7991180419921875,1.091395616531372,0.9089359045028687,-9.130223274230957,2.251499891281128,8.92527961730957,-0.15312516689300537,0.8433548212051392,0.4453890919685364,5.820979118347168,1.8187494277954102,0.8076181411743164,0.42766374349594116,0.7179616689682007,0.42000001668930054,-0.363639771938324,0.6358668804168701,-0.9680253267288208,-2.9997036457061768,-0.23089805245399475,-0.22224320471286774,-0.20653733611106873,-0.18713419139385223,-0.7802532911300659,-0.7647740840911865,-0.5197539329528809,-0.34365299344062805
0.45,0.02295726165175438,0.04308464750647545,0.0,0.7471759915351868,0.0,0.0,-0.6646262407302856,0.0723235085606575,-0.8765217065811157,0.0,0.0,0.0,-2.551270008087158,-0.04659099504351616,0.859156608581543,0.45652228593826294,0.8409619927406311,0.09764725714921951,-0.08750999718904495,-0.5249665379524231,6.220707893371582,0.0052675120532512665,0.6566244959831238,-12.804055213928223,3.538193941116333,9.539422988891602,-0.05228068679571152,0.8675452470779419,0.4559187889099121,6.3919677734375,0.9356043338775635,0.6726213693618774,0.42766374349594116,0.7179616689682007,0.42000001668930054,-0.35224273800849915,0.6229490637779236,-1.0180481672286987,-2.999840497970581,-0.23629504442214966,-0.2275470644235611,-0.2086435705423355,-0.1869753897190094,-0.2239992916584015,-0.1694328933954239,0.027274178341031075,0.17155031859874725
0.4666666666666667,0.02074640616774559,0.03282981738448143,0.0,0.7195146083831787,0.0,0.0,-0.6944773197174072,-0.1696081906557083,-0.5435237884521484,0.0,0.0,0.0,-5.650748252868652,0.05790700763463974,0.8646318316459656,0.4649154543876648,0.7611606121063232,0.07198450714349747,-0.12401490658521652,-0.6325132250785828,6.1683831214904785,-0.37437722086906433,0.5395334362983704,-14.632266998291016,2.617889642715454,-6.2477850914001465,0.05155954882502556,0.8760520219802856,0.4664648771286011,6.3499650955200195,0.12662522494792938,0.6837772130966187,0.42766374349594116,0.7179616689682007,0.42000001668930054,-0.34129226207733154,0.6401795148849487,-1.0680702924728394,-2.9995787143707275,-0.2399631291627884,-0.2318899780511856,-0.2103690356016159,-0.18698567152023315,-0.011633739806711674,-0.23080363869667053,-0.13293695449829102,-0.08715981990098953
0.48333333333333334,0.02025916799902916,0.02739228494465351,0.0,0.7070850729942322,0.0,0.0,-0.7071285247802734,0.03328865021467209,-0.23114421963691711,0.0,0.0,0.0,-0.9281924366950989,0.15577736496925354,0.8553354144096375,0.471389502286911,0.6838849186897278,0.06256462633609772,-0.11325991898775101,-0.7180243730545044,5.618324279785156,-1.6424931287765503,0.258948415517807,-4.0149078369140625,0.20579573512077332,5.672472953796387,0.1510961502790451,0.8690004944801331,0.4730902910232544,5.666505813598633,-1.020007848739624,0.24868467450141907,0.42766374349594116,0.7179616689682007,0.42000001668930054,-0.3318604826927185,0.4555683434009552,-1.11809241771698,-3.000002145767212,-0.23997502028942108,-0.23720240592956543,-0.21384990215301514,-0.18953216075897217,-0.025097280740737915,-0.2895191013813019,-0.19092613458633423,-0.14583729207515717
0.5,0.022971250116825104,0.02571461908519268,0.0,0.6876758933067322,0.0,0.0,-0.7260177731513977,0.21160191297531128,-0.004876971244812012,0.0,0.0,0.0,-4.093677520751953,0.2410709112882614,0.832431435585022,0.4673973321914673,0.6021223664283752,0.01721007563173771,-0.14022207260131836,-0.7858054637908936,4.856139183044434,-2.2442095279693604,-0.20551654696464539,-9.249719619750977,1.1415786743164062,4.395562648773193,0.23729997873306274,0.8489812612533569,0.47154319286346436,4.6705498695373535,-1.5386475324630737,-0.35006552934646606,0.42766374349594116,0.7179616689682007,0.42000001668930054,-0.3258932828903198,0.06148446723818779,-1.1681145429611206,-3.0000007152557373,-0.23977512121200562,-0.2400045394897461,-0.2161574363708496,-0.19159771502017975,0.008371613919734955,-0.02020944282412529,-0.10033612698316574,-0.10439755022525787
0.5166666666666666,0.028499050065875053,0.021139342337846756,0.0,0.6807677149772644,0.0,0.0,-0.732499361038208,0.33130934834480286,-0.309176504611969,0.0,0.0,0.0,-0.18335166573524475,0.31151819229125977,0.8045545816421509,0.4574586749076843,0.5540127158164978,-0.021172750741243362,-0.12078601121902466,-0.823427140712738,3.6603198051452637,-2.242051601409912,-0.6453346014022827,-1.7984033823013306,4.748602867126465,-1.2060810327529907,0.30907976627349854,0.8209803104400635,0.461783230304718,3.7754831314086914,-1.8870506286621094,-0.759000301361084,0.42766374349594116,0.7179616689682007,0.42000001668930054,-0.3211067020893097,0.5240468978881836,-1.2181366682052612,-3.000000476837158,-0.236428365111351,-0.23679597675800323,-0.21473072469234467,-0.1909472942352295,0.1743251532316208,0.21484744548797607,0.11535053700208664,0.05784491077065468
0.5333333333333333,0.032347820699214935,0.0201776884496212,0.0,0.6645790338516235,0.0,0.0,-0.7472180128097534,0.1601662039756775,-0.034834086894989014,0.0,0.0,0.0,-3.4171817302703857,0.3674183487892151,0.7744861245155334,0.44126200675964355,0.5195937752723694,-0.05572832375764847,-0.10733272135257721,-0.8458109498023987,3.041497230529785,-1.9097670316696167,-1.0048959255218506,-3.1522774696350098,3.6895415782928467,-3.618250846862793,0.3662736713886261,0.7901051044464111,0.4459737539291382,3.1006898880004883,-1.8039464950561523,-1.0751996040344238,0.42766374349594116,0.7179616689682007,0.42000001668930054,-0.3078172206878662,0.9614814519882202,-1.2681587934494019,-2.9999990463256836,-0.23477783799171448,-0.23433880507946014,-0.21424660086631775,-0.1919204741716385,0.23149485886096954,0.24748975038528442,0.07941330224275589,-0.0628080740571022
0.55,0.03671113774180412,0.021571215242147446,0.0,0.6628634929656982,0.0,0.0,-0.7487402558326721,0.2940381169319153,0.17234031856060028,0.0,0.0,0.0,0.636217474937439,0.4099092483520508,0.7459813952445984,0.42343804240226746,0.4916416108608246,-0.07895945757627487,-0.03954675793647766,-0.8663081526756287,1.774809718132019,-1.4308311939239502,-0.8286229968070984,36.248111724853516,-4.662245750427246,14.91299057006836,0.41023921966552734,0.7599170804023743,0.4272388815879822,1.7915878295898438,-1.4125218391418457,-0.20670871436595917,0.42766374349594116,0.7179616689682007,0.42000001668930054,-0.2927304804325104,0.734713613986969,-1.318179726600647,-3.000004768371582,-0.23110239207744598,-0.2304333597421646,-0.21336320042610168,-0.19375008344650269,0.2775256335735321,0.2719831168651581,0.07065509259700775,-0.1119946837425232
0.5666666666666667,0.04315287619829178,0.019686833024024963,0.0,0.6502244472503662,0.0,0.0,-0.7597421407699585,0.3970160484313965,-0.14896531403064728,0.0,0.0,0.0,-2.935534954071045,0.43595245480537415,0.7341205477714539,0.42068955302238464,0.4989274740219116,-0.007913844659924507,0.014174665324389935,-0.8664916157722473,0.9586578011512756,-0.5296715497970581,0.057024940848350525,1.8869863748550415,2.6181893348693848,4.5538105964660645,0.43309471011161804,0.7445040941238403,0.4221149682998657,0.9003685712814331,-0.5979180335998535,0.003136277198791504,0.42766374349594116,0.7179616689682007,0.42000001668930054,-0.27481809258461,1.4463427066802979,-1.2800273895263672,3.000223398208618,-0.22179096937179565,-0.22214379906654358,-0.2092980444431305,-0.19358403980731964,0.5572215914726257,0.5081602334976196,0.2683713436126709,0.042510561645030975
0.5833333333333334,0.04939868673682213,0.020939476788043976,0.0,0.6500866413116455,0.0,0.0,-0.759860098361969,0.31982922554016113,0.09297831356525421,0.0,0.0,0.0,0.8800352811813354,0.4458296298980713,0.7214435935020447,0.42146965861320496,0.5206214189529419,-0.018887000158429146,0.028447279706597328,-0.8531045317649841,0.43818190693855286,-0.7849510908126831,0.09290868043899536,0.5104361176490784,3.421851634979248,1.8452938795089722,0.4430374503135681,0.732195258140564,0.42297306656837463,0.36969539523124695,-0.6324522495269775,0.13923369348049164,0.42766374349594116,0.7179616689682007,0.42000001668930054,-0.30339235067367554,-3.0000007152557373,-1.3002090454101562,-2.99999737739563,-0.21595682203769684,-0.21641452610492706,-0.20681579411029816,-0.19428656995296478,0.4294658899307251,0.4001274108886719,0.19157086312770844,-0.014645238406956196
0.6,0.05597257241606712,0.024771446362137794,0.0,0.6398665904998779,0.0,0.0,-0.768485963344574,0.432201087474823,0.2943614423274994,0.0,0.0,0.0,-2.6662614345550537,0.4498128294944763,0.7136545181274414,0.4212118685245514,0.5543514490127563,-0.021739572286605835,0.0031831515952944756,-0.8319926261901855,0.20220285654067993,-0.042306989431381226,0.13406148552894592,-1.5202628374099731,4.666594505310059,4.45657205581665,0.4470905065536499,0.7289596796035767,0.4256206154823303,0.21030184626579285,0.0048552751541137695,0.18449847400188446,0.42766374349594116,0.7179616689682007,0.42000001668930054,-0.33304449915885925,-0.7801058292388916,-1.3501594066619873,-3.00003719329834,-0.20658062398433685,-0.20845957100391388,-0.2029310017824173,-0.19431309401988983,0.6686965227127075,0.5531010627746582,0.29256269335746765,0.042583856731653214
0.6166666666666667,0.06447643041610718,0.02547863870859146,0.0,0.6412351727485657,0.0,0.0,-0.7673444151878357,0.5393836498260498,0.005132476799190044,0.0,0.0,0.0,1.1110854148864746,0.4507240056991577,0.7128608822822571,0.4215993881225586,0.5754485130310059,-0.02774580754339695,0.00907901395112276,-0.8173167705535889,-0.15722104907035828,-0.0687527284026146,-0.030018359422683716,-0.21375687420368195,-1.317718744277954,3.3372533321380615,0.44522300362586975,0.7277380228042603,0.425628662109375,-0.35338592529296875,-0.1106424331665039,-0.022205159068107605,0.42766374349594116,0.7179616689682007,0.42000001668930054,-0.37637341022491455,-2.999800443649292,-1.3203316926956177,2.999789237976074,-0.19557909667491913,-0.19891275465488434,-0.19712801277637482,-0.1922251135110855,0.5266329646110535,0.4821452498435974,0.30754008889198303,0.12574397027492523
0.6333333333333333,0.07548504322767258,0.029412083327770233,0.0,0.6647766828536987,0.0,0.0,-0.7470421195030212,0.6850019693374634,0.2569323480129242,0.0,0.0,0.0,4.551575183868408,0.4478236734867096,0.7117960453033447,0.4200103282928467,0.5806742310523987,7.10252279532142e-05,8.23525115265511e-05,-0.8141359090805054,-0.10796169191598892,-0.05189965292811394,-0.00464214151725173,-0.20839877426624298,0.03734040632843971,-0.07634545117616653,0.44121813774108887,0.7272888422012329,0.42771583795547485,-0.0947708785533905,0.10305768996477127,0.1910034865140915,0.42766374349594116,0.7179616689682007,0.42000001668930054,-0.42645567655563354,-3.0000150203704834,-1.339354395866394,-2.999105453491211,-0.18909808993339539,-0.19298651814460754,-0.19367636740207672,-0.1913919597864151,0.46633243560791016,0.4050496518611908,0.24381516873836517,0.07551904767751694
0.65,0.0878530964255333,0.029363466426730156,0.0,0.6747827529907227,0.0,0.0,-0.7380164265632629,0.7800888419151306,-0.02984956093132496,0.0,0.0,0.0,0.5514271855354309,0.44695207476615906,0.711381196975708,0.41999998688697815,0.5802187919616699,-2.6231127776554786e-06,-1.086528527594055e-06,-0.8144606351852417,-0.03223300352692604,-0.015460425056517124,-6.290711462497711e-05,0.00044653742224909365,-0.0021380693651735783,-0.07687192410230637,0.44047272205352783,0.7314130067825317,0.43224677443504333,-0.0706784576177597,0.2125447392463684,0.3200576603412628,0.42766374349594116,0.7179616689682007,0.42000001668930054,-0.4764905571937561,-2.999988317489624,-1.3893224000930786,-2.999667167663574,-0.17895382642745972,-0.18386846780776978,-0.18690770864486694,-0.18699322640895844,0.5088492035865784,0.4930460751056671,0.4117830991744995,0.3284805119037628
0.6666666666666666,0.10184331238269806,0.026161078363656998,0.0,0.6618257761001587,0.0,0.0,-0.7496576905250549,0.8691201210021973,-0.2602049708366394,0.0,0.0,0.0,-3.031890869140625,0.446950763463974,0.7113804817199707,0.41999995708465576,0.5801777243614197,-4.883285782852909e-06,-5.127311624164577e-07,-0.8144897818565369,-0.0003449155483394861,2.5877692678477615e-05,-0.0001184302382171154,-0.004188957158476114,-0.004322538617998362,0.0005348382983356714,0.4425523281097412,0.7363244891166687,0.4413699507713318,0.30066895484924316,0.3210291266441345,0.8812229037284851,0.42766374349594116,0.7179616689682007,0.42000001668930054,-0.5265035629272461,-2.9999871253967285,-1.4393407106399536,-2.9999990463256836,-0.17273636162281036,-0.17745618522167206,-0.1811480075120926,-0.1819048374891281,0.28778642416000366,0.32134494185447693,0.3160361647605896,0.3096906244754791
0.6833333333333333,0.11894120275974274,0.02751750312745571,0.0,0.6267729997634888,0.0,0.0,-0.7792019248008728,0.9950764179229736,0.10075055807828903,0.0,0.0,0.0,-6.487735271453857,0.44695016741752625,0.7113807201385498,0.41999995708465576,0.5801781415939331,-1.7069743307729368e-06,-6.101267899794038e-06,-0.814489483833313,0.00010341407323721796,-0.00042663581552915275,-8.486071601510048e-05,0.010556249879300594,-0.003030413296073675,-0.0009330417960882187,0.4544253349304199,0.737517237663269,0.462670236825943,1.2734140157699585,-0.08176778256893158,1.7543237209320068,0.42766374349594116,0.7179616689682007,0.42000001668930054,-0.5765154361724854,-2.9997880458831787,-1.4893590211868286,-2.9999773502349854,-0.17511506378650665,-0.1780005842447281,-0.180386483669281,-0.17995049059391022,-0.15026962757110596,-0.041335560381412506,0.04741056635975838,0.13148018717765808
0.7,0.13237826526165009,0.030235784128308296,0.0,0.60503751039505,0.0,0.0,-0.7961969375610352,0.7330764532089233,0.17549724876880646,0.0,0.0,0.0,-2.254722833633423,0.44695019721984863,0.711380660533905,0.41999995708465576,0.580177903175354,-1.3394509323916282e-06,-5.866977517143823e-06,-0.8144897222518921,0.00011205201735720038,-0.0003986593510489911,-7.838057354092598e-05,0.009919529780745506,-0.002806327538564801,-0.0009076417190954089,0.4751930832862854,0.7396656274795532,0.49214380979537964,1.1683378219604492,0.3255771994590759,1.800668716430664,0.42766374349594116,0.7179616689682007,0.42000001668930054,-0.5962460041046143,0.34602925181388855,-1.539377212524414,-2.9999992847442627,-0.17635539174079895,-0.17816755175590515,-0.179742231965065,-0.17862513661384583,0.023871123790740967,0.04179666191339493,0.047121934592723846,0.0420515313744545
0.7166666666666667,0.14113304018974304,0.032151516526937485,0.0,0.6087788939476013,0.0,0.0,-0.7933399677276611,0.48331812024116516,0.17623986303806305,0.0,0.0,0.0,1.4307172298431396,0.44695019721984863,0.711380660533905,0.41999995708465576,0.5801781415939331,-1.3181113445170922e-06,-5.568438609770965e-06,-0.8144895434379578,0.00011378122144378722,-0.0003992904967162758,-7.840292528271675e-05,0.009942087344825268,-0.0028140482027083635,-0.0009133600979112089,0.4900970458984375,0.7464917898178101,0.5163266658782959,0.5487541556358337,0.39975613355636597,1.152219533920288,0.42766374349594116,0.7179616689682007,0.42000001668930054,-0.5689015984535217,2.7063305377960205,-1.5005391836166382,3.0,-0.17498141527175903,-0.17635123431682587,-0.1776566505432129,-0.17651517689228058,-0.028982171788811684,0.03147837892174721,0.0809599831700325,0.10907160490751266
0.7333333333333333,0.1462060958147049,0.030294980853796005,0.0,0.6016738414764404,0.0,0.0,-0.79874187707901,0.24464869499206543,-0.20028354227542877,0.0,0.0,0.0,-2.17071533203125,0.44695016741752625,0.711380660533905,0.41999995708465576,0.5801780819892883,-1.3782654377791914e-06,-5.828614121128339e-06,-0.8144895434379578,0.00010947427654173225,-0.0003979716857429594,-7.844693027436733e-05,0.009891260415315628,-0.0028018313460052013,-0.0009008049964904785,0.4923774003982544,0.7524146437644958,0.5285201072692871,-0.2745407521724701,0.3139849603176117,0.48517900705337524,0.42766374349594116,0.7179616689682007,0.42000001668930054,-0.542137622833252,0.6596407890319824,-1.4504865407943726,2.999999761581421,-0.17407070100307465,-0.17453518509864807,-0.17507614195346832,-0.17355141043663025,0.09144990146160126,0.14638474583625793,0.19362521171569824,0.21554791927337646
0.75,0.1476934850215912,0.03328203409910202,0.0,0.606167733669281,0.0,0.0,-0.7953368425369263,0.03729264438152313,0.31731727719306946,0.0,0.0,0.0,1.5545200109481812,0.44695019721984863,0.711380660533905,0.41999995708465576,0.5801780223846436,-1.3747823004450765e-06,-5.691751084668795e-06,-0.8144896030426025,0.00011009434092557058,-0.0003975771542172879,-7.837614975869656e-05,0.009882277809083462,-0.0027975698467344046,-0.0009017180418595672,0.4857980012893677,0.7572100758552551,0.5347590446472168,-0.4874289631843567,0.361652135848999,0.28151562809944153,0.42766374349594116,0.7179616689682007,0.42000001668930054,-0.5164735317230225,2.2603485584259033,-1.4676504135131836,-2.999999523162842,-0.1779988408088684,-0.17659008502960205,-0.1754606068134308,-0.17282675206661224,-0.28156229853630066,-0.17492297291755676,-0.07999325543642044,-0.01977304182946682
0.7666666666666666,0.15042506158351898,0.03469904884696007,0.0,0.5996810793876648,0.0,0.0,-0.800239086151123,0.18694043159484863,0.04055529460310936,0.0,0.0,0.0,-1.9069595336914062,0.44695019721984863,0.711380660533905,0.41999995708465576,0.5801779627799988,-1.362467742183071e-06,-5.7971797104983125e-06,-0.8144897222518921,0.00010998849757015705,-0.0003978009626735002,-7.842341437935829e-05,0.009887768886983395,-0.0028012653347104788,-0.0009019130375236273,0.4712558388710022,0.7610393166542053,0.5324591398239136,-1.2172209024429321,0.0834474116563797,-0.3643764555454254,0.42766374349594116,0.7179616689682007,0.42000001668930054,-0.5203801989555359,-2.3273298740386963,-1.4290144443511963,3.000000238418579,-0.18105332553386688,-0.17824584245681763,-0.1758488267660141,-0.1724705547094345,-0.18331551551818848,-0.099757619202137,-0.02262762188911438,0.024026311933994293
0.7833333333333333,0.1545683592557907,0.03258224576711655,0.0,0.6052230000495911,0.0,0.0,-0.7960559725761414,0.27400127053260803,-0.2163713425397873,0.0,0.0,0.0,1.6458731889724731,0.44695019721984863,0.711380660533905,0.41999995708465576,0.5801780819892883,-1.370147401758004e-06,-5.731523287977325e-06,-0.8144896626472473,0.00011057267693104222,-0.00039805014966987073,-7.844180800020695e-05,0.009895997121930122,-0.0028037733864039183,-0.0009037749259732664,0.45647096633911133,0.7630633115768433,0.5263596177101135,-0.6135886907577515,0.17963889241218567,-0.3157038688659668,0.42766374349594116,0.7179616689682007,0.42000001668930054,-0.5483689308166504,-1.1143689155578613,-1.4465876817703247,-2.999999761581421,-0.18415023386478424,-0.17987772822380066,-0.17596539855003357,-0.17143064737319946,-0.12804445624351501,-0.05139738321304321,0.03625604882836342,0.11076720058917999
0.8,0.160658597946167,0.027288392186164856,0.0,0.5985037088394165,0.0,0.0,-0.8011200428009033,0.4050484299659729,-0.3765902519226074,0.0,0.0,0.0,-1.9056038856506348,0.44695019721984863,0.711380660533905,0.41999995708465576,0.5801780223846436,-1.3610804217023542e-06,-5.64350193599239e-06,-0.8144897222518921,0.00010997311619576067,-0.00039783079409971833,-7.842248305678368e-05,0.009888576343655586,-0.002801242982968688,-0.0009018956334330142,0.4506818652153015,0.7631411552429199,0.5181472301483154,-0.04986126348376274,-0.11791490018367767,-0.48316633701324463,0.42766374349594116,0.7179616689682007,0.42000001668930054,-0.5922065377235413,-2.9999873638153076,-1.4203134775161743,2.999999523162842,-0.18725073337554932,-0.18146561086177826,-0.1757497489452362,-0.16952110826969147,-0.16932103037834167,-0.07442270964384079,0.042581647634506226,0.15841564536094666
0.8166666666666667,0.16943691670894623,0.0241492111235857,0.0,0.5709449648857117,0.0,0.0,-0.8209882974624634,0.5776028037071228,-0.11980296671390533,0.0,0.0,0.0,-4.958706855773926,0.44695016741752625,0.711380660533905,0.41999995708465576,0.5801780223846436,-1.349699346064881e-06,-5.848481578141218e-06,-0.8144896030426025,0.00010977603233186528,-0.00039791350718587637,-7.843459025025368e-05,0.0098904799669981,-0.002801693044602871,-0.0009014965035021305,0.4531710147857666,0.7581775188446045,0.515613317489624,0.3552064299583435,-0.42586207389831543,0.29414230585098267,0.42766374349594116,0.7179616689682007,0.42000001668930054,-0.6422184109687805,-2.999953269958496,-1.4380921125411987,-2.9999992847442627,-0.19086845219135284,-0.18397630751132965,-0.17667628824710846,-0.16875147819519043,-0.20784206688404083,-0.16243958473205566,-0.08597606420516968,2.9886141419410706e-06
0.8333333333333334,0.18057706952095032,0.02491212636232376,0.0,0.5587846636772156,0.0,0.0,-0.829312801361084,0.7048969864845276,0.11595085263252258,0.0,0.0,0.0,-0.7722023725509644,0.44695019721984863,0.711380660533905,0.41999995708465576,0.5801781415939331,-1.3592882623925107e-06,-5.743092970078578e-06,-0.8144895434379578,0.00010964812099700794,-0.0003975210420321673,-7.838685996830463e-05,0.009879481978714466,-0.0027978140860795975,-0.000900560466106981,0.46003496646881104,0.7562958002090454,0.5224779844284058,0.4042501449584961,0.07835975289344788,0.5038571357727051,0.42766374349594116,0.7179616689682007,0.42000001668930054,-0.6595473885536194,0.6194154024124146,-1.4881104230880737,-3.000000238418579,-0.1931961476802826,-0.18641574680805206,-0.17875546216964722,-0.17030587792396545,-0.061871230602264404,-0.10972723364830017,-0.13417790830135345,-0.15037404000759125
0.85,0.18742142617702484,0.020347876474261284,0.0,0.5731238126754761,0.0,0.0,-0.8194687962532043,0.4176847040653229,-0.3333340585231781,0.0,0.0,0.0,2.755843162536621,0.44695019721984863,0.711380660533905,0.41999995708465576,0.5801780819892883,-1.3799324278807035e-06,-5.655886525346432e-06,-0.8144896030426025,0.00011007719149347395,-0.00039781624218448997,-7.841805927455425e-05,0.009888457134366035,-0.002801190596073866,-0.0009021373116411269,0.46763890981674194,0.7606250643730164,0.5261343717575073,0.45422250032424927,0.16436801850795746,-0.09078928828239441,0.42766374349594116,0.7179616689682007,0.42000001668930054,-0.6484418511390686,0.6985708475112915,-1.4494142532348633,3.0,-0.1870397925376892,-0.18193909525871277,-0.17561274766921997,-0.16833899915218353,0.22609999775886536,0.17583970725536346,0.13719141483306885,0.09956162422895432
0.8666666666666667,0.19185252487659454,0.018471170216798782,0.0,0.5728377103805542,0.0,0.0,-0.8196687698364258,0.2098892778158188,0.03002963401377201,0.0,0.0,0.0,-1.0298502445220947,0.44695019721984863,0.711380660533905,0.41999995708465576,0.5801780223846436,-1.3482018630384118e-06,-5.763235549238743e-06,-0.8144897222518921,0.00010978293721564114,-0.00039777462370693684,-7.842434570193291e-05,0.009886565618216991,-0.0028009943198412657,-0.0009013470844365656,0.4746417701244354,0.7594125866889954,0.5213871598243713,0.4204500913619995,-0.20540758967399597,-0.32377880811691284,0.42766374349594116,0.7179616689682007,0.42000001668930054,-0.6648324728012085,-2.384425163269043,-1.3993616104125977,2.999999761581421,-0.18745572865009308,-0.18239200115203857,-0.17602509260177612,-0.16879667341709137,-0.12034906446933746,-0.10643161833286285,-0.0922747477889061,-0.08612507581710815
