vladlanda/robotic-transformer/data/env_000_episode_0275.csv
sim_time_s,robot_box_x,robot_box_y,robot_box_z,robot_box_quat_w,robot_box_quat_x,robot_box_quat_y,robot_box_quat_z,robot_box_linvel_x,robot_box_linvel_y,robot_box_linvel_z,robot_box_angvel_x,robot_box_angvel_y,robot_box_angvel_z,cube_world_x,cube_world_y,cube_world_z,cube_quat_w,cube_quat_x,cube_quat_y,cube_quat_z,cube_linvel_x,cube_linvel_y,cube_linvel_z,cube_angvel_x,cube_angvel_y,cube_angvel_z,endpoint_world_x,endpoint_world_y,endpoint_world_z,endpoint_linvel_x,endpoint_linvel_y,endpoint_linvel_z,target_cube_world_x,target_cube_world_y,target_cube_world_z,gripper_actual_pos_rad_gp_leftgearjoint,gripper_actual_vel_rad_s_gp_leftgearjoint,gripper_actual_pos_rad_gp_rotatingjoint,gripper_actual_vel_rad_s_gp_rotatingjoint,motor_angle_rad_joint1,motor_angle_rad_joint2,motor_angle_rad_joint3,motor_angle_rad_joint4,motor_speed_rad_s_joint1,motor_speed_rad_s_joint2,motor_speed_rad_s_joint3,motor_speed_rad_s_joint4
0.0,0.0,0.0,0.0,1.0,0.0,0.0,0.0,0.0,0.0,0.0,0.0,0.0,0.0,-0.36042290925979614,0.6400807499885559,0.41999998688697815,1.0,0.0,0.0,0.0,0.0,0.0,0.0,0.0,0.0,0.0,3.42540442943573e-06,-0.005000244826078415,1.313499927520752,0.0,0.0,0.0,0.42219194769859314,0.7529645562171936,0.42000001668930054,-1.5707999467849731,0.0,0.0,0.0,0.0,0.0,0.0,0.0,0.0,0.0,0.0,0.0
0.016666666666666666,0.002884097397327423,0.002173168584704399,0.0,0.9998224973678589,0.0,0.0,0.018842250108718872,0.24104523658752441,0.18214763700962067,0.0,0.0,0.0,3.141757011413574,-0.3604230284690857,0.640080451965332,0.41999998688697815,1.0,3.279964630564791e-06,-8.339746386809566e-07,8.465587342243452e-08,-1.9833529222523794e-05,0.00017983045836444944,-6.132945418357849e-05,0.0009432713268324733,-0.004689474124461412,-0.00031981561915017664,-0.007107049226760864,0.0033976712729781866,1.315938949584961,-0.8137322664260864,0.9875446557998657,0.18096888065338135,0.42219194769859314,0.7529645562171936,0.42000001668930054,-1.5301094055175781,3.0000030994415283,-0.04584961757063866,-3.000000238418579,0.0008704033680260181,0.0007971029262989759,0.0007117546047084033,0.0006121944752521813,0.11097197234630585,0.09760816395282745,0.08338191360235214,0.06826087087392807
0.03333333333333333,0.00896848738193512,0.006790469866245985,0.0,0.9998107552528381,0.0,0.0,0.019452542066574097,0.40709829330444336,0.3150739073753357,0.0,0.0,0.0,-0.8690133690834045,-0.36042314767837524,0.6400803923606873,0.4200000464916229,1.0,3.3908354453160428e-06,-2.1324485715012997e-06,-3.710144014235084e-08,0.00026357831666246057,0.00026937946677207947,-0.00010509486310184002,-0.0017707672668620944,0.004130808170884848,-0.000135478752781637,-0.027517903596162796,0.02614293433725834,1.316612958908081,-1.589321494102478,1.618205189704895,-0.08311343193054199,0.42219194769859314,0.7529645562171936,0.42000001668930054,-1.4800901412963867,3.0000014305114746,-0.09588946402072906,-3.0000014305114746,0.002990278648212552,0.0026526532601565123,0.0022773181553930044,0.0018612247658893466,0.16414101421833038,0.1397014856338501,0.11376570910215378,0.08624029904603958
0.05,0.01847793720662594,0.013889187015593052,0.0,0.9999720454216003,0.0,0.0,-0.007480326108634472,0.6361339688301086,0.47208693623542786,0.0,0.0,0.0,-4.074071407318115,-0.36042317748069763,0.640080451965332,0.4200000464916229,1.0,3.7651125239790417e-06,-2.211879063906963e-06,5.622505128144439e-09,0.000265308452071622,0.0002669153327587992,-0.00010440615005791187,-0.001724260626360774,0.004177352879196405,-0.00012949221127200872,-0.05716334283351898,0.05687327682971954,1.3120863437652588,-1.9540126323699951,2.0012974739074707,-0.4402819573879242,0.42219194769859314,0.7529645562171936,0.42000001668930054,-1.4300718307495117,3.0,-0.14592215418815613,-3.0000011920928955,0.006010710261762142,0.0051719616167247295,0.004260886460542679,0.003273297566920519,0.20695598423480988,0.16666041314601898,0.12443796545267105,0.08020571619272232
0.06666666666666667,0.03078407607972622,0.023373529314994812,0.0,0.9998727440834045,0.0,0.0,-0.01595204696059227,0.7723182439804077,0.6159316897392273,0.0,0.0,0.0,-0.038968347012996674,-0.36042317748069763,0.6400803923606873,0.4200000464916229,0.9999999403953552,3.4066883927152958e-06,-2.285532218593289e-06,4.300976286231162e-07,0.0002670241810847074,0.00026791772688739,-0.00010438147000968456,-0.00174069800414145,0.00421178387477994,-0.00012850729399360716,-0.09486982971429825,0.08908332139253616,1.3014004230499268,-2.417569160461426,2.0391385555267334,-0.8312897086143494,0.42219194769859314,0.7529645562171936,0.42000001668930054,-1.3800448179244995,2.999999523162842,-0.1447317749261856,2.648059368133545,0.008778794668614864,0.007244203705340624,0.005597072187811136,0.0038321453612297773,0.1561969667673111,0.10735873878002167,0.056385140866041183,0.003202019724994898
0.08333333333333333,0.04555400460958481,0.030770698562264442,0.0,0.9992523789405823,0.0,0.0,-0.038660936057567596,0.9500510692596436,0.3766840994358063,0.0,0.0,0.0,-3.5398354530334473,-0.36042317748069763,0.6400803923606873,0.4200000464916229,0.9999999403953552,3.626031229941873e-06,-2.3352447442448465e-06,3.032197639640799e-07,0.0002661392209120095,0.0002668500819709152,-0.00010405294597148895,-0.0017282416811212897,0.00419628107920289,-0.00012790791515726596,-0.12991178035736084,0.12785857915878296,1.2870060205459595,-1.8360815048217773,2.5820107460021973,-0.8800036907196045,0.42219194769859314,0.7529645562171936,0.42000001668930054,-1.3300367593765259,3.000002861022949,-0.17861853539943695,-3.0000014305114746,0.009906589053571224,0.0072484249249100685,0.004433780908584595,0.001458817278034985,0.01402385625988245,-0.07212966680526733,-0.16056373715400696,-0.25123119354248047
0.1,0.05442273989319801,0.040405500680208206,0.0,0.9958494901657104,0.0,0.0,-0.0910150334239006,0.3926822245121002,0.6600023508071899,0.0,0.0,0.0,-7.291282653808594,-0.36042317748069763,0.6400803923606873,0.4200000464916229,1.0,3.4220790894323727e-06,-2.3084901386027923e-06,1.7962952369998675e-07,0.00026681559393182397,0.0002680041070561856,-0.00010440824553370476,-0.001743067754432559,0.004207110498100519,-0.0001289140636799857,-0.1624460220336914,0.17383915185928345,1.2667837142944336,-2.012025833129883,2.9257450103759766,-1.4582023620605469,0.42219194769859314,0.7529645562171936,0.42000001668930054,-1.2800180912017822,2.999997615814209,-0.14494507014751434,3.0,0.003642396070063114,0.00018866332538891584,-0.0034745146986097097,-0.00735468091443181,-0.4923340678215027,-0.5304078459739685,-0.5710090398788452,-0.6144495606422424
0.11666666666666667,0.06519419699907303,0.05274318903684616,0.0,0.9922513961791992,0.0,0.0,-0.12424636632204056,0.8428897261619568,0.6871042251586914,0.0,0.0,0.0,-2.839024066925049,-0.36042317748069763,0.640080451965332,0.4200000464916229,1.0,3.7114921269676415e-06,-2.3325701477006078e-06,2.574244888364774e-07,0.0002648564986884594,0.0002663535706233233,-0.0001042329240590334,-0.0017182455630972981,0.004170000087469816,-0.00012915577099192888,-0.20164340734481812,0.21657420694828033,1.2401349544525146,-2.3697397708892822,2.6578798294067383,-1.6922740936279297,0.42219194769859314,0.7529645562171936,0.42000001668930054,-1.2300221920013428,2.9999988079071045,-0.17673854529857635,-3.0,-0.003087927121669054,-0.007447619456797838,-0.012032442726194859,-0.01685277931392193,-0.19547545909881592,-0.2813224792480469,-0.36550822854042053,-0.4480245113372803
0.13333333333333333,0.075503408908844,0.061236731708049774,0.0,0.9855939745903015,0.0,0.0,-0.16912877559661865,0.700553297996521,0.5019485354423523,0.0,0.0,0.0,-6.036180019378662,-0.36042317748069763,0.6400803923606873,0.4200000464916229,0.9999999403953552,3.4247264011355583e-06,-2.301872882526368e-06,1.559877063073145e-07,0.0002670699032023549,0.000268113479251042,-0.0001044438686221838,-0.0017433533212170005,0.004212031606584787,-0.00012877589324489236,-0.23814073204994202,0.26553863286972046,1.2086553573608398,-1.9387694597244263,3.3561899662017822,-1.9893743991851807,0.42219194769859314,0.7529645562171936,0.42000001668930054,-1.1800014972686768,2.9999983310699463,-0.1430637538433075,3.000000476837158,-0.008991909213364124,-0.014717231504619122,-0.020632924512028694,-0.026750963181257248,-0.21308185160160065,-0.3249287009239197,-0.4322104752063751,-0.5348153710365295
0.15,0.08487487584352493,0.06693204492330551,0.0,0.9813978672027588,0.0,0.0,-0.1919848471879959,0.5010917782783508,0.26999416947364807,0.0,0.0,0.0,-1.6291182041168213,-0.36042317748069763,0.6400803923606873,0.4200000464916229,1.0,3.7138852349016815e-06,-2.2076646928326227e-06,-1.690935107490077e-07,0.0002635338169056922,0.00026536203222349286,-0.00010422198101878166,-0.0017013110918924212,0.0041441041976213455,-0.00012960704043507576,-0.27402251958847046,0.3185666799545288,1.1696436405181885,-2.0464208126068115,3.3798916339874268,-2.6913576126098633,0.42219194769859314,0.7529645562171936,0.42000001668930054,-1.1300816535949707,2.975496530532837,-0.17486387491226196,-2.999999761581421,-0.013456257060170174,-0.02074207365512848,-0.028135066851973534,-0.035647932440042496,-0.3227069675922394,-0.39789292216300964,-0.468282550573349,-0.5340119004249573
0.16666666666666666,0.08983759582042694,0.07369425147771835,0.0,0.9746776223182678,0.0,0.0,-0.22361469268798828,0.21984288096427917,0.4638848900794983,0.0,0.0,0.0,-4.638842582702637,-0.36042317748069763,0.6400803923606873,0.4200000464916229,0.9999999403953552,3.638363523350563e-06,-2.278693045809632e-06,2.700642482977855e-07,0.0002668263914529234,0.00026750031975097954,-0.00010410090908408165,-0.0017399657517671585,0.004210122860968113,-0.00012781827535945922,-0.3080589175224304,0.3777310252189636,1.1171703338623047,-1.883493423461914,3.721707344055176,-3.5519444942474365,0.42219194769859314,0.7529645562171936,0.42000001668930054,-1.0800750255584717,3.000001907348633,-0.14608395099639893,2.999999761581421,-0.021127039566636086,-0.029346125200390816,-0.03758704662322998,-0.04586676135659218,-0.5408933758735657,-0.5780342817306519,-0.6104215979576111,-0.6383801698684692
0.18333333333333332,0.098061703145504,0.07904599606990814,0.0,0.959547221660614,0.0,0.0,-0.2815476953983307,0.5286415815353394,0.25528907775878906,0.0,0.0,0.0,-7.787387847900391,-0.36042317748069763,0.6400803923606873,0.4200000464916229,1.0,3.3864323540910846e-06,-2.300143023603596e-06,1.4392101377325162e-07,0.00026674565742723644,0.0002678720629774034,-0.00010437029413878918,-0.0017412372399121523,0.004205969627946615,-0.0001287883351324126,-0.3350715637207031,0.44527822732925415,1.0495840311050415,-1.2519198656082153,4.279871940612793,-4.466834545135498,0.42219194769859314,0.7529645562171936,0.42000001668930054,-1.0300673246383667,3.0000011920928955,-0.17790482938289642,-2.999999523162842,-0.030594687908887863,-0.03914041444659233,-0.047649677842855453,-0.05614637956023216,-0.7433125972747803,-0.7297465205192566,-0.7145875692367554,-0.6983140707015991
0.2,0.10157828778028488,0.08690716326236725,0.0,0.9480538964271545,0.0,0.0,-0.31810978055000305,0.18876345455646515,0.4949188828468323,0.0,0.0,0.0,-3.3139729499816895,-0.36042317748069763,0.640080451965332,0.4200000464916229,1.0,3.6755022847501095e-06,-2.3264412902790355e-06,2.211315717204343e-07,0.00026484468253329396,0.00026631311629898846,-0.00010421779006719589,-0.0017176943365484476,0.0041699339635670185,-0.00012910230725537986,-0.35708779096603394,0.5061355829238892,0.966611385345459,-0.9921572208404541,3.542182445526123,-5.315881729125977,0.42219194769859314,0.7529645562171936,0.42000001668930054,-0.980057418346405,3.000000238418579,-0.22793364524841309,-2.999999523162842,-0.04605264216661453,-0.054695069789886475,-0.06325414031744003,-0.07176569849252701,-0.8343935012817383,-0.8509657979011536,-0.8662282824516296,-0.8795695304870605
0.21666666666666667,0.1037164032459259,0.09147492796182632,0.0,0.9412333369255066,0.0,0.0,-0.3377569913864136,0.09338735789060593,0.13736456632614136,0.0,0.0,0.0,-2.0868194103240967,-0.36042317748069763,0.6400803923606873,0.4200000464916229,1.0,3.322260681670741e-06,-2.2079154859966366e-06,2.7427799409451836e-07,0.0002666290965862572,0.0002674963907338679,-0.00010426202788949013,-0.0017359007615596056,0.004204810131341219,-0.00012833699292968959,-0.37495285272598267,0.5572541952133179,0.8745520710945129,-0.8203559517860413,2.7568819522857666,-5.7325053215026855,0.42219194769859314,0.7529645562171936,0.42000001668930054,-0.9300469756126404,3.0,-0.27796483039855957,-2.999999761581421,-0.060245588421821594,-0.06879057735204697,-0.07724595069885254,-0.0856434628367424,-0.8494750261306763,-0.8310788869857788,-0.8127354979515076,-0.7943018078804016
0.23333333333333334,0.10164768993854523,0.09850502759218216,0.0,0.9276162385940552,0.0,0.0,-0.373534619808197,-0.19246521592140198,0.438748300075531,0.0,0.0,0.0,-5.294319152832031,-0.36042317748069763,0.6400803923606873,0.4200000464916229,1.0,3.656489070635871e-06,-2.3733603029540973e-06,-4.076755999449233e-07,0.0002661180915310979,0.0002672612317837775,-0.0001042359508574009,-0.0017336306627839804,0.004194698762148619,-0.00012855089153163135,-0.3825616240501404,0.5989871025085449,0.7720493078231812,-0.11659876257181168,2.0994482040405273,-6.298461437225342,0.42219194769859314,0.7529645562171936,0.42000001668930054,-0.8800362944602966,2.999993324279785,-0.32799744606018066,-3.000000238418579,-0.07672339677810669,-0.08522854000329971,-0.09365032613277435,-0.10199066996574402,-0.8640164732933044,-0.8847997784614563,-0.904349684715271,-0.921645998954773
0.25,0.10426527261734009,0.10007642209529877,0.0,0.9202128052711487,0.0,0.0,-0.3914184272289276,0.11048873513936996,0.11267010867595673,0.0,0.0,0.0,-0.7849169373512268,-0.36042317748069763,0.640080451965332,0.4200000464916229,1.0,3.630517994679394e-06,-2.2426397663366515e-06,1.121150816629779e-08,0.00026679891743697226,0.00026706024073064327,-0.00010390975512564182,-0.0017342222854495049,0.0042105624452233315,-0.00012703027459792793,-0.3873094916343689,0.6258044838905334,0.6687641739845276,-0.047154493629932404,1.0332649946212769,-6.1781463623046875,0.42219194769859314,0.7529645562171936,0.42000001668930054,-0.8300266861915588,2.9999992847442627,-0.3780297636985779,-2.999999523162842,-0.08883170038461685,-0.09742731600999832,-0.10592809319496155,-0.1143455058336258,-1.0000014305114746,-0.9999997019767761,-0.9990212321281433,-0.9779196381568909
0.26666666666666666,0.10108114033937454,0.1063733771443367,0.0,0.926173210144043,0.0,0.0,-0.37709841132164,-0.2074582427740097,0.39593741297721863,0.0,0.0,0.0,2.4887285232543945,-0.36042314767837524,0.6400803923606873,0.4200000464916229,0.9999999403953552,3.7401498502731556e-06,-2.2362885374604957e-06,4.49968922566768e-07,0.0002647954970598221,0.0002667295339051634,-0.00010454049333930016,-0.001718834857456386,0.004166595637798309,-0.0001301696029258892,-0.38954031467437744,0.6314475536346436,0.5731213688850403,-0.15551593899726868,-0.15505486726760864,-5.343460559844971,0.42219194769859314,0.7529645562171936,0.42000001668930054,-0.7800178527832031,2.9999911785125732,-0.4280607998371124,-2.999999761581421,-0.10641352832317352,-0.11481229960918427,-0.1231788918375969,-0.13147662580013275,-0.7968962788581848,-0.8547952175140381,-0.9036427736282349,-0.9370443224906921
0.2833333333333333,0.10221091657876968,0.1079956591129303,0.0,0.9259828925132751,0.0,0.0,-0.3775654733181,0.0980696827173233,0.045475613325834274,0.0,0.0,0.0,-0.6662160158157349,-0.36042317748069763,0.6400803923606873,0.4200000464916229,1.0,3.3916360280272784e-06,-2.2911317500984296e-06,1.2459808829135e-07,0.00026677202549763024,0.0002678929304238409,-0.00010437355376780033,-0.0017412655288353562,0.004206337500363588,-0.0001287838094867766,-0.3877204954624176,0.6350991725921631,0.4826083183288574,0.43597108125686646,0.2839548587799072,-5.21092414855957,0.42219194769859314,0.7529645562171936,0.42000001668930054,-0.7300091981887817,3.0000033378601074,-0.4780900776386261,-2.9999985694885254,-0.12013623863458633,-0.12919101119041443,-0.13814035058021545,-0.14688698947429657,-1.0177022218704224,-1.013405203819275,-1.0101152658462524,-1.007479190826416
0.3,0.09985984861850739,0.10765667259693146,0.0,0.9318909049034119,0.0,0.0,-0.36273863911628723,-0.22637352347373962,-0.04618680849671364,0.0,0.0,0.0,2.7661685943603516,-0.36042317748069763,0.640080451965332,0.4200000464916229,1.0,3.68068367606611e-06,-2.3190737010736484e-06,2.0108919329686614e-07,0.00026479075313545763,0.0002662576735019684,-0.00010421290062367916,-0.0017168199410662055,0.004168981220573187,-0.00012909970246255398,-0.3752595782279968,0.6412904262542725,0.3993290662765503,1.1078286170959473,0.40347951650619507,-4.8576202392578125,0.42219194769859314,0.7529645562171936,0.42000001668930054,-0.6800022125244141,3.0000007152557373,-0.5281171202659607,-3.000000476837158,-0.13788561522960663,-0.1466732621192932,-0.15542227029800415,-0.16401182115077972,-1.006257176399231,-1.0047588348388672,-1.0036083459854126,-1.002680778503418
0.31666666666666665,0.09395540505647659,0.10529667884111404,0.0,0.9315036535263062,0.0,0.0,-0.3637319505214691,-0.32300102710723877,-0.20917150378227234,0.0,0.0,0.0,-0.9985009431838989,-0.36042317748069763,0.6400803923606873,0.4200000464916229,1.0,3.3041578717529774e-06,-2.2214542241272284e-06,2.535552710014599e-07,0.00026660741423256695,0.0002674513671081513,-0.00010424340143799782,-0.0017353476723656058,0.0042044599540531635,-0.00012828414037358016,-0.37635165452957153,0.6444112658500671,0.42435091733932495,0.18525224924087524,0.3522239327430725,-0.16157010197639465,0.42219194769859314,0.7529645562171936,0.42000001668930054,-0.6302232146263123,3.0000009536743164,-0.5786863565444946,-2.9988815784454346,-0.14239348471164703,-0.15056665241718292,-0.1583804190158844,-0.16565509140491486,-0.4656575918197632,-0.38975855708122253,-0.2936076521873474,-0.17517207562923431
0.3333333333333333,0.086907297372818,0.10016629099845886,0.0,0.9365525841712952,0.0,0.0,-0.3505271375179291,-0.46995458006858826,-0.3491343557834625,0.0,0.0,0.0,2.5456461906433105,-0.3579391539096832,0.6449101567268372,0.42003491520881653,0.9982474446296692,0.0008224982302635908,-0.00015553557022940367,-0.05917087569832802,0.25148433446884155,0.46271657943725586,-0.017324082553386688,-0.7653548121452332,-0.006055308971554041,-12.223993301391602,-0.37265652418136597,0.6524813175201416,0.4214615225791931,0.28751516342163086,0.5784393548965454,-0.1494809091091156,0.42219194769859314,0.7529645562171936,0.42000001668930054,-0.5802178382873535,3.000000476837158,-0.6287187933921814,-3.0000035762786865,-0.1509150117635727,-0.1574370265007019,-0.16329123079776764,-0.1682864874601364,-0.5091564059257507,-0.39860984683036804,-0.2714269757270813,-0.12776821851730347
0.35,0.0775333046913147,0.09278596937656403,0.0,0.9356021881103516,0.0,0.0,-0.35305604338645935,-0.6062853336334229,-0.48233309388160706,0.0,0.0,0.0,-1.2734127044677734,-0.35323527455329895,0.6531399488449097,0.42000195384025574,0.9895951747894287,9.557173143548425e-06,7.563031249446794e-05,-0.14387942850589752,0.38654547929763794,0.6262097358703613,-0.0023181671276688576,-0.03408656269311905,-0.11150659620761871,-3.0094728469848633,-0.3664156198501587,0.6612000465393066,0.4216286838054657,0.4954609274864197,0.561453104019165,0.028399426490068436,0.42219194769859314,0.7529645562171936,0.42000001668930054,-0.5302128791809082,2.9999940395355225,-0.6787446737289429,-2.9999842643737793,-0.15972883999347687,-0.1640605926513672,-0.16743463277816772,-0.16968296468257904,-0.5073245167732239,-0.3654089570045471,-0.20763851702213287,-0.03617386892437935
0.36666666666666664,0.07075633853673935,0.08263307809829712,0.0,0.924809992313385,0.0,0.0,-0.3804292678833008,-0.37986481189727783,-0.6542154550552368,0.0,0.0,0.0,-4.354741096496582,-0.3439970314502716,0.6663777828216553,0.42000097036361694,0.9857694506645203,0.0001850244589149952,-9.317462536273524e-05,-0.16810284554958344,0.611212968826294,0.84495609998703,-0.0038847175892442465,-0.16462644934654236,0.17270071804523468,-2.8547258377075195,-0.35473954677581787,0.6725770235061646,0.4195232093334198,0.7890046238899231,0.6994280815124512,0.10804002732038498,0.42219194769859314,0.7529645562171936,0.42000001668930054,-0.4801701009273529,3.0,-0.7287541627883911,-2.9999399185180664,-0.16811548173427582,-0.1697893887758255,-0.17021048069000244,-0.16926637291908264,-0.5116733312606812,-0.3354089856147766,-0.1400919258594513,0.0699748620390892
0.3833333333333333,0.060579556971788406,0.07084646821022034,0.0,0.9012238383293152,0.0,0.0,-0.43335390090942383,-0.687108039855957,-0.7361828684806824,0.0,0.0,0.0,-7.865162372589111,-0.32812538743019104,0.686447262763977,0.42068153619766235,0.9801890850067139,-0.009374615736305714,-0.00780257023870945,-0.19768811762332916,1.3761117458343506,1.6207125186920166,0.10506654530763626,-3.643101930618286,-0.8960103392601013,-6.303004741668701,-0.3347102403640747,0.6893883943557739,0.4214523732662201,1.6926599740982056,1.4208885431289673,0.1342114806175232,0.42219194769859314,0.7529645562171936,0.42000001668930054,-0.4301222860813141,2.9995412826538086,-0.7787640690803528,-3.0000369548797607,-0.17886509001255035,-0.17712217569351196,-0.17381170392036438,-0.16891548037528992,-0.6288101673126221,-0.42015340924263,-0.19338178634643555,0.045363131910562515
0.4,0.05379307270050049,0.05618545413017273,0.0,0.8621333837509155,0.0,0.0,-0.5066813230514526,-0.3588089048862457,-0.9237191081047058,0.0,0.0,0.0,-10.61922550201416,-0.2768493890762329,0.7193792462348938,0.4236959218978882,0.9649046063423157,-0.0071515594609081745,-0.040857382118701935,-0.25930386781692505,4.442978382110596,2.537062406539917,0.04893951117992401,23.43708610534668,-13.260955810546875,7.005155086517334,-0.28307685256004333,0.7239164710044861,0.42386549711227417,4.146521091461182,2.5656161308288574,0.2740592658519745,0.42219194769859314,0.7529645562171936,0.42000001668930054,-0.39411216974258423,1.3581973314285278,-0.828781247138977,-2.9998855590820312,-0.19083888828754425,-0.1846645474433899,-0.17674492299556732,-0.1671994924545288,-0.7594382166862488,-0.4779091775417328,-0.1913241595029831,0.09132786840200424
0.4166666666666667,0.049821462482213974,0.045024070888757706,0.0,0.8048694133758545,0.0,0.0,-0.593451976776123,-0.17065227031707764,-0.6476131677627563,0.0,0.0,0.0,-13.20704460144043,-0.1828489452600479,0.7646315693855286,0.4289993941783905,0.9426983594894409,0.05652476102113724,-0.08580603450536728,-0.31743016839027405,7.204535484313965,2.5506346225738525,0.47136354446411133,13.769315719604492,-15.657846450805664,21.70334243774414,-0.1883733570575714,0.7707964181900024,0.4292168617248535,6.879201889038086,3.149707794189453,0.39209991693496704,0.42219194769859314,0.7529645562171936,0.42000001668930054,-0.37486863136291504,0.8756691217422485,-0.7918661236763,2.9972939491271973,-0.2055385857820511,-0.19622284173965454,-0.18295004963874817,-0.16837267577648163,-0.7641327977180481,-0.6088876128196716,-0.34153395891189575,-0.09758568555116653
0.43333333333333335,0.049158841371536255,0.03716279938817024,0.0,0.7554357647895813,0.0,0.0,-0.6552227139472961,0.01017683744430542,-0.40554729104042053,0.0,0.0,0.0,-8.343335151672363,-0.07201795279979706,0.8052933216094971,0.4375483989715576,0.9060211777687073,0.0915643721818924,-0.11530771851539612,-0.39679405093193054,6.764251232147217,1.2481279373168945,0.618783712387085,4.968915939331055,-13.025897979736328,18.77400779724121,-0.07736777514219284,0.8144733309745789,0.4376155436038971,6.67807674407959,2.0090761184692383,0.5608483552932739,0.42219194769859314,0.7529645562171936,0.42000001668930054,-0.36033979058265686,0.8341368436813354,-0.8190445303916931,-3.0000007152557373,-0.2200680822134018,-0.2074967622756958,-0.18974485993385315,-0.171236053109169,-0.8434860706329346,-0.6427946090698242,-0.39564383029937744,-0.18475204706192017
0.45,0.047090351581573486,0.03372287377715111,0.0,0.728300154209137,0.0,0.0,-0.6852582097053528,-0.15687577426433563,-0.1476753056049347,0.0,0.0,0.0,-3.6419196128845215,0.034812893718481064,0.8281751275062561,0.4465086758136749,0.8350719809532166,0.10195410251617432,-0.11463934183120728,-0.5283160209655762,6.208333492279053,0.06756419688463211,0.4068659543991089,-3.8905746936798096,-17.07903289794922,19.351533889770508,0.02889244258403778,0.8384671211242676,0.44551366567611694,6.275510787963867,0.8925652503967285,0.5786662101745605,0.42219194769859314,0.7529645562171936,0.42000001668930054,-0.3460840880870819,0.7332168221473694,-0.8690685033798218,-3.0000040531158447,-0.23372966051101685,-0.21938957273960114,-0.19750303030014038,-0.17551001906394958,-0.7539785504341125,-0.6497719883918762,-0.43654486536979675,-0.2605924904346466
0.4666666666666667,0.04747012257575989,0.028111176565289497,0.0,0.7244678139686584,0.0,0.0,-0.6893086433410645,0.09294940531253815,-0.44371071457862854,0.0,0.0,0.0,0.2569926679134369,0.12866009771823883,0.8334255814552307,0.45204591751098633,0.7899172902107239,0.08864383399486542,-0.11015985906124115,-0.596688985824585,5.237408638000488,-1.0648808479309082,0.26412278413772583,-6.752996921539307,-16.58526039123535,18.606143951416016,0.12536127865314484,0.8453812599182129,0.4520685374736786,5.412256717681885,-0.1257929652929306,0.4206882119178772,0.42219194769859314,0.7529645562171936,0.42000001668930054,-0.3365350067615509,0.3771960437297821,-0.9190927147865295,-3.0000030994415283,-0.24004247784614563,-0.22688515484333038,-0.2020188421010971,-0.17750751972198486,-0.036639414727687836,-0.3353812098503113,-0.17919665575027466,-0.043259765952825546
0.48333333333333334,0.05001845583319664,0.025437431409955025,0.0,0.7122532725334167,0.0,0.0,-0.7019225358963013,0.1806039810180664,-0.05980951711535454,0.0,0.0,0.0,-2.9778895378112793,0.21144899725914001,0.8251769542694092,0.45424970984458923,0.7139941453933716,0.09291202574968338,-0.10264655202627182,-0.6863259077072144,4.083280563354492,-1.5614176988601685,0.27295947074890137,2.613401412963867,16.465200424194336,24.831514358520508,0.20829524099826813,0.8384919166564941,0.45440369844436646,4.952509880065918,-0.74757981300354,0.006158904172480106,0.42219194769859314,0.7529645562171936,0.42000001668930054,-0.33104977011680603,0.16393910348415375,-0.969116747379303,-2.9979636669158936,-0.23994432389736176,-0.2334199696779251,-0.20656715333461761,-0.1803465634584427,-0.009495522826910019,-0.3386259973049164,-0.25911906361579895,-0.19419264793395996
0.5,0.05504562705755234,0.025893032550811768,0.0,0.713132917881012,0.0,0.0,-0.7010288238525391,0.337924063205719,0.09615018963813782,0.0,0.0,0.0,1.0085066556930542,0.2837549149990082,0.809026837348938,0.4506757855415344,0.6414721012115479,0.06231734901666641,-0.1100572943687439,-0.7566488981246948,3.555941581726074,-1.6671364307403564,-0.24740079045295715,-0.3693388104438782,-2.5153799057006836,16.13907241821289,0.28126493096351624,0.8223581314086914,0.4519304931163788,4.122176647186279,-1.2436566352844238,-0.2767714262008667,0.42219194769859314,0.7529645562171936,0.42000001668930054,-0.3275964856147766,0.28478941321372986,-1.0191400051116943,-3.000000476837158,-0.23826700448989868,-0.2365231066942215,-0.20946145057678223,-0.1831560730934143,0.12606506049633026,-0.1002650037407875,-0.12821543216705322,-0.16255944967269897
0.5166666666666666,0.06225784868001938,0.0234152190387249,0.0,0.7036831378936768,0.0,0.0,-0.7105139493942261,0.46793025732040405,-0.1996217519044876,0.0,0.0,0.0,-2.4066920280456543,0.34179019927978516,0.7905346751213074,0.43959328532218933,0.6073648929595947,0.04022885486483574,-0.10860642790794373,-0.7859351634979248,2.724562168121338,-1.5422102212905884,-0.7730539441108704,-1.5619992017745972,-1.1135016679763794,14.720624923706055,0.34049028158187866,0.8032580614089966,0.4415218234062195,3.1736555099487305,-1.271378993988037,-0.8129903078079224,0.42219194769859314,0.7529645562171936,0.42000001668930054,-0.3184926509857178,0.6784394979476929,-1.069162130355835,-2.999995708465576,-0.2331603765487671,-0.2348126471042633,-0.2093045562505722,-0.184569850564003,0.2508150041103363,0.1143704205751419,0.008021182380616665,-0.10126570612192154
0.5333333333333333,0.0670548677444458,0.024185428395867348,0.0,0.7060938477516174,0.0,0.0,-0.7081182599067688,0.23754863440990448,0.0724354088306427,0.0,0.0,0.0,1.233995795249939,0.38433289527893066,0.7690131664276123,0.42564570903778076,0.5396980047225952,-0.0009882005397230387,-0.11205251514911652,-0.834367573261261,1.812525987625122,-0.7304357290267944,-0.1438814103603363,5.421794891357422,-2.296891212463379,0.638660192489624,0.3817422389984131,0.7806649208068848,0.4288489818572998,1.7277405261993408,-1.135521650314331,-0.1941882073879242,0.42219194769859314,0.7529645562171936,0.42000001668930054,-0.30336830019950867,1.2445824146270752,-1.1192678213119507,-2.997443675994873,-0.23112760484218597,-0.23399618268013,-0.2103232443332672,-0.187472864985466,0.24655629694461823,0.17478841543197632,0.01905795745551586,-0.1294604241847992
0.55,0.07292584329843521,0.02130606584250927,0.0,0.6980133056640625,0.0,0.0,-0.7160847783088684,0.3715612292289734,-0.2141619324684143,0.0,0.0,0.0,-2.171063184738159,0.4063764810562134,0.7592266201972961,0.42295724153518677,0.5209149122238159,0.009639340452849865,-0.056825559586286545,-0.8516604900360107,0.6895802617073059,-1.0935213565826416,0.35187608003616333,-18.810672760009766,8.398749351501465,16.169652938842773,0.4037221670150757,0.7690057754516602,0.4259290397167206,0.755935788154602,-0.38458025455474854,0.13635078072547913,0.42219194769859314,0.7529645562171936,0.42000001668930054,-0.27762162685394287,1.2728723287582397,-1.169318675994873,-3.0000078678131104,-0.22400814294815063,-0.22819827497005463,-0.20790410041809082,-0.18818485736846924,0.4125763177871704,0.3650195598602295,0.15955153107643127,-0.02890312299132347
0.5666666666666667,0.07894744724035263,0.021921955049037933,0.0,0.7011504173278809,0.0,0.0,-0.7130134105682373,0.3399631083011627,0.03478201851248741,0.0,0.0,0.0,1.2531603574752808,0.4162953794002533,0.7499229311943054,0.42196032404899597,0.5329990983009338,-0.010551812127232552,-0.0328093059360981,-0.8454136252403259,0.3650740683078766,-0.7788849472999573,-0.0345442071557045,-1.6326303482055664,3.278864860534668,4.454593181610107,0.4132760763168335,0.7587273120880127,0.4253777861595154,0.3948954939842224,-0.5340887308120728,-0.05843512341380119,0.42219194769859314,0.7529645562171936,0.42000001668930054,-0.27453503012657166,-0.7040262222290039,-1.2193408012390137,-3.0000014305114746,-0.2190520018339157,-0.22334939241409302,-0.20627263188362122,-0.18952228128910065,0.4148155152797699,0.39521560072898865,0.17314495146274567,-0.02876240946352482
0.5833333333333334,0.0858243927359581,0.024579161778092384,0.0,0.6926881670951843,0.0,0.0,-0.7212371826171875,0.44763755798339844,0.22948729991912842,0.0,0.0,0.0,-2.3466546535491943,0.4199637770652771,0.7460554242134094,0.42101970314979553,0.5543198585510254,-0.020914699882268906,-0.010604399256408215,-0.8319733142852783,0.04073439911007881,-0.11973834782838821,0.05661819875240326,-2.879697561264038,1.1238853931427002,4.796101093292236,0.41676944494247437,0.7564314007759094,0.4249022305011749,0.057676710188388824,0.09390980750322342,0.17691576480865479,0.42219194769859314,0.7529645562171936,0.42000001668930054,-0.2969215512275696,-1.7996991872787476,-1.269300103187561,-2.9993226528167725,-0.20951741933822632,-0.21497072279453278,-0.2024565488100052,-0.1897464096546173,0.6537978649139404,0.5699648857116699,0.27764177322387695,0.02033773995935917
0.6,0.09492523968219757,0.023109445348381996,0.0,0.6956034898757935,0.0,0.0,-0.7184258699417114,0.558315634727478,-0.08837031573057175,0.0,0.0,0.0,1.327199935913086,0.4205518662929535,0.7443745136260986,0.4206359088420868,0.5799616575241089,-0.012985777109861374,-0.009421948343515396,-0.8144856691360474,0.029956620186567307,-0.09593561291694641,-0.047667767852544785,2.358560800552368,-0.8893241882324219,3.2919118404388428,0.41671061515808105,0.756641149520874,0.427972674369812,-0.108823262155056,-0.08079329878091812,0.197744220495224,0.42219194769859314,0.7529645562171936,0.42000001668930054,-0.34446731209754944,-2.9980735778808594,-1.319280743598938,-2.999753713607788,-0.1959584355354309,-0.20276735723018646,-0.1951286792755127,-0.18674632906913757,0.6192104816436768,0.5991504788398743,0.3639460802078247,0.15300603210926056
0.6166666666666667,0.10599709302186966,0.026358023285865784,0.0,0.6871426105499268,0.0,0.0,-0.7265225648880005,0.6841173768043518,0.1810663342475891,0.0,0.0,0.0,-2.3451783657073975,0.4206610321998596,0.7435400485992432,0.4200000464916229,0.5849846005439758,4.486622273702778e-08,-2.1631933577737072e-07,-0.8110443949699402,-0.001798061653971672,-0.014586280100047588,-8.75513069331646e-06,0.0010932302102446556,0.0002046003646682948,-0.036451321095228195,0.41816550493240356,0.758154034614563,0.43145477771759033,0.2246963232755661,0.22543254494667053,0.23508599400520325,0.42219194769859314,0.7529645562171936,0.42000001668930054,-0.39450448751449585,-2.9987294673919678,-1.3692374229431152,-2.9991536140441895,-0.18705548346042633,-0.19416841864585876,-0.19026809930801392,-0.18521207571029663,0.71343594789505,0.6525793671607971,0.39877521991729736,0.1740066558122635
0.6333333333333333,0.11882141977548599,0.02520354464650154,0.0,0.6902416944503784,0.0,0.0,-0.7235788702964783,0.7917419672012329,-0.09236004948616028,0.0,0.0,0.0,1.4226540327072144,0.4206607937812805,0.7435402870178223,0.4200000464916229,0.5849848985671997,1.4766499134566402e-07,-3.395229896341334e-06,-0.8110442161560059,9.48243832681328e-05,-0.0001517294585937634,-5.1816925406455994e-05,0.000714451598469168,-0.0023423642851412296,-0.0006671125302091241,0.419319212436676,0.7613165378570557,0.43469706177711487,-0.10118039697408676,0.15024402737617493,0.19996435940265656,0.42219194769859314,0.7529645562171936,0.42000001668930054,-0.44451799988746643,-3.000000476837158,-1.4192560911178589,-3.0000007152557373,-0.17588937282562256,-0.18361109495162964,-0.18344703316688538,-0.181795135140419,0.4813652038574219,0.4861932694911957,0.3089078664779663,0.14172734320163727
0.65,0.1293201446533203,0.027266325429081917,0.0,0.7138219475746155,0.0,0.0,-0.7003272175788879,0.5826712846755981,0.14811326563358307,0.0,0.0,0.0,4.822146892547607,0.42066076397895813,0.7435402274131775,0.4200000464916229,0.5849846601486206,2.9176428029131785e-07,-3.3322744457109366e-06,-0.8110443353652954,0.00011305566295050085,-0.00026687225908972323,-9.096530266106129e-05,0.006243341136723757,-0.0013642963021993637,-0.0006788397440686822,0.4175831377506256,0.7615802884101868,0.43798282742500305,-0.11037746071815491,0.0180523544549942,0.2109854370355606,0.42219194769859314,0.7529645562171936,0.42000001668930054,-0.49451279640197754,-2.999948024749756,-1.4692367315292358,-2.99954891204834,-0.171068474650383,-0.17793907225131989,-0.17967447638511658,-0.17978163063526154,0.30567580461502075,0.3587505519390106,0.2647903859615326,0.18053759634494781
0.6666666666666666,0.1403682976961136,0.025852924212813377,0.0,0.7242391705513,0.0,0.0,-0.6895488500595093,0.6737931966781616,-0.13169720768928528,0.0,0.0,0.0,0.7177231907844543,0.42066076397895813,0.7435402274131775,0.4200000464916229,0.5849846005439758,3.423852206196898e-07,-3.1331624086305965e-06,-0.8110443353652954,0.0001133508631028235,-0.0002673391136340797,-9.113340638577938e-05,0.006253529340028763,-0.0013654578942805529,-0.0006802556454204023,0.41648074984550476,0.7635815739631653,0.44234198331832886,-0.07399648427963257,0.049539849162101746,0.28465890884399414,0.42219194769859314,0.7529645562171936,0.42000001668930054,-0.5445128679275513,-2.9998936653137207,-1.5192233324050903,-2.9999501705169678,-0.16613087058067322,-0.17171868681907654,-0.17425552010536194,-0.17495086789131165,0.2051299661397934,0.31897178292274475,0.3252633213996887,0.34385809302330017
0.6833333333333333,0.15269942581653595,0.02097606286406517,0.0,0.7132908701896667,0.0,0.0,-0.7008681297302246,0.7749474048614502,-0.36677780747413635,0.0,0.0,0.0,-2.767099142074585,0.42066076397895813,0.7435402274131775,0.4200000464916229,0.5849848389625549,3.178212466536934e-07,-3.2771552014310146e-06,-0.8110442161560059,0.00010970501170959324,-0.00026856022304855287,-9.030662477016449e-05,0.00630429619923234,-0.00141422008164227,-0.000673925329465419,0.4205782413482666,0.7672582268714905,0.45327985286712646,0.5273635387420654,0.3117004632949829,1.1204557418823242,0.42219194769859314,0.7529645562171936,0.42000001668930054,-0.5945242643356323,-2.99998140335083,-1.5692414045333862,-2.999999761581421,-0.1647176742553711,-0.1683025062084198,-0.17033670842647552,-0.17032739520072937,0.02245306223630905,0.14552685618400574,0.19361606240272522,0.25288358330726624
0.7,0.16820195317268372,0.020945534110069275,0.0,0.6812863349914551,0.0,0.0,-0.7320170402526855,0.9073961973190308,-0.025673698633909225,0.0,0.0,0.0,-6.151660919189453,0.42066076397895813,0.7435402274131775,0.4200000464916229,0.5849847793579102,3.16761031626811e-07,-3.2411489883088507e-06,-0.8110441565513611,0.00010958070924971253,-0.00026875073672272265,-9.024306200444698e-05,0.006310087163001299,-0.0014156660763546824,-0.0006738202646374702,0.43821537494659424,0.769790768623352,0.4779765009880066,1.6580933332443237,0.14341194927692413,1.915691614151001,0.42219194769859314,0.7529645562171936,0.42000001668930054,-0.6445349454879761,-2.9999899864196777,-1.6192560195922852,-2.999999523162842,-0.17166829109191895,-0.17198026180267334,-0.17182213068008423,-0.1695621907711029,-0.3124532401561737,-0.14776426553726196,-0.030621491372585297,0.09358130395412445
0.7166666666666667,0.1802283227443695,0.023271868005394936,0.0,0.6625867486000061,0.0,0.0,-0.7489851713180542,0.681743323802948,0.1265297681093216,0.0,0.0,0.0,-1.8997505903244019,0.42066076397895813,0.7435402274131775,0.4200000464916229,0.5849849581718445,4.736013465844735e-07,-3.1969229894457385e-06,-0.8110441565513611,0.00011014364281436428,-0.0002689808898139745,-9.032618254423141e-05,0.006312651559710503,-0.0014092904748395085,-0.0006754325004294515,0.46515169739723206,0.7746096849441528,0.5128635168075562,1.5990140438079834,0.46147921681404114,2.2041614055633545,0.42219194769859314,0.7529645562171936,0.42000001668930054,-0.6618427634239197,0.622830867767334,-1.6692705154418945,-3.000000238418579,-0.1767856329679489,-0.17505019903182983,-0.17352640628814697,-0.16988585889339447,-0.15288014709949493,-0.100855253636837,-0.08091782033443451,-0.06153813377022743
0.7333333333333333,0.18831336498260498,0.027150483801960945,0.0,0.6682979464530945,0.0,0.0,-0.7438936829566956,0.41379740834236145,0.28928232192993164,0.0,0.0,0.0,1.7978819608688354,0.42066076397895813,0.7435402274131775,0.4200000464916229,0.5849847197532654,3.5675739695761877e-07,-3.169654291923507e-06,-0.8110442161560059,0.00010745129839051515,-0.00026840114151127636,-8.978159166872501e-05,0.006313181482255459,-0.001439245999790728,-0.0006685010739602149,0.48454660177230835,0.7809319496154785,0.5438581705093384,0.6950795650482178,0.3555310368537903,1.5809593200683594,0.42219194769859314,0.7529645562171936,0.42000001668930054,-0.6283271312713623,2.9999806880950928,-1.6300612688064575,2.9999990463256836,-0.17840804159641266,-0.1759524792432785,-0.17410288751125336,-0.17019504308700562,-0.033635661005973816,2.828892320394516e-08,0.013465095311403275,0.021496035158634186
0.75,0.19193920493125916,0.026038123294711113,0.0,0.662773847579956,0.0,0.0,-0.7488196492195129,0.2227015197277069,-0.0699615478515625,0.0,0.0,0.0,-1.6267130374908447,0.42066076397895813,0.7435402274131775,0.4200000464916229,0.5849851369857788,3.617079471496254e-07,-3.2188784189202124e-06,-0.811043918132782,0.00010880853369599208,-0.00027011087513528764,-9.003304876387119e-05,0.006348028313368559,-0.0014309717807918787,-0.0006741074612364173,0.48875707387924194,0.7890030145645142,0.5631986856460571,-0.24515371024608612,0.3240187168121338,0.8790257573127747,0.42219194769859314,0.7529645562171936,0.42000001668930054,-0.5991955995559692,0.67698734998703,-1.5800048112869263,2.999999761581421,-0.17382262647151947,-0.1716574877500534,-0.17029789090156555,-0.16696159541606903,0.09291790425777435,0.12003307789564133,0.13527190685272217,0.13685457408428192
0.7666666666666666,0.19292989373207092,0.02997477725148201,0.0,0.6694340705871582,0.0,0.0,-0.7428715229034424,0.023624073714017868,0.2768712043762207,0.0,0.0,0.0,1.8199245929718018,0.42066076397895813,0.7435402274131775,0.4200000464916229,0.584984540939331,3.7552163689724694e-07,-3.295360329502728e-06,-0.811044454574585,0.00010914813174167648,-0.00027000094996765256,-9.012129157781601e-05,0.006343244109302759,-0.0014269425300881267,-0.0006741870893165469,0.4798295795917511,0.7923324108123779,0.5740265846252441,-0.7290655374526978,0.2516888678073883,0.46004146337509155,0.42219194769859314,0.7529645562171936,0.42000001668930054,-0.5671088695526123,2.949317216873169,-1.52997887134552,3.0000007152557373,-0.17588916420936584,-0.17263895273208618,-0.1703834980726242,-0.16649837791919708,-0.02987775020301342,0.0034524500370025635,0.031296972185373306,0.03969414532184601
0.7833333333333333,0.19123943150043488,0.03043961152434349,0.0,0.6646355986595154,0.0,0.0,-0.7471676468849182,-0.15400280058383942,0.012534743174910545,0.0,0.0,0.0,-1.53502357006073,0.42066076397895813,0.7435402274131775,0.4200000464916229,0.5849848389625549,3.511102875108918e-07,-3.322054908494465e-06,-0.8110441565513611,0.00010918857151409611,-0.00026997877284884453,-9.013619273900986e-05,0.00634242407977581,-0.0014264838537201285,-0.0006742562400177121,0.46133941411972046,0.7961047887802124,0.5751221179962158,-1.5078723430633545,0.10590100288391113,-0.17809849977493286,0.42219194769859314,0.7529645562171936,0.42000001668930054,-0.5551152229309082,-1.1629610061645508,-1.4799224138259888,3.000000238418579,-0.1746687889099121,-0.17118233442306519,-0.16870684921741486,-0.16491484642028809,-0.005786159075796604,0.024898048490285873,0.055450405925512314,0.06437180936336517
0.8,0.19137077033519745,0.031079361215233803,0.0,0.6714403033256531,0.0,0.0,-0.7410586476325989,0.05377193167805672,-0.011555622331798077,0.0,0.0,0.0,1.922405481338501,0.42066076397895813,0.7435402274131775,0.4200000464916229,0.5849848389625549,3.2934946148088784e-07,-3.2848884075065143e-06,-0.8110442161560059,0.00010962525266222656,-0.00026867835549637675,-9.025074541568756e-05,0.006308022420853376,-0.001414707163348794,-0.0006738157826475799,0.440773069858551,0.7975851893424988,0.5717052221298218,-0.976937472820282,0.16577529907226562,-0.17953559756278992,0.42219194769859314,0.7529645562171936,0.42000001668930054,-0.5500729084014893,1.529815435409546,-1.4964935779571533,-2.999999761581421,-0.17654094099998474,-0.17227144539356232,-0.16895411908626556,-0.16466283798217773,-0.06338705867528915,-0.033249009400606155,0.005749617703258991,0.028103729709982872
0.8166666666666667,0.1936836838722229,0.02859823778271675,0.0,0.6668822169303894,0.0,0.0,-0.7451631426811218,0.18739499151706696,-0.21107038855552673,0.0,0.0,0.0,-1.5752570629119873,0.42066076397895813,0.7435402274131775,0.4200000464916229,0.5849849581718445,4.983995154361764e-07,-3.2425355129817035e-06,-0.8110440969467163,0.00011020142846973613,-0.0002689010289032012,-9.033945389091969e-05,0.006310457829385996,-0.0014080503024160862,-0.0006754496716894209,0.4257045090198517,0.7987884283065796,0.5644044280052185,-0.8009423613548279,-0.06398415565490723,-0.49871283769607544,0.42219194769859314,0.7529645562171936,0.42000001668930054,-0.5673505067825317,-3.000002145767212,-1.4577747583389282,3.0000009536743164,-0.17770984768867493,-0.17295636236667633,-0.16888578236103058,-0.16401709616184235,-0.07443437725305557,-0.0370607003569603,0.019989395514130592,0.06951691955327988
0.8333333333333334,0.1987249106168747,0.022761279717087746,0.0,0.6427714824676514,0.0,0.0,-0.7660579681396484,0.3494112491607666,-0.43428492546081543,0.0,0.0,0.0,-4.674755096435547,0.42066076397895813,0.7435402274131775,0.4200000464916229,0.5849848985671997,4.993622155780031e-07,-3.3830312986538047e-06,-0.8110440969467163,0.0001108672731788829,-0.00026874715695157647,-9.052222594618797e-05,0.0063026598654687405,-0.0014004261465743184,-0.0006768167368136346,0.4205872118473053,0.7960982322692871,0.5569480657577515,0.18732672929763794,-0.24907077848911285,-0.24170690774917603,0.42219194769859314,0.7529645562171936,0.42000001668930054,-0.6096706390380859,-2.1185390949249268,-1.4748225212097168,-2.999993085861206,-0.1805025041103363,-0.17487356066703796,-0.16952906548976898,-0.1634451448917389,-0.1895868182182312,-0.13009858131408691,-0.04403898864984512,0.04163174331188202
0.85,0.2066410481929779,0.020314142107963562,0.0,0.6325903534889221,0.0,0.0,-0.7744865417480469,0.4922880232334137,-0.11164471507072449,0.0,0.0,0.0,-0.49405646324157715,0.42066076397895813,0.7435402274131775,0.4200000464916229,0.5849846601486206,2.590931273971364e-07,-3.1314295938500436e-06,-0.8110443949699402,0.00010572669270914048,-0.00026929425075650215,-8.940487168729305e-05,0.006344855297356844,-0.001464413246139884,-0.0006657362100668252,0.42445287108421326,0.7937726378440857,0.5551226139068604,0.3238171637058258,0.029836459085345268,-0.011877123266458511,0.42219194769859314,0.7529645562171936,0.42000001668930054,-0.6159293055534363,1.0929348468780518,-1.5248408317565918,-3.000000238418579,-0.18551461398601532,-0.17907215654850006,-0.172560453414917,-0.16538023948669434,-0.1566925346851349,-0.16922110319137573,-0.16055183112621307,-0.15336869657039642
0.8666666666666667,0.21171310544013977,0.013311756774783134,0.0,0.6465677618980408,0.0,0.0,-0.7628565430641174,0.24632829427719116,-0.43570077419281006,0.0,0.0,0.0,2.8358561992645264,0.42066076397895813,0.7435402274131775,0.4200000464916229,0.5849848985671997,3.9081331237866834e-07,-3.1451631912204903e-06,-0.8110441565513611,0.00011534165969351307,-0.00026653107488527894,-9.154062718153e-05,0.00622267322614789,-0.0013366813072934747,-0.000683878839481622,0.43128353357315063,0.7931822538375854,0.5514627695083618,0.4038442373275757,-0.21882425248622894,-0.410236656665802,0.42219194769859314,0.7529645562171936,0.42000001668930054,-0.6172829866409302,-1.0693272352218628,-1.486037015914917,3.0,-0.18495294451713562,-0.17879833281040192,-0.17224080860614777,-0.16502732038497925,-0.08507538586854935,-0.05973193421959877,-0.018985768780112267,0.016927512362599373
0.8833333333333333,0.21341712772846222,0.011035510338842869,0.0,0.6471613645553589,0.0,0.0,-0.7623530626296997,0.06525180488824844,-0.11334723979234695,0.0,0.0,0.0,-0.7326322793960571,0.42066076397895813,0.7435402870178223,0.4200000464916229,0.5849848985671997,3.8190327700249327e-07,-3.121672307315748e-06,-0.8110440969467163,0.00010726555046858266,-0.00027083608438260853,-8.972408249974251e-05,0.006374269258230925,-0.0014540712581947446,-0.0006713836337439716,0.44123727083206177,0.7875834107398987,0.5410609245300293,0.8409988880157471,-0.3228965401649475,-0.7060555219650269,0.42219194769859314,0.7529645562171936,0.42000001668930054,-0.6308867335319519,-0.592216432094574,-1.5024821758270264,-3.000000238418579,-0.18929381668567657,-0.18238702416419983,-0.17483307421207428,-0.16669589281082153,-0.14716462790966034,-0.13434159755706787,-0.10380256921052933,-0.07209416478872299
