vladlanda/robotic-transformer/data/env_000_episode_0175.csv
sim_time_s,robot_box_x,robot_box_y,robot_box_z,robot_box_quat_w,robot_box_quat_x,robot_box_quat_y,robot_box_quat_z,robot_box_linvel_x,robot_box_linvel_y,robot_box_linvel_z,robot_box_angvel_x,robot_box_angvel_y,robot_box_angvel_z,cube_world_x,cube_world_y,cube_world_z,cube_quat_w,cube_quat_x,cube_quat_y,cube_quat_z,cube_linvel_x,cube_linvel_y,cube_linvel_z,cube_angvel_x,cube_angvel_y,cube_angvel_z,endpoint_world_x,endpoint_world_y,endpoint_world_z,endpoint_linvel_x,endpoint_linvel_y,endpoint_linvel_z,target_cube_world_x,target_cube_world_y,target_cube_world_z,gripper_actual_pos_rad_gp_leftgearjoint,gripper_actual_vel_rad_s_gp_leftgearjoint,gripper_actual_pos_rad_gp_rotatingjoint,gripper_actual_vel_rad_s_gp_rotatingjoint,motor_angle_rad_joint1,motor_angle_rad_joint2,motor_angle_rad_joint3,motor_angle_rad_joint4,motor_speed_rad_s_joint1,motor_speed_rad_s_joint2,motor_speed_rad_s_joint3,motor_speed_rad_s_joint4
0.0,0.0,0.0,0.0,1.0,0.0,0.0,0.0,0.0,0.0,0.0,0.0,0.0,0.0,-0.37966588139533997,0.7066743969917297,0.41999998688697815,1.0,0.0,0.0,0.0,0.0,0.0,0.0,0.0,0.0,0.0,3.42540442943573e-06,-0.005000244826078415,1.313499927520752,0.0,0.0,0.0,0.4555572271347046,0.736545741558075,0.42000001668930054,-1.5707999467849731,0.0,0.0,0.0,0.0,0.0,0.0,0.0,0.0,0.0,0.0,0.0
0.016666666666666666,0.0028808205388486385,0.0021772596519440413,0.0,0.9998149275779724,0.0,0.0,0.019238151609897614,0.2409578114748001,0.18228653073310852,0.0,0.0,0.0,3.14180064201355,-0.3796660006046295,0.7066740989685059,0.41999998688697815,1.0,3.279964630564791e-06,-8.339746386809566e-07,8.465587342243452e-08,-1.9833529222523794e-05,0.00017983045836444944,-6.132945418357849e-05,0.0009432713268324733,-0.004689474124461412,-0.00031981561915017664,-0.007109390571713448,0.0033883005380630493,1.3159382343292236,-0.8140318393707275,0.9872059226036072,0.18096068501472473,0.4555572271347046,0.736545741558075,0.42000001668930054,-1.5301094055175781,3.000002145767212,-0.04584876075387001,-3.0000009536743164,0.0008700723992660642,0.0007967294077388942,0.0007113066967576742,0.0006111631519161165,0.11094985902309418,0.09758766740560532,0.083364337682724,0.06825874745845795
0.03333333333333333,0.008964573964476585,0.006796755362302065,0.0,0.9998030066490173,0.0,0.0,0.019848298281431198,0.40706080198287964,0.3151974081993103,0.0,0.0,0.0,-0.8690873980522156,-0.37966611981391907,0.7066740393638611,0.4200000464916229,1.0,3.3908179375430336e-06,-2.132458348569344e-06,-3.7097745320124886e-08,0.00026357852038927376,0.00026937833172269166,-0.00010509369894862175,-0.0017707126680761576,0.004130884539335966,-0.0001354814594378695,-0.027540825307369232,0.026323433965444565,1.3165805339813232,-1.5902729034423828,1.6175503730773926,-0.08711424469947815,0.4555572271347046,0.736545741558075,0.42000001668930054,-1.4800901412963867,3.000002384185791,-0.09588859230279922,-3.000000476837158,0.002990390406921506,0.002652664203196764,0.0022772185038775206,0.0018607014790177345,0.16416917741298676,0.1397259682416916,0.11378764361143112,0.08627081662416458
0.05,0.018476231023669243,0.013900919817388058,0.0,0.9999744892120361,0.0,0.0,-0.0071451133117079735,0.636262834072113,0.47236722707748413,0.0,0.0,0.0,-4.073484420776367,-0.37966614961624146,0.7066740989685059,0.4200000464916229,1.0,3.7651902857760433e-06,-2.2119197637948673e-06,5.609367637049445e-09,0.00026530938339419663,0.00026691678795032203,-0.00010440615005791187,-0.0017243892652913928,0.004177466034889221,-0.00012949809024576098,-0.05712886527180672,0.057972803711891174,1.3117568492889404,-1.9469001293182373,2.1035337448120117,-0.47466763854026794,0.4555572271347046,0.736545741558075,0.42000001668930054,-1.4300718307495117,3.000002145767212,-0.1459272801876068,-3.0,0.0060136644169688225,0.005174003541469574,0.004262048285454512,0.0032734631095081568,0.2071048468351364,0.16673462092876434,0.1244417354464531,0.08015134185552597
0.06666666666666667,0.030801651999354362,0.023392513394355774,0.0,0.999875545501709,0.0,0.0,-0.01577684096992016,0.7727803587913513,0.6162907481193542,0.0,0.0,0.0,-0.0361989364027977,-0.37966614961624146,0.7066740393638611,0.4200000464916229,0.9999999403953552,3.406832092878176e-06,-2.28558906201215e-06,4.300801492718165e-07,0.0002670248504728079,0.0002679176686797291,-0.0001043803058564663,-0.00174071139190346,0.00421183044090867,-0.00012850876373704523,-0.09270744770765305,0.09220273792743683,1.3010690212249756,-2.1897473335266113,2.171034812927246,-0.7963719367980957,0.4555572271347046,0.736545741558075,0.42000001668930054,-1.3800508975982666,3.000002145767212,-0.1865788847208023,-1.9410321712493896,0.008582095615565777,0.006970065180212259,0.0052452110685408115,0.0034028510563075542,0.13190332055091858,0.07554235309362411,0.017022237181663513,-0.04371773079037666
0.08333333333333333,0.04512476548552513,0.035046759992837906,0.0,0.9992613196372986,0.0,0.0,-0.038429051637649536,0.9465266466140747,0.7345060110092163,0.0,0.0,0.0,-3.5542094707489014,-0.37966614961624146,0.7066740393638611,0.4200000464916229,0.9999999403953552,3.626166289905086e-06,-2.3353043161478126e-06,3.032100153177453e-07,0.00026614085072651505,0.0002668516826815903,-0.00010405341163277626,-0.001728349830955267,0.004196455702185631,-0.0001279077841900289,-0.12538181245326996,0.13286978006362915,1.2871174812316895,-1.7395553588867188,2.6956214904785156,-0.8671865463256836,0.4555572271347046,0.736545741558075,0.42000001668930054,-1.3300256729125977,3.000000476837158,-0.15425197780132294,3.000000238418579,0.009140011854469776,0.0063637313432991505,0.0034316559322178364,0.00033933567465282977,-0.00657543633133173,-0.09262623637914658,-0.18093660473823547,-0.27143436670303345
0.1,0.053969621658325195,0.050601132214069366,0.0,0.9958304166793823,0.0,0.0,-0.09122374653816223,0.3916098475456238,1.017806887626648,0.0,0.0,0.0,-7.305515766143799,-0.37966614961624146,0.7066740393638611,0.4200000464916229,1.0,3.4222334761579987e-06,-2.3086047349352157e-06,1.796183539681806e-07,0.0002668157103471458,0.00026800340856425464,-0.00010440708138048649,-0.0017429988365620375,0.004207124002277851,-0.00012891183723695576,-0.15297676622867584,0.17912261188030243,1.271208643913269,-1.5800580978393555,2.8828554153442383,-0.9919295310974121,0.4555572271347046,0.736545741558075,0.42000001668930054,-1.2800358533859253,3.0000011920928955,-0.18604020774364471,-3.000000238418579,0.0024676474276930094,-0.0012605779338628054,-0.005198565311729908,-0.009353436529636383,-0.5309942960739136,-0.5850180983543396,-0.6416855454444885,-0.7012121081352234
0.11666666666666667,0.05763478949666023,0.06798288971185684,0.0,0.9922933578491211,0.0,0.0,-0.12391074746847153,0.21403692662715912,0.9907702207565308,0.0,0.0,0.0,-2.719709873199463,-0.37966614961624146,0.7066740989685059,0.4200000464916229,1.0,3.7116215025889687e-06,-2.3326904283749172e-06,2.5741752551766695e-07,0.00026485833222977817,0.0002663549967110157,-0.00010423408821225166,-0.0017181988805532455,0.004170059692114592,-0.00012915713887196034,-0.18734334409236908,0.22255966067314148,1.2524778842926025,-2.2265822887420654,2.727644681930542,-1.2170825004577637,0.4555572271347046,0.736545741558075,0.42000001668930054,-1.2300366163253784,2.9999992847442627,-0.23607414960861206,-3.0000007152557373,-0.006224693730473518,-0.010969980619847775,-0.01593126729130745,-0.021118639037013054,-0.41344401240348816,-0.4876028597354889,-0.5600663423538208,-0.6309157013893127
0.13333333333333333,0.07048718631267548,0.08090155571699142,0.0,0.985920786857605,0.0,0.0,-0.16721312701702118,0.8182209730148315,0.8311020731925964,0.0,0.0,0.0,-5.8209991455078125,-0.37966614961624146,0.7066740393638611,0.4200000464916229,1.0,3.3357862321281573e-06,-2.231929329354898e-06,3.1130659294831275e-07,0.00026669795624911785,0.00026759557658806443,-0.00010428577661514282,-0.0017371183494105935,0.004205892328172922,-0.00012840361159760505,-0.21951226890087128,0.2751997113227844,1.2322134971618652,-1.658623218536377,3.6499361991882324,-1.3522906303405762,0.4555572271347046,0.736545741558075,0.42000001668930054,-1.1800163984298706,2.9999961853027344,-0.20708207786083221,3.000000476837158,-0.00529642216861248,-0.01235476415604353,-0.019534576684236526,-0.026843728497624397,-0.15242832899093628,-0.2669006586074829,-0.377401739358902,-0.4835909903049469
0.15,0.07934299856424332,0.09194345027208328,0.0,0.9816580414772034,0.0,0.0,-0.19065020978450775,0.4784204363822937,0.5866861939430237,0.0,0.0,0.0,-1.6307997703552246,-0.37966614961624146,0.7066740393638611,0.4200000464916229,1.0,3.5189802929380676e-06,-2.2830829493614146e-06,-3.625531803663762e-07,0.00026618537958711386,0.0002673575363587588,-0.00010425481013953686,-0.0017349323024973273,0.004195748828351498,-0.0001286051847273484,-0.2528360188007355,0.33114516735076904,1.2027122974395752,-2.023098945617676,3.4819815158843994,-2.1030960083007812,0.4555572271347046,0.736545741558075,0.42000001668930054,-1.1492456197738647,0.8545578718185425,-0.23846124112606049,-2.9999992847442627,-0.012362835928797722,-0.020524032413959503,-0.02876252681016922,-0.03708644583821297,-0.4520563781261444,-0.5033078193664551,-0.5516043901443481,-0.5970377326011658
0.16666666666666666,0.08341096341609955,0.1055748462677002,0.0,0.9744041562080383,0.0,0.0,-0.22480322420597076,0.2361380159854889,0.7519491314888,0.0,0.0,0.0,-4.825812816619873,-0.37966614961624146,0.7066740393638611,0.4200000464916229,1.0,3.666678594527184e-06,-2.3391096419800306e-06,-3.150171608012897e-07,0.00026595700182951987,0.0002666723739821464,-0.00010403268970549107,-0.0017252295510843396,0.0041927071288228035,-0.00012778618838638067,-0.28631383180618286,0.39403703808784485,1.159355640411377,-1.9728500843048096,4.072941303253174,-2.9313831329345703,0.4555572271347046,0.736545741558075,0.42000001668930054,-1.1060962677001953,2.999997615814209,-0.2396249622106552,2.396587610244751,-0.02368692308664322,-0.032078973948955536,-0.040511272847652435,-0.04899943247437477,-0.5633030533790588,-0.5882583260536194,-0.6089433431625366,-0.6255816221237183
0.18333333333333332,0.09012509882450104,0.11406497657299042,0.0,0.9591411352157593,0.0,0.0,-0.2829280197620392,0.4542742669582367,0.41132768988609314,0.0,0.0,0.0,-8.484742164611816,-0.37966614961624146,0.7066740393638611,0.4200000464916229,1.0,3.814429419435328e-06,-2.399473942205077e-06,-2.702885524286103e-07,0.0002654908748809248,0.00026611171779222786,-0.00010391091927886009,-0.0017177866538986564,0.00418477039784193,-0.00012754213821608573,-0.3167305588722229,0.46551334857940674,1.1040832996368408,-1.4802806377410889,4.579533100128174,-3.6820602416992188,0.4555572271347046,0.736545741558075,0.42000001668930054,-1.0561013221740723,3.000001907348633,-0.27440088987350464,-3.0,-0.0313703678548336,-0.040211278945207596,-0.04902059957385063,-0.05781859904527664,-0.4743558168411255,-0.4896091818809509,-0.5013740062713623,-0.5099761486053467
0.2,0.09335707128047943,0.1247713640332222,0.0,0.9458842873573303,0.0,0.0,-0.3245040774345398,0.12364252656698227,0.6384723782539368,0.0,0.0,0.0,-4.026643753051758,-0.37966614961624146,0.7066740393638611,0.4200000464916229,1.0,3.600096079026116e-06,-2.2911845007911325e-06,-2.2019764855940593e-07,0.00026572897331789136,0.0002664489147718996,-0.00010398100130259991,-0.0017226696945726871,0.004188799764961004,-0.00012773496564477682,-0.3431633710861206,0.5363506078720093,1.0327128171920776,-1.300830602645874,4.340607643127441,-4.709490776062012,0.4555572271347046,0.736545741558075,0.42000001668930054,-1.0061012506484985,3.0000033378601074,-0.3244263529777527,-3.000000238418579,-0.044307246804237366,-0.05306100472807884,-0.06127813830971718,-0.06926552206277847,-0.7228263020515442,-0.7567320466041565,-0.732458233833313,-0.6801424622535706
0.21666666666666667,0.0981355607509613,0.13153216242790222,0.0,0.9433962106704712,0.0,0.0,-0.3316679298877716,0.35615673661231995,0.2558211088180542,0.0,0.0,0.0,0.0973445400595665,-0.37966614961624146,0.7066740393638611,0.4200000464916229,0.9999999403953552,3.6396977520780638e-06,-2.2619728952122387e-06,2.224548865115139e-07,0.000266873772488907,0.0002675457508303225,-0.00010411953553557396,-0.0017404764657840133,0.004211100284010172,-0.00012783778947778046,-0.36846715211868286,0.5976734757423401,0.9475945234298706,-1.2943029403686523,3.3933472633361816,-5.463467597961426,0.4555572271347046,0.736545741558075,0.42000001668930054,-0.9560926556587219,2.99999737739563,-0.37445399165153503,-2.999999761581421,-0.058797258883714676,-0.06729631125926971,-0.07436902821063995,-0.080888532102108,-0.9140214920043945,-0.8787643313407898,-0.792441725730896,-0.6925320029258728
0.23333333333333334,0.09795279800891876,0.14090777933597565,0.0,0.9356060028076172,0.0,0.0,-0.35304591059684753,-0.007200106978416443,0.5294143557548523,0.0,0.0,0.0,-3.485870122909546,-0.37966611981391907,0.7066740393638611,0.4200000464916229,1.0,3.42080284099211e-06,-2.3168156531028217e-06,2.9557230618593167e-07,0.0002668006927706301,0.0002680390316527337,-0.00010442431084811687,-0.0017437431961297989,0.004206867888569832,-0.0001289910142077133,-0.3844844102859497,0.6461634635925293,0.8487735986709595,-0.7067354917526245,2.525507688522339,-6.105188369750977,0.4555572271347046,0.736545741558075,0.42000001668930054,-0.9060823917388916,2.9999985694885254,-0.4244842231273651,-3.0,-0.07530815899372101,-0.08372132480144501,-0.09076228737831116,-0.09719841927289963,-0.6706352233886719,-0.7271782159805298,-0.7810054421424866,-0.8297696113586426
0.25,0.10262459516525269,0.14453904330730438,0.0,0.9337827563285828,0.0,0.0,-0.35784050822257996,0.2628518044948578,0.1514604389667511,0.0,0.0,0.0,0.283064067363739,-0.37966614961624146,0.7066740393638611,0.4200000464916229,0.9999999403953552,3.3476630960649345e-06,-2.259201437482261e-06,1.8082572239563888e-07,0.00026687735226005316,0.00026791065465658903,-0.00010439311154186726,-0.0017403911333531141,0.004208162892609835,-0.00012870095088146627,-0.397583544254303,0.678971529006958,0.7456899285316467,-0.5966048836708069,1.4105274677276611,-6.310447692871094,0.4555572271347046,0.736545741558075,0.42000001668930054,-0.8560717105865479,3.000000238418579,-0.4745151400566101,-2.999998092651367,-0.0861523225903511,-0.0948280543088913,-0.10219214111566544,-0.10895608365535736,-0.9109188318252563,-0.8674525618553162,-0.8332556486129761,-0.8044160604476929
0.26666666666666666,0.10147228837013245,0.15172655880451202,0.0,0.9261617064476013,0.0,0.0,-0.37712663412094116,-0.07630985975265503,0.4074329137802124,0.0,0.0,0.0,-3.1785778999328613,-0.37966614961624146,0.7066740393638611,0.4200000464916229,0.9999999403953552,3.535753194228164e-06,-2.3002676243777387e-06,-1.2687392825228017e-07,0.00026601721765473485,0.0002671221154741943,-0.00010419590398669243,-0.0017316217999905348,0.00419279420748353,-0.0001284939207835123,-0.40095826983451843,0.6945751309394836,0.6419476866722107,0.08582291007041931,0.5505676865577698,-5.87544059753418,0.4555572271347046,0.736545741558075,0.42000001668930054,-0.8060624599456787,2.9999959468841553,-0.5245456099510193,-3.0000007152557373,-0.10324332863092422,-0.11178549379110336,-0.11909861117601395,-0.12584125995635986,-0.7276873588562012,-0.7877970933914185,-0.8474024534225464,-0.9023690819740295
0.2833333333333333,0.09902781993150711,0.15396302938461304,0.0,0.9255168437957764,0.0,0.0,-0.3787064850330353,-0.23155641555786133,0.14364778995513916,0.0,0.0,0.0,0.5517284274101257,-0.37966614961624146,0.7066740989685059,0.4200000464916229,1.0,3.593504743548692e-06,-2.2625924884778215e-06,-5.655554602412849e-08,0.00026704728952609,0.0002677498559933156,-0.00010416866280138493,-0.0017431487794965506,0.0042141578160226345,-0.00012789281026925892,-0.40238815546035767,0.7022204995155334,0.5488376617431641,0.05695265531539917,0.22262662649154663,-5.353507041931152,0.4555572271347046,0.736545741558075,0.42000001668930054,-0.7560536861419678,3.000002145767212,-0.5745753645896912,-3.0,-0.1156265139579773,-0.1248914822936058,-0.13297508656978607,-0.140454962849617,-0.9895328879356384,-0.9852986335754395,-0.9889055490493774,-0.9953529238700867
0.3,0.09311798959970474,0.15454335510730743,0.0,0.9192829132080078,0.0,0.0,-0.39359748363494873,-0.4028453528881073,-0.008854302577674389,0.0,0.0,0.0,-2.8157317638397217,-0.37966611981391907,0.7066740393638611,0.4200000464916229,0.9999999403953552,3.7250931654853048e-06,-2.235988176835235e-06,3.8285057257780863e-07,0.0002647978253662586,0.0002667302906047553,-0.00010453863069415092,-0.0017188735073432326,0.00416669063270092,-0.00013016900629736483,-0.3958732485771179,0.7043775916099548,0.45802271366119385,0.7178531885147095,-0.04693257436156273,-5.342649459838867,0.4555572271347046,0.736545741558075,0.42000001668930054,-0.7060458064079285,3.00000262260437,-0.6246031522750854,-3.0000014305114746,-0.13296011090278625,-0.14206160604953766,-0.15002159774303436,-0.15740352869033813,-1.0044658184051514,-1.0033875703811646,-1.0025640726089478,-1.0019025802612305
0.31666666666666665,0.08499348163604736,0.15262258052825928,0.0,0.919715404510498,0.0,0.0,-0.39258575439453125,-0.5241001844406128,-0.15746554732322693,0.0,0.0,0.0,1.0263874530792236,-0.3795507252216339,0.7064852118492126,0.42015135288238525,0.9999887943267822,0.003781697014346719,2.554984064317978e-07,-0.002824205905199051,0.009886027313768864,-0.0180291049182415,0.01570272631943226,0.7872565984725952,0.0015575079014524817,-0.5590441226959229,-0.3891950845718384,0.7059862017631531,0.42535898089408875,0.15439552068710327,-0.06492617726325989,-0.17836935818195343,0.4555572271347046,0.736545741558075,0.42000001668930054,-0.6561020612716675,2.9934794902801514,-0.6751106977462769,-2.846705675125122,-0.14116038382053375,-0.150940403342247,-0.15937158465385437,-0.16694776713848114,-0.07398069649934769,-0.13650798797607422,-0.1796281486749649,-0.1959449052810669
0.3333333333333333,0.07467621564865112,0.14823834598064423,0.0,0.9142161011695862,0.0,0.0,-0.4052269458770752,-0.6665555238723755,-0.30592551827430725,0.0,0.0,0.0,-2.5464625358581543,-0.3795027434825897,0.706525444984436,0.4200000464916229,0.9999933838844299,-4.538794200925622e-06,3.2546770967201155e-07,-0.0036198038142174482,-0.00017222952737938613,-0.00045490526827052236,-0.0001429163385182619,0.005173724144697189,-0.0007757338462397456,0.00015460567374248058,-0.387725293636322,0.7083544135093689,0.4231913983821869,0.2145824134349823,0.23165404796600342,-0.18922124803066254,0.4555572271347046,0.736545741558075,0.42000001668930054,-0.6060956120491028,2.999986171722412,-0.7251596450805664,-2.9999942779541016,-0.1439795047044754,-0.15422625839710236,-0.16286543011665344,-0.17027269303798676,-0.2488899677991867,-0.2465916872024536,-0.2341577559709549,-0.20480374991893768
0.35,0.06221332028508186,0.14139802753925323,0.0,0.9153456687927246,0.0,0.0,-0.4026689827442169,-0.786328911781311,-0.45737114548683167,0.0,0.0,0.0,1.2244462966918945,-0.3767387270927429,0.7104911804199219,0.42079100012779236,0.9986586570739746,0.019889621064066887,-5.013175177737139e-05,-0.047802891582250595,0.3063725531101227,0.45585399866104126,0.02824278734624386,1.6331031322479248,-0.17323064804077148,-10.474807739257812,-0.3835395574569702,0.7153581380844116,0.42017534375190735,0.29815179109573364,0.5371913313865662,-0.15580438077449799,0.4555572271347046,0.736545741558075,0.42000001668930054,-0.5560906529426575,2.9999642372131348,-0.7751961946487427,-2.999488592147827,-0.14993156492710114,-0.15935233235359192,-0.16701121628284454,-0.17318671941757202,-0.3947429656982422,-0.3203775882720947,-0.23676981031894684,-0.13856466114521027
0.36666666666666664,0.053247444331645966,0.13148124516010284,0.0,0.9104253053665161,0.0,0.0,-0.41367343068122864,-0.4573765695095062,-0.6445782780647278,0.0,0.0,0.0,-2.312223196029663,-0.3711695969104767,0.7186129689216614,0.4200345277786255,0.9920874238014221,-0.0008354765013791621,-0.0004502455412875861,-0.12554524838924408,0.45976442098617554,0.6396724581718445,0.009342432022094727,-0.4830065965652466,0.09973355382680893,-2.912153482437134,-0.37753283977508545,0.7238654494285583,0.41973474621772766,0.45043373107910156,0.545322597026825,0.06532609462738037,0.4555572271347046,0.736545741558075,0.42000001668930054,-0.5060815811157227,2.9997880458831787,-0.8252195715904236,-2.9885518550872803,-0.15682171285152435,-0.16445088386535645,-0.17014053463935852,-0.17409606277942657,-0.40736067295074463,-0.27985772490501404,-0.14230014383792877,0.009107611142098904
0.3833333333333333,0.042141616344451904,0.11988983303308487,0.0,0.8931116461753845,0.0,0.0,-0.4498350918292999,-0.7459892630577087,-0.7205568552017212,0.0,0.0,0.0,-5.898284912109375,-0.36029329895973206,0.7334709167480469,0.42089277505874634,0.9876270294189453,-0.022394923493266106,0.003246457315981388,-0.15517990291118622,0.8950392007827759,1.1919584274291992,0.06757503747940063,-3.1581509113311768,0.662763774394989,-5.066806793212891,-0.3663255274295807,0.7368946075439453,0.42116856575012207,0.9011118412017822,1.0967129468917847,0.10586753487586975,0.4555572271347046,0.736545741558075,0.42000001668930054,-0.45603036880493164,2.999929666519165,-0.8752283453941345,-2.999974489212036,-0.16576072573661804,-0.17070767283439636,-0.17353418469429016,-0.17440195381641388,-0.5246204733848572,-0.35799768567085266,-0.1797959953546524,0.012166201137006283
0.4,0.03377379849553108,0.10523796081542969,0.0,0.8601913452148438,0.0,0.0,-0.5099713802337646,-0.45520153641700745,-0.9236041307449341,0.0,0.0,0.0,-8.976837158203125,-0.33104071021080017,0.7612602710723877,0.42287811636924744,0.9781614542007446,-0.025014758110046387,-0.0216557327657938,-0.20519590377807617,2.9124386310577393,1.9883673191070557,0.11077548563480377,26.22661781311035,-10.27722454071045,5.646631717681885,-0.33640915155410767,0.7642455697059631,0.42314696311950684,2.718596935272217,2.188061237335205,0.284275084733963,0.4555572271347046,0.736545741558075,0.42000001668930054,-0.40662315487861633,2.6507182121276855,-0.9252464175224304,-3.0000016689300537,-0.17466530203819275,-0.17632193863391876,-0.17567236721515656,-0.17286911606788635,-0.6176876425743103,-0.3802199363708496,-0.13466902077198029,0.117782361805439
0.4166666666666667,0.02775806561112404,0.09588495641946793,0.0,0.8093290328979492,0.0,0.0,-0.5873554944992065,-0.3110853135585785,-0.4338124394416809,0.0,0.0,0.0,-11.938691139221191,-0.25888150930404663,0.8029727339744568,0.42763787508010864,0.9607247114181519,0.04402511194348335,-0.06362702697515488,-0.26649850606918335,5.835442066192627,2.8854918479919434,0.4131026268005371,6.798969745635986,-6.577785015106201,1.2330548763275146,-0.2640213072299957,0.8069641590118408,0.42792046070098877,5.519158363342285,2.9587132930755615,0.43378329277038574,0.4555572271347046,0.736545741558075,0.42000001668930054,-0.38093140721321106,0.9843906164169312,-0.8880640268325806,3.000004529953003,-0.19037117063999176,-0.1888200342655182,-0.1828164905309677,-0.17487673461437225,-0.8797407150268555,-0.8263158202171326,-0.5170797109603882,-0.22954773902893066
0.43333333333333335,0.024985583499073982,0.08981123566627502,0.0,0.7677678465843201,0.0,0.0,-0.6407281160354614,-0.11217974871397018,-0.33122485876083374,0.0,0.0,0.0,-6.949756145477295,-0.1667332500219345,0.8479844331741333,0.4369749128818512,0.9310111403465271,0.08041255176067352,-0.08889453113079071,-0.34474578499794006,6.187229633331299,2.117854595184326,0.6690725088119507,11.051618576049805,-12.52692699432373,6.758677005767822,-0.17058926820755005,0.8542196750640869,0.43703606724739075,5.764101028442383,2.511732816696167,0.6334142684936523,0.4555572271347046,0.736545741558075,0.42000001668930054,-0.366606742143631,0.814744770526886,-0.9142389297485352,-3.0000014305114746,-0.20106571912765503,-0.2001628875732422,-0.19178198277950287,-0.17978893220424652,-0.5878131985664368,-0.6011695861816406,-0.48342573642730713,-0.28179675340652466
0.45,0.026191767305135727,0.07879399508237839,0.0,0.7464208006858826,0.0,0.0,-0.6654742360115051,0.09577424824237823,-0.6838743686676025,0.0,0.0,0.0,-2.708055257797241,-0.06531305611133575,0.882793664932251,0.44801774621009827,0.8646708726882935,0.09427987039089203,-0.09784495830535889,-0.48361334204673767,6.3637375831604,0.7879908084869385,0.6455705761909485,5.027854919433594,-18.220417022705078,16.090492248535156,-0.07021626085042953,0.8895549774169922,0.44675230979919434,6.2973222732543945,1.5304805040359497,0.7502764463424683,0.4555572271347046,0.736545741558075,0.42000001668930054,-0.35162174701690674,0.8397868871688843,-0.9642626047134399,-3.0000052452087402,-0.20885613560676575,-0.20716822147369385,-0.19643685221672058,-0.1810772716999054,-0.6294518709182739,-0.48960012197494507,-0.2898644208908081,-0.052413273602724075
0.4666666666666667,0.02501458115875721,0.07264898717403412,0.0,0.7163584232330322,0.0,0.0,-0.6977324485778809,-0.030123282223939896,-0.33751997351646423,0.0,0.0,0.0,-6.041142463684082,0.03794936463236809,0.8941660523414612,0.458653062582016,0.8111600875854492,0.09837862104177475,-0.09772522002458572,-0.5681466460227966,6.114388465881348,-0.6413038969039917,0.5476090312004089,-8.671280860900879,-18.777278900146484,27.54416275024414,0.03407565504312515,0.9035975933074951,0.4576120972633362,6.470348358154297,0.3778701722621918,0.7264517545700073,0.4555572271347046,0.736545741558075,0.42000001668930054,-0.3393841087818146,0.5222856998443604,-1.0142860412597656,-3.0000035762786865,-0.2226247489452362,-0.21816439926624298,-0.20342691242694855,-0.18380649387836456,-0.679326057434082,-0.5746772885322571,-0.35997217893600464,-0.13986115157604218
0.48333333333333334,0.026402633637189865,0.0689607635140419,0.0,0.7014040946960449,0.0,0.0,-0.7127638459205627,0.13018526136875153,-0.1505371630191803,0.0,0.0,0.0,-1.370207667350769,0.1370740532875061,0.8915252089500427,0.4661477208137512,0.7369405627250671,0.09085192531347275,-0.09695348888635635,-0.6627702713012695,5.422312259674072,-1.3061532974243164,0.33834218978881836,1.8728147745132446,-4.721039295196533,14.684307098388672,0.1336529552936554,0.9011268615722656,0.4652791917324066,5.7700700759887695,-0.6902626752853394,0.3793823719024658,0.4555572271347046,0.736545741558075,0.42000001668930054,-0.3298989534378052,0.5608389377593994,-1.0643081665039062,-3.000002145767212,-0.23290914297103882,-0.22641386091709137,-0.20847319066524506,-0.18577945232391357,-0.5755552649497986,-0.4298359155654907,-0.25152283906936646,-0.09468621015548706
0.5,0.02641906775534153,0.06194360554218292,0.0,0.6779870390892029,0.0,0.0,-0.7350738644599915,-0.04410015419125557,-0.4052005410194397,0.0,0.0,0.0,-4.645015716552734,0.2258317768573761,0.8724721670150757,0.46716243028640747,0.6681943535804749,0.07497672736644745,-0.07916299998760223,-0.7359537482261658,4.572022914886475,-2.2147088050842285,-0.16998259723186493,-13.97423267364502,-4.931331157684326,20.248838424682617,0.22267137467861176,0.8839287757873535,0.46671223640441895,5.165946006774902,-1.5486366748809814,-0.005066424608230591,0.4555572271347046,0.736545741558075,0.42000001668930054,-0.3200618326663971,0.4994255304336548,-1.1143302917480469,-3.000002861022949,-0.23964457213878632,-0.2305106222629547,-0.20987294614315033,-0.18496790528297424,-0.5182676315307617,-0.3005332052707672,-0.10839146375656128,0.04219196364283562
0.5166666666666666,0.027823876589536667,0.059570662677288055,0.0,0.6686970591545105,0.0,0.0,-0.7435349822044373,0.10753057152032852,-0.11428049951791763,0.0,0.0,0.0,-0.4183344841003418,0.29948145151138306,0.8425585031509399,0.46275466680526733,0.6244390606880188,0.046740639954805374,-0.06496431678533554,-0.7769625186920166,3.558614492416382,-2.3866512775421143,-0.42833366990089417,-7.501906871795654,1.385704755783081,14.963580131530762,0.2976202666759491,0.853193998336792,0.46283745765686035,4.115256309509277,-2.0098257064819336,-0.35974305868148804,0.4555572271347046,0.736545741558075,0.42000001668930054,-0.31082308292388916,0.5377694964408875,-1.1643524169921875,-2.9999547004699707,-0.2398369014263153,-0.2378063201904297,-0.21412308514118195,-0.1870303899049759,0.038587383925914764,-0.24432702362537384,-0.13447977602481842,-0.07515856623649597
0.5333333333333333,0.03166238218545914,0.053576745092868805,0.0,0.6502176523208618,0.0,0.0,-0.7597479820251465,0.25725311040878296,-0.40268832445144653,0.0,0.0,0.0,-3.836886167526245,0.35997897386550903,0.8122403621673584,0.4514535665512085,0.589226245880127,0.01786402054131031,-0.05154227465391159,-0.8061245083808899,3.226482629776001,-1.9344258308410645,-0.7657151818275452,-4.799204349517822,-0.6696808338165283,-0.6968658566474915,0.3586805462837219,0.822060227394104,0.4520450234413147,3.2889468669891357,-1.9199604988098145,-0.798749566078186,0.4555572271347046,0.736545741558075,0.42000001668930054,-0.29907071590423584,0.7964947819709778,-1.2143745422363281,-3.0000011920928955,-0.2355319708585739,-0.237796351313591,-0.21374279260635376,-0.18706782162189484,0.2776969075202942,0.07904374599456787,0.058348648250103,-0.011521944776177406
0.55,0.03799890726804733,0.051027026027441025,0.0,0.6452492475509644,0.0,0.0,-0.7639721632003784,0.4098401963710785,-0.10137642174959183,0.0,0.0,0.0,0.19978636503219604,0.4095315635204315,0.7821603417396545,0.4356236755847931,0.5249269008636475,-0.007774902042001486,-0.0450655072927475,-0.8499177694320679,2.412090301513672,-2.023218870162964,-0.9271626472473145,2.0094645023345947,10.766090393066406,-7.257175445556641,0.4067692458629608,0.789965033531189,0.43696752190589905,2.5754337310791016,-1.8727787733078003,-1.0015385150909424,0.4555572271347046,0.736545741558075,0.42000001668930054,-0.27818864583969116,1.6397160291671753,-1.2643966674804688,-2.999718189239502,-0.23267756402492523,-0.23722098767757416,-0.21396760642528534,-0.18890099227428436,0.246263787150383,0.12704136967658997,0.023077595978975296,-0.12390727549791336
0.5666666666666667,0.0465351827442646,0.047370921820402145,0.0,0.6296442151069641,0.0,0.0,-0.776883602142334,0.5607032179832458,-0.18229322135448456,0.0,0.0,0.0,-3.3815765380859375,0.44273096323013306,0.7598360180854797,0.422645628452301,0.516422688961029,-0.017601117491722107,-0.03810187429189682,-0.8553045988082886,1.1651514768600464,-1.7151014804840088,0.08058921247720718,-3.4493775367736816,-7.325588703155518,23.87863540649414,0.4405549168586731,0.7672854065895081,0.4239138960838318,1.2858655452728271,-0.9116240739822388,-0.12721188366413116,0.4555572271347046,0.736545741558075,0.42000001668930054,-0.2568225860595703,0.6769164800643921,-1.261291265487671,2.898322105407715,-0.22420477867126465,-0.23139327764511108,-0.21144983172416687,-0.19015614688396454,0.46709463000297546,0.34331440925598145,0.12730883061885834,-0.11178889870643616
0.5833333333333334,0.05259831249713898,0.04632151871919632,0.0,0.6273391246795654,0.0,0.0,-0.7787461876869202,0.2926335334777832,-0.009487379342317581,0.0,0.0,0.0,0.5485992431640625,0.45971915125846863,0.7452222108840942,0.42269665002822876,0.5318030714988708,-0.02102280966937542,-0.020543042570352554,-0.8463578224182129,0.6651716232299805,-0.9229751825332642,0.056575797498226166,0.5036682486534119,2.1790082454681396,6.318914413452148,0.45618557929992676,0.7522600889205933,0.4246557354927063,0.6308611631393433,-0.8123345375061035,0.10612969100475311,0.4555572271347046,0.736545741558075,0.42000001668930054,-0.26499053835868835,-0.870610237121582,-1.2823041677474976,-3.000422954559326,-0.21643319725990295,-0.2251284271478653,-0.20888853073120117,-0.19157715141773224,0.4588674008846283,0.4016227126121521,0.17774686217308044,-0.05988197401165962
0.6,0.058856744319200516,0.048748668283224106,0.0,0.6144165396690369,0.0,0.0,-0.7889817953109741,0.41257262229919434,0.21474775671958923,0.0,0.0,0.0,-2.907618999481201,0.46629318594932556,0.7366334795951843,0.42161229252815247,0.5576542615890503,-0.013085552491247654,-0.025339435786008835,-0.8295832872390747,0.1703409105539322,-0.3522557318210602,-0.061736635863780975,-0.7528846859931946,-4.365418434143066,5.50002908706665,0.46253126859664917,0.7444396018981934,0.42390140891075134,0.18027567863464355,-0.24655185639858246,-0.0913885235786438,0.4555572271347046,0.736545741558075,0.42000001668930054,-0.2695852816104889,0.087976835668087,-1.2604988813400269,2.999030113220215,-0.20761623978614807,-0.21758908033370972,-0.20569120347499847,-0.19275231659412384,0.5579791069030762,0.4897739589214325,0.220132514834404,-0.046730224043130875
0.6166666666666667,0.06702834367752075,0.048102427273988724,0.0,0.6144141554832458,0.0,0.0,-0.7889837026596069,0.5276874303817749,-0.055514123290777206,0.0,0.0,0.0,0.9138871431350708,0.46780553460121155,0.7324287295341492,0.42004385590553284,0.5832416415214539,0.0008392061572521925,0.0004292098747100681,-0.8122981190681458,-0.054510828107595444,-0.19028010964393616,-0.008341148495674133,-0.3824946880340576,0.08277316391468048,3.0008881092071533,0.46291524171829224,0.7414679527282715,0.4252052903175354,-0.15444821119308472,-0.17463064193725586,0.15689225494861603,0.4555572271347046,0.736545741558075,0.42000001668930054,-0.30731552839279175,-3.000011920928955,-1.2805793285369873,-2.9988484382629395,-0.1977795511484146,-0.20833128690719604,-0.2005898654460907,-0.19176225364208221,0.4388153851032257,0.4621642827987671,0.25938308238983154,0.05521150305867195
0.6333333333333333,0.07766584306955338,0.050578538328409195,0.0,0.6368342638015747,0.0,0.0,-0.7710007429122925,0.6648164987564087,0.18470710515975952,0.0,0.0,0.0,4.304894924163818,0.4664863646030426,0.7304157018661499,0.42000025510787964,0.5900108218193054,-2.477561793057248e-06,-1.2351152690825984e-05,-0.807395339012146,-0.08743017166852951,-0.06784191727638245,-0.000546108465641737,0.03694868087768555,0.013706590048968792,-0.6323753595352173,0.4607095718383789,0.7410920262336731,0.42788904905319214,-0.09922337532043457,0.12410711497068405,0.1868370920419693,0.4555572271347046,0.736545741558075,0.42000001668930054,-0.35733017325401306,-2.9992642402648926,-1.3305379152297974,-2.998430013656616,-0.1915617436170578,-0.20158784091472626,-0.19703026115894318,-0.1913290172815323,0.47753608226776123,0.48649200797080994,0.2788870632648468,0.08030624687671661
0.65,0.08969991654157639,0.04946039617061615,0.0,0.6457391381263733,0.0,0.0,-0.7635580897331238,0.7631255984306335,-0.08286996185779572,0.0,0.0,0.0,0.33288949728012085,0.4648672640323639,0.730265200138092,0.4200001060962677,0.5908093452453613,5.157734904059907e-06,6.639151706622215e-06,-0.8068112134933472,-0.10505887120962143,0.004177105147391558,-0.0002263064234284684,-0.010733145289123058,0.0036840832326561213,0.50845867395401,0.4592289328575134,0.7455461025238037,0.4320240020751953,-0.09628184884786606,0.227926567196846,0.28491976857185364,0.4555572271347046,0.736545741558075,0.42000001668930054,-0.4073452651500702,-3.000000476837158,-1.3805058002471924,-2.999464273452759,-0.18094776570796967,-0.19094552099704742,-0.18975578248500824,-0.18716663122177124,0.5323468446731567,0.5782235860824585,0.428729772567749,0.29325011372566223
0.6666666666666666,0.1034512147307396,0.04556962102651596,0.0,0.6311575174331665,0.0,0.0,-0.775654673576355,0.8558037877082825,-0.2987509071826935,0.0,0.0,0.0,-3.231935501098633,0.46410563588142395,0.730292558670044,0.42000001668930054,0.5922174453735352,8.254377803496027e-07,-3.997660655841173e-07,-0.8057782053947449,-0.02364051714539528,0.0007080257055349648,-2.1844665752723813e-05,-0.0011090391781181097,0.001260521006770432,0.1026960164308548,0.4595072269439697,0.7492904663085938,0.43880772590637207,0.13499665260314941,0.18688732385635376,0.6483405828475952,0.4555572271347046,0.736545741558075,0.42000001668930054,-0.4573594331741333,-2.9999899864196777,-1.4305241107940674,-3.0,-0.17444249987602234,-0.18306994438171387,-0.1835102140903473,-0.18228894472122192,0.30458083748817444,0.41443198919296265,0.3583925664424896,0.31858423352241516
0.6833333333333333,0.12005859613418579,0.04571961238980293,0.0,0.596598207950592,0.0,0.0,-0.8025400638580322,1.0032070875167847,-0.017397066578269005,0.0,0.0,0.0,-6.313762187957764,0.46410539746284485,0.7302929162979126,0.4200000464916229,0.5922176837921143,-7.590185759909218e-07,-4.935930974170333e-06,-0.8057780265808105,0.00021529589139390737,-0.00024684605887159705,-5.9500802308321e-05,0.0027747475542128086,-0.0006665163091383874,-0.0009410245111212134,0.4673221707344055,0.7485607266426086,0.4571174383163452,0.9681190252304077,-0.1822476089000702,1.57313871383667,0.4555572271347046,0.736545741558075,0.42000001668930054,-0.5073720812797546,-2.9993600845336914,-1.4805424213409424,-2.999927043914795,-0.17548345029354095,-0.1813562959432602,-0.18158523738384247,-0.17995159327983856,-0.02894951030611992,0.11354043334722519,0.12222391366958618,0.14681442081928253
0.7,0.13313116133213043,0.04683379828929901,0.0,0.5754959583282471,0.0,0.0,-0.8178046345710754,0.7021588087081909,0.11210735887289047,0.0,0.0,0.0,-2.1081855297088623,0.46410539746284485,0.730292797088623,0.4200000464916229,0.592217743396759,2.925015962773614e-07,-3.294582256785361e-06,-0.8057779669761658,0.0001223960134666413,-0.0002735010930337012,-9.052921086549759e-05,0.006300897803157568,-0.0012209828710183501,-0.0006553116254508495,0.48472145199775696,0.7503527402877808,0.4839257001876831,1.019249439239502,0.33584582805633545,1.646666169166565,0.4555572271347046,0.736545741558075,0.42000001668930054,-0.5293797850608826,0.07661446183919907,-1.5305606126785278,-2.9999992847442627,-0.1748368740081787,-0.17911075055599213,-0.1797645539045334,-0.1783687174320221,0.10062981396913528,0.15525749325752258,0.0979861170053482,0.047211430966854095
0.7166666666666667,0.14121851325035095,0.04992467910051346,0.0,0.5802870392799377,0.0,0.0,-0.814411997795105,0.4358246624469757,0.2915286123752594,0.0,0.0,0.0,1.5505744218826294,0.46410539746284485,0.7302927374839783,0.4200000464916229,0.5922175049781799,3.768574288187665e-07,-3.220699909434188e-06,-0.8057780265808105,0.00012386133312247694,-0.00027087231865152717,-9.286054410040379e-05,0.006211690604686737,-0.0012482258025556803,-0.000660077144857496,0.5000725984573364,0.758162796497345,0.5051888227462769,0.7176477909088135,0.5033713579177856,0.9585970044136047,0.4555572271347046,0.736545741558075,0.42000001668930054,-0.5082511305809021,2.250749349594116,-1.4917455911636353,3.000000238418579,-0.17215880751609802,-0.1756163090467453,-0.17709782719612122,-0.17647424340248108,0.08460299670696259,0.1532069742679596,0.13254359364509583,0.10901907086372375
0.7333333333333333,0.1455671489238739,0.049397651106119156,0.0,0.5730046629905701,0.0,0.0,-0.8195521235466003,0.20660407841205597,-0.12272077798843384,0.0,0.0,0.0,-1.995923638343811,0.46410539746284485,0.730292797088623,0.4200000464916229,0.5922178030014038,3.531924903654726e-07,-3.0485775823763106e-06,-0.8057778477668762,0.00012222306395415217,-0.00027181871701031923,-9.251944720745087e-05,0.006242666859179735,-0.0012745712883770466,-0.0006578007596544921,0.5053000450134277,0.7652245759963989,0.5144246220588684,-0.09846415370702744,0.35850828886032104,0.34124940633773804,0.4555572271347046,0.736545741558075,0.42000001668930054,-0.4936571419239044,-0.29234597086906433,-1.4416929483413696,3.000000238418579,-0.1693129688501358,-0.17173489928245544,-0.17348016798496246,-0.17322686314582825,0.17735208570957184,0.24624982476234436,0.24568089842796326,0.2336656153202057
0.75,0.14669768512248993,0.053085751831531525,0.0,0.5786470770835876,0.0,0.0,-0.815578043460846,0.02421022765338421,0.35951152443885803,0.0,0.0,0.0,1.703640103340149,0.46410539746284485,0.730292797088623,0.4200000464916229,0.5922178030014038,2.633058784340392e-07,-3.175031451974064e-06,-0.8057779669761658,0.00011696466390276328,-0.0002742831129580736,-9.121419861912727e-05,0.006333773490041494,-0.0013462424976751208,-0.0006485869525931776,0.5031394958496094,0.7707996964454651,0.5178601741790771,-0.16327093541622162,0.3873150944709778,0.09323178231716156,0.4555572271347046,0.736545741558075,0.42000001668930054,-0.4903598427772522,0.60703444480896,-1.459021806716919,-3.000000476837158,-0.17179828882217407,-0.1721077561378479,-0.17282509803771973,-0.17190195620059967,-0.22218970954418182,-0.09497064352035522,-0.024801108986139297,0.020368102937936783
0.7666666666666666,0.1490587592124939,0.055179279297590256,0.0,0.5823271870613098,0.0,0.0,-0.8129545450210571,0.1434345543384552,0.08171875774860382,0.0,0.0,0.0,0.024317888543009758,0.46410539746284485,0.7302927374839783,0.4200000464916229,0.5922175645828247,3.397775287794502e-07,-3.0927310490369564e-06,-0.8057780265808105,0.00012426117609720677,-0.0002709099499043077,-9.295996278524399e-05,0.0062102824449539185,-0.001244053361006081,-0.0006610358250327408,0.4950430393218994,0.7749555110931396,0.5132263898849487,-0.7819832563400269,0.1157291904091835,-0.49200987815856934,0.4555572271347046,0.736545741558075,0.42000001668930054,-0.5140967965126038,-3.0000007152557373,-1.4221440553665161,3.0000009536743164,-0.17445144057273865,-0.17287981510162354,-0.1724860966205597,-0.1708652377128601,-0.1870676428079605,-0.0709426999092102,0.00699111120775342,0.05899735540151596
0.7833333333333333,0.15326428413391113,0.054115600883960724,0.0,0.5989192724227905,0.0,0.0,-0.800809383392334,0.29785194993019104,-0.13043244183063507,0.0,0.0,0.0,3.295900821685791,0.46410539746284485,0.730292797088623,0.4200000464916229,0.592217743396759,3.520281666169467e-07,-3.0809781037532957e-06,-0.805777907371521,0.00012307919678278267,-0.00027155326097272336,-9.272759780287743e-05,0.006231427192687988,-0.0012632084544748068,-0.0006594257429242134,0.4865155816078186,0.7764717936515808,0.5050632953643799,-0.28104209899902344,0.08553323149681091,-0.42009037733078003,0.4555572271347046,0.736545741558075,0.42000001668930054,-0.5641033053398132,-2.9999992847442627,-1.4398478269577026,-2.9999985694885254,-0.1785576194524765,-0.17479287087917328,-0.17258082330226898,-0.16946294903755188,-0.22427617013454437,-0.09673289209604263,0.022206155583262444,0.1288238763809204
0.8,0.1594911515712738,0.049934662878513336,0.0,0.6009879112243652,0.0,0.0,-0.7992581129074097,0.4076920449733734,-0.2939838171005249,0.0,0.0,0.0,-0.6769920587539673,0.46410539746284485,0.730292797088623,0.4200000464916229,0.5922176837921143,2.6020586574304616e-07,-3.1918832519295393e-06,-0.805777907371521,0.00011707032535923645,-0.00027437321841716766,-9.12367831915617e-05,0.006335423327982426,-0.0013455168809741735,-0.0006489278166554868,0.4852076768875122,0.7758915424346924,0.4959551692008972,0.13491415977478027,-0.13678640127182007,-0.49260982871055603,0.4555572271347046,0.736545741558075,0.42000001668930054,-0.6141148209571838,-2.999999761581421,-1.4898661375045776,-3.000000476837158,-0.18298886716365814,-0.17707589268684387,-0.17265230417251587,-0.16742748022079468,-0.24187394976615906,-0.11967034637928009,0.016080472618341446,0.15042175352573395
0.8166666666666667,0.1678270846605301,0.0427241176366806,0.0,0.5808504819869995,0.0,0.0,-0.8140102624893188,0.5438123941421509,-0.4933938980102539,0.0,0.0,0.0,-3.896099328994751,0.46410539746284485,0.7302927374839783,0.4200000464916229,0.5922175049781799,4.1984515064541483e-07,-3.2806538001750596e-06,-0.8057780861854553,0.00012425110617186874,-0.00027091646916233003,-9.295600466430187e-05,0.00621052598580718,-0.0012441441649571061,-0.0006610136479139328,0.48989877104759216,0.7716975212097168,0.4940296411514282,0.45532041788101196,-0.31670793890953064,0.3703700304031372,0.4555572271347046,0.736545741558075,0.42000001668930054,-0.6641255021095276,-2.999969959259033,-1.5398844480514526,-2.9999992847442627,-0.18827103078365326,-0.18042965233325958,-0.17375124990940094,-0.1662612110376358,-0.31116345524787903,-0.2134375274181366,-0.09126058220863342,0.03384757041931152
0.8333333333333334,0.17907464504241943,0.038988739252090454,0.0,0.5746676921844482,0.0,0.0,-0.8183868527412415,0.6675687432289124,-0.19971373677253723,0.0,0.0,0.0,0.10319937020540237,0.46410539746284485,0.730292797088623,0.4200000464916229,0.5922178030014038,3.514275874749728e-07,-3.1124006909521995e-06,-0.805777907371521,0.00012246512051206082,-0.0002717628958635032,-9.257765486836433e-05,0.0062400237657129765,-0.0012713917531073093,-0.0006582719506695867,0.4972541928291321,0.7710959911346436,0.5051883459091187,0.4575285017490387,0.25540050864219666,0.9282881021499634,0.4555572271347046,0.736545741558075,0.42000001668930054,-0.6807067394256592,0.7030275464057922,-1.589902639389038,-3.0,-0.1940937042236328,-0.18529550731182098,-0.17722074687480927,-0.16827769577503204,-0.1477617770433426,-0.1726824939250946,-0.16566607356071472,-0.14942698180675507
0.85,0.18677912652492523,0.0370391421020031,0.0,0.5930024981498718,0.0,0.0,-0.8052006363868713,0.39869365096092224,-0.05810156837105751,0.0,0.0,0.0,3.5258917808532715,0.46410539746284485,0.730292797088623,0.4200000464916229,0.592217743396759,2.718226710385352e-07,-3.224976126148249e-06,-0.805777907371521,0.00011719152826117352,-0.0002743506047409028,-9.126449003815651e-05,0.006334213539958,-0.0013439316535368562,-0.000649170542601496,0.5080545544624329,0.7751635313034058,0.517006516456604,0.7267649173736572,0.19940678775310516,0.5637182593345642,0.4555572271347046,0.736545741558075,0.42000001668930054,-0.673336386680603,0.21545815467834473,-1.5509181022644043,3.000000476837158,-0.1942477822303772,-0.1862657219171524,-0.17843295633792877,-0.16954109072685242,0.04891638830304146,-0.004499533679336309,-0.02422706037759781,-0.03369535505771637
0.8666666666666667,0.19008734822273254,0.031266435980796814,0.0,0.5970991849899292,0.0,0.0,-0.8021674156188965,0.17367465794086456,-0.3807868957519531,0.0,0.0,0.0,-0.5155858993530273,0.46410539746284485,0.7302927374839783,0.4200000464916229,0.5922175645828247,4.432993989667011e-07,-3.3161250030389056e-06,-0.8057780861854553,0.0001243165897903964,-0.0002708402753341943,-9.297044016420841e-05,0.0062083108350634575,-0.0012429642956703901,-0.0006610756390728056,0.5167044401168823,0.7766258716583252,0.5218729972839355,0.3089836835861206,-0.1110324114561081,0.16931363940238953,0.4555572271347046,0.736545741558075,0.42000001668930054,-0.6979940533638,-2.8835601806640625,-1.5008807182312012,2.9999990463256836,-0.19063186645507812,-0.18379507958889008,-0.17659105360507965,-0.16818548738956451,0.12544453144073486,0.08753958344459534,0.07427088171243668,0.06321079283952713
0.8833333333333333,0.1960049271583557,0.031025750562548637,0.0,0.6117068529129028,0.0,0.0,-0.7910845279693604,0.32277196645736694,0.060657382011413574,0.0,0.0,0.0,2.8950772285461426,0.46410539746284485,0.730292797088623,0.4200000464916229,0.5922178626060486,3.525189526953909e-07,-3.1498232146986993e-06,-0.805777907371521,0.00012258610513526946,-0.0002717351890169084,-9.260419756174088e-05,0.006238670088350773,-0.0012697597267106175,-0.0006585040246136487,0.5233436226844788,0.7741705179214478,0.525659441947937,0.483156681060791,-0.021637700498104095,0.30856019258499146,0.4555572271347046,0.736545741558075,0.42000001668930054,-0.7145107984542847,0.6100322008132935,-1.517016053199768,-3.0,-0.19318504631519318,-0.1861264705657959,-0.17833130061626434,-0.16934551298618317,-0.0555356927216053,-0.06981614977121353,-0.05725615471601486,-0.03912138566374779
