vladlanda/robotic-transformer/data/env_000_episode_0015.csv
sim_time_s,robot_box_x,robot_box_y,robot_box_z,robot_box_quat_w,robot_box_quat_x,robot_box_quat_y,robot_box_quat_z,robot_box_linvel_x,robot_box_linvel_y,robot_box_linvel_z,robot_box_angvel_x,robot_box_angvel_y,robot_box_angvel_z,cube_world_x,cube_world_y,cube_world_z,cube_quat_w,cube_quat_x,cube_quat_y,cube_quat_z,cube_linvel_x,cube_linvel_y,cube_linvel_z,cube_angvel_x,cube_angvel_y,cube_angvel_z,endpoint_world_x,endpoint_world_y,endpoint_world_z,endpoint_linvel_x,endpoint_linvel_y,endpoint_linvel_z,target_cube_world_x,target_cube_world_y,target_cube_world_z,gripper_actual_pos_rad_gp_leftgearjoint,gripper_actual_vel_rad_s_gp_leftgearjoint,gripper_actual_pos_rad_gp_rotatingjoint,gripper_actual_vel_rad_s_gp_rotatingjoint,motor_angle_rad_joint1,motor_angle_rad_joint2,motor_angle_rad_joint3,motor_angle_rad_joint4,motor_speed_rad_s_joint1,motor_speed_rad_s_joint2,motor_speed_rad_s_joint3,motor_speed_rad_s_joint4
0.0,0.0,0.0,0.0,1.0,0.0,0.0,0.0,0.0,0.0,0.0,0.0,0.0,0.0,-0.43296554684638977,0.7157649993896484,0.41999998688697815,1.0,0.0,0.0,0.0,0.0,0.0,0.0,0.0,0.0,0.0,3.42540442943573e-06,-0.005000244826078415,1.313499927520752,0.0,0.0,0.0,0.3642488420009613,0.7220869660377502,0.42000001668930054,-1.5707999467849731,0.0,0.0,0.0,0.0,0.0,0.0,0.0,0.0,0.0,0.0,0.0
0.016666666666666666,0.0028778850100934505,0.0021806680597364902,0.0,0.9998081922531128,0.0,0.0,0.019586581736803055,0.24087215960025787,0.18240931630134583,0.0,0.0,0.0,3.1418697834014893,-0.4329656660556793,0.7157647013664246,0.41999998688697815,1.0,3.2799914606584935e-06,-8.339814598912199e-07,8.465387679734704e-08,-1.9833554688375443e-05,0.00017983050202019513,-6.133061833679676e-05,0.0009432226070202887,-0.004689437802881002,-0.0003198152990080416,-0.007110234349966049,0.003379564033821225,1.3159373998641968,-0.8143353462219238,0.9868683815002441,0.18095196783542633,0.3642488420009613,0.7220869660377502,0.42000001668930054,-1.5301095247268677,3.0000011920928955,-0.04584788903594017,-2.9999992847442627,0.0008691533003002405,0.0007963840034790337,0.0007110277656465769,0.0006108740926720202,0.11094217747449875,0.09756709635257721,0.08334315568208694,0.06823883205652237
0.03333333333333333,0.008960987441241741,0.006801963318139315,0.0,0.9997960329055786,0.0,0.0,0.020196840167045593,0.4070219099521637,0.3153083622455597,0.0,0.0,0.0,-0.869131326675415,-0.43296578526496887,0.7157646417617798,0.4200000464916229,1.0,3.390914116607746e-06,-2.132455392711563e-06,-3.71076644967161e-08,0.0002635782293509692,0.00026937935035675764,-0.00010509486310184002,-0.001770757487975061,0.0041308156214654446,-0.00013547815615311265,-0.02755165472626686,0.026147743687033653,1.3166041374206543,-1.5914549827575684,1.6158099174499512,-0.08402334898710251,0.3642488420009613,0.7220869660377502,0.42000001668930054,-1.4800903797149658,3.0000009536743164,-0.0958876982331276,-3.000000238418579,0.0029901228845119476,0.002652739640325308,0.0022773146629333496,0.0018607754027470946,0.1642182171344757,0.13976237177848816,0.11382173746824265,0.08630423992872238
0.05,0.017715133726596832,0.0137639744207263,0.0,0.9993879199028015,0.0,0.0,0.03498329222202301,0.5930778980255127,0.46477338671684265,0.0,0.0,0.0,2.6537115573883057,-0.43296581506729126,0.7157647013664246,0.4200000464916229,1.0,3.7652293940482195e-06,-2.2118967990536476e-06,5.613899567435965e-09,0.000265309150563553,0.0002669153909664601,-0.0001044049859046936,-0.00172426737844944,0.004177379421889782,-0.0001294983085244894,-0.05966696888208389,0.05412295088171959,1.3115851879119873,-2.187312602996826,1.7706663608551025,-0.4795754551887512,0.3642488420009613,0.7220869660377502,0.42000001668930054,-1.4300720691680908,3.000000476837158,-0.1459263414144516,-3.000000238418579,0.005695451982319355,0.004904035944491625,0.004040507599711418,0.0031003544572740793,0.19254431128501892,0.15563809871673584,0.11685960739850998,0.07611656934022903
0.06666666666666667,0.029018716886639595,0.023052774369716644,0.0,0.9994579553604126,0.0,0.0,0.0329209566116333,0.7196635007858276,0.5949415564537048,0.0,0.0,0.0,-1.205726146697998,-0.43296581506729126,0.7157646417617798,0.4200000464916229,0.9999999403953552,3.4068445984303253e-06,-2.2855729184811935e-06,4.300823945868615e-07,0.000267024093773216,0.0002679175231605768,-0.0001043803058564663,-0.0017406325787305832,0.004211729858070612,-0.00012850853090640157,-0.09694686532020569,0.08886964619159698,1.2993459701538086,-2.3115878105163574,2.2824015617370605,-0.9624239206314087,0.3642488420009613,0.7220869660377502,0.42000001668930054,-1.3800537586212158,2.9999988079071045,-0.19596253335475922,-3.000000238418579,0.008138592354953289,0.00661064637824893,0.004970920737832785,0.003215981414541602,0.13513939082622528,0.07925712317228317,0.02132573537528515,-0.038728829473257065
0.08333333333333333,0.0351765975356102,0.03556281700730324,0.0,1.0,0.0,0.0,-0.0001233249786309898,0.18063239753246307,0.8272712230682373,0.0,0.0,0.0,-4.93211555480957,-0.43296581506729126,0.7157646417617798,0.4200000464916229,1.0,3.697329248097958e-06,-2.1889204617764335e-06,-2.632361599808064e-07,0.00026389621780253947,0.00026586378226056695,-0.00010433816350996494,-0.0017081365222111344,0.004150137305259705,-0.00012991174298804253,-0.133675679564476,0.13118042051792145,1.2791450023651123,-2.1408557891845703,2.665433406829834,-1.3933281898498535,0.3642488420009613,0.7220869660377502,0.42000001668930054,-1.330026626586914,2.9999990463256836,-0.16715684533119202,2.9999992847442627,0.00523838447406888,0.003038762602955103,0.0006778133101761341,-0.001852134009823203,-0.30999356508255005,-0.35152116417884827,-0.39575210213661194,-0.4429835081100464
0.1,0.04441447928547859,0.04969795420765877,0.0,0.9998866319656372,0.0,0.0,-0.01505825761705637,0.6758208274841309,0.8523526191711426,0.0,0.0,0.0,-0.6877539157867432,-0.43296581506729126,0.7157646417617798,0.4200000464916229,0.9999999403953552,3.620433972173487e-06,-2.265166358483839e-06,1.7460881451825117e-07,0.00026676940615288913,0.00026740849716588855,-0.0001040794886648655,-0.0017386502586305141,0.0042092143557965755,-0.00012775196228176355,-0.1715974360704422,0.17163798213005066,1.2574235200881958,-2.25346302986145,2.4648051261901855,-1.2840561866760254,0.3642488420009613,0.7220869660377502,0.42000001668930054,-1.280029535293579,3.0000009536743164,-0.1988070160150528,-3.0,0.00467338552698493,0.0010095997713506222,-0.002817614236846566,-0.0068162111565470695,0.029248734936118126,-0.07596121728420258,-0.18022246658802032,-0.2834896743297577
0.11666666666666667,0.05211236700415611,0.06221827119588852,0.0,0.9991142153739929,0.0,0.0,-0.04208030179142952,0.46347036957740784,0.6817128658294678,0.0,0.0,0.0,-3.9151084423065186,-0.43296581506729126,0.7157646417617798,0.4200000464916229,1.0,3.7984186747053172e-06,-2.262772341055097e-06,-1.5020653165720432e-07,0.00026373984292149544,0.00026565982261672616,-0.00010428996756672859,-0.0017054551281034946,0.004147582221776247,-0.000129800770082511,-0.20559793710708618,0.21890604496002197,1.2349510192871094,-1.8455357551574707,3.187513828277588,-1.3706018924713135,0.3642488420009613,0.7220869660377502,0.42000001668930054,-1.230006217956543,2.999993085861206,-0.16501982510089874,3.0000014305114746,0.003159204963594675,-0.002397248987108469,-0.008087625727057457,-0.013919102028012276,-0.04846058413386345,-0.1812116950750351,-0.310802698135376,-0.43706849217414856
0.13333333333333333,0.05701906606554985,0.0754997581243515,0.0,0.9955905079841614,0.0,0.0,-0.09380573034286499,0.22547829151153564,0.8474499583244324,0.0,0.0,0.0,-7.012152194976807,-0.43296581506729126,0.7157647013664246,0.4200000464916229,0.9999999403953552,3.5505179312167456e-06,-2.2298092972050654e-06,2.9291240366546845e-07,0.0002670329704415053,0.0002677935699466616,-0.00010416889563202858,-0.0017439755611121655,0.004213570151478052,-0.00012800609692931175,-0.2370019555091858,0.27346038818359375,1.2113096714019775,-1.8743247985839844,3.389791488647461,-1.5324214696884155,0.3642488420009613,0.7220869660377502,0.42000001668930054,-1.191152572631836,1.7382686138153076,-0.19673754274845123,-3.0,0.0010848926613107324,-0.00661295372992754,-0.014376710169017315,-0.022210365161299706,-0.1994822770357132,-0.3144611120223999,-0.42522454261779785,-0.5316197276115417
0.15,0.05855589359998703,0.08871467411518097,0.0,0.9922156929969788,0.0,0.0,-0.12453123182058334,0.032408200204372406,0.7529259920120239,0.0,0.0,0.0,-2.6338582038879395,-0.43296581506729126,0.7157646417617798,0.4200000464916229,0.9999999403953552,3.3381122648279415e-06,-2.2428905595006654e-06,-2.803136034401632e-08,0.0002667456865310669,0.0002675803261809051,-0.00010427623055875301,-0.0017366986721754074,0.004206871148198843,-0.00012831554340664297,-0.27544528245925903,0.3269903063774109,1.1803795099258423,-2.332581043243408,3.3928914070129395,-2.1633613109588623,0.3642488420009613,0.7220869660377502,0.42000001668930054,-1.1463243961334229,2.999999523162842,-0.22451531887054443,-0.5284533500671387,-0.0031887423247098923,-0.012497794814407825,-0.021792719140648842,-0.031076541170477867,-0.3180069625377655,-0.39427322149276733,-0.4659425914287567,-0.5330706238746643
0.16666666666666666,0.06447708606719971,0.10282698273658752,0.0,0.9856869578361511,0.0,0.0,-0.16858594119548798,0.3505423963069916,0.8555282354354858,0.0,0.0,0.0,-6.11940336227417,-0.43296581506729126,0.7157647013664246,0.4200000464916229,0.9999999403953552,3.647830908448668e-06,-2.307289605596452e-06,3.526602299075421e-08,0.0002672695554792881,0.0002680134493857622,-0.0001041879877448082,-0.0017471626633778214,0.004217641893774271,-0.00012799118121620268,-0.3120366334915161,0.38719597458839417,1.1419113874435425,-2.019773483276367,3.844285011291504,-2.4830703735351562,0.3642488420009613,0.7220869660377502,0.42000001668930054,-1.0964889526367188,2.954918146133423,-0.27152949571609497,-3.0000014305114746,-0.007261174265295267,-0.017957177013158798,-0.02855634316802025,-0.03906242549419403,-0.4540221393108368,-0.5060728192329407,-0.555060088634491,-0.6010630130767822
0.18333333333333332,0.06648247689008713,0.11410507559776306,0.0,0.9811517000198364,0.0,0.0,-0.19323910772800446,0.09689231961965561,0.6204588413238525,0.0,0.0,0.0,-1.8491474390029907,-0.43296581506729126,0.7157646417617798,0.4200000464916229,0.9999999403953552,3.290551603640779e-06,-2.1939342786936322e-06,-2.7924167511628184e-07,0.0002667796507012099,0.00026776036247611046,-0.00010434072464704514,-0.001739065395668149,0.004206969402730465,-0.00012845818127971143,-0.34805458784103394,0.4478861093521118,1.0924957990646362,-1.9607633352279663,3.8071675300598145,-3.332766532897949,0.3642488420009613,0.7220869660377502,0.42000001668930054,-1.0563632249832153,1.9169554710388184,-0.32155686616897583,-3.000000238418579,-0.01866862364113331,-0.02942495420575142,-0.04005994647741318,-0.050586700439453125,-0.7176437973976135,-0.7067201733589172,-0.6944339871406555,-0.6813656687736511
0.2,0.06472612917423248,0.12696897983551025,0.0,0.9733597636222839,0.0,0.0,-0.22928312420845032,-0.15620344877243042,0.7758628726005554,0.0,0.0,0.0,-5.242445468902588,-0.43296581506729126,0.7157646417617798,0.4200000464916229,1.0,3.2807351999508683e-06,-2.219225052613183e-06,1.594732026433121e-07,0.00026627970510162413,0.00026740136672742665,-0.0001042510848492384,-0.001735763973556459,0.004197762347757816,-0.0001286511542275548,-0.37956976890563965,0.5129056572914124,1.0300993919372559,-1.7134934663772583,3.986363649368286,-4.064530372619629,0.3642488420009613,0.7220869660377502,0.42000001668930054,-1.008549451828003,2.9999990463256836,-0.3715828061103821,-3.0000016689300537,-0.03402329981327057,-0.04417652264237404,-0.054181646555662155,-0.06407750397920609,-0.9360694289207458,-0.8956225514411926,-0.8532444834709167,-0.8103436827659607
0.21666666666666667,0.06716964393854141,0.1395511031150818,0.0,0.9686866402626038,0.0,0.0,-0.24828653037548065,0.14021867513656616,0.7518969178199768,0.0,0.0,0.0,-1.2396827936172485,-0.43296581506729126,0.7157647013664246,0.4200000464916229,1.0,3.613135277191759e-06,-2.2701503894495545e-06,2.2101289687270764e-07,0.0002671263355296105,0.0002678169112186879,-0.00010414118878543377,-0.0017444867407903075,0.0042151641100645065,-0.00012786478328052908,-0.41021931171417236,0.5728596448898315,0.9559661149978638,-1.6591038703918457,3.4219970703125,-4.831559181213379,0.3642488420009613,0.7220869660377502,0.42000001668930054,-0.9585464000701904,3.0000016689300537,-0.42161017656326294,-2.9999988079071045,-0.04808233678340912,-0.05726182833313942,-0.06628625839948654,-0.07521915435791016,-0.9826219081878662,-0.8897355794906616,-0.7987597584724426,-0.7111849784851074
0.23333333333333334,0.06592027097940445,0.1495710164308548,0.0,0.9602600932121277,0.0,0.0,-0.27910664677619934,-0.10635468363761902,0.5330953001976013,0.0,0.0,0.0,-4.644200325012207,-0.43296581506729126,0.7157646417617798,0.4200000464916229,1.0,3.3818234896898502e-06,-2.290981683472637e-06,2.728025378928578e-07,0.0002669123059604317,0.0002677978773135692,-0.00010433210991322994,-0.0017395822796970606,0.004209768958389759,-0.00012843773583881557,-0.43427735567092896,0.6274374723434448,0.8684292435646057,-1.1464296579360962,3.1442413330078125,-5.5026350021362305,0.3642488420009613,0.7220869660377502,0.42000001668930054,-0.9085358381271362,3.0000011920928955,-0.4716394543647766,-3.000000238418579,-0.06421621143817902,-0.07342734932899475,-0.08245395123958588,-0.0909913033246994,-0.987118124961853,-0.9838449358940125,-0.9787170886993408,-0.9662656784057617
0.25,0.06806271523237228,0.1549723595380783,0.0,0.9568983316421509,0.0,0.0,-0.2904232144355774,0.18081681430339813,0.1901501566171646,0.0,0.0,0.0,-0.30446726083755493,-0.43296578526496887,0.7157646417617798,0.4200000464916229,0.9999999403953552,3.706510142365005e-06,-2.2230249214771902e-06,-2.254949436064635e-07,0.00026424831594340503,0.00026656725094653666,-0.00010457634925842285,-0.001716952072456479,0.004155570175498724,-0.00013063338701613247,-0.45338261127471924,0.6697057485580444,0.7723518013954163,-0.9129984974861145,2.0971012115478516,-6.002214431762695,0.3642488420009613,0.7220869660377502,0.42000001668930054,-0.8585251569747925,2.9999969005584717,-0.5216695666313171,-3.0,-0.08015596121549606,-0.08931464701890945,-0.09821774065494537,-0.1066751554608345,-0.9850653409957886,-0.9708784222602844,-0.9577562808990479,-0.9431307911872864
0.26666666666666666,0.06478800624608994,0.16324400901794434,0.0,0.9489208459854126,0.0,0.0,-0.3155142664909363,-0.3191879689693451,0.6110088229179382,0.0,0.0,0.0,-4.138058185577393,-0.43296581506729126,0.7157646417617798,0.4200000464916229,0.9999999403953552,3.7196562061581062e-06,-2.4035145997913787e-06,-1.8307397908756684e-07,0.00026623206213116646,0.00026729085948318243,-0.00010425853542983532,-0.0017326372908428311,0.004196509253233671,-0.0001285135222133249,-0.46107086539268494,0.693332314491272,0.6704147458076477,0.018008828163146973,0.8540356159210205,-5.997558116912842,0.3642488420009613,0.7220869660377502,0.42000001668930054,-0.808515727519989,2.9999988079071045,-0.5716994404792786,-2.999999523162842,-0.09857302159070969,-0.10728393495082855,-0.11584684252738953,-0.12403658777475357,-0.9926121234893799,-0.9941714406013489,-0.9959419965744019,-0.9976516962051392
0.2833333333333333,0.06516571342945099,0.1669626086950302,0.0,0.9460561275482178,0.0,0.0,-0.32400280237197876,0.06438148021697998,0.13204625248908997,0.0,0.0,0.0,-0.05685131251811981,-0.43296581506729126,0.7157647013664246,0.4200000464916229,0.9999999403953552,3.584109208532027e-06,-2.315508709216374e-06,7.404404556154986e-08,0.0002652198018040508,0.0002645530621521175,-0.00010317005217075348,-0.001702171633951366,0.004185137338936329,-0.0001249976339749992,-0.4621146321296692,0.7042129039764404,0.5731410980224609,0.21506883203983307,0.36840420961380005,-5.741091728210449,0.3642488420009613,0.7220869660377502,0.42000001668930054,-0.7585069537162781,2.9999959468841553,-0.6217291951179504,-2.999998092651367,-0.11213934421539307,-0.12106341123580933,-0.1298334002494812,-0.13793650269508362,-0.9941601157188416,-0.9927868843078613,-0.9896827340126038,-0.9378660917282104
0.3,0.06276746839284897,0.16730864346027374,0.0,0.9389728307723999,0.0,0.0,-0.34399136900901794,-0.1733037531375885,-0.03853846341371536,0.0,0.0,0.0,-3.3597123622894287,-0.43296581506729126,0.7157646417617798,0.4200000464916229,1.0,3.724297130247578e-06,-2.271929133712547e-06,9.635297004706445e-08,0.0002631272072903812,0.00026525818975642323,-0.00010438100434839725,-0.0016960492357611656,0.004134910646826029,-0.00013027878594584763,-0.45215630531311035,0.7123076915740967,0.47931569814682007,0.9309027791023254,0.6206461787223816,-5.3525848388671875,0.3642488420009613,0.7220869660377502,0.42000001668930054,-0.7084987163543701,3.00000262260437,-0.6717569231987,-3.0,-0.12953299283981323,-0.1382991373538971,-0.14695754647254944,-0.1549757868051529,-1.0165119171142578,-1.0124837160110474,-1.0094094276428223,-1.006946086883545
0.31666666666666665,0.05810084566473961,0.16497813165187836,0.0,0.9383168816566467,0.0,0.0,-0.3457765579223633,-0.3188325762748718,-0.178536057472229,0.0,0.0,0.0,0.6805479526519775,-0.43296581506729126,0.7157646417617798,0.4200000464916229,1.0,3.6662925140262814e-06,-2.392535634498927e-06,1.6798198032574874e-07,0.0002660211466718465,0.0002670691173989326,-0.00010418705642223358,-0.0017310786060988903,0.004193502478301525,-0.0001284959726035595,-0.4449789524078369,0.7183921337127686,0.4285205006599426,0.06960757821798325,0.012271743267774582,-0.2674946188926697,0.3642488420009613,0.7220869660377502,0.42000001668930054,-0.6584937572479248,3.000001907348633,-0.7221652269363403,-2.999441385269165,-0.14335550367832184,-0.15232734382152557,-0.1608257293701172,-0.16829413175582886,-0.5009558796882629,-0.5420676469802856,-0.5290505290031433,-0.4629426896572113
0.3333333333333333,0.05094451829791069,0.16030403971672058,0.0,0.9328693151473999,0.0,0.0,-0.36021503806114197,-0.48861220479011536,-0.32885584235191345,0.0,0.0,0.0,-2.6741695404052734,-0.43293339014053345,0.7158410549163818,0.4200006425380707,0.9999995827674866,-0.0004646478046197444,0.0003239730722270906,-0.0006656114128418267,0.06425727158784866,0.14478781819343567,-0.007714563515037298,0.45543888211250305,-0.08168196678161621,-3.952592134475708,-0.44277164340019226,0.7217857837677002,0.4253861904144287,0.25995537638664246,0.14221645891666412,-0.20241855084896088,0.3642488420009613,0.7220869660377502,0.42000001668930054,-0.6084879636764526,2.9998726844787598,-0.7722499966621399,-2.9997217655181885,-0.15204694867134094,-0.16094458103179932,-0.16852006316184998,-0.17426227033138275,-0.5579152703285217,-0.5087355971336365,-0.41445043683052063,-0.2792953848838806
0.35,0.04133671894669533,0.15321020781993866,0.0,0.9335734248161316,0.0,0.0,-0.35838615894317627,-0.6156033873558044,-0.4646040201187134,0.0,0.0,0.0,1.1596605777740479,-0.4301696717739105,0.7204604148864746,0.4200003147125244,0.9985262751579285,-6.968144134589238e-06,5.2383334150363225e-06,-0.05427004024386406,0.16815808415412903,0.29637691378593445,-0.00044522344251163304,0.01653527282178402,-0.005910305306315422,-7.8299336433410645,-0.43797725439071655,0.7256651520729065,0.4219488799571991,0.3550044298171997,0.3116215467453003,-0.17893129587173462,0.3642488420009613,0.7220869660377502,0.42000001668930054,-0.5584829449653625,3.000000476837158,-0.8222982883453369,-3.0000064373016357,-0.16235052049160004,-0.16973064839839935,-0.1751469075679779,-0.17818418145179749,-0.5963359475135803,-0.48502951860427856,-0.34151342511177063,-0.17221298813819885
0.36666666666666664,0.029499173164367676,0.14381787180900574,0.0,0.9287630915641785,0.0,0.0,-0.3706739544868469,-0.7549891471862793,-0.6032039523124695,0.0,0.0,0.0,-2.4981954097747803,-0.42623668909072876,0.7266929149627686,0.4200034737586975,0.9915118217468262,-3.346407174831256e-05,0.00017090314941015095,-0.1300157755613327,0.3707304894924164,0.5294398069381714,-0.007551128976047039,0.20958088338375092,-0.3315967321395874,-3.6863880157470703,-0.4307466149330139,0.7314890623092651,0.4196690320968628,0.5308933854103088,0.4506424367427826,-0.1110033467411995,0.3642488420009613,0.7220869660377502,0.42000001668930054,-0.5084781050682068,3.000000238418579,-0.8723528981208801,-2.9996140003204346,-0.1719440370798111,-0.17730997502803802,-0.18020901083946228,-0.18034221231937408,-0.5201825499534607,-0.3938109874725342,-0.2415764182806015,-0.07060065865516663
0.3833333333333333,0.01516211312264204,0.13208648562431335,0.0,0.9128996133804321,0.0,0.0,-0.40818411111831665,-0.9262248277664185,-0.7470324635505676,0.0,0.0,0.0,-5.855156898498535,-0.41676947474479675,0.7396413087844849,0.420672208070755,0.9879946708679199,-0.016201142221689224,0.001646396005526185,-0.15362660586833954,0.8025491237640381,1.0695602893829346,0.10142955183982849,-3.50445556640625,-1.0780497789382935,-4.7579498291015625,-0.42105603218078613,0.7425152659416199,0.42063015699386597,0.7350272536277771,0.9711333513259888,0.09948624670505524,0.3642488420009613,0.7220869660377502,0.42000001668930054,-0.4584120810031891,2.999880790710449,-0.9223542809486389,-2.999995708465576,-0.17965593934059143,-0.1830066293478012,-0.18342755734920502,-0.1807401180267334,-0.37672725319862366,-0.26307010650634766,-0.12306676059961319,0.03630182892084122
0.4,0.002793310908600688,0.11726000159978867,0.0,0.8833773136138916,0.0,0.0,-0.46866247057914734,-0.6732326149940491,-0.948691725730896,0.0,0.0,0.0,-8.874418258666992,-0.39308246970176697,0.7658261656761169,0.4228723347187042,0.978753924369812,-0.028174618259072304,-0.02091369964182377,-0.20201344788074493,2.375995635986328,2.065455198287964,0.06660832464694977,27.832843780517578,-10.524359703063965,3.2362260818481445,-0.3978537321090698,0.7685880661010742,0.4226388931274414,2.194514751434326,2.189465045928955,0.29200661182403564,0.3642488420009613,0.7220869660377502,0.42000001668930054,-0.40912988781929016,2.6196532249450684,-0.972361147403717,-3.0000016689300537,-0.1867378056049347,-0.18771454691886902,-0.18537916243076324,-0.17968718707561493,-0.46081995964050293,-0.28824734687805176,-0.0983574315905571,0.10004958510398865
0.4166666666666667,-0.006035751663148403,0.10167257487773895,0.0,0.83735191822052,0.0,0.0,-0.5466642379760742,-0.4639313519001007,-0.962626039981842,0.0,0.0,0.0,-11.617011070251465,-0.33135271072387695,0.8097325563430786,0.42785409092903137,0.9617812633514404,0.03220495209097862,-0.05594513937830925,-0.26610109210014343,5.230412006378174,2.9955062866210938,0.45993128418922424,12.586150169372559,-7.979960918426514,3.912320852279663,-0.33580613136291504,0.8131691217422485,0.4275932312011719,4.837640762329102,3.138274669647217,0.4660661220550537,0.3642488420009613,0.7220869660377502,0.42000001668930054,-0.3837697505950928,1.0175528526306152,-0.9349045753479004,3.000002861022949,-0.19849207997322083,-0.1953105628490448,-0.18881700932979584,-0.1791466921567917,-0.7364371418952942,-0.47565609216690063,-0.22561176121234894,0.0029711697716265917
0.43333333333333335,-0.01181208435446024,0.09210218489170074,0.0,0.7895586490631104,0.0,0.0,-0.613675057888031,-0.28823766112327576,-0.4502934515476227,0.0,0.0,0.0,-8.930721282958984,-0.24834385514259338,0.8534989356994629,0.4365846812725067,0.9328151941299438,0.10910715907812119,-0.09604543447494507,-0.3297373652458191,5.556641101837158,1.6764808893203735,0.5387353301048279,17.00927734375,-19.09678077697754,20.345914840698242,-0.25212520360946655,0.8585551977157593,0.43610233068466187,5.288908004760742,2.3284049034118652,0.5916058421134949,0.3642488420009613,0.7220869660377502,0.42000001668930054,-0.3695239722728729,0.7816370129585266,-0.8848617076873779,2.9950063228607178,-0.21405796706676483,-0.20933152735233307,-0.19763274490833282,-0.18337911367416382,-0.8978171944618225,-0.8858749270439148,-0.5780395865440369,-0.3096426725387573
0.45,-0.014063040725886822,0.07859469205141068,0.0,0.7605547904968262,0.0,0.0,-0.6492737531661987,-0.0876435711979866,-0.9078911542892456,0.0,0.0,0.0,-4.376970291137695,-0.1592426300048828,0.8838244080543518,0.4477235972881317,0.8779694437980652,0.1377037763595581,-0.11489024013280869,-0.4438553750514984,5.637495040893555,0.5891358256340027,0.6397209763526917,-13.012273788452148,-4.204241752624512,-0.504593014717102,-0.16384446620941162,0.8891025185585022,0.4459736943244934,5.442273139953613,1.2614290714263916,0.7739505767822266,0.3642488420009613,0.7220869660377502,0.42000001668930054,-0.35410943627357483,0.9755032062530518,-0.9104943871498108,-2.999999523162842,-0.2261064648628235,-0.22037650644779205,-0.203804612159729,-0.18533042073249817,-0.7109827995300293,-0.5891212821006775,-0.2922825813293457,-0.036354318261146545
0.4666666666666667,-0.018186436966061592,0.069093257188797,0.0,0.7491017580032349,0.0,0.0,-0.6624549627304077,-0.2144637554883957,-0.5143566131591797,0.0,0.0,0.0,-0.6140072345733643,-0.0648159384727478,0.8949410915374756,0.4559919536113739,0.8065854907035828,0.0889301747083664,-0.18681667745113373,-0.5537243485450745,5.574547290802002,-0.5891878604888916,0.5788825154304504,-20.747047424316406,3.2510874271392822,15.48719310760498,-0.07115165144205093,0.9021720886230469,0.4580463171005249,5.87153434753418,0.4947683811187744,0.7006784677505493,0.3642488420009613,0.7220869660377502,0.42000001668930054,-0.33721333742141724,0.8429043292999268,-0.9605184197425842,-2.9999160766601562,-0.24002528190612793,-0.2326161116361618,-0.21074984967708588,-0.1877230852842331,-0.06497234106063843,-0.703447163105011,-0.4372099041938782,-0.20459093153476715
0.48333333333333334,-0.018985452130436897,0.055931419134140015,0.0,0.7311831712722778,0.0,0.0,-0.682181179523468,-0.02411070093512535,-0.8233227133750916,0.0,0.0,0.0,-4.029062271118164,0.02858959138393402,0.8913034200668335,0.463784784078598,0.7542346715927124,0.06651194393634796,-0.17685364186763763,-0.6288313269615173,5.2977399826049805,-1.5201393365859985,0.2715952396392822,-16.33721160888672,-10.814311027526855,15.793267250061035,0.02346467599272728,0.900705873966217,0.46625763177871704,5.756099224090576,-0.6506129503250122,0.5078635215759277,0.3642488420009613,0.7220869660377502,0.42000001668930054,-0.3259514272212982,0.49508538842201233,-1.010542869567871,-3.000000476837158,-0.23908565938472748,-0.23993819952011108,-0.21417130529880524,-0.1876768320798874,-0.10015837103128433,-0.11864714324474335,-0.17754948139190674,0.04422362148761749
0.5,-0.01745758019387722,0.04847487807273865,0.0,0.7249546051025391,0.0,0.0,-0.6887966394424438,0.1333087831735611,-0.34857693314552307,0.0,0.0,0.0,-0.11037915199995041,0.118833526968956,0.8710551857948303,0.46884989738464355,0.6879814863204956,0.027438051998615265,-0.17226754128932953,-0.7044517993927002,4.995835781097412,-2.1173908710479736,0.2591274082660675,-3.808300256729126,-1.3192346096038818,15.893701553344727,0.11500480771064758,0.8813340663909912,0.4718971252441406,5.468203544616699,-1.4765076637268066,0.26947513222694397,0.3642488420009613,0.7220869660377502,0.42000001668930054,-0.3172112703323364,0.4885331988334656,-1.06056547164917,-3.0000007152557373,-0.2398005574941635,-0.23982499539852142,-0.22056172788143158,-0.19077543914318085,0.040145404636859894,0.045861996710300446,-0.2907833158969879,-0.17473068833351135
0.5166666666666666,-0.017134586349129677,0.04536872357130051,0.0,0.7108707427978516,0.0,0.0,-0.70332270860672,-0.040949203073978424,-0.09737468510866165,0.0,0.0,0.0,-3.2767791748046875,0.19916459918022156,0.842444896697998,0.4673989713191986,0.6461579203605652,-0.006603894755244255,-0.16253671050071716,-0.7456662058830261,4.074552059173584,-2.412658214569092,-0.17947693169116974,-1.5077089071273804,1.29916250705719,16.69020652770996,0.19727732241153717,0.8530948162078857,0.4713718295097351,4.616558074951172,-1.9913699626922607,-0.22148148715496063,0.3642488420009613,0.7220869660377502,0.42000001668930054,-0.30696094036102295,0.6560171842575073,-1.1105875968933105,-2.9999866485595703,-0.2382402867078781,-0.2380877286195755,-0.22405730187892914,-0.19355857372283936,0.1238211914896965,0.1532193422317505,-0.12745128571987152,-0.14088140428066254
0.5333333333333333,-0.014454957097768784,0.03714650869369507,0.0,0.7087602019309998,0.0,0.0,-0.7054495215415955,0.2284117490053177,-0.6238306760787964,0.0,0.0,0.0,0.5792677998542786,0.2650041878223419,0.8081698417663574,0.4601179361343384,0.587029755115509,-0.05163821578025818,-0.1417655348777771,-0.7953816652297974,3.1379053592681885,-2.354315757751465,-0.44273120164871216,-0.4954363703727722,7.084100246429443,4.481590747833252,0.26407691836357117,0.8188258409500122,0.46462124586105347,3.5064878463745117,-2.196208953857422,-0.5704348087310791,0.3642488420009613,0.7220869660377502,0.42000001668930054,-0.29529356956481934,0.6573832631111145,-1.1606097221374512,-2.9988486766815186,-0.23024387657642365,-0.2301236242055893,-0.22092828154563904,-0.1921277940273285,0.6216158270835876,0.6132128238677979,0.3365747332572937,0.17656046152114868
0.55,-0.01009555533528328,0.03152407705783844,0.0,0.696780264377594,0.0,0.0,-0.7172846794128418,0.28389737010002136,-0.22909481823444366,0.0,0.0,0.0,-2.899674415588379,0.3171819746494293,0.7774619460105896,0.4465016722679138,0.5311977863311768,-0.07984484732151031,-0.11368899047374725,-0.835780143737793,2.9190216064453125,-1.7331748008728027,-0.9396424293518066,7.161942958831787,-5.590848445892334,-9.409055709838867,0.31573033332824707,0.7863897085189819,0.45067596435546875,2.7334258556365967,-1.8803610801696777,-1.0021247863769531,0.3642488420009613,0.7220869660377502,0.42000001668930054,-0.2818334698677063,1.1162080764770508,-1.2106318473815918,-3.000002384185791,-0.2207060307264328,-0.22093583643436432,-0.21607808768749237,-0.19067597389221191,0.5721975564956665,0.5446425080299377,0.3016008734703064,0.06133192032575607
0.5666666666666667,-0.004447306040674448,0.031298499554395676,0.0,0.69720059633255,0.0,0.0,-0.7168760895729065,0.4315764605998993,-0.02812458947300911,0.0,0.0,0.0,0.7957083582878113,0.35807833075523376,0.7498191595077515,0.4287532866001129,0.4744420349597931,-0.06043541431427002,-0.06706734746694565,-0.8756449818611145,2.175729274749756,-1.6664950847625732,-1.1496715545654297,4.449739933013916,2.273677110671997,3.466984272003174,0.3559134006500244,0.7549858689308167,0.4324374198913574,2.125307083129883,-1.8318067789077759,-1.15619957447052,0.3642488420009613,0.7220869660377502,0.42000001668930054,-0.25644147396087646,1.8592561483383179,-1.2606538534164429,-2.999990940093994,-0.21296662092208862,-0.21342600882053375,-0.21197961270809174,-0.19074034690856934,0.5534001588821411,0.5029772520065308,0.2896062135696411,-0.0018274243921041489
0.5833333333333334,0.004309506621211767,0.025955073535442352,0.0,0.6864941120147705,0.0,0.0,-0.7271353602409363,0.5521920919418335,-0.31106072664260864,0.0,0.0,0.0,-2.4755640029907227,0.3854113817214966,0.7339602112770081,0.4227294325828552,0.48242905735969543,4.262069705873728e-05,-0.0044511486776173115,-0.8759236931800842,0.7977644205093384,-1.7759230136871338,-0.0753171518445015,-6.041315078735352,-9.564322471618652,24.840421676635742,0.38313961029052734,0.7370525598526001,0.42427706718444824,1.0947015285491943,-0.6894933581352234,-0.10370299220085144,0.3642488420009613,0.7220869660377502,0.42000001668930054,-0.2294555902481079,0.6082878708839417,-1.222538709640503,2.984402894973755,-0.19977398216724396,-0.20124992728233337,-0.2041417956352234,-0.18883037567138672,0.51198410987854,0.5663235783576965,0.36163583397865295,0.03358292952179909
0.6,0.010478931479156017,0.02508968487381935,0.0,0.6885347366333008,0.0,0.0,-0.7252033352851868,0.3148708641529083,-0.03701798617839813,0.0,0.0,0.0,1.1722135543823242,0.3987663686275482,0.7211517691612244,0.4224160611629486,0.4997500479221344,-0.009002522565424442,0.0059629869647324085,-0.8661022782325745,0.49409952759742737,-0.7973098754882812,0.04494110122323036,-0.4520038366317749,1.1885063648223877,1.6232421398162842,0.39412498474121094,0.7237920761108398,0.42509299516677856,0.39573079347610474,-0.7021740674972534,0.10907433927059174,0.3642488420009613,0.7220869660377502,0.42000001668930054,-0.2596224248409271,-3.0000038146972656,-1.2433700561523438,-2.999825954437256,-0.1941778063774109,-0.19452548027038574,-0.19979360699653625,-0.18924403190612793,0.3869021236896515,0.42241448163986206,0.2939758598804474,0.011991835199296474
0.6166666666666667,0.01755252666771412,0.027333255857229233,0.0,0.6797170042991638,0.0,0.0,-0.7334744334220886,0.4340048134326935,0.1642196774482727,0.0,0.0,0.0,-2.352574110031128,0.4026537537574768,0.7141538858413696,0.421195924282074,0.5457426309585571,0.008421676233410835,-0.024012964218854904,-0.8375663757324219,0.06476513296365738,-0.16442067921161652,-0.04242409020662308,2.3119707107543945,-3.95528507232666,6.647605895996094,0.3984883427619934,0.7194931507110596,0.4270886778831482,0.18748591840267181,0.010032132267951965,0.14424777030944824,0.3642488420009613,0.7220869660377502,0.42000001668930054,-0.29104483127593994,-0.9547116160392761,-1.2933310270309448,-2.9991414546966553,-0.18642957508563995,-0.1872895359992981,-0.19497957825660706,-0.18937791883945465,0.5979449152946472,0.5147032737731934,0.35688886046409607,0.04823539778590202
0.6333333333333333,0.026603128761053085,0.024566875770688057,0.0,0.6827552914619446,0.0,0.0,-0.730647087097168,0.5131188035011292,-0.18810702860355377,0.0,0.0,0.0,1.3813575506210327,0.40253376960754395,0.7129177451133728,0.4203019440174103,0.5541949272155762,0.004202875774353743,-0.006356473546475172,-0.8323519229888916,-0.15507389605045319,0.055780645459890366,0.016927044838666916,-0.33547312021255493,-0.810067892074585,3.2463159561157227,0.39741480350494385,0.7193224430084229,0.42852097749710083,-0.2943739593029022,0.010821614414453506,0.0717400312423706,0.3642488420009613,0.7220869660377502,0.42000001668930054,-0.33475515246391296,-3.0000035762786865,-1.3142966032028198,0.22484581172466278,-0.17386825382709503,-0.1764654517173767,-0.18662196397781372,-0.1860228329896927,0.6419863700866699,0.5635185241699219,0.46479475498199463,0.21037954092025757
0.65,0.037489015609025955,0.026099730283021927,0.0,0.6827542185783386,0.0,0.0,-0.7306481003761292,0.6743497252464294,0.09689101576805115,0.0,0.0,0.0,-0.6788073182106018,0.4005529284477234,0.7135674953460693,0.4200006425380707,0.5691060423851013,1.0757099516922608e-05,7.90604462963529e-06,-0.8222640752792358,-0.09139998257160187,0.027840228751301765,-3.389106132090092e-05,-0.0012931994860991836,-0.0007633177447132766,1.482116460800171,0.39511099457740784,0.7214301824569702,0.4314012825489044,-0.05829766392707825,0.25641754269599915,0.21264100074768066,0.3642488420009613,0.7220869660377502,0.42000001668930054,-0.38481247425079346,-2.999969959259033,-1.3550022840499878,-2.9990286827087402,-0.16562622785568237,-0.16949903964996338,-0.18083517253398895,-0.18389281630516052,0.6135340929031372,0.4962175786495209,0.4085175395011902,0.1833992749452591
0.6666666666666666,0.04990539327263832,0.024614820256829262,0.0,0.6950571537017822,0.0,0.0,-0.7189545035362244,0.7753435373306274,-0.15987318754196167,0.0,0.0,0.0,2.881842851638794,0.399391233921051,0.7137843370437622,0.4201355278491974,0.5805486440658569,0.001938683562912047,-0.002799206180498004,-0.8142183423042297,-0.23106619715690613,0.008873124606907368,0.04239217936992645,-0.7378789782524109,-1.9894803762435913,5.3275933265686035,0.390665203332901,0.7241846323013306,0.4348142445087433,-0.38058310747146606,0.13679306209087372,0.2196749597787857,0.3642488420009613,0.7220869660377502,0.42000001668930054,-0.43484508991241455,-2.999999761581421,-1.4049851894378662,-2.9997360706329346,-0.157688170671463,-0.16278424859046936,-0.17464123666286469,-0.1804494708776474,0.3737720847129822,0.3315032422542572,0.34101688861846924,0.22148562967777252
0.6833333333333333,0.05964675545692444,0.025886842980980873,0.0,0.6951828002929688,0.0,0.0,-0.7188329696655273,0.5175209045410156,0.11075372993946075,0.0,0.0,0.0,-0.9695867896080017,0.3940877318382263,0.7146994471549988,0.4201543927192688,0.6041024327278137,0.0023845061659812927,-0.0030337064526975155,-0.7968973517417908,-0.1952715367078781,0.006238734815269709,-0.019144579768180847,0.2936846911907196,0.9273104071617126,3.9887092113494873,0.38887909054756165,0.7263774871826172,0.43890881538391113,-0.013939800672233105,0.13035880029201508,0.278469979763031,0.3642488420009613,0.7220869660377502,0.42000001668930054,-0.4848906397819519,-3.0000007152557373,-1.4549468755722046,-2.9992899894714355,-0.15367956459522247,-0.15911556780338287,-0.1702267825603485,-0.1772065907716751,0.2811877429485321,0.25658562779426575,0.30739155411720276,0.25695306062698364
0.7,0.06998710334300995,0.02350449375808239,0.0,0.676254391670227,0.0,0.0,-0.7366681694984436,0.6388011574745178,-0.1951417773962021,0.0,0.0,0.0,-4.293531894683838,0.39184457063674927,0.7146570086479187,0.4200000464916229,0.6198664307594299,5.640006293106126e-07,1.472429744353576e-06,-0.7847073674201965,-0.11112377792596817,-0.0047420356422662735,-1.5792466001585126e-05,-0.0003375338274054229,-0.0008297106251120567,1.826719045639038,0.3899056911468506,0.7300548553466797,0.4473170042037964,0.10281496495008469,0.2117462009191513,0.8462537527084351,0.3642488420009613,0.7220869660377502,0.42000001668930054,-0.5349035859107971,-2.9999845027923584,-1.5049651861190796,-2.9999983310699463,-0.14962495863437653,-0.1551923155784607,-0.16504448652267456,-0.17219801247119904,0.07695482671260834,0.11204724758863449,0.23432788252830505,0.28186824917793274
0.7166666666666667,0.08269844204187393,0.024885250255465508,0.0,0.6482383012771606,0.0,0.0,-0.7614375352859497,0.791562557220459,0.06951074302196503,0.0,0.0,0.0,-4.41382360458374,0.3909442126750946,0.7145779728889465,0.42000001668930054,0.6249819397926331,1.0049922138932743e-06,4.3978371877528843e-07,-0.780639111995697,-0.033139944076538086,-0.004135227762162685,-2.192941610701382e-05,-0.001206857617944479,0.0008215243578888476,0.4760931134223938,0.3938601016998291,0.7350019216537476,0.4687468707561493,0.47281354665756226,0.4345743954181671,1.7776641845703125,0.3642488420009613,0.7220869660377502,0.42000001668930054,-0.5849155187606812,-2.999995231628418,-1.554983377456665,-2.999999523162842,-0.15250234305858612,-0.1571246236562729,-0.1645582914352417,-0.17034031450748444,-0.09291429817676544,-0.07291114330291748,0.03912871330976486,0.10424184799194336
0.7333333333333333,0.09493554383516312,0.028060654178261757,0.0,0.6394478678703308,0.0,0.0,-0.7688344717025757,0.7075942754745483,0.2550771236419678,0.0,0.0,0.0,-0.39973077178001404,0.3909437358379364,0.7145786285400391,0.419999897480011,0.6249822378158569,-2.6248210360790836e-06,-9.29896214074688e-06,-0.7806389331817627,0.00017109730106312782,-0.0006083671469241381,-0.00012086587958037853,0.014090725220739841,-0.004429985769093037,-0.0007701727445237339,0.40396058559417725,0.7445228099822998,0.49940961599349976,0.6886014938354492,0.6761785745620728,1.9222443103790283,0.3642488420009613,0.7220869660377502,0.42000001668930054,-0.6082478761672974,-0.03883199393749237,-1.6049978733062744,-3.0000009536743164,-0.15426293015480042,-0.15866881608963013,-0.16440661251544952,-0.1691143959760666,-0.09460091590881348,-0.08924730122089386,-1.3649696484208107e-08,0.05865899473428726
0.75,0.10335426777601242,0.026919839903712273,0.0,0.6541727781295776,0.0,0.0,-0.7563451528549194,0.4684739112854004,-0.12246642261743546,0.0,0.0,0.0,3.103497266769409,0.39094388484954834,0.71457839012146,0.41999998688697815,0.6249821186065674,-7.159928827604745e-07,-6.002993814036017e-06,-0.7806389331817627,0.00018835035734809935,-0.0004067234112881124,-8.620717562735081e-05,0.009197781793773174,-0.0016165097476914525,-0.0006478432915173471,0.4154760241508484,0.7540110349655151,0.5253540873527527,0.6231087446212769,0.3915492594242096,1.2444257736206055,0.3642488420009613,0.7220869660377502,0.42000001668930054,-0.6104075312614441,-0.20489861071109772,-1.5659698247909546,3.000000476837158,-0.15345878899097443,-0.15752410888671875,-0.16171132028102875,-0.1653454452753067,-0.05727865919470787,0.008851729333400726,0.13505561649799347,0.23173724114894867
0.7666666666666666,0.10702835768461227,0.023254558444023132,0.0,0.6549172401428223,0.0,0.0,-0.7557005882263184,0.1364758014678955,-0.29236334562301636,0.0,0.0,0.0,-0.845561146736145,0.39094388484954834,0.71457839012146,0.41999995708465576,0.6249822974205017,-7.281889224941551e-07,-5.56493250769563e-06,-0.7806388139724731,0.00019003923807758838,-0.0004110739391762763,-8.67785420268774e-05,0.009311542846262455,-0.0016468310495838523,-0.0006546443910337985,0.42231786251068115,0.7585161924362183,0.5388212203979492,0.2352253794670105,0.1798870712518692,0.5516449213027954,0.3642488420009613,0.7220869660377502,0.42000001668930054,-0.6151910424232483,-0.3527529239654541,-1.5159133672714233,3.0000007152557373,-0.15684270858764648,-0.15917661786079407,-0.16082432866096497,-0.16240359842777252,-0.19936969876289368,-0.08628062903881073,0.06522821635007858,0.18941423296928406
0.7833333333333333,0.11325514316558838,0.025056248530745506,0.0,0.6675266027450562,0.0,0.0,-0.7445859313011169,0.46014052629470825,0.24590176343917847,0.0,0.0,0.0,2.9605252742767334,0.39094388484954834,0.71457839012146,0.41999998688697815,0.6249823570251465,-6.903953817527508e-07,-5.858268195879646e-06,-0.7806388735771179,0.00019275490194559097,-0.00041141422116197646,-8.685467764735222e-05,0.009326130151748657,-0.0016316911205649376,-0.0006616017199121416,0.42520871758461,0.7584171891212463,0.5486015677452087,0.14639312028884888,-0.046553559601306915,0.6490676403045654,0.3642488420009613,0.7220869660377502,0.42000001668930054,-0.6069920659065247,1.1953409910202026,-1.5317444801330566,-2.9999992847442627,-0.16608691215515137,-0.16544465720653534,-0.16366040706634521,-0.1622743308544159,-0.599861204624176,-0.41920843720436096,-0.21681804955005646,-0.03740684688091278
0.8,0.115568608045578,0.0233532153069973,0.0,0.6684950590133667,0.0,0.0,-0.7437165975570679,0.14729797840118408,-0.12923312187194824,0.0,0.0,0.0,-0.48393309116363525,0.39094388484954834,0.71457839012146,0.41999995708465576,0.6249821782112122,-7.261733685481886e-07,-5.5902651183714624e-06,-0.7806389927864075,0.00018990591343026608,-0.00041110703023150563,-8.679507300257683e-05,0.009311472997069359,-0.001647906145080924,-0.0006542130140587687,0.42535585165023804,0.7587698698043823,0.5528234243392944,-0.151119202375412,-0.19392944872379303,-0.023135505616664886,0.3642488420009613,0.7220869660377502,0.42000001668930054,-0.610149085521698,-1.3466591835021973,-1.4929242134094238,2.9999992847442627,-0.16946305334568024,-0.16695919632911682,-0.16298872232437134,-0.15964414179325104,-0.3093835711479187,-0.1729251891374588,-0.0254772137850523,0.10789597034454346
0.8166666666666667,0.11986210942268372,0.01932748779654503,0.0,0.6800532937049866,0.0,0.0,-0.7331627011299133,0.30035585165023804,-0.3644821047782898,0.0,0.0,0.0,2.7046804428100586,0.39094385504722595,0.71457839012146,0.41999995708465576,0.6249823570251465,-6.680837714156951e-07,-5.898736617382383e-06,-0.7806388139724731,0.00019174393673893064,-0.0004113576142117381,-8.68386123329401e-05,0.00932217761874199,-0.00163739372510463,-0.0006590535049326718,0.4249223470687866,0.7545278668403625,0.5539531707763672,0.1021190881729126,-0.25800326466560364,0.20121251046657562,0.3642488420009613,0.7220869660377502,0.42000001668930054,-0.6139923930168152,0.7103970050811768,-1.5092320442199707,-2.9999990463256836,-0.17503125965595245,-0.17010129988193512,-0.16353388130664825,-0.1577138900756836,-0.2626163065433502,-0.13017913699150085,0.012893841601908207,0.15613269805908203
0.8333333333333334,0.12236135452985764,0.012063569389283657,0.0,0.679334282875061,0.0,0.0,-0.7338289618492126,0.10602589696645737,-0.4812973439693451,0.0,0.0,0.0,-1.0767520666122437,0.39094388484954834,0.71457839012146,0.41999995708465576,0.6249821782112122,-7.216684139166318e-07,-5.587906343862414e-06,-0.7806389331817627,0.00018952284881379455,-0.00041082361713051796,-8.673849515616894e-05,0.009303836151957512,-0.001646444434300065,-0.00065300811547786,0.4289875626564026,0.747742235660553,0.5548173189163208,0.3676266670227051,-0.5369770526885986,0.060064226388931274,0.3642488420009613,0.7220869660377502,0.42000001668930054,-0.6276901960372925,-2.1000897884368896,-1.4704816341400146,2.999999523162842,-0.18018372356891632,-0.17295800149440765,-0.1639273464679718,-0.15555702149868011,-0.26562342047691345,-0.1351742446422577,0.0046365219168365,0.1541430652141571
0.85,0.12617142498493195,0.00739627331495285,0.0,0.658341109752655,0.0,0.0,-0.7527197003364563,0.2751476466655731,-0.23042549192905426,0.0,0.0,0.0,-4.215421676635742,0.39094388484954834,0.71457839012146,0.41999998688697815,0.6249822378158569,-6.738810043316334e-07,-5.883363883185666e-06,-0.7806389927864075,0.00019286296446807683,-0.00041147146839648485,-8.686119690537453e-05,0.009328017011284828,-0.0016314081149175763,-0.0006618979969061911,0.43781957030296326,0.7406459450721741,0.5578100085258484,0.6708555221557617,-0.36938899755477905,0.43082237243652344,0.3642488420009613,0.7220869660377502,0.42000001668930054,-0.6474918127059937,-0.40567201375961304,-1.4872742891311646,-2.999999761581421,-0.1841524839401245,-0.17554618418216705,-0.16491496562957764,-0.1546408087015152,-0.1501472443342209,-0.10342379659414291,-0.04279728978872299,0.04084433615207672
0.8666666666666667,0.13238637149333954,0.006477579940110445,0.0,0.6522321105003357,0.0,0.0,-0.7580193281173706,0.40445104241371155,0.014828416518867016,0.0,0.0,0.0,-0.005005011335015297,0.39094388484954834,0.71457839012146,0.41999995708465576,0.6249823570251465,-7.035232556518167e-07,-5.618115665129153e-06,-0.7806388735771179,0.00019031998817808926,-0.0004113272007089108,-8.68204515427351e-05,0.009318224154412746,-0.001646912656724453,-0.0006554699502885342,0.44767794013023376,0.737830400466919,0.5674467086791992,0.5142518877983093,0.017663922160863876,0.7304438352584839,0.3642488420009613,0.7220869660377502,0.42000001668930054,-0.6286489963531494,2.4074151515960693,-1.5372925996780396,-3.000000238418579,-0.18510890007019043,-0.1766882985830307,-0.1660752147436142,-0.15543511509895325,0.03609602898359299,-0.022810891270637512,-0.07709183543920517,-0.11013612896203995
0.8833333333333333,0.1354929655790329,0.0007511826697736979,0.0,0.6694529056549072,0.0,0.0,-0.7428544759750366,0.21154193580150604,-0.3887345790863037,0.0,0.0,0.0,3.400118827819824,0.39094388484954834,0.71457839012146,0.41999995708465576,0.6249823570251465,-7.135051305340312e-07,-5.506981779035414e-06,-0.7806388735771179,0.00018985367205459625,-0.0004110515583306551,-8.67785420268774e-05,0.009310117922723293,-0.0016473907744511962,-0.0006541363545693457,0.4520125389099121,0.738418459892273,0.5771229863166809,-0.01371960248798132,-0.09736675024032593,0.434577077627182,0.3642488420009613,0.7220869660377502,0.42000001668930054,-0.6080182194709778,0.24149750173091888,-1.4984544515609741,2.999999523162842,-0.17854809761047363,-0.171817809343338,-0.1628790646791458,-0.15357297658920288,0.2574460506439209,0.19359774887561798,0.12160179764032364,0.061429306864738464
0.9,0.1365904062986374,-0.001005641184747219,0.0,0.6728113889694214,0.0,0.0,-0.739814043045044,0.02557128109037876,-0.052882350981235504,0.0,0.0,0.0,-0.3403037488460541,0.39094388484954834,0.71457839012146,0.41999995708465576,0.6249822378158569,-7.374933375103865e-07,-5.3808907978236675e-06,-0.7806389927864075,0.0001905323297251016,-0.0004109103756491095,-8.676969446241856e-05,0.009308245964348316,-0.0016422393964603543,-0.0006557548767887056,0.44872188568115234,0.7367726564407349,0.5766614675521851,-0.32979145646095276,-0.08262450248003006,-0.31412211060523987,0.3642488420009613,0.7220869660377502,0.42000001668930054,-0.6003892421722412,0.6333538889884949,-1.4483979940414429,2.999999761581421,-0.17669349908828735,-0.17081618309020996,-0.16292478144168854,-0.15452687442302704,0.1660466343164444,0.10092660039663315,0.02260870486497879,-0.04834665358066559
