vladlanda/robotic-transformer/data/env_000_episode_0146.csv
sim_time_s,robot_box_x,robot_box_y,robot_box_z,robot_box_quat_w,robot_box_quat_x,robot_box_quat_y,robot_box_quat_z,robot_box_linvel_x,robot_box_linvel_y,robot_box_linvel_z,robot_box_angvel_x,robot_box_angvel_y,robot_box_angvel_z,cube_world_x,cube_world_y,cube_world_z,cube_quat_w,cube_quat_x,cube_quat_y,cube_quat_z,cube_linvel_x,cube_linvel_y,cube_linvel_z,cube_angvel_x,cube_angvel_y,cube_angvel_z,endpoint_world_x,endpoint_world_y,endpoint_world_z,endpoint_linvel_x,endpoint_linvel_y,endpoint_linvel_z,target_cube_world_x,target_cube_world_y,target_cube_world_z,gripper_actual_pos_rad_gp_leftgearjoint,gripper_actual_vel_rad_s_gp_leftgearjoint,gripper_actual_pos_rad_gp_rotatingjoint,gripper_actual_vel_rad_s_gp_rotatingjoint,motor_angle_rad_joint1,motor_angle_rad_joint2,motor_angle_rad_joint3,motor_angle_rad_joint4,motor_speed_rad_s_joint1,motor_speed_rad_s_joint2,motor_speed_rad_s_joint3,motor_speed_rad_s_joint4
0.0,0.0,0.0,0.0,1.0,0.0,0.0,0.0,0.0,0.0,0.0,0.0,0.0,0.0,-0.3314000964164734,0.716116189956665,0.41999998688697815,1.0,0.0,0.0,0.0,0.0,0.0,0.0,0.0,0.0,0.0,3.42540442943573e-06,-0.005000244826078415,1.313499927520752,0.0,0.0,0.0,0.3241214156150818,0.6867173910140991,0.42000001668930054,-1.5707999467849731,0.0,0.0,0.0,0.0,0.0,0.0,0.0,0.0,0.0,0.0,0.0
0.016666666666666666,0.002889439230784774,0.002125875325873494,0.0,0.9998640418052673,0.0,0.0,-0.01648763380944729,0.23965704441070557,0.17943556606769562,0.0,0.0,0.0,-3.1456665992736816,-0.33140021562576294,0.7161158919334412,0.41999998688697815,1.0,3.2799905511637917e-06,-8.339794135281409e-07,8.465515577427141e-08,-1.9833774786093272e-05,0.00017983047291636467,-6.132945418357849e-05,0.0009432245860807598,-0.004689525347203016,-0.00031981084612198174,-0.006992751732468605,0.004062563180923462,1.3159332275390625,-0.7950987815856934,1.043703556060791,0.17936600744724274,0.3241214156150818,0.6867173910140991,0.42000001668930054,-1.5301095247268677,3.000002861022949,-0.045866504311561584,-2.999999761581421,0.0008720667101442814,0.0007981220260262489,0.0007120628724806011,0.000612872070632875,0.11050116270780563,0.09706760942935944,0.08277136087417603,0.0675492137670517
0.03333333333333333,0.008898584172129631,0.006691153161227703,0.0,0.9998521208763123,0.0,0.0,-0.017196590080857277,0.4030289053916931,0.3132520914077759,0.0,0.0,0.0,0.8616790771484375,-0.3314003348350525,0.7161158323287964,0.4200000464916229,1.0,3.3908531804627273e-06,-2.132488134520827e-06,-3.710428941872124e-08,0.0002635785494931042,0.0002693783608265221,-0.00010509602725505829,-0.0017707846127450466,0.004130862653255463,-0.00013547409616876394,-0.026514582335948944,0.025323431938886642,1.316833734512329,-1.4784283638000488,1.5430188179016113,-0.04996013641357422,0.3241214156150818,0.6867173910140991,0.42000001668930054,-1.4800903797149658,3.0000014305114746,-0.09590627253055573,-3.0000007152557373,0.0029305608477443457,0.002586986869573593,0.002205653116106987,0.0017841228982433677,0.15904460847377777,0.13438767194747925,0.10824261605739594,0.08048620820045471
0.05,0.017562417313456535,0.013479153625667095,0.0,0.9994786977767944,0.0,0.0,-0.03228536620736122,0.5823448300361633,0.44993096590042114,0.0,0.0,0.0,-2.6416966915130615,-0.3314003646373749,0.7161158919334412,0.4200000464916229,1.0,3.7651284401363228e-06,-2.2118861124909017e-06,5.622759147172474e-09,0.00026530996547080576,0.00026691515813581645,-0.00010440382175147533,-0.00172425655182451,0.004177390597760677,-0.00012948956282343715,-0.05130093917250633,0.056830331683158875,1.313230037689209,-1.4880955219268799,2.1882948875427246,-0.3511146306991577,0.3241214156150818,0.6867173910140991,0.42000001668930054,-1.4300720691680908,3.0000016689300537,-0.14591994881629944,-3.0000009536743164,0.005081910640001297,0.004105171654373407,0.0030561673920601606,0.0019315339159220457,0.12980248034000397,0.07522276043891907,0.018783316016197205,-0.03966080769896507
0.06666666666666667,0.02975863218307495,0.022745801135897636,0.0,0.9972572326660156,0.0,0.0,-0.07401324063539505,0.7917013764381409,0.6009067893028259,0.0,0.0,0.0,-5.864128589630127,-0.3314003646373749,0.7161158323287964,0.4200000464916229,0.9999999403953552,3.406779342185473e-06,-2.285526988998754e-06,4.300881926155853e-07,0.00026702668401412666,0.00026791810523718596,-0.00010437914170324802,-0.0017406379338353872,0.004211799707263708,-0.00012850595521740615,-0.07736846804618835,0.09659790992736816,1.3052488565444946,-1.6220941543579102,2.54972505569458,-0.6082867383956909,0.3241214156150818,0.6867173910140991,0.42000001668930054,-1.3800499439239502,2.999997615814209,-0.11241376399993896,3.0,0.00680601317435503,0.004882221110165119,0.002857539802789688,0.0006962102488614619,0.09575968980789185,0.033376485109329224,-0.029929332435131073,-0.09764843434095383
0.08333333333333333,0.036119960248470306,0.03671564906835556,0.0,0.9951568245887756,0.0,0.0,-0.0983000174164772,0.24828007817268372,0.9289929866790771,0.0,0.0,0.0,-1.9081989526748657,-0.3314003646373749,0.7161158323287964,0.4200000464916229,1.0,3.6973510759708006e-06,-2.1889595700486097e-06,-2.632473012909031e-07,0.00026389595586806536,0.0002658632874954492,-0.0001043388620018959,-0.0017081330297514796,0.004150238819420338,-0.00012991279072593898,-0.10788006335496902,0.1357724666595459,1.2923108339309692,-1.8374444246292114,2.4032368659973145,-0.8565695285797119,0.3241214156150818,0.6867173910140991,0.42000001668930054,-1.330051064491272,2.999999523162842,-0.14440332353115082,-3.000000476837158,0.002258869120851159,-0.00029907107818871737,-0.0029950167518109083,-0.005915575195103884,-0.3759172260761261,-0.4171288013458252,-0.4602152705192566,-0.5076906681060791
0.1,0.047206029295921326,0.0470321960747242,0.0,0.9908467531204224,0.0,0.0,-0.13499152660369873,0.6922645568847656,0.5876269936561584,0.0,0.0,0.0,-4.9816179275512695,-0.3314003646373749,0.7161158323287964,0.4200000464916229,0.9999999403953552,3.62046125701454e-06,-2.2652770894637797e-06,1.745990232393524e-07,0.0002667673397809267,0.00026740715838968754,-0.0001040794886648655,-0.0017385382670909166,0.004209098871797323,-0.0001277524424949661,-0.13423646986484528,0.17943733930587769,1.2788033485412598,-1.3852746486663818,2.9896602630615234,-0.8477373123168945,0.3241214156150818,0.6867173910140991,0.42000001668930054,-1.2800403833389282,3.000001907348633,-0.1944066882133484,-3.0000014305114746,0.0018240069039165974,-0.0024042294826358557,-0.006752721033990383,-0.011336070485413074,-0.18717101216316223,-0.27888765931129456,-0.37059828639030457,-0.46340546011924744
0.11666666666666667,0.055592555552721024,0.058732375502586365,0.0,0.985384464263916,0.0,0.0,-0.1703449934720993,0.45781826972961426,0.7442838549613953,0.0,0.0,0.0,-4.007378101348877,-0.3314003646373749,0.7161158323287964,0.4200000464916229,1.0,3.7984573282301426e-06,-2.262856924062362e-06,-1.5021495869405044e-07,0.00026374036679044366,0.000265661277808249,-0.00010429229587316513,-0.001705389702692628,0.004147546831518412,-0.000129798921989277,-0.1625557392835617,0.2296667993068695,1.26169753074646,-1.8205170631408691,3.1862235069274902,-1.18479323387146,0.3241214156150818,0.6867173910140991,0.42000001668930054,-1.2334705591201782,2.5855884552001953,-0.16062980890274048,2.999999523162842,-0.001854624948464334,-0.007572337053716183,-0.013385887257754803,-0.019420817494392395,-0.2049282342195511,-0.2921048700809479,-0.37682420015335083,-0.45935267210006714
0.13333333333333333,0.06143554672598839,0.06859137862920761,0.0,0.9747742414474487,0.0,0.0,-0.2231932431459427,0.3060269057750702,0.5319263935089111,0.0,0.0,0.0,-7.342192649841309,-0.3314003646373749,0.7161158919334412,0.4200000464916229,0.9999999403953552,3.5505674986779923e-06,-2.2298811472865054e-06,2.928988749317796e-07,0.0002670325629878789,0.0002677947923075408,-0.00010417005978524685,-0.0017441295785829425,0.004213639069348574,-0.00012800269178114831,-0.18997904658317566,0.2864266037940979,1.2404451370239258,-1.4005951881408691,3.6844708919525146,-1.3774136304855347,0.3241214156150818,0.6867173910140991,0.42000001668930054,-1.1842823028564453,2.9999992847442627,-0.19236446917057037,-2.9999992847442627,-0.005486716981977224,-0.012834617868065834,-0.020220041275024414,-0.027767261490225792,-0.26652178168296814,-0.36301037669181824,-0.45582032203674316,-0.5446128249168396
0.15,0.06407336890697479,0.07765425741672516,0.0,0.9668208956718445,0.0,0.0,-0.2554551064968109,0.09665168076753616,0.5486224889755249,0.0,0.0,0.0,-2.8694474697113037,-0.3314003348350525,0.7161158323287964,0.4200000464916229,1.0,3.3323015031783143e-06,-2.102055532304803e-06,1.3129393039434945e-07,0.0002673060225788504,0.0002685941581148654,-0.00010459520854055882,-0.0017496503423899412,0.0042156013660132885,-0.00012928296928294003,-0.22037875652313232,0.3465597629547119,1.2096564769744873,-1.8210537433624268,3.812559127807617,-2.2520666122436523,0.3241214156150818,0.6867173910140991,0.42000001668930054,-1.1490353345870972,1.3452690839767456,-0.15857160091400146,3.000000238418579,-0.010995830409228802,-0.01958506554365158,-0.02814263291656971,-0.03678557649254799,-0.37648266553878784,-0.43011417984962463,-0.47979938983917236,-0.5250230431556702
0.16666666666666666,0.07161542773246765,0.08397188782691956,0.0,0.9535418748855591,0.0,0.0,-0.3012605309486389,0.5671493411064148,0.25958654284477234,0.0,0.0,0.0,-6.700993537902832,-0.3314003646373749,0.7161158323287964,0.4200000464916229,1.0,3.7373970371845644e-06,-2.2331828404276166e-06,-1.8766169773698493e-07,0.0002643293410073966,0.0002662685001268983,-0.00010445946827530861,-0.0017119462136179209,0.004157547373324633,-0.00013001658953726292,-0.24859604239463806,0.4135017693042755,1.1678760051727295,-1.438820481300354,4.242094993591309,-2.7739527225494385,0.3241214156150818,0.6867173910140991,0.42000001668930054,-1.103102445602417,3.000002384185791,-0.19032086431980133,-3.0000007152557373,-0.014471369795501232,-0.024115528911352158,-0.033656682819128036,-0.04320197179913521,-0.20623551309108734,-0.2598095238208771,-0.30979448556900024,-0.35551711916923523
0.18333333333333332,0.07420384138822556,0.09209062904119492,0.0,0.945220947265625,0.0,0.0,-0.3264312148094177,0.10399925708770752,0.5314826965332031,0.0,0.0,0.0,-1.933982253074646,-0.3314003646373749,0.7161158919334412,0.4200000464916229,0.9999999403953552,3.6603839816962136e-06,-2.3022842015052447e-06,2.5284006710535323e-07,0.00026690884260460734,0.0002676031144801527,-0.00010412419214844704,-0.0017413157038390636,0.004211471416056156,-0.00012786804290954024,-0.2764904499053955,0.4812811613082886,1.1109371185302734,-1.463834285736084,4.197671890258789,-3.8342249393463135,0.3241214156150818,0.6867173910140991,0.42000001668930054,-1.0569778680801392,2.536214590072632,-0.22642622888088226,-1.4418766498565674,-0.026583226397633553,-0.03578430786728859,-0.044879622757434845,-0.0539725199341774,-0.7261839509010315,-0.6941334009170532,-0.6613039970397949,-0.6273333430290222
0.2,0.0788494348526001,0.1018323302268982,0.0,0.9320873618125916,0.0,0.0,-0.3622334897518158,0.31512922048568726,0.6493974328041077,0.0,0.0,0.0,-5.457069396972656,-0.3314003646373749,0.7161158323287964,0.4200000464916229,1.0,3.5909681628254475e-06,-2.300425876455847e-06,1.3870655379832897e-07,0.0002665469073690474,0.0002673210692591965,-0.00010423827916383743,-0.0017325730295851827,0.004203351214528084,-0.00012819882249459624,-0.29969245195388794,0.5510507822036743,1.0389552116394043,-1.1359416246414185,4.1529221534729,-4.7361321449279785,0.3241214156150818,0.6867173910140991,0.42000001668930054,-1.0072659254074097,2.999999761581421,-0.2753666937351227,-2.9999983310699463,-0.03985130414366722,-0.048209287226200104,-0.05646894499659538,-0.06472989916801453,-0.8779222965240479,-0.8112783432006836,-0.7460014224052429,-0.6818854808807373
0.21666666666666667,0.08140458911657333,0.10941482335329056,0.0,0.9250252842903137,0.0,0.0,-0.3799055516719818,0.09137154370546341,0.3757363557815552,0.0,0.0,0.0,-1.22600519657135,-0.3314003646373749,0.7161158919334412,0.4200000464916229,1.0,3.6070816804567585e-06,-2.261013833049219e-06,1.9594006417378296e-08,0.0002644706692080945,0.000265584938460961,-0.00010396563448011875,-0.0017088844906538725,0.004164294805377722,-0.0001283210440305993,-0.3194979727268219,0.6125870943069458,0.9530118107795715,-0.9211547374725342,3.4151110649108887,-5.4951066970825195,0.3241214156150818,0.6867173910140991,0.42000001668930054,-0.9572568535804749,3.000000238418579,-0.32539454102516174,-2.9999992847442627,-0.05605144798755646,-0.06371133029460907,-0.07034092396497726,-0.07699388265609741,-0.9799025058746338,-0.9691585898399353,-0.8631364107131958,-0.7571033835411072
0.23333333333333334,0.07964421063661575,0.118507519364357,0.0,0.9130363464355469,0.0,0.0,-0.40787819027900696,-0.1819138377904892,0.5943973660469055,0.0,0.0,0.0,-4.427706718444824,-0.3314003348350525,0.7161158323287964,0.4200000464916229,0.9999999403953552,3.7423803860292537e-06,-2.2275726223597303e-06,4.588900992530398e-07,0.00026475079357624054,0.0002667132648639381,-0.00010453537106513977,-0.0017188824713230133,0.004165737424045801,-0.00013019502512179315,-0.33278101682662964,0.6648616790771484,0.854290246963501,-0.5856401920318604,2.7861533164978027,-6.1738457679748535,0.3241214156150818,0.6867173910140991,0.42000001668930054,-0.9072468876838684,2.9999985694885254,-0.3754247725009918,-3.000002861022949,-0.07196438312530518,-0.07969319820404053,-0.0863901898264885,-0.09301610291004181,-0.9885618090629578,-0.9860450029373169,-0.980725884437561,-0.9752165079116821
0.25,0.08171790093183517,0.12264804542064667,0.0,0.9080867171287537,0.0,0.0,-0.41878217458724976,0.10863588005304337,0.19000278413295746,0.0,0.0,0.0,-0.2428666353225708,-0.3314003646373749,0.7161158323287964,0.4200000464916229,1.0,3.394552777535864e-06,-2.2820759113528766e-06,1.3360092054881534e-07,0.0002667939115781337,0.00026794092264026403,-0.00010439474135637283,-0.0017418104689568281,0.004206564277410507,-0.00012883881572633982,-0.3455260097980499,0.702121376991272,0.7507073879241943,-0.6040850281715393,1.6553224325180054,-6.3202691078186035,0.3241214156150818,0.6867173910140991,0.42000001668930054,-0.8572366237640381,2.999993085861206,-0.4254564344882965,-3.000000238418579,-0.0858771800994873,-0.09352187067270279,-0.10012759268283844,-0.10651802271604538,-0.9884927868843079,-0.9856614470481873,-0.9836004376411438,-0.9397010207176208
0.26666666666666666,0.0782575011253357,0.13121868669986725,0.0,0.8978826999664307,0.0,0.0,-0.4402347803115845,-0.22025103867053986,0.5029898881912231,0.0,0.0,0.0,-3.613525629043579,-0.3314003646373749,0.7161158919334412,0.4200000464916229,1.0,3.683615432237275e-06,-2.3101263195712818e-06,2.1006846395721368e-07,0.00026479296502657235,0.0002662580809555948,-0.00010421290062367916,-0.0017168235499411821,0.004168986808508635,-0.0001290914515266195,-0.3500608205795288,0.7168325185775757,0.6432796716690063,-0.003932289779186249,0.3060619831085205,-6.257081031799316,0.3241214156150818,0.6867173910140991,0.42000001668930054,-0.8072275519371033,2.999992609024048,-0.475487619638443,-2.9999985694885254,-0.10355272889137268,-0.11091502010822296,-0.1173257827758789,-0.12357516586780548,-0.7445105314254761,-0.8003610372543335,-0.8518509268760681,-0.897116482257843
0.2833333333333333,0.07880561053752899,0.133962020277977,0.0,0.8949299454689026,0.0,0.0,-0.4462066888809204,0.0397070050239563,0.07951221615076065,0.0,0.0,0.0,0.05029734969139099,-0.3314003646373749,0.7161158323287964,0.4200000464916229,1.0,3.3071373763959855e-06,-2.2125616396806436e-06,2.625232013997447e-07,0.00026660869480110705,0.0002674512506928295,-0.00010424340143799782,-0.0017352959839627147,0.004204402677714825,-0.00012827638420276344,-0.35283052921295166,0.7173254489898682,0.5424255132675171,-0.031099610030651093,-0.4073270559310913,-5.859984874725342,0.3241214156150818,0.6867173910140991,0.42000001668930054,-0.7572187781333923,2.999990463256836,-0.5255175232887268,-3.0000007152557373,-0.11600223928689957,-0.12367644906044006,-0.13042208552360535,-0.13697902858257294,-0.9927659630775452,-0.9561942219734192,-0.9258235692977905,-0.8981167674064636
0.3,0.07612474262714386,0.13408434391021729,0.0,0.9040194153785706,0.0,0.0,-0.42749136686325073,-0.23453904688358307,-0.017891496419906616,0.0,0.0,0.0,3.3657195568084717,-0.3314003646373749,0.7161158323287964,0.4200000464916229,1.0,3.6565779737429693e-06,-2.2969809378992068e-06,-2.45018014766174e-07,0.00026533016352914274,0.00026595202507451177,-0.00010385061614215374,-0.0017164858290925622,0.004181961994618177,-0.00012745661661028862,-0.3542160391807556,0.7132869362831116,0.4502409100532532,0.03234967589378357,-0.25497910380363464,-5.027606964111328,0.3241214156150818,0.6867173910140991,0.42000001668930054,-0.7072110176086426,3.000000476837158,-0.5755451917648315,-3.000000238418579,-0.13357584178447723,-0.14106318354606628,-0.14767523109912872,-0.15413159132003784,-1.0252100229263306,-1.0191220045089722,-1.0144587755203247,-1.01071035861969
0.31666666666666665,0.06952541321516037,0.13249318301677704,0.0,0.9049807786941528,0.0,0.0,-0.42545241117477417,-0.4498300552368164,-0.131478413939476,0.0,0.0,0.0,-0.6776307225227356,-0.3330192267894745,0.7123231887817383,0.4211343824863434,0.9974063038825989,0.01216830126941204,-0.015823986381292343,-0.06915318965911865,0.026072222739458084,0.0011005745036527514,0.09664344787597656,1.9607255458831787,-2.9517481327056885,0.7639745473861694,-0.3510786294937134,0.711769700050354,0.4205983877182007,0.12322016060352325,-0.030244559049606323,-0.07178600132465363,0.3241214156150818,0.6867173910140991,0.42000001668930054,-0.6574076414108276,2.9874374866485596,-0.6260789036750793,-2.8538639545440674,-0.1439940333366394,-0.1514672338962555,-0.1579015851020813,-0.16396529972553253,-0.45627495646476746,-0.4085392951965332,-0.3445844352245331,-0.2601962983608246
0.3333333333333333,0.06083999201655388,0.1284203678369522,0.0,0.9119433164596558,0.0,0.0,-0.41031622886657715,-0.5120590925216675,-0.3170037865638733,0.0,0.0,0.0,2.8210606575012207,-0.3327094316482544,0.7123459577560425,0.421181857585907,0.9975529909133911,0.013997073285281658,-0.015931405127048492,-0.066620372235775,0.019138284027576447,0.004610924515873194,-0.025532789528369904,-0.30548298358917236,0.9402713179588318,0.06565369665622711,-0.35015082359313965,0.7177063226699829,0.4223581552505493,0.18749824166297913,0.5125252604484558,-0.1583476960659027,0.3241214156150818,0.6867173910140991,0.42000001668930054,-0.6074010133743286,2.9999818801879883,-0.6761173605918884,-2.999999761581421,-0.1517309695482254,-0.15791915357112885,-0.16282324492931366,-0.16703924536705017,-0.41240474581718445,-0.3306865990161896,-0.2360147088766098,-0.12345682829618454
0.35,0.050785236060619354,0.12151995301246643,0.0,0.9117006063461304,0.0,0.0,-0.4108552038669586,-0.6432797908782959,-0.45419546961784363,0.0,0.0,0.0,-1.033303141593933,-0.32982221245765686,0.7152295708656311,0.4200025200843811,0.9956102967262268,-6.487554855993949e-06,-0.0002066589950118214,-0.0935949757695198,0.2961825132369995,0.2944301962852478,-0.003880666336044669,-0.03373107314109802,0.24913683533668518,-4.742211818695068,-0.34472158551216125,0.7234141230583191,0.4203571677207947,0.3842567801475525,0.2656126916408539,0.03030996397137642,0.3241214156150818,0.6867173910140991,0.42000001668930054,-0.5573788285255432,2.9999964237213135,-0.7261427044868469,-2.9986143112182617,-0.15962424874305725,-0.16403432190418243,-0.16697470843791962,-0.1689639389514923,-0.47651785612106323,-0.3568178713321686,-0.22823384404182434,-0.0861431211233139
0.36666666666666664,0.03862307593226433,0.11234865337610245,0.0,0.9175252318382263,0.0,0.0,-0.39767757058143616,-0.7712298631668091,-0.5892724990844727,0.0,0.0,0.0,2.6642961502075195,-0.3226300776004791,0.7225231528282166,0.42018625140190125,0.9853243231773376,-0.004628786351531744,0.0006553310668095946,-0.17062857747077942,0.517332911491394,0.5222182869911194,0.025066770613193512,-1.2197213172912598,0.31748467683792114,-12.159945487976074,-0.3364495038986206,0.730816662311554,0.4207281768321991,0.6107083559036255,0.5680352449417114,0.03964834287762642,0.3241214156150818,0.6867173910140991,0.42000001668930054,-0.5073551535606384,2.9999053478240967,-0.7761598229408264,-2.9999783039093018,-0.16797403991222382,-0.17001427710056305,-0.1704353243112564,-0.16968953609466553,-0.46297869086265564,-0.315373033285141,-0.15868274867534637,0.010751280002295971
0.3833333333333333,0.029523199424147606,0.10053529590368271,0.0,0.9167918562889099,0.0,0.0,-0.3993653357028961,-0.4787990152835846,-0.7508633136749268,0.0,0.0,0.0,-1.1668751239776611,-0.3142567574977875,0.7309592366218567,0.42003872990608215,0.9692688584327698,-0.0009658525814302266,0.00022293398797046393,-0.24600186944007874,0.5938495993614197,0.5807161927223206,0.035852622240781784,-1.6252622604370117,0.7640157341957092,-5.013580322265625,-0.32402339577674866,0.7380825281143188,0.42222860455513,0.8875457048416138,0.3731672763824463,0.0920318141579628,0.3241214156150818,0.6867173910140991,0.42000001668930054,-0.4573025703430176,2.9999985694885254,-0.8261680006980896,-2.999999523162842,-0.17588818073272705,-0.175070658326149,-0.17243115603923798,-0.1683841198682785,-0.4494740068912506,-0.26555517315864563,-0.06900624930858612,0.1416391283273697
0.4,0.018162166699767113,0.08722452819347382,0.0,0.9033868312835693,0.0,0.0,-0.42882663011550903,-0.7548835277557373,-0.8249276280403137,0.0,0.0,0.0,-4.8263654708862305,-0.29766732454299927,0.7414949536323547,0.42144775390625,0.9559785723686218,-0.022013623267412186,-0.012484529986977577,-0.2923429608345032,1.5725544691085815,0.38655588030815125,0.16800005733966827,38.94662857055664,-14.815699577331543,8.414502143859863,-0.3038787841796875,0.7479368448257446,0.4242151379585266,1.537906289100647,0.7753920555114746,0.15037645399570465,0.3241214156150818,0.6867173910140991,0.42000001668930054,-0.4102339446544647,2.024388313293457,-0.8761839866638184,-2.9971184730529785,-0.18484196066856384,-0.18060606718063354,-0.1743049919605255,-0.16635139286518097,-0.5168978571891785,-0.31081411242485046,-0.09030196070671082,0.14415626227855682
0.4166666666666667,0.00978217925876379,0.0710422694683075,0.0,0.8758123517036438,0.0,0.0,-0.4826517403125763,-0.4498359262943268,-1.0183123350143433,0.0,0.0,0.0,-8.062891006469727,-0.2626921236515045,0.7573121786117554,0.42531299591064453,0.9358577728271484,-0.02014799602329731,-0.04572329297661781,-0.34881725907325745,3.0979182720184326,0.5301555395126343,0.2837302088737488,12.465081214904785,15.306037902832031,17.327253341674805,-0.26860880851745605,0.7637947797775269,0.42733627557754517,2.6683735847473145,1.198117971420288,0.42142605781555176,0.3241214156150818,0.6867173910140991,0.42000001668930054,-0.39082133769989014,0.8278965353965759,-0.9262063503265381,-2.9991915225982666,-0.19244955480098724,-0.1849358081817627,-0.17512120306491852,-0.16343839466571808,-0.4905523955821991,-0.2826574742794037,-0.06373068690299988,0.1640826165676117
0.43333333333333335,0.004190020263195038,0.05862848088145256,0.0,0.8314273953437805,0.0,0.0,-0.5556334257125854,-0.2578585147857666,-0.7416584491729736,0.0,0.0,0.0,-10.981201171875,-0.19240781664848328,0.7800161242485046,0.42915499210357666,0.910908043384552,0.016586676239967346,-0.09486842155456543,-0.401212215423584,5.444766044616699,1.2086478471755981,0.23626257479190826,19.27914810180664,-20.212162017822266,12.122121810913086,-0.19784358143806458,0.7872413396835327,0.4307457208633423,5.408115386962891,1.8414897918701172,0.23666998744010925,0.3241214156150818,0.6867173910140991,0.42000001668930054,-0.3731331527233124,1.1613115072250366,-0.8944848775863647,2.995098352432251,-0.20459188520908356,-0.1932983100414276,-0.17904454469680786,-0.16308672726154327,-0.5295512080192566,-0.4019329845905304,-0.186354860663414,0.013976161368191242
0.45,0.0024003623984754086,0.04883226752281189,0.0,0.7951550483703613,0.0,0.0,-0.6064061522483826,-0.054176971316337585,-0.5280551910400391,0.0,0.0,0.0,-6.36302375793457,-0.10347042977809906,0.8086177706718445,0.43621599674224854,0.8583608269691467,-0.019509993493556976,-0.15241986513137817,-0.48949381709098816,5.297840595245361,1.39613938331604,0.4286615252494812,-7.1092000007629395,3.1182687282562256,0.3165508210659027,-0.10919918119907379,0.8182355761528015,0.43767601251602173,5.425262451171875,1.6758900880813599,0.5527496933937073,0.3241214156150818,0.6867173910140991,0.42000001668930054,-0.35352829098701477,1.1986585855484009,-0.9203711152076721,-3.0000007152557373,-0.21176078915596008,-0.1991795301437378,-0.1825951635837555,-0.1646275520324707,-0.3229886591434479,-0.2820433974266052,-0.19802719354629517,-0.13535112142562866
0.4666666666666667,-0.0015975702553987503,0.043362438678741455,0.0,0.7794017791748047,0.0,0.0,-0.6265244483947754,-0.23007895052433014,-0.21161560714244843,0.0,0.0,0.0,-1.7010164260864258,-0.018351156264543533,0.8242652416229248,0.4467325210571289,0.7900227904319763,-0.019487988203763962,-0.14854858815670013,-0.5944891571998596,4.7924370765686035,-0.5645896196365356,0.7529845237731934,-11.654245376586914,-5.842388153076172,33.2414436340332,-0.02317747101187706,0.8357153534889221,0.4471642076969147,5.150868892669678,0.5934688448905945,0.7390097379684448,0.3241214156150818,0.6867173910140991,0.42000001668930054,-0.3367771506309509,0.701475977897644,-0.9703948497772217,-3.0000040531158447,-0.21990835666656494,-0.20568320155143738,-0.1870555430650711,-0.16749149560928345,-0.48450353741645813,-0.3827582895755768,-0.26729142665863037,-0.17635971307754517
0.48333333333333334,-0.0018026386387646198,0.03396565467119217,0.0,0.7561080455780029,0.0,0.0,-0.6544468402862549,-0.019626887515187263,-0.6080408096313477,0.0,0.0,0.0,-5.126927852630615,0.06179959699511528,0.8249966502189636,0.45385968685150146,0.7227413654327393,-0.04946338012814522,-0.1550130695104599,-0.6716912984848022,4.307433605194092,-1.09508216381073,0.6919979453086853,-12.267500877380371,12.968393325805664,7.02170991897583,0.05670639127492905,0.8378341197967529,0.45640888810157776,4.672459602355957,-0.39926162362098694,0.5602586269378662,0.3241214156150818,0.6867173910140991,0.42000001668930054,-0.32850152254104614,0.28734803199768066,-1.0204180479049683,-2.998303174972534,-0.2230318933725357,-0.20751766860485077,-0.18741917610168457,-0.16663601994514465,-0.2700968384742737,-0.14795519411563873,-0.02361636981368065,0.08559282124042511
0.5,-0.004516854416579008,0.030042871832847595,0.0,0.745289146900177,0.0,0.0,-0.6667413711547852,-0.1629544198513031,-0.1703430861234665,0.0,0.0,0.0,-0.6077941060066223,0.13138124346733093,0.8117825984954834,0.46072500944137573,0.6739088296890259,-0.06484080106019974,-0.1251731812953949,-0.7252407073974609,3.6030685901641846,-1.4265663623809814,0.36871427297592163,-3.145575761795044,5.611833095550537,12.116860389709473,0.12746278941631317,0.8246821165084839,0.46422165632247925,4.074531555175781,-1.040642261505127,0.35838383436203003,0.3241214156150818,0.6867173910140991,0.42000001668930054,-0.32221028208732605,0.49603793025016785,-1.0704401731491089,-2.9999680519104004,-0.2312449812889099,-0.21307311952114105,-0.19060072302818298,-0.16786551475524902,-0.33498167991638184,-0.23015062510967255,-0.14735636115074158,-0.08573927730321884
0.5166666666666666,-0.004266355186700821,0.02175046317279339,0.0,0.7271971106529236,0.0,0.0,-0.6864287257194519,0.028022170066833496,-0.5444337129592896,0.0,0.0,0.0,-4.0273237228393555,0.19191496074199677,0.7934386134147644,0.4612461030483246,0.6456500291824341,-0.08315369486808777,-0.10410206764936447,-0.7519204020500183,3.0974836349487305,-1.5487152338027954,0.07688431441783905,-2.3367972373962402,7.314785957336426,10.359758377075195,0.18958279490470886,0.8062335252761841,0.4658975303173065,3.5058364868164062,-1.3399193286895752,-0.05636438727378845,0.3241214156150818,0.6867173910140991,0.42000001668930054,-0.3095256984233856,0.8746967911720276,-1.1204622983932495,-2.9994940757751465,-0.2310430109500885,-0.2122192680835724,-0.1894453912973404,-0.1666082888841629,0.05185827240347862,0.08588162809610367,0.09435433149337769,0.09189703315496445
0.5333333333333333,-0.0021396977826952934,0.018279943615198135,0.0,0.7210626006126404,0.0,0.0,-0.6928699016571045,0.1652466356754303,-0.17291754484176636,0.0,0.0,0.0,-0.08552048355340958,0.242915540933609,0.7698760032653809,0.4576769769191742,0.5784960389137268,-0.10863950103521347,-0.07320725172758102,-0.8050965666770935,2.8690237998962402,-1.3490296602249146,-0.3007510006427765,9.045560836791992,-2.9191389083862305,-11.502782821655273,0.24025104939937592,0.7811449766159058,0.46295982599258423,2.734755754470825,-1.572785496711731,-0.3518679440021515,0.3241214156150818,0.6867173910140991,0.42000001668930054,-0.29295632243156433,1.2311457395553589,-1.1704844236373901,-3.00000262260437,-0.23239068686962128,-0.2128593772649765,-0.18996688723564148,-0.16727952659130096,0.14169053733348846,0.11079761385917664,0.046767380088567734,-0.026089202612638474
0.55,0.002596168778836727,0.010951547883450985,0.0,0.7058153748512268,0.0,0.0,-0.7083958387374878,0.3457300364971161,-0.46385523676872253,0.0,0.0,0.0,-3.387521266937256,0.28281375765800476,0.746921718120575,0.44702282547950745,0.555117130279541,-0.13705582916736603,-0.054621148854494095,-0.8185824751853943,1.9730839729309082,-1.926889419555664,-0.5092042684555054,5.124505043029785,11.473925590515137,9.763279914855957,0.2814217507839203,0.7579249143600464,0.4526136517524719,2.0866332054138184,-1.3761146068572998,-0.8019025325775146,0.3241214156150818,0.6867173910140991,0.42000001668930054,-0.2733720541000366,0.8284204006195068,-1.2133902311325073,-2.1833512783050537,-0.22611384093761444,-0.20819294452667236,-0.1874542087316513,-0.16698452830314636,0.3524612784385681,0.24409234523773193,0.09924689680337906,-0.050880398601293564
0.5666666666666667,0.005671845283359289,0.007699704263359308,0.0,0.7032458782196045,0.0,0.0,-0.7109466791152954,0.13427652418613434,-0.14686277508735657,0.0,0.0,0.0,0.45594289898872375,0.310954213142395,0.7221511006355286,0.4325333535671234,0.5411854386329651,-0.1404496133327484,-0.055421385914087296,-0.8272367119789124,1.3142868280410767,-1.8146768808364868,-0.7794166207313538,3.459317207336426,4.157175064086914,6.6718244552612305,0.3093365430831909,0.732513427734375,0.4383639991283417,1.3297250270843506,-1.5073881149291992,-0.9668788909912109,0.3241214156150818,0.6867173910140991,0.42000001668930054,-0.26447001099586487,0.32396775484085083,-1.1884260177612305,2.9999022483825684,-0.22191493213176727,-0.20575639605522156,-0.18741659820079803,-0.1694500893354416,0.3380931317806244,0.19578753411769867,0.017799878492951393,-0.1627352237701416
0.5833333333333334,0.00979346502572298,0.0027135091368108988,0.0,0.6905393004417419,0.0,0.0,-0.7232948541641235,0.27438709139823914,-0.30005213618278503,0.0,0.0,0.0,-3.0172321796417236,0.3247879445552826,0.7090018391609192,0.4264577627182007,0.5513913631439209,-0.12095963209867477,-0.016456004232168198,-0.8252668380737305,0.3650100827217102,-0.5409900546073914,0.15024392306804657,6.80570125579834,1.9843894243240356,4.102813243865967,0.32231903076171875,0.7174390554428101,0.43132585287094116,0.30964982509613037,-0.5032635927200317,0.09515847265720367,0.3241214156150818,0.6867173910140991,0.42000001668930054,-0.2552639842033386,0.6818675994873047,-1.2096781730651855,-3.0000903606414795,-0.2115035504102707,-0.19906827807426453,-0.18482694029808044,-0.1707647144794464,0.6035184264183044,0.3786120116710663,0.13437461853027344,-0.09583347290754318
0.6,0.011808110401034355,0.0004647118039429188,0.0,0.6905094981193542,0.0,0.0,-0.7233232855796814,0.06940840184688568,-0.07553046196699142,0.0,0.0,0.0,0.7843307256698608,0.3288131654262543,0.6997947692871094,0.4250245690345764,0.5663319826126099,-0.09909041970968246,-0.008613457903265953,-0.818153440952301,0.10687563568353653,-0.6381868124008179,0.007198013365268707,2.1278021335601807,1.1814407110214233,4.9548749923706055,0.3255547881126404,0.7076953649520874,0.4299808740615845,0.0577436201274395,-0.503271222114563,-0.09825696051120758,0.3241214156150818,0.6867173910140991,0.42000001668930054,-0.25622767210006714,-0.5931416153907776,-1.1717618703842163,3.000000238418579,-0.2020696997642517,-0.19330325722694397,-0.18298815190792084,-0.17258641123771667,0.579017698764801,0.35745546221733093,0.1233353316783905,-0.09330707788467407
0.6166666666666667,0.014868182130157948,-0.004056298639625311,0.0,0.6801889538764954,0.0,0.0,-0.7330368161201477,0.2312062382698059,-0.33038100600242615,0.0,0.0,0.0,-2.5049145221710205,0.32821306586265564,0.695129930973053,0.4249962568283081,0.5884659290313721,-0.09536440670490265,0.0028331843204796314,-0.8028731942176819,-0.08607889711856842,-0.3029182255268097,-0.028543852269649506,3.7428226470947266,1.4187290668487549,10.427148818969727,0.3247677683830261,0.7041030526161194,0.430301308631897,-0.16975204646587372,-0.10988081246614456,0.08719470351934433,0.3241214156150818,0.6867173910140991,0.42000001668930054,-0.26869478821754456,-1.0871472358703613,-1.1931560039520264,-3.000182628631592,-0.19150644540786743,-0.1865725815296173,-0.18023090064525604,-0.17346829175949097,0.5577118992805481,0.35221171379089355,0.13775506615638733,-0.05933404341340065
0.6333333333333333,0.02046111971139908,-0.0056609041057527065,0.0,0.6822110414505005,0.0,0.0,-0.731155276298523,0.3671118915081024,-0.054983172565698624,0.0,0.0,0.0,1.1637382507324219,0.32593441009521484,0.6909072995185852,0.42378902435302734,0.6190499067306519,-0.06933055818080902,0.009940912947058678,-0.7822221517562866,-0.15378603339195251,-0.27021971344947815,-0.12550537288188934,3.9255518913269043,-3.7699711322784424,3.6919872760772705,0.32247599959373474,0.7017889022827148,0.43075332045555115,-0.16622759401798248,-0.07381481677293777,-0.00752873532474041,0.3241214156150818,0.6867173910140991,0.42000001668930054,-0.30535900592803955,-2.9996094703674316,-1.2080456018447876,0.8833113312721252,-0.1843879371881485,-0.18238814175128937,-0.17909185588359833,-0.17509843409061432,0.45282548666000366,0.27862095832824707,0.10062252730131149,-0.05985355004668236
0.65,0.027394186705350876,-0.004242829978466034,0.0,0.7017807364463806,0.0,0.0,-0.7123929858207703,0.47618597745895386,0.1438537985086441,0.0,0.0,0.0,4.357574462890625,0.32356125116348267,0.6880581378936768,0.4211621880531311,0.6263605356216431,-0.02004859782755375,0.005035539157688618,-0.7792592644691467,-0.14004158973693848,-0.0980977937579155,-0.13266846537590027,1.1993261575698853,-5.162853240966797,-1.0473483800888062,0.3197863698005676,0.702533483505249,0.432463675737381,-0.1587122529745102,0.12346167862415314,0.14348925650119781,0.3241214156150818,0.6867173910140991,0.42000001668930054,-0.3553641736507416,-3.000006914138794,-1.2455066442489624,-2.998525381088257,-0.1772644817829132,-0.1780388355255127,-0.1774991899728775,-0.17593228816986084,0.4122250974178314,0.26111114025115967,0.11164340376853943,-0.01952768862247467
0.6666666666666666,0.03222327679395676,-0.00738849863409996,0.0,0.7103924751281738,0.0,0.0,-0.7038057446479797,0.22788836061954498,-0.1523045003414154,0.0,0.0,0.0,0.395577073097229,0.3223456144332886,0.6873869299888611,0.42000001668930054,0.6216622591018677,-1.4860407645755913e-05,5.66671246815531e-07,-0.7832854390144348,-0.02208940126001835,-0.013795837759971619,-0.0005212454125285149,-0.004132616799324751,-0.0123193534091115,-0.8001406788825989,0.3181050419807434,0.7059277296066284,0.4359477162361145,-0.0568571574985981,0.022701002657413483,0.22731336951255798,0.3241214156150818,0.6867173910140991,0.42000001668930054,-0.405391126871109,-3.000035285949707,-1.2954821586608887,-2.998239278793335,-0.16647334396839142,-0.16982021927833557,-0.17172229290008545,-0.1722153276205063,0.3916845917701721,0.32022300362586975,0.25542768836021423,0.20849992334842682
0.6833333333333333,0.038304686546325684,-0.013195376843214035,0.0,0.6982088685035706,0.0,0.0,-0.7158941030502319,0.3656976521015167,-0.37599316239356995,0.0,0.0,0.0,-2.8196496963500977,0.3223370611667633,0.687382161617279,0.4200000762939453,0.6215435266494751,-5.378167770686559e-06,-2.3908517050585942e-06,-0.7833796143531799,-0.00011416850611567497,-0.0004043608205392957,-0.0001629963517189026,0.007581897079944611,0.0002549008058849722,0.00029038081993348897,0.32030898332595825,0.7061069011688232,0.44117799401283264,0.23727922141551971,-0.041538819670677185,0.5297046899795532,0.3241214156150818,0.6867173910140991,0.42000001668930054,-0.45540428161621094,-2.999997138977051,-1.3455005884170532,-3.000000238418579,-0.16154800355434418,-0.16540592908859253,-0.1676500141620636,-0.16817262768745422,0.1461590826511383,0.1680554300546646,0.20105522871017456,0.2510771155357361
0.7,0.047163765877485275,-0.014347348362207413,0.0,0.6654044389724731,0.0,0.0,-0.7464830279350281,0.5044857263565063,-0.021391160786151886,0.0,0.0,0.0,-6.152687072753906,0.3223366439342499,0.6873822212219238,0.42000001668930054,0.621543824672699,-2.49193681156612e-06,-4.537107997748535e-06,-0.7833793759346008,9.317602962255478e-05,-0.00037123908987268806,-0.00010103103704750538,0.008361700922250748,-0.002294025383889675,-0.0004539928922895342,0.3303115963935852,0.7032245397567749,0.45774322748184204,1.0433282852172852,-0.12023916095495224,1.5403978824615479,0.3241214156150818,0.6867173910140991,0.42000001668930054,-0.5054168701171875,-2.999999761581421,-1.3955188989639282,-3.0000007152557373,-0.1663132607936859,-0.1684827357530594,-0.16891545057296753,-0.1674596071243286,-0.2141513228416443,-0.13479186594486237,-0.043489500880241394,0.06163034215569496
0.7166666666666667,0.05729573220014572,-0.011988609097898006,0.0,0.6469568014144897,0.0,0.0,-0.7625266313552856,0.6623548865318298,0.1417897641658783,0.0,0.0,0.0,-1.8458738327026367,0.3223366439342499,0.6873822212219238,0.42000001668930054,0.6215437650680542,-2.211890887338086e-06,-4.732788511319086e-06,-0.7833793759346008,9.04459593584761e-05,-0.000368316046660766,-0.00010123010724782944,0.008276731707155704,-0.0022943210788071156,-0.0004460618656594306,0.3479214906692505,0.7058361172676086,0.4868928790092468,1.095822811126709,0.36486825346946716,1.9224839210510254,0.3241214156150818,0.6867173910140991,0.42000001668930054,-0.5280189514160156,0.044167131185531616,-1.4455372095108032,-3.000000238418579,-0.16952621936798096,-0.1710256040096283,-0.170628160238266,-0.16815747320652008,-0.06521469354629517,-0.07945369929075241,-0.08512555807828903,-0.08037881553173065
0.7333333333333333,0.0647859275341034,-0.009854315780103207,0.0,0.6531665921211243,0.0,0.0,-0.7572141885757446,0.3798862099647522,0.2030276656150818,0.0,0.0,0.0,1.8523081541061401,0.3223366439342499,0.6873822212219238,0.42000001668930054,0.6215438842773438,-2.208173327744589e-06,-4.579897449730197e-06,-0.7833793759346008,9.117263834923506e-05,-0.00036858743987977505,-0.00010106759145855904,0.008285672403872013,-0.0022886935621500015,-0.000447817612439394,0.3656669855117798,0.712539553642273,0.5122063159942627,0.9461490511894226,0.3958609104156494,1.1793090105056763,0.3241214156150818,0.6867173910140991,0.42000001668930054,-0.5073434710502625,2.2290167808532715,-1.4069619178771973,2.999998092651367,-0.16823333501815796,-0.17012466490268707,-0.17001917958259583,-0.16772301495075226,0.1011476144194603,0.08455932140350342,0.0697755441069603,0.056970562785863876
0.75,0.06802543252706528,-0.011994431726634502,0.0,0.648244321346283,0.0,0.0,-0.761432409286499,0.18711408972740173,-0.15213027596473694,0.0,0.0,0.0,-1.5470397472381592,0.3223366439342499,0.6873822212219238,0.42000001668930054,0.6215436458587646,-2.213942252637935e-06,-4.555411123874364e-06,-0.7833795547485352,8.970117778517306e-05,-0.000367881846614182,-0.00010137725621461868,0.008263427764177322,-0.0023012931924313307,-0.00044411493581719697,0.37516599893569946,0.7193250060081482,0.5262433290481567,0.14903129637241364,0.24441921710968018,0.6458353996276855,0.3241214156150818,0.6867173910140991,0.42000001668930054,-0.4837585687637329,0.7139335870742798,-1.3569092750549316,2.9999990463256836,-0.16320326924324036,-0.16570647060871124,-0.16623330116271973,-0.16458581387996674,0.11582750082015991,0.129990816116333,0.13537833094596863,0.13053643703460693
0.7666666666666666,0.06843318045139313,-0.008845925331115723,0.0,0.6555877327919006,0.0,0.0,-0.7551190257072449,-0.007276322692632675,0.20501357316970825,0.0,0.0,0.0,1.8927429914474487,0.3223366439342499,0.6873822212219238,0.42000001668930054,0.6215436458587646,-2.2268700377026107e-06,-4.530975729721831e-06,-0.7833794951438904,9.049478103406727e-05,-0.0003678823122754693,-0.00010115373879671097,0.008264724165201187,-0.0022920225746929646,-0.000445883342763409,0.375134140253067,0.7217015027999878,0.5335286855697632,-0.045410335063934326,0.1900588572025299,0.2350190281867981,0.3241214156150818,0.6867173910140991,0.42000001668930054,-0.46631884574890137,1.3148229122161865,-1.3757978677749634,-3.000000476837158,-0.16580136120319366,-0.1671043187379837,-0.16669636964797974,-0.1644335389137268,-0.04108261689543724,5.0175003707408905e-08,0.02915831096470356,0.038935586810112
0.7833333333333333,0.06687133014202118,-0.009884216822683811,0.0,0.6505075097084045,0.0,0.0,-0.7594998478889465,-0.18652617931365967,-0.03917182981967926,0.0,0.0,0.0,-1.4795912504196167,0.3223366439342499,0.6873822212219238,0.42000001668930054,0.6215436458587646,-2.208422984040226e-06,-4.699018063547555e-06,-0.7833794355392456,9.099879389395937e-05,-0.0003681817324832082,-0.00010107248090207577,0.008273521438241005,-0.00228842138312757,-0.00044713463285006583,0.36872321367263794,0.7243089079856873,0.5310348272323608,-0.7919896841049194,0.08214305341243744,-0.34435129165649414,0.3241214156150818,0.6867173910140991,0.42000001668930054,-0.4630943238735199,-0.7543909549713135,-1.3374208211898804,3.000000238418579,-0.16470009088516235,-0.1655850112438202,-0.16497331857681274,-0.16282817721366882,-0.07714217901229858,-0.020254790782928467,0.01984289474785328,0.03646476939320564
0.8,0.06666439026594162,-0.011466334573924541,0.0,0.6576731204986572,0.0,0.0,-0.7533034682273865,0.04138820990920067,-0.21525897085666656,0.0,0.0,0.0,1.8472830057144165,0.3223366439342499,0.6873822212219238,0.42000001668930054,0.6215440034866333,-2.2228700800042134e-06,-4.7759758672327735e-06,-0.7833792567253113,9.041759767569602e-05,-0.0003682164824567735,-0.00010119657963514328,0.008274609223008156,-0.0022932621650397778,-0.0004459029296413064,0.3573664724826813,0.7244927883148193,0.5249255895614624,-0.5618044137954712,-0.007350867614150047,-0.34905993938446045,0.3241214156150818,0.6867173910140991,0.42000001668930054,-0.4821602404117584,-1.4563857316970825,-1.3566616773605347,-3.000001907348633,-0.1675957590341568,-0.16701164841651917,-0.16515813767910004,-0.1621149182319641,-0.1434115320444107,-0.053299933671951294,0.02749595232307911,0.09255512058734894
0.8166666666666667,0.06903564184904099,-0.016650231555104256,0.0,0.6525156497955322,0.0,0.0,-0.7577752470970154,0.18466883897781372,-0.3751471936702728,0.0,0.0,0.0,-1.6834115982055664,0.3223366439342499,0.6873822212219238,0.42000001668930054,0.6215438842773438,-2.3255649921338772e-06,-4.357082161732251e-06,-0.783379316329956,8.737015741644427e-05,-0.0003676175547298044,-0.00010195747017860413,0.008252681232988834,-0.0023239385336637497,-0.0004389849491417408,0.351491779088974,0.7218767404556274,0.5142486095428467,-0.15240001678466797,-0.27856218814849854,-0.7262399196624756,0.3241214156150818,0.6867173910140991,0.42000001668930054,-0.5258209705352783,-3.0000009536743164,-1.4066799879074097,-2.999999761581421,-0.170992910861969,-0.16855710744857788,-0.16489998996257782,-0.1602117270231247,-0.19095994532108307,-0.06703145802021027,0.058527130633592606,0.17928968369960785
0.8333333333333334,0.0743800699710846,-0.022002290934324265,0.0,0.6258832812309265,0.0,0.0,-0.7799167633056641,0.36836859583854675,-0.3387219309806824,0.0,0.0,0.0,-5.1015238761901855,0.3223366439342499,0.6873822212219238,0.42000001668930054,0.6215437650680542,-2.203019221269642e-06,-4.503393029153813e-06,-0.7833793759346008,9.030572982737795e-05,-0.0003678041393868625,-0.00010119052603840828,0.008262177929282188,-0.002293001627549529,-0.0004453900910448283,0.35286736488342285,0.7142047882080078,0.5073038935661316,0.3622681796550751,-0.5682772397994995,0.027025029063224792,0.3241214156150818,0.6867173910140991,0.42000001668930054,-0.5758316516876221,-2.999960422515869,-1.4566982984542847,-2.9999992847442627,-0.17708885669708252,-0.17228929698467255,-0.16623586416244507,-0.15922462940216064,-0.38408163189888,-0.2479286938905716,-0.10863133519887924,0.02819993905723095
0.85,0.08238805085420609,-0.02382660284638405,0.0,0.6134843826293945,0.0,0.0,-0.789706826210022,0.48160606622695923,-0.1219201609492302,0.0,0.0,0.0,-0.709045946598053,0.3223366439342499,0.6873822212219238,0.42000001668930054,0.6215439438819885,-2.199288246629294e-06,-4.56898260381422e-06,-0.7833791971206665,9.082183532882482e-05,-0.0003684797266032547,-0.00010113324970006943,0.008282076567411423,-0.002289764815941453,-0.00044687066110782325,0.35760509967803955,0.7106509208679199,0.5131063461303711,0.28222769498825073,0.1225598007440567,0.5977940559387207,0.3241214156150818,0.6867173910140991,0.42000001668930054,-0.5957980751991272,0.33289992809295654,-1.5067166090011597,-3.000000238418579,-0.18288969993591309,-0.1768624484539032,-0.16956205666065216,-0.1613485962152481,-0.09879080951213837,-0.1244121640920639,-0.1464449167251587,-0.16612032055854797
0.8666666666666667,0.08739672601222992,-0.023926641792058945,0.0,0.6257745027542114,0.0,0.0,-0.7800040245056152,0.2405432015657425,0.04248877614736557,0.0,0.0,0.0,2.6971282958984375,0.3223366439342499,0.6873822212219238,0.42000001668930054,0.6215439438819885,-2.210556658610585e-06,-4.770070518134162e-06,-0.783379316329956,9.051552478922531e-05,-0.0003683170070871711,-0.0001012065913528204,0.008276963606476784,-0.0022931210696697235,-0.00044618197716772556,0.36482590436935425,0.7136551141738892,0.517571210861206,0.4896419942378998,0.19996601343154907,-0.01044224202632904,0.3241214156150818,0.6867173910140991,0.42000001668930054,-0.5745531916618347,2.048309564590454,-1.4679664373397827,2.999999523162842,-0.1829777956008911,-0.17761807143688202,-0.17090573906898499,-0.163214772939682,0.05637923255562782,0.01171794906258583,-0.029456516727805138,-0.06742159277200699
0.8833333333333333,0.0885184034705162,-0.02847193367779255,0.0,0.6256110668182373,0.0,0.0,-0.7801351547241211,0.09222716838121414,-0.3204575181007385,0.0,0.0,0.0,-0.8139853477478027,0.3223366439342499,0.6873822212219238,0.42000001668930054,0.621543824672699,-2.3132126898417482e-06,-4.351074949227041e-06,-0.7833793759346008,8.737095049582422e-05,-0.0003676219785120338,-0.00010195700451731682,0.008252852596342564,-0.002323839580640197,-0.0004389857640489936,0.3690582513809204,0.7159286737442017,0.5138483047485352,0.01345212571322918,-0.028243858367204666,-0.29699039459228516,0.3241214156150818,0.6867173910140991,0.42000001668930054,-0.5676182508468628,-0.9602075815200806,-1.417913794517517,2.999999523162842,-0.1784798502922058,-0.17435769736766815,-0.16883139312267303,-0.16225768625736237,0.14844995737075806,0.10734394937753677,0.06424760818481445,0.01989145763218403
0.9,0.08780138939619064,-0.028263408690690994,0.0,0.6374292969703674,0.0,0.0,-0.770508885383606,-0.1192731112241745,0.0003017867566086352,0.0,0.0,0.0,2.4730217456817627,0.3223366439342499,0.6873822212219238,0.42000001668930054,0.6215437054634094,-2.2282370082393754e-06,-4.494836502999533e-06,-0.7833794355392456,9.038449206855148e-05,-0.0003678076318465173,-0.00010117026977241039,0.00826248712837696,-0.00229259324260056,-0.0004455861053429544,0.3710186183452606,0.7137905359268188,0.5086224675178528,0.2657596170902252,-0.0462874136865139,-0.3474257290363312,0.3241214156150818,0.6867173910140991,0.42000001668930054,-0.5837250351905823,-0.9588304162025452,-1.4356932640075684,-3.000000238418579,-0.18039895594120026,-0.17597974836826324,-0.17021511495113373,-0.16347117722034454,0.06340649724006653,0.041007526218891144,0.02271587774157524,0.00875585712492466
