vladlanda/robotic-transformer/data/env_000_episode_0059.csv
sim_time_s,robot_box_x,robot_box_y,robot_box_z,robot_box_quat_w,robot_box_quat_x,robot_box_quat_y,robot_box_quat_z,robot_box_linvel_x,robot_box_linvel_y,robot_box_linvel_z,robot_box_angvel_x,robot_box_angvel_y,robot_box_angvel_z,cube_world_x,cube_world_y,cube_world_z,cube_quat_w,cube_quat_x,cube_quat_y,cube_quat_z,cube_linvel_x,cube_linvel_y,cube_linvel_z,cube_angvel_x,cube_angvel_y,cube_angvel_z,endpoint_world_x,endpoint_world_y,endpoint_world_z,endpoint_linvel_x,endpoint_linvel_y,endpoint_linvel_z,target_cube_world_x,target_cube_world_y,target_cube_world_z,gripper_actual_pos_rad_gp_leftgearjoint,gripper_actual_vel_rad_s_gp_leftgearjoint,gripper_actual_pos_rad_gp_rotatingjoint,gripper_actual_vel_rad_s_gp_rotatingjoint,motor_angle_rad_joint1,motor_angle_rad_joint2,motor_angle_rad_joint3,motor_angle_rad_joint4,motor_speed_rad_s_joint1,motor_speed_rad_s_joint2,motor_speed_rad_s_joint3,motor_speed_rad_s_joint4
0.0,0.0,0.0,0.0,1.0,0.0,0.0,0.0,0.0,0.0,0.0,0.0,0.0,0.0,-0.4045398235321045,0.6975181698799133,0.41999998688697815,1.0,0.0,0.0,0.0,0.0,0.0,0.0,0.0,0.0,0.0,3.42540442943573e-06,-0.005000244826078415,1.313499927520752,0.0,0.0,0.0,0.339018851518631,0.7359722256660461,0.42000001668930054,-1.5707999467849731,0.0,0.0,0.0,0.0,0.0,0.0,0.0,0.0,0.0,0.0,0.0
0.016666666666666666,0.0028778850100934505,0.0021806680597364902,0.0,0.9998081922531128,0.0,0.0,0.019586581736803055,0.24087215960025787,0.18240931630134583,0.0,0.0,0.0,3.1418697834014893,-0.40453994274139404,0.6975178718566895,0.41999998688697815,1.0,3.279964630564791e-06,-8.339746386809566e-07,8.465587342243452e-08,-1.9833529222523794e-05,0.00017983045836444944,-6.132945418357849e-05,0.0009432713268324733,-0.004689474124461412,-0.00031981561915017664,-0.007110234349966049,0.003379564033821225,1.3159373998641968,-0.8143353462219238,0.9868683815002441,0.18095196783542633,0.339018851518631,0.7359722256660461,0.42000001668930054,-1.5301095247268677,3.0000011920928955,-0.04584788903594017,-2.9999992847442627,0.0008691533003002405,0.0007963840034790337,0.0007110277656465769,0.0006108740926720202,0.11094217747449875,0.09756709635257721,0.08334315568208694,0.06823883205652237
0.03333333333333333,0.008960986509919167,0.006801961921155453,0.0,0.9997960329055786,0.0,0.0,0.020196840167045593,0.4070219099521637,0.3153083622455597,0.0,0.0,0.0,-0.869131326675415,-0.4045400619506836,0.6975178122520447,0.4200000464916229,1.0,3.3908354453160428e-06,-2.1324485715012997e-06,-3.710144014235084e-08,0.00026357831666246057,0.00026937946677207947,-0.00010509486310184002,-0.0017707672668620944,0.004130808170884848,-0.000135478752781637,-0.02755163609981537,0.026145514100790024,1.3166043758392334,-1.5914565324783325,1.615799903869629,-0.08397158235311508,0.339018851518631,0.7359722256660461,0.42000001668930054,-1.4800904989242554,2.999997854232788,-0.09588770568370819,-3.0,0.0029901242814958096,0.0026527405716478825,0.002277315827086568,0.0018607774982228875,0.16421838104724884,0.1397624909877777,0.11382190883159637,0.08630441874265671
0.05,0.017283614724874496,0.013695290312170982,0.0,0.9996083974838257,0.0,0.0,0.027982281520962715,0.5559684038162231,0.45357903838157654,0.0,0.0,0.0,1.7958869934082031,-0.404540091753006,0.6975178718566895,0.4200000464916229,1.0,3.765139354072744e-06,-2.2119161258160602e-06,5.630195420991413e-09,0.0002653095289133489,0.00026691411039792,-0.00010440382175147533,-0.0017242460744455457,0.004177400842308998,-0.00012949357915204018,-0.059218812733888626,0.054698824882507324,1.311457633972168,-2.1628689765930176,1.7953461408615112,-0.48992136120796204,0.339018851518631,0.7359722256660461,0.42000001668930054,-1.4300721883773804,2.9999985694885254,-0.1459263563156128,-3.0000014305114746,0.005530878435820341,0.004747202154248953,0.0038914731703698635,0.002959050703793764,0.17898885905742645,0.14264342188835144,0.10443926602602005,0.06426933407783508
0.06666666666666667,0.0281472560018301,0.022763798013329506,0.0,0.9998129606246948,0.0,0.0,0.019339805468916893,0.7044417858123779,0.580061674118042,0.0,0.0,0.0,-1.948703646659851,-0.404540091753006,0.6975178122520447,0.4200000464916229,0.9999999403953552,3.4067325032083318e-06,-2.285616346853203e-06,4.301086846680846e-07,0.0002670263056643307,0.0002679172612261027,-0.00010437914170324802,-0.0017406872939318419,0.004211808554828167,-0.0001285045873373747,-0.0953749492764473,0.09007705003023148,1.299483299255371,-2.2132210731506348,2.3273673057556152,-0.9220377802848816,0.339018851518631,0.7359722256660461,0.42000001668930054,-1.3800538778305054,2.999997615814209,-0.19594049453735352,-3.000000476837158,0.007807119749486446,0.006272445432841778,0.004627272021025419,0.002865107962861657,0.12871362268924713,0.07097365707159042,0.011212891899049282,-0.05062788724899292
0.08333333333333333,0.04248585179448128,0.03406118229031563,0.0,0.9998586773872375,0.0,0.0,-0.0168107058852911,0.9279232025146484,0.7208019495010376,0.0,0.0,0.0,-5.189023494720459,-0.404540091753006,0.6975178122520447,0.4200000464916229,0.9999999403953552,3.626018951763399e-06,-2.335360477445647e-06,3.0324326871777885e-07,0.00026613904628902674,0.00026685016928240657,-0.00010405411012470722,-0.0017283597262576222,0.004196425899863243,-0.00012790990876965225,-0.13138645887374878,0.1327584981918335,1.2822864055633545,-2.1210553646087646,2.6974937915802,-1.1486473083496094,0.339018851518631,0.7359722256660461,0.42000001668930054,-1.3300272226333618,2.9999945163726807,-0.16217412054538727,2.9999992847442627,0.009183375164866447,0.0065842196345329285,0.00383406481705606,0.0009269580477848649,0.05729129537940025,-0.014435078017413616,-0.08824920654296875,-0.16410118341445923
0.1,0.05105336010456085,0.04947090893983841,0.0,0.9993630051612854,0.0,0.0,-0.0356864407658577,0.3765748143196106,1.0060888528823853,0.0,0.0,0.0,-1.2241227626800537,-0.404540091753006,0.6975178122520447,0.4200000464916229,1.0,3.422117288209847e-06,-2.3086265628080582e-06,1.7964211451726442e-07,0.0002668147499207407,0.0002680043689906597,-0.00010440591722726822,-0.0017430688021704555,0.004207088612020016,-0.0001289069332415238,-0.16901575028896332,0.1729872226715088,1.2615442276000977,-2.2018048763275146,2.4331436157226562,-1.2727830410003662,0.339018851518631,0.7359722256660461,0.42000001668930054,-1.2800308465957642,3.0000014305114746,-0.19385839998722076,-3.0,0.0036077878903597593,0.0002192269021179527,-0.003371960250660777,-0.007174340076744556,-0.4594910442829132,-0.5098147392272949,-0.5626732707023621,-0.6182602643966675
0.11666666666666667,0.054902393370866776,0.06506092101335526,0.0,0.9977867007255554,0.0,0.0,-0.06649556010961533,0.23279711604118347,0.9539533853530884,0.0,0.0,0.0,-4.42549991607666,-0.404540091753006,0.6975178718566895,0.4200000464916229,1.0,3.711538511197432e-06,-2.332751819267287e-06,2.574376765096531e-07,0.00026485807029530406,0.0002663535997271538,-0.00010423525236546993,-0.001718185725621879,0.004170059692114592,-0.00012915738625451922,-0.20351602137088776,0.2170812487602234,1.2407885789871216,-1.9344439506530762,2.9247841835021973,-1.2357616424560547,0.339018851518631,0.7359722256660461,0.42000001668930054,-1.2300201654434204,2.999999523162842,-0.24387796223163605,-3.0000011920928955,-0.003661962691694498,-0.008334414102137089,-0.013212827034294605,-0.018307577818632126,-0.3626055121421814,-0.462717205286026,-0.5610612034797668,-0.6576250791549683
0.13333333333333333,0.0674377903342247,0.07794859260320663,0.0,0.9955275058746338,0.0,0.0,-0.09447214752435684,0.7211889624595642,0.7770786285400391,0.0,0.0,0.0,-2.6761581897735596,-0.404540091753006,0.6975178122520447,0.4200000464916229,0.9999999403953552,3.4247223084094003e-06,-2.3020445496513275e-06,1.5600510039348592e-07,0.00026707007782533765,0.0002681128098629415,-0.0001044438686221838,-0.0017433085013180971,0.004212053492665291,-0.00012877491826657206,-0.23844526708126068,0.26766782999038696,1.2176380157470703,-2.1562814712524414,3.250138759613037,-1.68236243724823,0.339018851518631,0.7359722256660461,0.42000001668930054,-1.1845898628234863,2.459773540496826,-0.20983320474624634,2.999997615814209,-0.0023978864774107933,-0.009436937049031258,-0.016593754291534424,-0.02387436479330063,-0.1844276636838913,-0.28092485666275024,-0.3743084669113159,-0.46440303325653076
0.15,0.07552329450845718,0.08838208764791489,0.0,0.9904409646987915,0.0,0.0,-0.1379372775554657,0.43075448274612427,0.5755376219749451,0.0,0.0,0.0,-6.090583324432373,-0.404540091753006,0.6975178122520447,0.4200000464916229,1.0,3.7138524930924177e-06,-2.207856823588372e-06,-1.690766850970249e-07,0.000263533613178879,0.0002653617993928492,-0.00010421895422041416,-0.0017013129545375705,0.004144155420362949,-0.0001296056725550443,-0.2721228003501892,0.32467374205589294,1.18720543384552,-1.847806453704834,3.6518096923828125,-1.950340986251831,0.339018851518631,0.7359722256660461,0.42000001668930054,-1.1363739967346191,3.000000476837158,-0.24122928082942963,-2.9999990463256836,-0.009100810624659061,-0.01742747239768505,-0.025826074182987213,-0.0343032069504261,-0.46969711780548096,-0.5408612489700317,-0.6090215444564819,-0.6742460131645203
0.16666666666666666,0.07879108935594559,0.10134042054414749,0.0,0.986562967300415,0.0,0.0,-0.16338135302066803,0.1860453188419342,0.6964726448059082,0.0,0.0,0.0,-1.7102749347686768,-0.404540091753006,0.6975178122520447,0.4200000464916229,0.9999999403953552,3.6382996313477634e-06,-2.278827423651819e-06,2.700894583540503e-07,0.00026682656607590616,0.0002674996212590486,-0.00010410207323729992,-0.001739894738420844,0.004210094455629587,-0.00012781668920069933,-0.30713552236557007,0.3822864294052124,1.1446056365966797,-2.1163058280944824,3.6070337295532227,-2.9348270893096924,0.339018851518631,0.7359722256660461,0.42000001668930054,-1.1014631986618042,1.3046340942382812,-0.2912314534187317,-2.9999988079071045,-0.020599622279405594,-0.029357777908444405,-0.03814788907766342,-0.046984609216451645,-0.5798832178115845,-0.6101580858230591,-0.6362138390541077,-0.6583508253097534
0.18333333333333332,0.08036638796329498,0.11225481331348419,0.0,0.9801791310310364,0.0,0.0,-0.19811324775218964,0.01093220803886652,0.6291779279708862,0.0,0.0,0.0,-5.064501762390137,-0.404540091753006,0.6975178122520447,0.4200000464916229,1.0,3.386368462088285e-06,-2.300295591339818e-06,1.4395122605037614e-07,0.00026674632681533694,0.000267872994299978,-0.00010436843149363995,-0.0017412762390449643,0.004206033889204264,-0.0001287875056732446,-0.3413601517677307,0.44567811489105225,1.0897619724273682,-1.8429629802703857,3.980245590209961,-3.647080421447754,0.339018851518631,0.7359722256660461,0.42000001668930054,-1.0559659004211426,2.9999992847442627,-0.341259241104126,-3.000000238418579,-0.031474918127059937,-0.04052342474460602,-0.04953458532691002,-0.058530427515506744,-0.724267840385437,-0.7259688377380371,-0.7240583896636963,-0.719030499458313
0.2,0.08635365962982178,0.1237931102514267,0.0,0.9655390977859497,0.0,0.0,-0.26025810837745667,0.4761710464954376,0.7607218623161316,0.0,0.0,0.0,-8.689801216125488,-0.404540091753006,0.6975178718566895,0.4200000464916229,1.0,3.675464540719986e-06,-2.3265372419700725e-06,2.211534564366957e-07,0.0002648438676260412,0.00026631305809132755,-0.00010421895422041416,-0.0017176724504679441,0.004169867839664221,-0.00012910064833704382,-0.3695102035999298,0.5167394280433655,1.0208368301391602,-1.3580156564712524,4.453403472900391,-4.529672622680664,0.339018851518631,0.7359722256660461,0.42000001668930054,-1.00596284866333,3.000000238418579,-0.3912851810455322,-3.0000011920928955,-0.04192047938704491,-0.05100980028510094,-0.060003846883773804,-0.06893272697925568,-0.6355311274528503,-0.6273745894432068,-0.6163513660430908,-0.6029129028320312
0.21666666666666667,0.0892983078956604,0.13280270993709564,0.0,0.9520666599273682,0.0,0.0,-0.3058905601501465,0.09635813534259796,0.557350218296051,0.0,0.0,0.0,-4.385960102081299,-0.404540091753006,0.6975178122520447,0.4200000464916229,1.0,3.322247721371241e-06,-2.207966417699936e-06,2.7429487658992e-07,0.00026662711752578616,0.0002674948482308537,-0.00010426202788949013,-0.001735763973556459,0.004204656928777695,-0.00012834012159146369,-0.39386308193206787,0.5809812545776367,0.9369816184043884,-1.0175725221633911,3.813788414001465,-5.522646903991699,0.339018851518631,0.7359722256660461,0.42000001668930054,-0.9559561014175415,3.0000014305114746,-0.44131264090538025,-3.0,-0.05708741024136543,-0.06541704386472702,-0.07327663153409958,-0.08093363791704178,-0.9659632444381714,-0.9580682516098022,-0.9596072435379028,-0.865986704826355
0.23333333333333334,0.08806626498699188,0.14210781455039978,0.0,0.9489362835884094,0.0,0.0,-0.31546783447265625,-0.138920396566391,0.6290012001991272,0.0,0.0,0.0,-0.23094801604747772,-0.404540091753006,0.6975178122520447,0.4200000464916229,1.0,3.6564260881277733e-06,-2.373456709392485e-06,-4.076544826148165e-07,0.0002661164617165923,0.00026725901989266276,-0.00010423315688967705,-0.0017335545271635056,0.004194728098809719,-0.00012855185195803642,-0.41553786396980286,0.6312435865402222,0.8420177102088928,-1.100838541984558,2.614842414855957,-5.927689552307129,0.339018851518631,0.7359722256660461,0.42000001668930054,-0.9059454202651978,3.000000238418579,-0.49134203791618347,-3.000000238418579,-0.07300015538930893,-0.08126361668109894,-0.08906471729278564,-0.09660620987415314,-0.9876902103424072,-0.9781898260116577,-0.9677795767784119,-0.9440187811851501
0.25,0.08946234732866287,0.14826081693172455,0.0,0.9419187903404236,0.0,0.0,-0.33584076166152954,0.150656595826149,0.28871795535087585,0.0,0.0,0.0,-3.346548557281494,-0.404540091753006,0.6975178718566895,0.4200000464916229,1.0,3.6304663808550686e-06,-2.242617028969107e-06,1.1234231322987398e-08,0.00026679987786337733,0.0002670600370038301,-0.00010390859097242355,-0.0017342320643365383,0.004210509359836578,-0.00012702777166850865,-0.43040284514427185,0.6707648038864136,0.736815333366394,-0.5857380628585815,1.9852402210235596,-6.5306243896484375,0.339018851518631,0.7359722256660461,0.42000001668930054,-0.855934739112854,2.999997854232788,-0.5413719415664673,-2.9999990463256836,-0.08946283906698227,-0.09762216359376907,-0.10526270419359207,-0.11264265328645706,-0.9913366436958313,-0.9925386309623718,-0.9766377210617065,-0.9611334204673767
0.26666666666666666,0.0876380205154419,0.15100960433483124,0.0,0.9409324526786804,0.0,0.0,-0.33859434723854065,-0.18623274564743042,0.11210299283266068,0.0,0.0,0.0,0.5522419810295105,-0.4045400619506836,0.6975178122520447,0.4200000464916229,0.9999999403953552,3.7400714063551277e-06,-2.2362910385709256e-06,4.4999521264799114e-07,0.000264796573901549,0.00026673043612390757,-0.00010454049333930016,-0.0017189934151247144,0.004166724160313606,-0.0001301671436522156,-0.43744975328445435,0.6905127763748169,0.6288550496101379,-0.1232510358095169,0.5216635465621948,-6.364919662475586,0.339018851518631,0.7359722256660461,0.42000001668930054,-0.8059253096580505,3.0000011920928955,-0.5914016962051392,-3.0000014305114746,-0.10679557919502258,-0.11475507915019989,-0.12225060164928436,-0.12952210009098053,-1.0022889375686646,-1.0017242431640625,-1.0012919902801514,-1.0009486675262451
0.2833333333333333,0.08132027089595795,0.15134738385677338,0.0,0.9352148771286011,0.0,0.0,-0.35408076643943787,-0.3342733383178711,-0.058457449078559875,0.0,0.0,0.0,-2.7718286514282227,-0.404540091753006,0.6975178122520447,0.4200000464916229,1.0,3.391595782886725e-06,-2.2910930965736043e-06,1.2462022880299628e-07,0.0002667723165359348,0.00026789327966980636,-0.00010437355376780033,-0.0017412476008757949,0.004206296522170305,-0.00012878577399533242,-0.43233633041381836,0.6942644119262695,0.5270205736160278,0.6354377269744873,0.0399312749505043,-5.795289039611816,0.339018851518631,0.7359722256660461,0.42000001668930054,-0.7559165358543396,2.9999961853027344,-0.6414304375648499,-3.000000476837158,-0.12394643574953079,-0.13176727294921875,-0.13919204473495483,-0.1464262157678604,-0.7979779839515686,-0.8417258858680725,-0.8832378387451172,-0.9206339120864868
0.3,0.07426256686449051,0.14871686697006226,0.0,0.9357300996780396,0.0,0.0,-0.352716863155365,-0.4590456187725067,-0.19831909239292145,0.0,0.0,0.0,1.0699388980865479,-0.404540091753006,0.6975178718566895,0.4200000464916229,1.0,3.680656618598732e-06,-2.3190602860267973e-06,2.011123285683425e-07,0.00026479075313545763,0.0002662576735019684,-0.00010421290062367916,-0.0017168199410662055,0.004168981220573187,-0.00012909970246255398,-0.4218234419822693,0.6986435055732727,0.4365980625152588,0.7757575511932373,0.2798973619937897,-4.961477279663086,0.339018851518631,0.7359722256660461,0.42000001668930054,-0.7059087157249451,3.0000011920928955,-0.691457211971283,-3.000000476837158,-0.14082810282707214,-0.14867320656776428,-0.15608814358711243,-0.16329863667488098,-1.0238913297653198,-1.0181214809417725,-1.0137029886245728,-1.0101510286331177
0.31666666666666665,0.06512613594532013,0.14387117326259613,0.0,0.9309815168380737,0.0,0.0,-0.3650662899017334,-0.597387433052063,-0.33182159066200256,0.0,0.0,0.0,-2.505929946899414,-0.404540091753006,0.6975178122520447,0.4200000464916229,1.0,3.3041308142855996e-06,-2.2214408090803772e-06,2.5357840627293626e-07,0.00026660741423256695,0.0002674513671081513,-0.00010424340143799782,-0.0017353476723656058,0.0042044599540531635,-0.00012828414037358016,-0.4236788749694824,0.7015030384063721,0.4261891841888428,-0.010426471009850502,0.11427616328001022,-0.23775725066661835,0.339018851518631,0.7359722256660461,0.42000001668930054,-0.6559038758277893,2.9999899864196777,-0.7419020533561707,-3.000002384185791,-0.15062838792800903,-0.15890298783779144,-0.1659761667251587,-0.17180447280406952,-0.5309215784072876,-0.532809317111969,-0.4892744719982147,-0.3862348198890686
0.3333333333333333,0.05381125584244728,0.1366741955280304,0.0,0.9321523308753967,0.0,0.0,-0.3620662987232208,-0.716447651386261,-0.47207438945770264,0.0,0.0,0.0,1.3160957098007202,-0.40402737259864807,0.6984748840332031,0.4200013279914856,0.9999485015869141,-1.682287074800115e-05,5.272275666357018e-05,-0.010143398307263851,0.14008086919784546,0.23913134634494781,-0.001896238187327981,0.0096741309389472,-0.08967453986406326,-4.571563720703125,-0.4208977222442627,0.7054070830345154,0.42203521728515625,0.2938286066055298,0.2419932782649994,-0.22718647122383118,0.339018851518631,0.7359722256660461,0.42000001668930054,-0.6058977842330933,3.0000016689300537,-0.791947066783905,-3.0000035762786865,-0.16092753410339355,-0.1681804060935974,-0.1735704392194748,-0.1768817901611328,-0.621189534664154,-0.5227346420288086,-0.38963624835014343,-0.2143186330795288
0.35,0.0463523231446743,0.12651903927326202,0.0,0.9279123544692993,0.0,0.0,-0.3727983832359314,-0.45342782139778137,-0.6276465654373169,0.0,0.0,0.0,-2.0700876712799072,-0.40097665786743164,0.7032212615013123,0.4200001657009125,0.9986369013786316,-2.192536840084358e-06,2.0768331978615606e-06,-0.05219361558556557,0.18109774589538574,0.2783505320549011,-0.00019868777599185705,0.010440087877213955,-0.001233950606547296,-4.6381144523620605,-0.41533350944519043,0.7094695568084717,0.42028898000717163,0.33257144689559937,0.22477662563323975,0.17770399153232574,0.339018851518631,0.7359722256660461,0.42000001668930054,-0.5558918714523315,2.9999868869781494,-0.8419886231422424,-3.000000476837158,-0.1695607453584671,-0.17498934268951416,-0.1780364066362381,-0.17839720845222473,-0.6432491540908813,-0.4819130003452301,-0.29568183422088623,-0.08255635201931
0.36666666666666664,0.035477716475725174,0.1153331995010376,0.0,0.9303119778633118,0.0,0.0,-0.3667691946029663,-0.7247037291526794,-0.6930186152458191,0.0,0.0,0.0,1.7433267831802368,-0.3951125741004944,0.7114483118057251,0.420369952917099,0.9892600178718567,-0.00924050435423851,0.0011669243685901165,-0.145869180560112,0.5238193273544312,0.6868643760681152,0.012354766018688679,-0.6367698907852173,0.13974198698997498,-16.856874465942383,-0.4065348207950592,0.7182206511497498,0.42096251249313354,0.7070916891098022,0.7923704981803894,-0.07213295996189117,0.339018851518631,0.7359722256660461,0.42000001668930054,-0.5058869123458862,2.999995470046997,-0.8920117616653442,-3.000000238418579,-0.1828700602054596,-0.18471699953079224,-0.18386995792388916,-0.18004490435123444,-0.7702531218528748,-0.5481836199760437,-0.310657262802124,-0.06057199463248253
0.3833333333333333,0.028291303664445877,0.10146652162075043,0.0,0.9270828366279602,0.0,0.0,-0.37485647201538086,-0.3719900846481323,-0.8709598183631897,0.0,0.0,0.0,-1.9630584716796875,-0.3846721947193146,0.7246075868606567,0.42035308480262756,0.9794683456420898,-0.008742407895624638,0.0017433288739994168,-0.20140071213245392,0.6664482355117798,0.8278772234916687,0.026325369253754616,-1.2498351335525513,0.4728395342826843,-5.934868812561035,-0.39275628328323364,0.7296521663665771,0.42171192169189453,0.9845936894416809,0.6356189250946045,0.13024230301380157,0.339018851518631,0.7359722256660461,0.42000001668930054,-0.45581257343292236,2.9999046325683594,-0.9420121908187866,-2.9999828338623047,-0.19263575971126556,-0.19088147580623627,-0.18612737953662872,-0.1781671941280365,-0.5091578364372253,-0.2818031907081604,-0.037075042724609375,0.21848247945308685
0.4,0.018336765468120575,0.08616030961275101,0.0,0.9117746353149414,0.0,0.0,-0.4106908440589905,-0.6752533912658691,-0.944927453994751,0.0,0.0,0.0,-5.619717597961426,-0.36513054370880127,0.7409289479255676,0.4230501055717468,0.9651243090629578,-0.039126086980104446,-0.004721369594335556,-0.2588086724281311,1.4803426265716553,0.9186121821403503,0.064663365483284,31.721803665161133,-16.57264518737793,0.40874922275543213,-0.3711901903152466,0.7455558776855469,0.4242672026157379,1.620415449142456,1.2331898212432861,0.37321022152900696,0.339018851518631,0.7359722256660461,0.42000001668930054,-0.4074760377407074,2.254426956176758,-0.9920331239700317,-3.0000014305114746,-0.20234400033950806,-0.1968815177679062,-0.18821337819099426,-0.17625996470451355,-0.5378687977790833,-0.3378881514072418,-0.13029760122299194,0.07712703943252563
0.4166666666666667,0.011647084727883339,0.06800942867994308,0.0,0.8822795152664185,0.0,0.0,-0.4707259237766266,-0.3523934781551361,-1.1353342533111572,0.0,0.0,0.0,-8.781625747680664,-0.32663068175315857,0.7662558555603027,0.42987918853759766,0.9492922425270081,0.017903506755828857,-0.04564054310321808,-0.3105486333370209,3.495941638946533,1.5161184072494507,0.7455968260765076,22.812402725219727,-15.149751663208008,13.832390785217285,-0.3319334387779236,0.7709266543388367,0.4308905601501465,3.159301280975342,1.888395071029663,0.6745702028274536,0.339018851518631,0.7359722256660461,0.42000001668930054,-0.3839118778705597,0.9513939619064331,-0.9552112817764282,2.9967708587646484,-0.21080543100833893,-0.2019314467906952,-0.18978731334209442,-0.17444369196891785,-0.5746170282363892,-0.34281429648399353,-0.11224806308746338,0.10633307695388794
0.43333333333333335,0.007676113396883011,0.05408971384167671,0.0,0.8365721106529236,0.0,0.0,-0.547856867313385,-0.1551939696073532,-0.8480507731437683,0.0,0.0,0.0,-11.397499084472656,-0.250299334526062,0.8015549778938293,0.4403093755245209,0.9244695901870728,0.07968491315841675,-0.08451205492019653,-0.36313068866729736,5.750782012939453,1.864510416984558,0.6944981217384338,17.555110931396484,-20.19355583190918,18.49533462524414,-0.2550249993801117,0.8068232536315918,0.44126325845718384,5.6808600425720215,2.6093273162841797,0.7269607186317444,0.339018851518631,0.7359722256660461,0.42000001668930054,-0.3673548996448517,1.0046223402023315,-0.9052008986473083,2.993588447570801,-0.22383834421634674,-0.2111814320087433,-0.1946439892053604,-0.17543387413024902,-0.5220863819122314,-0.4252851605415344,-0.22969871759414673,-0.06899101287126541
0.45,0.00399518758058548,0.043675824999809265,0.0,0.7988417744636536,0.0,0.0,-0.6015411615371704,-0.18577830493450165,-0.5737996697425842,0.0,0.0,0.0,-6.581334590911865,-0.1573137640953064,0.8354920148849487,0.45422759652137756,0.8842352032661438,0.11315763741731644,-0.09764742851257324,-0.4424796998500824,5.801541328430176,1.0009936094284058,0.8402320742607117,1.3119012117385864,-20.411514282226562,18.53766632080078,-0.16157428920269012,0.8427599668502808,0.45490607619285583,5.709986686706543,1.750989556312561,0.8845638036727905,0.339018851518631,0.7359722256660461,0.42000001668930054,-0.3511815071105957,0.8802080750465393,-0.9309598803520203,-3.0000035762786865,-0.2345641702413559,-0.21979369223117828,-0.20007741451263428,-0.17844057083129883,-0.5452713370323181,-0.43641161918640137,-0.2852751314640045,-0.17991730570793152
0.4666666666666667,-0.00047513211029581726,0.03770986199378967,0.0,0.7831125259399414,0.0,0.0,-0.6218799948692322,-0.3439571261405945,-0.268375426530838,0.0,0.0,0.0,-1.929244875907898,-0.06351491808891296,0.852250874042511,0.46680429577827454,0.8358921408653259,0.10612159222364426,-0.09286732226610184,-0.5304696559906006,5.73699426651001,-0.1990416795015335,0.7314419150352478,22.665550231933594,-11.03981876373291,20.78853988647461,-0.06674687564373016,0.861064076423645,0.46690723299980164,5.680894374847412,0.4541155695915222,0.7289267182350159,0.339018851518631,0.7359722256660461,0.42000001668930054,-0.3367123007774353,0.7544876337051392,-0.9809838533401489,-3.0000038146972656,-0.24002912640571594,-0.22888147830963135,-0.20622266829013824,-0.18238861858844757,-0.03413756191730499,-0.571746826171875,-0.39040303230285645,-0.25164100527763367
0.48333333333333334,-0.0016494239680469036,0.026511847972869873,0.0,0.7580386996269226,0.0,0.0,-0.6522095799446106,0.023015936836600304,-0.819975733757019,0.0,0.0,0.0,-5.761725425720215,0.029036063700914383,0.8525333404541016,0.4727139174938202,0.7785847187042236,0.08886469900608063,-0.10508901625871658,-0.6122623682022095,5.344851493835449,-1.2338916063308716,0.41952887177467346,-8.013267517089844,8.324502944946289,7.868933200836182,0.026374977082014084,0.8627384901046753,0.47408372163772583,5.6158599853515625,-0.360300749540329,0.28311410546302795,0.339018851518631,0.7359722256660461,0.42000001668930054,-0.32544633746147156,0.5162419676780701,-1.0310072898864746,-2.9996933937072754,-0.23474040627479553,-0.23141148686408997,-0.20683306455612183,-0.1815628558397293,0.3948838412761688,0.035341110080480576,0.13422709703445435,0.20919422805309296
0.5,-0.001217241515405476,0.0192974042147398,0.0,0.7455160617828369,0.0,0.0,-0.6664876937866211,0.06268548220396042,-0.3243882656097412,0.0,0.0,0.0,-1.1582355499267578,0.11379338055849075,0.8390181660652161,0.47643381357192993,0.7164913415908813,0.07098506391048431,-0.08972158282995224,-0.6881505846977234,4.5043864250183105,-1.8816349506378174,0.2070675939321518,6.961216449737549,-11.943440437316895,30.1204891204834,0.1121390163898468,0.849176287651062,0.4776788353919983,4.942429542541504,-1.1172423362731934,0.2199578583240509,0.339018851518631,0.7359722256660461,0.42000001668930054,-0.31847232580184937,0.29389646649360657,-1.0810294151306152,-3.0000011920928955,-0.2343951165676117,-0.2345777302980423,-0.20808817446231842,-0.18146497011184692,-0.0040252176113426685,-0.14750578999519348,-0.07685528695583344,-0.040029920637607574
0.5166666666666666,0.0015016929246485233,0.016876036301255226,0.0,0.7253423929214478,0.0,0.0,-0.6883882880210876,0.20763498544692993,-0.08151409775018692,0.0,0.0,0.0,-4.488751411437988,0.18465006351470947,0.8204165697097778,0.47262492775917053,0.684070885181427,0.027133861556649208,-0.10395803302526474,-0.7214592099189758,3.5277419090270996,-1.5161972045898438,-0.28737685084342957,-2.225341558456421,0.1428144872188568,20.30376434326172,0.1834256947040558,0.8303112983703613,0.47585466504096985,3.8753809928894043,-1.2741427421569824,-0.32236447930336,0.339018851518631,0.7359722256660461,0.42000001668930054,-0.31092122197151184,0.6121623516082764,-1.1310515403747559,-3.0000009536743164,-0.23259572684764862,-0.23496679961681366,-0.20860807597637177,-0.18251100182533264,0.19035011529922485,0.08842332661151886,0.027433408424258232,-0.0529521107673645
0.5333333333333333,0.00496826134622097,0.01700052246451378,0.0,0.7190114259719849,0.0,0.0,-0.6949982643127441,0.16954286396503448,0.0656106099486351,0.0,0.0,0.0,-0.08405435085296631,0.24098673462867737,0.7969080805778503,0.46301549673080444,0.644385814666748,-0.01977664791047573,-0.09425767511129379,-0.7586113214492798,2.634279489517212,-2.0203170776367188,-0.560275137424469,0.1753639131784439,1.6837819814682007,19.01473045349121,0.2404477894306183,0.8065757155418396,0.4672849476337433,3.0856571197509766,-1.5700714588165283,-0.6646386384963989,0.339018851518631,0.7359722256660461,0.42000001668930054,-0.2975839674472809,0.8301601409912109,-1.1810736656188965,-2.999983072280884,-0.22837306559085846,-0.23199312388896942,-0.20733492076396942,-0.18315407633781433,0.27845680713653564,0.23683398962020874,0.10702962428331375,-0.033708781003952026
0.55,0.011066688224673271,0.011525983922183514,0.0,0.7025851011276245,0.0,0.0,-0.7115997672080994,0.32255858182907104,-0.2997368276119232,0.0,0.0,0.0,-3.5063884258270264,0.2869303226470947,0.7757554054260254,0.4466491639614105,0.6166408658027649,-0.05661964789032936,-0.07671702653169632,-0.781449019908905,1.906260371208191,-1.8803112506866455,-0.9654645919799805,-0.07347473502159119,3.655942440032959,26.78543472290039,0.2868248522281647,0.7845419645309448,0.45111513137817383,2.5185489654541016,-1.3365767002105713,-1.1180469989776611,0.339018851518631,0.7359722256660461,0.42000001668930054,-0.28388676047325134,0.6561149954795837,-1.231095790863037,-2.9999396800994873,-0.21662162244319916,-0.22195406258106232,-0.20118504762649536,-0.18086671829223633,0.5159149765968323,0.48206403851509094,0.2718871533870697,0.05833791196346283
0.5666666666666667,0.018028592690825462,0.011359946802258492,0.0,0.6993322372436523,0.0,0.0,-0.714796781539917,0.4470789432525635,0.07090890407562256,0.0,0.0,0.0,0.39200475811958313,0.3210778534412384,0.7525917887687683,0.4252792000770569,0.5791609883308411,-0.12215720862150192,-0.07842326164245605,-0.8021844625473022,1.5653125047683716,-1.5565619468688965,-1.2072348594665527,-2.7555553913116455,6.204648017883301,6.40306282043457,0.32074442505836487,0.7613078951835632,0.4311602711677551,1.7588675022125244,-1.3711814880371094,-1.2928584814071655,0.339018851518631,0.7359722256660461,0.42000001668930054,-0.2722106873989105,0.6778485178947449,-1.2747069597244263,-2.26283860206604,-0.2108936905860901,-0.21607990562915802,-0.19863852858543396,-0.18172666430473328,0.34822767972946167,0.35921648144721985,0.14003819227218628,-0.08118245750665665
0.5833333333333334,0.023274440318346024,0.007610034197568893,0.0,0.6868569254875183,0.0,0.0,-0.7267926335334778,0.2548418343067169,-0.23886436223983765,0.0,0.0,0.0,-2.8451645374298096,0.33878326416015625,0.7447785139083862,0.4225374460220337,0.5569871068000793,-0.051113009452819824,-0.0380457267165184,-0.828073263168335,0.6443525552749634,-0.3061588704586029,-0.08079751580953598,4.890629768371582,-2.9438047409057617,-1.309376835823059,0.33492082357406616,0.7503873109817505,0.4260718822479248,0.47794708609580994,-0.497347891330719,-0.13104161620140076,0.339018851518631,0.7359722256660461,0.42000001668930054,-0.25463488698005676,1.4232168197631836,-1.233593463897705,2.9999492168426514,-0.20152872800827026,-0.20738311111927032,-0.19445426762104034,-0.1818399280309677,0.44188404083251953,0.4286544620990753,0.1750745177268982,-0.06656982749700546
0.6,0.02581622451543808,0.0071776872500777245,0.0,0.6870520114898682,0.0,0.0,-0.7266082167625427,0.061630554497241974,0.004563475027680397,0.0,0.0,0.0,0.8425840139389038,0.34285256266593933,0.7389220595359802,0.4217762053012848,0.5677315592765808,-0.034240953624248505,-0.008925874717533588,-0.8224529027938843,-0.05751177296042442,-1.328216791152954,0.07068991661071777,-14.289390563964844,-2.646791458129883,19.64436912536621,0.3397214114665985,0.7420327663421631,0.42617732286453247,-0.004587434232234955,-0.35482728481292725,0.052395615726709366,0.339018851518631,0.7359722256660461,0.42000001668930054,-0.228532612323761,1.1084519624710083,-1.2542916536331177,-3.001945734024048,-0.19673827290534973,-0.20235294103622437,-0.19319279491901398,-0.18414217233657837,0.2875707447528839,0.2990948557853699,0.07416503131389618,-0.13615569472312927
0.6166666666666667,0.02875453047454357,0.003493147436529398,0.0,0.6773195266723633,0.0,0.0,-0.7356889843940735,0.22629037499427795,-0.2593192160129547,0.0,0.0,0.0,-2.402606248855591,0.34194251894950867,0.7367264628410339,0.42074939608573914,0.6014183759689331,-0.01461652759462595,-0.010896443389356136,-0.7987262010574341,-0.12115040421485901,-0.23578350245952606,-0.057007260620594025,-0.3617508113384247,-0.5700825452804565,12.62347412109375,0.3377492427825928,0.7386250495910645,0.42519718408584595,-0.26365622878074646,-0.10547779500484467,-0.032136090099811554,0.339018851518631,0.7359722256660461,0.42000001668930054,-0.2321849912405014,-1.0582969188690186,-1.2161988019943237,2.999699592590332,-0.18972600996494293,-0.19554643332958221,-0.1903175711631775,-0.18486280739307404,0.343906968832016,0.35592174530029297,0.15400955080986023,-0.02854781225323677
0.6333333333333333,0.034370552748441696,0.0030885017476975918,0.0,0.6796875596046448,0.0,0.0,-0.7335017323493958,0.36622071266174316,0.001720805186778307,0.0,0.0,0.0,1.1856633424758911,0.3392327129840851,0.7337179183959961,0.4200001060962677,0.633283257484436,2.9736902433796786e-06,5.205341039982159e-06,-0.7739200592041016,-0.13813601434230804,-0.14745411276817322,-4.3762149289250374e-05,-0.0022890018299221992,0.0014741601189598441,4.2182745933532715,0.33489489555358887,0.7366335391998291,0.4251706600189209,-0.0756617933511734,0.0029470028821378946,0.10528755933046341,0.339018851518631,0.7359722256660461,0.42000001668930054,-0.277583509683609,-2.9991681575775146,-1.2372064590454102,-2.999650239944458,-0.1865311563014984,-0.19178800284862518,-0.1893194019794464,-0.18631236255168915,0.23570139706134796,0.2548106908798218,0.09119422733783722,-0.051265086978673935
0.65,0.041546449065208435,0.005554936360567808,0.0,0.6717602014541626,0.0,0.0,-0.7407686710357666,0.4736294150352478,0.20326808094978333,0.0,0.0,0.0,-2.4028332233428955,0.33748430013656616,0.7320314645767212,0.42000001668930054,0.6548523902893066,4.3487368373007484e-08,1.3269756209410843e-06,-0.7557567358016968,-0.09338150173425674,-0.08510836958885193,-8.765491656959057e-06,-0.00011639124568318948,0.0004105357511434704,3.1964762210845947,0.33546215295791626,0.7387233972549438,0.4280054271221161,0.06497621536254883,0.1704913228750229,0.23059523105621338,0.339018851518631,0.7359722256660461,0.42000001668930054,-0.32757332921028137,-2.9979259967803955,-1.2871713638305664,-2.9995689392089844,-0.18092727661132812,-0.18638281524181366,-0.18668365478515625,-0.1859084516763687,0.39120835065841675,0.3777564465999603,0.23054836690425873,0.1189909279346466
0.6666666666666666,0.05133594200015068,0.0031666881404817104,0.0,0.6745042204856873,0.0,0.0,-0.7382709980010986,0.5495454668998718,-0.16046056151390076,0.0,0.0,0.0,1.3732023239135742,0.3368169069290161,0.7314908504486084,0.41999974846839905,0.6650713682174683,1.668585537117906e-05,-2.314542689418886e-05,-0.7467796802520752,-0.04122574254870415,-0.03634655475616455,-0.0007833840791136026,0.020611846819519997,0.036724578589200974,2.0587387084960938,0.33555978536605835,0.7419763207435608,0.43675684928894043,-0.13623102009296417,0.17951473593711853,0.8806160688400269,0.339018851518631,0.7359722256660461,0.42000001668930054,-0.37758734822273254,-3.000000476837158,-1.337189793586731,-2.999999761581421,-0.17233668267726898,-0.1780291348695755,-0.18046776950359344,-0.18121746182441711,0.3454280495643616,0.3827970027923584,0.3204481899738312,0.2901248037815094
0.6833333333333333,0.06195057928562164,-0.0011304165236651897,0.0,0.6663327813148499,0.0,0.0,-0.7456544637680054,0.679557740688324,-0.31598660349845886,0.0,0.0,0.0,-2.2449634075164795,0.3366506099700928,0.7313584685325623,0.4200000762939453,0.6679060459136963,-2.836787280102726e-05,-8.794623681751546e-06,-0.7442455291748047,-0.0011974569642916322,-0.0014607170596718788,-0.0005714289145544171,0.029346022754907608,-0.02025405503809452,-0.012480542063713074,0.3389606475830078,0.745112955570221,0.4497375190258026,0.5251621603965759,0.16694040596485138,0.8318876028060913,0.339018851518631,0.7359722256660461,0.42000001668930054,-0.4276012182235718,-2.9999988079071045,-1.387208104133606,-3.0000009536743164,-0.16898827254772186,-0.17353135347366333,-0.1761973351240158,-0.17667768895626068,0.12206964939832687,0.21329806745052338,0.23673368990421295,0.28735053539276123
0.7,0.07602473348379135,-0.0006871221121400595,0.0,0.6357944011688232,0.0,0.0,-0.7718584537506104,0.8121801614761353,0.040642693638801575,0.0,0.0,0.0,-5.663918972015381,0.33664947748184204,0.7313573956489563,0.4200000464916229,0.6679033041000366,1.1655889693429344e-06,-3.707546966325026e-06,-0.7442480325698853,0.0002521178685128689,-0.00026384356897324324,-0.00010845111683011055,0.004542462527751923,0.000968974840361625,-0.00040304113645106554,0.35061466693878174,0.7444994449615479,0.4705328345298767,0.9821698665618896,-0.055024418979883194,1.7366225719451904,0.339018851518631,0.7359722256660461,0.42000001668930054,-0.47761473059654236,-2.999985694885254,-1.437226414680481,-2.999999523162842,-0.17339836061000824,-0.17537997663021088,-0.17645549774169922,-0.17504215240478516,-0.1952100247144699,-0.067058265209198,0.017871499061584473,0.12144862115383148
0.7166666666666667,0.08657962083816528,0.0013172610197216272,0.0,0.6195665597915649,0.0,0.0,-0.7849441170692444,0.5640379786491394,0.12622778117656708,0.0,0.0,0.0,-1.4351993799209595,0.33664944767951965,0.7313574552536011,0.4200000464916229,0.6679031252861023,8.076573294601985e-07,-3.822663074970478e-06,-0.7442481517791748,0.0002303279034094885,-0.0002797268098220229,-0.00010515144094824791,0.0050001004710793495,0.0005282566999085248,-0.0003541245823726058,0.3674653172492981,0.7471449971199036,0.500543475151062,0.9810926914215088,0.3482399880886078,1.8600971698760986,0.339018851518631,0.7359722256660461,0.42000001668930054,-0.501228392124176,-0.07015641033649445,-1.487244725227356,-3.0,-0.17507727444171906,-0.17572642862796783,-0.17607033252716064,-0.17372101545333862,0.01856810599565506,0.048129625618457794,0.047673504799604416,0.05404932424426079
0.7333333333333333,0.09265059232711792,0.005071253050118685,0.0,0.6280606985092163,0.0,0.0,-0.7781643271446228,0.29621219635009766,0.2767864167690277,0.0,0.0,0.0,2.139437675476074,0.33664947748184204,0.7313573956489563,0.4200000464916229,0.6679031252861023,1.0018311513704248e-06,-3.978318545705406e-06,-0.7442481517791748,0.00023855101608205587,-0.00028180121444165707,-0.00010729697532951832,0.005013401620090008,0.0006367589230649173,-0.00036883665597997606,0.38196736574172974,0.7539007663726807,0.5251506567001343,0.6850677728652954,0.43456652760505676,1.165991187095642,0.339018851518631,0.7359722256660461,0.42000001668930054,-0.48321324586868286,2.032318592071533,-1.448550820350647,3.0,-0.17347314953804016,-0.17381107807159424,-0.17421862483024597,-0.1718928962945938,0.14658664166927338,0.16153974831104279,0.1586093157529831,0.15250185132026672
0.75,0.09483809024095535,0.004617278929799795,0.0,0.6238867044448853,0.0,0.0,-0.7815147638320923,0.10466299206018448,-0.09699762612581253,0.0,0.0,0.0,-1.5899860858917236,0.33664944767951965,0.7313574552536011,0.4200000464916229,0.6679032444953918,9.704551757749869e-07,-4.019678726763232e-06,-0.7442480325698853,0.00023585309099871665,-0.0002814399776980281,-0.0001065889373421669,0.00501581747084856,0.0005992397200316191,-0.0003638328053057194,0.38632848858833313,0.7602845430374146,0.5384576320648193,-0.15717355906963348,0.26873236894607544,0.5917372703552246,0.339018851518631,0.7359722256660461,0.42000001668930054,-0.4660373330116272,0.1757163405418396,-1.3984981775283813,3.0,-0.16920536756515503,-0.16944605112075806,-0.16999050974845886,-0.167938694357872,0.18717344105243683,0.2156272828578949,0.23061497509479523,0.22971029579639435
0.7666666666666666,0.094085194170475,0.00897977501153946,0.0,0.6316710710525513,0.0,0.0,-0.7752364873886108,-0.09830103814601898,0.4014524221420288,0.0,0.0,0.0,2.1003026962280273,0.33664944767951965,0.7313574552536011,0.4200000464916229,0.667903482913971,9.569239409756847e-07,-4.0778354559734e-06,-0.7442477941513062,0.00023626410984434187,-0.000281377142528072,-0.00010669021867215633,0.00501317298039794,0.0006060199812054634,-0.00036468522739596665,0.3827955424785614,0.7630163431167603,0.5451027154922485,-0.263921320438385,0.16191554069519043,0.23854835331439972,0.339018851518631,0.7359722256660461,0.42000001668930054,-0.4543548822402954,1.133241891860962,-1.4166364669799805,-2.999999761581421,-0.17144586145877838,-0.17013531923294067,-0.16940347850322723,-0.1665259599685669,-0.19465874135494232,-0.09596597403287888,-0.01234703790396452,0.040231529623270035
0.7833333333333333,0.09496729075908661,0.011271062307059765,0.0,0.6285392642021179,0.0,0.0,-0.7777778506278992,0.06097894161939621,0.10229974240064621,0.0,0.0,0.0,-1.236214280128479,0.33664944767951965,0.7313574552536011,0.4200000464916229,0.6679033041000366,8.024109092730214e-07,-3.703846687130863e-06,-0.7442479133605957,0.00022934431035537273,-0.00027961228624917567,-0.00010480056516826153,0.005003506317734718,0.0005186642520129681,-0.00035208460758440197,0.37250545620918274,0.7640289068222046,0.5422952175140381,-0.9658143520355225,-0.06723397970199585,-0.37548935413360596,0.339018851518631,0.7359722256660461,0.42000001668930054,-0.46420013904571533,-2.0324535369873047,-1.3781449794769287,2.999999761581421,-0.1727527230978012,-0.17021118104457855,-0.1684059351682663,-0.1649402230978012,-0.12270226329565048,-0.040206387639045715,0.03513649106025696,0.08006754517555237
0.8,0.09737347811460495,0.009905494749546051,0.0,0.6358502507209778,0.0,0.0,-0.7718124389648438,0.18927790224552155,-0.16307325661182404,0.0,0.0,0.0,1.9060739278793335,0.33664944767951965,0.7313574552536011,0.4200000464916229,0.6679031252861023,8.824509905025479e-07,-3.99519785787561e-06,-0.74424809217453,0.00023055745987221599,-0.00028062384808436036,-0.00010492419824004173,0.0050210063345730305,0.0005352256703190506,-0.00035348485107533634,0.36168622970581055,0.7627567052841187,0.5355363488197327,-0.3981480598449707,-0.08930845558643341,-0.3617658019065857,0.339018851518631,0.7359722256660461,0.42000001668930054,-0.49849820137023926,-2.054333209991455,-1.3966753482818604,-2.999999761581421,-0.17456431686878204,-0.17058949172496796,-0.16731807589530945,-0.1627511829137802,-0.09197475761175156,-0.0027045889291912317,0.09440432488918304,0.1756698191165924
0.8166666666666667,0.10206745564937592,0.0054274690337479115,0.0,0.6308581233024597,0.0,0.0,-0.7758982181549072,0.32213857769966125,-0.3305271863937378,0.0,0.0,0.0,-1.6449071168899536,0.33664944767951965,0.7313574552536011,0.4200000464916229,0.6679033637046814,9.762599120222148e-07,-4.056825673615094e-06,-0.7442478537559509,0.0002361091028433293,-0.00028133191517554224,-0.0001066429540514946,0.005012885667383671,0.0006044080364517868,-0.0003643909003585577,0.35852333903312683,0.7581819295883179,0.5259711742401123,0.02102917805314064,-0.41221141815185547,-0.5926677584648132,0.339018851518631,0.7359722256660461,0.42000001668930054,-0.5465725660324097,-2.999994993209839,-1.4466936588287354,-3.000000238418579,-0.17711006104946136,-0.17139458656311035,-0.1661338210105896,-0.1597592681646347,-0.13611288368701935,-0.026784373447299004,0.10266852378845215,0.22520940005779266
0.8333333333333334,0.1095159724354744,0.0019625192508101463,0.0,0.6045944690704346,0.0,0.0,-0.7965334057807922,0.4946809709072113,-0.12688420712947845,0.0,0.0,0.0,-4.812681674957275,0.33664944767951965,0.7313573956489563,0.4200000464916229,0.6679030656814575,8.973138960755023e-07,-4.187640115560498e-06,-0.7442481517791748,0.00023875621263869107,-0.00028163849492557347,-0.00010745762847363949,0.0050083668902516365,0.0006375721422955394,-0.00036950697540305555,0.3630461096763611,0.749370813369751,0.5209089517593384,0.5247719287872314,-0.5698573589324951,0.10947124660015106,0.339018851518631,0.7359722256660461,0.42000001668930054,-0.596580445766449,-2.999988555908203,-1.4967119693756104,-3.000000476837158,-0.1797630786895752,-0.17266900837421417,-0.1655988097190857,-0.15743373334407806,-0.11540009826421738,-0.06441909819841385,0.017011919990181923,0.1025581955909729
0.85,0.11930007487535477,0.0025861035101115704,0.0,0.5939909219741821,0.0,0.0,-0.8044717311859131,0.6215655207633972,0.10840778797864914,0.0,0.0,0.0,-0.5941358804702759,0.33664944767951965,0.7313574552536011,0.4200000464916229,0.6679033637046814,1.0046180705103325e-06,-4.211317445879104e-06,-0.7442479729652405,0.00023636268451809883,-0.0002812970778904855,-0.0001067756675183773,0.005010335706174374,0.0006059035076759756,-0.00036504128365777433,0.3713299334049225,0.746452808380127,0.5268893241882324,0.4587596654891968,0.09227606654167175,0.5654992461204529,0.339018851518631,0.7359722256660461,0.42000001668930054,-0.6157380938529968,0.4205651879310608,-1.5467302799224854,-3.000000238418579,-0.1801760196685791,-0.17332570254802704,-0.1660207062959671,-0.15754574537277222,0.06053658202290535,-0.0052018254064023495,-0.046202413737773895,-0.08424090594053268
0.8666666666666667,0.1258053481578827,-0.0005935100489296019,0.0,0.6082788705825806,0.0,0.0,-0.7937233448028564,0.37279170751571655,-0.3303513824939728,0.0,0.0,0.0,2.846745729446411,0.33664944767951965,0.7313573956489563,0.4200000464916229,0.6679030656814575,1.0444425697642146e-06,-4.022095708933193e-06,-0.7442482709884644,0.00023786627571098506,-0.0002813256869558245,-0.00010721664875745773,0.005005434155464172,0.0006270126323215663,-0.00036794424522668123,0.37957045435905457,0.7509649395942688,0.5325890779495239,0.5155297517776489,0.2679125964641571,0.11854541301727295,0.339018851518631,0.7359722256660461,0.42000001668930054,-0.6007879376411438,1.287893533706665,-1.5078678131103516,3.0,-0.17420721054077148,-0.16911575198173523,-0.16320869326591492,-0.15608949959278107,0.3210868537425995,0.23554417490959167,0.16455814242362976,0.09032198041677475
0.8833333333333333,0.129417285323143,-0.0007141404785215855,0.0,0.6084759831428528,0.0,0.0,-0.7935723066329956,0.1507333517074585,0.005814254283905029,0.0,0.0,0.0,-0.8599215745925903,0.33664944767951965,0.7313574552536011,0.4200000464916229,0.6679032444953918,9.847494766290765e-07,-4.209322469250765e-06,-0.7442479729652405,0.00023580188280902803,-0.00028112309519201517,-0.00010663061402738094,0.00500882463529706,0.0005987669574096799,-0.00036405841819942,0.3851308822631836,0.7517712712287903,0.5312135219573975,0.24841266870498657,0.011263392865657806,-0.1570245921611786,0.339018851518631,0.7359722256660461,0.42000001668930054,-0.600520670413971,-1.0529825687408447,-1.457815170288086,2.999999761581421,-0.17361518740653992,-0.1691374033689499,-0.16370061039924622,-0.15719464421272278,0.11949317902326584,0.060901373624801636,0.011200756765902042,-0.04447508975863457
