vladlanda/robotic-transformer/data/env_000_episode_0097.csv
sim_time_s,robot_box_x,robot_box_y,robot_box_z,robot_box_quat_w,robot_box_quat_x,robot_box_quat_y,robot_box_quat_z,robot_box_linvel_x,robot_box_linvel_y,robot_box_linvel_z,robot_box_angvel_x,robot_box_angvel_y,robot_box_angvel_z,cube_world_x,cube_world_y,cube_world_z,cube_quat_w,cube_quat_x,cube_quat_y,cube_quat_z,cube_linvel_x,cube_linvel_y,cube_linvel_z,cube_angvel_x,cube_angvel_y,cube_angvel_z,endpoint_world_x,endpoint_world_y,endpoint_world_z,endpoint_linvel_x,endpoint_linvel_y,endpoint_linvel_z,target_cube_world_x,target_cube_world_y,target_cube_world_z,gripper_actual_pos_rad_gp_leftgearjoint,gripper_actual_vel_rad_s_gp_leftgearjoint,gripper_actual_pos_rad_gp_rotatingjoint,gripper_actual_vel_rad_s_gp_rotatingjoint,motor_angle_rad_joint1,motor_angle_rad_joint2,motor_angle_rad_joint3,motor_angle_rad_joint4,motor_speed_rad_s_joint1,motor_speed_rad_s_joint2,motor_speed_rad_s_joint3,motor_speed_rad_s_joint4
0.0,0.0,0.0,0.0,1.0,0.0,0.0,0.0,0.0,0.0,0.0,0.0,0.0,0.0,-0.37202969193458557,0.6689439415931702,0.41999998688697815,1.0,0.0,0.0,0.0,0.0,0.0,0.0,0.0,0.0,0.0,3.42540442943573e-06,-0.005000244826078415,1.313499927520752,0.0,0.0,0.0,0.37514445185661316,0.6756570339202881,0.42000001668930054,-1.5707999467849731,0.0,0.0,0.0,0.0,0.0,0.0,0.0,0.0,0.0,0.0,0.0
0.016666666666666666,0.0028798619750887156,0.0021784245036542416,0.0,0.9998127818107605,0.0,0.0,0.019349535927176476,0.2409302145242691,0.18232566118240356,0.0,0.0,0.0,3.1418256759643555,-0.3720298111438751,0.6689436435699463,0.41999998688697815,1.0,3.279964630564791e-06,-8.339746386809566e-07,8.465587342243452e-08,-1.9833529222523794e-05,0.00017983045836444944,-6.132945418357849e-05,0.0009432713268324733,-0.004689474124461412,-0.00031981561915017664,-0.007108774036169052,0.003385307965800166,1.3159379959106445,-0.8141278028488159,0.9870992302894592,0.1809590607881546,0.37514445185661316,0.6756570339202881,0.42000001668930054,-1.5301095247268677,3.0000014305114746,-0.045848485082387924,-3.0000011920928955,0.0008699911995790899,0.000796642096247524,0.0007111926097422838,0.000611043069511652,0.11094316840171814,0.09758154302835464,0.08335907012224197,0.06825371086597443
0.03333333333333333,0.008963377214968204,0.0067984252236783504,0.0,0.9998008012771606,0.0,0.0,0.01995977945625782,0.40704864263534546,0.3152332901954651,0.0,0.0,0.0,-0.8690973520278931,-0.3720299303531647,0.6689435839653015,0.4200000464916229,1.0,3.3908179375430336e-06,-2.132458348569344e-06,-3.7097745320124886e-08,0.00026357852038927376,0.00026937833172269166,-0.00010509369894862175,-0.0017707126680761576,0.004130884539335966,-0.0001354814594378695,-0.02754109725356102,0.02612977847456932,1.3166096210479736,-1.5907888412475586,1.6165106296539307,-0.08341469615697861,0.37514445185661316,0.6756570339202881,0.42000001668930054,-1.4800902605056763,3.0000035762786865,-0.09588832408189774,-3.0000009536743164,0.002990438137203455,0.0026527235750108957,0.0022772762458771467,0.00186076236423105,0.16418766975402832,0.13974522054195404,0.11380848288536072,0.08629165589809418
0.05,0.01847084052860737,0.013893709518015385,0.0,0.9999771118164062,0.0,0.0,-0.0067635816521942616,0.6362012028694153,0.47210437059402466,0.0,0.0,0.0,-4.074793338775635,-0.37202996015548706,0.6689436435699463,0.4200000464916229,1.0,3.7651902857760433e-06,-2.2119197637948673e-06,5.609367637049445e-09,0.00026530938339419663,0.00026691678795032203,-0.00010440615005791187,-0.0017243892652913928,0.004177466034889221,-0.00012949809024576098,-0.057215817272663116,0.05697105824947357,1.3120343685150146,-1.9547536373138428,2.0165855884552,-0.4458744525909424,0.37514445185661316,0.6756570339202881,0.42000001668930054,-1.4300719499588013,3.000000476837158,-0.14591671526432037,-3.000002145767212,0.006011746823787689,0.005172873381525278,0.004261682741343975,0.0032738205045461655,0.20712177455425262,0.16680307686328888,0.12455978989601135,0.0803150087594986
0.06666666666666667,0.030775517225265503,0.02337709069252014,0.0,0.9998844265937805,0.0,0.0,-0.01520492509007454,0.7723925709724426,0.6158849000930786,0.0,0.0,0.0,-0.04029759019613266,-0.37202996015548706,0.6689435839653015,0.4200000464916229,0.9999999403953552,3.406832092878176e-06,-2.28558906201215e-06,4.300801492718165e-07,0.0002670248504728079,0.0002679176686797291,-0.0001043803058564663,-0.00174071139190346,0.00421183044090867,-0.00012850876373704523,-0.09451048821210861,0.08954784274101257,1.3014111518859863,-2.368072032928467,2.061511516571045,-0.8186408281326294,0.37514445185661316,0.6756570339202881,0.42000001668930054,-1.3800443410873413,2.999999523162842,-0.1206558346748352,3.0,0.008703428320586681,0.007146282121539116,0.00547656137496233,0.0036895794328302145,0.14809653162956238,0.097246453166008,0.04425356537103653,-0.010959294624626637
0.08333333333333333,0.03750821202993393,0.03104378469288349,0.0,0.9992279410362244,0.0,0.0,-0.03928747773170471,0.2230902463197708,0.33316585421562195,0.0,0.0,0.0,-3.814258098602295,-0.37202996015548706,0.6689435839653015,0.4200000464916229,0.9999999403953552,3.626166289905086e-06,-2.3353043161478126e-06,3.032100153177453e-07,0.00026614085072651505,0.0002668516826815903,-0.00010405341163277626,-0.001728349830955267,0.004196455702185631,-0.0001279077841900289,-0.12856706976890564,0.12802638113498688,1.2857911586761475,-1.7748301029205322,2.5658929347991943,-0.9814960360527039,0.37514445185661316,0.6756570339202881,0.42000001668930054,-1.3300367593765259,2.999999523162842,-0.1526368409395218,-3.00000262260437,0.0055722761899232864,0.003223789855837822,0.0007119353394955397,-0.001971702789887786,-0.35517606139183044,-0.41216573119163513,-0.47210565209388733,-0.5352438688278198
0.1,0.04671279713511467,0.04094555601477623,0.0,0.995806872844696,0.0,0.0,-0.09148047864437103,0.5652286410331726,0.5983732342720032,0.0,0.0,0.0,-7.204860687255859,-0.37202996015548706,0.6689435839653015,0.4200000464916229,1.0,3.4222334761579987e-06,-2.3086047349352157e-06,1.796183539681806e-07,0.0002668157103471458,0.00026800340856425464,-0.00010440708138048649,-0.0017429988365620375,0.004207124002277851,-0.00012891183723695576,-0.15907065570354462,0.1767297089099884,1.2638139724731445,-1.923771619796753,3.1805763244628906,-1.5434479713439941,0.37514445185661316,0.6756570339202881,0.42000001668930054,-1.2800171375274658,2.9999916553497314,-0.1191500574350357,2.9999992847442627,0.0027970317751169205,-0.0008206800557672977,-0.004616457503288984,-0.008601408451795578,-0.26548483967781067,-0.3258385956287384,-0.38741663098335266,-0.45033594965934753
0.11666666666666667,0.054685477167367935,0.05260946974158287,0.0,0.9926826357841492,0.0,0.0,-0.1207524836063385,0.4289381206035614,0.72883141040802,0.0,0.0,0.0,-2.3307721614837646,-0.37202996015548706,0.6689436435699463,0.4200000464916229,1.0,3.7116215025889687e-06,-2.3326904283749172e-06,2.5741752551766695e-07,0.00026485833222977817,0.0002663549967110157,-0.00010423408821225166,-0.0017181988805532455,0.004170059692114592,-0.00012915713887196034,-0.19746875762939453,0.22417646646499634,1.2380571365356445,-2.3414902687072754,2.891810655593872,-1.615544319152832,0.37514445185661316,0.6756570339202881,0.42000001668930054,-1.2300235033035278,3.000000238418579,-0.1510946899652481,-3.000000476837158,0.0004583228728733957,-0.004666741006076336,-0.00994220282882452,-0.015378129668533802,-0.13304077088832855,-0.23019713163375854,-0.32466113567352295,-0.4163299798965454
0.13333333333333333,0.05982070788741112,0.06221815571188927,0.0,0.9870823621749878,0.0,0.0,-0.16021347045898438,0.2556155323982239,0.5195820331573486,0.0,0.0,0.0,-5.622270107269287,-0.37202996015548706,0.6689435839653015,0.4200000464916229,1.0,3.3357862321281573e-06,-2.231929329354898e-06,3.1130659294831275e-07,0.00026669795624911785,0.00026759557658806443,-0.00010428577661514282,-0.0017371183494105935,0.004205892328172922,-0.00012840361159760505,-0.2330770045518875,0.27736881375312805,1.2086502313613892,-1.8685767650604248,3.5330710411071777,-1.9044792652130127,0.37514445185661316,0.6756570339202881,0.42000001668930054,-1.180004358291626,2.9999942779541016,-0.11754411458969116,2.999999761581421,-0.0023667027708142996,-0.009287054650485516,-0.016294963657855988,-0.02339865081012249,-0.2285260111093521,-0.3359297811985016,-0.43930697441101074,-0.5385538339614868
0.15,0.06890913844108582,0.0699925348162651,0.0,0.9804221987724304,0.0,0.0,-0.19690679013729095,0.5319294333457947,0.4767157733440399,0.0,0.0,0.0,-3.408694267272949,-0.37202996015548706,0.6689435839653015,0.4200000464916229,1.0,3.5189802929380676e-06,-2.2830829493614146e-06,-3.625531803663762e-07,0.00026618537958711386,0.0002673575363587588,-0.00010425481013953686,-0.0017349323024973273,0.004195748828351498,-0.0001286051847273484,-0.26744961738586426,0.3338864743709564,1.1715068817138672,-2.0583436489105225,3.529820442199707,-2.6004276275634766,0.37514445185661316,0.6756570339202881,0.42000001668930054,-1.1373194456100464,2.1572861671447754,-0.1495209038257599,-2.999995470046997,-0.004822867456823587,-0.013384992256760597,-0.021961860358715057,-0.030562056228518486,-0.3954772353172302,-0.4476180672645569,-0.4975934624671936,-0.5454716682434082
0.16666666666666666,0.07407555729150772,0.07869556546211243,0.0,0.9695612192153931,0.0,0.0,-0.2448490709066391,0.26730412244796753,0.5391107201576233,0.0,0.0,0.0,-6.636712551116943,-0.37202996015548706,0.6689435839653015,0.4200000464916229,1.0,3.666678594527184e-06,-2.3391096419800306e-06,-3.150171608012897e-07,0.00026595700182951987,0.0002666723739821464,-0.00010403268970549107,-0.0017252295510843396,0.0041927071288228035,-0.00012778618838638067,-0.29965290427207947,0.39710307121276855,1.1210558414459229,-1.6917612552642822,4.051514625549316,-3.3515682220458984,0.37514445185661316,0.6756570339202881,0.42000001668930054,-1.0885759592056274,3.0000011920928955,-0.19955043494701385,-2.9999985694885254,-0.014802463352680206,-0.02382885478436947,-0.03283749148249626,-0.04184231162071228,-0.6257718205451965,-0.6478866934776306,-0.6675918102264404,-0.6851890683174133
0.18333333333333332,0.07643796503543854,0.08671507984399796,0.0,0.9623376131057739,0.0,0.0,-0.27185720205307007,0.09350619465112686,0.43694746494293213,0.0,0.0,0.0,-2.2899234294891357,-0.37202996015548706,0.6689435839653015,0.4200000464916229,1.0,3.814429419435328e-06,-2.399473942205077e-06,-2.702885524286103e-07,0.0002654908748809248,0.00026611171779222786,-0.00010391091927886009,-0.0017177866538986564,0.00418477039784193,-0.00012754213821608573,-0.330241858959198,0.45985275506973267,1.0575413703918457,-1.5641250610351562,3.807516098022461,-4.22440242767334,0.37514445185661316,0.6756570339202881,0.42000001668930054,-1.038572907447815,2.9999992847442627,-0.2495773434638977,-3.0000016689300537,-0.026391463354229927,-0.035390954464673996,-0.04433491826057434,-0.05324697121977806,-0.7381816506385803,-0.7187119722366333,-0.6975544691085815,-0.6753971576690674
0.2,0.07910781353712082,0.09542656689882278,0.0,0.9504213929176331,0.0,0.0,-0.3109648823738098,0.1949542909860611,0.5602909326553345,0.0,0.0,0.0,-5.830387592315674,-0.37202996015548706,0.6689435839653015,0.4200000464916229,1.0,3.600096079026116e-06,-2.2911845007911325e-06,-2.2019764855940593e-07,0.00026572897331789136,0.0002664489147718996,-0.00010398100130259991,-0.0017226696945726871,0.004188799764961004,-0.00012773496564477682,-0.354202002286911,0.5234261751174927,0.980421781539917,-1.134966254234314,3.7788262367248535,-4.953562259674072,0.37514445185661316,0.6756570339202881,0.42000001668930054,-0.9885653257369995,3.0000007152557373,-0.2996053397655487,-2.9999983310699463,-0.0396781750023365,-0.04819954186677933,-0.0566423125565052,-0.0650429055094719,-0.8368564248085022,-0.7988138794898987,-0.759979784488678,-0.7210884690284729
0.21666666666666667,0.08002609759569168,0.10146653652191162,0.0,0.943468451499939,0.0,0.0,-0.33146241307258606,-0.03842778131365776,0.3179101049900055,0.0,0.0,0.0,-1.4788117408752441,-0.37202996015548706,0.6689435839653015,0.4200000464916229,0.9999999403953552,3.6396977520780638e-06,-2.2619728952122387e-06,2.224548865115139e-07,0.000266873772488907,0.0002675457508303225,-0.00010411953553557396,-0.0017404764657840133,0.004211100284010172,-0.00012783778947778046,-0.37453120946884155,0.5779262781143188,0.8931742906570435,-0.9298321008682251,2.970792770385742,-5.5105390548706055,0.37514445185661316,0.6756570339202881,0.42000001668930054,-0.9385546445846558,3.000002145767212,-0.3496355712413788,-3.000002384185791,-0.05471845343708992,-0.06284742057323456,-0.0706254318356514,-0.07784914970397949,-0.9859011173248291,-0.983043372631073,-0.9536617398262024,-0.8571774363517761
0.23333333333333334,0.07621388137340546,0.10938605666160583,0.0,0.9325853586196899,0.0,0.0,-0.3609495460987091,-0.31399109959602356,0.5292614698410034,0.0,0.0,0.0,-4.506859302520752,-0.3720299303531647,0.6689435839653015,0.4200000464916229,1.0,3.42080284099211e-06,-2.3168156531028217e-06,2.9557230618593167e-07,0.0002668006927706301,0.0002680390316527337,-0.00010442431084811687,-0.0017437431961297989,0.004206867888569832,-0.0001289910142077133,-0.38756173849105835,0.6233478784561157,0.7950630187988281,-0.527320384979248,2.412905216217041,-6.085299015045166,0.37514445185661316,0.6756570339202881,0.42000001668930054,-0.888543963432312,3.0000011920928955,-0.39966723322868347,-3.00000262260437,-0.07068976759910583,-0.07888742536306381,-0.0867418423295021,-0.09403369575738907,-0.9899176359176636,-0.9920041561126709,-0.993601381778717,-0.993739128112793
0.25,0.07621583342552185,0.11286257952451706,0.0,0.9281924962997437,0.0,0.0,-0.3721004128456116,0.010845916345715523,0.13240379095077515,0.0,0.0,0.0,-0.18407751619815826,-0.37202996015548706,0.6689435839653015,0.4200000464916229,0.9999999403953552,3.3476630960649345e-06,-2.259201437482261e-06,1.8082572239563888e-07,0.00026687735226005316,0.00026791065465658903,-0.00010439311154186726,-0.0017403911333531141,0.004208162892609835,-0.00012870095088146627,-0.39925795793533325,0.6548366546630859,0.6939710378646851,-0.5249217748641968,1.3575482368469238,-6.103482246398926,0.37514445185661316,0.6756570339202881,0.42000001668930054,-0.8385335206985474,2.9999983310699463,-0.44969889521598816,-3.0000011920928955,-0.08533944934606552,-0.09344380348920822,-0.10123097896575928,-0.1084655374288559,-0.9908948540687561,-0.9924781918525696,-0.9937390685081482,-0.994030237197876
0.26666666666666666,0.0722436010837555,0.11377175152301788,0.0,0.9194594025611877,0.0,0.0,-0.39318495988845825,-0.3272813558578491,0.020375311374664307,0.0,0.0,0.0,-3.627372980117798,-0.37202996015548706,0.6689435839653015,0.4200000464916229,0.9999999403953552,3.535753194228164e-06,-2.3002676243777387e-06,-1.2687392825228017e-07,0.00026601721765473485,0.0002671221154741943,-0.00010419590398669243,-0.0017316217999905348,0.00419279420748353,-0.0001284939207835123,-0.40145716071128845,0.668225884437561,0.5905020236968994,0.2697276473045349,0.230123832821846,-6.081360816955566,0.37514445185661316,0.6756570339202881,0.42000001668930054,-0.7885246872901917,2.9999992847442627,-0.4997294545173645,-3.0000033378601074,-0.10321693867444992,-0.11100109666585922,-0.11854542046785355,-0.12558923661708832,-1.0048694610595703,-1.0036628246307373,-1.0027409791946411,-1.0020108222961426
0.2833333333333333,0.07133648544549942,0.11160890758037567,0.0,0.9174190759658813,0.0,0.0,-0.3979223966598511,-0.007845238782465458,-0.15462937951087952,0.0,0.0,0.0,0.21436618268489838,-0.37202996015548706,0.6689436435699463,0.4200000464916229,1.0,3.593504743548692e-06,-2.2625924884778215e-06,-5.655554602412849e-08,0.00026704728952609,0.0002677498559933156,-0.00010416866280138493,-0.0017431487794965506,0.0042141578160226345,-0.00012789281026925892,-0.3981744050979614,0.6725704073905945,0.49509239196777344,0.39567112922668457,0.03575585037469864,-5.308424472808838,0.37514445185661316,0.6756570339202881,0.42000001668930054,-0.7385159134864807,3.00000262260437,-0.5497581958770752,-2.999997854232788,-0.11980163305997849,-0.12759622931480408,-0.1351989507675171,-0.1423245370388031,-1.0282078981399536,-1.0213258266448975,-1.0160655975341797,-1.011860966682434
0.3,0.06749376654624939,0.10840627551078796,0.0,0.9260162115097046,0.0,0.0,-0.3774837851524353,-0.3132335841655731,-0.21433326601982117,0.0,0.0,0.0,3.6286540031433105,-0.3720299303531647,0.6689435839653015,0.4200000464916229,0.9999999403953552,3.7250931654853048e-06,-2.235988176835235e-06,3.8285057257780863e-07,0.0002647978253662586,0.0002667302906047553,-0.00010453863069415092,-0.0017188735073432326,0.00416669063270092,-0.00013016900629736483,-0.3904182016849518,0.6727503538131714,0.41272565722465515,0.6423420310020447,-0.09667615592479706,-4.678120136260986,0.37514445185661316,0.6756570339202881,0.42000001668930054,-0.6885088682174683,2.999999523162842,-0.5997848510742188,-3.000002145767212,-0.1376173496246338,-0.1451464295387268,-0.15255063772201538,-0.1595207005739212,-1.011245846748352,-1.0085357427597046,-1.0064588785171509,-1.0047869682312012
0.31666666666666665,0.05903121456503868,0.10379765182733536,0.0,0.9279554486274719,0.0,0.0,-0.37269118428230286,-0.5601416230201721,-0.3120688498020172,0.0,0.0,0.0,-0.3660203218460083,-0.37202996015548706,0.6689435839653015,0.4200000464916229,0.9999999403953552,3.557828677003272e-06,-2.2787926354794763e-06,2.2831554247204622e-07,0.0002659866586327553,0.0002665854699444026,-0.00010399054735898972,-0.0017240922898054123,0.004193658474832773,-0.00012769893510267138,-0.3899422287940979,0.6728368997573853,0.42518144845962524,0.09084860235452652,-0.09954068064689636,-0.19461727142333984,0.37514445185661316,0.6756570339202881,0.42000001668930054,-0.6386095285415649,2.999279260635376,-0.6502724885940552,-2.997398853302002,-0.1463906466960907,-0.15289732813835144,-0.15896572172641754,-0.16424460709095,-0.7324934005737305,-0.6114643216133118,-0.47701090574264526,-0.32908615469932556
0.3333333333333333,0.05063217133283615,0.09604865312576294,0.0,0.9349002242088318,0.0,0.0,-0.3549107015132904,-0.5339171886444092,-0.5093948245048523,0.0,0.0,0.0,3.1729862689971924,-0.3720287084579468,0.6689463257789612,0.42000019550323486,0.9999999403953552,-3.210961222066544e-05,1.0061078683065716e-05,-2.0868215869995765e-05,0.07474857568740845,0.17634524405002594,-0.0004636123776435852,-0.3590982258319855,0.0071119097992777824,-3.884490966796875,-0.3869801163673401,0.6746704578399658,0.42183101177215576,0.24445515871047974,0.1316293179988861,-0.17725777626037598,0.37514445185661316,0.6756570339202881,0.42000001668930054,-0.5886040925979614,2.997941732406616,-0.7003102898597717,-2.998777151107788,-0.15519599616527557,-0.16002239286899567,-0.16408883035182953,-0.16705560684204102,-0.4972435235977173,-0.3815147876739502,-0.24571466445922852,-0.09171102941036224
0.35,0.040095385164022446,0.08606370538473129,0.0,0.935668408870697,0.0,0.0,-0.3528805375099182,-0.6732395887374878,-0.6380752921104431,0.0,0.0,0.0,-0.7112930417060852,-0.3690648674964905,0.6720518469810486,0.4202471077442169,0.9984557032585144,-0.006461260374635458,0.0003273830225225538,-0.055173926055431366,0.36474406719207764,0.18993021547794342,0.1032247543334961,-5.440288543701172,0.17396043241024017,-12.893257141113281,-0.3807291090488434,0.6770384907722473,0.4205438494682312,0.468538761138916,0.21416789293289185,0.06505680829286575,0.37514445185661316,0.6756570339202881,0.42000001668930054,-0.5385925769805908,2.996570348739624,-0.750336229801178,-2.999913454055786,-0.16378353536128998,-0.1664595752954483,-0.16801419854164124,-0.16816002130508423,-0.49076417088508606,-0.35493630170822144,-0.19763872027397156,-0.022830532863736153
0.36666666666666664,0.028638729825615883,0.0738571286201477,0.0,0.9257134795188904,0.0,0.0,-0.3782255947589874,-0.7173687219619751,-0.7758823037147522,0.0,0.0,0.0,-4.083212852478027,-0.3600233793258667,0.6780139207839966,0.42124438285827637,0.9849859476089478,-0.031661491841077805,0.004795778077095747,-0.16963809728622437,0.7119857668876648,0.5073047876358032,0.05831218138337135,-2.9777746200561523,0.664143979549408,-16.515165328979492,-0.36969202756881714,0.683552086353302,0.42202481627464294,0.8597767353057861,0.5724599361419678,0.10590864717960358,0.37514445185661316,0.6756570339202881,0.42000001668930054,-0.48856133222579956,2.999999523162842,-0.8003482222557068,-2.999973773956299,-0.1722816675901413,-0.17248573899269104,-0.1711556613445282,-0.16809149086475372,-0.4639999270439148,-0.31480130553245544,-0.1394927054643631,0.05597558245062828
0.3833333333333333,0.01982957124710083,0.05882319062948227,0.0,0.9041887521743774,0.0,0.0,-0.427133172750473,-0.45557934045791626,-0.9566890597343445,0.0,0.0,0.0,-7.238410949707031,-0.3411010205745697,0.6933892369270325,0.4221583604812622,0.9650855660438538,-0.04918437823653221,0.005889125168323517,-0.2572082281112671,1.6915353536605835,1.337785005569458,0.10703270137310028,-1.6976972818374634,-7.547349452972412,-4.860459327697754,-0.3492622971534729,0.6989223957061768,0.4240347146987915,1.6509324312210083,1.2815697193145752,0.13633708655834198,0.37514445185661316,0.6756570339202881,0.42000001668930054,-0.438520222902298,3.0000853538513184,-0.850361704826355,-2.9999568462371826,-0.17950080335140228,-0.17718186974525452,-0.17285577952861786,-0.1664367914199829,-0.37353381514549255,-0.22365917265415192,-0.0464160181581974,0.1510167419910431
0.4,0.015090609900653362,0.040591079741716385,0.0,0.8678439855575562,0.0,0.0,-0.4968368411064148,-0.21505461633205414,-1.1540032625198364,0.0,0.0,0.0,-10.207818031311035,-0.29067203402519226,0.7219894528388977,0.42418861389160156,0.9527555108070374,-0.011641319841146469,-0.03933784365653992,-0.3009547293186188,4.133193016052246,2.406252861022949,0.2198285460472107,26.38784408569336,-17.45322036743164,6.0703349113464355,-0.298845112323761,0.7288200259208679,0.4253706932067871,4.0415449142456055,2.2113184928894043,0.318828284740448,0.37514445185661316,0.6756570339202881,0.42000001668930054,-0.39589497447013855,1.6516677141189575,-0.8136737942695618,2.999798536300659,-0.18905213475227356,-0.18296965956687927,-0.17464613914489746,-0.16415274143218994,-0.5838737487792969,-0.3418963849544525,-0.09497252106666565,0.14712212979793549
0.4166666666666667,0.01246415264904499,0.027507999911904335,0.0,0.8130065202713013,0.0,0.0,-0.5822545886039734,-0.11641734093427658,-0.6529763340950012,0.0,0.0,0.0,-13.004810333251953,-0.19719645380973816,0.7601718306541443,0.42952269315719604,0.9260114431381226,0.053719110786914825,-0.08659394085407257,-0.3634810447692871,7.236253261566162,1.9546774625778198,0.4539942145347595,5.007566928863525,-9.068474769592285,18.366992950439453,-0.20479276776313782,0.7678347826004028,0.4306116998195648,6.956268787384033,2.5799965858459473,0.36396512389183044,0.37514445185661316,0.6756570339202881,0.42000001668930054,-0.3771141767501831,0.9067063927650452,-0.776014506816864,1.6562517881393433,-0.2047867476940155,-0.19578248262405396,-0.18175603449344635,-0.16603557765483856,-0.8902010321617126,-0.8735337853431702,-0.5364442467689514,-0.238409161567688
0.43333333333333335,0.006175416521728039,0.02189098671078682,0.0,0.7639784216880798,0.0,0.0,-0.6452417969703674,-0.4995220899581909,-0.32630977034568787,0.0,0.0,0.0,-8.369140625,-0.08766482025384903,0.7875781655311584,0.439072847366333,0.8761645555496216,0.08345913141965866,-0.10830643773078918,-0.46221205592155457,6.55433464050293,0.4981766641139984,0.8374008536338806,15.574176788330078,-3.724762439727783,23.453582763671875,-0.09408101439476013,0.7979166507720947,0.4401024580001831,6.488295078277588,1.2018332481384277,0.639178991317749,0.37514445185661316,0.6756570339202881,0.42000001668930054,-0.3640695810317993,0.7467503547668457,-0.8121492266654968,-3.0000016689300537,-0.21884556114673615,-0.21017974615097046,-0.19552750885486603,-0.17469197511672974,-0.6402084231376648,-0.692510187625885,-0.7486317753791809,-0.5237360000610352
0.45,0.004128769505769014,0.009334982372820377,0.0,0.7351121306419373,0.0,0.0,-0.6779454946517944,-0.005632094573229551,-0.9424541592597961,0.0,0.0,0.0,-4.230443954467773,0.019676852971315384,0.798681914806366,0.449842631816864,0.8108597993850708,0.09672151505947113,-0.10087672621011734,-0.56830894947052,6.142016410827637,-0.7218641638755798,0.8859134912490845,1.323040246963501,11.672402381896973,12.266077995300293,0.012782158330082893,0.8112459182739258,0.44992220401763916,6.4567365646362305,0.22256341576576233,0.6142339706420898,0.37514445185661316,0.6756570339202881,0.42000001668930054,-0.3503519296646118,0.7689815759658813,-0.8621736168861389,-2.9993233680725098,-0.2240862101316452,-0.21586081385612488,-0.20186474919319153,-0.17800286412239075,-0.20187683403491974,-0.18919207155704498,-0.19880463182926178,-0.04182750731706619
0.4666666666666667,0.001003642799332738,-0.0008254259591922164,0.0,0.7286925911903381,0.0,0.0,-0.684840977191925,-0.21131838858127594,-0.48106566071510315,0.0,0.0,0.0,-0.10743358731269836,0.11474575102329254,0.7923353910446167,0.458429217338562,0.7355918884277344,0.10388687998056412,-0.07548726350069046,-0.6651418805122375,5.251807689666748,-1.481991171836853,0.367602676153183,1.501164197921753,-15.806571006774902,4.116150856018066,0.1086316853761673,0.8076038956642151,0.45877310633659363,5.201605796813965,-0.6800901889801025,0.46996253728866577,0.37514445185661316,0.6756570339202881,0.42000001668930054,-0.3394162952899933,0.4053126275539398,-0.9121982455253601,-3.0000038146972656,-0.22995969653129578,-0.22088532149791718,-0.20660050213336945,-0.1805906593799591,-0.30022865533828735,-0.25748154520988464,-0.25358596444129944,-0.18055127561092377
0.48333333333333334,2.4365937861148268e-05,-0.0056644706055521965,0.0,0.7148696780204773,0.0,0.0,-0.6992576718330383,-0.002881227992475033,-0.2251550257205963,0.0,0.0,0.0,-3.248729705810547,0.19337046146392822,0.7764008641242981,0.4600318968296051,0.6907091736793518,0.09774546325206757,-0.07049556821584702,-0.7130195498466492,3.94834303855896,-2.3310625553131104,-0.07758161425590515,-18.542924880981445,-9.131312370300293,35.548580169677734,0.19038541615009308,0.7918044328689575,0.46118807792663574,4.789459228515625,-1.3417481184005737,0.0734386220574379,0.37514445185661316,0.6756570339202881,0.42000001668930054,-0.3341343402862549,0.0572860948741436,-0.9622222781181335,-3.000002145767212,-0.2341841608285904,-0.2244388610124588,-0.210044264793396,-0.18328207731246948,-0.2300800383090973,-0.1685483455657959,-0.14114822447299957,-0.10663911700248718
0.5,0.0019559995271265507,-0.006862789858132601,0.0,0.7140450477600098,0.0,0.0,-0.700099766254425,0.15186995267868042,-0.01621449738740921,0.0,0.0,0.0,0.7040665149688721,0.2611384391784668,0.7514247298240662,0.45658716559410095,0.6203514933586121,0.08382228016853333,-0.058128513395786285,-0.777662456035614,3.086418390274048,-2.288273811340332,-0.34825053811073303,-12.425674438476562,-0.5568132400512695,20.348785400390625,0.25869879126548767,0.7663248777389526,0.4581548571586609,3.7598955631256104,-1.747776746749878,-0.264548122882843,0.37514445185661316,0.6756570339202881,0.42000001668930054,-0.333136647939682,0.03546082228422165,-1.0122458934783936,-3.0000007152557373,-0.23635539412498474,-0.22595329582691193,-0.2115105390548706,-0.18505379557609558,-0.053921639919281006,-0.02485588751733303,-0.0366160050034523,-0.09556877613067627
0.5166666666666666,0.007196004502475262,-0.011493922211229801,0.0,0.7024801969528198,0.0,0.0,-0.7117033004760742,0.30257102847099304,-0.2899436056613922,0.0,0.0,0.0,-2.7484829425811768,0.31482434272766113,0.7271692156791687,0.4454247057437897,0.5864377617835999,0.06330004334449768,-0.05324627459049225,-0.805759608745575,2.716846227645874,-1.5415219068527222,-0.77351313829422,-0.5197954773902893,1.472646951675415,-0.7397339940071106,0.3129751682281494,0.741145133972168,0.44767874479293823,2.7730140686035156,-1.5416491031646729,-0.8086613416671753,0.37514445185661316,0.6756570339202881,0.42000001668930054,-0.3271825313568115,0.6188417673110962,-1.0622680187225342,-3.000000238418579,-0.23067013919353485,-0.22123593091964722,-0.2083698958158493,-0.18446308374404907,0.29166340827941895,0.24974940717220306,0.16562379896640778,0.0018006631871685386
0.5333333333333333,0.013882121071219444,-0.012269627302885056,0.0,0.703162431716919,0.0,0.0,-0.7110292911529541,0.45469874143600464,-0.027686484158039093,0.0,0.0,0.0,0.9186230897903442,0.3544439971446991,0.7036698460578918,0.42835733294487,0.5356292128562927,0.04439897462725639,-0.04747068136930466,-0.8419479727745056,1.8521240949630737,-1.4441769123077393,-1.1362943649291992,-0.19537179172039032,4.72178316116333,-3.2759602069854736,0.35118985176086426,0.7151665687561035,0.43147045373916626,1.9563896656036377,-1.5281813144683838,-1.1185882091522217,0.37514445185661316,0.6756570339202881,0.42000001668930054,-0.3072299361228943,1.707072138786316,-1.1122901439666748,-3.000000238418579,-0.22702226042747498,-0.21819590032100677,-0.20665086805820465,-0.18561123311519623,0.34063205122947693,0.2658943831920624,0.1525413691997528,-0.05782734230160713
0.55,0.022988224402070045,-0.01619851589202881,0.0,0.6930941939353943,0.0,0.0,-0.7208470106124878,0.5763895511627197,-0.27939364314079285,0.0,0.0,0.0,-2.515230417251587,0.37272197008132935,0.6911946535110474,0.4200921654701233,0.5311475396156311,0.0033076172694563866,0.00022513621661346406,-0.8472728729248047,0.3684869706630707,-1.3332496881484985,0.22822195291519165,-16.393953323364258,-15.52258586883545,22.4196720123291,0.3705190122127533,0.7011033296585083,0.42356017231941223,0.43223750591278076,-0.35631468892097473,0.1203395426273346,0.37514445185661316,0.6756570339202881,0.42000001668930054,-0.27828460931777954,1.3212642669677734,-1.1256352663040161,1.0923700332641602,-0.21867749094963074,-0.21171891689300537,-0.20251008868217468,-0.1853455752134323,0.4741052985191345,0.37001004815101624,0.24192850291728973,0.020559869706630707
0.5666666666666667,0.029594922438263893,-0.016943059861660004,0.0,0.6950011253356934,0.0,0.0,-0.7190086245536804,0.33823174238204956,-0.00798641238361597,0.0,0.0,0.0,1.1549772024154663,0.37848299741744995,0.6824302077293396,0.4205901622772217,0.5559187531471252,-0.008078505285084248,0.011508955620229244,-0.8311176896095276,0.1828816533088684,-0.7953195571899414,0.09197434782981873,2.915177583694458,5.073078632354736,-0.8856452703475952,0.37476879358291626,0.6911447048187256,0.42414313554763794,0.14544165134429932,-0.5188966989517212,0.11370095610618591,0.37514445185661316,0.6756570339202881,0.42000001668930054,-0.2903795540332794,-1.8629601001739502,-1.1625951528549194,-2.984724760055542,-0.21237504482269287,-0.20691820979118347,-0.19959285855293274,-0.1858934611082077,0.42340022325515747,0.3193211853504181,0.19598953425884247,-0.01885800249874592
0.5833333333333334,0.0365726500749588,-0.014604739844799042,0.0,0.6862005591392517,0.0,0.0,-0.7274123430252075,0.4454236328601837,0.18324041366577148,0.0,0.0,0.0,-2.3775815963745117,0.3809055685997009,0.6773332357406616,0.4217410087585449,0.5717446804046631,-0.026736214756965637,0.02997995913028717,-0.8194475173950195,0.19193540513515472,0.018708378076553345,0.120184525847435,-0.43547043204307556,4.598615646362305,3.974362373352051,0.3773273825645447,0.6886991858482361,0.4262554943561554,0.19789856672286987,0.020316481590270996,0.14545047283172607,0.37514445185661316,0.6756570339202881,0.42000001668930054,-0.3068886995315552,-0.27105459570884705,-1.2125496864318848,-2.998587131500244,-0.20334771275520325,-0.2005169540643692,-0.19595326483249664,-0.18631505966186523,0.6557809710502625,0.4692295491695404,0.27901896834373474,0.018509525805711746
0.6,0.04548325389623642,-0.01707400195300579,0.0,0.6890977621078491,0.0,0.0,-0.7246683835983276,0.5266674160957336,-0.17704886198043823,0.0,0.0,0.0,1.3621766567230225,0.3824440836906433,0.6775715351104736,0.4221327602863312,0.5858533978462219,-0.03339838609099388,0.043598320335149765,-0.80855393409729,0.022531447932124138,-0.006404080893844366,-0.005366327706724405,0.9623333215713501,0.3326409161090851,1.606998085975647,0.37722262740135193,0.6879888772964478,0.4256436824798584,-0.14473308622837067,-0.06285572052001953,-0.04051082953810692,0.37514445185661316,0.6756570339202881,0.42000001668930054,-0.3448699414730072,-2.9998576641082764,-1.1753374338150024,2.999786138534546,-0.18958702683448792,-0.1899190992116928,-0.1886049509048462,-0.18334315717220306,0.7377014756202698,0.5840079188346863,0.42227497696876526,0.19313377141952515
0.6166666666666667,0.0543484091758728,-0.01538662426173687,0.0,0.7047638893127441,0.0,0.0,-0.7094419598579407,0.49847888946533203,0.0972999781370163,0.0,0.0,0.0,3.18855881690979,0.3817974925041199,0.6775871515274048,0.4211624562740326,0.5926204323768616,-0.01759159192442894,0.023865092545747757,-0.8049359917640686,-0.04926551505923271,0.010241014882922173,-0.0730605199933052,-1.2097514867782593,-3.860854148864746,0.2561480700969696,0.374244749546051,0.6871458292007446,0.42742347717285156,-0.17871145904064178,0.06773978471755981,0.17394454777240753,0.37514445185661316,0.6756570339202881,0.42000001668930054,-0.3949081301689148,-2.9999983310699463,-1.1967395544052124,-2.9991610050201416,-0.18172316253185272,-0.1837388128042221,-0.1842379868030548,-0.181854709982872,0.5358766317367554,0.4235612750053406,0.3071754276752472,0.1358177214860916
0.6333333333333333,0.06373677402734756,-0.016976555809378624,0.0,0.7063753604888916,0.0,0.0,-0.7078374624252319,0.5894435048103333,-0.14740701019763947,0.0,0.0,0.0,-0.7309994697570801,0.3807438611984253,0.6779729723930359,0.420001745223999,0.5998033285140991,-1.7125701560871676e-05,2.9929749416623963e-06,-0.8001474738121033,-0.012394485995173454,0.004306928254663944,-0.0004266773466952145,-0.00702298479154706,-0.02055709809064865,0.2859901785850525,0.3725191354751587,0.6905111074447632,0.4306930899620056,-0.09790446609258652,0.2317076325416565,0.21636375784873962,0.37514445185661316,0.6756570339202881,0.42000001668930054,-0.4449528753757477,-2.9999990463256836,-1.2467015981674194,-2.999293327331543,-0.17246730625629425,-0.1762605607509613,-0.17858116328716278,-0.17882031202316284,0.525586724281311,0.43666794896125793,0.3438637852668762,0.20678260922431946
0.65,0.07533860951662064,-0.015733754262328148,0.0,0.7180988788604736,0.0,0.0,-0.6959410309791565,0.7253350615501404,0.09877653419971466,0.0,0.0,0.0,2.8110690116882324,0.37929704785346985,0.6781365275382996,0.41999995708465576,0.6089779138565063,2.7267799396213377e-06,-1.737617935759772e-06,-0.7931872010231018,-0.07787991315126419,0.012819455936551094,1.0701187420636415e-06,8.273852290585637e-05,0.00013043121725786477,0.3449048399925232,0.3695136308670044,0.6918107271194458,0.43579399585723877,-0.20462390780448914,0.0515337809920311,0.43579262495040894,0.37514445185661316,0.6756570339202881,0.42000001668930054,-0.4949667155742645,-2.999999761581421,-1.2967199087142944,-3.0000009536743164,-0.16714808344841003,-0.1714392453432083,-0.17422746121883392,-0.17551274597644806,0.3391053378582001,0.3211653530597687,0.3122299909591675,0.2806258201599121
0.6666666666666666,0.0886712372303009,-0.017771128565073013,0.0,0.7179177403450012,0.0,0.0,-0.6961279511451721,0.8208193778991699,-0.16515220701694489,0.0,0.0,0.0,-1.0233837366104126,0.37815698981285095,0.6784444451332092,0.4200000464916229,0.607210636138916,-4.756627447477513e-07,-1.9131286990159424e-06,-0.7945408225059509,-0.001709638861939311,-1.787207838788163e-05,-4.385894862934947e-05,0.003614651272073388,0.0005423771217465401,0.016467537730932236,0.37025314569473267,0.6931324005126953,0.4417502284049988,0.18441630899906158,0.008306976407766342,0.44229403138160706,0.37514445185661316,0.6756570339202881,0.42000001668930054,-0.5449793338775635,-3.0000007152557373,-1.3467382192611694,-3.000000238418579,-0.16171084344387054,-0.16585665941238403,-0.16828185319900513,-0.16943718492984772,0.22115641832351685,0.272481232881546,0.33808669447898865,0.3947242200374603
0.6833333333333333,0.10355276614427567,-0.023563187569379807,0.0,0.6977279186248779,0.0,0.0,-0.7163628935813904,0.9311560988426208,-0.4246453642845154,0.0,0.0,0.0,-4.287929058074951,0.3781568109989166,0.6784446835517883,0.42000001668930054,0.6072109937667847,-2.013694484048756e-06,-4.580137556331465e-06,-0.7945405840873718,8.290845289593562e-05,-0.00035304087214171886,-9.067519567906857e-05,0.008278553374111652,-0.0023670201189816,-0.0005474312929436564,0.3795683979988098,0.6949478983879089,0.456448495388031,0.9014638662338257,0.1749492585659027,1.439058780670166,0.37514445185661316,0.6756570339202881,0.42000001668930054,-0.594990611076355,-2.999969244003296,-1.3967565298080444,-2.9999983310699463,-0.16051609814167023,-0.16347326338291168,-0.16448163986206055,-0.16430997848510742,-0.0059505123645067215,0.07865303009748459,0.1754951924085617,0.26949581503868103
0.7,0.12166531383991241,-0.0243320744484663,0.0,0.6888450384140015,0.0,0.0,-0.7249086499214172,1.0481046438217163,-0.023258421570062637,0.0,0.0,0.0,-0.3605233430862427,0.378156840801239,0.6784447431564331,0.41999998688697815,0.6072109341621399,-2.6073912522406317e-06,-4.607302344084019e-06,-0.7945406436920166,6.39695645077154e-05,-0.0003644537355285138,-0.00010098121128976345,0.008469531312584877,-0.0026625199243426323,-0.0005192976677790284,0.39589163661003113,0.6991560459136963,0.48740941286087036,1.1228580474853516,0.5086732506752014,2.2249279022216797,0.37514445185661316,0.6756570339202881,0.42000001668930054,-0.6431826949119568,-2.7666735649108887,-1.4467748403549194,-2.999995708465576,-0.16587096452713013,-0.16693554818630219,-0.1659681499004364,-0.16393497586250305,-0.14302895963191986,-0.09712637215852737,-0.04386740177869797,0.009828098118305206
0.7166666666666667,0.13591061532497406,-0.022391250357031822,0.0,0.7028101682662964,0.0,0.0,-0.7113774418830872,0.8079532980918884,0.11605919152498245,0.0,0.0,0.0,3.148380994796753,0.378156840801239,0.6784447431564331,0.41999998688697815,0.6072106957435608,-2.589554696896812e-06,-4.822802566195605e-06,-0.7945408821105957,6.46339904051274e-05,-0.0003644591197371483,-0.00010079401545226574,0.00847045797854662,-0.002654185751453042,-0.0005206436035223305,0.41559046506881714,0.7049343585968018,0.5170336961746216,1.225893497467041,0.2730041444301605,1.4100745916366577,0.37514445185661316,0.6756570339202881,0.42000001668930054,-0.6571059226989746,0.7976891994476318,-1.4967931509017944,-3.0,-0.16761790215969086,-0.16787976026535034,-0.16603246331214905,-0.16311827301979065,0.0150481928139925,0.047453176230192184,0.08206481486558914,0.11734738945960999
0.7333333333333333,0.14593417942523956,-0.0260669756680727,0.0,0.7046209573745728,0.0,0.0,-0.7095839381217957,0.5552268028259277,-0.18499620258808136,0.0,0.0,0.0,-0.6827557682991028,0.378156840801239,0.6784447431564331,0.42000001668930054,0.6072105169296265,-2.647048177095712e-06,-4.711620022135321e-06,-0.7945409417152405,6.365302397171035e-05,-0.0003638511698227376,-0.00010097026824951172,0.008452314883470535,-0.002660592785105109,-0.0005179098807275295,0.4305165410041809,0.7104659080505371,0.534795343875885,0.506898045539856,0.14725849032402039,0.8749701380729675,0.37514445185661316,0.6756570339202881,0.42000001668930054,-0.6583201885223389,-0.8013473749160767,-1.458077073097229,3.0000011920928955,-0.16301725804805756,-0.1633516103029251,-0.16159571707248688,-0.15876305103302002,0.05712880939245224,0.10362351685762405,0.13988634943962097,0.1683773398399353
0.75,0.15241988003253937,-0.025368325412273407,0.0,0.7160295844078064,0.0,0.0,-0.6980699300765991,0.3412417471408844,0.09673146158456802,0.0,0.0,0.0,2.7506749629974365,0.378156840801239,0.6784447431564331,0.41999998688697815,0.6072106957435608,-2.621169869598816e-06,-4.596982762450352e-06,-0.7945408225059509,6.460088479798287e-05,-0.00036431659827940166,-0.00010077143087983131,0.008467093110084534,-0.002654400886967778,-0.0005204963963478804,0.43691444396972656,0.7114160060882568,0.5460503101348877,0.28778159618377686,0.07209352403879166,0.5204238295555115,0.37514445185661316,0.6756570339202881,0.42000001668930054,-0.644477903842926,2.190572738647461,-1.4750584363937378,-2.9999990463256836,-0.1634816825389862,-0.16285207867622375,-0.16036705672740936,-0.15698139369487762,0.025909069925546646,0.06709438562393188,0.09227531403303146,0.1066150888800621
0.7666666666666666,0.1553165167570114,-0.02799556404352188,0.0,0.7157045006752014,0.0,0.0,-0.6984032392501831,0.1345617175102234,-0.21633996069431305,0.0,0.0,0.0,-0.942215085029602,0.378156840801239,0.6784447431564331,0.42000001668930054,0.6072105765342712,-2.640354068716988e-06,-4.499573606153717e-06,-0.7945409417152405,6.398215919034556e-05,-0.0003641166549641639,-0.00010092672891914845,0.008460036478936672,-0.002659315476194024,-0.000518857326824218,0.43559351563453674,0.7132992744445801,0.5497596263885498,-0.4462558627128601,0.06708601117134094,0.08645690977573395,0.37514445185661316,0.6756570339202881,0.42000001668930054,-0.6341725587844849,-0.7106536030769348,-1.4364047050476074,3.000000476837158,-0.16159093379974365,-0.1605973243713379,-0.15803629159927368,-0.154753640294075,0.07996369153261185,0.10709825903177261,0.11383533477783203,0.10742820054292679
0.7833333333333333,0.15501190721988678,-0.02705288492143154,0.0,0.7251883745193481,0.0,0.0,-0.6885505318641663,-0.09105636924505234,0.04899748042225838,0.0,0.0,0.0,2.267139196395874,0.378156840801239,0.6784447431564331,0.42000001668930054,0.6072105765342712,-2.5807182737480616e-06,-4.9123409553430974e-06,-0.7945408225059509,6.581848720088601e-05,-0.00036447757156565785,-0.00010046199895441532,0.008473258465528488,-0.002643501851707697,-0.0005232080584391952,0.42999154329299927,0.7121762037277222,0.5499967336654663,-0.16098898649215698,0.025924157351255417,-0.04140881821513176,0.37514445185661316,0.6756570339202881,0.42000001668930054,-0.6198819875717163,2.1629116535186768,-1.4538228511810303,-2.9999988079071045,-0.16271229088306427,-0.16091850399971008,-0.15786942839622498,-0.15429635345935822,0.09791280329227448,0.10044387727975845,0.09145074337720871,0.07875441014766693
0.8,0.15589895844459534,-0.029253289103507996,0.0,0.7223013043403625,0.0,0.0,-0.6915784478187561,0.10569904744625092,-0.168888658285141,0.0,0.0,0.0,-1.3161721229553223,0.378156840801239,0.6784447431564331,0.42000001668930054,0.6072108149528503,-2.6033226276922505e-06,-4.766292477142997e-06,-0.7945407032966614,6.371131166815758e-05,-0.0003638151683844626,-0.0001010349951684475,0.008448746055364609,-0.002660946687683463,-0.0005183835164643824,0.4249754846096039,0.7145777940750122,0.5461858510971069,-0.45624861121177673,0.129148930311203,-0.24465309083461761,0.37514445185661316,0.6756570339202881,0.42000001668930054,-0.615939199924469,-1.3841108083724976,-1.4152312278747559,2.9999988079071045,-0.1606985181570053,-0.15918254852294922,-0.15657712519168854,-0.15347659587860107,0.04267110303044319,0.035343900322914124,0.01690351776778698,-0.004623701795935631
0.8166666666666667,0.1594901978969574,-0.02868632785975933,0.0,0.7298997640609741,0.0,0.0,-0.6835542321205139,0.2619600296020508,0.06542777270078659,0.0,0.0,0.0,2.074127197265625,0.378156840801239,0.6784447431564331,0.41999998688697815,0.6072107553482056,-2.6384752800368005e-06,-4.6111408664728515e-06,-0.7945408225059509,6.455598486354575e-05,-0.0003644476237241179,-0.00010081985965371132,0.008469882421195507,-0.002655350835993886,-0.0005204969784244895,0.42096924781799316,0.7148823142051697,0.5426726341247559,0.0031088143587112427,0.015122946351766586,-0.13568110764026642,0.37514445185661316,0.6756570339202881,0.42000001668930054,-0.6249789595603943,0.17197121679782867,-1.4330573081970215,-2.999999523162842,-0.16132797300815582,-0.15959076583385468,-0.156840980052948,-0.1535569578409195,0.023099316284060478,0.028565600514411926,0.03641027957201004,0.05323590710759163
0.8333333333333334,0.16105888783931732,-0.03084253892302513,0.0,0.7263126969337463,0.0,0.0,-0.6873644590377808,0.03749394789338112,-0.17114286124706268,0.0,0.0,0.0,-1.4447969198226929,0.378156840801239,0.6784447431564331,0.42000001668930054,0.6072105765342712,-2.622636884552776e-06,-4.513586191023933e-06,-0.7945408225059509,6.407964247046039e-05,-0.00036416738294065,-0.0001009057741612196,0.008461547084152699,-0.002658768557012081,-0.0005191143718548119,0.4219219386577606,0.7132954597473145,0.5379929542541504,0.06894627213478088,-0.23477530479431152,-0.2730255722999573,0.37514445185661316,0.6756570339202881,0.42000001668930054,-0.6526374220848083,-3.0000007152557373,-1.3945232629776,2.999999523162842,-0.16154098510742188,-0.1594516932964325,-0.15628951787948608,-0.15244519710540771,-0.0915679857134819,-0.04484188184142113,0.004962449427694082,0.06166809797286987
0.85,0.16366799175739288,-0.03023434616625309,0.0,0.7038401961326599,0.0,0.0,-0.7103583812713623,0.2087220847606659,0.07165521383285522,0.0,0.0,0.0,-4.663026809692383,0.378156840801239,0.6784447431564331,0.41999998688697815,0.6072104573249817,-2.611817990327836e-06,-4.5841570681659505e-06,-0.7945409417152405,6.436115654651076e-05,-0.0003643052186816931,-0.00010085548274219036,0.008465778082609177,-0.002657420700415969,-0.000519866356626153,0.4287026822566986,0.7123715877532959,0.5360726714134216,0.7148404717445374,0.06469467282295227,0.17716537415981293,0.37514445185661316,0.6756570339202881,0.42000001668930054,-0.6759289503097534,-0.03167502582073212,-1.4127781391143799,-3.000000238418579,-0.16410185396671295,-0.16153183579444885,-0.1577368825674057,-0.1530480831861496,-0.10546610504388809,-0.09594770520925522,-0.07312840968370438,-0.033520691096782684
0.8666666666666667,0.1688561588525772,-0.027806131169199944,0.0,0.694941520690918,0.0,0.0,-0.7190662622451782,0.3407500982284546,0.25127390027046204,0.0,0.0,0.0,-0.4675339162349701,0.378156840801239,0.6784447431564331,0.42000001668930054,0.6072106957435608,-2.6121579139726236e-06,-4.4524458644445986e-06,-0.7945408821105957,6.491821841336787e-05,-0.0003639513743110001,-0.00010061776265501976,0.008457195945084095,-0.002647297689691186,-0.0005207355716265738,0.4376779794692993,0.7174851894378662,0.5424389839172363,0.3899921178817749,0.520769476890564,0.5630912184715271,0.37514445185661316,0.6756570339202881,0.42000001668930054,-0.6508537530899048,2.7771763801574707,-1.4627964496612549,-2.9999992847442627,-0.16428428888320923,-0.16229234635829926,-0.15890373289585114,-0.15438240766525269,0.009605750441551208,-0.05609052628278732,-0.11509696394205093,-0.1629180759191513
0.8833333333333333,0.17181949317455292,-0.02835226058959961,0.0,0.7076207399368286,0.0,0.0,-0.7065924406051636,0.14372017979621887,-0.08417290449142456,0.0,0.0,0.0,2.8885338306427,0.378156840801239,0.6784447431564331,0.42000001668930054,0.6072105169296265,-2.616271331135067e-06,-4.523621100815944e-06,-0.7945408821105957,6.417870463337749e-05,-0.0003642314695753157,-0.00010089878924190998,0.00846332497894764,-0.00265874364413321,-0.0005194158293306828,0.4383922815322876,0.7237050533294678,0.5498287081718445,-0.2869119942188263,0.24077805876731873,0.338265985250473,0.37514445185661316,0.6756570339202881,0.42000001668930054,-0.6318857669830322,-0.25409236550331116,-1.4241689443588257,3.000000238418579,-0.16252589225769043,-0.16142567992210388,-0.1588965654373169,-0.15513412654399872,0.02968493662774563,0.004646878689527512,-0.023719865828752518,-0.05213882401585579
