vladlanda/robotic-transformer/data/env_000_episode_0213.csv
sim_time_s,robot_box_x,robot_box_y,robot_box_z,robot_box_quat_w,robot_box_quat_x,robot_box_quat_y,robot_box_quat_z,robot_box_linvel_x,robot_box_linvel_y,robot_box_linvel_z,robot_box_angvel_x,robot_box_angvel_y,robot_box_angvel_z,cube_world_x,cube_world_y,cube_world_z,cube_quat_w,cube_quat_x,cube_quat_y,cube_quat_z,cube_linvel_x,cube_linvel_y,cube_linvel_z,cube_angvel_x,cube_angvel_y,cube_angvel_z,endpoint_world_x,endpoint_world_y,endpoint_world_z,endpoint_linvel_x,endpoint_linvel_y,endpoint_linvel_z,target_cube_world_x,target_cube_world_y,target_cube_world_z,gripper_actual_pos_rad_gp_leftgearjoint,gripper_actual_vel_rad_s_gp_leftgearjoint,gripper_actual_pos_rad_gp_rotatingjoint,gripper_actual_vel_rad_s_gp_rotatingjoint,motor_angle_rad_joint1,motor_angle_rad_joint2,motor_angle_rad_joint3,motor_angle_rad_joint4,motor_speed_rad_s_joint1,motor_speed_rad_s_joint2,motor_speed_rad_s_joint3,motor_speed_rad_s_joint4
0.0,0.0,0.0,0.0,1.0,0.0,0.0,0.0,0.0,0.0,0.0,0.0,0.0,0.0,-0.44444945454597473,0.6460894346237183,0.41999998688697815,1.0,0.0,0.0,0.0,0.0,0.0,0.0,0.0,0.0,0.0,3.42540442943573e-06,-0.005000244826078415,1.313499927520752,0.0,0.0,0.0,0.459543377161026,0.7633312940597534,0.42000001668930054,-1.5707999467849731,0.0,0.0,0.0,0.0,0.0,0.0,0.0,0.0,0.0,0.0,0.0
0.016666666666666666,0.0028778850100934505,0.0021806680597364902,0.0,0.9998081922531128,0.0,0.0,0.019586581736803055,0.24087215960025787,0.18240931630134583,0.0,0.0,0.0,3.1418697834014893,-0.4444495737552643,0.6460891366004944,0.41999998688697815,1.0,3.2799914606584935e-06,-8.339814598912199e-07,8.465387679734704e-08,-1.9833554688375443e-05,0.00017983050202019513,-6.133061833679676e-05,0.0009432226070202887,-0.004689437802881002,-0.0003198152990080416,-0.007110234349966049,0.003379564033821225,1.3159373998641968,-0.8143353462219238,0.9868683815002441,0.18095196783542633,0.459543377161026,0.7633312940597534,0.42000001668930054,-1.5301095247268677,3.0000011920928955,-0.04584788903594017,-2.9999992847442627,0.0008691533003002405,0.0007963840034790337,0.0007110277656465769,0.0006108740926720202,0.11094217747449875,0.09756709635257721,0.08334315568208694,0.06823883205652237
0.03333333333333333,0.008960966020822525,0.006801878102123737,0.0,0.9997960329055786,0.0,0.0,0.020196832716464996,0.4070203900337219,0.31530702114105225,0.0,0.0,0.0,-0.8691298961639404,-0.44444969296455383,0.6460890769958496,0.4200000464916229,1.0,3.390885240150965e-06,-2.1324319732229924e-06,-3.711133800265998e-08,0.00026357753085903823,0.00026937859365716577,-0.00010509602725505829,-0.0017706351354718208,0.004130707122385502,-0.00013548039714805782,-0.027546308934688568,0.025948112830519676,1.3166351318359375,-1.5914113521575928,1.6110460758209229,-0.08043648302555084,0.459543377161026,0.7633312940597534,0.42000001668930054,-1.4800903797149658,3.0000016689300537,-0.09588772058486938,-3.0000009536743164,0.0029901661910116673,0.0026528015732765198,0.0022773975506424904,0.0018608752870932221,0.16422559320926666,0.13977102935314178,0.11383186280727386,0.08631561696529388
0.05,0.017752761021256447,0.013771810568869114,0.0,0.9993764758110046,0.0,0.0,0.035308174788951874,0.5938769578933716,0.465104877948761,0.0,0.0,0.0,2.64823317527771,-0.4444497227668762,0.6460891366004944,0.4200000464916229,1.0,3.7651666389137972e-06,-2.2119106688478496e-06,5.6201381326559385e-09,0.00026530789909884334,0.00026691396487876773,-0.0001044049859046936,-0.0017242879839614034,0.004177392926067114,-0.00012949586380273104,-0.05967811867594719,0.053681880235672,1.3117156028747559,-2.1876139640808105,1.7505544424057007,-0.471366286277771,0.459543377161026,0.7633312940597534,0.42000001668930054,-1.4300720691680908,3.0,-0.145926371216774,-3.000002145767212,0.005709951743483543,0.004917884711176157,0.00405368534848094,0.0031129068229347467,0.1927584856748581,0.1558590531349182,0.11708468198776245,0.07634206116199493
0.06666666666666667,0.02906900644302368,0.02306554652750492,0.0,0.9994486570358276,0.0,0.0,0.03320154547691345,0.7204145789146423,0.5952115654945374,0.0,0.0,0.0,-1.211136817932129,-0.4444497227668762,0.6460890769958496,0.4200000464916229,0.9999999403953552,3.406765927138622e-06,-2.285584969285992e-06,4.3010237504859106e-07,0.0002670253161340952,0.00026791723212227225,-0.00010437797755002975,-0.0017405577236786485,0.004211726598441601,-0.0001285084872506559,-0.0985252857208252,0.08724130690097809,1.2992057800292969,-2.4749083518981934,2.1668789386749268,-1.0007497072219849,0.459543377161026,0.7633312940597534,0.42000001668930054,-1.3800537586212158,3.0,-0.19596201181411743,-3.0000009536743164,0.008361767046153545,0.006899514701217413,0.005326361861079931,0.0036353447940200567,0.15817977488040924,0.10865096747875214,0.057091567665338516,0.003440176136791706
0.08333333333333333,0.04244908317923546,0.0346342995762825,0.0,0.9995371103286743,0.0,0.0,0.030422063544392586,0.8410964012145996,0.7377472519874573,0.0,0.0,0.0,0.10967190563678741,-0.4444497227668762,0.6460890769958496,0.4200000464916229,1.0,3.697324700624449e-06,-2.1889497929805657e-06,-2.6323201041122957e-07,0.00026389677077531815,0.0002658632874954492,-0.00010433816350996494,-0.001708115916699171,0.004150166176259518,-0.0001299091090913862,-0.14215311408042908,0.12349297106266022,1.2786946296691895,-2.728346824645996,2.163797378540039,-1.4380884170532227,0.459543377161026,0.7633312940597534,0.42000001668930054,-1.330033302307129,3.000002861022949,-0.2345658391714096,-1.7132232189178467,0.00996340997517109,0.007667443715035915,0.005220206920057535,0.0026162059511989355,0.07647058367729187,0.020296629518270493,-0.037834398448467255,-0.09799399971961975
0.1,0.04977225884795189,0.049542296677827835,0.0,0.9999696612358093,0.0,0.0,0.007791142910718918,0.30854421854019165,0.9578745365142822,0.0,0.0,0.0,-3.648113965988159,-0.4444497227668762,0.6460890769958496,0.4200000464916229,0.9999999403953552,3.6204476145940134e-06,-2.2652093321084976e-06,1.746138025282562e-07,0.00026676998822949827,0.0002674069837667048,-0.00010407832451164722,-0.0017385098617523909,0.0042091780342161655,-0.00012775610957760364,-0.18381130695343018,0.16395524144172668,1.252013087272644,-2.327671766281128,2.5767130851745605,-1.6849511861801147,0.459543377161026,0.7633312940597534,0.42000001668930054,-1.2800058126449585,3.000000476837158,-0.2192198485136032,2.9999985694885254,0.005055459216237068,0.0020523963030427694,-0.001150002353824675,-0.0045612831600010395,-0.41283783316612244,-0.4645936191082001,-0.5186920762062073,-0.5753862261772156
0.11666666666666667,0.06104639545083046,0.06609614938497543,0.0,0.9993091821670532,0.0,0.0,-0.037164077162742615,0.8492369055747986,0.9988152384757996,0.0,0.0,0.0,-6.464755058288574,-0.4444497227668762,0.6460890769958496,0.4200000464916229,1.0,3.7984607388352742e-06,-2.2627837097388692e-06,-1.502189377333707e-07,0.0002637402794789523,0.000265660259174183,-0.00010428996756672859,-0.001705392962321639,0.004147498402744532,-0.0001297990238526836,-0.22290192544460297,0.20702610909938812,1.226223111152649,-2.307487964630127,2.68949294090271,-1.5017526149749756,0.459543377161026,0.7633312940597534,0.42000001668930054,-1.2300127744674683,3.0000009536743164,-0.25055065751075745,-3.0000009536743164,0.0019709691405296326,-0.0025498359464108944,-0.007268967106938362,-0.01219574362039566,-0.08116433024406433,-0.19207008183002472,-0.30141663551330566,-0.40907272696495056
0.13333333333333333,0.07104980200529099,0.07978732138872147,0.0,0.9978800415992737,0.0,0.0,-0.06507966667413712,0.5897399187088013,0.7902431488037109,0.0,0.0,0.0,-2.172443389892578,-0.4444497227668762,0.6460891366004944,0.4200000464916229,0.9999999403953552,3.5505347568687284e-06,-2.22979360842146e-06,2.929032234533224e-07,0.00026703241746872663,0.0002677922893781215,-0.00010416889563202858,-0.0017439969815313816,0.004213562235236168,-0.00012800225522369146,-0.2636635899543762,0.2495308518409729,1.1985280513763428,-2.323147773742676,2.8582980632781982,-1.7505531311035156,0.459543377161026,0.7633312940597534,0.42000001668930054,-1.1799921989440918,2.999994993209839,-0.21685029566287994,3.0000014305114746,-0.0022623089607805014,-0.00847968365997076,-0.014860724098980427,-0.02141403965651989,-0.21219699084758759,-0.3289393186569214,-0.4420541822910309,-0.5513770580291748
0.15,0.07828116416931152,0.0906076729297638,0.0,0.994652509689331,0.0,0.0,-0.10327792912721634,0.386557400226593,0.570286750793457,0.0,0.0,0.0,-5.375304698944092,-0.4444497227668762,0.6460890769958496,0.4200000464916229,0.9999999403953552,3.3381270441168454e-06,-2.242865321022691e-06,-2.8034685684019678e-08,0.00026674428954720497,0.00026758096646517515,-0.00010427669622004032,-0.001736762817017734,0.004206823650747538,-0.00012831517960876226,-0.30070793628692627,0.30186837911605835,1.165688157081604,-2.097470760345459,3.439147472381592,-2.194699764251709,0.459543377161026,0.7633312940597534,0.42000001668930054,-1.1300005912780762,3.000000238418579,-0.24818959832191467,-3.0000009536743164,-0.007538440637290478,-0.01553456112742424,-0.023622088134288788,-0.03180863335728645,-0.3739607036113739,-0.46988824009895325,-0.5612157583236694,-0.6479177474975586
0.16666666666666666,0.08167760819196701,0.1017327532172203,0.0,0.9926479458808899,0.0,0.0,-0.1210373193025589,0.1218561977148056,0.6997765898704529,0.0,0.0,0.0,-0.9803447127342224,-0.4444497227668762,0.6460891366004944,0.4200000464916229,0.9999999403953552,3.6478829770203447e-06,-2.3072709609550657e-06,3.525496694578578e-08,0.0002672694972716272,0.00026801449712365866,-0.0001041849609464407,-0.0017472092295065522,0.0042175669223070145,-0.00012798579700756818,-0.339918851852417,0.35483288764953613,1.1214652061462402,-2.2882394790649414,3.2720835208892822,-3.0799920558929443,0.459543377161026,0.7633312940597534,0.42000001668930054,-1.089599370956421,1.9101694822311401,-0.2735230028629303,-0.25963294506073,-0.015439311973750591,-0.024555491283535957,-0.033681027591228485,-0.04282654821872711,-0.5473759770393372,-0.5884445905685425,-0.6249963045120239,-0.6573575735092163
0.18333333333333332,0.08872879296541214,0.1147737056016922,0.0,0.9884409308433533,0.0,0.0,-0.1516064703464508,0.4472726881504059,0.8023069500923157,0.0,0.0,0.0,-4.490942001342773,-0.4444497227668762,0.6460890769958496,0.4200000464916229,0.9999999403953552,3.2905975331232185e-06,-2.1938601548754377e-06,-2.792509121718467e-07,0.00026677976711653173,0.000267760653514415,-0.00010434305295348167,-0.0017391698202118278,0.004207034129649401,-0.00012845548917539418,-0.3774137794971466,0.41263699531555176,1.064300537109375,-2.1130878925323486,3.5702929496765137,-3.7884182929992676,0.459543377161026,0.7633312940597534,0.42000001668930054,-1.0414739847183228,2.9999988079071045,-0.3197121024131775,-3.000000238418579,-0.02368929050862789,-0.033385761082172394,-0.04301966354250908,-0.052608102560043335,-0.6597358584403992,-0.660976767539978,-0.6597466468811035,-0.6565213203430176
0.2,0.09241578727960587,0.1253148764371872,0.0,0.9841805696487427,0.0,0.0,-0.17716823518276215,0.19898338615894318,0.5786556005477905,0.0,0.0,0.0,-2.374751091003418,-0.4444497227668762,0.6460890769958496,0.4200000464916229,1.0,3.2808072774059838e-06,-2.2191500193002867e-06,1.5945313691645424e-07,0.0002662790648173541,0.00026740203611552715,-0.00010425224900245667,-0.0017357355682179332,0.00419772369787097,-0.00012865342432633042,-0.4110446572303772,0.4691275954246521,0.9943373203277588,-1.7612465620040894,3.388162136077881,-4.474867343902588,0.459543377161026,0.7633312940597534,0.42000001668930054,-0.9914671182632446,3.0000011920928955,-0.36973947286605835,-2.9999992847442627,-0.03842150419950485,-0.04770845174789429,-0.05662541463971138,-0.06550753861665726,-0.891936182975769,-0.8694846630096436,-0.82010817527771,-0.7713583111763
0.21666666666666667,0.09245099872350693,0.13755303621292114,0.0,0.9761826395988464,0.0,0.0,-0.21695034205913544,-0.045212846249341965,0.7452982068061829,0.0,0.0,0.0,-5.657829761505127,-0.4444497227668762,0.6460891366004944,0.4200000464916229,1.0,3.6132007608102867e-06,-2.27001987695985e-06,2.209884542025975e-07,0.00026712543331086636,0.000267817173153162,-0.00010414118878543377,-0.0017445571720600128,0.0042151594534516335,-0.00012786350271198899,-0.4377948045730591,0.5256093740463257,0.9124300479888916,-1.3612773418426514,3.3436646461486816,-5.165521621704102,0.459543377161026,0.7633312940597534,0.42000001668930054,-0.9414569139480591,3.0000011920928955,-0.4197680652141571,-3.000000476837158,-0.05408039689064026,-0.06353341042995453,-0.07255331426858902,-0.08147380501031876,-0.9641262292861938,-0.9680677056312561,-0.9692362546920776,-0.9679978489875793
0.23333333333333334,0.09731516242027283,0.14566142857074738,0.0,0.9711335897445679,0.0,0.0,-0.23853622376918793,0.28624075651168823,0.4061300754547119,0.0,0.0,0.0,-1.5331404209136963,-0.4444497227668762,0.6460890769958496,0.4200000464916229,1.0,3.3819155760284048e-06,-2.2908357095730025e-06,2.72774286713684e-07,0.0002669130335561931,0.00026779918698593974,-0.00010433373972773552,-0.0017396233743056655,0.004209747537970543,-0.0001284362078877166,-0.46077242493629456,0.5727857351303101,0.8229047060012817,-1.0500867366790771,2.533109664916992,-5.661871433258057,0.459543377161026,0.7633312940597534,0.42000001668930054,-0.8914462327957153,3.0000009536743164,-0.4697982966899872,-3.000002384185791,-0.06871265918016434,-0.07795148342847824,-0.08649467676877975,-0.09491457045078278,-1.000050663948059,-1.0000170469284058,-1.000000238418579,-0.9211392402648926
0.25,0.09684963524341583,0.15072691440582275,0.0,0.9622235894203186,0.0,0.0,-0.27226054668426514,-0.12844888865947723,0.2412356436252594,0.0,0.0,0.0,-5.065614700317383,-0.44444969296455383,0.6460890769958496,0.4200000464916229,0.9999999403953552,3.7066249660711037e-06,-2.222870307377889e-06,-2.2553399503522087e-07,0.00026424837415106595,0.0002665679494384676,-0.00010457751341164112,-0.0017169459024444222,0.004155553411692381,-0.00013062948710285127,-0.4717765152454376,0.6064595580101013,0.7228317260742188,-0.16500963270664215,1.586153507232666,-6.111145973205566,0.459543377161026,0.7633312940597534,0.42000001668930054,-0.8414359092712402,2.9999964237213135,-0.5198286175727844,-3.0000009536743164,-0.08633369207382202,-0.0952989012002945,-0.1036357581615448,-0.11190008372068405,-1.0000003576278687,-1.0000007152557373,-1.000000238418579,-1.000000238418579
0.26666666666666666,0.10001479834318161,0.1519070416688919,0.0,0.957961916923523,0.0,0.0,-0.2868954837322235,0.29436710476875305,-0.003529197769239545,0.0,0.0,0.0,-0.8065291047096252,-0.4444497227668762,0.6460890769958496,0.4200000464916229,0.9999999403953552,3.719741698660073e-06,-2.40333838519291e-06,-1.8310879568161909e-07,0.00026623293524608016,0.00026729016099125147,-0.00010425737127661705,-0.0017326247179880738,0.004196592606604099,-0.00012851442443206906,-0.4742264151573181,0.6267774105072021,0.6237927675247192,0.09356088936328888,0.9227583408355713,-5.832513332366943,0.459543377161026,0.7633312940597534,0.42000001668930054,-0.7914270758628845,2.9999964237213135,-0.5698583722114563,-3.0000016689300537,-0.1020875945687294,-0.11115717887878418,-0.11957468837499619,-0.12786605954170227,-0.9639931917190552,-0.966867208480835,-0.9654306173324585,-0.9644613265991211
0.2833333333333333,0.0986742228269577,0.1552400290966034,0.0,0.9496923685073853,0.0,0.0,-0.31318435072898865,-0.0804085060954094,0.21041829884052277,0.0,0.0,0.0,-3.8714277744293213,-0.4444497227668762,0.6460891366004944,0.4200000464916229,0.9999999403953552,3.5841662793245632e-06,-2.315337951586116e-06,7.401188639732936e-08,0.0002652204711921513,0.00026455201441422105,-0.00010317075066268444,-0.001702053239569068,0.004185079596936703,-0.0001249972265213728,-0.46599361300468445,0.6356188058853149,0.5314993262290955,0.7340342998504639,0.43975573778152466,-5.198498249053955,0.459543377161026,0.7633312940597534,0.42000001668930054,-0.7414183020591736,2.9999945163726807,-0.6198869943618774,-2.999999523162842,-0.11966943740844727,-0.12855872511863708,-0.13688810169696808,-0.14513178169727325,-0.7778254151344299,-0.8407340049743652,-0.9006831049919128,-0.9538320302963257
0.3,0.09623079746961594,0.1554950326681137,0.0,0.9477460980415344,0.0,0.0,-0.3190256357192993,-0.1741454303264618,-0.04403025284409523,0.0,0.0,0.0,0.21772414445877075,-0.4444497227668762,0.6460890769958496,0.4200000464916229,1.0,3.724338057509158e-06,-2.2718145373801235e-06,9.632610442622536e-08,0.0002631258394103497,0.00026525926659815013,-0.00010438263416290283,-0.0016961469082161784,0.00413482217118144,-0.00013027766544837505,-0.4562242031097412,0.6449781656265259,0.44876450300216675,0.6628564596176147,0.575311541557312,-4.770574569702148,0.459543377161026,0.7633312940597534,0.42000001668930054,-0.6914109587669373,2.9999947547912598,-0.6699138879776001,-3.000000476837158,-0.13396820425987244,-0.1434684693813324,-0.15239904820919037,-0.16116690635681152,-0.9272704124450684,-0.950773298740387,-0.9753673672676086,-0.9964887499809265
0.31666666666666665,0.09084425866603851,0.1536487638950348,0.0,0.9544035196304321,0.0,0.0,-0.2985195517539978,-0.37358206510543823,-0.1557893604040146,0.0,0.0,0.0,3.4535768032073975,-0.4444497227668762,0.6460890769958496,0.4200000464916229,1.0,3.6662740967585705e-06,-2.3924221750348806e-06,1.679666041809469e-07,0.0002660197496879846,0.0002670685644261539,-0.00010418705642223358,-0.0017310470575466752,0.004193468485027552,-0.00012849579798057675,-0.45188450813293457,0.6504102945327759,0.42140746116638184,0.12044642865657806,0.3006397485733032,-0.12860876321792603,0.459543377161026,0.7633312940597534,0.42000001668930054,-0.6415364146232605,2.997119903564453,-0.7204283475875854,-2.80810809135437,-0.1414729654788971,-0.1519542783498764,-0.1616569459438324,-0.17090892791748047,-0.0045644789934158325,-0.11777985095977783,-0.20605497062206268,-0.26250746846199036
0.3333333333333333,0.08286184072494507,0.14937171339988708,0.0,0.9554293155670166,0.0,0.0,-0.29521992802619934,-0.5176870822906494,-0.2972397804260254,0.0,0.0,0.0,-0.5435594916343689,-0.4443245530128479,0.6482149362564087,0.4204147756099701,0.9984247088432312,0.0002939108235295862,0.010436253622174263,-0.05512666702270508,0.013548440299928188,0.20151972770690918,0.030598361045122147,0.03847349435091019,1.5408579111099243,-10.064051628112793,-0.45127129554748535,0.6554664373397827,0.42205414175987244,0.21101981401443481,0.3095617890357971,-0.17268776893615723,0.459543377161026,0.7633312940597534,0.42000001668930054,-0.591529905796051,2.999995470046997,-0.7704726457595825,-2.99991512298584,-0.1431933045387268,-0.1546623706817627,-0.1649157851934433,-0.17417706549167633,-0.23510974645614624,-0.23805798590183258,-0.21830976009368896,-0.17042861878871918
0.35,0.07250577956438065,0.14271937310695648,0.0,0.960257351398468,0.0,0.0,-0.2791162133216858,-0.6715976595878601,-0.4434254765510559,0.0,0.0,0.0,2.8899879455566406,-0.4411863088607788,0.6576533317565918,0.42027512192726135,0.9961867928504944,-0.006780221126973629,0.00041945348493754864,-0.08698131144046783,0.21778269112110138,0.7546657919883728,0.08550313860177994,-4.2336955070495605,0.591001033782959,-5.34794807434082,-0.4478001892566681,0.6635259389877319,0.4214664697647095,0.24376319348812103,0.6656032204627991,0.10734710097312927,0.459543377161026,0.7633312940597534,0.42000001668930054,-0.5415249466896057,2.99999737739563,-0.8204967975616455,-3.0000007152557373,-0.14877702295780182,-0.159572571516037,-0.1687624752521515,-0.1764940768480301,-0.3695497214794159,-0.29901787638664246,-0.2058751881122589,-0.08601225912570953
0.36666666666666664,0.06560313701629639,0.13342614471912384,0.0,0.9601378440856934,0.0,0.0,-0.27952688932418823,-0.3244989514350891,-0.6000423431396484,0.0,0.0,0.0,-0.9520467519760132,-0.4360525906085968,0.6723135709762573,0.4203186333179474,0.9928768277168274,-0.008125292137265205,0.0010028828401118517,-0.1188630610704422,0.43398603796958923,1.0269743204116821,0.0017609067726880312,-0.0926949754357338,0.01858433708548546,-5.318909168243408,-0.4409525990486145,0.6765060424804688,0.4212874472141266,0.5967742204666138,0.9067946672439575,-0.1139315664768219,0.459543377161026,0.7633312940597534,0.42000001668930054,-0.4915202260017395,2.9999845027923584,-0.870520830154419,-2.999997854232788,-0.1556306630373001,-0.16460077464580536,-0.17159143090248108,-0.17669931054115295,-0.4264262914657593,-0.28896617889404297,-0.13122406601905823,0.04914916306734085
0.3833333333333333,0.05532553046941757,0.12238238751888275,0.0,0.9511944651603699,0.0,0.0,-0.3085920512676239,-0.7208704948425293,-0.6923755407333374,0.0,0.0,0.0,-4.569601058959961,-0.4249536693096161,0.6937471628189087,0.4201832711696625,0.9873532056808472,-0.004528574179857969,0.0005652752006426454,-0.15846993029117584,0.8765642046928406,1.528965950012207,0.05616001412272453,-2.7433488368988037,0.8415608406066895,-6.453174591064453,-0.42818331718444824,0.695441722869873,0.4210008382797241,0.9308745265007019,1.4060125350952148,0.11617983132600784,0.459543377161026,0.7633312940597534,0.42000001668930054,-0.4414697289466858,2.9999141693115234,-0.9205306172370911,-2.999979019165039,-0.1658705174922943,-0.17181019484996796,-0.17546330392360687,-0.17690978944301605,-0.6162155270576477,-0.42454230785369873,-0.2154630571603775,0.011431402526795864
0.4,0.04870622977614403,0.10853110253810883,0.0,0.9314568042755127,0.0,0.0,-0.36385199427604675,-0.38561108708381653,-0.8792262673377991,0.0,0.0,0.0,-7.746995449066162,-0.4023989140987396,0.7229257225990295,0.4229471683502197,0.9762184023857117,-0.016101650893688202,-0.026109948754310608,-0.21460804343223572,1.7625657320022583,1.6952757835388184,0.13021594285964966,35.089881896972656,-12.048824310302734,10.861642837524414,-0.4056236147880554,0.7254698276519775,0.42319753766059875,1.7896682024002075,2.0574889183044434,0.34285807609558105,0.459543377161026,0.7633312940597534,0.42000001668930054,-0.3980568051338196,1.5660183429718018,-0.9705343246459961,-2.9998748302459717,-0.17425449192523956,-0.17706286907196045,-0.1772906333208084,-0.17501826584339142,-0.6113900542259216,-0.38776522874832153,-0.15042386949062347,0.09889271855354309
0.4166666666666667,0.04338059574365616,0.09855396300554276,0.0,0.8978883624076843,0.0,0.0,-0.44022321701049805,-0.27742597460746765,-0.490634948015213,0.0,0.0,0.0,-10.739784240722656,-0.34968888759613037,0.7662933468818665,0.42669376730918884,0.9616788029670715,0.03910602629184723,-0.06397974491119385,-0.2637256979942322,4.491283416748047,2.8282201290130615,0.28593558073043823,22.53807830810547,-14.31725788116455,12.04906177520752,-0.3525436818599701,0.7688982486724854,0.427145779132843,4.275135040283203,3.2311463356018066,0.35138723254203796,0.459543377161026,0.7633312940597534,0.42000001668930054,-0.3805115818977356,0.8506500124931335,-0.9333465099334717,2.996879816055298,-0.18989251554012299,-0.18900443613529205,-0.18376488983631134,-0.17618480324745178,-0.9302094578742981,-0.8101400136947632,-0.4722636342048645,-0.15605594217777252
0.43333333333333335,0.04239891469478607,0.09117677062749863,0.0,0.8475512266159058,0.0,0.0,-0.5307136178016663,-0.0033168771769851446,-0.38519516587257385,0.0,0.0,0.0,-13.131091117858887,-0.25831368565559387,0.8243586421012878,0.4312003552913666,0.9360763430595398,0.08098511397838593,-0.13237488269805908,-0.31572017073631287,6.6688432693481445,3.5196526050567627,0.25619298219680786,29.434185028076172,-24.433673858642578,1.671980857849121,-0.26165661215782166,0.8283489346504211,0.4327515959739685,6.562169075012207,3.876985549926758,0.497335284948349,0.459543377161026,0.7633312940597534,0.42000001668930054,-0.3640908896923065,1.1979655027389526,-0.8870152235031128,2.608569622039795,-0.20379625260829926,-0.20092861354351044,-0.19067005813121796,-0.17852479219436646,-0.8582391142845154,-0.7114291191101074,-0.4328973591327667,-0.1887875646352768
0.45,0.037982694804668427,0.08897633850574493,0.0,0.8027557134628296,0.0,0.0,-0.5963080525398254,-0.23315808176994324,-0.09489820897579193,0.0,0.0,0.0,-8.142791748046875,-0.14813803136348724,0.8740217089653015,0.43939030170440674,0.8847836852073669,0.09815029054880142,-0.14739318192005157,-0.4310447573661804,6.956165790557861,1.9880164861679077,0.6684112548828125,19.930461883544922,-1.4396657943725586,18.73419761657715,-0.15207237005233765,0.880293607711792,0.440761923789978,6.781684398651123,2.597019672393799,0.4584251344203949,0.459543377161026,0.7633312940597534,0.42000001668930054,-0.342725932598114,1.2450586557388306,-0.9159272313117981,-3.0000040531158447,-0.21845626831054688,-0.21571604907512665,-0.20220524072647095,-0.1849641501903534,-0.6834700703620911,-0.7277337908744812,-0.657028079032898,-0.39631029963493347
0.4666666666666667,0.03844568505883217,0.08095920830965042,0.0,0.7763441801071167,0.0,0.0,-0.6303091645240784,-0.010769828222692013,-0.5051502585411072,0.0,0.0,0.0,-3.8584482669830322,-0.033972643315792084,0.904600203037262,0.44656458497047424,0.831322193145752,0.08032134920358658,-0.15351362526416779,-0.528096079826355,6.870626449584961,0.020683765411376953,0.3448972702026367,-3.2779502868652344,-12.947648048400879,30.452625274658203,-0.037792861461639404,0.9133175015449524,0.44779741764068604,7.008321762084961,1.1680896282196045,0.549275279045105,0.459543377161026,0.7633312940597534,0.42000001668930054,-0.32594427466392517,0.6417912244796753,-0.9659512639045715,-3.0000030994415283,-0.22723349928855896,-0.2237330675125122,-0.20821082592010498,-0.1864674985408783,-0.7520727515220642,-0.5749078989028931,-0.3598238527774811,-0.03620191290974617
0.48333333333333334,0.035468410700559616,0.07888573408126831,0.0,0.746635913848877,0.0,0.0,-0.6652328968048096,-0.19477981328964233,-0.09145302325487137,0.0,0.0,0.0,-6.025609493255615,0.07814586907625198,0.9113966822624207,0.45284929871559143,0.7550298571586609,0.06810730695724487,-0.14421363174915314,-0.6359981298446655,6.4915666580200195,-0.9809376001358032,0.2988114655017853,-5.458984851837158,-10.695359230041504,26.314294815063477,0.07447914779186249,0.9202728271484375,0.45453858375549316,6.761259078979492,-0.10623286664485931,0.4311182498931885,0.459543377161026,0.7633312940597534,0.42000001668930054,-0.31793227791786194,0.2849763035774231,-1.0159759521484375,-3.0000011920928955,-0.24002251029014587,-0.2377205193042755,-0.2178489863872528,-0.19046589732170105,-0.03904661163687706,-0.8291230201721191,-0.6079277396202087,-0.3201751410961151
0.5,0.03519493713974953,0.07258844375610352,0.0,0.730363667011261,0.0,0.0,-0.683058500289917,0.04285169020295143,-0.3723880350589752,0.0,0.0,0.0,-1.6405361890792847,0.18200117349624634,0.8976467847824097,0.45567259192466736,0.6681891679763794,0.04384279251098633,-0.14777252078056335,-0.727849006652832,5.400389194488525,-1.9199061393737793,0.02256227284669876,-11.457630157470703,-2.862555980682373,12.45855712890625,0.17793621122837067,0.909056544303894,0.458152174949646,5.867013931274414,-1.3333332538604736,0.13472586870193481,0.459543377161026,0.7633312940597534,0.42000001668930054,-0.3125322163105011,0.299660325050354,-1.0659980773925781,-3.000000476837158,-0.24000361561775208,-0.2399994432926178,-0.22584563493728638,-0.19436290860176086,-0.0279209204018116,-0.0009367922320961952,-0.4962952733039856,-0.26912379264831543
0.5166666666666666,0.037957433611154556,0.07075365632772446,0.0,0.7062711715698242,0.0,0.0,-0.7079414129257202,0.19172349572181702,-0.07878822088241577,0.0,0.0,0.0,-5.033802509307861,0.26777902245521545,0.8721238970756531,0.4514833092689514,0.6408371329307556,0.019931398332118988,-0.14103388786315918,-0.7543472647666931,4.464663505554199,-2.1897833347320557,-0.45856404304504395,-10.033024787902832,1.7796748876571655,15.48344612121582,0.26593565940856934,0.8836312294006348,0.45486342906951904,4.95579195022583,-1.733379602432251,-0.36977705359458923,0.459543377161026,0.7633312940597534,0.42000001668930054,-0.30541491508483887,0.4717826843261719,-1.1160202026367188,-2.999999761581421,-0.2399858832359314,-0.2398451566696167,-0.233890563249588,-0.19961325824260712,-0.008461094461381435,0.04951019585132599,-0.2546469271183014,-0.1762150228023529
0.5333333333333333,0.04341062903404236,0.07005919516086578,0.0,0.6957014203071594,0.0,0.0,-0.7183310389518738,0.3646606206893921,0.050905801355838776,0.0,0.0,0.0,-0.6936250925064087,0.34002402424812317,0.8406741619110107,0.440631240606308,0.588467001914978,-0.022774552926421165,-0.1275629848241806,-0.7980698943138123,3.7978172302246094,-2.1059470176696777,-0.6693366765975952,2.103344678878784,3.0218286514282227,-2.908907890319824,0.3388962745666504,0.8522087335586548,0.4447011947631836,3.884756565093994,-2.088735818862915,-0.7950761318206787,0.459543377161026,0.7633312940597534,0.42000001668930054,-0.29611241817474365,0.6181842088699341,-1.1660423278808594,-3.0000009536743164,-0.23902471363544464,-0.23773694038391113,-0.23586198687553406,-0.20143473148345947,0.09670373797416687,0.1691315621137619,-0.02817782573401928,-0.08290019631385803
0.55,0.05106271803379059,0.06645908951759338,0.0,0.6762813925743103,0.0,0.0,-0.736643373966217,0.5189281702041626,-0.24309498071670532,0.0,0.0,0.0,-3.9973387718200684,0.4009588062763214,0.8121464252471924,0.42466774582862854,0.4988976716995239,-0.015169910155236721,-0.08392985910177231,-0.8624538779258728,3.1735875606536865,-1.4839564561843872,-0.5890256762504578,24.483186721801758,6.752669334411621,-16.827619552612305,0.39727696776390076,0.8217323422431946,0.4273437261581421,3.0847527980804443,-1.814450979232788,-1.2144272327423096,0.459543377161026,0.7633312940597534,0.42000001668930054,-0.2797583043575287,1.4229505062103271,-1.216064453125,-2.999999761581421,-0.23412801325321198,-0.23225845396518707,-0.23352719843387604,-0.20144259929656982,0.2723795473575592,0.3106294870376587,0.1632504165172577,-0.021434592083096504
0.5666666666666667,0.056968942284584045,0.06631217896938324,0.0,0.6703155040740967,0.0,0.0,-0.7420762181282043,0.2742656469345093,0.012418044731020927,0.0,0.0,0.0,0.015926918014883995,0.43703386187553406,0.7890211343765259,0.42038366198539734,0.5017773509025574,-0.005270211957395077,0.007835621014237404,-0.8649451732635498,1.4963961839675903,-1.9775413274765015,0.4260912835597992,3.3194985389709473,16.253578186035156,9.11333179473877,0.4352458417415619,0.7961177229881287,0.42382022738456726,1.7272021770477295,-1.2735939025878906,0.17203892767429352,0.459543377161026,0.7633312940597534,0.42000001668930054,-0.2551429569721222,0.9713613390922546,-1.2661739587783813,-2.999687671661377,-0.23210659623146057,-0.22914962470531464,-0.23171162605285645,-0.2026747465133667,0.2146386355161667,0.24597135186195374,0.17314326763153076,-0.05663930997252464
0.5833333333333334,0.06350043416023254,0.06287816911935806,0.0,0.6547408103942871,0.0,0.0,-0.7558534741401672,0.417413592338562,-0.25329092144966125,0.0,0.0,0.0,-3.3278956413269043,0.4612019956111908,0.7730186581611633,0.41999247670173645,0.5154381394386292,-0.0005908616003580391,0.0006023599416948855,-0.8569262623786926,0.9021308422088623,-1.3528014421463013,-0.0141450809314847,-0.8195600509643555,-0.9533610343933105,9.798293113708496,0.4583090543746948,0.7793518900871277,0.42349886894226074,0.9434653520584106,-0.7688995599746704,0.043348804116249084,0.459543377161026,0.7633312940597534,0.42000001668930054,-0.2470332831144333,0.09614600241184235,-1.2581828832626343,3.0000059604644775,-0.2255878448486328,-0.22279314696788788,-0.22664886713027954,-0.20216695964336395,0.3954729437828064,0.3877343535423279,0.3403342664241791,0.062390126287937164
0.6,0.06774219125509262,0.062459010630846024,0.0,0.652313232421875,0.0,0.0,-0.7579494714736938,0.17805497348308563,-0.024688389152288437,0.0,0.0,0.0,0.4980121850967407,0.4715011417865753,0.7584522366523743,0.41999924182891846,0.532859206199646,1.7452424799557775e-05,7.873040885897353e-05,-0.8462039232254028,0.35732683539390564,-0.812369167804718,-0.0012528980150818825,-0.05716148391366005,-0.0664653405547142,1.6848673820495605,0.4675218462944031,0.7646148204803467,0.4225129187107086,0.30974525213241577,-0.8078817129135132,-0.21122613549232483,0.459543377161026,0.7633312940597534,0.42000001668930054,-0.2553575038909912,-0.7058568596839905,-1.2788320779800415,-2.9953999519348145,-0.22086963057518005,-0.217840775847435,-0.22173215448856354,-0.20157071948051453,0.4171748459339142,0.39545220136642456,0.38117507100105286,0.09704553335905075
0.6166666666666667,0.07291200757026672,0.06504562497138977,0.0,0.6395300626754761,0.0,0.0,-0.7687661051750183,0.3216882348060608,0.19335797429084778,0.0,0.0,0.0,-2.8901357650756836,0.4745110273361206,0.7524080276489258,0.42118898034095764,0.5526529550552368,-0.01719271019101143,0.0171858798712492,-0.8330568671226501,0.14201074838638306,-0.2987247407436371,0.2253783941268921,0.5195236206054688,-0.5418025255203247,3.637807846069336,0.47077348828315735,0.7589464783668518,0.42479565739631653,0.21374443173408508,-0.11159053444862366,0.16527962684631348,0.459543377161026,0.7633312940597534,0.42000001668930054,-0.25836634635925293,0.07926932722330093,-1.328760027885437,-2.9982850551605225,-0.21329958736896515,-0.21130728721618652,-0.21566268801689148,-0.20041295886039734,0.553888201713562,0.4599953889846802,0.41792649030685425,0.1105087623000145
0.6333333333333333,0.07953985780477524,0.06332322210073471,0.0,0.639406144618988,0.0,0.0,-0.768869161605835,0.42448124289512634,-0.10117614269256592,0.0,0.0,0.0,0.8427345752716064,0.4753374755382538,0.7503905296325684,0.4218650460243225,0.5711350440979004,-0.0255536250770092,0.02597798965871334,-0.8200467824935913,-0.1647499054670334,-0.12345726788043976,-0.0032441914081573486,0.5990373492240906,2.5723743438720703,0.7946668267250061,0.4703174829483032,0.7573723196983337,0.42544594407081604,-0.2996750473976135,-0.1164344921708107,-0.029910746961832047,0.459543377161026,0.7633312940597534,0.42000001668930054,-0.2949114143848419,-3.000027894973755,-1.318968653678894,2.997666358947754,-0.20178061723709106,-0.20155106484889984,-0.20666104555130005,-0.1965419054031372,0.511364221572876,0.450961709022522,0.4537123143672943,0.19354793429374695
0.65,0.08884520083665848,0.06597152352333069,0.0,0.6609408855438232,0.0,0.0,-0.7504379749298096,0.5814013481140137,0.16176575422286987,0.0,0.0,0.0,4.239025115966797,0.472544401884079,0.7485955357551575,0.4207064211368561,0.5750917792320251,-0.010146139189600945,0.01440798956900835,-0.8178991079330444,-0.1469482034444809,-0.09444372355937958,-0.08132430166006088,-1.4916183948516846,-4.131223678588867,0.15958978235721588,0.46663573384284973,0.7568783760070801,0.42721039056777954,-0.07247680425643921,0.12986250221729279,0.1784115582704544,0.459543377161026,0.7633312940597534,0.42000001668930054,-0.344978928565979,-2.9999945163726807,-1.3380388021469116,-2.9986166954040527,-0.19583438336849213,-0.19635435938835144,-0.2010563611984253,-0.19469790160655975,0.468387633562088,0.3876820504665375,0.38368186354637146,0.14819872379302979
0.6666666666666666,0.09975177049636841,0.06447019428014755,0.0,0.669122576713562,0.0,0.0,-0.7431520819664001,0.6802691221237183,-0.10418211668729782,0.0,0.0,0.0,0.26059481501579285,0.47072821855545044,0.7480173110961914,0.42000001668930054,0.574806809425354,-1.0302705959475134e-05,5.3755156841361895e-06,-0.8182891011238098,-0.07289836555719376,-0.013881110586225986,-0.00043145811650902033,-0.0039587984792888165,-0.018193908035755157,-0.11756348609924316,0.4653637409210205,0.7621734142303467,0.431206077337265,-0.11022422462701797,0.29774200916290283,0.2716602683067322,0.459543377161026,0.7633312940597534,0.42000001668930054,-0.39499494433403015,-2.999997615814209,-1.3880031108856201,-2.9992828369140625,-0.18517793715000153,-0.1873229444026947,-0.1922805905342102,-0.1896573305130005,0.5466002821922302,0.4858531653881073,0.5060465335845947,0.33273303508758545
0.6833333333333333,0.11215606331825256,0.06011296808719635,0.0,0.6547580361366272,0.0,0.0,-0.7558385729789734,0.7772841453552246,-0.3311883211135864,0.0,0.0,0.0,-3.224788188934326,0.4696040153503418,0.7480877637863159,0.4200000464916229,0.5844103097915649,2.3469102927720087e-07,6.87681222188985e-07,-0.8114582896232605,-0.038158874958753586,-0.0021124309860169888,-1.0272662620991468e-05,-0.0003652297018561512,-0.00021423015277832747,0.5497099757194519,0.4652443826198578,0.7673037052154541,0.4377426207065582,0.07522917538881302,0.2731914520263672,0.633467972278595,0.459543377161026,0.7633312940597534,0.42000001668930054,-0.4450090229511261,-2.99998140335083,-1.4380213022232056,-3.000000476837158,-0.17836569249629974,-0.18087337911128998,-0.18482008576393127,-0.1840394139289856,0.32320910692214966,0.3335225284099579,0.4253622591495514,0.36603835225105286
0.7,0.12758181989192963,0.06004571542143822,0.0,0.6179080009460449,0.0,0.0,-0.7862504124641418,0.9096274375915527,0.03011535108089447,0.0,0.0,0.0,-6.61170768737793,0.4695803225040436,0.7480841875076294,0.4200000464916229,0.5845938324928284,-6.610893166225651e-08,-3.56391183231608e-06,-0.8113259673118591,7.799734885338694e-05,-0.00030468718614429235,-8.521066047251225e-05,0.007465940434485674,-0.0019548204727470875,-0.0006476903217844665,0.47381824254989624,0.7660741806030273,0.4559987783432007,1.0245609283447266,-0.2587015926837921,1.6157054901123047,0.459543377161026,0.7633312940597534,0.42000001668930054,-0.49502208828926086,-2.999857187271118,-1.4880396127700806,-2.999988317489624,-0.180362731218338,-0.18128561973571777,-0.18241547048091888,-0.18109910190105438,-0.15451136231422424,-0.055728185921907425,0.11442362517118454,0.1682174652814865
0.7166666666666667,0.13984984159469604,0.06115811690688133,0.0,0.595575749874115,0.0,0.0,-0.8032991290092468,0.6529315710067749,0.0972040668129921,0.0,0.0,0.0,-2.322026252746582,0.4695803225040436,0.7480841279029846,0.4200000464916229,0.5845937728881836,3.9384383399010403e-07,-3.3100732252933085e-06,-0.8113261461257935,0.00010572781320661306,-0.0002702659403439611,-8.935830555856228e-05,0.006374074146151543,-0.0014670867240056396,-0.0006691571325063705,0.492480993270874,0.7659565210342407,0.483634352684021,1.1039364337921143,0.2145976573228836,1.718644380569458,0.459543377161026,0.7633312940597534,0.42000001668930054,-0.5178784728050232,0.0063425516709685326,-1.5380579233169556,-3.0000007152557373,-0.18111485242843628,-0.18136130273342133,-0.18077006936073303,-0.17938126623630524,0.045708589255809784,0.03771800175309181,0.08268417418003082,0.04312623664736748
0.7333333333333333,0.1471284180879593,0.06420613080263138,0.0,0.599044680595398,0.0,0.0,-0.8007156252861023,0.36158448457717896,0.22763846814632416,0.0,0.0,0.0,1.3949313163757324,0.4695803225040436,0.7480841279029846,0.4200000464916229,0.5845937132835388,3.9830305809118727e-07,-3.1243405373970745e-06,-0.8113261461257935,0.00011268506932538003,-0.0002671654219739139,-9.10020899027586e-05,0.006256775464862585,-0.00137246900703758,-0.0006810571649111807,0.5087435841560364,0.7716293334960938,0.5057377815246582,0.7742408514022827,0.42972123622894287,1.0036972761154175,0.459543377161026,0.7633312940597534,0.42000001668930054,-0.49816974997520447,2.1538894176483154,-1.5038739442825317,2.999999523162842,-0.17887812852859497,-0.17940527200698853,-0.17832903563976288,-0.1776038259267807,0.1934381127357483,0.17342743277549744,0.19098161160945892,0.15193669497966766
0.75,0.1505904495716095,0.06317083537578583,0.0,0.5913335680961609,0.0,0.0,-0.8064270615577698,0.16420860588550568,-0.14410972595214844,0.0,0.0,0.0,-2.071056365966797,0.4695803225040436,0.7480841279029846,0.4200000464916229,0.584593653678894,4.188613331734814e-07,-3.1307272365665995e-06,-0.8113261461257935,0.00011279407044639811,-0.0002671234542503953,-9.104236960411072e-05,0.006254747975617647,-0.0013715241802856326,-0.0006812851643189788,0.5147401690483093,0.777678370475769,0.5156815052032471,-0.06299209594726562,0.3086719214916229,0.37348341941833496,0.459543377161026,0.7633312940597534,0.42000001668930054,-0.48606207966804504,-0.4834832549095154,-1.4538213014602661,2.999999761581421,-0.1750854253768921,-0.17579400539398193,-0.17442959547042847,-0.1741885542869568,0.21626728773117065,0.22058062255382538,0.24324163794517517,0.22720880806446075
0.7666666666666666,0.1510002464056015,0.06668920814990997,0.0,0.5965456962585449,0.0,0.0,-0.8025791049003601,-0.02744106389582157,0.35198014974594116,0.0,0.0,0.0,1.6563283205032349,0.4695803225040436,0.7480841279029846,0.4200000464916229,0.584593653678894,4.054201099279453e-07,-3.136699660899467e-06,-0.811326265335083,0.0001127910873037763,-0.0002671207766979933,-9.104050695896149e-05,0.00625477684661746,-0.001371460733935237,-0.0006812765495851636,0.5126733183860779,0.7822025418281555,0.5191349387168884,-0.17067724466323853,0.32730162143707275,0.07178559899330139,0.459543377161026,0.7633312940597534,0.42000001668930054,-0.48296642303466797,0.7458342909812927,-1.4709209203720093,-3.0,-0.176923468708992,-0.17645826935768127,-0.17383743822574615,-0.17295953631401062,-0.17850801348686218,-0.10152681171894073,-0.027239104732871056,0.016617584973573685
0.7833333333333333,0.15298700332641602,0.06864582747220993,0.0,0.5911462306976318,0.0,0.0,-0.8065643906593323,0.1431635320186615,0.09484443068504333,0.0,0.0,0.0,-1.6946486234664917,0.4695803225040436,0.7480841279029846,0.4200000464916229,0.5845937728881836,4.3353338696761057e-07,-2.9597943012049654e-06,-0.8113261461257935,0.00011158428969793022,-0.00026685590273700655,-9.079440496861935e-05,0.006254957523196936,-0.001384747214615345,-0.0006783597054891288,0.5050014853477478,0.785858154296875,0.5133028030395508,-0.7420854568481445,0.10367369651794434,-0.5846781730651855,0.459543377161026,0.7633312940597534,0.42000001668930054,-0.5062169432640076,-3.0000009536743164,-1.4443168640136719,3.0,-0.17833732068538666,-0.1768903136253357,-0.17338722944259644,-0.17196591198444366,-0.12573310732841492,-0.05628776550292969,0.002334963297471404,0.04651276767253876
0.8,0.15666735172271729,0.06740699708461761,0.0,0.5977950096130371,0.0,0.0,-0.8016489744186401,0.26116493344306946,-0.14274536073207855,0.0,0.0,0.0,1.8044078350067139,0.4695803225040436,0.7480841875076294,0.4200000464916229,0.5845939517021179,3.823368786015635e-07,-3.152791805405286e-06,-0.8113259673118591,0.00010604551789583638,-0.00027077971026301384,-8.949078619480133e-05,0.006383308209478855,-0.0014688579831272364,-0.0006711942260153592,0.4961729049682617,0.7874211668968201,0.506310224533081,-0.34999120235443115,0.11587774008512497,-0.2165171504020691,0.459543377161026,0.7633312940597534,0.42000001668930054,-0.5562270283699036,-3.000000476837158,-1.4616179466247559,-3.0,-0.18159252405166626,-0.17869050800800323,-0.17385277152061462,-0.17113353312015533,-0.18456123769283295,-0.1007489487528801,-0.020366400480270386,0.06933095306158066
0.8166666666666667,0.16240756213665009,0.06324306130409241,0.0,0.5919980406761169,0.0,0.0,-0.8059394359588623,0.3824434280395508,-0.30882707238197327,0.0,0.0,0.0,-1.7581132650375366,0.4695803225040436,0.7480841875076294,0.4200000464916229,0.5845938920974731,4.035099436805467e-07,-2.973965365526965e-06,-0.8113259673118591,0.00010383299377281219,-0.0002712839050218463,-8.889101445674896e-05,0.00640961155295372,-0.0014939281390979886,-0.0006666120025329292,0.49519240856170654,0.7879773378372192,0.5003818273544312,0.24316319823265076,-0.04877852275967598,-0.31798791885375977,0.459543377161026,0.7633312940597534,0.42000001668930054,-0.6062387228012085,-2.9999866485595703,-1.5116362571716309,-3.0,-0.18540377914905548,-0.18097665905952454,-0.17460300028324127,-0.17002607882022858,-0.20676977932453156,-0.11476423591375351,-0.019195744767785072,0.10313444584608078
0.8333333333333334,0.17071102559566498,0.05660764500498772,0.0,0.564364492893219,0.0,0.0,-0.82552570104599,0.5329328775405884,-0.5107742547988892,0.0,0.0,0.0,-4.917006969451904,0.4695803225040436,0.7480841875076294,0.4200000464916229,0.5845938324928284,3.870383693538315e-07,-2.9737457225564867e-06,-0.8113259673118591,0.0001046926699928008,-0.0002710644621402025,-8.911197073757648e-05,0.006399278063327074,-0.0014833668246865273,-0.0006682967068627477,0.5008835792541504,0.7828484773635864,0.5007239580154419,0.4992671310901642,-0.4717296361923218,0.46109920740127563,0.459543377161026,0.7633312940597534,0.42000001668930054,-0.6562494039535522,-2.9999868869781494,-1.5616545677185059,-3.0,-0.19100654125213623,-0.18473441898822784,-0.17647454142570496,-0.16953414678573608,-0.3346050977706909,-0.2293536514043808,-0.12147078663110733,0.01797761209309101
0.85,0.18141047656536102,0.05164879187941551,0.0,0.5528992414474487,0.0,0.0,-0.8332481384277344,0.674088716506958,-0.22049087285995483,0.0,0.0,0.0,-0.6187210083007812,0.4695803225040436,0.7480841875076294,0.4200000464916229,0.5845940113067627,3.931970127268869e-07,-2.9768716558464803e-06,-0.8113259673118591,0.0001048678022925742,-0.0002711176057346165,-8.917180821299553e-05,0.006399303209036589,-0.001482324325479567,-0.0006688149296678603,0.5087255239486694,0.7809349298477173,0.5118262767791748,0.4016558527946472,0.1594986915588379,0.8471421003341675,0.459543377161026,0.7633312940597534,0.42000001668930054,-0.673147976398468,0.6677199006080627,-1.6116708517074585,-3.0000011920928955,-0.19583338499069214,-0.18885771930217743,-0.17988240718841553,-0.17168587446212769,-0.1858457624912262,-0.2041851282119751,-0.22456826269626617,-0.21264463663101196
0.8666666666666667,0.18895858526229858,0.04957617446780205,0.0,0.5670239329338074,0.0,0.0,-0.8237013220787048,0.3793676495552063,-0.0841677263379097,0.0,0.0,0.0,2.875521659851074,0.4695803225040436,0.7480841875076294,0.4200000464916229,0.5845939517021179,3.761351194953022e-07,-2.9775826533295913e-06,-0.8113259673118591,0.00010477024625288323,-0.0002711093402467668,-8.912896737456322e-05,0.006399869453161955,-0.0014828122220933437,-0.0006685367552563548,0.5181348919868469,0.785300612449646,0.5200026631355286,0.5975702404975891,0.3070827126502991,0.19879800081253052,0.459543377161026,0.7633312940597534,0.42000001668930054,-0.6455507278442383,2.4630978107452393,-1.5726230144500732,3.000000238418579,-0.19618816673755646,-0.19002725183963776,-0.18189391493797302,-0.17398686707019806,0.06642795354127884,0.008000368252396584,-0.05463072657585144,-0.08689790219068527
0.8833333333333333,0.19176602363586426,0.043413423001766205,0.0,0.567371666431427,0.0,0.0,-0.8234618306159973,0.1419455111026764,-0.4026864767074585,0.0,0.0,0.0,-1.0107208490371704,0.4695803225040436,0.7480841875076294,0.4200000464916229,0.5845938920974731,3.9293243503379927e-07,-2.97868496090814e-06,-0.8113259673118591,0.00010470404959050938,-0.0002710652770474553,-8.911499753594398e-05,0.00639925105497241,-0.0014832938322797418,-0.0006683272076770663,0.5232735276222229,0.7879040241241455,0.519066572189331,0.026674171909689903,-0.06518249213695526,-0.16957497596740723,0.459543377161026,0.7633312940597534,0.42000001668930054,-0.64261794090271,-1.7472330331802368,-1.522566556930542,3.0,-0.19253407418727875,-0.18749357759952545,-0.18056374788284302,-0.17338325083255768,0.10139132291078568,0.07383215427398682,0.03681167587637901,0.021499570459127426
0.9,0.19284458458423615,0.042663440108299255,0.0,0.5790259838104248,0.0,0.0,-0.8153091073036194,-0.04628554359078407,-0.08188854157924652,0.0,0.0,0.0,2.414039134979248,0.4695803225040436,0.7480841875076294,0.4200000464916229,0.5845938324928284,3.7588958434753295e-07,-2.9793488920404343e-06,-0.8113259673118591,0.00010476803436176851,-0.00027110977680422366,-8.912826888263226e-05,0.006399924401193857,-0.0014827674021944404,-0.0006685334956273437,0.526584804058075,0.7859669923782349,0.5171915292739868,0.4288201928138733,0.02985633909702301,-0.06543000787496567,0.459543377161026,0.7633312940597534,0.42000001668930054,-0.6577320098876953,-0.18868327140808105,-1.5382568836212158,-3.0000007152557373,-0.19596077501773834,-0.19025272130966187,-0.18284086883068085,-0.17491069436073303,0.013083025813102722,-2.9802322387695312e-08,-0.01231510192155838,2.2351741790771484e-08
