vladlanda/robotic-transformer/data/env_000_episode_0154.csv
sim_time_s,robot_box_x,robot_box_y,robot_box_z,robot_box_quat_w,robot_box_quat_x,robot_box_quat_y,robot_box_quat_z,robot_box_linvel_x,robot_box_linvel_y,robot_box_linvel_z,robot_box_angvel_x,robot_box_angvel_y,robot_box_angvel_z,cube_world_x,cube_world_y,cube_world_z,cube_quat_w,cube_quat_x,cube_quat_y,cube_quat_z,cube_linvel_x,cube_linvel_y,cube_linvel_z,cube_angvel_x,cube_angvel_y,cube_angvel_z,endpoint_world_x,endpoint_world_y,endpoint_world_z,endpoint_linvel_x,endpoint_linvel_y,endpoint_linvel_z,target_cube_world_x,target_cube_world_y,target_cube_world_z,gripper_actual_pos_rad_gp_leftgearjoint,gripper_actual_vel_rad_s_gp_leftgearjoint,gripper_actual_pos_rad_gp_rotatingjoint,gripper_actual_vel_rad_s_gp_rotatingjoint,motor_angle_rad_joint1,motor_angle_rad_joint2,motor_angle_rad_joint3,motor_angle_rad_joint4,motor_speed_rad_s_joint1,motor_speed_rad_s_joint2,motor_speed_rad_s_joint3,motor_speed_rad_s_joint4
0.0,0.0,0.0,0.0,1.0,0.0,0.0,0.0,0.0,0.0,0.0,0.0,0.0,0.0,-0.34085607528686523,0.6237584948539734,0.41999998688697815,1.0,0.0,0.0,0.0,0.0,0.0,0.0,0.0,0.0,0.0,3.42540442943573e-06,-0.005000244826078415,1.313499927520752,0.0,0.0,0.0,0.46018359065055847,0.6823388338088989,0.42000001668930054,-1.5707999467849731,0.0,0.0,0.0,0.0,0.0,0.0,0.0,0.0,0.0,0.0,0.0
0.016666666666666666,0.0017363890074193478,0.0014091312186792493,0.0,1.0,0.0,0.0,9.59654207690619e-05,0.14400343596935272,0.12302731722593307,0.0,0.0,0.0,0.01742730103433132,-0.3408561944961548,0.6237581968307495,0.41999998688697815,1.0,3.2799905511637917e-06,-8.339794135281409e-07,8.465515577427141e-08,-1.9833774786093272e-05,0.00017983047291636467,-6.132945418357849e-05,0.0009432245860807598,-0.004689525347203016,-0.00031981084612198174,-0.007061094045639038,0.0039596278220415115,1.315533995628357,-0.8042738437652588,1.0320394039154053,0.14689107239246368,0.46018359065055847,0.6823388338088989,0.42000001668930054,-1.5301073789596558,3.00000262260437,-0.04586007073521614,-3.0000009536743164,0.00044727217755280435,0.00040106807136908174,0.00034403702011331916,0.00027155998395755887,0.07774251699447632,0.06629429757595062,0.053975217044353485,0.04077079892158508
0.03333333333333333,0.006906019989401102,0.005436147563159466,0.0,0.9998089671134949,0.0,0.0,-0.01954416185617447,0.37900981307029724,0.2899576723575592,0.0,0.0,0.0,-3.1524081230163574,-0.34085631370544434,0.6237581372261047,0.4200000464916229,1.0,3.3908531804627273e-06,-2.132488134520827e-06,-3.710428941872124e-08,0.0002635785494931042,0.0002693783608265221,-0.00010509602725505829,-0.0017707846127450466,0.004130862653255463,-0.00013547409616876394,-0.02630501240491867,0.027166243642568588,1.3159844875335693,-1.4637360572814941,1.6952238082885742,-0.08054210245609283,0.46018359065055847,0.6823388338088989,0.42000001668930054,-1.4800879955291748,3.00000262260437,-0.09589989483356476,-3.0000009536743164,0.0023591655772179365,0.0020411808509379625,0.0016876038862392306,0.0012934724800288677,0.1641165316104889,0.13800154626369476,0.11047236621379852,0.08147680759429932
0.05,0.014925682917237282,0.01181826926767826,0.0,0.9997805953025818,0.0,0.0,-0.020947560667991638,0.5207392573356628,0.42368781566619873,0.0,0.0,0.0,0.8035302758216858,-0.3408563435077667,0.6237581968307495,0.4200000464916229,1.0,3.7651284401363228e-06,-2.2118861124909017e-06,5.622759147172474e-09,0.00026530996547080576,0.00026691515813581645,-0.00010440382175147533,-0.00172425655182451,0.004177390597760677,-0.00012948956282343715,-0.05606381595134735,0.05611320212483406,1.3112597465515137,-1.9947181940078735,1.867424726486206,-0.45211395621299744,0.46018359065055847,0.6823388338088989,0.42000001668930054,-1.4300696849822998,3.000000238418579,-0.14591389894485474,-3.000001907348633,0.0049063959158957005,0.004106550477445126,0.0032384428195655346,0.0022961548529565334,0.1711989939212799,0.13305094838142395,0.09313084930181503,0.05135698616504669
0.06666666666666667,0.025461994111537933,0.0204137172549963,0.0,0.9993231296539307,0.0,0.0,-0.036787424236536026,0.6936182975769043,0.5563002228736877,0.0,0.0,0.0,-2.7474091053009033,-0.3408563435077667,0.6237581372261047,0.4200000464916229,0.9999999403953552,3.406779342185473e-06,-2.285526988998754e-06,4.300881926155853e-07,0.00026702668401412666,0.00026791810523718596,-0.00010437914170324802,-0.0017406379338353872,0.004211799707263708,-0.00012850595521740615,-0.08987899124622345,0.0924084484577179,1.3001437187194824,-2.040015935897827,2.436972141265869,-0.8580464124679565,0.46018359065055847,0.6823388338088989,0.42000001668930054,-1.3800429105758667,3.000002861022949,-0.11240566521883011,3.000000238418579,0.0070862313732504845,0.00550115155056119,0.0038103593979030848,0.002009885385632515,0.12515190243721008,0.06524573266506195,0.003431052900850773,-0.060391418635845184
0.08333333333333333,0.03956039622426033,0.030496640130877495,0.0,0.9968622326850891,0.0,0.0,-0.0791563019156456,0.9053347706794739,0.6656364798545837,0.0,0.0,0.0,-5.97396183013916,-0.3408563435077667,0.6237581372261047,0.4200000464916229,0.9999999403953552,3.6260987599234795e-06,-2.3352677089860663e-06,3.032194797469856e-07,0.00026614003581926227,0.0002668494707904756,-0.00010405294597148895,-0.001728319562971592,0.004196429159492254,-0.00012790538312401623,-0.12443500012159348,0.1340978741645813,1.2843880653381348,-2.1176211833953857,2.5363473892211914,-1.0437601804733276,0.46018359065055847,0.6823388338088989,0.42000001668930054,-1.3300408124923706,3.0000009536743164,-0.1444442719221115,-2.9999992847442627,0.008486985228955746,0.0058610630221664906,0.0030912456568330526,0.00017322321946267039,0.062410641461610794,-0.004992309957742691,-0.07432859390974045,-0.14561326801776886
0.1,0.048148199915885925,0.038861941546201706,0.0,0.9946260452270508,0.0,0.0,-0.10353254526853561,0.3869735598564148,0.44354167580604553,0.0,0.0,0.0,-1.9150464534759521,-0.3408563435077667,0.6237581372261047,0.4200000464916229,1.0,3.422146846787655e-06,-2.30855562222132e-06,1.7962889842237928e-07,0.0002668158267624676,0.00026800387422554195,-0.00010440708138048649,-0.001743036205880344,0.00420708442106843,-0.00012890443031210452,-0.16334329545497894,0.1735135018825531,1.2632882595062256,-2.28336501121521,2.489896535873413,-1.4022173881530762,0.46018359065055847,0.6823388338088989,0.42000001668930054,-1.2800177335739136,2.9999938011169434,-0.11089389771223068,3.0000009536743164,0.0036197274457663298,0.00026624766178429127,-0.0032793725840747356,-0.007024611812084913,-0.4011261761188507,-0.44700440764427185,-0.4952475130558014,-0.5460781455039978
0.11666666666666667,0.061445921659469604,0.04843111336231232,0.0,0.9900153279304504,0.0,0.0,-0.14095966517925262,0.7888743281364441,0.5574028491973877,0.0,0.0,0.0,-5.159916400909424,-0.3408563435077667,0.6237581968307495,0.4200000464916229,1.0,3.711535555339651e-06,-2.332714984731865e-06,2.574262509824621e-07,0.0002648575755301863,0.0002663539780769497,-0.00010423525236546993,-0.0017182475421577692,0.004170094151049852,-0.00012915261322632432,-0.19734561443328857,0.22016051411628723,1.2379863262176514,-1.900164008140564,3.0762667655944824,-1.6039042472839355,0.46018359065055847,0.6823388338088989,0.42000001668930054,-1.2300128936767578,2.9996745586395264,-0.14292289316654205,-2.999967336654663,0.0012149122776463628,-0.003641000483185053,-0.008681390434503555,-0.013914532028138638,-0.2984611690044403,-0.3787216544151306,-0.4591366648674011,-0.539675772190094
0.13333333333333333,0.07181224226951599,0.055040519684553146,0.0,0.9873732328414917,0.0,0.0,-0.15841105580329895,0.5786111354827881,0.3113919794559479,0.0,0.0,0.0,-0.8705968260765076,-0.3408563435077667,0.6237581372261047,0.4200000464916229,0.9999999403953552,3.424748229008401e-06,-2.302055008840398e-06,1.559933053840723e-07,0.00026707007782533765,0.00026811257703229785,-0.0001044438686221838,-0.0017433564644306898,0.004212007392197847,-0.00012876644905190915,-0.2346639782190323,0.2684505581855774,1.2047637701034546,-2.282862663269043,3.031338691711426,-2.3221569061279297,0.46018359065055847,0.6823388338088989,0.42000001668930054,-1.1800014972686768,2.9999940395355225,-0.11533904075622559,3.000002145767212,-0.004200785420835018,-0.01025068573653698,-0.016463426873087883,-0.0228483397513628,-0.2767558991909027,-0.3479483425617218,-0.4164886176586151,-0.48244789242744446
0.15,0.07920271158218384,0.05793214961886406,0.0,0.9825994968414307,0.0,0.0,-0.18573692440986633,0.39315035939216614,0.1042041927576065,0.0,0.0,0.0,-4.176464080810547,-0.3408563435077667,0.6237581372261047,0.4200000464916229,1.0,3.7139056985324714e-06,-2.207889565397636e-06,-1.6909206124182674e-07,0.00026353474822826684,0.0002653609844855964,-0.00010421895422041416,-0.00170131993945688,0.004144174512475729,-0.0001296033151447773,-0.2689165472984314,0.3230142593383789,1.162001132965088,-1.8228157758712769,3.470950126647949,-2.792184352874756,0.46018359065055847,0.6823388338088989,0.42000001668930054,-1.1299968957901,3.0000014305114746,-0.14734308421611786,-3.0000014305114746,-0.009809238836169243,-0.017078399658203125,-0.024451114237308502,-0.0319390669465065,-0.395660936832428,-0.46373671293258667,-0.5281282663345337,-0.5890108346939087
0.16666666666666666,0.08254171162843704,0.06213244050741196,0.0,0.9713054299354553,0.0,0.0,-0.23783564567565918,0.1169389858841896,0.3151163160800934,0.0,0.0,0.0,-7.162193298339844,-0.3408563435077667,0.6237581372261047,0.4200000464916229,0.9999999403953552,3.638332827904378e-06,-2.278889496665215e-06,2.700760148854897e-07,0.00026682682801038027,0.00026750026154331863,-0.00010410090908408165,-0.0017399408388882875,0.004210108891129494,-0.00012781588884536177,-0.29762136936187744,0.3864179253578186,1.1075129508972168,-1.4748830795288086,4.021325588226318,-3.677460193634033,0.46018359065055847,0.6823388338088989,0.42000001668930054,-1.0799938440322876,2.9999990463256836,-0.19735077023506165,-3.000000238418579,-0.018930789083242416,-0.02706507034599781,-0.035231612622737885,-0.04344668239355087,-0.6376693844795227,-0.6716017127037048,-0.7014525532722473,-0.7275677919387817
0.18333333333333332,0.08984829485416412,0.06883835047483444,0.0,0.9627417922019958,0.0,0.0,-0.27042242884635925,0.4415462613105774,0.449308305978775,0.0,0.0,0.0,-2.9209964275360107,-0.3408563435077667,0.6237581372261047,0.4200000464916229,1.0,3.3864146189444e-06,-2.3003433398116613e-06,1.4393724256933638e-07,0.00026674557011574507,0.00026787290698848665,-0.00010437075980007648,-0.0017413449240848422,0.004206009674817324,-0.0001287815102841705,-0.3247901201248169,0.4477488696575165,1.0399396419525146,-1.3490214347839355,3.645181655883789,-4.451657295227051,0.46018359065055847,0.6823388338088989,0.42000001668930054,-1.0299876928329468,2.9997360706329346,-0.2473776936531067,-2.9999992847442627,-0.027685923501849174,-0.03627819940447807,-0.04483380541205406,-0.05337713286280632,-0.6950119733810425,-0.684402585029602,-0.6719120740890503,-0.6582057476043701
0.2,0.09370172768831253,0.07307840138673782,0.0,0.9490147233009338,0.0,0.0,-0.31523171067237854,0.21249428391456604,0.24834579229354858,0.0,0.0,0.0,-6.310752868652344,-0.3408563435077667,0.6237581968307495,0.4200000464916229,1.0,3.6755166092916625e-06,-2.326601588720223e-06,2.2114075193258032e-07,0.00026484514819458127,0.0002663140476215631,-0.00010421662591397762,-0.0017176842084154487,0.004169825464487076,-0.00012909446377307177,-0.3450189232826233,0.507433295249939,0.9573893547058105,-0.858144223690033,3.5509729385375977,-5.307758808135986,0.46018359065055847,0.6823388338088989,0.42000001668930054,-0.9799774289131165,2.9999935626983643,-0.29740622639656067,-3.0000016689300537,-0.042156144976615906,-0.05056624487042427,-0.05867324769496918,-0.06649807095527649,-0.908586323261261,-0.9142427444458008,-0.8930678963661194,-0.8379798531532288
0.21666666666666667,0.09758346527814865,0.07909924536943436,0.0,0.9407826066017151,0.0,0.0,-0.33901044726371765,0.247722327709198,0.39150941371917725,0.0,0.0,0.0,-1.9043549299240112,-0.3408563435077667,0.6237581372261047,0.4200000464916229,1.0,3.322310249131988e-06,-2.2080130293034017e-06,2.742734466210095e-07,0.0002666299988050014,0.00026749627431854606,-0.0001042631920427084,-0.001735798199661076,0.0042047807946801186,-0.00012833732762373984,-0.3619210720062256,0.5561327934265137,0.865526556968689,-0.7694481611251831,2.5721287727355957,-5.705885887145996,0.46018359065055847,0.6823388338088989,0.42000001668930054,-0.9299667477607727,3.0,-0.3474368453025818,-2.999997615814209,-0.05781511962413788,-0.06628145277500153,-0.07433367520570755,-0.08201391994953156,-0.9870573282241821,-0.9837696552276611,-0.9602360129356384,-0.9380146265029907
0.23333333333333334,0.09939983487129211,0.08299066871404648,0.0,0.9279624819755554,0.0,0.0,-0.3726736605167389,0.05562322214245796,0.17540733516216278,0.0,0.0,0.0,-5.209410667419434,-0.3408563435077667,0.6237581372261047,0.4200000464916229,1.0,3.656517264971626e-06,-2.373446250203415e-06,-4.076827906374092e-07,0.0002661174803506583,0.00026726184296421707,-0.00010423432104289532,-0.001733548240736127,0.00419463450089097,-0.0001285507169086486,-0.37152308225631714,0.5948400497436523,0.7639646530151367,-0.24231258034706116,1.9858276844024658,-6.288405418395996,0.46018359065055847,0.6823388338088989,0.42000001668930054,-0.879956066608429,2.999997138977051,-0.3974685072898865,-3.0000016689300537,-0.07451608031988144,-0.08293715119361877,-0.09094636887311935,-0.09856702387332916,-0.9916812181472778,-0.9932191371917725,-0.9944157004356384,-0.9953793287277222
0.25,0.09799578040838242,0.08415867388248444,0.0,0.9220956563949585,0.0,0.0,-0.38696199655532837,-0.13628189265727997,-0.01292948517948389,0.0,0.0,0.0,-0.7295630574226379,-0.3408563435077667,0.6237581968307495,0.4200000464916229,1.0,3.6305575576989213e-06,-2.2426402210840024e-06,1.1203578509366707e-08,0.000266801449470222,0.00026706093922257423,-0.00010390859097242355,-0.00173426594119519,0.004210660234093666,-0.00012702868843916804,-0.3770337700843811,0.6166112422943115,0.6612926721572876,-0.10045219957828522,0.7309533953666687,-6.07321834564209,0.46018359065055847,0.6823388338088989,0.42000001668930054,-0.8299463391304016,3.000000476837158,-0.44749972224235535,-3.0000011920928955,-0.09155000001192093,-0.09986360371112823,-0.10779370367527008,-0.11535438895225525,-1.0037888288497925,-1.0028451681137085,-1.0021262168884277,-1.0015568733215332
0.26666666666666666,0.09371598064899445,0.08212437480688095,0.0,0.911948025226593,0.0,0.0,-0.41030576825141907,-0.3209102153778076,-0.18602009117603302,0.0,0.0,0.0,-3.9703588485717773,-0.34085631370544434,0.6237581372261047,0.4200000464916229,0.9999999403953552,3.7401903227873845e-06,-2.2363135485647945e-06,4.4995837811256933e-07,0.0002647954097483307,0.0002667296212166548,-0.00010453932918608189,-0.0017188823549076915,0.004166571889072657,-0.00013016258890274912,-0.3741282522678375,0.6223794221878052,0.5600618124008179,0.5143299102783203,-0.09071016311645508,-5.920676231384277,0.46018359065055847,0.6823388338088989,0.42000001668930054,-0.7799375653266907,2.9999990463256836,-0.49752989411354065,-2.9999988079071045,-0.10907670110464096,-0.11717403680086136,-0.12493924796581268,-0.13236939907073975,-1.0052584409713745,-1.0039652585983276,-1.0029773712158203,-1.0021913051605225
0.2833333333333333,0.08785232901573181,0.07873081415891647,0.0,0.9092706441879272,0.0,0.0,-0.41620534658432007,-0.3879022002220154,-0.23977909982204437,0.0,0.0,0.0,0.19137272238731384,-0.3408563435077667,0.6237581372261047,0.4200000464916229,1.0,3.3917124255822273e-06,-2.2911347059562104e-06,1.2458362164124992e-07,0.00026677135610952973,0.0002678919117897749,-0.00010437588207423687,-0.0017412183806300163,0.004206273704767227,-0.00012878302368335426,-0.367565393447876,0.6225131154060364,0.4708523154258728,0.49058961868286133,-0.0013015884906053543,-4.814023017883301,0.46018359065055847,0.6823388338088989,0.42000001668930054,-0.7299293279647827,3.000000238418579,-0.5475575923919678,-3.0000014305114746,-0.12655065953731537,-0.1344933807849884,-0.1421440988779068,-0.14948466420173645,-1.0228607654571533,-1.017332911491394,-1.0131033658981323,-1.0097076892852783
0.3,0.0797995999455452,0.073250412940979,0.0,0.9170140027999878,0.0,0.0,-0.39885497093200684,-0.5302248001098633,-0.3699565529823303,0.0,0.0,0.0,3.527397394180298,-0.3408258557319641,0.6233243942260742,0.4199969470500946,0.9999614357948303,7.012315472820774e-05,1.7202968592755497e-05,-0.008783501572906971,0.014420030638575554,-0.13521333038806915,-0.001111763995140791,-0.08264946937561035,0.016969559714198112,-5.382532119750977,-0.3640310764312744,0.6243125200271606,0.4245378375053406,-0.029118649661540985,0.05258113518357277,-0.2796035408973694,0.46018359065055847,0.6823388338088989,0.42000001668930054,-0.6799246668815613,2.9999983310699463,-0.597927451133728,-3.00002121925354,-0.13852116465568542,-0.14697931706905365,-0.1551494598388672,-0.16255486011505127,-0.04334545508027077,-0.19378650188446045,-0.33873939514160156,-0.419101357460022
0.31666666666666665,0.07158531248569489,0.06570335477590561,0.0,0.9184313416481018,0.0,0.0,-0.3955804109573364,-0.4963555634021759,-0.4922715723514557,0.0,0.0,0.0,-0.5363019108772278,-0.34050658345222473,0.6218779683113098,0.4200000464916229,0.999592661857605,-3.672789716802072e-08,-6.77183777497703e-07,-0.028536368161439896,0.019385874271392822,-0.06851262599229813,-7.301918230950832e-06,0.00034646911080926657,9.071012755157426e-06,-1.6623125076293945,-0.36249905824661255,0.6247022747993469,0.421440988779068,0.12673062086105347,0.04856100678443909,0.3903655409812927,0.46018359065055847,0.6823388338088989,0.42000001668930054,-0.6299360990524292,2.9999895095825195,-0.6479712128639221,-2.999995231628418,-0.14321179687976837,-0.1524214744567871,-0.16117724776268005,-0.16824796795845032,-0.40730008482933044,-0.37053096294403076,-0.3195880651473999,-0.21947741508483887
0.3333333333333333,0.061676643788814545,0.056009404361248016,0.0,0.9254299998283386,0.0,0.0,-0.3789186179637909,-0.6391600370407104,-0.6197395920753479,0.0,0.0,0.0,3.0828521251678467,-0.34039366245269775,0.6215875744819641,0.42000001668930054,0.9994939565658569,-1.7206716620421503e-06,4.056273155583767e-06,-0.03180714696645737,-0.0003970802645199001,0.0003950218961108476,-0.00011248351074755192,0.002474098699167371,-0.005610371474176645,0.02662310004234314,-0.35757386684417725,0.6329864263534546,0.42529940605163574,0.4767656624317169,0.8380976915359497,0.12664523720741272,0.46018359065055847,0.6823388338088989,0.42000001668930054,-0.5799307227134705,2.9999899864196777,-0.6979956030845642,-2.999999523162842,-0.15125218033790588,-0.15913502871990204,-0.16624626517295837,-0.17092570662498474,-0.488973468542099,-0.3831062912940979,-0.2548544704914093,-0.08621171116828918
0.35,0.054953016340732574,0.0437304712831974,0.0,0.9259020090103149,0.0,0.0,-0.3777637779712677,-0.316692590713501,-0.7829338908195496,0.0,0.0,0.0,-0.8051156401634216,-0.331505686044693,0.6317834258079529,0.42061367630958557,0.9904161691665649,-0.015430248342454433,0.0019049996044486761,-0.13723744451999664,0.4413416087627411,0.4942309558391571,0.028503376990556717,-1.4249850511550903,0.28482940793037415,-9.3755464553833,-0.347666472196579,0.6411042213439941,0.4246242642402649,0.8282327651977539,0.4223822057247162,-0.10020866245031357,0.46018359065055847,0.6823388338088989,0.42000001668930054,-0.5299258232116699,2.9999916553497314,-0.7480196356773376,-3.0000009536743164,-0.16008003056049347,-0.16546879708766937,-0.16969478130340576,-0.17093153297901154,-0.5296157002449036,-0.34563127160072327,-0.139088973402977,0.09321948885917664
0.36666666666666664,0.04589080438017845,0.02996930666267872,0.0,0.9143412709236145,0.0,0.0,-0.40494444966316223,-0.6258544325828552,-0.8508219122886658,0.0,0.0,0.0,-4.4910569190979,-0.31906574964523315,0.6446408629417419,0.4205380976200104,0.9762004017829895,-0.013349242508411407,0.0029166252352297306,-0.216439351439476,0.9721037745475769,0.9629734754562378,0.055533044040203094,-2.651975393295288,1.100000023841858,-5.844012260437012,-0.3290221095085144,0.6520171165466309,0.42155128717422485,1.2413690090179443,0.8094757795333862,0.12701621651649475,0.46018359065055847,0.6823388338088989,0.42000001668930054,-0.4798705279827118,3.0000011920928955,-0.7980272769927979,-2.9999654293060303,-0.17094853520393372,-0.17282931506633759,-0.1731840968132019,-0.17023341357707977,-0.601728618144989,-0.3934151232242584,-0.1621505469083786,0.08478516340255737
0.3833333333333333,0.03997601568698883,0.013339652679860592,0.0,0.8893084526062012,0.0,0.0,-0.4573078453540802,-0.3116166293621063,-1.0419862270355225,0.0,0.0,0.0,-7.754365921020508,-0.2939990162849426,0.6675752401351929,0.42198923230171204,0.9629574418067932,-0.034320008009672165,-0.007870656438171864,-0.2673446536064148,1.939190149307251,1.7045854330062866,0.08601296693086624,0.658100962638855,-7.2804670333862305,-5.1567888259887695,-0.2998063564300537,0.6718072891235352,0.4239462912082672,2.27409029006958,1.4694101810455322,0.2795102894306183,0.46018359065055847,0.6823388338088989,0.42000001668930054,-0.42985615134239197,3.0000011920928955,-0.848048210144043,-3.000000476837158,-0.17925399541854858,-0.17782051861286163,-0.174455463886261,-0.16756625473499298,-0.5119208097457886,-0.30585986375808716,-0.07840105891227722,0.15584976971149445
0.4,0.036052994430065155,0.0012757693184539676,0.0,0.8477250933647156,0.0,0.0,-0.5304358601570129,-0.19241847097873688,-0.611702024936676,0.0,0.0,0.0,-10.934515953063965,-0.22878403961658478,0.6971001625061035,0.4253687262535095,0.9462089538574219,0.009914549067616463,-0.05553474649786949,-0.3186003863811493,5.356565475463867,2.282668113708496,0.059547096490859985,29.348674774169922,-21.377439498901367,2.9866814613342285,-0.23456570506095886,0.7025812864303589,0.42660337686538696,5.119265556335449,2.2103686332702637,0.27566757798194885,0.46018359065055847,0.6823388338088989,0.42000001668930054,-0.39156028628349304,1.2920290231704712,-0.811366617679596,2.9954373836517334,-0.1944601833820343,-0.1892295926809311,-0.18032026290893555,-0.16818644106388092,-0.8723741769790649,-0.7478615641593933,-0.41487500071525574,-0.11238077282905579
0.4166666666666667,0.035546161234378815,-0.008199978619813919,0.0,0.7877069115638733,0.0,0.0,-0.6160501837730408,0.031700681895017624,-0.5208638310432434,0.0,0.0,0.0,-13.33409595489502,-0.12267082929611206,0.7356144785881042,0.4292047619819641,0.9145722985267639,0.045163657516241074,-0.0932234674692154,-0.3909311294555664,7.762633800506592,2.036301851272583,0.3656281530857086,8.690049171447754,-11.445024490356445,4.156906604766846,-0.12745964527130127,0.7423530220985413,0.43049687147140503,7.547246932983398,2.489668846130371,0.35760653018951416,0.46018359065055847,0.6823388338088989,0.42000001668930054,-0.37491142749786377,0.9517263174057007,-0.8381280303001404,-3.0000014305114746,-0.20764686167240143,-0.20027793943881989,-0.1865401417016983,-0.17017942667007446,-0.7571969032287598,-0.6222851872444153,-0.37025371193885803,-0.1608595848083496
0.43333333333333335,0.032718855887651443,-0.012619642540812492,0.0,0.7355529069900513,0.0,0.0,-0.6774672865867615,-0.15420177578926086,-0.24507595598697662,0.0,0.0,0.0,-8.296436309814453,-0.002625424414873123,0.7618734240531921,0.4364015460014343,0.8662640452384949,0.07782313227653503,-0.13154897093772888,-0.4756312072277069,7.212973117828369,0.861144483089447,0.5693320631980896,22.883031845092773,-13.88561725616455,10.537304878234863,-0.006998791359364986,0.7719929814338684,0.43759414553642273,7.068290710449219,1.149724006652832,0.44797787070274353,0.46018359065055847,0.6823388338088989,0.42000001668930054,-0.3590329587459564,0.9108105897903442,-0.8051269054412842,2.9963009357452393,-0.22178110480308533,-0.21411487460136414,-0.19577080011367798,-0.1753387302160263,-0.6535495519638062,-0.6985466480255127,-0.49925047159194946,-0.3067212402820587
0.45,0.03289923071861267,-0.014026234857738018,0.0,0.7070994973182678,0.0,0.0,-0.707114040851593,0.05752011761069298,-0.030083009973168373,0.0,0.0,0.0,-3.8082754611968994,0.1100516989827156,0.7707735300064087,0.4431394040584564,0.797444224357605,0.08865935355424881,-0.14030995965003967,-0.5801166892051697,5.962825775146484,-0.4623209536075592,0.41380301117897034,-14.028624534606934,6.738422870635986,30.5382137298584,0.10566762089729309,0.7822142243385315,0.4440814256668091,6.605360507965088,-0.020552679896354675,0.4245031774044037,0.46018359065055847,0.6823388338088989,0.42000001668930054,-0.3449861407279968,0.6586971282958984,-0.8315247893333435,-2.9990286827087402,-0.23471848666667938,-0.2263404130935669,-0.20433148741722107,-0.180514857172966,-0.7294340133666992,-0.6549650430679321,-0.4597463309764862,-0.2856871485710144
0.4666666666666667,0.03571493923664093,-0.014540151692926884,0.0,0.7024508714675903,0.0,0.0,-0.7117322087287903,0.2049790769815445,0.02082100510597229,0.0,0.0,0.0,0.13018308579921722,0.2075030654668808,0.7621195316314697,0.44775423407554626,0.7135478258132935,0.08403295278549194,-0.12837059795856476,-0.6835998892784119,5.123889446258545,-2.036600351333618,0.14185185730457306,4.401472568511963,-7.530250072479248,21.344667434692383,0.20320004224777222,0.7757412195205688,0.44909632205963135,5.414608478546143,-0.8452450037002563,0.34128743410110474,0.46018359065055847,0.6823388338088989,0.42000001668930054,-0.3359672725200653,0.32212933897972107,-0.8815504908561707,-3.000000476837158,-0.23989880084991455,-0.23621666431427002,-0.21135073900222778,-0.18501409888267517,-0.02915811352431774,-0.5507047176361084,-0.4009133577346802,-0.27017271518707275
0.48333333333333334,0.042340148240327835,-0.02052208036184311,0.0,0.6868979334831238,0.0,0.0,-0.7267538905143738,0.4769144356250763,-0.5257204174995422,0.0,0.0,0.0,-3.6245741844177246,0.29128068685531616,0.7450301647186279,0.4462287127971649,0.6509091854095459,0.07695811241865158,-0.1282757669687271,-0.7442713975906372,4.266184329986572,-1.9248011112213135,-0.2651449143886566,-14.70053768157959,-3.352294921875,24.49836540222168,0.2881426513195038,0.7593843340873718,0.4480798840522766,4.978791236877441,-1.2551238536834717,-0.18453937768936157,0.46018359065055847,0.6823388338088989,0.42000001668930054,-0.33321186900138855,0.08582097291946411,-0.9315745234489441,-3.0,-0.23394744098186493,-0.23821711540222168,-0.21263387799263,-0.1857549548149109,0.4713123142719269,0.08801798522472382,0.08560167998075485,0.07297167927026749
0.5,0.045647405087947845,-0.023479243740439415,0.0,0.6826720237731934,0.0,0.0,-0.7307248711585999,0.1397663801908493,-0.14577767252922058,0.0,0.0,0.0,0.11108240485191345,0.3623162806034088,0.7185142636299133,0.43938854336738586,0.5641644597053528,0.015033915638923645,-0.1504863202571869,-0.8116934299468994,3.8323864936828613,-1.8346344232559204,-0.5782318711280823,-7.724244117736816,-2.301692247390747,-7.350794315338135,0.35909515619277954,0.7349321842193604,0.4434223771095276,3.873412609100342,-1.625702977180481,-0.3496573865413666,0.46018359065055847,0.6823388338088989,0.42000001668930054,-0.32639989256858826,0.7417351007461548,-0.9815985560417175,-3.000002384185791,-0.23019960522651672,-0.23843449354171753,-0.21278317272663116,-0.18619906902313232,0.304512619972229,0.11092250049114227,0.05118570104241371,-0.026245417073369026
0.5166666666666666,0.04961449280381203,-0.023101242259144783,0.0,0.6693722009658813,0.0,0.0,-0.7429271936416626,0.27250373363494873,0.13881762325763702,0.0,0.0,0.0,-2.9291670322418213,0.4176817238330841,0.6938095688819885,0.42656537890434265,0.5193499326705933,-0.0007106722914613783,-0.13190916180610657,-0.8443193435668945,2.359576463699341,-1.4838206768035889,-0.0169895738363266,-1.7049812078475952,10.782004356384277,6.919350624084473,0.4164246618747711,0.7099535465240479,0.43115097284317017,2.5429487228393555,-1.2046220302581787,-0.19210928678512573,0.46018359065055847,0.6823388338088989,0.42000001668930054,-0.314181923866272,0.7289881706237793,-1.0316213369369507,-2.9966142177581787,-0.22473983466625214,-0.2356782704591751,-0.21204158663749695,-0.18765020370483398,0.2771400511264801,0.1726195216178894,0.031616318970918655,-0.11494683474302292
0.5333333333333333,0.055571749806404114,-0.019560925662517548,0.0,0.6694884300231934,0.0,0.0,-0.7428224682807922,0.3950952887535095,0.3069747984409332,0.0,0.0,0.0,0.9041265249252319,0.4488184452056885,0.6787906885147095,0.42610716819763184,0.49859386682510376,-0.01799110136926174,-0.11833330243825912,-0.858532190322876,1.254586100578308,-1.2070667743682861,0.0535365454852581,0.580787181854248,6.10312032699585,5.803092002868652,0.44738832116127014,0.693556547164917,0.4317069351673126,1.4009660482406616,-0.8904557228088379,-0.1063176766037941,0.46018359065055847,0.6823388338088989,0.42000001668930054,-0.3007408678531647,0.8496226072311401,-1.081644058227539,-2.999131917953491,-0.21923869848251343,-0.23134100437164307,-0.21057333052158356,-0.18906137347221375,0.35809996724128723,0.31835511326789856,0.11847051233053207,-0.08085860311985016
0.55,0.06328736990690231,-0.018223067745566368,0.0,0.6589677333831787,0.0,0.0,-0.7521712183952332,0.49611806869506836,0.0116031588986516,0.0,0.0,0.0,-2.6209635734558105,0.4645991921424866,0.6720005869865417,0.42432892322540283,0.5037376880645752,-0.030623557046055794,-0.07575179636478424,-0.8599838614463806,0.47428223490715027,-0.743328332901001,0.20113685727119446,-10.047956466674805,5.036055088043213,14.101397514343262,0.4629495143890381,0.6854768991470337,0.4304247498512268,0.4419960081577301,-0.19605936110019684,-0.02934248000383377,0.46018359065055847,0.6823388338088989,0.42000001668930054,-0.2872224748134613,0.6385592222213745,-1.1316509246826172,-3.0000038146972656,-0.21111683547496796,-0.22379882633686066,-0.2069648653268814,-0.18928730487823486,0.5177005529403687,0.5090432167053223,0.2631615102291107,0.023587757721543312
0.5666666666666667,0.07329146564006805,-0.013818243518471718,0.0,0.6604577302932739,0.0,0.0,-0.750863254070282,0.6319981813430786,0.27173611521720886,0.0,0.0,0.0,1.146486759185791,0.46849024295806885,0.6676729321479797,0.42279186844825745,0.5225850939750671,-0.054870232939720154,-0.040283165872097015,-0.8498654365539551,0.06089218333363533,-0.21899659931659698,-0.17226596176624298,4.678098678588867,7.1184983253479,0.6628209352493286,0.4659077525138855,0.6803914308547974,0.4281231164932251,0.039021171629428864,-0.25498855113983154,-0.3640063405036926,0.46018359065055847,0.6823388338088989,0.42000001668930054,-0.3031364977359772,-2.025054454803467,-1.1816596984863281,-2.999990463256836,-0.20473158359527588,-0.21680501103401184,-0.20374378561973572,-0.18976722657680511,0.48585987091064453,0.5116221904754639,0.25973162055015564,0.015617486089468002
0.5833333333333334,0.08108155429363251,-0.013785811141133308,0.0,0.6509689092636108,0.0,0.0,-0.7591043710708618,0.34160375595092773,-0.06088904291391373,0.0,0.0,0.0,-2.3798434734344482,0.470720499753952,0.6665342450141907,0.42035916447639465,0.5079945921897888,-0.007427390664815903,-0.003492647549137473,-0.8613211512565613,0.1920284479856491,0.07350429892539978,-0.12102791666984558,5.805470943450928,-2.830106019973755,-1.1761596202850342,0.4682196378707886,0.68000328540802,0.4254691004753113,0.13127698004245758,0.0521446131169796,0.1840248554944992,0.46018359065055847,0.6823388338088989,0.42000001668930054,-0.34362271428108215,-2.726799488067627,-1.2315887212753296,-2.9991705417633057,-0.19451382756233215,-0.2063111513853073,-0.19767175614833832,-0.18792064487934113,0.5722904801368713,0.6111902594566345,0.36552029848098755,0.1311762034893036
0.6,0.08912468701601028,-0.009601082652807236,0.0,0.6538174748420715,0.0,0.0,-0.756652295589447,0.4948810338973999,0.2372855693101883,0.0,0.0,0.0,1.3081986904144287,0.47117704153060913,0.666854977607727,0.419999361038208,0.5169965624809265,-1.5677889678045176e-05,-9.525284258415923e-05,-0.8559874296188354,-0.011451151221990585,0.026217490434646606,-0.0008717062301002443,0.11685465276241302,0.0018571818945929408,2.4081740379333496,0.4684838652610779,0.6804473400115967,0.4279670715332031,0.05580366775393486,0.14551383256912231,0.14659471809864044,0.46018359065055847,0.6823388338088989,0.42000001668930054,-0.3749733865261078,-1.147324562072754,-1.2815723419189453,-2.9997618198394775,-0.18919101357460022,-0.19954578578472137,-0.19419550895690918,-0.18764008581638336,0.4369075894355774,0.4905276894569397,0.2710084617137909,0.06103235483169556
0.6166666666666667,0.09867608547210693,-0.010186769999563694,0.0,0.6448124647140503,0.0,0.0,-0.7643408179283142,0.601521909236908,-0.047589853405952454,0.0,0.0,0.0,-2.354429244995117,0.4708024561405182,0.6673517823219299,0.4200005829334259,0.5357140302658081,-1.1658887160592712e-05,2.6030680601252243e-05,-0.8443995118141174,-0.08239014446735382,0.08682916313409805,-0.00158178829587996,-0.03767283260822296,-0.07109954208135605,9.749272346496582,0.46711719036102295,0.6855930089950562,0.42994266748428345,-0.28873804211616516,0.3078486919403076,0.09042949974536896,0.46018359065055847,0.6823388338088989,0.42000001668930054,-0.4199129045009613,-3.0000009536743164,-1.3023903369903564,0.2205439805984497,-0.1787964403629303,-0.18881061673164368,-0.18742099404335022,-0.18462646007537842,0.483272522687912,0.5387117266654968,0.34639760851860046,0.1603941172361374
0.6333333333333333,0.11046764254570007,-0.007097878493368626,0.0,0.6480006575584412,0.0,0.0,-0.7616397738456726,0.7243369221687317,0.2063554972410202,0.0,0.0,0.0,1.4153434038162231,0.46838828921318054,0.6683819890022278,0.41999995708465576,0.5946710705757141,9.970132168746204e-07,2.4395101263507968e-06,-0.8039690852165222,-0.13085532188415527,0.06728740781545639,-2.730774212977849e-05,-0.001014320063404739,-0.0015461882576346397,8.095388412475586,0.4625694155693054,0.6905439496040344,0.4328007996082306,-0.25382447242736816,0.38953787088394165,0.23121145367622375,0.46018359065055847,0.6823388338088989,0.42000001668930054,-0.46992728114128113,-2.9999749660491943,-1.3434337377548218,-3.0,-0.1739073395729065,-0.18271781504154205,-0.18392068147659302,-0.18361400067806244,0.31377676129341125,0.36450210213661194,0.20870262384414673,0.06183379143476486
0.65,0.11955705285072327,-0.008443780243396759,0.0,0.6727460026741028,0.0,0.0,-0.739873468875885,0.457650750875473,-0.1356854885816574,0.0,0.0,0.0,4.678762435913086,0.46525323390960693,0.670160174369812,0.4203336834907532,0.6080491542816162,0.0050876992754638195,-0.0066697909496724606,-0.7938550114631653,-0.2061583250761032,0.09121401607990265,0.03533632308244705,-0.4664194881916046,-1.715788722038269,-0.877531886100769,0.4599255919456482,0.6943434476852417,0.43640679121017456,-0.1833684742450714,0.1021457239985466,0.26723289489746094,0.46018359065055847,0.6823388338088989,0.42000001668930054,-0.5199481844902039,-2.9998912811279297,-1.3934231996536255,-2.9999890327453613,-0.1686445027589798,-0.17592273652553558,-0.17861776053905487,-0.17962238192558289,0.1786414384841919,0.32345372438430786,0.3087158203125,0.30434948205947876
0.6666666666666666,0.12857264280319214,-0.013320566155016422,0.0,0.6822324395179749,0.0,0.0,-0.731135368347168,0.5737290382385254,-0.33821529150009155,0.0,0.0,0.0,0.526627779006958,0.4623582065105438,0.6714370250701904,0.42008137702941895,0.6033810973167419,0.0011870948364958167,-0.0015996226575225592,-0.7974503636360168,-0.16273370385169983,0.07200244814157486,-0.032156649976968765,0.4364578127861023,1.577659249305725,-0.654840350151062,0.4611554443836212,0.6970012187957764,0.44164082407951355,0.24924930930137634,0.1339350938796997,0.3944520056247711,0.46018359065055847,0.6823388338088989,0.42000001668930054,-0.5699595212936401,-3.0000009536743164,-1.4434409141540527,-3.0000007152557373,-0.16699695587158203,-0.17163969576358795,-0.17395243048667908,-0.1743708997964859,0.06967899203300476,0.23269324004650116,0.2814304232597351,0.34287717938423157
0.6833333333333333,0.13937661051750183,-0.021096324548125267,0.0,0.6696428656578064,0.0,0.0,-0.7426832318305969,0.6833916306495667,-0.5287873148918152,0.0,0.0,0.0,-2.936492443084717,0.46078333258628845,0.6721400022506714,0.4200000464916229,0.6012961864471436,2.7908930277931177e-08,9.410134893528266e-09,-0.7990262508392334,-0.07343411445617676,0.03239784389734268,-4.8655783757567406e-06,-0.00025485167861916125,0.00017180413124151528,-0.2181926965713501,0.47049862146377563,0.7014221549034119,0.4553000330924988,0.8301681876182556,0.33097973465919495,1.3324315547943115,0.46018359065055847,0.6823388338088989,0.42000001668930054,-0.6199702024459839,-2.999979257583618,-1.4934592247009277,-2.999999761581421,-0.1677795648574829,-0.16973622143268585,-0.1709408015012741,-0.1700572371482849,-0.10195427387952805,0.05467992275953293,0.1335800737142563,0.22250303626060486
0.7,0.15409192442893982,-0.023060757666826248,0.0,0.6345229148864746,0.0,0.0,-0.7729040384292603,0.9632535576820374,0.0198807492852211,0.0,0.0,0.0,-6.590741157531738,0.46045514941215515,0.672285258769989,0.4200000464916229,0.6010075807571411,1.1140139122289838e-06,3.1032154765853193e-06,-0.7992433309555054,0.001345915487036109,-0.00040998682379722595,-9.618769399821758e-05,-0.0036759180948138237,-0.003756243269890547,0.0015160961775109172,0.4927709102630615,0.7012686729431152,0.4830600619316101,1.917052149772644,-0.31545281410217285,2.114704132080078,0.46018359065055847,0.6823388338088989,0.42000001668930054,-0.669977068901062,-2.9997293949127197,-1.5434775352478027,-2.9999618530273438,-0.17791511118412018,-0.17581045627593994,-0.17407453060150146,-0.17025236785411835,-0.7803199291229248,-0.5078655481338501,-0.29003170132637024,-0.07677645236253738
0.7166666666666667,0.165846586227417,-0.01972506381571293,0.0,0.6115137338638306,0.0,0.0,-0.7912338376045227,0.5986356735229492,-0.024501526728272438,0.0,0.0,0.0,-2.1807680130004883,0.4604547917842865,0.672285795211792,0.41999995708465576,0.6010078191757202,-1.3083487147014239e-06,-5.843010058015352e-06,-0.7992430329322815,0.00013825850328430533,-0.0004152389883529395,-8.540786802768707e-05,0.009819322265684605,-0.0023568952456116676,-0.0007787816575728357,0.5199840068817139,0.698591947555542,0.519376277923584,1.526015043258667,0.0967618077993393,2.1567277908325195,0.46018359065055847,0.6823388338088989,0.42000001668930054,-0.6862276196479797,0.7316166162490845,-1.5934957265853882,-2.999999523162842,-0.1891160011291504,-0.18337562680244446,-0.17875568568706512,-0.1722061187028885,-0.16703560948371887,-0.09875576198101044,-0.055857524275779724,-0.012761331163346767
0.7333333333333333,0.1722688376903534,-0.018461694940924644,0.0,0.6158093214035034,0.0,0.0,-0.7878952026367188,0.3087444603443146,0.1240052655339241,0.0,0.0,0.0,1.5202275514602661,0.4604547917842865,0.6722857356071472,0.41999995708465576,0.6010076999664307,-9.814964414545102e-07,-5.533209787245141e-06,-0.7992432117462158,0.0001471641444368288,-0.0004065262037329376,-8.242344483733177e-05,0.009693928994238377,-0.002329070819541812,-0.0007943078526295722,0.5409451723098755,0.7002567052841187,0.5496006011962891,0.8599904775619507,0.1253298670053482,1.5247383117675781,0.46018359065055847,0.6823388338088989,0.42000001668930054,-0.6506533622741699,2.999985456466675,-1.554502248764038,3.000000238418579,-0.18986567854881287,-0.18342895805835724,-0.17836850881576538,-0.17140640318393707,0.05324771627783775,0.07521656900644302,0.08837073296308517,0.09660188853740692
0.75,0.1743837296962738,-0.021552758291363716,0.0,0.6102139949798584,0.0,0.0,-0.7922366261482239,0.13361378014087677,-0.23494935035705566,0.0,0.0,0.0,-1.8140439987182617,0.4604547917842865,0.6722857356071472,0.41999995708465576,0.6010080575942993,-1.0051014669443248e-06,-5.4904321586946025e-06,-0.7992429137229919,0.0001475158060202375,-0.0004066760011482984,-8.245883509516716e-05,0.009698336943984032,-0.0023301118053495884,-0.0007958809728734195,0.5480326414108276,0.704509973526001,0.5687573552131653,-0.05179925262928009,0.19739018380641937,0.8971260786056519,0.46018359065055847,0.6823388338088989,0.42000001668930054,-0.6144928932189941,1.446010708808899,-1.5044457912445068,2.9999983310699463,-0.1850576251745224,-0.17898429930210114,-0.1743222326040268,-0.16785570979118347,0.18761707842350006,0.18628551065921783,0.1837543547153473,0.16837801039218903
0.7666666666666666,0.17399826645851135,-0.01917838864028454,0.0,0.6164392232894897,0.0,0.0,-0.7874025106430054,-0.07385879009962082,0.27530816197395325,0.0,0.0,0.0,1.8256741762161255,0.4604547917842865,0.672285795211792,0.41999995708465576,0.601007878780365,-1.0898550044657895e-06,-5.8731684475787915e-06,-0.7992429733276367,0.0001480876380810514,-0.00040641528903506696,-8.249026723206043e-05,0.00968998484313488,-0.002324908273294568,-0.0007968458230607212,0.5421122908592224,0.7061753273010254,0.5805239081382751,-0.585093080997467,0.11663638055324554,0.5565160512924194,0.46018359065055847,0.6823388338088989,0.42000001668930054,-0.5726784467697144,2.9999990463256836,-1.45444655418396,2.999999523162842,-0.18695341050624847,-0.17994359135627747,-0.17441663146018982,-0.16747315227985382,-0.1421571522951126,-0.09073877334594727,-0.04156581684947014,-0.018208978697657585
0.7833333333333333,0.17158062756061554,-0.019520174711942673,0.0,0.6111011505126953,0.0,0.0,-0.7915524840354919,-0.20897087454795837,-0.027461905032396317,0.0,0.0,0.0,-1.5633647441864014,0.4604547917842865,0.6722857356071472,0.41999995708465576,0.601007878780365,-1.1414534810683108e-06,-5.861780209670542e-06,-0.7992430925369263,0.00014940925757400692,-0.0004072691372130066,-8.244207128882408e-05,0.009720996022224426,-0.0023275837302207947,-0.000800954585429281,0.5267218351364136,0.7080051302909851,0.5831989049911499,-1.3213980197906494,0.05085592716932297,-0.055007219314575195,0.46018359065055847,0.6823388338088989,0.42000001668930054,-0.5541701912879944,-0.4934523105621338,-1.4043912887573242,3.000000476837158,-0.18660885095596313,-0.1793108880519867,-0.17340272665023804,-0.1664285808801651,-0.017546622082591057,0.00848089437931776,0.042680833488702774,0.05558086931705475
0.8,0.17134259641170502,-0.017374984920024872,0.0,0.617436408996582,0.0,0.0,-0.7866207957267761,0.04504304751753807,0.18755310773849487,0.0,0.0,0.0,1.7058560848236084,0.4604547917842865,0.6722857356071472,0.41999995708465576,0.6010077595710754,-9.967685627998435e-07,-5.502841304405592e-06,-0.799243152141571,0.0001471864670747891,-0.00040675155469216406,-8.246861398220062e-05,0.009699439629912376,-0.0023309325333684683,-0.0007946194382384419,0.5099189281463623,0.7107350826263428,0.5821292400360107,-0.7641297578811646,0.2603057622909546,-0.01217687875032425,0.46018359065055847,0.6823388338088989,0.42000001668930054,-0.5398619771003723,1.982967734336853,-1.4224233627319336,-2.999999761581421,-0.18589675426483154,-0.17891068756580353,-0.17297685146331787,-0.16615179181098938,0.10537544637918472,0.0585191436111927,0.038410983979701996,0.01396909635514021
0.8166666666666667,0.17344669997692108,-0.018930282443761826,0.0,0.6116189360618591,0.0,0.0,-0.7911524772644043,0.14628680050373077,-0.12353910505771637,0.0,0.0,0.0,-1.793216586112976,0.4604547917842865,0.6722857356071472,0.41999995708465576,0.6010081171989441,-9.79603669293283e-07,-5.649306785926456e-06,-0.7992428541183472,0.0001474163873353973,-0.00040663720574229956,-8.245650678873062e-05,0.009696939028799534,-0.002330139512196183,-0.0007955905748531222,0.4982905387878418,0.7154903411865234,0.5792198181152344,-0.6808263659477234,0.18705007433891296,-0.17556621134281158,0.46018359065055847,0.6823388338088989,0.42000001668930054,-0.5514013767242432,-2.9317476749420166,-1.3839175701141357,3.0000007152557373,-0.18079204857349396,-0.1752883791923523,-0.1702902615070343,-0.16435404121875763,0.24637679755687714,0.17540746927261353,0.13663367927074432,0.10022231936454773
0.8333333333333334,0.17818544805049896,-0.020151179283857346,0.0,0.6181676983833313,0.0,0.0,-0.7860462665557861,0.3413624167442322,-0.09785734862089157,0.0,0.0,0.0,1.825183391571045,0.4604547917842865,0.672285795211792,0.41999995708465576,0.6010079979896545,-1.0733699582488043e-06,-5.842266546096653e-06,-0.7992430329322815,0.00014774790906812996,-0.00040631360025145113,-8.247699588537216e-05,0.009686552919447422,-0.002324348082765937,-0.0007958247442729771,0.49267956614494324,0.7174842357635498,0.5785573720932007,-0.024806693196296692,0.10971663147211075,0.1157473772764206,0.46018359065055847,0.6823388338088989,0.42000001668930054,-0.5849133133888245,-1.2114489078521729,-1.402352213859558,-3.0000009536743164,-0.17973679304122925,-0.17457570135593414,-0.1693962663412094,-0.16325309872627258,0.018292337656021118,0.014605038799345493,0.0434722863137722,0.07599771022796631
0.85,0.18484309315681458,-0.024159571155905724,0.0,0.6125070452690125,0.0,0.0,-0.7904651165008545,0.4330121576786041,-0.30607500672340393,0.0,0.0,0.0,-1.767993688583374,0.4604547917842865,0.6722857356071472,0.41999995708465576,0.6010080575942993,-1.0511060963835916e-06,-5.615234385913936e-06,-0.7992428541183472,0.0001473242591600865,-0.0004063708183821291,-8.242321200668812e-05,0.009689313359558582,-0.0023255215492099524,-0.0007948624552227557,0.4942367374897003,0.716747522354126,0.5764107704162598,0.2376326322555542,-0.20010493695735931,-0.1743001788854599,0.46018359065055847,0.6823388338088989,0.42000001668930054,-0.6245455741882324,-3.0000011920928955,-1.3639023303985596,2.999999761581421,-0.17987942695617676,-0.1744914948940277,-0.16850732266902924,-0.16144447028636932,-0.006806320510804653,0.025584669783711433,0.09191833436489105,0.1659424602985382
0.8666666666666667,0.1939898133277893,-0.026114096865057945,0.0,0.5873217582702637,0.0,0.0,-0.8093535304069519,0.5987213253974915,-0.05431726947426796,0.0,0.0,0.0,-4.87194299697876,0.4604547917842865,0.672285795211792,0.41999995708465576,0.6010077595710754,-1.12396526219527e-06,-5.653728294419125e-06,-0.7992430925369263,0.00014629169891122729,-0.0004061070503666997,-8.245906792581081e-05,0.00967788603156805,-0.0023283902555704117,-0.0007918703486211598,0.5007166266441345,0.7137932181358337,0.5756804943084717,0.553075909614563,-0.18545250594615936,0.20190846920013428,0.46018359065055847,0.6823388338088989,0.42000001668930054,-0.6445097327232361,0.3335086703300476,-1.382707118988037,-2.9999992847442627,-0.18031537532806396,-0.17499999701976776,-0.16853396594524384,-0.16082504391670227,-0.009466931223869324,-0.03643827512860298,-0.03406842052936554,-0.022722313180565834
