vladlanda/robotic-transformer/data/env_000_episode_0120.csv
sim_time_s,robot_box_x,robot_box_y,robot_box_z,robot_box_quat_w,robot_box_quat_x,robot_box_quat_y,robot_box_quat_z,robot_box_linvel_x,robot_box_linvel_y,robot_box_linvel_z,robot_box_angvel_x,robot_box_angvel_y,robot_box_angvel_z,cube_world_x,cube_world_y,cube_world_z,cube_quat_w,cube_quat_x,cube_quat_y,cube_quat_z,cube_linvel_x,cube_linvel_y,cube_linvel_z,cube_angvel_x,cube_angvel_y,cube_angvel_z,endpoint_world_x,endpoint_world_y,endpoint_world_z,endpoint_linvel_x,endpoint_linvel_y,endpoint_linvel_z,target_cube_world_x,target_cube_world_y,target_cube_world_z,gripper_actual_pos_rad_gp_leftgearjoint,gripper_actual_vel_rad_s_gp_leftgearjoint,gripper_actual_pos_rad_gp_rotatingjoint,gripper_actual_vel_rad_s_gp_rotatingjoint,motor_angle_rad_joint1,motor_angle_rad_joint2,motor_angle_rad_joint3,motor_angle_rad_joint4,motor_speed_rad_s_joint1,motor_speed_rad_s_joint2,motor_speed_rad_s_joint3,motor_speed_rad_s_joint4
0.0,0.0,0.0,0.0,1.0,0.0,0.0,0.0,0.0,0.0,0.0,0.0,0.0,0.0,-0.42317894101142883,0.6277145147323608,0.41999998688697815,1.0,0.0,0.0,0.0,0.0,0.0,0.0,0.0,0.0,0.0,3.42540442943573e-06,-0.005000244826078415,1.313499927520752,0.0,0.0,0.0,0.35300111770629883,0.6480085253715515,0.42000001668930054,-1.5707999467849731,0.0,0.0,0.0,0.0,0.0,0.0,0.0,0.0,0.0,0.0,0.0
0.016666666666666666,0.0028778850100934505,0.0021806680597364902,0.0,0.9998081922531128,0.0,0.0,0.019586581736803055,0.24087215960025787,0.18240931630134583,0.0,0.0,0.0,3.1418697834014893,-0.4231790602207184,0.627714216709137,0.41999998688697815,1.0,3.2799914606584935e-06,-8.339814598912199e-07,8.465387679734704e-08,-1.9833554688375443e-05,0.00017983050202019513,-6.133061833679676e-05,0.0009432226070202887,-0.004689437802881002,-0.0003198152990080416,-0.007110234349966049,0.003379564033821225,1.3159373998641968,-0.8143353462219238,0.9868683815002441,0.18095196783542633,0.35300111770629883,0.6480085253715515,0.42000001668930054,-1.5301095247268677,3.0000011920928955,-0.04584788903594017,-2.9999992847442627,0.0008691533003002405,0.0007963840034790337,0.0007110277656465769,0.0006108740926720202,0.11094217747449875,0.09756709635257721,0.08334315568208694,0.06823883205652237
0.03333333333333333,0.00896092876791954,0.006801697891205549,0.0,0.9997960329055786,0.0,0.0,0.02019682340323925,0.40701547265052795,0.31529566645622253,0.0,0.0,0.0,-0.8691307306289673,-0.42317917943000793,0.6277141571044922,0.4200000464916229,1.0,3.390914116607746e-06,-2.132455392711563e-06,-3.71076644967161e-08,0.0002635782293509692,0.00026937935035675764,-0.00010509486310184002,-0.001770757487975061,0.0041308156214654446,-0.00013547815615311265,-0.027534689754247665,0.02552604489028454,1.3166992664337158,-1.590438961982727,1.5836000442504883,-0.07256526499986649,0.35300111770629883,0.6480085253715515,0.42000001668930054,-1.4800903797149658,3.000002145767212,-0.09588772058486938,-3.0000009536743164,0.0029902562964707613,0.0026529293972998857,0.002277559135109186,0.0018610676052048802,0.16423927247524261,0.1397881656885147,0.11385228484869003,0.08633897453546524
0.05,0.017745500430464745,0.013770236633718014,0.0,0.9993783831596375,0.0,0.0,0.035254258662462234,0.5937414169311523,0.46502065658569336,0.0,0.0,0.0,2.649055004119873,-0.4231792092323303,0.627714216709137,0.4200000464916229,1.0,3.7652293940482195e-06,-2.2118967990536476e-06,5.613899567435965e-09,0.000265309150563553,0.0002669153909664601,-0.0001044049859046936,-0.00172426737844944,0.004177379421889782,-0.0001294983085244894,-0.05964508652687073,0.05246094986796379,1.312056541442871,-2.1872398853302,1.6848652362823486,-0.4456883668899536,0.35300111770629883,0.6480085253715515,0.42000001668930054,-1.4300720691680908,2.999997615814209,-0.1459263563156128,-3.0000011920928955,0.00571001973003149,0.004918251186609268,0.004054332617670298,0.003113808110356331,0.19299504160881042,0.15610085427761078,0.11733037233352661,0.07658997178077698
0.06666666666666667,0.029059352353215218,0.023062610998749733,0.0,0.9994502067565918,0.0,0.0,0.03315460681915283,0.7202711701393127,0.5951350927352905,0.0,0.0,0.0,-1.2102433443069458,-0.4231792092323303,0.6277141571044922,0.4200000464916229,0.9999999403953552,3.4068445984303253e-06,-2.2855729184811935e-06,4.300823945868615e-07,0.000267024093773216,0.0002679175231605768,-0.0001043803058564663,-0.0017406325787305832,0.004211729858070612,-0.00012850853090640157,-0.09870579093694687,0.0851859301328659,1.3000034093856812,-2.5028228759765625,2.129049777984619,-0.973688006401062,0.35300111770629883,0.6480085253715515,0.42000001668930054,-1.3800461292266846,3.0000007152557373,-0.15535800158977509,1.4914460182189941,0.008356139063835144,0.006894789636135101,0.0053224689327180386,0.003632383421063423,0.1578584611415863,0.10857409238815308,0.05725626274943352,0.003840785473585129
0.08333333333333333,0.042462125420570374,0.03442684933543205,0.0,0.9998998641967773,0.0,0.0,0.014153309166431427,0.9004034399986267,0.7150108218193054,0.0,0.0,0.0,-2.773756504058838,-0.4231792092323303,0.6277141571044922,0.4200000464916229,1.0,3.697329248097958e-06,-2.1889204617764335e-06,-2.632361599808064e-07,0.00026389621780253947,0.00026586378226056695,-0.00010433816350996494,-0.0017081365222111344,0.004150137305259705,-0.00012991174298804253,-0.13984498381614685,0.12209414690732956,1.2815918922424316,-2.4526314735412598,2.27778697013855,-1.2055727243423462,0.35300111770629883,0.6480085253715515,0.42000001668930054,-1.3300360441207886,2.999997854232788,-0.19518011808395386,-3.0000011920928955,0.009805312380194664,0.007423187140375376,0.004889971576631069,0.0021987762302160263,0.08055642247200012,0.013725324533879757,-0.05516674369573593,-0.1260913610458374
0.1,0.050583429634571075,0.04329896718263626,0.0,0.9998929500579834,0.0,0.0,0.014631937257945538,0.3363408148288727,0.4260620176792145,0.0,0.0,0.0,1.0689849853515625,-0.4231792092323303,0.6277141571044922,0.4200000464916229,0.9999999403953552,3.620433972173487e-06,-2.265166358483839e-06,1.7460881451825117e-07,0.00026676940615288913,0.00026740849716588855,-0.0001040794886648655,-0.0017386502586305141,0.0042092143557965755,-0.00012775196228176355,-0.18359500169754028,0.15629515051841736,1.257930040359497,-2.6136178970336914,2.072399139404297,-1.549107313156128,0.35300111770629883,0.6480085253715515,0.42000001668930054,-1.2800081968307495,3.000000476837158,-0.1613723635673523,3.000000238418579,0.004928636364638805,0.0018482430605217814,-0.0014326071832329035,-0.004923943895846605,-0.42411839962005615,-0.46649158000946045,-0.5114171504974365,-0.5591278672218323
0.11666666666666667,0.05435582250356674,0.05406594276428223,0.0,0.9999991655349731,0.0,0.0,0.0012868986232206225,0.3431621491909027,0.5875312685966492,0.0,0.0,0.0,-2.1664931774139404,-0.4231792092323303,0.6277141571044922,0.4200000464916229,1.0,3.7984186747053172e-06,-2.262772341055097e-06,-1.5020653165720432e-07,0.00026373984292149544,0.00026565982261672616,-0.00010428996756672859,-0.0017054551281034946,0.004147582221776247,-0.000129800770082511,-0.22365622222423553,0.19777733087539673,1.2288788557052612,-2.3347606658935547,2.7456068992614746,-1.7507555484771729,0.35300111770629883,0.6480085253715515,0.42000001668930054,-1.2300057411193848,2.9999988079071045,-0.19310037791728973,-2.999999523162842,-0.0013365506893023849,-0.005590686574578285,-0.010046202689409256,-0.014716161414980888,-0.0978022888302803,-0.21889348328113556,-0.33646509051322937,-0.4504074454307556
0.13333333333333333,0.061257775872945786,0.06328736245632172,0.0,0.999240517616272,0.0,0.0,-0.038966283202171326,0.4258423447608948,0.5159088969230652,0.0,0.0,0.0,-5.722440242767334,-0.4231792092323303,0.627714216709137,0.4200000464916229,0.9999999403953552,3.5505179312167456e-06,-2.2298092972050654e-06,2.9291240366546845e-07,0.0002670329704415053,0.0002677935699466616,-0.00010416889563202858,-0.0017439755611121655,0.004213570151478052,-0.00012800609692931175,-0.2629026770591736,0.24724534153938293,1.1947309970855713,-2.376025438308716,3.054171323776245,-2.348337173461914,0.35300111770629883,0.6480085253715515,0.42000001668930054,-1.1799927949905396,2.9999942779541016,-0.15934549272060394,2.999999523162842,-0.0026522420812398195,-0.008881072513759136,-0.01523676048964262,-0.021731635555624962,-0.11385548114776611,-0.21932844817638397,-0.3202000558376312,-0.41649824380874634
0.15,0.06568198651075363,0.07104738801717758,0.0,0.9976675510406494,0.0,0.0,-0.06826041638851166,0.20324890315532684,0.4268210828304291,0.0,0.0,0.0,-2.510291576385498,-0.4231792092323303,0.6277141571044922,0.4200000464916229,0.9999999403953552,3.3381122648279415e-06,-2.2428905595006654e-06,-2.803136034401632e-08,0.0002667456865310669,0.0002675803261809051,-0.00010427623055875301,-0.0017366986721754074,0.004206871148198843,-0.00012831554340664297,-0.3034173846244812,0.2957366108894348,1.153821349143982,-2.254444122314453,3.045802354812622,-2.5851120948791504,0.35300111770629883,0.6480085253715515,0.42000001668930054,-1.1300005912780762,3.0000009536743164,-0.1910550892353058,-3.0,-0.005909733008593321,-0.01388055644929409,-0.021890148520469666,-0.02995142713189125,-0.26451921463012695,-0.3623523712158203,-0.4550117552280426,-0.5425454378128052
0.16666666666666666,0.0663985088467598,0.0800040140748024,0.0,0.9941002130508423,0.0,0.0,-0.10846539586782455,-0.022709693759679794,0.6111404299736023,0.0,0.0,0.0,-5.648416996002197,-0.4231792092323303,0.627714216709137,0.4200000464916229,0.9999999403953552,3.647830908448668e-06,-2.307289605596452e-06,3.526602299075421e-08,0.0002672695554792881,0.0002680134493857622,-0.0001041879877448082,-0.0017471626633778214,0.004217641893774271,-0.00012799118121620268,-0.340751588344574,0.3507946729660034,1.1045072078704834,-2.0872714519500732,3.4971375465393066,-3.2835917472839355,0.35300111770629883,0.6480085253715515,0.42000001668930054,-1.0800089836120605,2.9907522201538086,-0.1625688523054123,2.9999992847442627,-0.01257645059376955,-0.021928321570158005,-0.03122732602059841,-0.0404883436858654,-0.4931655824184418,-0.5572981834411621,-0.6163574457168579,-0.6705213785171509
0.18333333333333332,0.07274892181158066,0.08616747707128525,0.0,0.9840241074562073,0.0,0.0,-0.17803530395030975,0.5166025757789612,0.2676329016685486,0.0,0.0,0.0,-9.454910278320312,-0.4231792092323303,0.6277141571044922,0.4200000464916229,0.9999999403953552,3.290551603640779e-06,-2.1939342786936322e-06,-2.7924167511628184e-07,0.0002667796507012099,0.00026776036247611046,-0.00010434072464704514,-0.001739065395668149,0.004206969402730465,-0.00012845818127971143,-0.3725995719432831,0.4162391424179077,1.0434329509735107,-1.5683798789978027,4.233534812927246,-3.9761083126068115,0.35300111770629883,0.6480085253715515,0.42000001668930054,-1.0300143957138062,2.999999523162842,-0.19428673386573792,-2.999999761581421,-0.018389303237199783,-0.028949502855539322,-0.039365656673908234,-0.04965545982122421,-0.3762851357460022,-0.43241018056869507,-0.4840674102306366,-0.5314878821372986
0.2,0.07522477209568024,0.09263521432876587,0.0,0.9736955761909485,0.0,0.0,-0.22785285115242004,0.043427176773548126,0.40929579734802246,0.0,0.0,0.0,-4.945913314819336,-0.4231792092323303,0.6277141571044922,0.4200000464916229,1.0,3.2807351999508683e-06,-2.219225052613183e-06,1.594732026433121e-07,0.00026627970510162413,0.00026740136672742665,-0.0001042510848492384,-0.001735763973556459,0.004197762347757816,-0.0001286511542275548,-0.3993499279022217,0.4782499074935913,0.9685260057449341,-1.1985293626785278,3.7361607551574707,-4.908618927001953,0.35300111770629883,0.6480085253715515,0.42000001668930054,-0.9800121188163757,3.000000476837158,-0.24431610107421875,-3.000000476837158,-0.03219755366444588,-0.04278979077935219,-0.053159914910793304,-0.06339437514543533,-0.8930020928382874,-0.8941695690155029,-0.8968098163604736,-0.8997893929481506
0.21666666666666667,0.07370876520872116,0.09979014098644257,0.0,0.9703161716461182,0.0,0.0,-0.24183997511863708,-0.14112412929534912,0.4277517795562744,0.0,0.0,0.0,-0.5890305638313293,-0.4231792092323303,0.627714216709137,0.4200000464916229,1.0,3.613135277191759e-06,-2.2701503894495545e-06,2.2101289687270764e-07,0.0002671263355296105,0.0002678169112186879,-0.00010414118878543377,-0.0017444867407903075,0.0042151641100645065,-0.00012786478328052908,-0.42449259757995605,0.5274718403816223,0.8842647075653076,-1.3288073539733887,2.6570358276367188,-5.264529705047607,0.35300111770629883,0.6480085253715515,0.42000001668930054,-0.9300024509429932,2.999999761581421,-0.2943473160266876,-3.0,-0.04588144272565842,-0.056739192456007004,-0.06735965609550476,-0.07781756669282913,-0.8569136261940002,-0.8548164963722229,-0.8524536490440369,-0.848770260810852
0.23333333333333334,0.07579552382230759,0.1032286211848259,0.0,0.9637688994407654,0.0,0.0,-0.2667385935783386,0.14583522081375122,0.14936144649982452,0.0,0.0,0.0,-3.6710894107818604,-0.4231792092323303,0.6277141571044922,0.4200000464916229,1.0,3.3818234896898502e-06,-2.290981683472637e-06,2.728025378928578e-07,0.0002669123059604317,0.0002677978773135692,-0.00010433210991322994,-0.0017395822796970606,0.004209768958389759,-0.00012843773583881557,-0.44392257928848267,0.5705442428588867,0.789942741394043,-0.8503672480583191,2.3289902210235596,-5.930726051330566,0.35300111770629883,0.6480085253715515,0.42000001668930054,-0.8799917697906494,2.99999737739563,-0.3443797826766968,-3.0000009536743164,-0.06054285168647766,-0.07137439399957657,-0.08198568969964981,-0.09235714375972748,-0.9913564920425415,-0.9926010966300964,-0.9935793876647949,-0.9943774938583374
0.25,0.07283905148506165,0.10952994972467422,0.0,0.9619083404541016,0.0,0.0,-0.27337217330932617,-0.15069252252578735,0.354997843503952,0.0,0.0,0.0,0.18587802350521088,-0.42317917943000793,0.6277141571044922,0.4200000464916229,0.9999999403953552,3.706510142365005e-06,-2.2230249214771902e-06,-2.254949436064635e-07,0.00026424831594340503,0.00026656725094653666,-0.00010457634925842285,-0.001716952072456479,0.004155570175498724,-0.00013063338701613247,-0.4545367956161499,0.593651533126831,0.6934395432472229,-0.413385272026062,0.9215389490127563,-5.650709629058838,0.35300111770629883,0.6480085253715515,0.42000001668930054,-0.8299816250801086,3.000000238418579,-0.3944123089313507,-3.0000009536743164,-0.07770147174596786,-0.08833903819322586,-0.09882865101099014,-0.10910677909851074,-0.809398353099823,-0.8432353138923645,-0.8741241097450256,-0.8991128206253052
0.26666666666666666,0.07441014051437378,0.11158895492553711,0.0,0.9563972353935242,0.0,0.0,-0.29206907749176025,0.1577523946762085,0.06612737476825714,0.0,0.0,0.0,-2.906517267227173,-0.4231792092323303,0.6277141571044922,0.4200000464916229,0.9999999403953552,3.7196562061581062e-06,-2.4035145997913787e-06,-1.8307397908756684e-07,0.00026623206213116646,0.00026729085948318243,-0.00010425853542983532,-0.0017326372908428311,0.004196509253233671,-0.0001285135222133249,-0.4584256410598755,0.6107379198074341,0.5969741344451904,0.13278748095035553,0.8969341516494751,-5.706568717956543,0.35300111770629883,0.6480085253715515,0.42000001668930054,-0.7799727916717529,3.000001907348633,-0.44444361329078674,-2.9999985694885254,-0.09237201511859894,-0.10329405218362808,-0.11405745893716812,-0.12457071244716644,-1.0079751014709473,-1.0059781074523926,-1.0044608116149902,-1.0032591819763184
0.2833333333333333,0.07221554219722748,0.11132533103227615,0.0,0.9566876888275146,0.0,0.0,-0.2911161780357361,-0.23037487268447876,-0.043990492820739746,0.0,0.0,0.0,0.998234748840332,-0.4231792092323303,0.627714216709137,0.4200000464916229,0.9999999403953552,3.584109208532027e-06,-2.315508709216374e-06,7.404404556154986e-08,0.0002652198018040508,0.0002645530621521175,-0.00010317005217075348,-0.001702171633951366,0.004185137338936329,-0.0001249976339749992,-0.4527750015258789,0.6216991543769836,0.5099853873252869,0.6528288125991821,0.5467517375946045,-4.816042900085449,0.35300111770629883,0.6480085253715515,0.42000001668930054,-0.729964017868042,3.0000014305114746,-0.49447354674339294,-3.0000011920928955,-0.11039038002490997,-0.12099884450435638,-0.13152706623077393,-0.14185650646686554,-1.0150505304336548,-1.0113359689712524,-1.0085047483444214,-1.0062540769577026
0.3,0.06789937615394592,0.10852064192295074,0.0,0.9528701305389404,0.0,0.0,-0.3033785820007324,-0.2998778223991394,-0.2170860469341278,0.0,0.0,0.0,-2.373462677001953,-0.4231792092323303,0.6277141571044922,0.4200000464916229,1.0,3.724297130247578e-06,-2.271929133712547e-06,9.635297004706445e-08,0.0002631272072903812,0.00026525818975642323,-0.00010438100434839725,-0.0016960492357611656,0.004134910646826029,-0.00013027878594584763,-0.4370325207710266,0.6303712129592896,0.4280892014503479,1.2826881408691406,0.4197269678115845,-4.920821666717529,0.35300111770629883,0.6480085253715515,0.42000001668930054,-0.6799570322036743,2.9999938011169434,-0.5445013642311096,-3.0000011920928955,-0.12681461870670319,-0.13740436732769012,-0.1479276567697525,-0.15822702646255493,-1.0001126527786255,-1.0000669956207275,-1.0000375509262085,-1.0000145435333252
0.31666666666666665,0.061374057084321976,0.1033904030919075,0.0,0.9541371464729309,0.0,0.0,-0.29936978220939636,-0.4342271685600281,-0.3460299074649811,0.0,0.0,0.0,1.3970940113067627,-0.4232292175292969,0.6278526782989502,0.4200012683868408,0.9999940395355225,-6.425013270927593e-05,4.721744971902808e-06,-0.003425618400797248,-0.023327820003032684,0.05690669268369675,-0.0018287854036316276,0.09104965627193451,-0.0013971388107165694,-2.875002384185791,-0.4380093216896057,0.6330037117004395,0.4268244504928589,-0.013089297339320183,0.09228261560201645,-0.2440488338470459,0.35300111770629883,0.6480085253715515,0.42000001668930054,-0.6299529671669006,2.999966859817505,-0.5949317216873169,-3.0000009536743164,-0.13664337992668152,-0.14627355337142944,-0.1555376797914505,-0.16422782838344574,-0.6219701766967773,-0.5396102070808411,-0.44224366545677185,-0.32811084389686584
0.3333333333333333,0.05245519056916237,0.09606949985027313,0.0,0.9506869316101074,0.0,0.0,-0.310152143239975,-0.5826641321182251,-0.47889843583106995,0.0,0.0,0.0,-2.2575573921203613,-0.4227994978427887,0.6297548413276672,0.4200001358985901,0.9996962547302246,-6.259503152250545e-06,1.040099323290633e-05,-0.024645131081342697,0.07012674957513809,0.17098432779312134,-0.00036071534850634634,0.013630720786750317,-0.01084932405501604,-3.503448724746704,-0.43626847863197327,0.6344062089920044,0.42313534021377563,0.21450020372867584,0.1554935872554779,-0.19185060262680054,0.35300111770629883,0.6480085253715515,0.42000001668930054,-0.5799478888511658,2.9999775886535645,-0.6450057625770569,-2.999526262283325,-0.14754970371723175,-0.15545879304409027,-0.16272619366645813,-0.16913390159606934,-0.6555220484733582,-0.5338868498802185,-0.39635413885116577,-0.24329306185245514
0.35,0.04124851152300835,0.08650284260511398,0.0,0.9521699547767639,0.0,0.0,-0.305569052696228,-0.7134415507316589,-0.6166727542877197,0.0,0.0,0.0,1.4687669277191162,-0.42004939913749695,0.6347604393959045,0.42009690403938293,0.9965205192565918,7.75774969952181e-05,0.002425310667604208,-0.08331260085105896,0.2267155647277832,0.4069608747959137,0.03327442333102226,0.14576281607151031,1.663735270500183,-11.278204917907715,-0.43250393867492676,0.6395524740219116,0.422238826751709,0.23173272609710693,0.4853309392929077,0.12158180773258209,0.35300111770629883,0.6480085253715515,0.42000001668930054,-0.5299429297447205,2.9999868869781494,-0.695044219493866,-3.0000007152557373,-0.15878573060035706,-0.1642649918794632,-0.16880792379379272,-0.1722257137298584,-0.6368338465690613,-0.480022668838501,-0.3046168088912964,-0.11319838464260101
0.36666666666666664,0.027802499011158943,0.07462633401155472,0.0,0.9487557411193848,0.0,0.0,-0.31601038575172424,-0.8521167039871216,-0.7519822120666504,0.0,0.0,0.0,-2.247373342514038,-0.414751261472702,0.6432619690895081,0.42000123858451843,0.9872112274169922,1.8726363123278134e-05,5.875589340575971e-05,-0.15941758453845978,0.4824737012386322,0.6932205557823181,-0.0024714746978133917,0.01678537204861641,-0.20222249627113342,-4.608654499053955,-0.425001859664917,0.6489522457122803,0.42161428928375244,0.6607017517089844,0.6227101683616638,-0.18583939969539642,0.35300111770629883,0.6480085253715515,0.42000001668930054,-0.4799383580684662,2.9999916553497314,-0.7450684309005737,-2.999997615814209,-0.16922342777252197,-0.1717492938041687,-0.17296500504016876,-0.17274612188339233,-0.5778214931488037,-0.3860487639904022,-0.17131663858890533,0.06167890876531601
0.3833333333333333,0.016970902681350708,0.06006492301821709,0.0,0.9359559416770935,0.0,0.0,-0.3521171808242798,-0.5761608481407166,-0.9264784455299377,0.0,0.0,0.0,-5.4071478843688965,-0.4035402834415436,0.6584731340408325,0.4203549027442932,0.9802930951118469,-0.008713820949196815,0.001512679154984653,-0.19735045731067657,0.909349262714386,1.028862476348877,0.1528664529323578,-6.931041717529297,1.9619923830032349,-8.500467300415039,-0.4118046164512634,0.662326455116272,0.42077916860580444,0.9215770959854126,0.9871231913566589,0.16728475689888,0.35300111770629883,0.6480085253715515,0.42000001668930054,-0.4298609495162964,2.9965567588806152,-0.7950681447982788,-2.9986236095428467,-0.1775621771812439,-0.1769096553325653,-0.17450395226478577,-0.17031191289424896,-0.39439427852630615,-0.21045708656311035,0.00018959990120492876,0.23498959839344025
0.4,0.01017977949231863,0.04242447763681412,0.0,0.9113796353340149,0.0,0.0,-0.41156676411628723,-0.341396689414978,-1.1121881008148193,0.0,0.0,0.0,-8.542943000793457,-0.3770592510700226,0.681717038154602,0.42421767115592957,0.9664591550827026,-0.036258500069379807,-0.038216665387153625,-0.2513592541217804,2.511194944381714,1.4931180477142334,0.2954467535018921,54.392581939697266,9.162063598632812,1.403586745262146,-0.3852442800998688,0.6868757009506226,0.4240441918373108,2.3343703746795654,2.0004143714904785,0.41954559087753296,0.35300111770629883,0.6480085253715515,0.42000001668930054,-0.38827234506607056,1.5107110738754272,-0.8450919389724731,-2.999307155609131,-0.1852211356163025,-0.18114112317562103,-0.17491504549980164,-0.16657964885234833,-0.5024017691612244,-0.276609867811203,-0.03214684873819351,0.22540707886219025
0.4166666666666667,0.005300331395119429,0.0294118020683527,0.0,0.871254026889801,0.0,0.0,-0.4908323585987091,-0.25684884190559387,-0.6606716513633728,0.0,0.0,0.0,-11.427129745483398,-0.3119116723537445,0.720103919506073,0.42899152636528015,0.9483681917190552,0.021526459604501724,-0.08217647671699524,-0.3055836856365204,5.4434309005737305,2.4534146785736084,0.3808351457118988,3.818863868713379,-8.891252517700195,9.025442123413086,-0.3198193311691284,0.7264599800109863,0.4285375475883484,5.1408796310424805,2.8953139781951904,0.3034968078136444,0.35300111770629883,0.6480085253715515,0.42000001668930054,-0.3745456635951996,0.7238074541091919,-0.8081497550010681,2.9996466636657715,-0.20005112886428833,-0.19184543192386627,-0.18004488945007324,-0.16633112728595734,-0.8905373811721802,-0.7283889055252075,-0.39529499411582947,-0.08689028769731522
0.43333333333333335,0.0031015288550406694,0.02271224372088909,0.0,0.8120487332344055,0.0,0.0,-0.5835896134376526,-0.06593344360589981,-0.4945780038833618,0.0,0.0,0.0,-13.84794807434082,-0.20682579278945923,0.7640813589096069,0.4364428222179413,0.909813404083252,0.05746662989258766,-0.10618866235017776,-0.3970656991004944,7.385769844055176,2.082862377166748,0.6528549194335938,7.002840518951416,-13.765149116516113,24.114479064941406,-0.2142418622970581,0.771734356880188,0.43588578701019287,7.206671714782715,2.8394503593444824,0.6061098575592041,0.35300111770629883,0.6480085253715515,0.42000001668930054,-0.36128801107406616,0.8414964079856873,-0.831876277923584,-3.0,-0.21430696547031403,-0.2063809335231781,-0.19134530425071716,-0.17199905216693878,-0.4605516493320465,-0.5688132643699646,-0.601793646812439,-0.35120147466659546
0.45,-0.002702903700992465,0.01974215731024742,0.0,0.7576929926872253,0.0,0.0,-0.6526111364364624,-0.4404497742652893,-0.08681412041187286,0.0,0.0,0.0,-9.473664283752441,-0.09364819526672363,0.7941039204597473,0.4467643201351166,0.8766139149665833,0.11200865358114243,-0.1283159703016281,-0.4500410556793213,6.706971168518066,0.35784533619880676,0.7278130650520325,1.8185375928878784,-15.927152633666992,25.553455352783203,-0.09960499405860901,0.803855836391449,0.44672244787216187,6.749585151672363,1.1853041648864746,0.6810503005981445,0.35300111770629883,0.6480085253715515,0.42000001668930054,-0.3469993770122528,0.8113469481468201,-0.7950437664985657,2.997739791870117,-0.22926472127437592,-0.2210318148136139,-0.20429424941539764,-0.17980201542377472,-0.8923394680023193,-0.8752661943435669,-0.7543615698814392,-0.47496485710144043
0.4666666666666667,-0.004749882034957409,0.011171958409249783,0.0,0.721561849117279,0.0,0.0,-0.6923499703407288,-0.0032115995418280363,-0.6806643605232239,0.0,0.0,0.0,-5.434841632843018,0.01426927000284195,0.8071178793907166,0.4565425515174866,0.8379164934158325,0.12285955995321274,-0.11906391382217407,-0.5182905197143555,6.369018077850342,-0.6291988492012024,0.5878341794013977,-4.882088661193848,-12.402935028076172,18.01692771911621,0.009755145758390427,0.8165808916091919,0.4570964574813843,6.464810371398926,0.1535717099905014,0.6727140545845032,0.35300111770629883,0.6480085253715515,0.42000001668930054,-0.3316355049610138,0.8925722241401672,-0.8216727375984192,-3.0000014305114746,-0.2390657365322113,-0.22981901466846466,-0.21092355251312256,-0.18239854276180267,-0.4551467001438141,-0.35576844215393066,-0.21627390384674072,-0.002436803886666894
0.48333333333333334,-0.006955771706998348,0.003866225713863969,0.0,0.709657609462738,0.0,0.0,-0.7045466899871826,-0.17997121810913086,-0.3377322852611542,0.0,0.0,0.0,-0.8891989588737488,0.11189709603786469,0.8020023703575134,0.4634299576282501,0.7823907136917114,0.10322872549295425,-0.11771699041128159,-0.6027861833572388,5.024106502532959,-1.663008451461792,0.3245566785335541,-0.734997034072876,-7.438512802124023,33.138267517089844,0.10772770643234253,0.8128962516784668,0.46529704332351685,5.45158576965332,-0.6173288822174072,0.38564449548721313,0.35300111770629883,0.6480085253715515,0.42000001668930054,-0.3197833001613617,0.37905120849609375,-0.8716986775398254,-3.000002861022949,-0.24000407755374908,-0.2376279979944229,-0.21630270779132843,-0.18474383652210236,-0.04390711337327957,-0.37976405024528503,-0.2637156546115875,-0.14077049493789673
0.5,-0.007574823684990406,-0.00015606367378495634,0.0,0.6904212832450867,0.0,0.0,-0.723407506942749,0.020643016323447227,-0.1163901761174202,0.0,0.0,0.0,-4.006991386413574,0.1928473711013794,0.7860199809074402,0.46441537141799927,0.7288329601287842,0.07767846435308456,-0.11120474338531494,-0.6711199283599854,4.288596153259277,-2.0159988403320312,-0.057439692318439484,-7.1671271324157715,-6.723721027374268,20.774553298950195,0.18874630331993103,0.7973862886428833,0.46737465262413025,4.545098304748535,-1.3286621570587158,0.029687518253922462,0.35300111770629883,0.6480085253715515,0.42000001668930054,-0.31500381231307983,0.18622127175331116,-0.9217227101325989,-3.000000476837158,-0.24002869427204132,-0.24002082645893097,-0.2192753106355667,-0.18644188344478607,-0.03296814113855362,-0.02279963530600071,-0.1338016837835312,-0.08172159641981125
0.5166666666666666,-0.005220185965299606,-0.004203717689961195,0.0,0.6859101057052612,0.0,0.0,-0.7276862859725952,0.18435433506965637,-0.2633441686630249,0.0,0.0,0.0,0.258513867855072,0.2593313157558441,0.7602182030677795,0.46017518639564514,0.6838712096214294,0.03677825257182121,-0.10829474031925201,-0.7205827832221985,3.3274474143981934,-2.237337827682495,-0.4739277958869934,-9.600546836853027,-0.05472401902079582,8.715993881225586,0.25573521852493286,0.7712675333023071,0.46457552909851074,3.615039348602295,-1.800545573234558,-0.2650446593761444,0.35300111770629883,0.6480085253715515,0.42000001668930054,-0.3083060085773468,0.5430676937103271,-0.9717467427253723,-2.9999618530273438,-0.23991435766220093,-0.23987619578838348,-0.22117257118225098,-0.18791794776916504,-0.0123665202409029,0.030647074803709984,-0.056152909994125366,-0.07287582010030746
0.5333333333333333,-0.004348267801105976,-0.005303436424583197,0.0,0.6728511452674866,0.0,0.0,-0.7397778630256653,-0.009360740892589092,-0.019910473376512527,0.0,0.0,0.0,-2.9716289043426514,0.31140783429145813,0.7299739122390747,0.4485788345336914,0.6411148309707642,-0.01022980734705925,-0.10290075093507767,-0.7604461908340454,2.760166883468628,-1.9616280794143677,-0.8520512580871582,-4.932404041290283,0.29944390058517456,-2.2436599731445312,0.3081762194633484,0.7411260604858398,0.4545396566390991,2.723079204559326,-1.84221613407135,-0.7829435467720032,0.35300111770629883,0.6480085253715515,0.42000001668930054,-0.2956801652908325,0.8046507835388184,-1.0217700004577637,-3.0000016689300537,-0.23885571956634521,-0.23849520087242126,-0.2218530923128128,-0.18996968865394592,0.1636115461587906,0.1893460899591446,0.05431134253740311,-0.09308278560638428
0.55,-0.0024594427086412907,-0.009291587397456169,0.0,0.672728419303894,0.0,0.0,-0.7398895025253296,0.1563633382320404,-0.2636396586894989,0.0,0.0,0.0,0.8350107669830322,0.34991365671157837,0.700613260269165,0.431525856256485,0.5809921622276306,-0.030621200799942017,-0.08931837230920792,-0.8084136843681335,1.7462232112884521,-2.214277744293213,-0.9287625551223755,-15.78387451171875,3.4825732707977295,3.792714834213257,0.34609454870224,0.7106509208679199,0.4383471608161926,1.7785918712615967,-1.813718557357788,-1.1309683322906494,0.35300111770629883,0.6480085253715515,0.42000001668930054,-0.2752043306827545,1.381300449371338,-1.0717921257019043,-2.9999475479125977,-0.23461422324180603,-0.23366360366344452,-0.21930986642837524,-0.1905060112476349,0.23605427145957947,0.2858230173587799,0.15456634759902954,-0.05369715392589569
0.5666666666666667,0.002004891401156783,-0.009995988570153713,0.0,0.6626026630401611,0.0,0.0,-0.7489711046218872,0.30797478556632996,-0.003778776153922081,0.0,0.0,0.0,-2.446204662322998,0.368796706199646,0.6798553466796875,0.4207976460456848,0.5768176913261414,-0.011828027665615082,0.017071174457669258,-0.8166088461875916,0.4637923538684845,-1.3125147819519043,0.27123725414276123,5.1990814208984375,12.864093780517578,20.736440658569336,0.3658440113067627,0.6871925592422485,0.4252377152442932,0.34649407863616943,-0.7316813468933105,0.3382388651371002,0.35300111770629883,0.6480085253715515,0.42000001668930054,-0.25904521346092224,0.4256308674812317,-1.121814250946045,-2.9999992847442627,-0.22954893112182617,-0.2284756600856781,-0.21682220697402954,-0.19214190542697906,0.4550694227218628,0.4265548288822174,0.24396482110023499,-0.026799974963068962
0.5833333333333334,0.004362671636044979,-0.014412534423172474,0.0,0.6645585894584656,0.0,0.0,-0.7472361922264099,0.08068087697029114,-0.28789228200912476,0.0,0.0,0.0,1.0299768447875977,0.3740262985229492,0.6661226749420166,0.4224107563495636,0.5837219953536987,-0.03707568719983101,0.051698461174964905,-0.8094573616981506,0.10786677896976471,-0.8929212093353271,0.10780618339776993,1.818094253540039,5.627314567565918,0.13204778730869293,0.36974048614501953,0.6728664636611938,0.42572492361068726,0.03121281787753105,-0.8835077881813049,-0.2120860517024994,0.35300111770629883,0.6480085253715515,0.42000001668930054,-0.27697986364364624,-2.0478549003601074,-1.1718287467956543,-3.0,-0.2201671451330185,-0.21949993073940277,-0.21079911291599274,-0.19080103933811188,0.4899812936782837,0.4886865019798279,0.3365764915943146,0.06711573898792267
0.6,0.00786034855991602,-0.014619571156799793,0.0,0.6549310088157654,0.0,0.0,-0.7556886672973633,0.24511131644248962,0.002118646167218685,0.0,0.0,0.0,-2.3141415119171143,0.3731619417667389,0.6550026535987854,0.42354217171669006,0.5983613133430481,-0.05807192996144295,0.07916034013032913,-0.7951886653900146,-0.04725206270813942,-0.15859726071357727,0.12910503149032593,2.508815288543701,7.630492687225342,2.0248429775238037,0.36849167943000793,0.6651977300643921,0.42605093121528625,-0.05393129587173462,-0.17211221158504486,0.14852139353752136,0.35300111770629883,0.6480085253715515,0.42000001668930054,-0.2952410876750946,-0.3080134987831116,-1.221755027770996,-2.998135566711426,-0.21275384724140167,-0.21240414679050446,-0.20625197887420654,-0.19070206582546234,0.6019070148468018,0.5369695425033569,0.3544100821018219,0.06381308287382126
0.6166666666666667,0.01354571245610714,-0.018795428797602654,0.0,0.6580731868743896,0.0,0.0,-0.7529540061950684,0.35589340329170227,-0.27518290281295776,0.0,0.0,0.0,1.3736239671707153,0.37071681022644043,0.651777982711792,0.4240346848964691,0.6066135764122009,-0.06739749759435654,0.09000838547945023,-0.7870044708251953,-0.23874559998512268,-0.15433469414710999,0.04156333953142166,0.8283165693283081,2.2221407890319824,0.6163457036018372,0.36472782492637634,0.6617770195007324,0.4256550669670105,-0.3926016688346863,-0.19166740775108337,-0.0324348546564579,0.35300111770629883,0.6480085253715515,0.42000001668930054,-0.336788147687912,-2.9999513626098633,-1.1845852136611938,2.9997365474700928,-0.2013942301273346,-0.20206137001514435,-0.19876687228679657,-0.1879192292690277,0.6044838428497314,0.5703752636909485,0.4319443702697754,0.17996825277805328
0.6333333333333333,0.022086884826421738,-0.01989198476076126,0.0,0.6813029050827026,0.0,0.0,-0.7320016026496887,0.5564582943916321,-0.030376112088561058,0.0,0.0,0.0,4.518945693969727,0.3668830096721649,0.6494070887565613,0.4235343039035797,0.6105138063430786,-0.060344357043504715,0.07758735865354538,-0.7858826518058777,-0.2101297825574875,-0.13321419060230255,-0.05059826001524925,-0.8464969992637634,-3.2541229724884033,0.49741330742836,0.36011072993278503,0.6605768203735352,0.4276459813117981,-0.20392774045467377,0.08418020606040955,0.18609580397605896,0.35300111770629883,0.6480085253715515,0.42000001668930054,-0.3868327736854553,-2.9999983310699463,-1.2057455778121948,-2.9988656044006348,-0.1930513083934784,-0.1942279189825058,-0.19293078780174255,-0.1858459711074829,0.5504569411277771,0.5007542967796326,0.37468868494033813,0.15065832436084747
0.65,0.030778156593441963,-0.02382526360452175,0.0,0.6900700926780701,0.0,0.0,-0.7237425446510315,0.5146352648735046,-0.2767314612865448,0.0,0.0,0.0,0.3844902515411377,0.3635741174221039,0.6475656628608704,0.4215647280216217,0.6150696873664856,-0.024295570328831673,0.03106790967285633,-0.7874855995178223,-0.19930976629257202,-0.09992242604494095,-0.13779816031455994,-1.9878127574920654,-7.921436309814453,0.12957459688186646,0.358437716960907,0.6628103256225586,0.43176865577697754,-0.06488741934299469,0.11562496423721313,0.28420326113700867,0.35300111770629883,0.6480085253715515,0.42000001668930054,-0.4368802011013031,-2.9998884201049805,-1.2557111978530884,-2.999239683151245,-0.1835786998271942,-0.18526341021060944,-0.18548893928527832,-0.18138232827186584,0.5174147486686707,0.5157334804534912,0.46436288952827454,0.33293411135673523
0.6666666666666666,0.04068641737103462,-0.030792495235800743,0.0,0.6771160364151001,0.0,0.0,-0.7358762621879578,0.6331688761711121,-0.4909821152687073,0.0,0.0,0.0,-2.991814613342285,0.36060550808906555,0.6468847990036011,0.42000019550323486,0.6134311556816101,6.434493116103113e-06,-3.891258529620245e-06,-0.7897481918334961,-0.14936155080795288,-0.004478110000491142,-0.00035159848630428314,-0.004266931209713221,0.018195005133748055,-0.5449055433273315,0.3590206503868103,0.6648441553115845,0.4393423795700073,0.1238776445388794,0.09282178431749344,0.7464188933372498,0.35300111770629883,0.6480085253715515,0.42000001668930054,-0.48689335584640503,-2.9999938011169434,-1.305729627609253,-2.999999761581421,-0.1772397756576538,-0.17845363914966583,-0.17881619930267334,-0.17600685358047485,0.3082256317138672,0.3585154116153717,0.3828907012939453,0.3466130495071411
0.6833333333333333,0.053737252950668335,-0.03337135910987854,0.0,0.6426763534545898,0.0,0.0,-0.7661377787590027,0.7709273099899292,-0.1278655081987381,0.0,0.0,0.0,-6.327381610870361,0.3591229319572449,0.6468390822410583,0.41999998688697815,0.6114241480827332,-7.022156751190778e-06,4.368158897705143e-06,-0.7913030385971069,-0.06781227141618729,-0.002399023389443755,-0.0002917111851274967,-0.002054407959803939,-0.012867492623627186,-0.24645867943763733,0.36888760328292847,0.6614450216293335,0.45927292108535767,1.1054213047027588,-0.323188453912735,1.7312309741973877,0.35300111770629883,0.6480085253715515,0.42000001668930054,-0.5369059443473816,-2.9999172687530518,-1.355747938156128,-2.999992609024048,-0.17926029860973358,-0.1784135401248932,-0.1770581752061844,-0.1734880805015564,-0.12332034856081009,-0.008150637149810791,0.09619790315628052,0.1534164398908615
0.7,0.06570661067962646,-0.033781830221414566,0.0,0.6230718493461609,0.0,0.0,-0.7821646332740784,0.6668075323104858,0.0029929180163890123,0.0,0.0,0.0,-1.96162748336792,0.3588755130767822,0.6468307375907898,0.4199999272823334,0.6110997200012207,9.873128874460235e-06,-1.766937020875048e-05,-0.7915534973144531,0.0009212945587933064,-0.0006344576831907034,-0.0002062742132693529,0.008954332210123539,-0.025115981698036194,-0.004441380966454744,0.3887476325035095,0.6609978675842285,0.48984014987945557,1.2031372785568237,0.2092825472354889,1.9118459224700928,0.35300111770629883,0.6480085253715515,0.42000001668930054,-0.558220386505127,0.17981679737567902,-1.405766248703003,-3.0,-0.18018850684165955,-0.17851538956165314,-0.1764633059501648,-0.17288389801979065,0.04645422101020813,0.03456035628914833,0.0166560597717762,-0.03738520294427872
0.7166666666666667,0.0733400359749794,-0.03191542625427246,0.0,0.6286237239837646,0.0,0.0,-0.7777096033096313,0.3797195553779602,0.15387886762619019,0.0,0.0,0.0,1.7265853881835938,0.3588775396347046,0.6468302011489868,0.4200000464916229,0.6110983490943909,4.7201194774970645e-07,-3.498160367598757e-06,-0.7915546298027039,0.00014747252862434834,-0.000281211658148095,-9.429990313947201e-05,0.0061483969911932945,-0.0009105473873205483,-0.0005866398569196463,0.40545332431793213,0.665920615196228,0.5159815549850464,0.7377091646194458,0.37887436151504517,1.2793549299240112,0.35300111770629883,0.6480085253715515,0.42000001668930054,-0.5346137285232544,2.436556100845337,-1.3673052787780762,2.999999523162842,-0.17828580737113953,-0.17697550356388092,-0.17532767355442047,-0.17266373336315155,0.18425291776657104,0.15271048247814178,0.12011543661355972,0.060738544911146164
0.7333333333333333,0.07627345621585846,-0.03521475940942764,0.0,0.6225718259811401,0.0,0.0,-0.7825626730918884,0.1887509673833847,-0.22899143397808075,0.0,0.0,0.0,-1.6569898128509521,0.3588775396347046,0.6468302011489868,0.4200000464916229,0.6110983490943909,3.505697918626538e-07,-3.3833021007012576e-06,-0.7915546298027039,0.0001540318044135347,-0.0002794024767354131,-9.752251207828522e-05,0.006049186456948519,-0.0008760044001974165,-0.0006039694417268038,0.4121067523956299,0.6730809211730957,0.5313990116119385,-0.0250786691904068,0.28376156091690063,0.6900910139083862,0.35300111770629883,0.6480085253715515,0.42000001668930054,-0.5037410259246826,1.338355302810669,-1.3172526359558105,3.0,-0.1708947867155075,-0.17071178555488586,-0.17017455399036407,-0.16897271573543549,0.23641738295555115,0.2206079363822937,0.20172472298145294,0.15874464809894562
0.75,0.07679981738328934,-0.033296406269073486,0.0,0.6293618083000183,0.0,0.0,-0.7771124243736267,-0.010705954395234585,0.12917616963386536,0.0,0.0,0.0,1.7918540239334106,0.3588775396347046,0.6468302011489868,0.4200000464916229,0.6110983490943909,3.3088954864979314e-07,-3.2659397675161017e-06,-0.7915546298027039,0.00015371099289041013,-0.0002794369647745043,-9.745429269969463e-05,0.006051600910723209,-0.0008802860975265503,-0.0006033009849488735,0.4087347984313965,0.6765842437744141,0.5390547513961792,-0.27190572023391724,0.27768608927726746,0.24778559803962708,0.35300111770629883,0.6480085253715515,0.42000001668930054,-0.4743878245353699,2.0970492362976074,-1.3368252515792847,-3.0,-0.17166289687156677,-0.17072883248329163,-0.16956619918346405,-0.16819794476032257,0.06564711034297943,0.08202880620956421,0.09394718706607819,0.08452002704143524
0.7666666666666666,0.07783906161785126,-0.034557826817035675,0.0,0.6245939135551453,0.0,0.0,-0.7809497117996216,0.09087224304676056,-0.06884700804948807,0.0,0.0,0.0,-1.4545273780822754,0.3588775396347046,0.6468302011489868,0.4200000464916229,0.6110982298851013,3.6949154491594527e-07,-3.3409762636438245e-06,-0.7915547490119934,0.0001535152259748429,-0.0002790234866552055,-9.748619049787521e-05,0.00604257732629776,-0.0008823862881399691,-0.0006026756018400192,0.3987782597541809,0.6807278394699097,0.536746084690094,-0.9394997358322144,0.19831041991710663,-0.3367423415184021,0.35300111770629883,0.6480085253715515,0.42000001668930054,-0.4637141227722168,-0.5932851433753967,-1.2985581159591675,3.0,-0.16977466642856598,-0.1687798798084259,-0.1676122546195984,-0.16652889549732208,0.015392952598631382,0.0363064780831337,0.052660416811704636,0.05226997286081314
0.7833333333333333,0.08122359961271286,-0.03498760610818863,0.0,0.6321075558662415,0.0,0.0,-0.7748806476593018,0.25060591101646423,-0.06912463158369064,0.0,0.0,0.0,1.8551150560379028,0.3588775396347046,0.6468302011489868,0.4200000464916229,0.6110983490943909,3.470630645097117e-07,-3.4121715088986093e-06,-0.7915546298027039,0.00015416443056892604,-0.00027935297111980617,-9.75574366748333e-05,0.006047307047992945,-0.0008740799967199564,-0.0006042378954589367,0.3862993121147156,0.683043360710144,0.5308060646057129,-0.5450680255889893,0.16171494126319885,-0.3513047993183136,0.35300111770629883,0.6480085253715515,0.42000001668930054,-0.49461060762405396,-2.889414072036743,-1.3184727430343628,-3.0000016689300537,-0.17071837186813354,-0.1690351814031601,-0.1671592742204666,-0.16552427411079407,0.03863523155450821,0.060150306671857834,0.0907471552491188,0.12199517339468002
0.8,0.0866486206650734,-0.03830176964402199,0.0,0.6267719864845276,0.0,0.0,-0.7792027592658997,0.3629865050315857,-0.26372143626213074,0.0,0.0,0.0,-1.7008763551712036,0.3588775396347046,0.6468302011489868,0.4200000464916229,0.6110983490943909,3.327304227696004e-07,-3.296616796433227e-06,-0.7915546298027039,0.0001538470824016258,-0.0002794221509248018,-9.74887516349554e-05,0.006050616502761841,-0.0008785697864368558,-0.0006035988335497677,0.3812633156776428,0.6835681200027466,0.5200269222259521,-0.0713367685675621,-0.0939587950706482,-0.7321147322654724,0.35300111770629883,0.6480085253715515,0.42000001668930054,-0.544602632522583,-3.0,-1.3684910535812378,-3.000000238418579,-0.17132069170475006,-0.16879157721996307,-0.16581836342811584,-0.1629602313041687,-0.04816785454750061,0.024338191375136375,0.11557717621326447,0.21918249130249023
0.8166666666666667,0.09448346495628357,-0.045088429003953934,0.0,0.6007963418960571,0.0,0.0,-0.799402117729187,0.5143204927444458,-0.47506263852119446,0.0,0.0,0.0,-4.840690612792969,0.3588775396347046,0.6468302011489868,0.4200000464916229,0.6110982298851013,3.47727990401836e-07,-3.3747803627193207e-06,-0.7915547490119934,0.0001536766067147255,-0.0002790529979392886,-9.752530604600906e-05,0.006042364053428173,-0.0008806717814877629,-0.0006030555814504623,0.38367795944213867,0.6778974533081055,0.5130230188369751,0.39408910274505615,-0.5065610408782959,0.029822222888469696,0.35300111770629883,0.6480085253715515,0.42000001668930054,-0.5946133136749268,-2.999952793121338,-1.4185093641281128,-2.9999990463256836,-0.17438779771327972,-0.17036189138889313,-0.16558997333049774,-0.16071920096874237,-0.22213275730609894,-0.13149015605449677,-0.023400140926241875,0.09832146763801575
0.8333333333333334,0.105253666639328,-0.048356667160987854,0.0,0.5890109539031982,0.0,0.0,-0.8081250190734863,0.6603822708129883,-0.15234357118606567,0.0,0.0,0.0,-0.6904726624488831,0.358877569437027,0.6468302011489868,0.4200000464916229,0.6110983490943909,3.639597707660869e-07,-3.6421035929379286e-06,-0.7915546298027039,0.0001519825600553304,-0.00027870680787600577,-9.713321924209595e-05,0.006043467670679092,-0.0008994066738523543,-0.0005991621292196214,0.3898545503616333,0.6752479076385498,0.5186176300048828,0.38971641659736633,0.14722713828086853,0.572411298751831,0.35300111770629883,0.6480085253715515,0.42000001668930054,-0.6138193607330322,0.41540464758872986,-1.4685276746749878,-2.999999761581421,-0.1790532022714615,-0.17419366538524628,-0.16837634146213531,-0.16227716207504272,-0.12597747147083282,-0.15188324451446533,-0.1658874750137329,-0.1669011265039444
0.85,0.11283763498067856,-0.049111492931842804,0.0,0.6022252440452576,0.0,0.0,-0.7983262538909912,0.38443896174430847,-0.004154481925070286,0.0,0.0,0.0,2.806537389755249,0.3588775396347046,0.6468302011489868,0.4200000464916229,0.6110982298851013,3.3842516700133274e-07,-3.295885790066677e-06,-0.7915547490119934,0.00015384459402412176,-0.0002790661237668246,-9.758211672306061e-05,0.006041341926902533,-0.0008794963941909373,-0.0006036306731402874,0.399189829826355,0.6795523166656494,0.5225387811660767,0.6271507740020752,0.3025776743888855,-0.06096264719963074,0.35300111770629883,0.6480085253715515,0.42000001668930054,-0.5910609364509583,2.1449687480926514,-1.4298856258392334,3.0000007152557373,-0.17915566265583038,-0.17505811154842377,-0.16981185972690582,-0.16405904293060303,0.061376433819532394,0.010379636660218239,-0.032280921936035156,-0.06352396309375763
0.8666666666666667,0.11573795974254608,-0.05398073419928551,0.0,0.6025174260139465,0.0,0.0,-0.7981057167053223,0.14760997891426086,-0.31427648663520813,0.0,0.0,0.0,-0.8937131762504578,0.3588775396347046,0.6468302011489868,0.4200000464916229,0.6110983490943909,3.3934148291336896e-07,-3.3642347716522636e-06,-0.7915546298027039,0.00015404506120830774,-0.0002793704916257411,-9.752856567502022e-05,0.006048369221389294,-0.0008755943854339421,-0.0006039801519364119,0.40649592876434326,0.6820131540298462,0.5176949501037598,0.24085721373558044,-0.07425188273191452,-0.38067877292633057,0.35300111770629883,0.6480085253715515,0.42000001668930054,-0.5909205675125122,-1.7869244813919067,-1.3798329830169678,2.999999761581421,-0.17550377547740936,-0.17248563468456268,-0.16820085048675537,-0.16322296857833862,0.06432955712080002,0.04242277890443802,0.02219494804739952,0.007300549652427435
