vladlanda/robotic-transformer/data/env_000_episode_0110.csv
sim_time_s,robot_box_x,robot_box_y,robot_box_z,robot_box_quat_w,robot_box_quat_x,robot_box_quat_y,robot_box_quat_z,robot_box_linvel_x,robot_box_linvel_y,robot_box_linvel_z,robot_box_angvel_x,robot_box_angvel_y,robot_box_angvel_z,cube_world_x,cube_world_y,cube_world_z,cube_quat_w,cube_quat_x,cube_quat_y,cube_quat_z,cube_linvel_x,cube_linvel_y,cube_linvel_z,cube_angvel_x,cube_angvel_y,cube_angvel_z,endpoint_world_x,endpoint_world_y,endpoint_world_z,endpoint_linvel_x,endpoint_linvel_y,endpoint_linvel_z,target_cube_world_x,target_cube_world_y,target_cube_world_z,gripper_actual_pos_rad_gp_leftgearjoint,gripper_actual_vel_rad_s_gp_leftgearjoint,gripper_actual_pos_rad_gp_rotatingjoint,gripper_actual_vel_rad_s_gp_rotatingjoint,motor_angle_rad_joint1,motor_angle_rad_joint2,motor_angle_rad_joint3,motor_angle_rad_joint4,motor_speed_rad_s_joint1,motor_speed_rad_s_joint2,motor_speed_rad_s_joint3,motor_speed_rad_s_joint4
0.0,0.0,0.0,0.0,1.0,0.0,0.0,0.0,0.0,0.0,0.0,0.0,0.0,0.0,-0.36113834381103516,0.6993215084075928,0.41999998688697815,1.0,0.0,0.0,0.0,0.0,0.0,0.0,0.0,0.0,0.0,3.42540442943573e-06,-0.005000244826078415,1.313499927520752,0.0,0.0,0.0,0.454911470413208,0.6831725835800171,0.42000001668930054,-1.5707999467849731,0.0,0.0,0.0,0.0,0.0,0.0,0.0,0.0,0.0,0.0,0.0
0.016666666666666666,0.002896304242312908,0.002153285313397646,0.0,0.9998497366905212,0.0,0.0,0.017335649579763412,0.24128086864948273,0.18162964284420013,0.0,0.0,0.0,3.141831874847412,-0.3611384630203247,0.6993212103843689,0.41999998688697815,1.0,3.279964630564791e-06,-8.339746386809566e-07,8.465587342243452e-08,-1.9833529222523794e-05,0.00017983045836444944,-6.132945418357849e-05,0.0009432713268324733,-0.004689474124461412,-0.00031981561915017664,-0.00710117444396019,0.0034357805270701647,1.3159427642822266,-0.8126810193061829,0.9886957406997681,0.1809597611427307,0.454911470413208,0.6831725835800171,0.42000001668930054,-1.5301096439361572,3.000002145767212,-0.045852549374103546,-3.0000009536743164,0.0008737018797546625,0.0008001159876585007,0.0007144061382859945,0.0006150208064354956,0.11084047704935074,0.09748387336730957,0.08326616883277893,0.06813905388116837
0.03333333333333333,0.008981912396848202,0.006762776058167219,0.0,0.9998389482498169,0.0,0.0,0.017946496605873108,0.4071718752384186,0.3146004378795624,0.0,0.0,0.0,-0.8686432242393494,-0.36113858222961426,0.6993211507797241,0.4200000464916229,1.0,3.3908354453160428e-06,-2.1324485715012997e-06,-3.710144014235084e-08,0.00026357831666246057,0.00026937946677207947,-0.00010509486310184002,-0.0017707672668620944,0.004130808170884848,-0.000135478752781637,-0.027454804629087448,0.026449784636497498,1.3165830373764038,-1.58469557762146,1.624143362045288,-0.08718657493591309,0.454911470413208,0.6831725835800171,0.42000001668930054,-1.4800903797149658,3.0000040531158447,-0.09589238464832306,-3.0000014305114746,0.002988656749948859,0.0026510623283684254,0.00227569742128253,0.0018598826136440039,0.16383817791938782,0.13941718637943268,0.11350104957818985,0.08598314225673676
0.05,0.018490323796868324,0.013861005194485188,0.0,0.999957263469696,0.0,0.0,-0.009247410111129284,0.6358227729797363,0.4717523455619812,0.0,0.0,0.0,-4.073395729064941,-0.36113861203193665,0.6993212103843689,0.4200000464916229,1.0,3.7651125239790417e-06,-2.211879063906963e-06,5.622505128144439e-09,0.000265308452071622,0.0002669153327587992,-0.00010440615005791187,-0.001724260626360774,0.004177352879196405,-0.00012949221127200872,-0.056846655905246735,0.05810989439487457,1.3118162155151367,-1.9329218864440918,2.097914218902588,-0.467761754989624,0.454911470413208,0.6831725835800171,0.42000001668930054,-1.4300720691680908,2.9999985694885254,-0.14592581987380981,-2.999999761581421,0.005991487763822079,0.005149092059582472,0.0042343586683273315,0.0032432645093649626,0.2052334100008011,0.16462531685829163,0.12209520488977432,0.077549047768116
0.06666666666666667,0.03083593025803566,0.023347828537225723,0.0,0.9998341798782349,0.0,0.0,-0.018209340050816536,0.7728708386421204,0.6159847974777222,0.0,0.0,0.0,-0.029946189373731613,-0.36113861203193665,0.6993211507797241,0.4200000464916229,0.9999999403953552,3.4066883927152958e-06,-2.285532218593289e-06,4.300976286231162e-07,0.0002670241810847074,0.00026791772688739,-0.00010438147000968456,-0.00174069800414145,0.00421178387477994,-0.00012850729399360716,-0.09188856184482574,0.09241385757923126,1.3014928102493286,-2.1380159854888916,2.1739745140075684,-0.7599408626556396,0.454911470413208,0.6831725835800171,0.42000001668930054,-1.380043625831604,3.0000007152557373,-0.12654627859592438,3.0000009536743164,0.00847602542489767,0.006838348228484392,0.005087967496365309,0.003218828933313489,0.12280924618244171,0.064313143491745,0.00364025984890759,-0.059246014803647995
0.08333333333333333,0.03704194724559784,0.03647927567362785,0.0,0.9991142749786377,0.0,0.0,-0.042079512029886246,0.22417399287223816,0.879020094871521,0.0,0.0,0.0,-3.802849292755127,-0.36113861203193665,0.6993211507797241,0.4200000464916229,1.0,3.6972253383282805e-06,-2.188838152505923e-06,-2.632317830375541e-07,0.00026389729464426637,0.00026586424792185426,-0.00010433932766318321,-0.0017081560799852014,0.004150177352130413,-0.0001299097202718258,-0.1225278303027153,0.13226959109306335,1.2870333194732666,-1.574009895324707,2.613870143890381,-0.9064950346946716,0.454911470413208,0.6831725835800171,0.42000001668930054,-1.3300408124923706,3.0000007152557373,-0.15849319100379944,-2.999999523162842,0.004397137090563774,0.0019289288902655244,-0.0007055998430587351,-0.0035158724058419466,-0.3849136531352997,-0.4458934962749481,-0.509707510471344,-0.57657790184021
0.1,0.046802274882793427,0.05148894712328911,0.0,0.9956204295158386,0.0,0.0,-0.09348777681589127,0.7356797456741333,0.9048908352851868,0.0,0.0,0.0,-6.959868431091309,-0.36113861203193665,0.6993211507797241,0.4200000464916229,0.9999999403953552,3.620277084337431e-06,-2.2651142899121623e-06,1.7461523782458244e-07,0.0002667682128958404,0.0002674072457011789,-0.0001040794886648655,-0.0017386354738846421,0.004209177568554878,-0.00012775110371876508,-0.1508781611919403,0.17789947986602783,1.271327018737793,-1.8170063495635986,2.882897138595581,-1.0294002294540405,0.454911470413208,0.6831725835800171,0.42000001668930054,-1.2800339460372925,3.0000016689300537,-0.19283927977085114,-1.2415169477462769,0.002436024136841297,-0.001556655508466065,-0.005720911081880331,-0.01006618607789278,-0.015862995758652687,-0.1151968464255333,-0.21354345977306366,-0.310832679271698
0.11666666666666667,0.055388037115335464,0.06356333196163177,0.0,0.9921401143074036,0.0,0.0,-0.1251320242881775,0.5385120511054993,0.6843951940536499,0.0,0.0,0.0,-2.575573205947876,-0.36113861203193665,0.6993211507797241,0.4200000464916229,1.0,3.798308171099052e-06,-2.262737325509079e-06,-1.5021218757738097e-07,0.0002637405996210873,0.000265660259174183,-0.00010428996756672859,-0.0017054072814062238,0.00414755754172802,-0.000129801788716577,-0.18472376465797424,0.2238137423992157,1.252249002456665,-1.9663982391357422,2.974637031555176,-1.1613579988479614,0.454911470413208,0.6831725835800171,0.42000001668930054,-1.2300211191177368,2.9999940395355225,-0.15241138637065887,2.999999523162842,9.187410614686087e-05,-0.005510325077921152,-0.011257441714406013,-0.017158323898911476,-0.06135983392596245,-0.17735467851161957,-0.29007187485694885,-0.3993256390094757
0.13333333333333333,0.06170165166258812,0.07277029007673264,0.0,0.9860471487045288,0.0,0.0,-0.16646617650985718,0.32891038060188293,0.4798074960708618,0.0,0.0,0.0,-5.800296783447266,-0.36113861203193665,0.6993212103843689,0.4200000464916229,0.9999999403953552,3.55037650479062e-06,-2.229731535408064e-06,2.929058098288806e-07,0.0002670335816219449,0.0002677934826351702,-0.00010417238809168339,-0.0017440745141357183,0.004213663749396801,-0.0001280020660487935,-0.21550209820270538,0.2767219543457031,1.2308478355407715,-1.6907289028167725,3.4618005752563477,-1.4074487686157227,0.454911470413208,0.6831725835800171,0.42000001668930054,-1.1804898977279663,2.913592576980591,-0.1841966062784195,-3.000000476837158,-0.002509246813133359,-0.009974522516131401,-0.017521971836686134,-0.025157997384667397,-0.20447130501270294,-0.3120211064815521,-0.415473073720932,-0.5146738886833191
0.15,0.06419199705123901,0.08288151770830154,0.0,0.9757660627365112,0.0,0.0,-0.2188163548707962,0.07457008212804794,0.6634946465492249,0.0,0.0,0.0,-6.715236186981201,-0.36113858222961426,0.6993211507797241,0.4200000464916229,1.0,3.3320845886919415e-06,-2.1018886400270276e-06,1.313070612241063e-07,0.00026730558602139354,0.0002685959043446928,-0.00010459567420184612,-0.0017497815424576402,0.004215646535158157,-0.00012928525393363088,-0.2475653886795044,0.33653533458709717,1.2007005214691162,-1.87520432472229,3.875824451446533,-2.1935057640075684,0.454911470413208,0.6831725835800171,0.42000001668930054,-1.1463810205459595,1.2918673753738403,-0.15047632157802582,2.9999992847442627,-0.007590299006551504,-0.01652349717915058,-0.025459730997681618,-0.034403979778289795,-0.38162675499916077,-0.44692087173461914,-0.5076586604118347,-0.5638638734817505
0.16666666666666666,0.07032141834497452,0.09020956605672836,0.0,0.9687986373901367,0.0,0.0,-0.24784919619560242,0.414887934923172,0.32804638147354126,0.0,0.0,0.0,-2.3050589561462402,-0.36113861203193665,0.6993211507797241,0.4200000464916229,1.0,3.7371814869402442e-06,-2.2329975308821304e-06,-1.8765943821108522e-07,0.0002643296611495316,0.0002662689657881856,-0.00010446016676723957,-0.0017119699623435736,0.004157591611146927,-0.00013001523620914668,-0.283712238073349,0.39882442355155945,1.1576368808746338,-2.040989875793457,3.9724645614624023,-2.9703826904296875,0.454911470413208,0.6831725835800171,0.42000001668930054,-1.1018807888031006,3.0,-0.18223325908184052,-3.0000014305114746,-0.013164453208446503,-0.022884957492351532,-0.03254307433962822,-0.042145755141973495,-0.4585176706314087,-0.47469356656074524,-0.488481730222702,-0.5000522136688232
0.18333333333333332,0.07113558799028397,0.09970497339963913,0.0,0.9575358033180237,0.0,0.0,-0.2883143723011017,0.05567435547709465,0.578262209892273,0.0,0.0,0.0,-5.710387706756592,-0.36113861203193665,0.6993212103843689,0.4200000464916229,0.9999999403953552,3.6601361443899805e-06,-2.3021373181109084e-06,2.5284839466621634e-07,0.00026690843515098095,0.00026760276523418725,-0.00010412652045488358,-0.0017413680907338858,0.004211578983813524,-0.00012787070591002703,-0.31515002250671387,0.4652314782142639,1.0984907150268555,-1.645219326019287,4.1538543701171875,-3.866180419921875,0.454911470413208,0.6831725835800171,0.42000001668930054,-1.051877737045288,2.999999523162842,-0.23226115107536316,-2.9999985694885254,-0.026711231097579002,-0.0363093763589859,-0.04583549126982689,-0.05528063327074051,-0.6211332082748413,-0.6666813492774963,-0.7109144330024719,-0.7514069676399231
0.2,0.07736030220985413,0.10477253049612045,0.0,0.9507293105125427,0.0,0.0,-0.3100222647190094,0.3656975030899048,0.21501629054546356,0.0,0.0,0.0,-1.5010606050491333,-0.36113861203193665,0.6993211507797241,0.4200000464916229,1.0,3.5907003166357754e-06,-2.30029900194495e-06,1.38729205900745e-07,0.0002665481297299266,0.0002673238341230899,-0.00010424177162349224,-0.0017326157540082932,0.004203508608043194,-0.00012821020209230483,-0.34380584955215454,0.5297229290008545,1.0265476703643799,-1.4427744150161743,3.827918529510498,-4.768033027648926,0.454911470413208,0.6831725835800171,0.42000001668930054,-1.0018746852874756,2.9999988079071045,-0.28228703141212463,-3.0000009536743164,-0.03559155389666557,-0.04552329704165459,-0.05537784472107887,-0.06511840224266052,-0.7459079027175903,-0.7162424325942993,-0.6884889006614685,-0.6616183519363403
0.21666666666666667,0.07773875445127487,0.11272843182086945,0.0,0.9392436146736145,0.0,0.0,-0.34325122833251953,0.023804206401109695,0.47067153453826904,0.0,0.0,0.0,-4.893786907196045,-0.36113861203193665,0.6993212103843689,0.4200000464916229,1.0,3.6067965538677527e-06,-2.26086558541283e-06,1.9618761726292178e-08,0.00026447168784216046,0.0002655836578924209,-0.00010396330617368221,-0.0017087386222556233,0.004164193756878376,-0.00012832140782848,-0.3638097941875458,0.5884783267974854,0.938473641872406,-0.9133671522140503,3.3551125526428223,-5.532047271728516,0.454911470413208,0.6831725835800171,0.42000001668930054,-0.9518657326698303,3.0000009536743164,-0.33231547474861145,-3.0000011920928955,-0.051211580634117126,-0.06119586154818535,-0.07107934355735779,-0.08082707226276398,-0.7158600687980652,-0.7573114037513733,-0.7961348295211792,-0.830939769744873
0.23333333333333334,0.08301327377557755,0.11573689430952072,0.0,0.9336530566215515,0.0,0.0,-0.35817867517471313,0.2997911274433136,0.10479286313056946,0.0,0.0,0.0,-0.811403751373291,-0.36113858222961426,0.6993211507797241,0.4200000464916229,0.9999999403953552,3.742101398529485e-06,-2.227345248684287e-06,4.589114155351126e-07,0.0002647513756528497,0.0002667136723175645,-0.00010453537106513977,-0.0017189161153510213,0.0041657742112874985,-0.00013019364268984646,-0.3805069923400879,0.6355447173118591,0.8428908586502075,-0.7394353151321411,2.4221858978271484,-5.991119384765625,0.454911470413208,0.6831725835800171,0.42000001668930054,-0.9018552303314209,3.000000476837158,-0.38234639167785645,-3.00000262260437,-0.06268617510795593,-0.0727139264345169,-0.08264213800430298,-0.09242518991231918,-0.9365870952606201,-0.8827031850814819,-0.8318189978599548,-0.7840003371238708
0.25,0.08251192420721054,0.12223348766565323,0.0,0.9226720929145813,0.0,0.0,-0.3855855166912079,-0.0346500538289547,0.37150508165359497,0.0,0.0,0.0,-4.216571807861328,-0.36113861203193665,0.6993211507797241,0.4200000464916229,1.0,3.39423263540084e-06,-2.2818808247393463e-06,1.3363670348098822e-07,0.0002667944645509124,0.00026794031145982444,-0.00010439474135637283,-0.001741691492497921,0.00420658104121685,-0.0001288425555685535,-0.3870534896850586,0.6670008897781372,0.7399660348892212,-0.07580533623695374,1.4952610731124878,-6.096261024475098,0.454911470413208,0.6831725835800171,0.42000001668930054,-0.8518447875976562,2.9999940395355225,-0.43237805366516113,-2.9999992847442627,-0.07954173535108566,-0.08946437388658524,-0.09935030341148376,-0.10912267118692398,-0.7744222283363342,-0.8197134733200073,-0.8617553114891052,-0.8990670442581177
0.26666666666666666,0.08124318718910217,0.12392836809158325,0.0,0.919116199016571,0.0,0.0,-0.3939865529537201,-0.15472398698329926,0.11374510079622269,0.0,0.0,0.0,-0.12131955474615097,-0.36113861203193665,0.6993212103843689,0.4200000464916229,1.0,3.683239356178092e-06,-2.309933051947155e-06,2.1011992146213743e-07,0.0002647916553542018,0.00026625811005942523,-0.00010421057231724262,-0.001716860686428845,0.004168972373008728,-0.00012909462384413928,-0.3912232518196106,0.6858805418014526,0.641650915145874,-0.052459798753261566,0.7052565217018127,-5.7919392585754395,0.454911470413208,0.6831725835800171,0.42000001668930054,-0.801835834980011,3.0000014305114746,-0.4824092388153076,-3.0000011920928955,-0.09283085912466049,-0.10302963852882385,-0.1131628230214119,-0.12314383685588837,-1.0020091533660889,-1.0007550716400146,-1.0000003576278687,-0.9839627742767334
0.2833333333333333,0.07654773443937302,0.12378914654254913,0.0,0.9104509353637695,0.0,0.0,-0.4136170446872711,-0.3309507966041565,-0.056399162858724594,0.0,0.0,0.0,-3.434751033782959,-0.36113861203193665,0.6993211507797241,0.4200000464916229,1.0,3.306690359750064e-06,-2.2123749658931047e-06,2.6260173058290093e-07,0.0002666071231942624,0.00026745113427750766,-0.00010424456559121609,-0.001735334168188274,0.004204478580504656,-0.0001282861630897969,-0.38710057735443115,0.6959942579269409,0.5438539981842041,0.5791671872138977,0.3694082498550415,-5.722739219665527,0.454911470413208,0.6831725835800171,0.42000001668930054,-0.7518270611763,3.000000238418579,-0.5324392318725586,-3.0000033378601074,-0.11010168492794037,-0.12015122175216675,-0.1301729828119278,-0.1400681734085083,-1.0088390111923218,-1.0066735744476318,-1.0050243139266968,-1.0037117004394531
0.3,0.06947913020849228,0.12111692875623703,0.0,0.9092996120452881,0.0,0.0,-0.416142076253891,-0.4582686722278595,-0.20210929214954376,0.0,0.0,0.0,0.6005268096923828,-0.36113861203193665,0.6993211507797241,0.4200000464916229,1.0,3.6410058328328887e-06,-2.377771352257696e-06,-4.1935263084269536e-07,0.0002661160542629659,0.00026725951465778053,-0.00010423478670418262,-0.0017336473101750016,0.004194711335003376,-0.00012854898523073643,-0.37726059556007385,0.6995069980621338,0.4529879689216614,0.7462418079376221,-0.04596380516886711,-5.231572151184082,0.454911470413208,0.6831725835800171,0.42000001668930054,-0.7018194198608398,3.0000007152557373,-0.5824669599533081,-3.000002145767212,-0.1272919923067093,-0.13720954954624176,-0.1471349447965622,-0.15695670247077942,-1.0059105157852173,-1.0044848918914795,-1.0033990144729614,-1.002526044845581
0.31666666666666665,0.06050790846347809,0.11605529487133026,0.0,0.9084503650665283,0.0,0.0,-0.4179927408695221,-0.5745770335197449,-0.34588131308555603,0.0,0.0,0.0,-0.6504558324813843,-0.3611893057823181,0.6991215944290161,0.4202963709831238,0.999983549118042,0.005301442928612232,-0.0021076335106045008,-0.0006190850399434566,-0.0043997326865792274,-0.02631019987165928,0.037026748061180115,1.3691809177398682,-0.48246800899505615,-0.2717970311641693,-0.3713172674179077,0.6999940276145935,0.42117369174957275,0.3877500891685486,0.29502618312835693,-0.11065827310085297,0.454911470413208,0.6831725835800171,0.42000001668930054,-0.6519603133201599,2.974313497543335,-0.633079469203949,-2.812634229660034,-0.13730616867542267,-0.14736753702163696,-0.15722090005874634,-0.16670113801956177,-0.3214792013168335,-0.31686508655548096,-0.2898538112640381,-0.2359960824251175
0.3333333333333333,0.04933793470263481,0.10865341126918793,0.0,0.9153180718421936,0.0,0.0,-0.402731716632843,-0.7221252918243408,-0.4860779345035553,0.0,0.0,0.0,2.8055052757263184,-0.3593021333217621,0.7020184397697449,0.42069703340530396,0.9990379214286804,0.01758308708667755,-0.0003380546986591071,-0.04017454385757446,0.1753324419260025,0.29995977878570557,0.027586348354816437,1.3930749893188477,0.0011095646768808365,-7.303724765777588,-0.3690195083618164,0.7067307233810425,0.4241028428077698,0.17851105332374573,0.3534030318260193,-0.1765058934688568,0.454911470413208,0.6831725835800171,0.42000001668930054,-0.6019539833068848,2.999971866607666,-0.6831227540969849,-2.9999988079071045,-0.14360712468624115,-0.15290464460849762,-0.16162939369678497,-0.1695706695318222,-0.4566333591938019,-0.3804422616958618,-0.28518807888031006,-0.1695246547460556
0.35,0.04066488891839981,0.09845041483640671,0.0,0.9149878621101379,0.0,0.0,-0.4034813940525055,-0.37871798872947693,-0.6708328127861023,0.0,0.0,0.0,-1.0335720777511597,-0.3566267788410187,0.7066793441772461,0.4200056195259094,0.9956822991371155,-2.0592795408447273e-05,-0.00021323484543245286,-0.09282638132572174,0.13793522119522095,0.24805814027786255,-0.00019931758288294077,0.006207169033586979,0.0034025029744952917,-4.939144134521484,-0.3637741804122925,0.710677981376648,0.42162400484085083,0.4851946532726288,0.25459983944892883,-0.14258314669132233,0.454911470413208,0.6831725835800171,0.42000001668930054,-0.5519490838050842,2.9999890327453613,-0.7331695556640625,-2.999999761581421,-0.15246883034706116,-0.1597672998905182,-0.16614648699760437,-0.1713995784521103,-0.5347901582717896,-0.3890877366065979,-0.22259728610515594,-0.03657917305827141
0.36666666666666664,0.030936647206544876,0.08652595430612564,0.0,0.9048192501068115,0.0,0.0,-0.42579591274261475,-0.6628180742263794,-0.739450216293335,0.0,0.0,0.0,-3.9350810050964355,-0.35081201791763306,0.7139723896980286,0.4201646149158478,0.9852302074432373,0.004054481163620949,-0.00047530565643683076,-0.17118610441684723,0.5027545094490051,0.5762585401535034,0.04305508732795715,2.204376459121704,-0.6396361589431763,-13.548711776733398,-0.3530172109603882,0.717004120349884,0.4205594062805176,0.8384628295898438,0.5816449522972107,-0.005544763058423996,0.454911470413208,0.6831725835800171,0.42000001668930054,-0.5019442439079285,2.9999828338623047,-0.7832200527191162,-2.999976873397827,-0.1637144386768341,-0.1679176539182663,-0.1708526909351349,-0.17235839366912842,-0.662987470626831,-0.4691126048564911,-0.2539442181587219,-0.02082333154976368
0.3833333333333333,0.02316160872578621,0.0718502551317215,0.0,0.8806718587875366,0.0,0.0,-0.4737268388271332,-0.3758077323436737,-0.9339938759803772,0.0,0.0,0.0,-7.213801383972168,-0.3354817032814026,0.7296202778816223,0.420602411031723,0.9736442565917969,-0.0007169134332798421,-0.013166087679564953,-0.2276902198791504,1.3020204305648804,1.2746937274932861,0.0862717404961586,-0.7066060900688171,-3.5810115337371826,-4.455838203430176,-0.3341577649116516,0.7301177978515625,0.42189866304397583,1.5089750289916992,1.0505512952804565,0.15244710445404053,0.454911470413208,0.6831725835800171,0.42000001668930054,-0.45193782448768616,3.000000238418579,-0.8332727551460266,-2.9993691444396973,-0.17305803298950195,-0.1740545630455017,-0.17337198555469513,-0.17091603577136993,-0.5192185640335083,-0.3187175989151001,-0.09324946254491806,0.15234875679016113
0.4,0.018895478919148445,0.05469537898898125,0.0,0.8414311408996582,0.0,0.0,-0.5403643250465393,-0.13189738988876343,-1.130578637123108,0.0,0.0,0.0,-9.84784984588623,-0.2902774512767792,0.7590216398239136,0.4230383634567261,0.9590266346931458,-0.006487881299108267,-0.046697769314050674,-0.2793656587600708,3.986823558807373,2.0900917053222656,-0.01942659728229046,32.50244903564453,-22.22926902770996,3.881775140762329,-0.2857821583747864,0.7568725347518921,0.42472827434539795,3.9225449562072754,2.1581597328186035,0.3104647099971771,0.454911470413208,0.6831725835800171,0.42000001668930054,-0.404476135969162,2.2861580848693848,-0.8832838535308838,-3.000000476837158,-0.1845724880695343,-0.18120962381362915,-0.175933837890625,-0.16876986622810364,-0.6515539288520813,-0.3955565392971039,-0.13227346539497375,0.13090114295482635
0.4166666666666667,0.011397079564630985,0.04291961342096329,0.0,0.7824927568435669,0.0,0.0,-0.6226596832275391,-0.5490609407424927,-0.5602103471755981,0.0,0.0,0.0,-13.109333038330078,-0.1970841884613037,0.7964194416999817,0.4285939931869507,0.9329200387001038,0.05954255536198616,-0.08775371313095093,-0.34411337971687317,7.297189235687256,2.0140883922576904,0.40363049507141113,16.29897117614746,-18.3491268157959,16.164844512939453,-0.19303828477859497,0.7938308715820312,0.4306853413581848,6.854611396789551,2.4471888542175293,0.5195772647857666,0.454911470413208,0.6831725835800171,0.42000001668930054,-0.3807222843170166,1.02766752243042,-0.8462040424346924,2.9967126846313477,-0.20041553676128387,-0.19510680437088013,-0.18475720286369324,-0.1720764935016632,-0.8791143894195557,-0.8852723836898804,-0.6541314721107483,-0.3432079255580902
0.43333333333333335,0.006899257190525532,0.03673825412988663,0.0,0.7314184904098511,0.0,0.0,-0.6819288730621338,-0.19197365641593933,-0.47417208552360535,0.0,0.0,0.0,-7.809255599975586,-0.0831565260887146,0.8258484601974487,0.43726256489753723,0.8992619514465332,0.08990414440631866,-0.11402609199285507,-0.4126054048538208,6.995157241821289,1.2387654781341553,0.5377904772758484,7.108896255493164,-9.62744140625,0.7562032341957092,-0.07891955226659775,0.8248224854469299,0.43921780586242676,6.79722261428833,1.4190651178359985,0.5935841798782349,0.454911470413208,0.6831725835800171,0.42000001668930054,-0.3620922267436981,1.2327619791030884,-0.8729020357131958,-3.0000011920928955,-0.2127157747745514,-0.2081541121006012,-0.19738265872001648,-0.17944484949111938,-0.3570452034473419,-0.48052698373794556,-0.5955840945243835,-0.3776853084564209
0.45,0.00240563927218318,0.03189879283308983,0.0,0.7061418890953064,0.0,0.0,-0.7080703377723694,-0.33093729615211487,-0.2244637906551361,0.0,0.0,0.0,-3.2253944873809814,0.033072784543037415,0.8409817814826965,0.4465506374835968,0.8353017568588257,0.07313938438892365,-0.1217740997672081,-0.5311239957809448,6.700427055358887,-0.12878942489624023,0.5121509432792664,-12.654767036437988,4.773038864135742,-0.012525158002972603,0.03442106395959854,0.8395287394523621,0.4478350877761841,6.793295860290527,0.20580947399139404,0.5792273283004761,0.454911470413208,0.6831725835800171,0.42000001668930054,-0.33799469470977783,1.4276032447814941,-0.9229260683059692,-3.0000016689300537,-0.22236695885658264,-0.2179751694202423,-0.20746424794197083,-0.1854853630065918,-0.6156327128410339,-0.5639325976371765,-0.5276027917861938,-0.29618456959724426
0.4666666666666667,0.0002769591810647398,0.021736258640885353,0.0,0.7023857831954956,0.0,0.0,-0.7117964625358582,-0.058780498802661896,-0.7359805703163147,0.0,0.0,0.0,0.569469690322876,0.1359173059463501,0.8359474539756775,0.45368409156799316,0.7615102529525757,0.061710942536592484,-0.1158343255519867,-0.6347252130508423,5.143258571624756,-1.561618447303772,0.41141772270202637,6.9710540771484375,-14.237693786621094,24.50697135925293,0.13671459257602692,0.8359314799308777,0.45521068572998047,5.385223865509033,-0.7219938635826111,0.4487977921962738,0.454911470413208,0.6831725835800171,0.42000001668930054,-0.3210698366165161,0.5902245044708252,-0.9729500412940979,-3.0000040531158447,-0.22763830423355103,-0.22226892411708832,-0.21107596158981323,-0.18602843582630157,-0.17145182192325592,-0.10025675594806671,-0.049312811344861984,0.098436139523983
0.48333333333333334,0.0008489512838423252,0.015089835040271282,0.0,0.6908403038978577,0.0,0.0,-0.7230073809623718,0.06396971642971039,-0.26703211665153503,0.0,0.0,0.0,-2.7815754413604736,0.21792197227478027,0.8200521469116211,0.45686301589012146,0.694119930267334,0.04036826267838478,-0.12128808349370956,-0.708418607711792,4.401529312133789,-1.707434892654419,0.2083505541086197,-2.152287483215332,6.44624662399292,3.76496958732605,0.21751296520233154,0.8203433156013489,0.45878809690475464,4.65815544128418,-1.34176766872406,0.10770212113857269,0.454911470413208,0.6831725835800171,0.42000001668930054,-0.3113144636154175,0.6413441300392151,-1.0229730606079102,-2.9980461597442627,-0.2314312905073166,-0.22467230260372162,-0.2125108540058136,-0.18567827343940735,-0.25222715735435486,-0.14652127027511597,-0.07421702891588211,0.004535449668765068
0.5,0.0033956142142415047,0.008931603282690048,0.0,0.6913900375366211,0.0,0.0,-0.7224817276000977,0.18636830151081085,-0.4436495006084442,0.0,0.0,0.0,1.0456293821334839,0.28816473484039307,0.7937384843826294,0.45539772510528564,0.6483542323112488,0.01044190302491188,-0.11844150722026825,-0.7519968152046204,3.6425299644470215,-2.1559202671051025,-0.14181400835514069,-2.1550586223602295,7.1083245277404785,2.534623384475708,0.28814172744750977,0.793785572052002,0.4579901695251465,3.9605932235717773,-1.8838763236999512,-0.16675898432731628,0.454911470413208,0.6831725835800171,0.42000001668930054,-0.29600122570991516,1.079709529876709,-1.0729951858520508,-2.9999473094940186,-0.2349943220615387,-0.22610941529273987,-0.21257437765598297,-0.18495605885982513,-0.12588107585906982,0.0014189592329785228,0.07561921328306198,0.08178107440471649
0.5166666666666666,0.008673885837197304,0.005147282034158707,0.0,0.6825513243675232,0.0,0.0,-0.7308377027511597,0.36543145775794983,-0.20162254571914673,0.0,0.0,0.0,-2.2623331546783447,0.3469685912132263,0.7645260095596313,0.4471803307533264,0.6043187379837036,-0.018222782760858536,-0.10518895834684372,-0.7895580530166626,2.8388113975524902,-2.173814535140991,-0.5758803486824036,-2.3582518100738525,6.1276421546936035,12.665369987487793,0.3471596837043762,0.7640314102172852,0.45022255182266235,3.2831201553344727,-1.8049532175064087,-0.6464539766311646,0.454911470413208,0.6831725835800171,0.42000001668930054,-0.2766585052013397,1.0760877132415771,-1.1230173110961914,-2.9980082511901855,-0.23543250560760498,-0.2253575623035431,-0.21144302189350128,-0.1848355382680893,0.1393154412508011,0.16029222309589386,0.13514171540737152,0.013503902591764927
0.5333333333333333,0.01596825197339058,0.004832867532968521,0.0,0.6860359907150269,0.0,0.0,-0.7275676131248474,0.4752582013607025,0.04257648438215256,0.0,0.0,0.0,1.4074211120605469,0.39289864897727966,0.7344449758529663,0.4328368902206421,0.5542988777160645,-0.06277556717395782,-0.09928058832883835,-0.8239874839782715,1.8527635335922241,-2.171675682067871,-0.7846850156784058,1.4145331382751465,-0.40222012996673584,19.22488784790039,0.3924436569213867,0.7338234186172485,0.4369356036186218,2.35153865814209,-1.8259369134902954,-0.912919282913208,0.454911470413208,0.6831725835800171,0.42000001668930054,-0.2611575424671173,0.7410327196121216,-1.173039436340332,-3.000000238418579,-0.23230203986167908,-0.22236494719982147,-0.20930619537830353,-0.185327410697937,0.24389679729938507,0.2157147228717804,0.14395999908447266,-0.044081997126340866
0.55,0.025415947660803795,0.0011901900870725513,0.0,0.6780399680137634,0.0,0.0,-0.7350249886512756,0.5944444537162781,-0.2380138486623764,0.0,0.0,0.0,-2.1977310180664062,0.42188888788223267,0.7153610587120056,0.42285439372062683,0.5451481938362122,-0.0645444318652153,-0.04093301668763161,-0.8348483443260193,0.5953733325004578,-1.232118010520935,0.02454524300992489,-2.6357522010803223,1.321816086769104,27.883445739746094,0.42192894220352173,0.7142243981361389,0.4256429076194763,1.2400543689727783,-0.7780443429946899,-0.16409865021705627,0.454911470413208,0.6831725835800171,0.42000001668930054,-0.24848388135433197,0.4818851053714752,-1.2231303453445435,-2.9855659008026123,-0.22334842383861542,-0.2150508463382721,-0.20420120656490326,-0.18428999185562134,0.4804922640323639,0.39301902055740356,0.2733272612094879,0.038865428417921066
0.5666666666666667,0.03230614587664604,0.0009169376571662724,0.0,0.6817018389701843,0.0,0.0,-0.7316300868988037,0.3532080054283142,0.0115059120580554,0.0,0.0,0.0,1.4324305057525635,0.43651023507118225,0.7017643451690674,0.4232170879840851,0.5517074465751648,-0.06195802241563797,-0.005119984038174152,-0.8317173719406128,0.4607691168785095,-1.0094208717346191,0.10834115743637085,2.0536282062530518,5.250845432281494,11.447538375854492,0.43598222732543945,0.7004762887954712,0.42538076639175415,0.6953822374343872,-0.8074005246162415,0.04021588712930679,0.454911470413208,0.6831725835800171,0.42000001668930054,-0.247651144862175,-0.5364134907722473,-1.2487891912460327,-0.30218377709388733,-0.21691979467868805,-0.2097853571176529,-0.20059432089328766,-0.1842607706785202,0.4437645375728607,0.3611695170402527,0.25213658809661865,0.03129427507519722
0.5833333333333334,0.03983704745769501,0.0018557042349129915,0.0,0.6737788319587708,0.0,0.0,-0.7389330267906189,0.468604177236557,0.11574343591928482,0.0,0.0,0.0,-2.226321220397949,0.4433813989162445,0.6942172050476074,0.4233252704143524,0.5895429849624634,-0.0658244714140892,-0.0170619934797287,-0.8048695921897888,0.23669742047786713,-0.3328421115875244,-0.05467396229505539,-3.546541213989258,-3.75748348236084,7.048957824707031,0.4438536763191223,0.695011556148529,0.42745810747146606,0.3426087498664856,-0.11741112172603607,0.17483778297901154,0.454911470413208,0.6831725835800171,0.42000001668930054,-0.26179733872413635,-1.1293439865112305,-1.2842191457748413,-2.9989168643951416,-0.206179678440094,-0.20154231786727905,-0.1951083093881607,-0.18315249681472778,0.7384361624717712,0.5603278279304504,0.37154680490493774,0.0941222682595253
0.6,0.04895085096359253,8.541021816199645e-05,0.0,0.677540123462677,0.0,0.0,-0.7354857921600342,0.572880744934082,-0.13873997330665588,0.0,0.0,0.0,1.5121811628341675,0.4463558793067932,0.6897653341293335,0.42171141505241394,0.612812876701355,-0.03480342775583267,-0.02735641971230507,-0.7889871001243591,0.11003893613815308,-0.239487886428833,-0.08510717749595642,4.771330833435059,-1.3007038831710815,-0.2490084320306778,0.4451172351837158,0.6911459565162659,0.4279787540435791,-0.11107897758483887,-0.2709306478500366,-0.024889025837183,0.454911470413208,0.6831725835800171,0.42000001668930054,-0.30549681186676025,-2.9999992847442627,-1.2671170234680176,2.999742031097412,-0.1942930817604065,-0.1921241581439972,-0.18837550282478333,-0.18055903911590576,0.6033693552017212,0.49028754234313965,0.36175239086151123,0.14750592410564423
0.6166666666666667,0.06003168970346451,0.0017503168201074004,0.0,0.6701357364654541,0.0,0.0,-0.7422385811805725,0.6889662146568298,0.12338214367628098,0.0,0.0,0.0,-2.138352632522583,0.44766291975975037,0.6864690780639648,0.4200071096420288,0.6125376224517822,2.1116755306138657e-05,2.9238841307233088e-05,-0.7904413342475891,0.048593949526548386,-0.13275665044784546,-0.0013259632978588343,-0.05875815078616142,0.000244216964347288,-0.1333850622177124,0.445895791053772,0.6913008689880371,0.43010568618774414,0.13630874454975128,0.13942599296569824,0.21071138978004456,0.454911470413208,0.6831725835800171,0.42000001668930054,-0.3555257320404053,-2.999999523162842,-1.286957859992981,-2.9993135929107666,-0.1848507672548294,-0.18485009670257568,-0.18340899050235748,-0.1791074424982071,0.6801239848136902,0.5205665826797485,0.35786712169647217,0.13466131687164307
0.6333333333333333,0.07299671322107315,-4.262483344064094e-05,0.0,0.6745713949203491,0.0,0.0,-0.73820960521698,0.8002087473869324,-0.1479586511850357,0.0,0.0,0.0,1.6147626638412476,0.44812092185020447,0.6852198243141174,0.4200000464916229,0.6121250987052917,3.9247328942337845e-08,9.64432729233522e-08,-0.79076087474823,0.020256854593753815,-0.055373676121234894,-6.244517862796783e-07,-2.993906855408568e-05,3.235317490180023e-05,-0.0440308153629303,0.44639378786087036,0.692922830581665,0.4334046542644501,-0.04363149404525757,0.03010452724993229,0.19619759917259216,0.454911470413208,0.6831725835800171,0.42000001668930054,-0.4055471122264862,-2.9998176097869873,-1.3369600772857666,-3.0000014305114746,-0.17330798506736755,-0.17564520239830017,-0.1766389012336731,-0.1757194995880127,0.525416374206543,0.43040981888771057,0.3253854215145111,0.16450144350528717
0.65,0.08362620323896408,0.0007574654882773757,0.0,0.6968177556991577,0.0,0.0,-0.717248260974884,0.5883867144584656,0.08073704689741135,0.0,0.0,0.0,5.002800464630127,0.44817668199539185,0.6850681304931641,0.4200000464916229,0.6120889782905579,-3.899710421251257e-08,1.2355741318970104e-06,-0.7907888293266296,-0.0001033097505569458,0.00020924945420119911,-2.9727118089795113e-05,-0.005876355804502964,-0.0019391485257074237,0.0008318740874528885,0.4447861313819885,0.6916648149490356,0.4367828369140625,-0.14453047513961792,-0.11100376397371292,0.21061590313911438,0.454911470413208,0.6831725835800171,0.42000001668930054,-0.45553550124168396,-2.9999380111694336,-1.3869373798370361,-2.99944806098938,-0.16708360612392426,-0.17033030092716217,-0.17235416173934937,-0.17326217889785767,0.3729461431503296,0.3301286995410919,0.2826137840747833,0.19559580087661743
0.6666666666666666,0.09472157061100006,-0.0014846303965896368,0.0,0.7083543539047241,0.0,0.0,-0.70585697889328,0.6822136640548706,-0.18231497704982758,0.0,0.0,0.0,0.864177942276001,0.44795072078704834,0.6850823760032654,0.42005425691604614,0.6083852648735046,0.0008293251157738268,-0.001081004273146391,-0.793640673160553,-0.04828967899084091,0.0045188432559370995,0.014955107122659683,-0.18753519654273987,-0.7239475250244141,-1.83124840259552,0.44317278265953064,0.6918504238128662,0.4412572979927063,-0.11375080049037933,-0.0441204197704792,0.29514628648757935,0.454911470413208,0.6831725835800171,0.42000001668930054,-0.5055322051048279,-2.999943256378174,-1.436907172203064,-2.9999799728393555,-0.1614319384098053,-0.16476288437843323,-0.16684360802173615,-0.16827711462974548,0.2580614984035492,0.2972959280014038,0.3411981165409088,0.3644421100616455
0.6833333333333333,0.10721392184495926,-0.006997497286647558,0.0,0.6978849172592163,0.0,0.0,-0.716209888458252,0.7827860713005066,-0.4018537700176239,0.0,0.0,0.0,-2.6595497131347656,0.4477549195289612,0.6850634813308716,0.42000019550323486,0.6060381531715393,2.6343030185671523e-05,-1.2057628737238701e-05,-0.7954354882240295,0.0032556934747844934,8.813551539788023e-05,-0.0011420217342674732,-0.014976792968809605,0.02378006838262081,-0.008650481700897217,0.44719094038009644,0.6928147077560425,0.4511931538581848,0.528891921043396,0.08841000497341156,0.9902404546737671,0.454911470413208,0.6831725835800171,0.42000001668930054,-0.5555447936058044,-2.9999940395355225,-1.486925482749939,-3.000000238418579,-0.1593192219734192,-0.161650612950325,-0.16260312497615814,-0.1631210744380951,0.06133618578314781,0.13673487305641174,0.22149014472961426,0.29964491724967957
0.7,0.12277552485466003,-0.007922975346446037,0.0,0.6660161018371582,0.0,0.0,-0.7459373474121094,0.9136255979537964,-0.05478498712182045,0.0,0.0,0.0,-6.0454277992248535,0.44775816798210144,0.6850639581680298,0.41999995708465576,0.6060353517532349,-1.161468958343903e-06,-5.558117663895246e-06,-0.7954376339912415,0.00014788129192311317,-0.00039835707866586745,-8.17207619547844e-05,0.009368832223117352,-0.002122666221112013,-0.0007339859730564058,0.46413058042526245,0.6929121017456055,0.47414594888687134,1.5391874313354492,0.02703513391315937,1.8433241844177246,0.454911470413208,0.6831725835800171,0.42000001668930054,-0.6055555939674377,-2.999983787536621,-1.536943793296814,-3.0,-0.16476745903491974,-0.16482822597026825,-0.16338829696178436,-0.1616092473268509,-0.25077006220817566,-0.1360723376274109,-0.010118475183844566,0.11830824613571167
0.7166666666666667,0.13522356748580933,-0.006723775994032621,0.0,0.6479770541191101,0.0,0.0,-0.7616598010063171,0.6880935430526733,0.07795855402946472,0.0,0.0,0.0,-1.773750901222229,0.44775813817977905,0.6850639581680298,0.41999995708465576,0.6060356497764587,-1.1062128351113643e-06,-6.220207524165744e-06,-0.7954374551773071,0.00015656066534575075,-0.00040717728552408516,-8.335895836353302e-05,0.00960311945527792,-0.002188929356634617,-0.0007663840660825372,0.49130406975746155,0.696374773979187,0.5093533992767334,1.705222725868225,0.3949075937271118,2.304598808288574,0.454911470413208,0.6831725835800171,0.42000001668930054,-0.6243225932121277,0.46191927790641785,-1.586962103843689,-2.9999992847442627,-0.16808933019638062,-0.1671004295349121,-0.1644989252090454,-0.16151826083660126,-0.07364996522665024,-0.07290840893983841,-0.06837769597768784,-0.05993806570768356
0.7333333333333333,0.14336185157299042,-0.003528804052621126,0.0,0.6545018553733826,0.0,0.0,-0.7560603618621826,0.41447699069976807,0.2378353327512741,0.0,0.0,0.0,1.9085112810134888,0.44775813817977905,0.6850639581680298,0.41999995708465576,0.6060357093811035,-8.743173225411738e-07,-5.79528023081366e-06,-0.7954374551773071,0.0001582138502271846,-0.0004092481394764036,-8.347607217729092e-05,0.009665652178227901,-0.002198499394580722,-0.0007724179304204881,0.5139620304107666,0.7011232376098633,0.5418989658355713,1.0109531879425049,0.26915621757507324,1.6709961891174316,0.454911470413208,0.6831725835800171,0.42000001668930054,-0.5942409038543701,2.9081521034240723,-1.5479835271835327,2.9999988079071045,-0.16848139464855194,-0.16749203205108643,-0.1648581475019455,-0.16177886724472046,0.04130122810602188,0.0358211025595665,0.029198477044701576,0.026034114882349968
0.75,0.14702071249485016,-0.005258149467408657,0.0,0.6497434973716736,0.0,0.0,-0.7601535320281982,0.21389374136924744,-0.12149222940206528,0.0,0.0,0.0,-1.5234975814819336,0.44775813817977905,0.6850639581680298,0.41999995708465576,0.6060358285903931,-1.1186848496436141e-06,-6.193684839672642e-06,-0.7954372763633728,0.00015697686467319727,-0.00040737114613875747,-8.337642066180706e-05,0.009609122760593891,-0.0021872955840080976,-0.0007675271481275558,0.5239608287811279,0.708329975605011,0.5634227991104126,0.09568995237350464,0.34380123019218445,1.057999610900879,0.454911470413208,0.6831725835800171,0.42000001668930054,-0.563113808631897,0.9719464182853699,-1.4979270696640015,2.9999990463256836,-0.16362664103507996,-0.16332435607910156,-0.16141507029533386,-0.15897715091705322,0.1155494675040245,0.11802957206964493,0.11166688799858093,0.10405991971492767
0.7666666666666666,0.1478637456893921,-0.001853780122473836,0.0,0.6571799516677856,0.0,0.0,-0.7537336945533752,0.01621062494814396,0.2306516319513321,0.0,0.0,0.0,1.9158076047897339,0.44775813817977905,0.6850639581680298,0.41999995708465576,0.6060357093811035,-8.453105238004355e-07,-5.971844984742347e-06,-0.7954373955726624,0.00015898552373982966,-0.00040970082045532763,-8.353800512850285e-05,0.009679216891527176,-0.0022004330530762672,-0.0007748620118945837,0.5202181935310364,0.7116063833236694,0.5759682655334473,-0.38795721530914307,0.2218000590801239,0.49167400598526,0.454911470413208,0.6831725835800171,0.42000001668930054,-0.5282795429229736,2.9999125003814697,-1.4612473249435425,1.500465989112854,-0.16572555899620056,-0.16448190808296204,-0.16188155114650726,-0.15887968242168427,-0.01727091148495674,0.013427539728581905,0.030407438054680824,0.042095791548490524
0.7833333333333333,0.14631366729736328,-0.002186336787417531,0.0,0.6526200771331787,0.0,0.0,-0.7576853036880493,-0.1589883714914322,-0.0242975614964962,0.0,0.0,0.0,-1.4535348415374756,0.44775813817977905,0.6850639581680298,0.41999995708465576,0.6060357689857483,-1.115242639571079e-06,-6.195908554218477e-06,-0.7954373955726624,0.00015530308883171529,-0.0004070901486556977,-8.334172889590263e-05,0.009597964584827423,-0.002191237173974514,-0.0007628989988006651,0.5074422955513,0.7169519662857056,0.5783225893974304,-1.2012979984283447,0.33701425790786743,-0.0557909794151783,0.454911470413208,0.6831725835800171,0.42000001668930054,-0.5058626532554626,-0.0642159953713417,-1.4116747379302979,3.0000009536743164,-0.16439573466777802,-0.16300632059574127,-0.16048160195350647,-0.1576223224401474,-0.009853876195847988,0.014290877617895603,0.022917311638593674,0.025162357836961746
0.8,0.1462007462978363,0.0015820800326764584,0.0,0.6603058576583862,0.0,0.0,-0.7509968280792236,0.03178112953901291,0.21868358552455902,0.0,0.0,0.0,1.8848751783370972,0.44775813817977905,0.6850639581680298,0.41999995708465576,0.6060357689857483,-8.605893526691943e-07,-5.771130872744834e-06,-0.7954372763633728,0.00015801777772139758,-0.00040920302853919566,-8.347374387085438e-05,0.009663921780884266,-0.002198628382757306,-0.0007718598935753107,0.4911174178123474,0.7213248014450073,0.5766370892524719,-0.6859310865402222,0.345475435256958,-0.11068468540906906,0.454911470413208,0.6831725835800171,0.42000001668930054,-0.48743271827697754,2.0759153366088867,-1.4295772314071655,-3.0000007152557373,-0.1663728803396225,-0.16444432735443115,-0.16158054769039154,-0.15842466056346893,0.03901827335357666,0.025129809975624084,0.00706824054941535,-0.004448877181857824
0.8166666666666667,0.14825519919395447,0.0012186139356344938,0.0,0.6553573608398438,0.0,0.0,-0.7553189396858215,0.1700681746006012,-0.03858106583356857,0.0,0.0,0.0,-1.606870174407959,0.44775813817977905,0.6850639581680298,0.41999995708465576,0.6060358285903931,-1.0984258551616222e-06,-6.182001015986316e-06,-0.7954373359680176,0.0001553484908072278,-0.00040715071372687817,-8.335080929100513e-05,0.009599431417882442,-0.002191841835156083,-0.0007630875916220248,0.4797477722167969,0.7276980876922607,0.5707601308822632,-0.7253370881080627,0.27087628841400146,-0.42768824100494385,0.454911470413208,0.6831725835800171,0.42000001668930054,-0.4996446669101715,-3.0000009536743164,-1.391048789024353,3.000000238418579,-0.16407009959220886,-0.16271941363811493,-0.1604517251253128,-0.15773364901542664,0.01986575871706009,0.012601074762642384,0.0028284264262765646,1.705484464764595e-08
0.8333333333333334,0.15253327786922455,-0.0014261769829317927,0.0,0.6620445251464844,0.0,0.0,-0.7494645118713379,0.2967510223388672,-0.2567741870880127,0.0,0.0,0.0,1.8724819421768188,0.44775813817977905,0.6850639581680298,0.41999995708465576,0.6060357093811035,-8.607674999439041e-07,-5.929876351729035e-06,-0.7954374551773071,0.00015935486590024084,-0.000409305706853047,-8.348841220140457e-05,0.009669491089880466,-0.002194306580349803,-0.0007753012469038367,0.4732338786125183,0.7300601005554199,0.5641875863075256,-0.07285107672214508,0.09099835157394409,-0.31206247210502625,0.454911470413208,0.6831725835800171,0.42000001668930054,-0.5307388305664062,-0.8888259530067444,-1.409345030784607,-2.9999985694885254,-0.16545194387435913,-0.16350583732128143,-0.1606348603963852,-0.15718072652816772,-0.08689682930707932,-0.035806622356176376,0.01934227906167507,0.08482203632593155
0.85,0.15892358124256134,-0.007432139944285154,0.0,0.656869113445282,0.0,0.0,-0.7540046572685242,0.4215047359466553,-0.4199502766132355,0.0,0.0,0.0,-1.7192374467849731,0.44775813817977905,0.6850639581680298,0.41999995708465576,0.6060358881950378,-1.0987444056809181e-06,-6.3269953898270614e-06,-0.7954373359680176,0.00015674780297558755,-0.00040728101157583296,-8.336477912962437e-05,0.009606217965483665,-0.0021869263146072626,-0.0007668274338357151,0.4753774404525757,0.729015588760376,0.555757999420166,0.3327466547489166,-0.2172374725341797,-0.5091298222541809,0.454911470413208,0.6831725835800171,0.42000001668930054,-0.5711117386817932,-3.0000016689300537,-1.370874285697937,3.000000238418579,-0.16827192902565002,-0.16503584384918213,-0.16074155271053314,-0.15565434098243713,-0.17934834957122803,-0.08273492753505707,0.024112820625305176,0.14451709389686584
0.8666666666666667,0.16874881088733673,-0.008639178238809109,0.0,0.629528820514679,0.0,0.0,-0.7769771218299866,0.5626676082611084,-0.0503743551671505,0.0,0.0,0.0,-5.076850891113281,0.44775813817977905,0.6850639581680298,0.41999995708465576,0.6060357093811035,-8.388175842810597e-07,-5.918711849517422e-06,-0.7954373359680176,0.00015875055396463722,-0.0004096000629942864,-8.352217264473438e-05,0.009676055051386356,-0.002199973678216338,-0.0007741388399153948,0.48423677682876587,0.7234494686126709,0.551188588142395,0.7885079383850098,-0.27327314019203186,0.07787784934043884,0.454911470413208,0.6831725835800171,0.42000001668930054,-0.6094751358032227,-1.6862398386001587,-1.3895747661590576,-2.999999761581421,-0.17588700354099274,-0.17070749402046204,-0.16435973346233368,-0.15707439184188843,-0.31396323442459106,-0.24972520768642426,-0.17558923363685608,-0.08925292640924454
0.8833333333333333,0.179904967546463,-0.007549413945525885,0.0,0.6177418231964111,0.0,0.0,-0.7863810062408447,0.7196972966194153,0.10588973760604858,0.0,0.0,0.0,-0.769540011882782,0.44775813817977905,0.6850639581680298,0.41999995708465576,0.6060358881950378,-1.113648750106222e-06,-6.313213361863745e-06,-0.795437216758728,0.00015662716759834439,-0.00040720892138779163,-8.335593156516552e-05,0.009603926911950111,-0.002186792902648449,-0.0007664496661163867,0.4960460662841797,0.7219889163970947,0.5535984039306641,0.6164101362228394,0.066480353474617,0.18548673391342163,0.454911470413208,0.6831725835800171,0.42000001668930054,-0.6098501086235046,1.3755388259887695,-1.4395930767059326,-2.999999523162842,-0.17917212843894958,-0.17378416657447815,-0.167070671916008,-0.15922340750694275,-0.08918458968400955,-0.11983388662338257,-0.14342790842056274,-0.15717396140098572
