vladlanda/robotic-transformer/data/env_000_episode_0066.csv
sim_time_s,robot_box_x,robot_box_y,robot_box_z,robot_box_quat_w,robot_box_quat_x,robot_box_quat_y,robot_box_quat_z,robot_box_linvel_x,robot_box_linvel_y,robot_box_linvel_z,robot_box_angvel_x,robot_box_angvel_y,robot_box_angvel_z,cube_world_x,cube_world_y,cube_world_z,cube_quat_w,cube_quat_x,cube_quat_y,cube_quat_z,cube_linvel_x,cube_linvel_y,cube_linvel_z,cube_angvel_x,cube_angvel_y,cube_angvel_z,endpoint_world_x,endpoint_world_y,endpoint_world_z,endpoint_linvel_x,endpoint_linvel_y,endpoint_linvel_z,target_cube_world_x,target_cube_world_y,target_cube_world_z,gripper_actual_pos_rad_gp_leftgearjoint,gripper_actual_vel_rad_s_gp_leftgearjoint,gripper_actual_pos_rad_gp_rotatingjoint,gripper_actual_vel_rad_s_gp_rotatingjoint,motor_angle_rad_joint1,motor_angle_rad_joint2,motor_angle_rad_joint3,motor_angle_rad_joint4,motor_speed_rad_s_joint1,motor_speed_rad_s_joint2,motor_speed_rad_s_joint3,motor_speed_rad_s_joint4
0.0,0.0,0.0,0.0,1.0,0.0,0.0,0.0,0.0,0.0,0.0,0.0,0.0,0.0,-0.4452070891857147,0.6751111745834351,0.41999998688697815,1.0,0.0,0.0,0.0,0.0,0.0,0.0,0.0,0.0,0.0,3.42540442943573e-06,-0.005000244826078415,1.313499927520752,0.0,0.0,0.0,0.4203699827194214,0.6779905557632446,0.42000001668930054,-1.5707999467849731,0.0,0.0,0.0,0.0,0.0,0.0,0.0,0.0,0.0,0.0,0.0
0.016666666666666666,0.0028778850100934505,0.0021806680597364902,0.0,0.9998081922531128,0.0,0.0,0.019586581736803055,0.24087215960025787,0.18240931630134583,0.0,0.0,0.0,3.1418697834014893,-0.4452072083950043,0.6751108765602112,0.41999998688697815,1.0,3.2799914606584935e-06,-8.339814598912199e-07,8.465387679734704e-08,-1.9833554688375443e-05,0.00017983050202019513,-6.133061833679676e-05,0.0009432226070202887,-0.004689437802881002,-0.0003198152990080416,-0.007110234349966049,0.003379564033821225,1.3159373998641968,-0.8143353462219238,0.9868683815002441,0.18095196783542633,0.4203699827194214,0.6779905557632446,0.42000001668930054,-1.5301095247268677,3.0000011920928955,-0.04584788903594017,-2.9999992847442627,0.0008691533003002405,0.0007963840034790337,0.0007110277656465769,0.0006108740926720202,0.11094217747449875,0.09756709635257721,0.08334315568208694,0.06823883205652237
0.03333333333333333,0.008960967883467674,0.006801888812333345,0.0,0.9997960329055786,0.0,0.0,0.020196836441755295,0.4070207178592682,0.31530749797821045,0.0,0.0,0.0,-0.8691297769546509,-0.4452073276042938,0.6751108169555664,0.4200000464916229,1.0,3.390885240150965e-06,-2.1324319732229924e-06,-3.711133800265998e-08,0.00026357753085903823,0.00026937859365716577,-0.00010509602725505829,-0.0017706351354718208,0.004130707122385502,-0.00013548039714805782,-0.027547109872102737,0.02597064897418022,1.316631555557251,-1.5914413928985596,1.612084984779358,-0.0808756947517395,0.4203699827194214,0.6779905557632446,0.42000001668930054,-1.4800904989242554,3.0000014305114746,-0.09588771313428879,-3.0000009536743164,0.002990161767229438,0.002652795286849141,0.0022773882374167442,0.001860864576883614,0.16422483325004578,0.13977009057998657,0.11383068561553955,0.08631442487239838
0.05,0.01774338074028492,0.01377038937062025,0.0,0.9993789792060852,0.0,0.0,0.03523631393909454,0.5937127470970154,0.46502333879470825,0.0,0.0,0.0,2.6493752002716064,-0.4452073574066162,0.6751108765602112,0.4200000464916229,1.0,3.7651666389137972e-06,-2.2119106688478496e-06,5.6201381326559385e-09,0.00026530789909884334,0.00026691396487876773,-0.0001044049859046936,-0.0017242879839614034,0.004177392926067114,-0.00012949586380273104,-0.0596730075776577,0.05365099757909775,1.3117239475250244,-2.1874704360961914,1.7432129383087158,-0.4692631959915161,0.4203699827194214,0.6779905557632446,0.42000001668930054,-1.4300721883773804,2.999999523162842,-0.1459263563156128,-3.000001907348633,0.005706591997295618,0.004914694465696812,0.004050669260323048,0.003110067220404744,0.1927551031112671,0.15585368871688843,0.11707784235477448,0.07633385062217712
0.06666666666666667,0.029057053849101067,0.023063035681843758,0.0,0.9994507431983948,0.0,0.0,0.03313879296183586,0.7202662825584412,0.5951589941978455,0.0,0.0,0.0,-1.2100205421447754,-0.4452073574066162,0.6751108169555664,0.4200000464916229,0.9999999403953552,3.406765927138622e-06,-2.285584969285992e-06,4.3010237504859106e-07,0.0002670253161340952,0.00026791723212227225,-0.00010437797755002975,-0.0017405577236786485,0.004211726598441601,-0.0001285084872506559,-0.09827765822410583,0.08750583231449127,1.29922354221344,-2.45810866355896,2.205156087875366,-1.0050067901611328,0.4203699827194214,0.6779905557632446,0.42000001668930054,-1.3800538778305054,2.999999523162842,-0.19595326483249664,-3.0000011920928955,0.008318367414176464,0.006845638155937195,0.005261327605694532,0.0035616199020296335,0.15480206906795502,0.10465941578149796,0.05250266566872597,-0.0017989927437156439
0.08333333333333333,0.04299173504114151,0.03448816016316414,0.0,0.9999931454658508,0.0,0.0,0.003700881265103817,0.9404551386833191,0.7254251837730408,0.0,0.0,0.0,-4.531137466430664,-0.4452073574066162,0.6751108169555664,0.4200000464916229,1.0,3.697324700624449e-06,-2.1889497929805657e-06,-2.6323201041122957e-07,0.00026389677077531815,0.0002658632874954492,-0.00010433816350996494,-0.001708115916699171,0.004150166176259518,-0.0001299091090913862,-0.13823392987251282,0.1284661740064621,1.2796123027801514,-2.366152048110962,2.5948171615600586,-1.3175580501556396,0.4203699827194214,0.6779905557632446,0.42000001668930054,-1.3300235271453857,2.9999992847442627,-0.17581191658973694,2.999999761581421,0.009937893599271774,0.007521467283368111,0.004953681491315365,0.002230684272944927,0.09296140819787979,0.02543194405734539,-0.044156163930892944,-0.11585477739572525
0.1,0.05175269767642021,0.049768079072237015,0.0,0.9999542832374573,0.0,0.0,-0.009560465812683105,0.3870904743671417,0.9935227632522583,0.0,0.0,0.0,-0.5811920166015625,-0.4452073574066162,0.6751108169555664,0.4200000464916229,0.9999999403953552,3.6204476145940134e-06,-2.2652093321084976e-06,1.746138025282562e-07,0.00026676998822949827,0.0002674069837667048,-0.00010407832451164722,-0.0017385098617523909,0.0042091780342161655,-0.00012775610957760364,-0.17899799346923828,0.1668929159641266,1.2562706470489502,-2.358694076538086,2.3061270713806152,-1.4179978370666504,0.4203699827194214,0.6779905557632446,0.42000001668930054,-1.2800228595733643,3.0000009536743164,-0.2073979377746582,-3.0,0.004989784676581621,0.0017989234765991569,-0.0015946063213050365,-0.0051986039616167545,-0.4223846197128296,-0.4744269549846649,-0.5290217399597168,-0.5864253640174866
0.11666666666666667,0.05572729557752609,0.06601108610630035,0.0,0.9993693828582764,0.0,0.0,-0.03550875186920166,0.25169041752815247,0.936248242855072,0.0,0.0,0.0,-3.8739397525787354,-0.4452073574066162,0.6751108169555664,0.4200000464916229,1.0,3.7984607388352742e-06,-2.2627837097388692e-06,-1.502189377333707e-07,0.0002637402794789523,0.000265660259174183,-0.00010428996756672859,-0.001705392962321639,0.004147498402744532,-0.0001297990238526836,-0.2165718376636505,0.2088966965675354,1.2328499555587769,-2.1556077003479004,2.75854229927063,-1.4025803804397583,0.4203699827194214,0.6779905557632446,0.42000001668930054,-1.230012059211731,3.0000016689300537,-0.2574111223220825,-2.999999761581421,-0.001865679514594376,-0.006334928795695305,-0.011012567207217216,-0.01590927504003048,-0.3208704888820648,-0.42187392711639404,-0.5212024450302124,-0.618903636932373
0.13333333333333333,0.05850235000252724,0.07941079139709473,0.0,0.9991121888160706,0.0,0.0,-0.04212934151291847,0.1432993859052658,0.7283667922019958,0.0,0.0,0.0,0.3389219045639038,-0.4452073574066162,0.6751108765602112,0.4200000464916229,0.9999999403953552,3.5505347568687284e-06,-2.22979360842146e-06,2.929032234533224e-07,0.00026703241746872663,0.0002677922893781215,-0.00010416889563202858,-0.0017439969815313816,0.004213562235236168,-0.00012800225522369146,-0.25668269395828247,0.2538158893585205,1.2057182788848877,-2.454902172088623,2.7954225540161133,-1.820436716079712,0.4203699827194214,0.6779905557632446,0.42000001668930054,-1.1799960136413574,2.999992609024048,-0.22328470647335052,3.000000238418579,-0.005697910208255053,-0.012036724016070366,-0.018516510725021362,-0.02514754794538021,-0.20201125741004944,-0.31348657608032227,-0.41995373368263245,-0.5213672518730164
0.15,0.06115325540304184,0.09003712236881256,0.0,0.9980849027633667,0.0,0.0,-0.06185866519808769,0.1266268789768219,0.5657998323440552,0.0,0.0,0.0,-3.2217202186584473,-0.4452073574066162,0.6751108169555664,0.4200000464916229,0.9999999403953552,3.338062697366695e-06,-2.242876007585437e-06,-2.8025249676488784e-08,0.00026674612308852375,0.00026758183958008885,-0.00010427669622004032,-0.0017367495456710458,0.004206867888569832,-0.0001283180754398927,-0.29461678862571716,0.3045443296432495,1.1728322505950928,-2.1506004333496094,3.225574493408203,-2.14699649810791,0.4203699827194214,0.6779905557632446,0.42000001668930054,-1.1300090551376343,3.0000007152557373,-0.2545834481716156,-3.000000238418579,-0.009272119961678982,-0.01747283898293972,-0.025721395388245583,-0.03402835875749588,-0.2797488272190094,-0.38117143511772156,-0.47716042399406433,-0.5677745938301086
0.16666666666666666,0.06101551279425621,0.1016782820224762,0.0,0.9940996766090393,0.0,0.0,-0.10847033560276031,-0.08066385239362717,0.7519077658653259,0.0,0.0,0.0,-6.429251670837402,-0.4452073574066162,0.6751108765602112,0.4200000464916229,0.9999999403953552,3.6477547382673947e-06,-2.3072825570125133e-06,3.52875595410751e-08,0.0002672684204299003,0.0002680135949049145,-0.00010418612509965897,-0.001747230300679803,0.0042175729759037495,-0.00012798423995263875,-0.3300127387046814,0.362962007522583,1.1313791275024414,-1.9890000820159912,3.7139322757720947,-2.8119044303894043,0.4203699827194214,0.6779905557632446,0.42000001668930054,-1.090266227722168,1.8346257209777832,-0.22051163017749786,3.0000009536743164,-0.015888173133134842,-0.02552722953259945,-0.035117775201797485,-0.044672396034002304,-0.48924025893211365,-0.5549865365028381,-0.61539626121521,-0.6706591248512268
0.18333333333333332,0.06589425355195999,0.1150955930352211,0.0,0.9897604584693909,0.0,0.0,-0.1427384465932846,0.4246261715888977,0.8544939756393433,0.0,0.0,0.0,-2.6158523559570312,-0.4452073574066162,0.6751108169555664,0.4200000464916229,0.9999999403953552,3.2904565614444437e-06,-2.193865839217324e-06,-2.792176019283943e-07,0.00026678055291995406,0.000267760653514415,-0.00010434072464704514,-0.0017390751745551825,0.004207063466310501,-0.00012845917080994695,-0.3654922842979431,0.4227530360221863,1.0794949531555176,-1.992544174194336,3.6618003845214844,-3.3973798751831055,0.4203699827194214,0.6779905557632446,0.42000001668930054,-1.0452767610549927,2.9999985694885254,-0.25179430842399597,-3.0000009536743164,-0.02150915190577507,-0.03215330094099045,-0.04266057163476944,-0.0530487559735775,-0.3216235041618347,-0.36531931161880493,-0.40448519587516785,-0.4394893944263458
0.2,0.06829163432121277,0.1257433444261551,0.0,0.9823941588401794,0.0,0.0,-0.18682000041007996,0.15687768161296844,0.5943313241004944,0.0,0.0,0.0,-6.111541271209717,-0.4452073574066162,0.6751108169555664,0.4200000464916229,1.0,3.280669488958665e-06,-2.2191218249645317e-06,1.5948940301768744e-07,0.000266279123025015,0.00026740122120827436,-0.0001042510848492384,-0.0017357164761051536,0.0041977716609835625,-0.000128651867271401,-0.39693012833595276,0.4853518605232239,1.0155339241027832,-1.6275891065597534,3.934910774230957,-4.143716812133789,0.4203699827194214,0.6779905557632446,0.42000001668930054,-0.9952770471572876,3.0000009536743164,-0.301821768283844,-3.000000476837158,-0.03244483843445778,-0.042982179671525955,-0.053354647010564804,-0.06359344720840454,-0.6569212675094604,-0.6471803188323975,-0.6354137063026428,-0.6222889423370361
0.21666666666666667,0.06839144974946976,0.13358274102210999,0.0,0.9776095747947693,0.0,0.0,-0.21042703092098236,-0.04993901401758194,0.4050125181674957,0.0,0.0,0.0,-1.817940354347229,-0.4452073574066162,0.6751108765602112,0.4200000464916229,1.0,3.6130513763055205e-06,-2.2700164663547184e-06,2.2102895513853582e-07,0.00026712645194493234,0.0002678175806067884,-0.0001041400246322155,-0.0017445534467697144,0.0042151943780481815,-0.00012786385195795447,-0.42571455240249634,0.5430567264556885,0.9402233958244324,-1.4725183248519897,3.3322255611419678,-4.846938133239746,0.4203699827194214,0.6779905557632446,0.42000001668930054,-0.9452739953994751,2.999999761581421,-0.3518508970737457,-3.000000238418579,-0.04516834020614624,-0.0549585185945034,-0.0645725280046463,-0.07405833899974823,-0.8246389627456665,-0.7578958868980408,-0.6917441487312317,-0.6272481083869934
0.23333333333333334,0.0639609545469284,0.1423059105873108,0.0,0.9699490666389465,0.0,0.0,-0.24330805242061615,-0.36935263872146606,0.5874401330947876,0.0,0.0,0.0,-4.7644243240356445,-0.4452073574066162,0.6751108169555664,0.4200000464916229,1.0,3.3817634630395332e-06,-2.2908675418875646e-06,2.728248773564701e-07,0.0002669122186489403,0.0002677985467016697,-0.00010433210991322994,-0.001739602186717093,0.004209672566503286,-0.00012843367585446686,-0.4500204920768738,0.5960879921913147,0.8530102968215942,-1.217327356338501,3.0077152252197266,-5.490131378173828,0.4203699827194214,0.6779905557632446,0.42000001668930054,-0.8952634930610657,2.999997854232788,-0.40188130736351013,-3.0000007152557373,-0.061215560883283615,-0.070375457406044,-0.07929759472608566,-0.08753480762243271,-0.9877542853355408,-0.9900535345077515,-0.9911506175994873,-0.9122712016105652
0.25,0.06167103350162506,0.14795483648777008,0.0,0.9671590924263,0.0,0.0,-0.25417184829711914,-0.03960489109158516,0.23275065422058105,0.0,0.0,0.0,-0.2543014585971832,-0.4452073276042938,0.6751108169555664,0.4200000464916229,0.9999999403953552,3.706490815602592e-06,-2.2229455680644605e-06,-2.2549096456714324e-07,0.00026424654060974717,0.0002665668725967407,-0.00010457867756485939,-0.001717000617645681,0.0041555617935955524,-0.00013063187361694872,-0.4706932604312897,0.6354681253433228,0.7580578327178955,-1.0058465003967285,1.945664882659912,-5.841279983520508,0.4203699827194214,0.6779905557632446,0.42000001668930054,-0.8452532291412354,2.9999985694885254,-0.4519127309322357,-2.999999761581421,-0.07759731262922287,-0.08662990480661392,-0.09541548043489456,-0.103535495698452,-0.9886678457260132,-0.984401285648346,-0.9672196507453918,-0.9496793150901794
0.26666666666666666,0.055726099759340286,0.1501406729221344,0.0,0.9607976078987122,0.0,0.0,-0.27725064754486084,-0.46857205033302307,0.09255040436983109,0.0,0.0,0.0,-3.776621103286743,-0.4452073574066162,0.6751108169555664,0.4200000464916229,0.9999999403953552,3.7195993627392454e-06,-2.4034497982938774e-06,-1.8306667470824323e-07,0.00026623401208780706,0.0002672910050023347,-0.00010425737127661705,-0.0017326086526736617,0.004196528345346451,-0.00012850944767706096,-0.4810692369937897,0.6589282751083374,0.6555135250091553,-0.160880446434021,0.8869749307632446,-6.182096481323242,0.4203699827194214,0.6779905557632446,0.42000001668930054,-0.7952443361282349,2.9999959468841553,-0.5019437670707703,-3.0000014305114746,-0.09524375200271606,-0.10399243235588074,-0.11256483197212219,-0.12052011489868164,-1.0000057220458984,-1.0000026226043701,-1.0000009536743164,-1.0000008344650269
0.2833333333333333,0.05371701344847679,0.14959731698036194,0.0,0.9591349363327026,0.0,0.0,-0.28294917941093445,-0.0041818092577159405,-0.07282628118991852,0.0,0.0,0.0,0.2420925796031952,-0.4452073574066162,0.6751108765602112,0.4200000464916229,0.9999999403953552,3.58404417966085e-06,-2.315490291948663e-06,7.405241575497712e-08,0.000265220005530864,0.00026455195620656013,-0.00010317191481590271,-0.0017020846717059612,0.004185084719210863,-0.0001249985652975738,-0.48238301277160645,0.671766459941864,0.555662989616394,0.16743338108062744,0.6259180903434753,-5.810439109802246,0.4203699827194214,0.6779905557632446,0.42000001668930054,-0.7452355623245239,2.999995470046997,-0.5519735217094421,-2.9999992847442627,-0.11127296835184097,-0.12001365423202515,-0.12856906652450562,-0.13657261431217194,-0.9944437146186829,-0.9829023480415344,-0.97945636510849,-0.9818671941757202
0.3,0.04818108677864075,0.14706169068813324,0.0,0.9535713791847229,0.0,0.0,-0.30116716027259827,-0.4504239559173584,-0.18628549575805664,0.0,0.0,0.0,-3.1345632076263428,-0.4452073574066162,0.6751108169555664,0.4200000464916229,1.0,3.7242157304717693e-06,-2.271948687848635e-06,9.637550846264276e-08,0.0002631245879456401,0.0002652581606525928,-0.00010437984019517899,-0.0016960380598902702,0.004134716931730509,-0.00013027644308749586,-0.47142016887664795,0.6768656969070435,0.46115702390670776,1.1350748538970947,0.10456396639347076,-5.377997398376465,0.4203699827194214,0.6779905557632446,0.42000001668930054,-0.6952276825904846,3.000001907348633,-0.602001428604126,-2.9999990463256836,-0.12962760031223297,-0.13795538246631622,-0.1461949646472931,-0.15394705533981323,-1.007003903388977,-1.005280613899231,-1.0039633512496948,-1.0029094219207764
0.31666666666666665,0.03838450461626053,0.14280857145786285,0.0,0.9531410932540894,0.0,0.0,-0.30252605676651,-0.4618009924888611,-0.33754992485046387,0.0,0.0,0.0,0.7560622096061707,-0.44515305757522583,0.6750578284263611,0.42000001668930054,0.9999989867210388,-3.878405095747439e-06,-3.2105870673149184e-07,-0.0013490383280441165,0.008866868913173676,-0.007405266631394625,-8.257450826931745e-05,-0.01009714137762785,0.011702687479555607,-0.3861013948917389,-0.46124497056007385,0.6778679490089417,0.4261823296546936,0.0848703384399414,-0.08267965167760849,-0.1994115561246872,0.4203699827194214,0.6779905557632446,0.42000001668930054,-0.6452740430831909,3.00028133392334,-0.6524114608764648,-3.0017926692962646,-0.14186957478523254,-0.1499670147895813,-0.15779267251491547,-0.16489998996257782,-0.27389612793922424,-0.2955061197280884,-0.2924061715602875,-0.2602439522743225
0.3333333333333333,0.028973395004868507,0.13565215468406677,0.0,0.9481680393218994,0.0,0.0,-0.31776946783065796,-0.6314366459846497,-0.4836108088493347,0.0,0.0,0.0,-2.5984396934509277,-0.44505244493484497,0.6753463745117188,0.42001429200172424,0.9999861717224121,-0.00045009711175225675,0.00041851779678836465,-0.005221453029662371,0.08626696467399597,0.21418365836143494,-0.022031959146261215,0.8233382105827332,-0.3232520520687103,-6.6475138664245605,-0.46090078353881836,0.6809065341949463,0.4239981770515442,0.09196113795042038,0.2537139654159546,-0.160517156124115,0.4203699827194214,0.6779905557632446,0.42000001668930054,-0.5952683687210083,3.0000011920928955,-0.7024690508842468,-2.99996280670166,-0.1469939649105072,-0.1551852524280548,-0.1627030223608017,-0.16905833780765533,-0.34280964732170105,-0.33445996046066284,-0.30386045575141907,-0.25007879734039307
0.35,0.01700650155544281,0.12603062391281128,0.0,0.948969304561615,0.0,0.0,-0.31536853313446045,-0.7580388784408569,-0.6158345341682434,0.0,0.0,0.0,1.2377240657806396,-0.4426906704902649,0.6807363033294678,0.42000001668930054,0.996185839176178,3.6936262404196896e-06,5.115944077260792e-06,-0.08725588768720627,0.21265548467636108,0.45533624291419983,-2.7525309633347206e-05,-0.0014945968287065625,0.0004855385050177574,-14.418601989746094,-0.4568176567554474,0.6882591247558594,0.42148154973983765,0.3836039900779724,0.601656436920166,-0.11932885646820068,0.4203699827194214,0.6779905557632446,0.42000001668930054,-0.545263409614563,2.9999849796295166,-0.7525049448013306,-3.000000238418579,-0.15428946912288666,-0.16156481206417084,-0.1677892804145813,-0.17249439656734467,-0.46181848645210266,-0.37827953696250916,-0.27258947491645813,-0.14736118912696838
0.36666666666666664,0.008575886487960815,0.11379511654376984,0.0,0.9450863599777222,0.0,0.0,-0.32682064175605774,-0.42437905073165894,-0.7791775465011597,0.0,0.0,0.0,-2.3189985752105713,-0.4378202557563782,0.6896327137947083,0.420000284910202,0.9862402081489563,-4.04276261178893e-06,1.554556001792662e-05,-0.16531817615032196,0.40082600712776184,0.6452279686927795,-0.0005203438922762871,0.01963132619857788,-0.016356440261006355,-2.988878011703491,-0.44902804493904114,0.6966888904571533,0.4201277494430542,0.6138447523117065,0.5346104502677917,-0.07416354864835739,0.4203699827194214,0.6779905557632446,0.42000001668930054,-0.49525880813598633,2.9999797344207764,-0.8025594353675842,-2.999988555908203,-0.1622169017791748,-0.16751611232757568,-0.17136527597904205,-0.17336773872375488,-0.46653810143470764,-0.32107123732566833,-0.1527305543422699,0.03298817202448845
0.3833333333333333,-0.0029184205923229456,0.09990828484296799,0.0,0.9306530952453613,0.0,0.0,-0.36590269207954407,-0.7859066724777222,-0.8589964509010315,0.0,0.0,0.0,-5.928280353546143,-0.4263460636138916,0.705068826675415,0.4205426573753357,0.9805094599723816,-0.011413784697651863,-0.00027923999004997313,-0.19613994657993317,1.008286476135254,1.2536466121673584,0.07483456283807755,-1.826060175895691,-2.470829963684082,-5.22750186920166,-0.43622779846191406,0.7100915908813477,0.4211980700492859,0.9996541738510132,1.1759816408157349,0.11098495125770569,0.4203699827194214,0.6779905557632446,0.42000001668930054,-0.44519418478012085,3.000006675720215,-0.8525633811950684,-2.999993324279785,-0.17225991189479828,-0.17467977106571198,-0.1752808541059494,-0.17377768456935883,-0.5772675275802612,-0.4067170321941376,-0.21503615379333496,-0.009238013066351414
0.4,-0.011024029925465584,0.08312488347291946,0.0,0.9029123783111572,0.0,0.0,-0.4298245906829834,-0.4616226851940155,-1.0495803356170654,0.0,0.0,0.0,-9.09800910949707,-0.39608120918273926,0.7320428490638733,0.4234231412410736,0.9681316614151001,-0.014611190184950829,-0.02926916629076004,-0.24829570949077606,2.949319362640381,2.0557515621185303,0.1599065363407135,26.658273696899414,-14.103732109069824,5.683416843414307,-0.4056454300880432,0.7382316589355469,0.4231650233268738,2.704357147216797,2.090930938720703,0.2955504059791565,0.4203699827194214,0.6779905557632446,0.42000001668930054,-0.398467093706131,2.1193325519561768,-0.902563214302063,-3.0000014305114746,-0.1816699206829071,-0.18070019781589508,-0.17758190631866455,-0.17217090725898743,-0.7035686373710632,-0.4400637447834015,-0.1615995466709137,0.121274434030056
0.4166666666666667,-0.01726960949599743,0.07127027958631516,0.0,0.8591649532318115,0.0,0.0,-0.5116987228393555,-0.27274516224861145,-0.7452178001403809,0.0,0.0,0.0,-11.751358985900879,-0.3258730471134186,0.7725167870521545,0.42824700474739075,0.9463678002357483,0.04346320033073425,-0.07020393759012222,-0.3123624622821808,5.720794200897217,2.320974826812744,0.4329453110694885,9.332857131958008,-8.339568138122559,33.993194580078125,-0.33483389019966125,0.7795516848564148,0.427905410528183,5.345630645751953,3.089717388153076,0.32786110043525696,0.4203699827194214,0.6779905557632446,0.42000001668930054,-0.3784298598766327,0.8629366159439087,-0.8653722405433655,2.9985036849975586,-0.19755175709724426,-0.1940937489271164,-0.18495944142341614,-0.17383158206939697,-0.601396381855011,-0.6641373634338379,-0.3708556294441223,-0.09810333698987961
0.43333333333333335,-0.01937796361744404,0.06122808903455734,0.0,0.7954203486442566,0.0,0.0,-0.6060581803321838,-0.07526127249002457,-0.5388426780700684,0.0,0.0,0.0,-14.467940330505371,-0.21631190180778503,0.8203501105308533,0.43574434518814087,0.9098334908485413,0.11378047615289688,-0.10636511445045471,-0.3846340477466583,7.91786003112793,2.187201976776123,0.6084318161010742,9.70607852935791,-20.219865798950195,22.600942611694336,-0.22502680122852325,0.8295358419418335,0.43528133630752563,7.648665428161621,2.945324659347534,0.6140104532241821,0.4203699827194214,0.6779905557632446,0.42000001668930054,-0.36472848057746887,0.8492907881736755,-0.8153579831123352,2.9947385787963867,-0.2109810709953308,-0.20684991776943207,-0.19254520535469055,-0.17680667340755463,-0.8772008419036865,-0.7814368009567261,-0.48764851689338684,-0.23466342687606812
0.45,-0.024822477251291275,0.0568782314658165,0.0,0.7370625734329224,0.0,0.0,-0.6758245229721069,-0.2845471501350403,-0.2558867037296295,0.0,0.0,0.0,-9.492347717285156,-0.09549084305763245,0.849570095539093,0.4449710249900818,0.8751939535140991,0.13682608306407928,-0.11491463333368301,-0.4495649039745331,7.3577775955200195,0.4407583177089691,0.6034975647926331,-3.589925527572632,-12.382201194763184,17.299346923828125,-0.10193870961666107,0.8616007566452026,0.44510024785995483,7.325705528259277,1.2340855598449707,0.617190957069397,0.4203699827194214,0.6779905557632446,0.42000001668930054,-0.3516657054424286,0.747997522354126,-0.8421573638916016,-3.000000238418579,-0.22598512470722198,-0.221957266330719,-0.20533645153045654,-0.18383942544460297,-0.6798862814903259,-0.7214846611022949,-0.7146756052970886,-0.4212249219417572
0.4666666666666667,-0.026740578934550285,0.04654578119516373,0.0,0.6991727352142334,0.0,0.0,-0.7149527668952942,-0.095334991812706,-0.5986579656600952,0.0,0.0,0.0,-5.193148612976074,0.022639937698841095,0.858721137046814,0.45220568776130676,0.8261011838912964,0.11680000275373459,-0.13388527929782867,-0.5347796082496643,6.856719017028809,-0.3474721610546112,0.7176406383514404,23.707347869873047,-4.613395690917969,12.03247356414795,0.01643410511314869,0.8728042840957642,0.4539506435394287,6.877067565917969,-0.23725467920303345,0.45404988527297974,0.4203699827194214,0.6779905557632446,0.42000001668930054,-0.33804386854171753,0.7849500179290771,-0.8921830654144287,-3.000001907348633,-0.2358926683664322,-0.23078450560569763,-0.21290217339992523,-0.1864420771598816,-0.8186323642730713,-0.6309750080108643,-0.4652983248233795,-0.13710473477840424
0.48333333333333334,-0.03034716099500656,0.04137668013572693,0.0,0.6865813136100769,0.0,0.0,-0.7270529866218567,-0.1955137699842453,-0.24928459525108337,0.0,0.0,0.0,-0.942607581615448,0.12712129950523376,0.8445193767547607,0.45458143949508667,0.7316511869430542,0.0368465818464756,-0.21394215524196625,-0.6461869478225708,5.545105934143066,-2.1264171600341797,-0.11467058956623077,-22.089855194091797,-20.069869995117188,16.473773956298828,0.12036480009555817,0.8610402345657349,0.46153831481933594,5.634649276733398,-1.1780312061309814,0.3645162582397461,0.4203699827194214,0.6779905557632446,0.42000001668930054,-0.3284730911254883,0.2879551947116852,-0.9422078728675842,-3.00000262260437,-0.2400171011686325,-0.24001257121562958,-0.22482597827911377,-0.19265511631965637,-0.04092719405889511,-0.02866510860621929,-0.6985521912574768,-0.4174354672431946
0.5,-0.03151306137442589,0.03409542143344879,0.0,0.6663517355918884,0.0,0.0,-0.7456375360488892,-0.013952745124697685,-0.4742032587528229,0.0,0.0,0.0,-4.126119613647461,0.2135394811630249,0.8160984516143799,0.451867938041687,0.6202135682106018,-0.026210278272628784,-0.26566603779792786,-0.7376107573509216,4.504461288452148,-2.6839425563812256,0.1842084676027298,-3.4588701725006104,8.621713638305664,4.832601547241211,0.20539024472236633,0.8360004425048828,0.46192467212677,4.782792091369629,-1.997758150100708,-0.24273304641246796,0.4203699827194214,0.6779905557632446,0.42000001668930054,-0.32662221789360046,-0.20477429032325745,-0.9922318458557129,-2.9997966289520264,-0.24002383649349213,-0.23951499164104462,-0.2331061214208603,-0.19723260402679443,-0.03587500751018524,0.012021937407553196,-0.3767673969268799,-0.19501575827598572
0.5166666666666666,-0.029661785811185837,0.029928024858236313,0.0,0.6605724096298218,0.0,0.0,-0.7507623434066772,0.14137955009937286,-0.1737421452999115,0.0,0.0,0.0,0.03918610140681267,0.2832130193710327,0.7810587286949158,0.4449672996997833,0.5661544799804688,-0.06735220551490784,-0.2461804747581482,-0.7837907075881958,3.66395902633667,-2.3327417373657227,-0.5693045258522034,0.3301907479763031,5.616643905639648,-9.512842178344727,0.27718427777290344,0.7997460961341858,0.4554795026779175,3.8601977825164795,-2.357487678527832,-0.5471905469894409,0.4203699827194214,0.6779905557632446,0.42000001668930054,-0.32366952300071716,0.6743103265762329,-1.0422542095184326,-2.999962568283081,-0.23995408415794373,-0.23967690765857697,-0.23824740946292877,-0.2005644142627716,0.005209784023463726,0.08611760288476944,-0.1573779433965683,-0.13467252254486084
0.5333333333333333,-0.02538156323134899,0.02669963240623474,0.0,0.6449213027954102,0.0,0.0,-0.7642489671707153,0.30736005306243896,-0.17016389966011047,0.0,0.0,0.0,-3.4097774028778076,0.3379603326320648,0.7446606755256653,0.4299512803554535,0.5330327153205872,-0.10973948985338211,-0.22941741347312927,-0.8069702386856079,2.7903363704681396,-2.240445852279663,-0.9229365587234497,-3.9022810459136963,10.010780334472656,-7.169430255889893,0.3346329927444458,0.7631051540374756,0.4411638379096985,3.024721622467041,-2.2003049850463867,-1.0859060287475586,0.4203699827194214,0.6779905557632446,0.42000001668930054,-0.30549076199531555,1.1999958753585815,-1.0922763347625732,-2.999849796295166,-0.236650750041008,-0.23568078875541687,-0.23801615834236145,-0.20165270566940308,0.3070788085460663,0.3311915695667267,0.1354549527168274,-0.01981522887945175
0.55,-0.018777919933199883,0.02661459892988205,0.0,0.6430725455284119,0.0,0.0,-0.7658053040504456,0.42788153886795044,0.06862600147724152,0.0,0.0,0.0,0.6015247702598572,0.3741235136985779,0.7203091979026794,0.4231371283531189,0.529312252998352,-0.06678249686956406,-0.045338138937950134,-0.8445786237716675,1.9908521175384521,-1.28219735622406,-0.36481213569641113,12.186423301696777,5.325938701629639,-27.12430763244629,0.37194764614105225,0.7321519255638123,0.43590545654296875,1.6829042434692383,-1.6477429866790771,-0.13670769333839417,0.4203699827194214,0.6779905557632446,0.42000001668930054,-0.28685468435287476,1.011817455291748,-1.1422984600067139,-2.995246648788452,-0.2306445986032486,-0.2296665757894516,-0.23475489020347595,-0.2018921822309494,0.42669516801834106,0.404847651720047,0.25910210609436035,-0.007580736186355352
0.5666666666666667,-0.00952868815511465,0.021573955193161964,0.0,0.6293201446533203,0.0,0.0,-0.7771461606025696,0.5280712842941284,-0.26948416233062744,0.0,0.0,0.0,-3.0058538913726807,0.39920932054519653,0.7021967172622681,0.42013055086135864,0.539980947971344,-0.002634115517139435,0.0027743512764573097,-0.8416685461997986,0.7117937803268433,-0.9109793305397034,0.4323427677154541,8.233796119689941,20.33991813659668,1.7905229330062866,0.397158682346344,0.711158037185669,0.4307989776134491,0.9339550733566284,-0.8813650608062744,0.2454906851053238,0.4203699827194214,0.6779905557632446,0.42000001668930054,-0.2658677399158478,1.0312068462371826,-1.1094982624053955,3.0000078678131104,-0.2172793596982956,-0.21787883341312408,-0.2258821278810501,-0.19885125756263733,0.6954458951950073,0.6362075209617615,0.5287434458732605,0.1928645521402359
0.5833333333333334,-0.004090197384357452,0.020818239077925682,0.0,0.627861499786377,0.0,0.0,-0.778325080871582,0.28026315569877625,-0.0051147970370948315,0.0,0.0,0.0,0.5793846249580383,0.4127327799797058,0.6870821714401245,0.42267030477523804,0.5463131666183472,-0.03418831154704094,0.05543236434459686,-0.8350450992584229,0.6269887685775757,-0.9912880659103394,0.23995272815227509,6.130354881286621,7.52382755279541,-1.7022149562835693,0.4097259044647217,0.6953657865524292,0.43212705850601196,0.6841289401054382,-0.980079174041748,-0.13474860787391663,0.4203699827194214,0.6779905557632446,0.42000001668930054,-0.26812341809272766,-0.7715197205543518,-1.1323294639587402,-2.999117374420166,-0.20761683583259583,-0.20871305465698242,-0.21760469675064087,-0.1959943026304245,0.5353566408157349,0.5083529949188232,0.48146578669548035,0.15299595892429352
0.6,0.00303868530318141,0.02377202734351158,0.0,0.6146379113197327,0.0,0.0,-0.7888093590736389,0.4228881299495697,0.2288985550403595,0.0,0.0,0.0,-2.926746129989624,0.4186786115169525,0.678368866443634,0.42315736413002014,0.5556474924087524,-0.048143528401851654,0.07196082919836044,-0.8268975615501404,0.25319352746009827,-0.3066258430480957,0.05850757658481598,1.3211554288864136,3.1838104724884033,2.384150981903076,0.4164116382598877,0.6853753328323364,0.43203604221343994,0.2344782054424286,-0.3360787034034729,-0.14098423719406128,0.4203699827194214,0.6779905557632446,0.42000001668930054,-0.27855685353279114,-0.10946714133024216,-1.182335376739502,-2.9998741149902344,-0.19851219654083252,-0.20055752992630005,-0.20993754267692566,-0.1939876228570938,0.6453040838241577,0.5549986362457275,0.512135922908783,0.1530389040708542
0.6166666666666667,0.011425213888287544,0.02243689075112343,0.0,0.6143820285797119,0.0,0.0,-0.7890086770057678,0.49141764640808105,-0.09892342984676361,0.0,0.0,0.0,0.86977219581604,0.4214816391468048,0.6741151809692383,0.42335355281829834,0.5718360543251038,-0.05333029851317406,0.07596760243177414,-0.8151001334190369,-0.008980371989309788,-0.18498137593269348,-0.019928399473428726,-0.44598278403282166,-1.0398099422454834,2.8233652114868164,0.4175281524658203,0.6813018918037415,0.42767971754074097,-0.05525048077106476,-0.0967928022146225,0.18707841634750366,0.4203699827194214,0.6779905557632446,0.42000001668930054,-0.3004947006702423,-2.344907760620117,-1.232280969619751,-2.9981677532196045,-0.18557189404964447,-0.18925294280052185,-0.1992897093296051,-0.18930049240589142,0.6499652862548828,0.5921491384506226,0.601540744304657,0.29311603307724
0.6333333333333333,0.02224043756723404,0.025031909346580505,0.0,0.6363745331764221,0.0,0.0,-0.7713802456855774,0.6770837903022766,0.1636059731245041,0.0,0.0,0.0,4.301405906677246,0.42011022567749023,0.6719552874565125,0.4221388101577759,0.5826510190963745,-0.03294109180569649,0.04466957971453667,-0.8108250498771667,-0.1479976922273636,-0.06209424138069153,-0.08116035908460617,-2.45312237739563,-5.125162124633789,0.47975054383277893,0.4159342646598816,0.6811975836753845,0.43108537793159485,-0.08610591292381287,0.11913401633501053,0.2243175059556961,0.4203699827194214,0.6779905557632446,0.42000001668930054,-0.3491252064704895,-2.9995198249816895,-1.2822469472885132,-2.9991729259490967,-0.17752109467983246,-0.18178169429302216,-0.19115056097507477,-0.1856103092432022,0.5996078252792358,0.5322163701057434,0.5480430126190186,0.2746416926383972
0.65,0.03417282924056053,0.024277426302433014,0.0,0.6450274586677551,0.0,0.0,-0.7641594409942627,0.7693861126899719,-0.08076305687427521,0.0,0.0,0.0,0.2925335764884949,0.41760513186454773,0.6715531349182129,0.4200281500816345,0.5836724638938904,0.00015874588279984891,-0.0001738266582833603,-0.8119891881942749,-0.10198065638542175,0.04471173882484436,-0.006069459021091461,0.2027008831501007,0.32093149423599243,-0.6380709409713745,0.41579878330230713,0.6843612194061279,0.4354957938194275,0.0044614169746637344,0.179042786359787,0.28754132986068726,0.4203699827194214,0.6779905557632446,0.42000001668930054,-0.3991265296936035,-2.9993956089019775,-1.3322136402130127,-2.9997382164001465,-0.16682004928588867,-0.1720886528491974,-0.18101835250854492,-0.1795240342617035,0.5768337249755859,0.5416402816772461,0.5925844311714172,0.3915744721889496
0.6666666666666666,0.04814903065562248,0.020451847463846207,0.0,0.6574149131774902,0.0,0.0,-0.7535287737846375,0.87152099609375,-0.29394492506980896,0.0,0.0,0.0,2.762030839920044,0.41685542464256287,0.671881914138794,0.41999995708465576,0.5822259783744812,1.5959627717165858e-06,-1.7845579804998124e-06,-0.8130269050598145,-0.024698900058865547,0.010501564480364323,-1.2339442037045956e-05,-0.0004334097320679575,0.0005545158055610955,-0.09878837317228317,0.4164990484714508,0.6859717965126038,0.4428374767303467,0.08371047675609589,0.04706227779388428,0.6510546207427979,0.4203699827194214,0.6779905557632446,0.42000001668930054,-0.44913971424102783,-2.999999761581421,-1.3822319507598877,-2.999998092651367,-0.16022522747516632,-0.16511595249176025,-0.17222091555595398,-0.1727094203233719,0.3137717545032501,0.37028637528419495,0.5131474733352661,0.4508635997772217
0.6833333333333333,0.06372878700494766,0.013550194911658764,0.0,0.6569356322288513,0.0,0.0,-0.7539466619491577,0.9739189147949219,-0.4626805782318115,0.0,0.0,0.0,-1.0771337747573853,0.41685524582862854,0.6718820333480835,0.42000001668930054,0.5822262167930603,1.3503546369975084e-06,-2.4228270376625005e-06,-0.8130267858505249,0.00020474140183068812,-0.00017413299065083265,-8.666631765663624e-05,0.003489402122795582,0.0007877503521740437,-0.000732776359654963,0.4231511056423187,0.6863057613372803,0.4530327320098877,0.6350194215774536,-0.032220639288425446,0.723112940788269,0.4203699827194214,0.6779905557632446,0.42000001668930054,-0.49915242195129395,-2.999999523162842,-1.4322502613067627,-2.999999761581421,-0.1568191945552826,-0.16035349667072296,-0.16469155251979828,-0.16540014743804932,0.1635333001613617,0.26000067591667175,0.4378410279750824,0.4600163996219635
0.7,0.08190111070871353,0.0071321818977594376,0.0,0.6334920525550842,0.0,0.0,-0.7737492322921753,1.135811448097229,-0.3804161846637726,0.0,0.0,0.0,-4.6574907302856445,0.41685524582862854,0.6718820929527283,0.4200000464916229,0.5822262167930603,2.6772332262225973e-07,-3.1512427085544914e-06,-0.8130268454551697,0.00010640786786098033,-0.0002661501639522612,-8.984236046671867e-05,0.006286404561251402,-0.001446459675207734,-0.0006815631058998406,0.4399193525314331,0.6848688125610352,0.4726980924606323,1.3734257221221924,-0.129851296544075,1.749182939529419,0.4203699827194214,0.6779905557632446,0.42000001668930054,-0.5491650104522705,-2.999957323074341,-1.4822685718536377,-2.999997854232788,-0.15825402736663818,-0.15965019166469574,-0.1606311798095703,-0.16024421155452728,-0.17268000543117523,-0.03654579818248749,0.16550911962985992,0.25162750482559204
0.7166666666666667,0.09784479439258575,0.004849829711019993,0.0,0.622591495513916,0.0,0.0,-0.7825469970703125,0.8872537016868591,-0.1565185934305191,0.0,0.0,0.0,-0.6697407960891724,0.41685524582862854,0.6718820929527283,0.4200000464916229,0.5822260975837708,2.3749016975216364e-07,-3.169512638123706e-06,-0.8130269646644592,0.00010516792826820165,-0.0002683792554307729,-8.941954001784325e-05,0.00635232450440526,-0.0014665001071989536,-0.0006810143240727484,0.4634985327720642,0.6864787340164185,0.5061699151992798,1.4983060359954834,0.32319286465644836,2.2070116996765137,0.4203699827194214,0.6779905557632446,0.42000001668930054,-0.5715411305427551,0.06839191913604736,-1.5322868824005127,-2.9999983310699463,-0.16254423558712006,-0.16217051446437836,-0.16050924360752106,-0.15917253494262695,-0.07168950140476227,-0.047683924436569214,0.021737568080425262,0.009367254562675953
0.7333333333333333,0.10929454118013382,0.00423126295208931,0.0,0.6357625126838684,0.0,0.0,-0.7718847393989563,0.6132979393005371,0.008588133379817009,0.0,0.0,0.0,2.877171039581299,0.41685524582862854,0.6718820929527283,0.4200000464916229,0.5822262763977051,2.5525289970573795e-07,-3.418666892684996e-06,-0.8130267262458801,0.00010658684186637402,-0.00026729347882792354,-8.975248783826828e-05,0.006317561492323875,-0.001444501569494605,-0.0006829001358710229,0.4852900505065918,0.6908496618270874,0.5372751951217651,1.0591967105865479,0.2601328194141388,1.6114627122879028,0.4203699827194214,0.6779905557632446,0.42000001668930054,-0.5489240288734436,2.4216806888580322,-1.4934654235839844,3.000000238418579,-0.1627039909362793,-0.16203461587429047,-0.15945719182491302,-0.15829972922801971,0.053690362721681595,0.06450313329696655,0.10369623452425003,0.09041175246238708
0.75,0.11601777374744415,-0.00018266933329869062,0.0,0.6363054513931274,0.0,0.0,-0.7714371681213379,0.3611431419849396,-0.3079869747161865,0.0,0.0,0.0,-0.8954637050628662,0.41685524582862854,0.6718820929527283,0.4200000464916229,0.5822261571884155,2.9168447213123727e-07,-3.2561708849243587e-06,-0.8130267858505249,0.00010321677837055176,-0.0002668945526238531,-8.903141133487225e-05,0.006326154340058565,-0.0014827704289928079,-0.0006748448358848691,0.49567538499832153,0.6964293718338013,0.5583418011665344,0.13489145040512085,0.27168092131614685,1.0784022808074951,0.4203699827194214,0.6779905557632446,0.42000001668930054,-0.5248669981956482,0.6036319136619568,-1.4434127807617188,3.000000476837158,-0.15918101370334625,-0.15872003138065338,-0.15601058304309845,-0.15537208318710327,0.10358366370201111,0.1170082613825798,0.1404009461402893,0.1319005936384201
0.7666666666666666,0.11942793428897858,-0.00035653679515235126,0.0,0.6471794843673706,0.0,0.0,-0.7623376846313477,0.13565099239349365,-0.006811498198658228,0.0,0.0,0.0,2.3723514080047607,0.41685524582862854,0.6718820929527283,0.4200000464916229,0.582226037979126,2.3339950416811917e-07,-3.2749103411333635e-06,-0.8130269050598145,0.00010557685163803399,-0.00026833423180505633,-8.951057679951191e-05,0.006348986644297838,-0.0014614132232964039,-0.000681864155922085,0.49445468187332153,0.6990153789520264,0.570820689201355,-0.1644807904958725,0.20023733377456665,0.46558576822280884,0.4203699827194214,0.6779905557632446,0.42000001668930054,-0.5005928874015808,2.1556644439697266,-1.4606842994689941,-2.999999761581421,-0.1606370210647583,-0.15925399959087372,-0.15561267733573914,-0.15447255969047546,0.06136532500386238,0.08336058259010315,0.10386238247156143,0.11129255592823029
0.7833333333333333,0.11916724592447281,-0.0006796426605433226,0.0,0.6437386870384216,0.0,0.0,-0.7652453780174255,-0.06771264970302582,-0.002958382247015834,0.0,0.0,0.0,-1.4635297060012817,0.41685524582862854,0.6718820929527283,0.4200000464916229,0.582226037979126,2.2503290608710813e-07,-3.107279781033867e-06,-0.8130269050598145,0.00010502061195438728,-0.0002685316721908748,-8.939718827605247e-05,0.006356921512633562,-0.0014693373814225197,-0.0006809214246459305,0.4857173562049866,0.7033195495605469,0.5729821920394897,-0.8743332624435425,0.27768009901046753,-0.021282009780406952,0.4203699827194214,0.6779905557632446,0.42000001668930054,-0.48873090744018555,-0.5117148160934448,-1.4220677614212036,2.999999761581421,-0.15959689021110535,-0.15805116295814514,-0.1543062925338745,-0.15310688316822052,0.055124491453170776,0.06389550119638443,0.06553923338651657,0.07146719843149185
0.8,0.12001387774944305,0.0009723074617795646,0.0,0.6502329111099243,0.0,0.0,-0.7597349286079407,0.10010496526956558,0.20359021425247192,0.0,0.0,0.0,1.7841463088989258,0.41685524582862854,0.6718820929527283,0.4200000464916229,0.5822262167930603,2.5800375169637846e-07,-3.354218279127963e-06,-0.8130267858505249,0.00010647872841218486,-0.000267323775915429,-8.97322315722704e-05,0.006318826228380203,-0.001445996924303472,-0.0006827094475738704,0.47274279594421387,0.7086445093154907,0.5724111795425415,-0.7057003974914551,0.36223354935646057,-0.004508607089519501,0.4203699827194214,0.6779905557632446,0.42000001668930054,-0.4821496605873108,1.1519715785980225,-1.4397741556167603,-2.999999523162842,-0.15797516703605652,-0.15667474269866943,-0.15326692163944244,-0.15216152369976044,0.09414114058017731,0.06795348972082138,0.03588214889168739,0.025142502039670944
0.8166666666666667,0.12112054973840714,0.0004364966007415205,0.0,0.6451500058174133,0.0,0.0,-0.7640559673309326,0.0716414600610733,-0.08915622532367706,0.0,0.0,0.0,-1.6319360733032227,0.41685524582862854,0.6718820929527283,0.4200000464916229,0.5822262167930603,2.3407078231230116e-07,-3.1890097034192877e-06,-0.8130267858505249,0.00010535398905631155,-0.0002670294779818505,-8.950219489634037e-05,0.0063175237737596035,-0.001458304817788303,-0.0006799342227168381,0.4614201486110687,0.7137826085090637,0.5687053203582764,-0.6747676134109497,0.21252460777759552,-0.2698599100112915,0.4203699827194214,0.6779905557632446,0.42000001668930054,-0.5061128735542297,-3.0,-1.4012168645858765,2.9999992847442627,-0.1558803766965866,-0.1550188660621643,-0.15213218331336975,-0.15108920633792877,0.06227872148156166,0.05701558664441109,0.04547259211540222,0.06376208364963531
0.8333333333333334,0.12443415075540543,-0.00016810098895803094,0.0,0.6521391272544861,0.0,0.0,-0.7580993175506592,0.2476307898759842,-0.05624265596270561,0.0,0.0,0.0,2.004254102706909,0.41685524582862854,0.6718820929527283,0.4200000464916229,0.5822260975837708,2.5130955805252597e-07,-3.207367171853548e-06,-0.8130269050598145,0.00010528858547331765,-0.00026835690368898213,-8.944910950958729e-05,0.00635118642821908,-0.0014650350203737617,-0.0006812584470026195,0.4542778730392456,0.7158976197242737,0.5670045614242554,-0.17779649794101715,0.10977014899253845,0.08879132568836212,0.4203699827194214,0.6779905557632446,0.42000001668930054,-0.5363119840621948,-0.7899537682533264,-1.4193320274353027,-3.0000007152557373,-0.15741874277591705,-0.15593738853931427,-0.1525491327047348,-0.150492325425148,-0.1082109734416008,-0.06122018024325371,-0.019884034991264343,0.05505399405956268
0.85,0.12970653176307678,-0.003457995131611824,0.0,0.6477441787719727,0.0,0.0,-0.7618579268455505,0.34900954365730286,-0.2724379897117615,0.0,0.0,0.0,-1.5619004964828491,0.41685524582862854,0.6718820929527283,0.4200000464916229,0.5822259783744812,2.4791097530396655e-07,-3.2251004995487165e-06,-0.813027024269104,0.00010547614510869607,-0.0002683776256162673,-8.949474431574345e-05,0.006350615061819553,-0.0014629776123911142,-0.0006817078101448715,0.4531463384628296,0.7150019407272339,0.5647338628768921,0.04932801425457001,-0.2087785005569458,-0.1600809395313263,0.4203699827194214,0.6779905557632446,0.42000001668930054,-0.5741235613822937,-3.000000476837158,-1.3808332681655884,3.000000238418579,-0.1602957546710968,-0.15764853358268738,-0.15313254296779633,-0.14933881163597107,-0.1687513291835785,-0.08149345964193344,0.005118400789797306,0.1292843073606491
0.8666666666666667,0.1375400424003601,-0.00472524156793952,0.0,0.623128354549408,0.0,0.0,-0.7821195721626282,0.51799076795578,-0.018230171874165535,0.0,0.0,0.0,-4.685279846191406,0.41685524582862854,0.6718820929527283,0.4200000464916229,0.5822259783744812,2.3408749427744624e-07,-3.244782192268758e-06,-0.813027024269104,0.00010564420517766848,-0.00026843068189918995,-8.955295197665691e-05,0.006350881420075893,-0.0014619420981034636,-0.000682206591591239,0.4593440890312195,0.7120898365974426,0.565127432346344,0.6498069763183594,-0.14801687002182007,0.3519209027290344,0.4203699827194214,0.6779905557632446,0.42000001668930054,-0.6055753827095032,-0.928173840045929,-1.3993501663208008,-3.000000238418579,-0.1636219024658203,-0.1600431650876999,-0.15454083681106567,-0.1490871161222458,-0.16800600290298462,-0.13519327342510223,-0.09804388135671616,-0.020375611260533333
0.8833333333333333,0.1462239772081375,-0.002729816362261772,0.0,0.6131152510643005,0.0,0.0,-0.7899934649467468,0.5417935252189636,0.18194220960140228,0.0,0.0,0.0,-0.5374512076377869,0.4168552756309509,0.6718820929527283,0.4200000464916229,0.5822259783744812,2.3276952276773955e-07,-3.2661619115970097e-06,-0.8130269050598145,0.00010576818021945655,-0.0002683984930627048,-8.958159014582634e-05,0.0063493577763438225,-0.001460322760976851,-0.0006824414012953639,0.46832963824272156,0.7134302854537964,0.5733115673065186,0.4193115234375,0.26432666182518005,0.5918724536895752,0.4203699827194214,0.6779905557632446,0.42000001668930054,-0.5955971479415894,1.874367356300354,-1.4493684768676758,-3.0000007152557373,-0.16498306393623352,-0.16154590249061584,-0.15615974366664886,-0.15021869540214539,-0.010167655535042286,-0.05286398157477379,-0.09788858145475388,-0.1118936762213707
