vladlanda/robotic-transformer/data/env_000_episode_0136.csv
sim_time_s,robot_box_x,robot_box_y,robot_box_z,robot_box_quat_w,robot_box_quat_x,robot_box_quat_y,robot_box_quat_z,robot_box_linvel_x,robot_box_linvel_y,robot_box_linvel_z,robot_box_angvel_x,robot_box_angvel_y,robot_box_angvel_z,cube_world_x,cube_world_y,cube_world_z,cube_quat_w,cube_quat_x,cube_quat_y,cube_quat_z,cube_linvel_x,cube_linvel_y,cube_linvel_z,cube_angvel_x,cube_angvel_y,cube_angvel_z,endpoint_world_x,endpoint_world_y,endpoint_world_z,endpoint_linvel_x,endpoint_linvel_y,endpoint_linvel_z,target_cube_world_x,target_cube_world_y,target_cube_world_z,gripper_actual_pos_rad_gp_leftgearjoint,gripper_actual_vel_rad_s_gp_leftgearjoint,gripper_actual_pos_rad_gp_rotatingjoint,gripper_actual_vel_rad_s_gp_rotatingjoint,motor_angle_rad_joint1,motor_angle_rad_joint2,motor_angle_rad_joint3,motor_angle_rad_joint4,motor_speed_rad_s_joint1,motor_speed_rad_s_joint2,motor_speed_rad_s_joint3,motor_speed_rad_s_joint4
0.0,0.0,0.0,0.0,1.0,0.0,0.0,0.0,0.0,0.0,0.0,0.0,0.0,0.0,-0.3655073344707489,0.7518643736839294,0.41999998688697815,1.0,0.0,0.0,0.0,0.0,0.0,0.0,0.0,0.0,0.0,3.42540442943573e-06,-0.005000244826078415,1.313499927520752,0.0,0.0,0.0,0.4602499306201935,0.7479704022407532,0.42000001668930054,-1.5707999467849731,0.0,0.0,0.0,0.0,0.0,0.0,0.0,0.0,0.0,0.0,0.0
0.016666666666666666,0.002904616529121995,0.002134085400030017,0.0,0.9998701214790344,0.0,0.0,0.016117626801133156,0.24139469861984253,0.18119454383850098,0.0,0.0,0.0,3.1421544551849365,-0.36550745368003845,0.7518640756607056,0.41999998688697815,1.0,3.279964630564791e-06,-8.339746386809566e-07,8.465587342243452e-08,-1.9833529222523794e-05,0.00017983045836444944,-6.132945418357849e-05,0.0009432713268324733,-0.004689474124461412,-0.00031981561915017664,-0.007095770910382271,0.003467325121164322,1.3159457445144653,-0.811995267868042,0.9895014762878418,0.1809166967868805,0.4602499306201935,0.7479704022407532,0.42000001668930054,-1.5301095247268677,3.00000262260437,-0.0458545945584774,-3.000001907348633,0.0008777081384323537,0.0008038273663260043,0.0007177810766734183,0.000618604535702616,0.11081105470657349,0.09746188670396805,0.08325234055519104,0.06811989098787308
0.03333333333333333,0.00899080466479063,0.006737259216606617,0.0,0.9998600482940674,0.0,0.0,0.01673075370490551,0.40723782777786255,0.3142308294773102,0.0,0.0,0.0,-0.8681280016899109,-0.365507572889328,0.7518640160560608,0.4200000464916229,1.0,3.3908731893461663e-06,-2.1324503904907033e-06,-3.710378493337885e-08,0.0002635771525092423,0.00026937818620353937,-0.00010509602725505829,-0.0017707280348986387,0.0041307248175144196,-0.00013547952403314412,-0.025878358632326126,0.02659628726541996,1.3167961835861206,-1.4097979068756104,1.6363098621368408,-0.0611310712993145,0.4602499306201935,0.7479704022407532,0.42000001668930054,-1.4800901412963867,3.000002384185791,-0.09589442610740662,-3.000000476837158,0.0028258617967367172,0.002429747022688389,0.001995817758142948,0.0015218445332720876,0.14387568831443787,0.11339918524026871,0.0814269557595253,0.047849610447883606
0.05,0.018495280295610428,0.013827278278768063,0.0,0.9999452829360962,0.0,0.0,-0.010463235899806023,0.6355254650115967,0.47122201323509216,0.0,0.0,0.0,-4.073544025421143,-0.3655076026916504,0.7518640756607056,0.4200000464916229,1.0,3.765210749406833e-06,-2.211951823483105e-06,5.613643327961881e-09,0.00026530795730650425,0.0002669148670975119,-0.00010440382175147533,-0.001724369591102004,0.004177452996373177,-0.00012949664960615337,-0.05172199755907059,0.05887344479560852,1.3130435943603516,-1.706952452659607,2.1597847938537598,-0.38367635011672974,0.4602499306201935,0.7479704022407532,0.42000001668930054,-1.4300718307495117,3.000000476837158,-0.145933136343956,-2.9999990463256836,0.005334693938493729,0.004328208044171333,0.003249368630349636,0.0020946732256561518,0.16770519316196442,0.12150784581899643,0.07339192926883698,0.023271288722753525
0.06666666666666667,0.030936531722545624,0.023312758654356003,0.0,0.999782145023346,0.0,0.0,-0.020871814340353012,0.7756734490394592,0.6162114143371582,0.0,0.0,0.0,-0.007117174100130796,-0.3655076026916504,0.7518640160560608,0.4200000464916229,0.9999999403953552,3.4067904834955698e-06,-2.285614755237475e-06,4.3009768546653504e-07,0.00026702461764216423,0.00026791743584908545,-0.00010437914170324802,-0.0017406983533874154,0.004211690742522478,-0.00012850519851781428,-0.0833783745765686,0.09445361793041229,1.3043711185455322,-1.977231740951538,2.24466609954834,-0.6523256301879883,0.4602499306201935,0.7479704022407532,0.42000001668930054,-1.3800458908081055,3.0000009536743164,-0.14570187032222748,2.5440542697906494,0.0072464728727936745,0.005400320049375296,0.003441841807216406,0.0013662894489243627,0.08728879690170288,0.02912738174200058,-0.031193876639008522,-0.09372000396251678
0.08333333333333333,0.037012048065662384,0.03673986345529556,0.0,0.9990091323852539,0.0,0.0,-0.04450495168566704,0.2293558269739151,0.8799085021018982,0.0,0.0,0.0,-3.7820513248443604,-0.3655076026916504,0.7518640160560608,0.4200000464916229,0.9999999403953552,3.6261469631426735e-06,-2.335380486329086e-06,3.03218911312797e-07,0.00026613997761160135,0.00026685072225518525,-0.00010405411012470722,-0.00172830477822572,0.004196411930024624,-0.00012791113113053143,-0.11121048033237457,0.13556861877441406,1.2912981510162354,-1.3975255489349365,2.6927690505981445,-0.8418805599212646,0.4602499306201935,0.7479704022407532,0.42000001668930054,-1.3300464153289795,3.000000476837158,-0.18019512295722961,-3.000000476837158,0.0024200226180255413,-0.00021479715360328555,-0.00301622087135911,-0.00599267054349184,-0.4166603684425354,-0.4757233262062073,-0.5375365614891052,-0.6023396253585815
0.1,0.04692237079143524,0.051708534359931946,0.0,0.9954113960266113,0.0,0.0,-0.09568774700164795,0.7390496134757996,0.9043729305267334,0.0,0.0,0.0,-6.937741279602051,-0.3655076026916504,0.7518640160560608,0.4200000464916229,1.0,3.422160716581857e-06,-2.3086697638063924e-06,1.7963446907742764e-07,0.0002668171364348382,0.00026800541672855616,-0.00010440940968692303,-0.0017430626321583986,0.0042071714997291565,-0.00012891193910036236,-0.13545992970466614,0.18217423558235168,1.2777127027511597,-1.5167995691299438,2.9371261596679688,-0.8506827354431152,0.4602499306201935,0.7479704022407532,0.42000001668930054,-1.280043363571167,2.999999523162842,-0.23019786179065704,-3.0000007152557373,-1.8921049559139647e-05,-0.004194251727312803,-0.008538605645298958,-0.013060485944151878,-0.05778323486447334,-0.15827129781246185,-0.25767484307289124,-0.35592135787010193
0.11666666666666667,0.05526360124349594,0.06465956568717957,0.0,0.9918293952941895,0.0,0.0,-0.127571240067482,0.5497673749923706,0.6792184710502625,0.0,0.0,0.0,-2.557720899581909,-0.3655076026916504,0.7518640756607056,0.4200000464916229,1.0,3.711574436238152e-06,-2.3327409053308656e-06,2.57429746852722e-07,0.0002648569061420858,0.00026635389076545835,-0.00010423175990581512,-0.001718113082461059,0.00417000986635685,-0.00012916083505842835,-0.16540074348449707,0.22939440608024597,1.2613898515701294,-1.771674633026123,3.062737464904785,-0.9952812194824219,0.4602499306201935,0.7479704022407532,0.42000001668930054,-1.230027198791504,2.9999866485595703,-0.19621483981609344,3.0000009536743164,-0.00347722927108407,-0.009163864888250828,-0.014994509518146515,-0.02097763679921627,-0.08489358425140381,-0.1975000649690628,-0.3065296709537506,-0.41180235147476196
0.13333333333333333,0.061262305825948715,0.07799658924341202,0.0,0.9858015775680542,0.0,0.0,-0.16791439056396484,0.2867531180381775,0.8535493612289429,0.0,0.0,0.0,-5.674365520477295,-0.3655076026916504,0.7518640160560608,0.4200000464916229,1.0,3.335777364554815e-06,-2.2319622985378373e-06,3.113137267973798e-07,0.0002666980435606092,0.0002675949945114553,-0.00010428577661514282,-0.001737120095640421,0.004205959849059582,-0.0001284073368879035,-0.1930125653743744,0.2831555902957916,1.244117259979248,-1.4688236713409424,3.5139553546905518,-1.1282131671905518,0.4602499306201935,0.7479704022407532,0.42000001668930054,-1.1831659078598022,2.616626501083374,-0.227705717086792,-3.0000007152557373,-0.006538917310535908,-0.014111149124801159,-0.021753696724772453,-0.02947177179157734,-0.26235899329185486,-0.3692423701286316,-0.4715427756309509,-0.5690745115280151
0.15,0.06902952492237091,0.09169548749923706,0.0,0.9770641326904297,0.0,0.0,-0.21294516324996948,0.5432753562927246,0.8088940978050232,0.0,0.0,0.0,-5.1712965965271,-0.3655076026916504,0.7518640160560608,0.4200000464916229,1.0,3.518996436469024e-06,-2.2831670776213286e-06,-3.625500255566294e-07,0.0002661844191607088,0.00026735776918940246,-0.0001042571384459734,-0.0017350405687466264,0.004195826128125191,-0.00012860792048741132,-0.22319771349430084,0.34261325001716614,1.2185683250427246,-1.943407416343689,3.8166627883911133,-1.8783299922943115,0.4602499306201935,0.7479704022407532,0.42000001668930054,-1.1560170650482178,0.7763175964355469,-0.1937609761953354,2.999997854232788,-0.011108946986496449,-0.02002016268670559,-0.028933553025126457,-0.037853289395570755,-0.3937208652496338,-0.43845808506011963,-0.48040226101875305,-0.519509494304657
0.16666666666666666,0.0748317688703537,0.10292425751686096,0.0,0.970077633857727,0.0,0.0,-0.2427949458360672,0.3040381669998169,0.5689886212348938,0.0,0.0,0.0,-2.8748486042022705,-0.3655076026916504,0.7518640160560608,0.4200000464916229,1.0,3.6666856431111228e-06,-2.3392326511384454e-06,-3.1500661634709104e-07,0.0002659590682014823,0.0002666739746928215,-0.00010403734631836414,-0.001725408830679953,0.004192907828837633,-0.00012778787640854716,-0.25759202241897583,0.40540164709091187,1.1827406883239746,-1.901279330253601,3.973511219024658,-2.378858804702759,0.4602499306201935,0.7479704022407532,0.42000001668930054,-1.1133382320404053,3.000002384185791,-0.22523508965969086,-3.0000007152557373,-0.02034696936607361,-0.029621688649058342,-0.03886403143405914,-0.0480816587805748,-0.5967337489128113,-0.6108992695808411,-0.6231005787849426,-0.6335646510124207
0.18333333333333332,0.07670889049768448,0.11489012837409973,0.0,0.9584475755691528,0.0,0.0,-0.28526875376701355,0.04729671776294708,0.7540764212608337,0.0,0.0,0.0,-6.094097137451172,-0.3655076026916504,0.7518640160560608,0.4200000464916229,1.0,3.8144271456985734e-06,-2.399574441369623e-06,-2.7028085014535463e-07,0.00026549104950390756,0.0002661106700543314,-0.00010391208343207836,-0.0017177473055198789,0.004184795543551445,-0.00012754145427607,-0.2891414165496826,0.47502946853637695,1.1352965831756592,-1.7371176481246948,4.408839225769043,-3.2625393867492676,0.4602499306201935,0.7479704022407532,0.42000001668930054,-1.0648022890090942,2.799668073654175,-0.2752634584903717,-3.0,-0.03261534869670868,-0.041750822216272354,-0.05082070082426071,-0.05984003096818924,-0.7721849679946899,-0.7509812116622925,-0.7277771830558777,-0.7030503749847412
0.2,0.082309789955616,0.12819218635559082,0.0,0.9508095979690552,0.0,0.0,-0.3097758889198303,0.296497106552124,0.883736789226532,0.0,0.0,0.0,-2.05306339263916,-0.3655076026916504,0.7518640160560608,0.4200000464916229,1.0,3.600128366088029e-06,-2.2912661279406166e-06,-2.201928452905122e-07,0.0002657302829902619,0.0002664499043021351,-0.00010398216545581818,-0.0017227501375600696,0.004188836552202702,-0.00012773204070981592,-0.32071900367736816,0.5457970499992371,1.0721348524093628,-1.6659066677093506,4.270604610443115,-4.334750175476074,0.4602499306201935,0.7479704022407532,0.42000001668930054,-1.015091896057129,2.9999990463256836,-0.32528987526893616,-3.0000007152557373,-0.04365229234099388,-0.05225672572851181,-0.060769930481910706,-0.0692177265882492,-0.889177143573761,-0.8076835870742798,-0.7279839515686035,-0.6510568261146545
0.21666666666666667,0.08451039344072342,0.13921037316322327,0.0,0.9379242658615112,0.0,0.0,-0.34684011340141296,0.09946700930595398,0.6148236393928528,0.0,0.0,0.0,-5.45889139175415,-0.3655076026916504,0.7518640160560608,0.4200000464916229,0.9999999403953552,3.6396832001628354e-06,-2.2619790343014756e-06,2.2247580488965468e-07,0.000266876129899174,0.0002675456053111702,-0.00010411837138235569,-0.0017403995152562857,0.004211102146655321,-0.0001278344279853627,-0.3464609384536743,0.6150145530700684,0.9920586943626404,-1.2361619472503662,4.100346088409424,-5.21115255355835,0.4602499306201935,0.7479704022407532,0.42000001668930054,-0.965082585811615,3.0,-0.3753153383731842,-3.000000476837158,-0.05910049378871918,-0.06696587800979614,-0.07389671355485916,-0.0808335691690445,-0.9565722346305847,-0.9271298050880432,-0.8263484239578247,-0.7300005555152893
0.23333333333333334,0.08826548606157303,0.15107744932174683,0.0,0.9309011697769165,0.0,0.0,-0.3652712106704712,0.2678128778934479,0.7422440052032471,0.0,0.0,0.0,-1.3294098377227783,-0.365507572889328,0.7518640160560608,0.4200000464916229,1.0,3.4207012049591867e-06,-2.3168170173448743e-06,2.956003584131395e-07,0.00026680107112042606,0.000268039817456156,-0.00010442431084811687,-0.001743763918057084,0.004206912126392126,-0.00012899679131805897,-0.367986798286438,0.673790693283081,0.8978290557861328,-1.043641448020935,3.1829075813293457,-6.015355110168457,0.4602499306201935,0.7479704022407532,0.42000001668930054,-0.9150737524032593,2.999999523162842,-0.42534366250038147,-3.0000030994415283,-0.07515271008014679,-0.08290723711252213,-0.08963032811880112,-0.09468399733304977,-0.9732462763786316,-0.9545456171035767,-0.9408614635467529,-0.8456069231033325
0.25,0.09007870405912399,0.16029822826385498,0.0,0.9186286926269531,0.0,0.0,-0.39512187242507935,0.04789632186293602,0.4871480166912079,0.0,0.0,0.0,-4.744292259216309,-0.3655076026916504,0.7518640160560608,0.4200000464916229,0.9999999403953552,3.3475778309366433e-06,-2.2591987089981558e-06,1.80843230168648e-07,0.00026687668287195265,0.0002679106837604195,-0.00010439427569508553,-0.0017404770478606224,0.004208184313029051,-0.00012870125647168607,-0.38197287917137146,0.7208075523376465,0.790280818939209,-0.5313565731048584,2.408632755279541,-6.73613166809082,0.4602499306201935,0.7479704022407532,0.42000001668930054,-0.8650640249252319,3.000000476837158,-0.47537389397621155,-3.0000007152557373,-0.0916735902428627,-0.09930455684661865,-0.10591419041156769,-0.1108199805021286,-0.9903997182846069,-0.9838628172874451,-0.9721116423606873,-0.9643188714981079
0.26666666666666666,0.08861436694860458,0.1655188798904419,0.0,0.9135450124740601,0.0,0.0,-0.4067375957965851,-0.148048996925354,0.23720575869083405,0.0,0.0,0.0,-0.49867358803749084,-0.3655076026916504,0.7518640160560608,0.4200000464916229,0.9999999403953552,3.5356292755750474e-06,-2.3003199203230906e-06,-1.268551699240561e-07,0.00026601855643093586,0.0002671205438673496,-0.00010419590398669243,-0.0017316712765023112,0.004192938096821308,-0.00012849338236264884,-0.39010581374168396,0.7485716342926025,0.6763194799423218,-0.24198134243488312,1.0306445360183716,-6.907192230224609,0.4602499306201935,0.7479704022407532,0.42000001668930054,-0.8150548934936523,2.999997138977051,-0.5254051089286804,-3.0000014305114746,-0.10823237895965576,-0.11576138436794281,-0.1223086267709732,-0.1271848976612091,-0.9881742596626282,-0.9783229231834412,-0.9712036848068237,-0.967162013053894
0.2833333333333333,0.08487927168607712,0.16733554005622864,0.0,0.9038761854171753,0.0,0.0,-0.42779412865638733,-0.30195483565330505,0.05823157727718353,0.0,0.0,0.0,-3.8319849967956543,-0.3655076026916504,0.7518640756607056,0.4200000464916229,1.0,3.593386736611137e-06,-2.262666157548665e-06,-5.653454238085942e-08,0.00026704760966822505,0.0002677501179277897,-0.0001041668001562357,-0.0017431536689400673,0.004214164335280657,-0.0001278952695429325,-0.38931411504745483,0.757677435874939,0.5596315860748291,0.407069593667984,-0.035937026143074036,-6.886333465576172,0.4602499306201935,0.7479704022407532,0.42000001668930054,-0.7650461196899414,2.9999313354492188,-0.5754348635673523,-2.9999377727508545,-0.12550298869609833,-0.13286420702934265,-0.13928775489330292,-0.14406916499137878,-0.9773886203765869,-0.9813653230667114,-0.9853876233100891,-0.9890945553779602
0.3,0.07827746123075485,0.16644757986068726,0.0,0.9013268351554871,0.0,0.0,-0.4331395924091339,-0.42748594284057617,-0.09727010130882263,0.0,0.0,0.0,0.250978946685791,-0.365507572889328,0.7518640160560608,0.4200000464916229,0.9999999403953552,3.7249612887535477e-06,-2.2361150513461325e-06,3.82876550020228e-07,0.0002647988440003246,0.0002667312219273299,-0.00010453863069415092,-0.0017189474310725927,0.004166778642684221,-0.00013016737648285925,-0.3817729353904724,0.7541686296463013,0.45357370376586914,0.6185519695281982,-0.5101972222328186,-5.827822685241699,0.4602499306201935,0.7479704022407532,0.42000001668930054,-0.7150381207466125,3.0000009536743164,-0.6254625916481018,-2.999999761581421,-0.14298900961875916,-0.15017230808734894,-0.15646477043628693,-0.16114433109760284,-1.0185482501983643,-1.0140798091888428,-1.010661244392395,-1.0079114437103271
0.31666666666666665,0.06953711062669754,0.1630542278289795,0.0,0.9107581973075867,0.0,0.0,-0.41294005513191223,-0.5655984878540039,-0.24822692573070526,0.0,0.0,0.0,3.4589195251464844,-0.3658560514450073,0.7509088516235352,0.42067745327949524,0.999883234500885,0.011720463633537292,-0.005116503685712814,-0.008358845487236977,0.01604880392551422,0.0015232586301863194,0.09522278606891632,2.956007719039917,-1.8928086757659912,0.9999385476112366,-0.37929442524909973,0.7530847787857056,0.4180285334587097,0.01963772624731064,0.3962031602859497,-0.11367207020521164,0.4602499306201935,0.7479704022407532,0.42000001668930054,-0.665062665939331,3.002455234527588,-0.6758967041969299,-2.8460488319396973,-0.1472671627998352,-0.15652982890605927,-0.16465410590171814,-0.17081862688064575,0.28659456968307495,0.07414013147354126,-0.11691597104072571,-0.2778073847293854
0.3333333333333333,0.05878724902868271,0.1571415811777115,0.0,0.9122430086135864,0.0,0.0,-0.40964949131011963,-0.698036789894104,-0.39782342314720154,0.0,0.0,0.0,-0.5339676141738892,-0.36548057198524475,0.7512087821960449,0.42075803875923157,0.9997655153274536,0.018253739923238754,-0.001214528689160943,-0.01157910656183958,0.060679785907268524,0.0855119451880455,-0.016027837991714478,0.5307533740997314,1.3092501163482666,-2.173553943634033,-0.3799130618572235,0.7568278908729553,0.4266429543495178,0.21621769666671753,0.05937232822179794,-0.19647431373596191,0.4602499306201935,0.7479704022407532,0.42000001668930054,-0.6150558590888977,2.9999899864196777,-0.7259456515312195,-3.0000007152557373,-0.14458167552947998,-0.15601415932178497,-0.1659170389175415,-0.17339101433753967,-0.08244340866804123,-0.12388860434293747,-0.1482999324798584,-0.15484538674354553
0.35,0.05079951137304306,0.1483605057001114,0.0,0.9190319180488586,0.0,0.0,-0.39418306946754456,-0.3813747465610504,-0.5797910690307617,0.0,0.0,0.0,2.8613412380218506,-0.36289146542549133,0.754621684551239,0.4200054109096527,0.999131977558136,-1.0714574273151811e-05,-0.00013565519475378096,-0.0416547991335392,0.1686273217201233,0.23038850724697113,-0.0001728168863337487,0.0067069088108837605,0.0008915955550037324,-4.088624000549316,-0.37443315982818604,0.760237991809845,0.4232853055000305,0.48228418827056885,0.3524518311023712,-0.16536234319210052,0.4602499306201935,0.7479704022407532,0.42000001668930054,-0.5650508999824524,2.999894618988037,-0.7759701609611511,-2.9998433589935303,-0.14840607345104218,-0.15935753285884857,-0.1685096174478531,-0.17500083148479462,-0.2981646955013275,-0.22347739338874817,-0.13359132409095764,-0.03286585584282875
0.36666666666666664,0.04117002338171005,0.1379278302192688,0.0,0.9189589023590088,0.0,0.0,-0.39435333013534546,-0.6528071165084839,-0.6514374613761902,0.0,0.0,0.0,-0.9982670545578003,-0.35688450932502747,0.7623907923698425,0.42008501291275024,0.9905658960342407,0.0020868098363280296,-0.00022277256357483566,-0.13702063262462616,0.46385201811790466,0.5634177923202515,0.013809089548885822,0.7661629319190979,-0.17443345487117767,-13.462836265563965,-0.36377090215682983,0.7663765549659729,0.42166823148727417,0.8390655517578125,0.5219172835350037,-0.07080787420272827,0.4602499306201935,0.7479704022407532,0.42000001668930054,-0.5150460600852966,2.9999966621398926,-0.8260120749473572,-2.9999969005584717,-0.15669457614421844,-0.16545121371746063,-0.1721930205821991,-0.1761697679758072,-0.5396840572357178,-0.384966641664505,-0.2191426008939743,-0.050113480538129807
0.3833333333333333,0.029024817049503326,0.12574627995491028,0.0,0.9063610434532166,0.0,0.0,-0.4225040376186371,-0.729027509689331,-0.8222289085388184,0.0,0.0,0.0,-4.595199108123779,-0.34571200609207153,0.7744924426078796,0.42002466320991516,0.9705881476402283,-0.0007143220282159746,0.00010781941091408953,-0.24074473977088928,1.0164238214492798,0.9971411228179932,0.04457478225231171,-2.1194472312927246,0.9123858213424683,-6.166260242462158,-0.3459503650665283,0.776658296585083,0.42156916856765747,1.2273668050765991,0.7933582067489624,0.1192232072353363,0.4602499306201935,0.7479704022407532,0.42000001668930054,-0.46502023935317993,2.9999425411224365,-0.8760371208190918,-2.9996888637542725,-0.16664686799049377,-0.1722387820482254,-0.17558880150318146,-0.17610383033752441,-0.39630836248397827,-0.2318546324968338,-0.04829433560371399,0.14513808488845825
0.4,0.020286526530981064,0.11013394594192505,0.0,0.8803725242614746,0.0,0.0,-0.4742828905582428,-0.48986294865608215,-0.9767817258834839,0.0,0.0,0.0,-7.739194393157959,-0.3175559341907501,0.7968769669532776,0.4221305847167969,0.9569128155708313,-0.01067528035491705,-0.01819617860019207,-0.28960782289505005,1.9662812948226929,1.5602033138275146,0.21415650844573975,14.260710716247559,-17.707725524902344,-2.827397584915161,-0.31793075799942017,0.7974755764007568,0.4239242970943451,2.203768253326416,1.6180365085601807,0.3377439081668854,0.4602499306201935,0.7479704022407532,0.42000001668930054,-0.41519296169281006,2.8050525188446045,-0.9260572195053101,-3.0000011920928955,-0.1736299991607666,-0.17642562091350555,-0.1766688972711563,-0.1739313155412674,-0.46193429827690125,-0.2859421670436859,-0.09468599408864975,0.10149380564689636
0.4166666666666667,0.01373237743973732,0.09814301878213882,0.0,0.8376919627189636,0.0,0.0,-0.5461429953575134,-0.3482574224472046,-0.5357229709625244,0.0,0.0,0.0,-10.807332038879395,-0.2562572956085205,0.8288388252258301,0.4285855293273926,0.9363219738006592,0.045848097652196884,-0.05950576439499855,-0.34301337599754333,4.699726581573486,2.066073417663574,1.4753459692001343,7.274402141571045,-6.447702407836914,6.654158592224121,-0.25644272565841675,0.8293353319168091,0.4308474659919739,4.474635124206543,2.0867929458618164,1.0066936016082764,0.4602499306201935,0.7479704022407532,0.42000001668930054,-0.3873680830001831,1.111415147781372,-0.8926641941070557,3.00069522857666,-0.18834170699119568,-0.18663793802261353,-0.18200765550136566,-0.17462290823459625,-0.992146909236908,-0.7271350026130676,-0.4091966152191162,-0.11247003823518753
0.43333333333333335,0.010826640762388706,0.09033933281898499,0.0,0.7783008217811584,0.0,0.0,-0.6278916001319885,-0.11279480159282684,-0.4156673848628998,0.0,0.0,0.0,-12.898127555847168,-0.16398897767066956,0.8661769032478333,0.44572368264198303,0.910830020904541,0.08462333679199219,-0.07841146737337112,-0.39633217453956604,6.8715925216674805,2.0555012226104736,1.079919695854187,8.512531280517578,-9.354284286499023,6.795000076293945,-0.16393260657787323,0.8671392202377319,0.44791698455810547,6.628849029541016,2.38621187210083,1.1125361919403076,0.4602499306201935,0.7479704022407532,0.42000001668930054,-0.36829155683517456,1.3457379341125488,-0.9192374348640442,-3.0000011920928955,-0.20159073173999786,-0.19712235033512115,-0.18804986774921417,-0.1766357123851776,-0.7667154669761658,-0.600173830986023,-0.36306631565093994,-0.15738040208816528
0.45,0.0060105714946985245,0.08735492825508118,0.0,0.7278090119361877,0.0,0.0,-0.685779869556427,-0.28869423270225525,-0.1478165239095688,0.0,0.0,0.0,-7.918652534484863,-0.053219281136989594,0.8937958478927612,0.4633465111255646,0.8555172681808472,0.10950686037540436,-0.08333706110715866,-0.49915266036987305,6.616003036499023,0.7778728604316711,0.9135115742683411,-2.564544677734375,-5.07729434967041,7.163216590881348,-0.05464223772287369,0.8968123197555542,0.46519505977630615,6.68501091003418,1.3217082023620605,1.0511198043823242,0.4602499306201935,0.7479704022407532,0.42000001668930054,-0.3444226086139679,1.4210227727890015,-0.9692612290382385,-3.0000009536743164,-0.21681009232997894,-0.2104555070400238,-0.19647732377052307,-0.18089517951011658,-0.8211327195167542,-0.706689178943634,-0.4503656327724457,-0.2377462536096573
0.4666666666666667,0.00495018158107996,0.0781901404261589,0.0,0.6988997459411621,0.0,0.0,-0.7152196168899536,0.005084998439997435,-0.6902288794517517,0.0,0.0,0.0,-3.954949378967285,0.05469245836138725,0.905113935470581,0.4778277277946472,0.8242538571357727,0.10240175575017929,-0.07468947768211365,-0.5518521666526794,6.439302444458008,-0.4999265670776367,0.6880155205726624,-2.937270402908325,-20.802091598510742,15.39382266998291,0.054662104696035385,0.9099564552307129,0.4800748825073242,6.426689147949219,0.11712914705276489,0.9187657833099365,0.4602499306201935,0.7479704022407532,0.42000001668930054,-0.3233429193496704,1.0133445262908936,-1.0192844867706299,-3.0000038146972656,-0.22659723460674286,-0.21775196492671967,-0.19955770671367645,-0.18042558431625366,-0.4822479784488678,-0.30067235231399536,-0.04788048565387726,0.16898123919963837
0.48333333333333334,0.0007903313962742686,0.07378983497619629,0.0,0.6933671832084656,0.0,0.0,-0.7205844521522522,-0.1878952980041504,-0.19838927686214447,0.0,0.0,0.0,0.004054824355989695,0.15221796929836273,0.8971490859985352,0.48886314034461975,0.7584119439125061,0.09032034128904343,-0.0625017061829567,-0.6424539685249329,5.153487682342529,-1.7728726863861084,0.4810141623020172,2.480872869491577,-11.26933479309082,29.631107330322266,0.15254947543144226,0.9024479389190674,0.4915428161621094,5.510331153869629,-0.8069480061531067,0.5303228497505188,0.4602499306201935,0.7479704022407532,0.42000001668930054,-0.31121551990509033,0.3795040547847748,-1.0693066120147705,-3.0000035762786865,-0.23999521136283875,-0.22692972421646118,-0.20398031175136566,-0.18088731169700623,-0.008640184067189693,-0.550739049911499,-0.32843834161758423,-0.14615532755851746
0.5,0.00024762196699157357,0.0682474672794342,0.0,0.6788676977157593,0.0,0.0,-0.7342605590820312,0.027150670066475868,-0.3931925296783447,0.0,0.0,0.0,-3.1769802570343018,0.23442083597183228,0.87834632396698,0.4916379153728485,0.7073578834533691,0.07995118945837021,-0.05149562656879425,-0.7004289627075195,4.296450138092041,-2.0018746852874756,0.12724314630031586,4.14428186416626,5.991530418395996,9.051042556762695,0.23495209217071533,0.8828295469284058,0.49442172050476074,4.658362865447998,-1.6201854944229126,-0.06911557912826538,0.4602499306201935,0.7479704022407532,0.42000001668930054,-0.3059372901916504,0.3684561550617218,-1.1193287372589111,-2.9994442462921143,-0.2400004118680954,-0.23397202789783478,-0.20791147649288177,-0.1822936087846756,-0.04091109707951546,-0.34916260838508606,-0.18215210735797882,-0.04868943989276886
0.5166666666666666,0.002641294151544571,0.06527688354253769,0.0,0.6778059005737305,0.0,0.0,-0.7352408766746521,0.17654238641262054,-0.12467290461063385,0.0,0.0,0.0,0.7020509243011475,0.3035774827003479,0.8484843373298645,0.48639145493507385,0.6424729228019714,0.04867510125041008,-0.04300503432750702,-0.7635506987571716,3.4875919818878174,-2.228374481201172,-0.5092297792434692,-3.5691659450531006,7.060150146484375,1.0720670223236084,0.30379170179367065,0.8525699377059937,0.4895910620689392,3.7834312915802,-2.0125527381896973,-0.48263019323349,0.4602499306201935,0.7479704022407532,0.42000001668930054,-0.2952699363231659,0.8332111239433289,-1.1693508625030518,-2.999997615814209,-0.23984365165233612,-0.23907744884490967,-0.21097075939178467,-0.18379922211170197,0.04994598776102066,-0.14218483865261078,-0.08526837080717087,-0.05164027214050293
0.5333333333333333,0.007325321435928345,0.06476961821317673,0.0,0.667150616645813,0.0,0.0,-0.7449228763580322,0.32850876450538635,0.09042774140834808,0.0,0.0,0.0,-2.5331552028656006,0.35786905884742737,0.8184257745742798,0.47155413031578064,0.6106667518615723,0.009790545329451561,-0.04280834272503853,-0.7906690239906311,2.4419126510620117,-2.198178291320801,-0.9504453539848328,-0.3864229619503021,9.24311351776123,13.884242057800293,0.3589668273925781,0.8222365379333496,0.4758259654045105,2.9555749893188477,-1.8300650119781494,-1.0599232912063599,0.4602499306201935,0.7479704022407532,0.42000001668930054,-0.2796287536621094,0.8556649684906006,-1.2193729877471924,-2.99916672706604,-0.2361547201871872,-0.23856399953365326,-0.2110753357410431,-0.18468336760997772,0.2689189910888672,0.11217357963323593,0.021214203909039497,-0.07366884499788284
0.55,0.014842962846159935,0.06067333742976189,0.0,0.6691659688949585,0.0,0.0,-0.7431129813194275,0.431020051240921,-0.2528569996356964,0.0,0.0,0.0,1.2025275230407715,0.3984789550304413,0.7897427678108215,0.45093443989753723,0.5687599778175354,-0.03793167695403099,-0.035732340067625046,-0.8208510279655457,1.351613998413086,-2.2475411891937256,-1.1730663776397705,1.6511784791946411,4.6017961502075195,24.39609718322754,0.3993857502937317,0.7930320501327515,0.4558427333831787,2.0214967727661133,-1.7542564868927002,-1.2946341037750244,0.4602499306201935,0.7479704022407532,0.42000001668930054,-0.2669132649898529,0.5150014162063599,-1.269395112991333,-3.0,-0.2268633395433426,-0.23183836042881012,-0.20709992945194244,-0.1834196001291275,0.4834059476852417,0.3927658200263977,0.2205306589603424,0.047918979078531265
0.5666666666666667,0.023948632180690765,0.060933489352464676,0.0,0.6600921154022217,0.0,0.0,-0.7511846423149109,0.5924463868141174,0.013714797794818878,0.0,0.0,0.0,-2.3043980598449707,0.4267013370990753,0.7648764848709106,0.4232998192310333,0.5411465764045715,-0.11146268993616104,-0.052864354103803635,-0.8318303823471069,1.217919111251831,-1.5737311840057373,-1.7622950077056885,-11.856500625610352,12.42229175567627,8.07328987121582,0.4276163876056671,0.768796980381012,0.4301864206790924,1.5676782131195068,-1.283693552017212,-1.6673929691314697,0.4602499306201935,0.7479704022407532,0.42000001668930054,-0.2589946389198303,0.4749162793159485,-1.2992777824401855,-0.7554208040237427,-0.21907241642475128,-0.22561874985694885,-0.20462289452552795,-0.18455643951892853,0.5873986482620239,0.47466841340065,0.19329307973384857,-0.0721062496304512
0.5833333333333334,0.0352855809032917,0.05813949555158615,0.0,0.6635085940361023,0.0,0.0,-0.7481686472892761,0.7011197209358215,-0.21354125440120697,0.0,0.0,0.0,1.425423502922058,0.4379197359085083,0.7596856951713562,0.423541784286499,0.5408147573471069,-0.06641850620508194,0.004660224542021751,-0.8385024070739746,-0.08861452341079712,-0.5503422021865845,0.22322425246238708,3.569561243057251,10.58841323852539,16.232219696044922,0.4375159740447998,0.7616075873374939,0.4285956025123596,0.36094236373901367,-0.3259912133216858,0.09864762425422668,0.4602499306201935,0.7479704022407532,0.42000001668930054,-0.24600020051002502,0.7338383197784424,-1.3445359468460083,-2.9997501373291016,-0.20687814056873322,-0.21548336744308472,-0.1997409164905548,-0.18447206914424896,0.5960215330123901,0.5229544639587402,0.2287672907114029,-0.042261067777872086
0.6,0.04393850266933441,0.0577552430331707,0.0,0.6555910110473633,0.0,0.0,-0.7551161646842957,0.4567338824272156,0.02405593916773796,0.0,0.0,0.0,-2.191185235977173,0.43975546956062317,0.7546759247779846,0.4220742881298065,0.6033288836479187,-0.040473368018865585,-0.01314089447259903,-0.7963563799858093,-0.07890184223651886,-0.35321903228759766,-0.1093919649720192,0.937863826751709,-4.1740570068359375,15.204060554504395,0.44092702865600586,0.7585033178329468,0.42722463607788086,0.18405406177043915,-0.12605124711990356,-0.0925646722316742,0.4602499306201935,0.7479704022407532,0.42000001668930054,-0.25421226024627686,-1.345788598060608,-1.306220531463623,3.0000033378601074,-0.19711309671401978,-0.206899955868721,-0.1962101012468338,-0.18552806973457336,0.6129942536354065,0.549752950668335,0.24526265263557434,-0.029822226613759995
0.6166666666666667,0.05261747166514397,0.060562241822481155,0.0,0.6597508192062378,0.0,0.0,-0.7514844536781311,0.5543128848075867,0.23159940540790558,0.0,0.0,0.0,1.557374358177185,0.44177302718162537,0.7519792914390564,0.42197197675704956,0.6189759373664856,-0.038743406534194946,-0.01862911880016327,-0.7842325568199158,0.012776371091604233,-0.1283910572528839,-0.01660206727683544,-1.9485894441604614,-1.7523635625839233,3.215064764022827,0.4413515329360962,0.7568935751914978,0.4286237955093384,-0.017647795379161835,-0.04183550179004669,0.15858544409275055,0.4602499306201935,0.7479704022407532,0.42000001668930054,-0.2993050515651703,-2.9999921321868896,-1.3255025148391724,-2.9994754791259766,-0.1872047334909439,-0.19793976843357086,-0.19218286871910095,-0.18588440120220184,0.5661948919296265,0.5268247723579407,0.24897409975528717,0.0027799855452030897
0.6333333333333333,0.06324001401662827,0.05910804867744446,0.0,0.6522563695907593,0.0,0.0,-0.7579984068870544,0.6224578022956848,-0.12513363361358643,0.0,0.0,0.0,-2.1534552574157715,0.4420834481716156,0.750420331954956,0.4211251735687256,0.6295421123504639,-0.021059811115264893,-0.008581222966313362,-0.7766334414482117,0.037996236234903336,-0.06159698963165283,-0.015408806502819061,3.2471272945404053,1.290305256843567,0.5372282266616821,0.442910373210907,0.761338472366333,0.4318031072616577,0.052355535328388214,0.3882368505001068,0.2153400182723999,0.4602499306201935,0.7479704022407532,0.42000001668930054,-0.3492874205112457,-2.9996213912963867,-1.3754631280899048,-2.9990172386169434,-0.173008993268013,-0.184970885515213,-0.18446044623851776,-0.18279843032360077,0.8081696629524231,0.771895170211792,0.4866521954536438,0.23374997079372406
0.65,0.07620754092931747,0.06171095371246338,0.0,0.6564916968345642,0.0,0.0,-0.7543331980705261,0.7917342185974121,0.16116014122962952,0.0,0.0,0.0,1.5517810583114624,0.44203197956085205,0.7496493458747864,0.4200042486190796,0.6306124925613403,0.00010494061280041933,-6.669107096968219e-05,-0.7760977149009705,-0.0385059155523777,-0.0006133901188150048,-0.00449246633797884,-0.08667030930519104,0.2200809121131897,-0.04287873953580856,0.4439585208892822,0.7651241421699524,0.4347892999649048,0.16597509384155273,0.2529161870479584,0.18457451462745667,0.4602499306201935,0.7479704022407532,0.42000001668930054,-0.3992968499660492,-2.999962091445923,-1.4254764318466187,-2.9999637603759766,-0.16500027477741241,-0.1765768676996231,-0.17960621416568756,-0.18108771741390228,0.4908178150653839,0.5031304955482483,0.2990128993988037,0.11769474297761917
0.6666666666666666,0.08602143079042435,0.06034689396619797,0.0,0.6797978281974792,0.0,0.0,-0.733399510383606,0.5207799673080444,-0.1566213220357895,0.0,0.0,0.0,4.802473068237305,0.44203677773475647,0.7496501803398132,0.41999998688697815,0.6306125521659851,-1.8849981415769435e-06,-2.7354308258509263e-06,-0.7760977745056152,-3.232554081478156e-05,-0.000119824951980263,-3.86163592338562e-05,-0.000531919882632792,-0.004788246005773544,-0.0001709523203317076,0.4440711438655853,0.766241729259491,0.43841925263404846,-0.11708153039216995,-0.054589927196502686,0.24926301836967468,0.4602499306201935,0.7479704022407532,0.42000001668930054,-0.44926273822784424,-2.9996511936187744,-1.4754624366760254,-2.99971866607666,-0.15887907147407532,-0.16915878653526306,-0.17414066195487976,-0.17725907266139984,0.258356511592865,0.38516151905059814,0.3366611897945404,0.3031507432460785
0.6833333333333333,0.0960846021771431,0.05508498474955559,0.0,0.689914345741272,0.0,0.0,-0.723891019821167,0.6365124583244324,-0.36053675413131714,0.0,0.0,0.0,0.6430824995040894,0.44203659892082214,0.7496501803398132,0.4200000464916229,0.6306125521659851,4.298049418594019e-07,-3.409051259950502e-06,-0.77609783411026,0.00018658758199308068,-0.00028167726122774184,-0.00010042940266430378,0.005710879806429148,-0.0003363527648616582,-0.000532562262378633,0.4457028806209564,0.7660460472106934,0.4430755376815796,0.19597885012626648,-0.09483662247657776,0.28353676199913025,0.4602499306201935,0.7479704022407532,0.42000001668930054,-0.49926987290382385,-3.000000238418579,-1.5254703760147095,-3.000000476837158,-0.15625576674938202,-0.16392570734024048,-0.16879111528396606,-0.17152567207813263,0.10942552983760834,0.28593888878822327,0.33470991253852844,0.3988434672355652
0.7,0.10791579633951187,0.046954505145549774,0.0,0.6779598593711853,0.0,0.0,-0.7350988984107971,0.7433509230613708,-0.5481398701667786,0.0,0.0,0.0,-2.863189697265625,0.44203659892082214,0.7496501207351685,0.4200000464916229,0.6306127905845642,3.7195735558270826e-07,-3.772148829739308e-06,-0.7760975360870361,0.00018260169599670917,-0.0002832554164342582,-0.00010119564831256866,0.005759557243436575,-0.00044324560440145433,-0.0005276708980090916,0.45394080877304077,0.7674945592880249,0.4554077684879303,0.7394980788230896,0.1893443912267685,1.2671236991882324,0.4602499306201935,0.7479704022407532,0.42000001668930054,-0.5492824912071228,-2.9999845027923584,-1.5754878520965576,-3.0000009536743164,-0.15664175152778625,-0.1613210141658783,-0.16498687863349915,-0.1663055717945099,-0.08927837759256363,0.08903104066848755,0.17762725055217743,0.27655717730522156
0.7166666666666667,0.12351834028959274,0.04464041441679001,0.0,0.6436213850975037,0.0,0.0,-0.7653440237045288,1.0145078897476196,0.0008124835439957678,0.0,0.0,0.0,-6.5196685791015625,0.44203659892082214,0.7496501803398132,0.4200000464916229,0.6306124329566956,5.791474677607766e-07,-3.8398729884647764e-06,-0.77609783411026,0.0001868406543508172,-0.0002825107949320227,-0.0001024038065224886,0.00571923004463315,-0.0003899747971445322,-0.0005369337741285563,0.4743967652320862,0.766990602016449,0.48263925313949585,1.776983618736267,-0.24897585809230804,2.1122512817382812,0.4602499306201935,0.7479704022407532,0.42000001668930054,-0.5992938280105591,-2.9998528957366943,-1.625502347946167,-2.999981641769409,-0.1664605289697647,-0.1668245494365692,-0.16746896505355835,-0.16576187312602997,-0.7593388557434082,-0.47597023844718933,-0.25630488991737366,-0.04105435311794281
0.7333333333333333,0.136276975274086,0.04804567992687225,0.0,0.6209863424301147,0.0,0.0,-0.7838214039802551,0.6554075479507446,-0.03927355259656906,0.0,0.0,0.0,-2.1422781944274902,0.44203659892082214,0.7496501803398132,0.4200000464916229,0.6306126713752747,4.071833359375887e-07,-3.8050093280617148e-06,-0.7760975956916809,0.0001833652495406568,-0.0002829341683536768,-0.00010147877037525177,0.005747695919126272,-0.0004344129119999707,-0.0005294914008118212,0.5003502368927002,0.7653125524520874,0.5198726654052734,1.5466485023498535,0.15142163634300232,2.246166229248047,0.4602499306201935,0.7479704022407532,0.42000001668930054,-0.6183024048805237,0.43434181809425354,-1.6755168437957764,-3.000000238418579,-0.17802947759628296,-0.17448005080223083,-0.17210698127746582,-0.1675599068403244,-0.15886007249355316,-0.08326098322868347,-0.039764367043972015,0.003051715437322855
0.75,0.14370015263557434,0.04916492477059364,0.0,0.6255002021789551,0.0,0.0,-0.7802240252494812,0.3684881925582886,0.11741521209478378,0.0,0.0,0.0,1.5660338401794434,0.44203659892082214,0.7496501803398132,0.4200000464916229,0.6306125521659851,5.39748725714162e-07,-3.8735415728297085e-06,-0.7760977745056152,0.00018228372209705412,-0.00028393277898430824,-0.00010105804540216923,0.005776648875325918,-0.0004499552887864411,-0.0005269085522741079,0.5217239856719971,0.7672467827796936,0.5514147281646729,0.9103840589523315,0.13622108101844788,1.5942952632904053,0.4602499306201935,0.7479704022407532,0.42000001668930054,-0.5888485908508301,2.8618557453155518,-1.6364009380340576,2.999999523162842,-0.17892897129058838,-0.17452175915241241,-0.1716398149728775,-0.1666337549686432,0.033340923488140106,0.0662485808134079,0.08582445234060287,0.09888220578432083
0.7666666666666666,0.14667868614196777,0.04573488235473633,0.0,0.6186990141868591,0.0,0.0,-0.785628080368042,0.18540701270103455,-0.2540771961212158,0.0,0.0,0.0,-1.7854441404342651,0.44203659892082214,0.7496501207351685,0.4200000464916229,0.6306123733520508,5.521225148186204e-07,-3.765614792428096e-06,-0.7760978937149048,0.00018695574544835836,-0.0002827047137543559,-0.00010239635594189167,0.005724214483052492,-0.0003879482392221689,-0.0005371139268390834,0.5294142365455627,0.7731435298919678,0.5720279216766357,-0.04425077512860298,0.31802061200141907,1.016876220703125,0.4602499306201935,0.7479704022407532,0.42000001668930054,-0.5492610931396484,1.9393054246902466,-1.5863444805145264,3.0000009536743164,-0.17400631308555603,-0.1698884218931198,-0.16738077998161316,-0.16286613047122955,0.15526559948921204,0.16674336791038513,0.17432324588298798,0.16693831980228424
0.7833333333333333,0.14705458283424377,0.04775672405958176,0.0,0.6250672936439514,0.0,0.0,-0.7805708646774292,-0.02176208607852459,0.11416931450366974,0.0,0.0,0.0,1.7127256393432617,0.44203659892082214,0.7496501803398132,0.4200000464916229,0.6306124925613403,5.233799242887471e-07,-3.74256819668517e-06,-0.77609783411026,0.00018200944759882987,-0.0002838814107235521,-0.00010100752115249634,0.005776253063231707,-0.00045411521568894386,-0.0005263659404590726,0.5230440497398376,0.7762123346328735,0.586395800113678,-0.5353291034698486,0.2590881586074829,0.7326836585998535,0.4602499306201935,0.7479704022407532,0.42000001668930054,-0.5045896172523499,2.999995708465576,-1.5363261699676514,3.0,-0.17645840346813202,-0.1712009459733963,-0.16762982308864594,-0.1624499261379242,0.035334549844264984,0.050658147782087326,0.0705917626619339,0.07134239375591278
0.8,0.14517180621623993,0.046315472573041916,0.0,0.6192885041236877,0.0,0.0,-0.7851635217666626,-0.1878591924905777,-0.07975739985704422,0.0,0.0,0.0,-1.6151231527328491,0.44203659892082214,0.7496501803398132,0.4200000464916229,0.6306126117706299,5.280776349536609e-07,-3.7185143355600303e-06,-0.7760977745056152,0.0001823036145651713,-0.0002839881635736674,-0.00010105222463607788,0.005778293125331402,-0.0004493449523579329,-0.0005269215907901525,0.5074048638343811,0.7807489633560181,0.5931110382080078,-1.383979082107544,0.24019111692905426,0.23025640845298767,0.4602499306201935,0.7479704022407532,0.42000001668930054,-0.4831654727458954,-0.1732671856880188,-1.4862697124481201,2.9999988079071045,-0.1752011924982071,-0.16979558765888214,-0.1659061759710312,-0.16070325672626495,-0.013410905376076698,0.015666767954826355,0.057195305824279785,0.07954397797584534
0.8166666666666667,0.14489196240901947,0.049212124198675156,0.0,0.6265135407447815,0.0,0.0,-0.7794105410575867,0.022089967504143715,0.1505628228187561,0.0,0.0,0.0,1.8037594556808472,0.44203659892082214,0.7496501803398132,0.4200000464916229,0.6306124925613403,5.295560185913928e-07,-3.949342499254271e-06,-0.7760978937149048,0.00018631044076755643,-0.0002826561685651541,-0.00010223453864455223,0.005726325325667858,-0.0003958188754040748,-0.0005357092595659196,0.4890483021736145,0.7836220264434814,0.5970879793167114,-0.7718714475631714,0.2754879593849182,0.28146976232528687,0.4602499306201935,0.7479704022407532,0.42000001668930054,-0.4670918583869934,1.9085214138031006,-1.5027146339416504,-2.9999992847442627,-0.17709822952747345,-0.17117610573768616,-0.16645972430706024,-0.16068147122859955,0.07788266241550446,0.05155621096491814,0.05449141934514046,0.052511781454086304
0.8333333333333334,0.14668869972229004,0.047887399792671204,0.0,0.6208091378211975,0.0,0.0,-0.7839617133140564,0.13523772358894348,-0.1023157387971878,0.0,0.0,0.0,-1.7821390628814697,0.44203659892082214,0.7496501207351685,0.4200000464916229,0.6306125521659851,5.907357376599975e-07,-3.758008233489818e-06,-0.7760977745056152,0.00018317662761546671,-0.0002832737227436155,-0.00010134768672287464,0.005756853148341179,-0.0004364623746369034,-0.0005289423279464245,0.4761393368244171,0.7883468866348267,0.5986766815185547,-0.8003320693969727,0.17730368673801422,0.07401525974273682,0.4602499306201935,0.7479704022407532,0.42000001668930054,-0.4822103679180145,-3.0000011920928955,-1.4639772176742554,2.9999992847442627,-0.173883318901062,-0.16877959668636322,-0.16432736814022064,-0.15882159769535065,0.12606386840343475,0.0968894511461258,0.09985267370939255,0.10123112797737122
0.85,0.15080644190311432,0.04496442526578903,0.0,0.626835823059082,0.0,0.0,-0.7791513800621033,0.2874581217765808,-0.26471030712127686,0.0,0.0,0.0,1.7423784732818604,0.44203659892082214,0.7496501207351685,0.4200000464916229,0.6306126713752747,5.851684363733511e-07,-3.902786829712568e-06,-0.7760977149009705,0.00018783265841193497,-0.0002818776702042669,-0.00010273326188325882,0.005699438042938709,-0.0003759144456125796,-0.0005392271559685469,0.46852216124534607,0.7888529896736145,0.6006641387939453,-0.142106831073761,-0.030699072405695915,0.2167467474937439,0.4602499306201935,0.7479704022407532,0.42000001668930054,-0.515114963054657,-1.0877569913864136,-1.4808827638626099,-3.000000238418579,-0.17416265606880188,-0.16874004900455475,-0.16343408823013306,-0.15710574388504028,-0.01322854682803154,0.018446840345859528,0.08347854763269424,0.14914308488368988
0.8666666666666667,0.15711955726146698,0.03889495134353638,0.0,0.6207494139671326,0.0,0.0,-0.7840090394020081,0.4179535210132599,-0.4226251542568207,0.0,0.0,0.0,-1.831228256225586,0.44203659892082214,0.7496501803398132,0.4200000464916229,0.6306124925613403,5.446464683700469e-07,-3.967709290009225e-06,-0.7760977745056152,0.00018675994942896068,-0.0002825049450621009,-0.00010239030234515667,0.005719538312405348,-0.00039118152926675975,-0.0005367762059904635,0.46962425112724304,0.7855638265609741,0.6010037064552307,0.2998266816139221,-0.35923367738723755,0.011516224592924118,0.4602499306201935,0.7479704022407532,0.42000001668930054,-0.5551420450210571,-3.000000476837158,-1.4422074556350708,3.0,-0.17555026710033417,-0.16922228038311005,-0.16244083642959595,-0.15458986163139343,-0.07703877985477448,-0.009152707643806934,0.09263820201158524,0.19858063757419586
0.8833333333333333,0.1663007289171219,0.03573213145136833,0.0,0.5933880805969238,0.0,0.0,-0.804916501045227,0.591309130191803,-0.15301284193992615,0.0,0.0,0.0,-4.938811302185059,0.44203659892082214,0.7496501207351685,0.4200000464916229,0.6306126117706299,5.712012125513866e-07,-3.776036692215712e-06,-0.7760977745056152,0.00018317879585083574,-0.0002832702302839607,-0.0001013483852148056,0.005756789352744818,-0.00043633789755403996,-0.0005289425607770681,0.4781111478805542,0.7791163921356201,0.6025809049606323,0.7248014211654663,-0.3596559762954712,0.31634390354156494,0.4602499306201935,0.7479704022407532,0.42000001668930054,-0.5756897330284119,0.26790761947631836,-1.459561824798584,-2.999999761581421,-0.17779144644737244,-0.17082522809505463,-0.16288766264915466,-0.1538095623254776,-0.03925540670752525,-0.044720668345689774,-0.021369513124227524,0.007400414440780878
0.9,0.17296820878982544,0.03483595699071884,0.0,0.5815693736076355,0.0,0.0,-0.8134968280792236,0.3176177144050598,-0.0073151434771716595,0.0,0.0,0.0,-0.7265791893005371,0.44203659892082214,0.7496501803398132,0.4200000464916229,0.6306124329566956,5.235604021436302e-07,-3.820280653599184e-06,-0.77609783411026,0.00018610793631523848,-0.00028251417097635567,-0.00010221637785434723,0.005723052658140659,-0.00039923982694745064,-0.0005353526794351637,0.48866498470306396,0.7758487462997437,0.6080190539360046,0.5056282877922058,-0.0777820274233818,0.31256920099258423,0.4602499306201935,0.7479704022407532,0.42000001668930054,-0.5501672625541687,2.572223663330078,-1.4209420680999756,2.999999761581421,-0.1762227565050125,-0.1699494570493698,-0.16230513155460358,-0.15345287322998047,0.1826423555612564,0.11460863053798676,0.06459632515907288,0.016072873026132584
