vladlanda/robotic-transformer/data/env_000_episode_0287.csv
sim_time_s,robot_box_x,robot_box_y,robot_box_z,robot_box_quat_w,robot_box_quat_x,robot_box_quat_y,robot_box_quat_z,robot_box_linvel_x,robot_box_linvel_y,robot_box_linvel_z,robot_box_angvel_x,robot_box_angvel_y,robot_box_angvel_z,cube_world_x,cube_world_y,cube_world_z,cube_quat_w,cube_quat_x,cube_quat_y,cube_quat_z,cube_linvel_x,cube_linvel_y,cube_linvel_z,cube_angvel_x,cube_angvel_y,cube_angvel_z,endpoint_world_x,endpoint_world_y,endpoint_world_z,endpoint_linvel_x,endpoint_linvel_y,endpoint_linvel_z,target_cube_world_x,target_cube_world_y,target_cube_world_z,gripper_actual_pos_rad_gp_leftgearjoint,gripper_actual_vel_rad_s_gp_leftgearjoint,gripper_actual_pos_rad_gp_rotatingjoint,gripper_actual_vel_rad_s_gp_rotatingjoint,motor_angle_rad_joint1,motor_angle_rad_joint2,motor_angle_rad_joint3,motor_angle_rad_joint4,motor_speed_rad_s_joint1,motor_speed_rad_s_joint2,motor_speed_rad_s_joint3,motor_speed_rad_s_joint4
0.0,0.0,0.0,0.0,1.0,0.0,0.0,0.0,0.0,0.0,0.0,0.0,0.0,0.0,-0.35897693037986755,0.639585554599762,0.41999998688697815,1.0,0.0,0.0,0.0,0.0,0.0,0.0,0.0,0.0,0.0,3.42540442943573e-06,-0.005000244826078415,1.313499927520752,0.0,0.0,0.0,0.4619508981704712,0.6589285135269165,0.42000001668930054,-1.5707999467849731,0.0,0.0,0.0,0.0,0.0,0.0,0.0,0.0,0.0,0.0,0.0
0.016666666666666666,0.00288752350024879,0.0021687401458621025,0.0,0.9998298287391663,0.0,0.0,0.0184476338326931,0.2411249279975891,0.18201014399528503,0.0,0.0,0.0,3.1417291164398193,-0.3589770495891571,0.6395852565765381,0.41999998688697815,1.0,3.279964630564791e-06,-8.339746386809566e-07,8.465587342243452e-08,-1.9833529222523794e-05,0.00017983045836444944,-6.132945418357849e-05,0.0009432713268324733,-0.004689474124461412,-0.00031981561915017664,-0.007106199860572815,0.003407869953662157,1.3159396648406982,-0.8134524822235107,0.987859845161438,0.18097487092018127,0.4619508981704712,0.6589285135269165,0.42000001668930054,-1.5301094055175781,3.000001907348633,-0.045850422233343124,-3.0000009536743164,0.0008706988301128149,0.0007974650361575186,0.0007119323709048331,0.0006118157762102783,0.1109895333647728,0.09762325137853622,0.08340089023113251,0.06829293817281723
0.03333333333333333,0.008972402662038803,0.006783977150917053,0.0,0.9998183846473694,0.0,0.0,0.019057849422097206,0.4071284234523773,0.3149491250514984,0.0,0.0,0.0,-0.8689398765563965,-0.35897716879844666,0.6395851969718933,0.4200000464916229,1.0,3.3908179375430336e-06,-2.132458348569344e-06,-3.7097745320124886e-08,0.00026357852038927376,0.00026937833172269166,-0.00010509369894862175,-0.0017707126680761576,0.004130884539335966,-0.0001354814594378695,-0.02750011906027794,0.026147067546844482,1.3166165351867676,-1.5881901979446411,1.619500994682312,-0.08278311043977737,0.4619508981704712,0.6589285135269165,0.42000001668930054,-1.4800900220870972,2.999999761581421,-0.09589025378227234,-3.000000476837158,0.0029900139197707176,0.0026524802669882774,0.0022770827636122704,0.0018606928642839193,0.16410142183303833,0.13966338336467743,0.11373481154441833,0.08622392266988754
0.05,0.018482482060790062,0.013884215615689754,0.0,0.9999681115150452,0.0,0.0,-0.007986566051840782,0.6360704898834229,0.472033828496933,0.0,0.0,0.0,-4.0736613273620605,-0.35897719860076904,0.6395852565765381,0.4200000464916229,1.0,3.7651902857760433e-06,-2.2119197637948673e-06,5.609367637049445e-09,0.00026530938339419663,0.00026691678795032203,-0.00010440615005791187,-0.0017243892652913928,0.004177466034889221,-0.00012949809024576098,-0.05712582543492317,0.05679299682378769,1.3121259212493896,-1.953470230102539,1.9901134967803955,-0.43615221977233887,0.4619508981704712,0.6589285135269165,0.42000001668930054,-1.4300717115402222,3.000000476837158,-0.1459021121263504,-3.0,0.006009300239384174,0.005170721560716629,0.004259740933775902,0.0032721220050007105,0.20683209598064423,0.16655200719833374,0.1243491992354393,0.08014246821403503
0.06666666666666667,0.03079785779118538,0.023369943723082542,0.0,0.9998629093170166,0.0,0.0,-0.01655840314924717,0.7724127769470215,0.6159691214561462,0.0,0.0,0.0,-0.036847542971372604,-0.35897719860076904,0.6395851969718933,0.4200000464916229,0.9999999403953552,3.406832092878176e-06,-2.28558906201215e-06,4.300801492718165e-07,0.0002670248504728079,0.0002679176686797291,-0.0001043803058564663,-0.00174071139190346,0.00421183044090867,-0.00012850876373704523,-0.09477515518665314,0.08890506625175476,1.3015711307525635,-2.4065427780151367,2.0291900634765625,-0.8200280070304871,0.4619508981704712,0.6589285135269165,0.42000001668930054,-1.3800443410873413,2.9999964237213135,-0.11604975163936615,3.0000011920928955,0.008749454282224178,0.007208714727312326,0.005555372219532728,0.0037842621095478535,0.15339703857898712,0.10410824418067932,0.05268486961722374,9.778887033462524e-09
0.08333333333333333,0.04553353413939476,0.0306716151535511,0.0,0.9992291331291199,0.0,0.0,-0.039257876574993134,0.9501845240592957,0.37725669145584106,0.0,0.0,0.0,-3.5368072986602783,-0.35897719860076904,0.6395851969718933,0.4200000464916229,0.9999999403953552,3.626166289905086e-06,-2.3353043161478126e-06,3.032100153177453e-07,0.00026614085072651505,0.0002668516826815903,-0.00010405341163277626,-0.001728349830955267,0.004196455702185631,-0.0001279077841900289,-0.1299445480108261,0.12737488746643066,1.2872827053070068,-1.8611054420471191,2.5539441108703613,-0.8774486780166626,0.4619508981704712,0.6589285135269165,0.42000001668930054,-1.3300366401672363,3.0,-0.14805619418621063,-3.0,0.009848750196397305,0.007192157208919525,0.0043793427757918835,0.0014192579546943307,0.014984466135501862,-0.07011685520410538,-0.1574932038784027,-0.24644167721271515
0.1,0.05440361425280571,0.04032185673713684,0.0,0.9957836866378784,0.0,0.0,-0.09173230081796646,0.39278072118759155,0.6611282229423523,0.0,0.0,0.0,-7.288758277893066,-0.35897719860076904,0.6395851969718933,0.4200000464916229,1.0,3.4222334761579987e-06,-2.3086047349352157e-06,1.796183539681806e-07,0.0002668157103471458,0.00026800340856425464,-0.00010440708138048649,-0.0017429988365620375,0.004207124002277851,-0.00012891183723695576,-0.1625054031610489,0.17302365601062775,1.2673214673995972,-1.994394302368164,2.909748077392578,-1.4294869899749756,0.4619508981704712,0.6589285135269165,0.42000001668930054,-1.2800183296203613,2.999998092651367,-0.11453919112682343,3.0000014305114746,0.003563900012522936,0.00010801277676364407,-0.0035571358166635036,-0.007417595479637384,-0.4955437183380127,-0.5348461866378784,-0.5766865611076355,-0.6209731698036194
0.11666666666666667,0.05838797986507416,0.0521857813000679,0.0,0.9922432899475098,0.0,0.0,-0.12431085854768753,0.19990915060043335,0.6499307751655579,0.0,0.0,0.0,-2.6355929374694824,-0.35897719860076904,0.6395852565765381,0.4200000464916229,1.0,3.711570343511994e-06,-2.332746134925401e-06,2.5742929210537113e-07,0.0002648576919455081,0.0002663539198692888,-0.00010423408821225166,-0.0017182708252221346,0.004170178435742855,-0.0001291575754294172,-0.20163773000240326,0.21506968140602112,1.2414822578430176,-2.3863754272460938,2.597604751586914,-1.623728632926941,0.4619508981704712,0.6589285135269165,0.42000001668930054,-1.2300227880477905,3.0000007152557373,-0.14651596546173096,-3.0000011920928955,-0.00467668566852808,-0.009019789285957813,-0.013579411432147026,-0.018341263756155968,-0.3917378783226013,-0.4657166302204132,-0.538007915019989,-0.6085730195045471
0.13333333333333333,0.07052906602621078,0.05949552357196808,0.0,0.9858903884887695,0.0,0.0,-0.16739213466644287,0.7995452880859375,0.5190181136131287,0.0,0.0,0.0,-5.723113536834717,-0.35897719860076904,0.6395851969718933,0.4200000464916229,1.0,3.335774863444385e-06,-2.2319691197481006e-06,3.1131583000387764e-07,0.0002666965883690864,0.0002675943251233548,-0.00010428344830870628,-0.0017370636342093349,0.004205815959721804,-0.0001284035388380289,-0.23785331845283508,0.2655896246433258,1.2123217582702637,-1.9485301971435547,3.505270004272461,-1.975557804107666,0.4619508981704712,0.6589285135269165,0.42000001668930054,-1.1800035238265991,2.9995577335357666,-0.12957800924777985,3.0000009536743164,-0.004064167384058237,-0.010571196675300598,-0.01720857061445713,-0.023957429453730583,-0.130713552236557,-0.2388811856508255,-0.3430958390235901,-0.4431876540184021
0.15,0.07941963523626328,0.06559938937425613,0.0,0.9809436202049255,0.0,0.0,-0.19429267942905426,0.4810505509376526,0.30272239446640015,0.0,0.0,0.0,-1.8281630277633667,-0.35897719860076904,0.6395851969718933,0.4200000464916229,1.0,3.51896619577019e-06,-2.2831691239844076e-06,-3.625396516326873e-07,0.00026618328411132097,0.00026735622668638825,-0.00010425481013953686,-0.0017348447581753135,0.004195693414658308,-0.0001286104234168306,-0.2731378674507141,0.32018789649009705,1.1729280948638916,-2.0121822357177734,3.402243137359619,-2.6853954792022705,0.4619508981704712,0.6589285135269165,0.42000001668930054,-1.133005142211914,2.6328072547912598,-0.1614731252193451,-2.9999988079071045,-0.010513294488191605,-0.01815151795744896,-0.02587287686765194,-0.03366206958889961,-0.42991265654563904,-0.484338641166687,-0.5357958078384399,-0.584628701210022
0.16666666666666666,0.08362060785293579,0.07426124811172485,0.0,0.9733917713165283,0.0,0.0,-0.22914724051952362,0.22649894654750824,0.48299843072891235,0.0,0.0,0.0,-4.868574619293213,-0.35897719860076904,0.6395851969718933,0.4200000464916229,1.0,3.6666901905846316e-06,-2.339151933483663e-06,-3.150083500713663e-07,0.00026595874805934727,0.0002666740329004824,-0.00010403385385870934,-0.001725255511701107,0.004192718770354986,-0.0001277866685995832,-0.3052566945552826,0.38048475980758667,1.1194630861282349,-1.8205230236053467,3.791562080383301,-3.548642635345459,0.4619508981704712,0.6589285135269165,0.42000001668930054,-1.0833035707473755,3.0000030994415283,-0.1692124456167221,1.6750468015670776,-0.02148495428264141,-0.029512878507375717,-0.03758009150624275,-0.04568235203623772,-0.581547200679779,-0.6132367849349976,-0.6406378149986267,-0.6642581820487976
0.18333333333333332,0.09340280294418335,0.07829483598470688,0.0,0.9569898247718811,0.0,0.0,-0.29012158513069153,0.6799820065498352,0.24880589544773102,0.0,0.0,0.0,-8.294017791748047,-0.35897719860076904,0.6395851969718933,0.4200000464916229,1.0,3.814420779235661e-06,-2.399499635430402e-06,-2.7027235205423494e-07,0.00026548944879323244,0.0002661115431692451,-0.00010391324758529663,-0.0017178029520437121,0.004184751771390438,-0.00012753890769090503,-0.33120664954185486,0.449462354183197,1.0522007942199707,-1.1325963735580444,4.384153366088867,-4.485054969787598,0.4619508981704712,0.6589285135269165,0.42000001668930054,-1.0332967042922974,3.000000476837158,-0.20809786021709442,-3.0,-0.029195986688137054,-0.0377378836274147,-0.04625284671783447,-0.05474596098065376,-0.6273077726364136,-0.6232151985168457,-0.6172387599945068,-0.6100759506225586
0.2,0.09741099923849106,0.08568465709686279,0.0,0.9441313147544861,0.0,0.0,-0.3295694589614868,0.22967684268951416,0.4513736665248871,0.0,0.0,0.0,-3.629290819168091,-0.35897719860076904,0.6395851969718933,0.4200000464916229,1.0,3.600188847485697e-06,-2.291208829774405e-06,-2.2020329026872787e-07,0.00026573031209409237,0.0002664495841600001,-0.00010398100130259991,-0.0017226987984031439,0.004188769496977329,-0.00012773128401022404,-0.35240066051483154,0.5108269453048706,0.9684547185897827,-0.954513669013977,3.5805768966674805,-5.359464168548584,0.4619508981704712,0.6589285135269165,0.42000001668930054,-0.9832889437675476,3.0000007152557373,-0.25812631845474243,-2.9999988079071045,-0.044870536774396896,-0.053475942462682724,-0.061991363763809204,-0.07027153670787811,-0.7994946241378784,-0.825539231300354,-0.8464010953903198,-0.8534461855888367
0.21666666666666667,0.09982892870903015,0.08908617496490479,0.0,0.9423725008964539,0.0,0.0,-0.33456549048423767,0.10729926824569702,0.06074169650673866,0.0,0.0,0.0,0.34323951601982117,-0.35897719860076904,0.6395851969718933,0.4200000464916229,0.9999999403953552,3.6397420899447752e-06,-2.2619685751124052e-06,2.2246368303058262e-07,0.00026687313220463693,0.00026754301507025957,-0.00010411837138235569,-0.0017404037062078714,0.004211082123219967,-0.00012783679994754493,-0.3728306293487549,0.5584236979484558,0.8775110840797424,-1.04323410987854,2.4545438289642334,-5.620321750640869,0.4619508981704712,0.6589285135269165,0.42000001668930054,-0.9332783222198486,2.999997854232788,-0.3081575036048889,-3.000002384185791,-0.05810663104057312,-0.06677580624818802,-0.07529298961162567,-0.08340440690517426,-0.789661169052124,-0.7801682949066162,-0.7680297493934631,-0.7483906745910645
0.23333333333333334,0.09793999046087265,0.09513849765062332,0.0,0.9358252882957458,0.0,0.0,-0.3524642586708069,-0.17873720824718475,0.3641377389431,0.0,0.0,0.0,-3.0114026069641113,-0.35897716879844666,0.6395851969718933,0.4200000464916229,1.0,3.4208560464321636e-06,-2.3167735889728647e-06,2.955749494049087e-07,0.00026680153678171337,0.000268039497314021,-0.0001044231466948986,-0.001743743778206408,0.004206785000860691,-0.00012899443390779197,-0.3846154808998108,0.5961288213729858,0.7782709002494812,-0.44967007637023926,1.8440719842910767,-6.038942337036133,0.4619508981704712,0.6589285135269165,0.42000001668930054,-0.8832676410675049,2.999971628189087,-0.3581893742084503,-2.999999523162842,-0.07498886436223984,-0.08353385329246521,-0.09194142371416092,-0.09971511363983154,-0.8331080675125122,-0.8651556968688965,-0.8942772150039673,-0.9202378392219543
0.25,0.09999075531959534,0.09609221667051315,0.0,0.9349977970123291,0.0,0.0,-0.35465356707572937,0.08846499770879745,0.04017223045229912,0.0,0.0,0.0,0.30745580792427063,-0.35897719860076904,0.6395851969718933,0.4200000464916229,0.9999999403953552,3.3476892440376105e-06,-2.2591661945625674e-06,1.8082083386161685e-07,0.00026687668287195265,0.0002679106837604195,-0.00010439427569508553,-0.0017404770478606224,0.004208184313029051,-0.00012870125647168607,-0.3942760229110718,0.6195362210273743,0.6784213781356812,-0.4059237837791443,0.8750771284103394,-6.020866870880127,0.4619508981704712,0.6589285135269165,0.42000001668930054,-0.8332578539848328,2.999997138977051,-0.40822112560272217,-2.999999523162842,-0.08763353526592255,-0.09644833952188492,-0.10511945933103561,-0.11309967935085297,-0.992465078830719,-0.9937585592269897,-0.9947801232337952,-0.9871493577957153
0.26666666666666666,0.09736566990613937,0.0955035388469696,0.0,0.9281966090202332,0.0,0.0,-0.37209007143974304,-0.240165576338768,-0.06859112530946732,0.0,0.0,0.0,-3.1231791973114014,-0.35897719860076904,0.6395851969718933,0.4200000464916229,0.9999999403953552,3.5357459182705497e-06,-2.3003199203230906e-06,-1.268702192191995e-07,0.0002660168393049389,0.00026712208637036383,-0.00010419590398669243,-0.0017316138837486506,0.004192820750176907,-0.00012849303311668336,-0.393078088760376,0.6299495697021484,0.5792349576950073,0.4984022080898285,0.3277316391468048,-5.622134208679199,0.4619508981704712,0.6589285135269165,0.42000001668930054,-0.7832490801811218,3.000000476837158,-0.4582519233226776,-3.000002384185791,-0.10569397360086441,-0.11417384445667267,-0.1225910484790802,-0.1303715705871582,-1.0147885084152222,-1.0111281871795654,-1.0083400011062622,-1.0061231851577759
0.2833333333333333,0.09220369905233383,0.09266918897628784,0.0,0.9280034303665161,0.0,0.0,-0.3725716769695282,-0.3121638000011444,-0.224744513630867,0.0,0.0,0.0,0.8696511387825012,-0.35897719860076904,0.6395852565765381,0.4200000464916229,1.0,3.5934981497121044e-06,-2.2626372810918838e-06,-5.6559525063448746e-08,0.00026704746414907277,0.00026775026344694197,-0.00010416866280138493,-0.0017432172317057848,0.004214204382151365,-0.00012789266475010663,-0.3851187229156494,0.6368063688278198,0.49304652214050293,0.5927194356918335,0.4523264765739441,-4.86716365814209,0.4619508981704712,0.6589285135269165,0.42000001668930054,-0.7332403659820557,3.0000016689300537,-0.5082809329032898,-3.000001907348633,-0.12232281267642975,-0.13082365691661835,-0.13928550481796265,-0.14711908996105194,-1.0155364274978638,-1.0117510557174683,-1.0088584423065186,-1.006546139717102
0.3,0.08530332148075104,0.08741065114736557,0.0,0.9222978353500366,0.0,0.0,-0.3864799439907074,-0.4639762043952942,-0.3565308153629303,0.0,0.0,0.0,-2.683201551437378,-0.35897716879844666,0.6395851969718933,0.4200000464916229,0.9999999403953552,3.7250597415550146e-06,-2.236036380054429e-06,3.8286003700704896e-07,0.00026479727239347994,0.00026673031970858574,-0.00010454049333930016,-0.001718925777822733,0.0041666231118142605,-0.00013016141019761562,-0.3689571022987366,0.6419947743415833,0.40990376472473145,1.3289611339569092,0.13523750007152557,-4.969944953918457,0.4619508981704712,0.6589285135269165,0.42000001668930054,-0.6832334399223328,2.9999895095825195,-0.5583083033561707,-3.0000007152557373,-0.13957756757736206,-0.14792075753211975,-0.15626254677772522,-0.16400131583213806,-1.0004963874816895,-1.000355839729309,-1.0002515316009521,-1.0001707077026367
0.31666666666666665,0.076151043176651,0.07991975545883179,0.0,0.9230822920799255,0.0,0.0,-0.38460254669189453,-0.5939502120018005,-0.5062369704246521,0.0,0.0,0.0,1.1366982460021973,-0.3581935167312622,0.6412450075149536,0.4207794964313507,0.999393880367279,0.0008453785558231175,0.018695179373025894,-0.029353898018598557,0.15354488790035248,0.22782547771930695,0.054526567459106445,1.2779251337051392,1.4480547904968262,-5.087228775024414,-0.368813157081604,0.6464394330978394,0.4243030250072479,0.12086502462625504,0.3107185363769531,-0.17453540861606598,0.4619508981704712,0.6589285135269165,0.42000001668930054,-0.6333900690078735,3.0000007152557373,-0.6089386343955994,-2.9985015392303467,-0.14547105133533478,-0.15317946672439575,-0.16051192581653595,-0.1668296754360199,-0.41998425126075745,-0.36487650871276855,-0.2909693419933319,-0.19818182289600372
0.3333333333333333,0.06470252573490143,0.07008837163448334,0.0,0.9178395867347717,0.0,0.0,-0.3969515860080719,-0.730536162853241,-0.6293765902519226,0.0,0.0,0.0,-2.535097122192383,-0.35560840368270874,0.6450316905975342,0.4204430878162384,0.9974973797798157,0.000946433690842241,0.011096269823610783,-0.0698208436369896,0.1952974945306778,0.2753189206123352,-0.03414040431380272,-0.1888284683227539,-1.7493551969528198,-6.077122211456299,-0.3644265830516815,0.6502521634101868,0.4217175245285034,0.3982587456703186,0.2582859694957733,-0.14681296050548553,0.4619508981704712,0.6589285135269165,0.42000001668930054,-0.5833850502967834,2.9999799728393555,-0.6589913368225098,-2.999978542327881,-0.15379096567630768,-0.16011179983615875,-0.16572512686252594,-0.1700269877910614,-0.5188373923301697,-0.41531768441200256,-0.2932697534561157,-0.156353160738945
0.35,0.051498766988515854,0.05806370824575424,0.0,0.9190282821655273,0.0,0.0,-0.3941916227340698,-0.8583022952079773,-0.7609347105026245,0.0,0.0,0.0,1.3002175092697144,-0.3503105640411377,0.6521788239479065,0.4200139045715332,0.9864667654037476,0.00030845392029732466,3.416640538489446e-05,-0.16396073997020721,0.4436061680316925,0.5741551518440247,0.008761391043663025,0.5011191368103027,-0.2037227898836136,-16.557598114013672,-0.35784709453582764,0.6585624814033508,0.4210767149925232,0.49605998396873474,0.7317984104156494,-0.08460114896297455,0.4619508981704712,0.6589285135269165,0.42000001668930054,-0.5333800911903381,2.9999780654907227,-0.7090158462524414,-3.0,-0.1631120890378952,-0.16722619533538818,-0.17030785977840424,-0.17184434831142426,-0.516884446144104,-0.3814592957496643,-0.2261604219675064,-0.05727369338274002
0.36666666666666664,0.041217077523469925,0.043310899287462234,0.0,0.9142109751701355,0.0,0.0,-0.405238538980484,-0.5319342613220215,-0.9341170787811279,0.0,0.0,0.0,-2.3607397079467773,-0.34110572934150696,0.6635090708732605,0.4200007915496826,0.9789149761199951,-6.680370916001266e-06,1.1292088856862392e-05,-0.20426806807518005,0.6184934973716736,0.7357056736946106,-0.0009625130915082991,-0.005427857395261526,-0.031548529863357544,-4.997946739196777,-0.3468296229839325,0.6686023473739624,0.4199886918067932,0.8366822004318237,0.5892162322998047,0.00799054279923439,0.4619508981704712,0.6589285135269165,0.42000001668930054,-0.4833756983280182,2.9999682903289795,-0.7590702772140503,-2.999997138977051,-0.17148490250110626,-0.17290762066841125,-0.17291247844696045,-0.17111815512180328,-0.4529798626899719,-0.273597776889801,-0.07059004157781601,0.1471528857946396
0.3833333333333333,0.03438054025173187,0.025963997468352318,0.0,0.8968368768692017,0.0,0.0,-0.44236135482788086,-0.302011638879776,-1.0986155271530151,0.0,0.0,0.0,-5.775842189788818,-0.3251616060733795,0.6809417605400085,0.42060595750808716,0.9690646529197693,-0.004604102112352848,-0.012330619618296623,-0.2464556246995926,1.2711817026138306,1.3264764547348022,0.08201435953378677,-1.1988775730133057,-4.093388557434082,-5.63303279876709,-0.32899320125579834,0.6832552552223206,0.4218900203704834,1.3826696872711182,1.1590259075164795,0.18538403511047363,0.4619508981704712,0.6589285135269165,0.42000001668930054,-0.4333324134349823,2.9999873638153076,-0.8090808391571045,-2.999994993209839,-0.17811626195907593,-0.17674671113491058,-0.17352767288684845,-0.16823261976242065,-0.32249316573143005,-0.17156201601028442,0.003513711504638195,0.19376984238624573
0.4,0.03031454049050808,0.012827238999307156,0.0,0.8644759654998779,0.0,0.0,-0.5026741027832031,-0.21081481873989105,-0.6604564189910889,0.0,0.0,0.0,-9.0707426071167,-0.28321680426597595,0.7053493857383728,0.425670325756073,0.9530226588249207,0.0003218892961740494,-0.04688427224755287,-0.2992481589317322,3.8363242149353027,1.9137635231018066,0.2770078480243683,21.680522918701172,-15.28134536743164,5.261727809906006,-0.2868824899196625,0.7083935737609863,0.42635577917099,3.553569793701172,1.9409455060958862,0.5335615277290344,0.4619508981704712,0.6589285135269165,0.42000001668930054,-0.3963891565799713,1.3830190896987915,-0.8590912818908691,-3.000000238418579,-0.19032743573188782,-0.18486544489860535,-0.17732121050357819,-0.1676628291606903,-0.8464159965515137,-0.5692340731620789,-0.2843793034553528,-0.0043308669701218605
0.4166666666666667,0.028797686100006104,0.0059372857213020325,0.0,0.814615786075592,0.0,0.0,-0.5800009965896606,-0.03158252686262131,-0.49781131744384766,0.0,0.0,0.0,-11.6052827835083,-0.1996867060661316,0.7410414814949036,0.4329606890678406,0.9281746745109558,0.0613105408847332,-0.09362965077161789,-0.354917049407959,6.4142913818359375,2.1487576961517334,0.5644291639328003,14.656976699829102,-16.866865158081055,18.686765670776367,-0.20235003530979156,0.7450119256973267,0.43382132053375244,6.033369064331055,2.6033859252929688,0.537026584148407,0.4619508981704712,0.6589285135269165,0.42000001668930054,-0.376629114151001,1.1252503395080566,-0.8220486640930176,2.9969255924224854,-0.20398199558258057,-0.19762703776359558,-0.18534979224205017,-0.17085248231887817,-0.4197539687156677,-0.5308863520622253,-0.3732776343822479,-0.17382432520389557
0.43333333333333335,0.02346406877040863,0.0029846434481441975,0.0,0.773197591304779,0.0,0.0,-0.6341652274131775,-0.4140588939189911,-0.08762301504611969,0.0,0.0,0.0,-7.120879173278809,-0.09820864349603653,0.7767800092697144,0.4450361132621765,0.8742057681083679,0.09499858319759369,-0.11689011007547379,-0.4616016149520874,6.309666633605957,1.0926051139831543,0.8989267349243164,16.75193977355957,-7.606326103210449,22.116792678833008,-0.10134945809841156,0.7815609574317932,0.4453960061073303,6.2321367263793945,1.7634034156799316,0.7665218710899353,0.4619508981704712,0.6589285135269165,0.42000001668930054,-0.35830745100975037,1.042592167854309,-0.848911464214325,-3.000000238418579,-0.2166132777929306,-0.2101612389087677,-0.19458498060703278,-0.1765538603067398,-0.7788201570510864,-0.7304402589797974,-0.5432295799255371,-0.35601094365119934
0.45,0.022582951933145523,-0.006019325461238623,0.0,0.7515242099761963,0.0,0.0,-0.6597055196762085,0.08428581804037094,-0.7142672538757324,0.0,0.0,0.0,-2.9731967449188232,0.009179443120956421,0.7967411875724792,0.45674988627433777,0.7887490391731262,0.10536771267652512,-0.13869145512580872,-0.5895228981971741,6.424192905426025,-0.210887610912323,0.8034308552742004,-10.976746559143066,2.1589603424072266,5.972511291503906,0.004178032279014587,0.8030611276626587,0.45658671855926514,6.580697536468506,0.6976349353790283,0.7211757898330688,0.4619508981704712,0.6589285135269165,0.42000001668930054,-0.3412967324256897,0.911159336566925,-0.8989354372024536,-2.9999914169311523,-0.22304774820804596,-0.21573004126548767,-0.19760410487651825,-0.1770355999469757,-0.26043441891670227,-0.17474378645420074,-0.02285792864859104,0.12428160011768341
0.4666666666666667,0.020603446289896965,-0.013601443730294704,0.0,0.7216787338256836,0.0,0.0,-0.6922281384468079,-0.15857212245464325,-0.3894808888435364,0.0,0.0,0.0,-6.0622992515563965,0.11435942351818085,0.796688973903656,0.46630436182022095,0.7185319662094116,0.09711533784866333,-0.13282644748687744,-0.6757495999336243,6.535763263702393,-0.9234625101089478,0.6403017044067383,-0.6844186186790466,-7.134431838989258,5.899574279785156,0.1097055971622467,0.8068512082099915,0.4664485454559326,6.15573787689209,-0.21200770139694214,0.5595995187759399,0.4619508981704712,0.6589285135269165,0.42000001668930054,-0.331637978553772,0.334728479385376,-0.9489595890045166,-3.0000030994415283,-0.22910825908184052,-0.22007843852043152,-0.19974814355373383,-0.17719049751758575,-0.29688867926597595,-0.20772209763526917,-0.11861656606197357,-0.046558283269405365
0.48333333333333334,0.020050637423992157,-0.0170969869941473,0.0,0.7065155506134033,0.0,0.0,-0.7076975107192993,0.023837588727474213,-0.13437554240226746,0.0,0.0,0.0,-1.4274227619171143,0.2095528542995453,0.7849718332290649,0.471982479095459,0.666275143623352,0.0858541801571846,-0.12239958345890045,-0.7305646538734436,4.994825839996338,-1.7802704572677612,0.1412908285856247,-13.91411304473877,-7.363584995269775,18.338659286499023,0.2071944773197174,0.7958089709281921,0.47266092896461487,5.58704948425293,-1.1419920921325684,0.30877187848091125,0.4619508981704712,0.6589285135269165,0.42000001668930054,-0.32365044951438904,0.4234980642795563,-0.99898362159729,-3.000002145767212,-0.23457902669906616,-0.22372563183307648,-0.20202817022800446,-0.17849765717983246,-0.30340123176574707,-0.18571321666240692,-0.11896444112062454,-0.08125345408916473
0.5,0.02254965342581272,-0.016767477616667747,0.0,0.6843143105506897,0.0,0.0,-0.7291871309280396,0.2028360515832901,0.0908234640955925,0.0,0.0,0.0,-4.5856194496154785,0.29240965843200684,0.7615703344345093,0.4687691628932953,0.5753850340843201,0.03392989560961723,-0.14870570600032806,-0.8035342693328857,4.295013427734375,-1.9828075170516968,-0.5999701023101807,-28.046924591064453,13.064993858337402,-5.550148963928223,0.2892022132873535,0.775412917137146,0.472149133682251,4.530911445617676,-1.4743890762329102,-0.10746034979820251,0.4619508981704712,0.6589285135269165,0.42000001668930054,-0.3162582218647003,0.4596126973628998,-1.0490057468414307,-2.999663829803467,-0.23810333013534546,-0.22581572830677032,-0.20368286967277527,-0.1801055371761322,-0.13453757762908936,-0.061844199895858765,-0.05966732278466225,-0.07919345796108246
0.5166666666666666,0.027600158005952835,-0.019112562760710716,0.0,0.6748802065849304,0.0,0.0,-0.7379273176193237,0.3242354393005371,-0.13779233396053314,0.0,0.0,0.0,-0.4929138422012329,0.35789060592651367,0.7350625991821289,0.46087515354156494,0.5291740894317627,0.00812981091439724,-0.12460564076900482,-0.8392746448516846,3.4154839515686035,-1.8901493549346924,-0.5901456475257874,-4.027047157287598,-0.030375255271792412,-4.947873592376709,0.35596805810928345,0.7487040758132935,0.4647924304008484,3.4454092979431152,-1.820413589477539,-0.5809439420700073,0.4619508981704712,0.6589285135269165,0.42000001668930054,-0.3062525987625122,0.7849863171577454,-1.0990278720855713,-3.0000014305114746,-0.23818421363830566,-0.22476062178611755,-0.20291423797607422,-0.1800685077905655,-0.09305358678102493,-0.0022591110318899155,-0.00967444572597742,-0.05016700550913811
0.5333333333333333,0.033969055861234665,-0.017891690135002136,0.0,0.6564853191375732,0.0,0.0,-0.754338800907135,0.43432679772377014,0.10193993896245956,0.0,0.0,0.0,-3.7939445972442627,0.4080960750579834,0.7082322835922241,0.4451450705528259,0.5024462938308716,-0.020588144659996033,-0.11058340966701508,-0.8572602272033691,2.642347574234009,-1.6151633262634277,-1.005286693572998,-2.948326587677002,5.442591667175293,-0.4309839904308319,0.40677547454833984,0.7209945917129517,0.44951850175857544,2.6595101356506348,-1.5727468729019165,-1.1617025136947632,0.4619508981704712,0.6589285135269165,0.42000001668930054,-0.29083165526390076,0.9311628341674805,-1.149049997329712,-3.000000238418579,-0.2386442869901657,-0.2245451658964157,-0.20363399386405945,-0.18216225504875183,0.1518288254737854,0.13157489895820618,0.01771012507379055,-0.11516649276018143
0.55,0.04283660277724266,-0.017604844644665718,0.0,0.6511056423187256,0.0,0.0,-0.7589871287345886,0.5626833438873291,0.029508590698242188,0.0,0.0,0.0,0.08786037564277649,0.4442169666290283,0.6832281947135925,0.42331022024154663,0.48106616735458374,-0.059835098683834076,-0.08798617869615555,-0.8702030777931213,1.6181641817092896,-1.9904685020446777,-1.2475472688674927,-8.387955665588379,5.560523986816406,10.372681617736816,0.44337233901023865,0.6950725317001343,0.4279898703098297,1.671675682067871,-1.5152535438537598,-1.4065033197402954,0.4619508981704712,0.6589285135269165,0.42000001668930054,-0.2777611315250397,0.5631501078605652,-1.1990721225738525,-3.000000476837158,-0.23414696753025055,-0.22080621123313904,-0.20220178365707397,-0.183320090174675,0.24686893820762634,0.19946245849132538,0.058689653873443604,-0.09982965886592865
0.5666666666666667,0.04908119887113571,-0.01513476762920618,0.0,0.6354217529296875,0.0,0.0,-0.7721652388572693,0.31007009744644165,0.2067340761423111,0.0,0.0,0.0,-3.3966166973114014,0.46089044213294983,0.67429518699646,0.42029738426208496,0.5009087324142456,0.001343567157164216,-0.005626775790005922,-0.8654807806015015,0.6240106821060181,-0.45917803049087524,-0.07993100583553314,2.167452812194824,-1.4885443449020386,3.6742076873779297,0.45857352018356323,0.6830737590789795,0.42291873693466187,0.5803003311157227,-0.4266369640827179,-0.020292727276682854,0.4619508981704712,0.6589285135269165,0.42000001668930054,-0.26591750979423523,0.6127182841300964,-1.1844514608383179,2.9983842372894287,-0.22712776064872742,-0.21568144857883453,-0.20018263161182404,-0.18439194560050964,0.5138136148452759,0.36917829513549805,0.1593857705593109,-0.04397684708237648
0.5833333333333334,0.05550287291407585,-0.014726076275110245,0.0,0.6333163976669312,0.0,0.0,-0.7738929986953735,0.4160963296890259,-0.04143860191106796,0.0,0.0,0.0,0.5886510014533997,0.46496817469596863,0.6673866510391235,0.42012855410575867,0.5295003652572632,-0.00036186992656439543,-0.0008702439954504371,-0.8483091592788696,0.02476329915225506,-0.3389090597629547,-0.04895951971411705,-0.33065807819366455,-2.8884196281433105,5.020148277282715,0.46145719289779663,0.6766856908798218,0.42404913902282715,-0.09124535322189331,-0.2922240197658539,0.15368983149528503,0.4619508981704712,0.6589285135269165,0.42000001668930054,-0.2811763882637024,-1.9573724269866943,-1.2062190771102905,-2.9996578693389893,-0.21959872543811798,-0.21013152599334717,-0.19766297936439514,-0.18484221398830414,0.4722488224506378,0.35187187790870667,0.17219634354114532,-0.003929629921913147
0.6,0.06423583626747131,-0.011556783691048622,0.0,0.6205493807792664,0.0,0.0,-0.7841673493385315,0.5458699464797974,0.2183167189359665,0.0,0.0,0.0,-2.9933722019195557,0.46655070781707764,0.6650018692016602,0.4210139513015747,0.551156759262085,-0.016890762373805046,0.007051172666251659,-0.8342008590698242,0.17347294092178345,0.09851839393377304,0.1343938708305359,-2.2565343379974365,4.258761405944824,3.3573906421661377,0.4630865454673767,0.6755931377410889,0.42650872468948364,0.19117185473442078,0.09427524358034134,0.16353856027126312,0.4619508981704712,0.6589285135269165,0.42000001668930054,-0.30279019474983215,-0.6909185647964478,-1.2561674118041992,-2.9982125759124756,-0.21124519407749176,-0.2043922394514084,-0.1953079104423523,-0.18566909432411194,0.6691815257072449,0.46501070261001587,0.22557763755321503,0.00564727233722806
0.6166666666666667,0.07460877299308777,-0.012143123894929886,0.0,0.6199665665626526,0.0,0.0,-0.7846282124519348,0.6570952534675598,-0.049320533871650696,0.0,0.0,0.0,0.8390747308731079,0.4680609405040741,0.6663789749145508,0.4217780828475952,0.5775256752967834,-0.03183722496032715,0.004978081677109003,-0.8157361745834351,-0.08464875817298889,0.06761223822832108,-0.002934882650151849,-0.8483414649963379,-0.5005971193313599,2.7978498935699463,0.46179795265197754,0.6761850118637085,0.42660850286483765,-0.28480422496795654,-0.03531544283032417,-0.03671184554696083,0.4619508981704712,0.6589285135269165,0.42000001668930054,-0.3457658588886261,-2.999570608139038,-1.2318940162658691,2.999581813812256,-0.1992807686328888,-0.1955491155385971,-0.190154030919075,-0.1839505434036255,0.5606718063354492,0.42225947976112366,0.24912245571613312,0.08434490859508514
0.6333333333333333,0.08273869752883911,-0.010042606852948666,0.0,0.6422484517097473,0.0,0.0,-0.766496479511261,0.41827085614204407,0.14571398496627808,0.0,0.0,0.0,4.251069068908691,0.466263085603714,0.6671884059906006,0.4204530715942383,0.5863721966743469,-0.009078122675418854,-0.00663729989901185,-0.8099637031555176,-0.0947561264038086,0.029263000935316086,-0.07245025038719177,3.576761484146118,-1.1789220571517944,0.7416646480560303,0.45837992429733276,0.6764631867408752,0.4284507632255554,-0.10039890557527542,0.11340241134166718,0.17983312904834747,0.4619508981704712,0.6589285135269165,0.42000001668930054,-0.3958185017108917,-2.9999876022338867,-1.2524155378341675,-2.998674154281616,-0.19181931018829346,-0.1899866908788681,-0.1869727224111557,-0.18301816284656525,0.49865150451660156,0.376151442527771,0.23052428662776947,0.09415242075920105
0.65,0.09114046394824982,-0.010738957673311234,0.0,0.6500436067581177,0.0,0.0,-0.7598969340324402,0.5170652866363525,-0.09368064254522324,0.0,0.0,0.0,0.16443099081516266,0.4656849801540375,0.6670929193496704,0.4200006425380707,0.587411105632782,-4.5195352868177e-05,-3.4110886190319434e-05,-0.8092885613441467,-0.027637818828225136,-0.0026045467238873243,-0.0027856738306581974,0.05896378308534622,-0.029930194839835167,-1.3935942649841309,0.45752012729644775,0.678338348865509,0.43270358443260193,-0.07488799840211868,0.08694902807474136,0.3017731010913849,0.4619508981704712,0.6589285135269165,0.42000001668930054,-0.44584736227989197,-2.9990150928497314,-1.3023866415023804,-2.9999754428863525,-0.1838071048259735,-0.1834394335746765,-0.18207232654094696,-0.17951038479804993,0.42625537514686584,0.38103175163269043,0.33250945806503296,0.3012043535709381
0.6666666666666666,0.10089124739170074,-0.014877527952194214,0.0,0.6349920630455017,0.0,0.0,-0.7725186347961426,0.6203031539916992,-0.3172233998775482,0.0,0.0,0.0,-3.2515757083892822,0.4656842350959778,0.6670910120010376,0.42000001668930054,0.5874114036560059,-9.96281983134395e-07,-3.1800877877685707e-06,-0.8092884421348572,4.04211605200544e-05,-0.0002927955938503146,-6.665429100394249e-05,0.0070573072880506516,-0.0003314857021905482,-0.0004246161552146077,0.45963501930236816,0.6804830431938171,0.4428848624229431,0.3274068236351013,0.1379954069852829,1.0268785953521729,0.4619508981704712,0.6589285135269165,0.42000001668930054,-0.49586060643196106,-2.9999823570251465,-1.3524048328399658,-3.0,-0.17888258397579193,-0.1788768321275711,-0.1778363138437271,-0.17530392110347748,0.22123487293720245,0.21805767714977264,0.22064131498336792,0.2407189905643463
0.6833333333333333,0.11415601521730423,-0.014374488033354282,0.0,0.5970338582992554,0.0,0.0,-0.8022160530090332,0.7644845843315125,0.05708999186754227,0.0,0.0,0.0,-6.657262802124023,0.465684175491333,0.6670910716056824,0.41999998688697815,0.5874113440513611,-2.762229314612341e-06,-4.418511252879398e-06,-0.8092884421348572,3.12988631776534e-05,-0.0003563124337233603,-9.878678247332573e-05,0.008657974191009998,-0.003051964333280921,-0.000621319399215281,0.47292912006378174,0.6778386831283569,0.4658925533294678,1.3615007400512695,-0.2907903492450714,1.819671630859375,0.4619508981704712,0.6589285135269165,0.42000001668930054,-0.5458731651306152,-2.9998714923858643,-1.4024231433868408,-2.9999866485595703,-0.18190383911132812,-0.1807554066181183,-0.17848272621631622,-0.17452293634414673,-0.1442376673221588,-0.0873810425400734,-0.019730767235159874,0.06235837563872337
0.7,0.12783998250961304,-0.011751051060855389,0.0,0.5739250779151917,0.0,0.0,-0.8189077973365784,0.8747164011001587,0.1962926685810089,0.0,0.0,0.0,-2.355506658554077,0.465684175491333,0.6670910716056824,0.41999998688697815,0.5874114632606506,-2.738325520112994e-06,-4.5016513467999175e-06,-0.8092883229255676,2.9839033231837675e-05,-0.000355731463059783,-9.908108040690422e-05,0.008639505133032799,-0.0030532623641192913,-0.0006171923596411943,0.49469316005706787,0.6767876744270325,0.49610471725463867,1.183706283569336,0.12808117270469666,1.8018487691879272,0.4619508981704712,0.6589285135269165,0.42000001668930054,-0.5668677091598511,0.2127862423658371,-1.4524414539337158,-2.999999761581421,-0.1833062320947647,-0.18190422654151917,-0.17921960353851318,-0.17465858161449432,0.006582282017916441,-0.02102755196392536,-0.041241858154535294,-0.05309610068798065
0.7166666666666667,0.13849177956581116,-0.007453782483935356,0.0,0.5773825645446777,0.0,0.0,-0.8164737224578857,0.5522745251655579,0.2911459505558014,0.0,0.0,0.0,1.4114941358566284,0.465684175491333,0.6670911312103271,0.41999998688697815,0.5874113440513611,-2.696648607525276e-06,-4.423151949595194e-06,-0.8092884421348572,2.964519808301702e-05,-0.00035551286418922246,-9.919935837388039e-05,0.008630017749965191,-0.003053851192817092,-0.0006164792575873435,0.5128649473190308,0.6815886497497559,0.5201430320739746,0.8912222981452942,0.39786404371261597,1.130200982093811,0.4619508981704712,0.6589285135269165,0.42000001668930054,-0.5424429178237915,2.497851610183716,-1.418910026550293,2.999999761581421,-0.18074820935726166,-0.1800917536020279,-0.17803041636943817,-0.17398110032081604,0.23882846534252167,0.18868927657604218,0.14356565475463867,0.10155653208494186
0.7333333333333333,0.14408448338508606,-0.008101848885416985,0.0,0.5712143778800964,0.0,0.0,-0.8208009004592896,0.34284791350364685,-0.08058639615774155,0.0,0.0,0.0,-2.006007194519043,0.465684175491333,0.6670910716056824,0.41999998688697815,0.5874111652374268,-2.753780336206546e-06,-4.384467501949985e-06,-0.8092885613441467,2.9673417884623632e-05,-0.00035553527413867414,-9.914650581777096e-05,0.008631711825728416,-0.0030503112357109785,-0.0006163170910440385,0.5214146375656128,0.6887489557266235,0.5329403877258301,0.0927322506904602,0.30299806594848633,0.509009063243866,0.4619508981704712,0.6589285135269165,0.42000001668930054,-0.519370973110199,0.43182802200317383,-1.3688573837280273,3.0,-0.1731734722852707,-0.1736876368522644,-0.1727493852376938,-0.1698140799999237,0.27314493060112,0.2539324462413788,0.23091526329517365,0.19955849647521973
0.75,0.14733387529850006,-0.0037044209893792868,0.0,0.5767834186553955,0.0,0.0,-0.8168970942497253,0.14538003504276276,0.39484283328056335,0.0,0.0,0.0,1.6904516220092773,0.465684175491333,0.6670910716056824,0.41999998688697815,0.5874114632606506,-2.7368375867808936e-06,-4.483762950258097e-06,-0.8092884421348572,2.977609619847499e-05,-0.0003557668242137879,-9.911158122122288e-05,0.00864033680409193,-0.0030550211668014526,-0.0006171652348712087,0.5203818082809448,0.6934571266174316,0.5383614301681519,-0.19030992686748505,0.330120712518692,0.162838414311409,0.4619508981704712,0.6589285135269165,0.42000001668930054,-0.4979618489742279,1.985151767730713,-1.3875373601913452,-3.0,-0.17386552691459656,-0.1735142171382904,-0.1719118058681488,-0.16863074898719788,-0.10524212568998337,-0.041063062846660614,0.00780739588662982,0.033801402896642685
0.7666666666666666,0.14750653505325317,-0.0035594156943261623,0.0,0.5727360844612122,0.0,0.0,-0.819739818572998,-0.03561798483133316,-0.11552496999502182,0.0,0.0,0.0,-1.9518157243728638,0.465684175491333,0.6670911312103271,0.41999998688697815,0.5874113440513611,-2.6950128813041374e-06,-4.40521580458153e-06,-0.8092885613441467,2.964579289255198e-05,-0.00035550835309550166,-9.919703006744385e-05,0.00862990040332079,-0.003053820226341486,-0.0006164733204059303,0.5120068192481995,0.6972653865814209,0.5347517728805542,-0.8160972595214844,0.1336638480424881,-0.41851383447647095,0.4619508981704712,0.6589285135269165,0.42000001668930054,-0.5010658502578735,-2.0093557834625244,-1.349128246307373,2.9999992847442627,-0.17276589572429657,-0.17179208993911743,-0.16980022192001343,-0.16648277640342712,0.12066850811243057,0.15146200358867645,0.16739614307880402,0.16153042018413544
0.7833333333333333,0.1495680809020996,0.0011275626020506024,0.0,0.5788222551345825,0.0,0.0,-0.8154537081718445,0.07197853177785873,0.3243419826030731,0.0,0.0,0.0,1.6455135345458984,0.465684175491333,0.6670910716056824,0.41999998688697815,0.587411105632782,-2.7595297069638036e-06,-4.368188456282951e-06,-0.8092885613441467,2.9677805287064984e-05,-0.0003555448492988944,-9.914836846292019e-05,0.008632033132016659,-0.003050358733162284,-0.0006163394427858293,0.5013610124588013,0.6993958950042725,0.5278233289718628,-0.3908066749572754,0.2978568375110626,-0.39068612456321716,0.4619508981704712,0.6589285135269165,0.42000001668930054,-0.5175371170043945,-0.1161089763045311,-1.3681713342666626,-3.000000238418579,-0.17709693312644958,-0.17455214262008667,-0.17123720049858093,-0.16698916256427765,-0.09954434633255005,-0.05513378977775574,-0.01639612950384617,0.009032240137457848
0.8,0.15224477648735046,0.0014923863345757127,0.0,0.5788778066635132,0.0,0.0,-0.815414309501648,0.19898463785648346,-0.01517445407807827,0.0,0.0,0.0,-0.7018129229545593,0.465684175491333,0.6670910716056824,0.41999998688697815,0.5874114036560059,-2.7498044801177457e-06,-4.468896349862916e-06,-0.8092884421348572,2.9780487238895148e-05,-0.0003557799500413239,-9.911344386637211e-05,0.008640670217573643,-0.003055060748010874,-0.0006171901477500796,0.49724143743515015,0.7018619775772095,0.5189869403839111,-0.1669256091117859,-0.042627930641174316,-0.5162280201911926,0.4619508981704712,0.6589285135269165,0.42000001668930054,-0.5539334416389465,-3.0000009536743164,-1.337376356124878,3.0,-0.1763324737548828,-0.17337419092655182,-0.1695888787508011,-0.16493414342403412,-0.05564034357666969,0.0021720482036471367,0.06599917262792587,0.12797316908836365
0.8166666666666667,0.15713569521903992,-0.0011368331033736467,0.0,0.5580008625984192,0.0,0.0,-0.829840362071991,0.3398674726486206,-0.21706783771514893,0.0,0.0,0.0,-3.9744908809661865,0.465684175491333,0.6670911312103271,0.41999998688697815,0.5874112844467163,-2.669984496606048e-06,-4.58188424090622e-06,-0.8092885613441467,2.94703095278237e-05,-0.0003554890863597393,-9.92482528090477e-05,0.008628913201391697,-0.0030547883361577988,-0.0006160656339488924,0.4994238615036011,0.6995048522949219,0.5134409666061401,0.447039395570755,-0.21281346678733826,-0.003933776170015335,0.4619508981704712,0.6589285135269165,0.42000001668930054,-0.603947103023529,-2.9999656677246094,-1.3566460609436035,-2.9999992847442627,-0.17860932648181915,-0.1746699959039688,-0.16975057125091553,-0.1639205366373062,-0.1528700292110443,-0.0989222601056099,-0.03311925753951073,0.03728443756699562
0.8333333333333334,0.16477088630199432,-0.0011051016626879573,0.0,0.5520964860916138,0.0,0.0,-0.8337802290916443,0.4816416800022125,0.05528349056839943,0.0,0.0,0.0,0.1489671915769577,0.465684175491333,0.6670910716056824,0.41999998688697815,0.5874113440513611,-2.7200744625588413e-06,-4.477269612834789e-06,-0.8092885613441467,2.925205626524985e-05,-0.00035537718213163316,-9.926292113959789e-05,0.008626064285635948,-0.0030533114913851023,-0.0006152893183752894,0.507274329662323,0.6997150778770447,0.5167096853256226,0.48652273416519165,0.19482560455799103,0.36897119879722595,0.4619508981704712,0.6589285135269165,0.42000001668930054,-0.6227546334266663,0.4584389626979828,-1.4066643714904785,-2.999999523162842,-0.18158814311027527,-0.17719009518623352,-0.17161883413791656,-0.16505040228366852,-0.09236043691635132,-0.10453107953071594,-0.10524247586727142,-0.09935963898897171
0.85,0.16894520819187164,-0.005452647805213928,0.0,0.5710574388504028,0.0,0.0,-0.8209100961685181,0.18986959755420685,-0.29919877648353577,0.0,0.0,0.0,3.3718581199645996,0.465684175491333,0.6670911312103271,0.41999998688697815,0.5874111652374268,-2.667666194611229e-06,-4.589718628267292e-06,-0.8092885613441467,2.9556431400123984e-05,-0.0003555092553142458,-9.922427125275135e-05,0.00862977933138609,-0.003054196946322918,-0.0006162579520605505,0.5167751312255859,0.7037031650543213,0.5201923847198486,0.550984263420105,0.16388604044914246,0.07632189989089966,0.4619508981704712,0.6589285135269165,0.42000001668930054,-0.6280319690704346,-0.966012716293335,-1.3682003021240234,3.000000238418579,-0.17975173890590668,-0.17576731741428375,-0.17044173181056976,-0.16401582956314087,0.013409801758825779,0.021550234407186508,0.03554479405283928,0.051262229681015015
0.8666666666666667,0.1700553297996521,-0.005389848258346319,0.0,0.5744223594665527,0.0,0.0,-0.8185590505599976,-0.006460912525653839,-0.01742687076330185,0.0,0.0,0.0,-0.35551849007606506,0.465684175491333,0.6670910716056824,0.41999998688697815,0.5874112248420715,-2.7141156806465006e-06,-4.484439159568865e-06,-0.8092885613441467,2.9339294997043908e-05,-0.00035541196120902896,-9.924196638166904e-05,0.008627156727015972,-0.0030529331415891647,-0.0006155216251499951,0.5242797136306763,0.7021363973617554,0.5179527997970581,0.5059627294540405,-0.13885991275310516,-0.214377760887146,0.4619508981704712,0.6589285135269165,0.42000001668930054,-0.6604888439178467,-2.7449281215667725,-1.3868989944458008,-2.999922275543213,-0.18415085971355438,-0.17905984818935394,-0.1725911647081375,-0.16506972908973694,-0.038406819105148315,-0.021284714341163635,0.0040562450885772705,0.034053679555654526
