vladlanda/robotic-transformer/data/env_000_episode_0224.csv
sim_time_s,robot_box_x,robot_box_y,robot_box_z,robot_box_quat_w,robot_box_quat_x,robot_box_quat_y,robot_box_quat_z,robot_box_linvel_x,robot_box_linvel_y,robot_box_linvel_z,robot_box_angvel_x,robot_box_angvel_y,robot_box_angvel_z,cube_world_x,cube_world_y,cube_world_z,cube_quat_w,cube_quat_x,cube_quat_y,cube_quat_z,cube_linvel_x,cube_linvel_y,cube_linvel_z,cube_angvel_x,cube_angvel_y,cube_angvel_z,endpoint_world_x,endpoint_world_y,endpoint_world_z,endpoint_linvel_x,endpoint_linvel_y,endpoint_linvel_z,target_cube_world_x,target_cube_world_y,target_cube_world_z,gripper_actual_pos_rad_gp_leftgearjoint,gripper_actual_vel_rad_s_gp_leftgearjoint,gripper_actual_pos_rad_gp_rotatingjoint,gripper_actual_vel_rad_s_gp_rotatingjoint,motor_angle_rad_joint1,motor_angle_rad_joint2,motor_angle_rad_joint3,motor_angle_rad_joint4,motor_speed_rad_s_joint1,motor_speed_rad_s_joint2,motor_speed_rad_s_joint3,motor_speed_rad_s_joint4
0.0,0.0,0.0,0.0,1.0,0.0,0.0,0.0,0.0,0.0,0.0,0.0,0.0,0.0,-0.4154157340526581,0.6981134414672852,0.41999998688697815,1.0,0.0,0.0,0.0,0.0,0.0,0.0,0.0,0.0,0.0,3.42540442943573e-06,-0.005000244826078415,1.313499927520752,0.0,0.0,0.0,0.384708046913147,0.7238692045211792,0.42000001668930054,-1.5707999467849731,0.0,0.0,0.0,0.0,0.0,0.0,0.0,0.0,0.0,0.0,0.0
0.016666666666666666,0.0028778850100934505,0.0021806680597364902,0.0,0.9998081922531128,0.0,0.0,0.019586581736803055,0.24087215960025787,0.18240931630134583,0.0,0.0,0.0,3.1418697834014893,-0.41541585326194763,0.6981131434440613,0.41999998688697815,1.0,3.2799914606584935e-06,-8.339814598912199e-07,8.465387679734704e-08,-1.9833554688375443e-05,0.00017983050202019513,-6.133061833679676e-05,0.0009432226070202887,-0.004689437802881002,-0.0003198152990080416,-0.007110234349966049,0.003379564033821225,1.3159373998641968,-0.8143353462219238,0.9868683815002441,0.18095196783542633,0.384708046913147,0.7238692045211792,0.42000001668930054,-1.5301095247268677,3.0000011920928955,-0.04584788903594017,-2.9999992847442627,0.0008691533003002405,0.0007963840034790337,0.0007110277656465769,0.0006108740926720202,0.11094217747449875,0.09756709635257721,0.08334315568208694,0.06823883205652237
0.03333333333333333,0.008960988372564316,0.006801968440413475,0.0,0.9997960329055786,0.0,0.0,0.020196842029690742,0.4070219397544861,0.3153083324432373,0.0,0.0,0.0,-0.869131326675415,-0.4154159724712372,0.6981130838394165,0.4200000464916229,1.0,3.390914116607746e-06,-2.132455392711563e-06,-3.71076644967161e-08,0.0002635782293509692,0.00026937935035675764,-0.00010509486310184002,-0.001770757487975061,0.0041308156214654446,-0.00013547815615311265,-0.027551837265491486,0.02616003155708313,1.3166019916534424,-1.591444492340088,1.6158514022827148,-0.08425237238407135,0.384708046913147,0.7238692045211792,0.42000001668930054,-1.4800904989242554,3.0000009536743164,-0.09588772803544998,-3.0000011920928955,0.002990120090544224,0.0026527352165430784,0.0022773088421672583,0.001860768417827785,0.16421763598918915,0.13976168632507324,0.1138208881020546,0.08630335330963135
0.05,0.01756356842815876,0.013732438907027245,0.0,0.9994404911994934,0.0,0.0,0.033446699380874634,0.5881856083869934,0.46354591846466064,0.0,0.0,0.0,2.6838109493255615,-0.41541600227355957,0.6981131434440613,0.4200000464916229,1.0,3.7652293940482195e-06,-2.2118967990536476e-06,5.613899567435965e-09,0.000265309150563553,0.0002669153909664601,-0.0001044049859046936,-0.00172426737844944,0.004177379421889782,-0.0001294983085244894,-0.059568729251623154,0.05430922657251358,1.3115211725234985,-2.1857707500457764,1.7770118713378906,-0.4822314381599426,0.384708046913147,0.7238692045211792,0.42000001668930054,-1.4300721883773804,2.9999985694885254,-0.14592640101909637,-3.0000007152557373,0.005638446658849716,0.004850086756050587,0.003989656921476126,0.0030526379123330116,0.19130390882492065,0.15442831814289093,0.11568863689899445,0.0749899297952652
0.06666666666666667,0.028790146112442017,0.02299947291612625,0.0,0.9994999170303345,0.0,0.0,0.031621407717466354,0.7150644063949585,0.5937210917472839,0.0,0.0,0.0,-1.1772798299789429,-0.41541600227355957,0.6981130838394165,0.4200000464916229,0.9999999403953552,3.4068445984303253e-06,-2.2855729184811935e-06,4.300823945868615e-07,0.000267024093773216,0.0002679175231605768,-0.0001043803058564663,-0.0017406325787305832,0.004211729858070612,-0.00012850853090640157,-0.09672475606203079,0.08920878916978836,1.2992675304412842,-2.3016932010650635,2.2889575958251953,-0.9613679051399231,0.384708046913147,0.7238692045211792,0.42000001668930054,-1.3800538778305054,2.9999985694885254,-0.19594494998455048,-3.0,0.008060439489781857,0.006534008774906397,0.004896132275462151,0.003142907517030835,0.13386069238185883,0.07777915894985199,0.019674571231007576,-0.04057541489601135
0.08333333333333333,0.04320088401436806,0.03441973775625229,0.0,0.999999463558197,0.0,0.0,0.0010332829551771283,0.9334529638290405,0.7264934778213501,0.0,0.0,0.0,-4.492218494415283,-0.41541600227355957,0.6981130838394165,0.4200000464916229,1.0,3.697329248097958e-06,-2.1889204617764335e-06,-2.632361599808064e-07,0.00026389621780253947,0.00026586378226056695,-0.00010433816350996494,-0.0017081365222111344,0.004150137305259705,-0.00012991174298804253,-0.13396483659744263,0.13159576058387756,1.2811225652694702,-2.2057204246520996,2.6560840606689453,-1.2155073881149292,0.384708046913147,0.7238692045211792,0.42000001668930054,-1.3300268650054932,2.9999947547912598,-0.16217981278896332,3.000000238418579,0.009510984644293785,0.006947716698050499,0.004232448060065508,0.001360766007564962,0.06349426507949829,-0.0068434616550803185,-0.07927751541137695,-0.15381485223770142
0.1,0.05187854915857315,0.04972450062632561,0.0,0.9998428225517273,0.0,0.0,-0.017728833481669426,0.38246142864227295,0.9973536133766174,0.0,0.0,0.0,-0.8896926641464233,-0.41541600227355957,0.6981130838394165,0.4200000464916229,0.9999999403953552,3.620433972173487e-06,-2.265166358483839e-06,1.7460881451825117e-07,0.00026676940615288913,0.00026740849716588855,-0.0001040794886648655,-0.0017386502586305141,0.0042092143557965755,-0.00012775196228176355,-0.17166176438331604,0.17224454879760742,1.2597408294677734,-2.205650568008423,2.41957426071167,-1.295045256614685,0.384708046913147,0.7238692045211792,0.42000001668930054,-1.2800307273864746,3.000000238418579,-0.19387036561965942,-2.999999761581421,0.004065435845404863,0.0006973554845899343,-0.002874632366001606,-0.0066582392901182175,-0.45337146520614624,-0.5054171681404114,-0.5600305199623108,-0.6174360513687134
0.11666666666666667,0.05576694756746292,0.06603754311800003,0.0,0.998939573764801,0.0,0.0,-0.04604015126824379,0.24663656949996948,0.942787766456604,0.0,0.0,0.0,-4.1446638107299805,-0.41541600227355957,0.6981130838394165,0.4200000464916229,1.0,3.7984186747053172e-06,-2.262772341055097e-06,-1.5020653165720432e-07,0.00026373984292149544,0.00026565982261672616,-0.00010428996756672859,-0.0017054551281034946,0.004147582221776247,-0.000129800770082511,-0.2065291702747345,0.21647533774375916,1.2383289337158203,-1.9918726682662964,2.903796672821045,-1.2826437950134277,0.384708046913147,0.7238692045211792,0.42000001668930054,-1.2300225496292114,3.0000009536743164,-0.24388828873634338,-3.000000238418579,-0.0032928441651165485,-0.007922389544546604,-0.012761113233864307,-0.017819158732891083,-0.3500244915485382,-0.4490772485733032,-0.5463927984237671,-0.6419944167137146
0.13333333333333333,0.06705733388662338,0.07927427440881729,0.0,0.9949811100959778,0.0,0.0,-0.10006310045719147,0.9284316301345825,0.7130029797554016,0.0,0.0,0.0,-7.61936616897583,-0.41541600227355957,0.6981131434440613,0.4200000464916229,0.9999999403953552,3.5505179312167456e-06,-2.2298092972050654e-06,2.9291240366546845e-07,0.0002670329704415053,0.0002677935699466616,-0.00010416889563202858,-0.0017439755611121655,0.004213570151478052,-0.00012800609692931175,-0.23934154212474823,0.2702445387840271,1.2150242328643799,-1.9011220932006836,3.5109782218933105,-1.5349664688110352,0.384708046913147,0.7238692045211792,0.42000001668930054,-1.183036208152771,2.6291143894195557,-0.20986995100975037,3.0,-0.003304318292066455,-0.01022963784635067,-0.017283115535974503,-0.024471784010529518,0.1264021396636963,-0.01792413368821144,-0.15643703937530518,-0.2888965308666229
0.15,0.07579796761274338,0.09015008807182312,0.0,0.9909847378730774,0.0,0.0,-0.13397470116615295,0.44843873381614685,0.6023481488227844,0.0,0.0,0.0,-2.956711769104004,-0.41541600227355957,0.6981130838394165,0.4200000464916229,0.9999999403953552,3.3380795230186777e-06,-2.2429178443417186e-06,-2.8019679021440425e-08,0.00026674545370042324,0.0002675825380720198,-0.00010427855886518955,-0.0017367409309372306,0.004206846002489328,-0.00012831656204070896,-0.2758086919784546,0.3243978023529053,1.1838346719741821,-2.0872769355773926,3.4669861793518066,-2.0921707153320312,0.384708046913147,0.7238692045211792,0.42000001668930054,-1.1384797096252441,2.6801371574401855,-0.24121442437171936,-2.999999761581421,-0.00966789573431015,-0.017865970730781555,-0.02614482492208481,-0.03451252356171608,-0.4769359230995178,-0.5388919711112976,-0.5980480313301086,-0.6545283794403076
0.16666666666666666,0.07977335155010223,0.10320205986499786,0.0,0.9839601516723633,0.0,0.0,-0.17838826775550842,0.22286710143089294,0.7582592964172363,0.0,0.0,0.0,-6.0397820472717285,-0.41541600227355957,0.6981131434440613,0.4200000464916229,0.9999999403953552,3.6478086258284748e-06,-2.307298927917145e-06,3.5287062161160065e-08,0.0002672687987796962,0.0002680137986317277,-0.0001041849609464407,-0.0017472092295065522,0.004217576701194048,-0.00012798466195818037,-0.3109668493270874,0.3847472071647644,1.1420091390609741,-2.039128303527832,3.8887031078338623,-2.8026185035705566,0.384708046913147,0.7238692045211792,0.42000001668930054,-1.09026038646698,2.9999990463256836,-0.29121991991996765,-3.0,-0.02067292481660843,-0.029482947662472725,-0.038324691355228424,-0.04721207916736603,-0.6083824634552002,-0.6477080583572388,-0.6827083826065063,-0.7135862112045288
0.18333333333333332,0.08190906792879105,0.11287461221218109,0.0,0.9794389009475708,0.0,0.0,-0.201741024851799,0.09344173222780228,0.46671387553215027,0.0,0.0,0.0,-1.752032995223999,-0.41541600227355957,0.6981130838394165,0.4200000464916229,0.9999999403953552,3.2905161333474098e-06,-2.1939308680885006e-06,-2.7921495870941726e-07,0.0002667803782969713,0.0002677594602573663,-0.00010433956049382687,-0.0017390174325555563,0.004206987097859383,-0.00012845761375501752,-0.34728384017944336,0.44635358452796936,1.087266445159912,-1.975895881652832,3.8228707313537598,-3.6981709003448486,0.384708046913147,0.7238692045211792,0.42000001668930054,-1.0457721948623657,2.356869697570801,-0.3412475287914276,-2.999999761581421,-0.03123871423304081,-0.040331993252038956,-0.04938841238617897,-0.058429379016160965,-0.6483560800552368,-0.6489418745040894,-0.6459650993347168,-0.6399508714675903
0.2,0.08035237342119217,0.12341529875993729,0.0,0.9715768098831177,0.0,0.0,-0.23672445118427277,-0.16775630414485931,0.6590611338615417,0.0,0.0,0.0,-5.109950542449951,-0.41541600227355957,0.6981130838394165,0.4200000464916229,1.0,3.2807702154968865e-06,-2.2192509732121835e-06,1.5948818088418193e-07,0.0002662783954292536,0.00026740110479295254,-0.0001042510848492384,-0.0017357355682179332,0.004197742789983749,-0.00012865533062722534,-0.37819117307662964,0.5109784007072449,1.0192914009094238,-1.6175864934921265,3.9276371002197266,-4.373475074768066,0.384708046913147,0.7238692045211792,0.42000001668930054,-0.99658203125,2.999999523162842,-0.39127346873283386,-3.0,-0.04551020264625549,-0.05419226735830307,-0.06279515475034714,-0.07135290652513504,-0.8991556763648987,-0.8694660663604736,-0.8372263312339783,-0.8031072616577148
0.21666666666666667,0.08292892575263977,0.13496799767017365,0.0,0.9665520787239075,0.0,0.0,-0.25647038221359253,0.25776928663253784,0.7483038306236267,0.0,0.0,0.0,-1.1015148162841797,-0.41541600227355957,0.6981131434440613,0.4200000464916229,1.0,3.6131550587015226e-06,-2.2701437956129666e-06,2.2102723562511528e-07,0.0002671259571798146,0.00026781647466123104,-0.0001041400246322155,-0.001744531444273889,0.004215213470160961,-0.00012786476872861385,-0.4064220190048218,0.5705381631851196,0.940231204032898,-1.479857325553894,3.3822031021118164,-5.074841499328613,0.384708046913147,0.7238692045211792,0.42000001668930054,-0.9465770721435547,3.0000007152557373,-0.4413008391857147,-3.0000011920928955,-0.05848178640007973,-0.0664854496717453,-0.07438734918832779,-0.08223423361778259,-0.7594590783119202,-0.7072790861129761,-0.654667854309082,-0.6023584604263306
0.23333333333333334,0.08304817974567413,0.14400073885917664,0.0,0.9577330350875854,0.0,0.0,-0.2876586318016052,0.022923113778233528,0.46314895153045654,0.0,0.0,0.0,-4.651638984680176,-0.41541600227355957,0.6981130838394165,0.4200000464916229,1.0,3.381868964424939e-06,-2.290964630446979e-06,2.728199035573198e-07,0.00026691248058341444,0.0002677997399587184,-0.00010433257557451725,-0.0017395582981407642,0.004209650680422783,-0.00012844071898143739,-0.428821325302124,0.6236974000930786,0.8493977785110474,-1.0770211219787598,3.0599865913391113,-5.6709208488464355,0.384708046913147,0.7238692045211792,0.42000001668930054,-0.8965664505958557,3.0,-0.4913301467895508,-3.0000007152557373,-0.07384341210126877,-0.08129526674747467,-0.08849713951349258,-0.09491174668073654,-0.7797748446464539,-0.8154717683792114,-0.8349730968475342,-0.7605908513069153
0.25,0.07969826459884644,0.15000252425670624,0.0,0.9544329643249512,0.0,0.0,-0.29842549562454224,-0.2673954367637634,0.2836917042732239,0.0,0.0,0.0,-0.3323216140270233,-0.4154159724712372,0.6981130838394165,0.4200000464916229,0.9999999403953552,3.7066108689032262e-06,-2.2230169633985497e-06,-2.2550023004441755e-07,0.00026424735551699996,0.00026656591217033565,-0.00010457867756485939,-0.001716934028081596,0.004155629314482212,-0.00013063238293398172,-0.44494861364364624,0.6629451513290405,0.7503276467323303,-0.7106409072875977,1.8839503526687622,-6.127840995788574,0.384708046913147,0.7238692045211792,0.42000001668930054,-0.8465558886528015,2.9999988079071045,-0.5413600206375122,-3.0,-0.09006475657224655,-0.09741468727588654,-0.10448620468378067,-0.11062562465667725,-0.990793764591217,-0.980194091796875,-0.9709509015083313,-0.9641794562339783
0.26666666666666666,0.07865162938833237,0.15139888226985931,0.0,0.9479877352714539,0.0,0.0,-0.3183068633079529,0.014836118556559086,0.013567810878157616,0.0,0.0,0.0,-3.2707483768463135,-0.41541600227355957,0.6981130838394165,0.4200000464916229,0.9999999403953552,3.7197162328084232e-06,-2.4034857233345974e-06,-1.8307420646124228e-07,0.0002662334591150284,0.000267290830379352,-0.00010425737127661705,-0.001732664299197495,0.004196626134216785,-0.00012850995699409395,-0.45278745889663696,0.688522458076477,0.6419433355331421,-0.1262412816286087,1.1339095830917358,-6.660558700561523,0.384708046913147,0.7238692045211792,0.42000001668930054,-0.7965468168258667,2.9999983310699463,-0.5913897752761841,-3.0000011920928955,-0.10681820660829544,-0.11410172283649445,-0.1211123988032341,-0.1271778792142868,-0.9955494403839111,-0.9957874417304993,-0.9959794282913208,-0.9961532950401306
0.2833333333333333,0.07452484220266342,0.15051858127117157,0.0,0.947393000125885,0.0,0.0,-0.320072740316391,-0.32608187198638916,-0.07957538962364197,0.0,0.0,0.0,0.6954483389854431,-0.41541600227355957,0.6981131434440613,0.4200000464916229,0.9999999403953552,3.5841367207467556e-06,-2.3154134396463633e-06,7.404404556154986e-08,0.0002652216353453696,0.0002645539352670312,-0.00010317075066268444,-0.0017022255342453718,0.004185160622000694,-0.00012499756121542305,-0.45052435994148254,0.6974467039108276,0.5377999544143677,0.47276240587234497,0.09381592273712158,-5.851691246032715,0.384708046913147,0.7238692045211792,0.42000001668930054,-0.7465380430221558,3.0000014305114746,-0.6414185166358948,-3.000004291534424,-0.12474185228347778,-0.13171903789043427,-0.1385006457567215,-0.14438776671886444,-1.0121924877166748,-1.0091904401779175,-1.0068988800048828,-1.0050735473632812
0.3,0.06729242205619812,0.14744357764720917,0.0,0.9421847462654114,0.0,0.0,-0.3350938558578491,-0.4250105321407318,-0.2490394115447998,0.0,0.0,0.0,-2.731954574584961,-0.41541600227355957,0.6981130838394165,0.4200000464916229,1.0,3.7243221413518768e-06,-2.271844550705282e-06,9.635388664719358e-08,0.00026312549016438425,0.0002652580733411014,-0.00010438100434839725,-0.0016960209468379617,0.004134732764214277,-0.00013027961540501565,-0.4368591904640198,0.6996626257896423,0.4428134560585022,1.1481369733810425,0.20568019151687622,-5.508450031280518,0.384708046913147,0.7238692045211792,0.42000001668930054,-0.696530282497406,3.000000238418579,-0.6914453506469727,-3.0000011920928955,-0.1421053409576416,-0.1489456295967102,-0.15561595559120178,-0.1614096760749817,-1.0101203918457031,-1.0076587200164795,-1.005776047706604,-1.0042637586593628
0.31666666666666665,0.05882512032985687,0.14174850285053253,0.0,0.9427807331085205,0.0,0.0,-0.3334134519100189,-0.5442846417427063,-0.3815784454345703,0.0,0.0,0.0,1.1402052640914917,-0.41541600227355957,0.6981130838394165,0.4200000464916229,1.0,3.6662690945377108e-06,-2.3924540073494427e-06,1.6800134972072556e-07,0.0002660202735569328,0.0002670696994755417,-0.00010418472811579704,-0.0017310564871877432,0.004193411208689213,-0.00012849205813836306,-0.4284585118293762,0.7033107876777649,0.41380900144577026,0.4393641948699951,0.4573189616203308,-0.032676517963409424,0.384708046913147,0.7238692045211792,0.42000001668930054,-0.646767795085907,2.9646823406219482,-0.7418371438980103,-2.783228874206543,-0.1494903415441513,-0.1570490598678589,-0.16424660384655,-0.17031989991664886,-0.13224774599075317,-0.21048037707805634,-0.260459303855896,-0.2771872878074646
0.3333333333333333,0.04814181104302406,0.13381682336330414,0.0,0.9382327795028687,0.0,0.0,-0.3460046947002411,-0.6879941821098328,-0.5152793526649475,0.0,0.0,0.0,-2.513287305831909,-0.41316163539886475,0.7035738825798035,0.4227291941642761,0.9923595190048218,0.024913020431995392,0.04765430465340614,-0.11104441434144974,0.16812947392463684,0.36904847621917725,0.15707336366176605,3.0797598361968994,5.421212196350098,-13.920276641845703,-0.42452335357666016,0.7106062769889832,0.42387574911117554,0.49001577496528625,0.5569974184036255,-0.12717171013355255,0.384708046913147,0.7238692045211792,0.42000001668930054,-0.5967545509338379,2.9999866485595703,-0.7919031977653503,-2.999995231628418,-0.15081429481506348,-0.15929891169071198,-0.16690334677696228,-0.1728232204914093,-0.23937049508094788,-0.24227911233901978,-0.22104328870773315,-0.17610220611095428
0.35,0.03535423427820206,0.12362676113843918,0.0,0.9392338395118713,0.0,0.0,-0.3432779610157013,-0.8133030533790588,-0.6579996943473816,0.0,0.0,0.0,1.2655549049377441,-0.40726983547210693,0.7142685651779175,0.42418238520622253,0.9823631048202515,0.053756020963191986,0.05945104733109474,-0.16893374919891357,0.6326627135276794,0.8847789764404297,0.051256075501441956,2.687258005142212,-1.2432667016983032,-4.554942607879639,-0.41435110569000244,0.7222480773925781,0.4220653176307678,0.6865789890289307,0.8028366565704346,-0.08414822816848755,0.384708046913147,0.7238692045211792,0.42000001668930054,-0.5467495322227478,2.999976634979248,-0.841937243938446,-2.999830484390259,-0.15647317469120026,-0.16426637768745422,-0.17079199850559235,-0.1752958446741104,-0.36326155066490173,-0.3013899028301239,-0.2164415568113327,-0.11309268325567245
0.36666666666666664,0.025994479656219482,0.11063124239444733,0.0,0.9350311756134033,0.0,0.0,-0.35456550121307373,-0.477692186832428,-0.8261037468910217,0.0,0.0,0.0,-2.3295392990112305,-0.3963187336921692,0.7293232679367065,0.42361271381378174,0.9765798449516296,0.05256517231464386,0.04246065020561218,-0.204268679022789,0.7542857527732849,0.9925044775009155,-0.045695867389440536,-1.2541050910949707,-1.7778733968734741,-4.904127597808838,-0.4009602665901184,0.7349047660827637,0.4212836027145386,0.9865578413009644,0.7938642501831055,-0.03635674715042114,0.384708046913147,0.7238692045211792,0.42000001668930054,-0.496744841337204,2.9999840259552,-0.8919857740402222,-2.9999964237213135,-0.16292983293533325,-0.16906851530075073,-0.17352862656116486,-0.1756661981344223,-0.3873225152492523,-0.2589588165283203,-0.10716070979833603,0.06009194999933243
0.3833333333333333,0.013941345736384392,0.09602444618940353,0.0,0.9193891882896423,0.0,0.0,-0.3933490812778473,-0.8127431869506836,-0.9011626243591309,0.0,0.0,0.0,-5.9541544914245605,-0.37858685851097107,0.7507027387619019,0.42340919375419617,0.9676408171653748,0.05249844491481781,0.0012495869304984808,-0.24680674076080322,1.3940072059631348,1.55543851852417,0.0873807743191719,-2.0385916233062744,-3.816911220550537,-7.186417579650879,-0.38067421317100525,0.7528043985366821,0.42225176095962524,1.521552562713623,1.3717200756072998,0.1061919629573822,0.384708046913147,0.7238692045211792,0.42000001668930054,-0.4467270076274872,2.9908571243286133,-0.9420192837715149,-3.0010273456573486,-0.1717577427625656,-0.17523999512195587,-0.17667238414287567,-0.17556634545326233,-0.5346487164497375,-0.37016984820365906,-0.18536725640296936,0.010047786869108677
0.4,0.005099148023873568,0.07848499715328217,0.0,0.889676570892334,0.0,0.0,-0.45659130811691284,-0.497245728969574,-1.0957151651382446,0.0,0.0,0.0,-9.149747848510742,-0.3414134085178375,0.7793067097663879,0.4281052052974701,0.9495253562927246,0.052100881934165955,-0.024886762723326683,-0.3083302974700928,3.264091968536377,1.5904186964035034,0.37178680300712585,28.591243743896484,-22.647302627563477,12.72144603729248,-0.34307795763015747,0.7819877862930298,0.42647039890289307,3.131946325302124,2.1632611751556396,0.5776393413543701,0.384708046913147,0.7238692045211792,0.42000001668930054,-0.4059140384197235,1.5479540824890137,-0.9920281171798706,-2.999934434890747,-0.18119342625141144,-0.1814468502998352,-0.17936190962791443,-0.1746322214603424,-0.7187944054603577,-0.4713868796825409,-0.21151000261306763,0.048142872750759125
0.4166666666666667,-0.0017090950859710574,0.06612327694892883,0.0,0.8431629538536072,0.0,0.0,-0.5376580953598022,-0.35904982686042786,-0.6191276907920837,0.0,0.0,0.0,-11.983028411865234,-0.26502788066864014,0.8169023990631104,0.43646693229675293,0.9242992401123047,0.11218829452991486,-0.06716090440750122,-0.3585723042488098,5.972572326660156,2.0787031650543213,0.531053364276886,24.299449920654297,-24.169788360595703,10.173885345458984,-0.26637542247772217,0.8201791048049927,0.4352174997329712,5.8219499588012695,2.61024808883667,0.6992108225822449,0.384708046913147,0.7238692045211792,0.42000001668930054,-0.3864584267139435,0.9206544160842896,-0.95452481508255,2.9948031902313232,-0.19736823439598083,-0.19548514485359192,-0.18802455067634583,-0.17785915732383728,-0.9292853474617004,-0.9187743663787842,-0.6286903619766235,-0.31014034152030945
0.43333333333333335,-0.004684227053076029,0.05665583163499832,0.0,0.8046160936355591,0.0,0.0,-0.5937953591346741,-0.1145472303032875,-0.5226991772651672,0.0,0.0,0.0,-7.038768768310547,-0.16924776136875153,0.8537058234214783,0.4490394592285156,0.8765465021133423,0.11682121455669403,-0.09786844253540039,-0.4565531611442566,5.824737071990967,1.7014175653457642,0.8489627838134766,0.41945680975914,-1.744683027267456,-9.084908485412598,-0.1707575023174286,0.858074426651001,0.4473887085914612,5.8829827308654785,1.8368399143218994,0.7616748809814453,0.384708046913147,0.7238692045211792,0.42000001668930054,-0.36952927708625793,1.1950080394744873,-0.9798766374588013,-3.0000007152557373,-0.2094147801399231,-0.20796498656272888,-0.19754299521446228,-0.18304909765720367,-0.6764506101608276,-0.6691247224807739,-0.5099260210990906,-0.29326939582824707
0.45,-0.009893260896205902,0.05210620164871216,0.0,0.7857166528701782,0.0,0.0,-0.6185865998268127,-0.27807164192199707,-0.2394091933965683,0.0,0.0,0.0,-2.4103474617004395,-0.07027729600667953,0.871303915977478,0.4620037376880646,0.815364420413971,0.11278361827135086,-0.08887185156345367,-0.5608585476875305,5.972023963928223,-0.2014649510383606,0.5282544493675232,-5.797234535217285,-22.693302154541016,16.626834869384766,-0.07212327420711517,0.877960205078125,0.45934635400772095,6.0738091468811035,0.6898710131645203,0.8314843773841858,0.384708046913147,0.7238692045211792,0.42000001668930054,-0.3467312753200531,1.2751637697219849,-1.0298994779586792,-3.0000052452087402,-0.22400610148906708,-0.22161857783794403,-0.2072809487581253,-0.18830357491970062,-0.7268816828727722,-0.7177537083625793,-0.4918214678764343,-0.24191616475582123
0.4666666666666667,-0.009862417355179787,0.041444577276706696,0.0,0.7581409215927124,0.0,0.0,-0.6520907282829285,0.09243620187044144,-0.7853070497512817,0.0,0.0,0.0,-6.243893146514893,0.027339614927768707,0.8739466667175293,0.46917226910591125,0.7749289274215698,0.10007917135953903,-0.08832406252622604,-0.6177929639816284,5.752016067504883,-1.157019853591919,0.11199169605970383,-14.73491096496582,-20.290122985839844,19.192602157592773,0.027433032169938087,0.8816971778869629,0.46724992990493774,5.963940143585205,-0.3103969991207123,0.4691285490989685,0.384708046913147,0.7238692045211792,0.42000001668930054,-0.32884252071380615,0.7785468101501465,-1.0799216032028198,-3.0000038146972656,-0.2296268492937088,-0.2268843650817871,-0.20944486558437347,-0.18705441057682037,-0.20956116914749146,-0.13495318591594696,0.05537157878279686,0.254762202501297
0.48333333333333334,-0.01385892741382122,0.034857336431741714,0.0,0.7413453459739685,0.0,0.0,-0.671123743057251,-0.20488035678863525,-0.3300512433052063,0.0,0.0,0.0,-1.6459954977035522,0.11963474750518799,0.8607874512672424,0.4755335748195648,0.6904850602149963,0.07263878732919693,-0.09348132461309433,-0.7135931253433228,4.864534854888916,-1.869356632232666,0.36528170108795166,-16.105289459228516,9.077582359313965,12.208415985107422,0.1185436099767685,0.8688593506813049,0.4746817946434021,5.361525535583496,-1.0471261739730835,0.5543732643127441,0.384708046913147,0.7238692045211792,0.42000001668930054,-0.31875741481781006,0.3449151813983917,-1.1299437284469604,-3.000000476837158,-0.23861795663833618,-0.2331567406654358,-0.21215541660785675,-0.18653441965579987,-0.43156400322914124,-0.2961086630821228,-0.1517852395772934,-0.03519763424992561
0.5,-0.014872081577777863,0.032120466232299805,0.0,0.7190247774124146,0.0,0.0,-0.6949844360351562,-0.007319219410419464,-0.0966140478849411,0.0,0.0,0.0,-4.788198471069336,0.19897332787513733,0.8408302664756775,0.4743556082248688,0.6359571814537048,-0.02290257066488266,-0.14099793136119843,-0.7583886384963989,4.006224632263184,-1.6960104703903198,0.06901741772890091,10.09561538696289,2.573148250579834,8.956561088562012,0.19754262268543243,0.8494181632995605,0.4780280590057373,4.407216548919678,-1.4382472038269043,-0.09804069995880127,0.384708046913147,0.7238692045211792,0.42000001668930054,-0.3107105791568756,0.6912927031517029,-1.179965853691101,-2.9999759197235107,-0.23975199460983276,-0.23679745197296143,-0.2142719328403473,-0.1875854879617691,0.059246163815259933,-0.11127077043056488,-0.055603235960006714,-0.03219116851687431
0.5166666666666666,-0.012787423096597195,0.02815299481153488,0.0,0.7091979384422302,0.0,0.0,-0.705009400844574,0.15634673833847046,-0.24886704981327057,0.0,0.0,0.0,-0.6071329712867737,0.2623592019081116,0.8141188025474548,0.46912676095962524,0.5966131091117859,-0.05950586125254631,-0.11585947871208191,-0.7918891310691833,2.9057021141052246,-2.275949001312256,-0.4140653610229492,-1.3299964666366577,2.768005609512329,19.523237228393555,0.2618328928947449,0.8226259350776672,0.47331762313842773,3.4787912368774414,-1.892396092414856,-0.4349018633365631,0.384708046913147,0.7238692045211792,0.42000001668930054,-0.2968566417694092,0.8128281235694885,-1.2299879789352417,-2.9999570846557617,-0.23773698508739471,-0.23652003705501556,-0.21339993178844452,-0.1868237406015396,0.0261920765042305,1.4470890164375305e-05,0.03831452503800392,0.02295956201851368
0.5333333333333333,-0.008340485394001007,0.026816079393029213,0.0,0.691841721534729,0.0,0.0,-0.7220491766929626,0.31604015827178955,-0.017395412549376488,0.0,0.0,0.0,-3.781431198120117,0.31191307306289673,0.7874249815940857,0.4555952548980713,0.5754803419113159,-0.09341943264007568,-0.0924847275018692,-0.8071812987327576,2.1597399711608887,-1.9900211095809937,-0.9787403345108032,-3.682915210723877,4.672670364379883,22.371015548706055,0.31187736988067627,0.7949820756912231,0.45985835790634155,2.735034942626953,-1.6183438301086426,-0.9988316297531128,0.384708046913147,0.7238692045211792,0.42000001668930054,-0.2834669053554535,0.6905125975608826,-1.2800101041793823,-2.9999468326568604,-0.23467803001403809,-0.23443669080734253,-0.2120790183544159,-0.1869988888502121,0.2804771363735199,0.2220039665699005,0.12677673995494843,-0.009811674244701862
0.55,-0.0013046039966866374,0.026794202625751495,0.0,0.6875235438346863,0.0,0.0,-0.7261620759963989,0.45411884784698486,0.06806493550539017,0.0,0.0,0.0,0.24004864692687988,0.34827253222465515,0.7614968419075012,0.4361456632614136,0.5511652231216431,-0.13734792172908783,-0.06657618284225464,-0.8203169703483582,1.6469684839248657,-1.6698200702667236,-1.2029410600662231,-1.6414984464645386,6.729859352111816,2.374192237854004,0.3482804596424103,0.7680987119674683,0.440387487411499,1.7653937339782715,-1.5900802612304688,-1.2679834365844727,0.384708046913147,0.7238692045211792,0.42000001668930054,-0.27108079195022583,0.7235869765281677,-1.330020785331726,-2.9999184608459473,-0.22822466492652893,-0.22897987067699432,-0.20892582833766937,-0.18677830696105957,0.42768383026123047,0.37172943353652954,0.2021978497505188,-0.002476839581504464
0.5666666666666667,0.007491320837289095,0.023833543062210083,0.0,0.6732770800590515,0.0,0.0,-0.7393902540206909,0.5795300602912903,-0.21151237189769745,0.0,0.0,0.0,-3.1733179092407227,0.37161991000175476,0.7469317317008972,0.4236791133880615,0.521847665309906,-0.08085691928863525,-0.049516115337610245,-0.8477530479431152,0.7612031102180481,-0.48549649119377136,-0.15507161617279053,10.850021362304688,-5.1164937019348145,-5.547328948974609,0.3685545325279236,0.7518802881240845,0.4263305068016052,0.6493191719055176,-0.49824362993240356,-0.07582001388072968,0.384708046913147,0.7238692045211792,0.42000001668930054,-0.25416043400764465,1.4999544620513916,-1.2916871309280396,2.998847484588623,-0.21762782335281372,-0.22007784247398376,-0.20393534004688263,-0.18609684705734253,0.6633102297782898,0.5542507171630859,0.2958950102329254,0.02077336236834526
0.5833333333333334,0.014062590897083282,0.023962562903761864,0.0,0.6718214750289917,0.0,0.0,-0.7407131195068359,0.3239334523677826,0.02988550066947937,0.0,0.0,0.0,0.6703210473060608,0.38089123368263245,0.7394449710845947,0.42115506529808044,0.5501374006271362,-0.016560550779104233,0.00848326925188303,-0.8348667025566101,0.42939457297325134,-0.42946726083755493,-0.12215666472911835,10.671870231628418,-1.715051293373108,3.186335563659668,0.3770476281642914,0.7419891357421875,0.42714521288871765,0.3928515315055847,-0.5451759099960327,0.09131784737110138,0.384708046913147,0.7238692045211792,0.42000001668930054,-0.2551001310348511,-1.3591653108596802,-1.311479926109314,-2.9999783039093018,-0.2094830423593521,-0.21301378309726715,-0.2007121741771698,-0.18701443076133728,0.5333227515220642,0.46210935711860657,0.2164316177368164,-0.04355061426758766
0.6,0.02139894664287567,0.026758583262562752,0.0,0.6596242189407349,0.0,0.0,-0.7515955567359924,0.4483540952205658,0.24181851744651794,0.0,0.0,0.0,-2.862637519836426,0.384721964597702,0.7344657778739929,0.4202747941017151,0.5861045122146606,-0.004163825418800116,0.00543260620906949,-0.8102064728736877,0.1419534832239151,-0.18715311586856842,-0.03813595324754715,-0.7031892538070679,-1.8399933576583862,5.948826313018799,0.38163161277770996,0.7375737428665161,0.42569348216056824,0.24916434288024902,-0.10646651685237885,-0.09026492387056351,0.384708046913147,0.7238692045211792,0.42000001668930054,-0.26448535919189453,0.08881384134292603,-1.273228406906128,2.9998064041137695,-0.19979088008403778,-0.2049359381198883,-0.19711370766162872,-0.18797869980335236,0.6495475172996521,0.5371212959289551,0.25536027550697327,-0.025155212730169296
0.6166666666666667,0.025816285982728004,0.025605009868741035,0.0,0.6596903800964355,0.0,0.0,-0.7515375018119812,0.20125672221183777,-0.12014037370681763,0.0,0.0,0.0,0.908502995967865,0.3861923813819885,0.7310974597930908,0.4205271303653717,0.6077829599380493,-0.008123347535729408,0.010613919235765934,-0.7939906716346741,-0.09018675237894058,-0.3095092475414276,-0.01163111999630928,-0.2077091634273529,-0.47346529364585876,2.085726499557495,0.38219553232192993,0.7347924709320068,0.4269216060638428,-0.14905111491680145,-0.22983413934707642,0.14308856427669525,0.384708046913147,0.7238692045211792,0.42000001668930054,-0.3043084740638733,-2.999906301498413,-1.2933000326156616,-2.9999067783355713,-0.18842139840126038,-0.19483394920825958,-0.19109731912612915,-0.18606093525886536,0.51109778881073,0.4938565790653229,0.3075549006462097,0.11561269313097
0.6333333333333333,0.031020045280456543,0.029123982414603233,0.0,0.6487870216369629,0.0,0.0,-0.7609699964523315,0.32490915060043335,0.20066776871681213,0.0,0.0,0.0,-2.5546505451202393,0.38467055559158325,0.7281339764595032,0.42036497592926025,0.6211055517196655,-0.006155352108180523,0.0023880598600953817,-0.783699095249176,0.10616036504507065,0.010525043122470379,0.11561478674411774,-1.54446542263031,4.013591766357422,-1.1248184442520142,0.38151153922080994,0.734830379486084,0.4293103814125061,0.1104421317577362,0.1874496042728424,0.15478624403476715,0.384708046913147,0.7238692045211792,0.42000001668930054,-0.33717143535614014,-1.068850040435791,-1.3432554006576538,-2.999882221221924,-0.18277572095394135,-0.18917541205883026,-0.1880669742822647,-0.18570293486118317,0.5249193906784058,0.4773789048194885,0.28649333119392395,0.10167714953422546
0.65,0.03784023970365524,0.02794996090233326,0.0,0.6508623361587524,0.0,0.0,-0.7591957449913025,0.43732815980911255,-0.07720131427049637,0.0,0.0,0.0,1.2179373502731323,0.3861273229122162,0.7282452583312988,0.4209365248680115,0.6155115962028503,-0.015210692770779133,0.014505492523312569,-0.7878475189208984,0.08100926131010056,0.003318559378385544,0.007871944457292557,0.999582827091217,0.9596227407455444,-0.8376344442367554,0.38136929273605347,0.7371076345443726,0.431901216506958,-0.1459164023399353,0.05562197417020798,0.16449689865112305,0.384708046913147,0.7238692045211792,0.42000001668930054,-0.38203150033950806,-2.999994993209839,-1.3932651281356812,-2.9999096393585205,-0.17356173694133759,-0.1805441528558731,-0.18229566514492035,-0.18275174498558044,0.34182220697402954,0.3575735092163086,0.2413495033979416,0.12048028409481049
0.6666666666666666,0.046629633754491806,0.02407224103808403,0.0,0.6692788600921631,0.0,0.0,-0.7430112957954407,0.5713185667991638,-0.32631149888038635,0.0,0.0,0.0,3.9738967418670654,0.3850906789302826,0.7279594540596008,0.4204249680042267,0.6225237846374512,-0.006824048236012459,0.00825054757297039,-0.782527506351471,-0.03771231696009636,-0.01308856438845396,-0.06148114427924156,-0.7886244654655457,-3.084341526031494,-1.5767006874084473,0.380115270614624,0.7365168333053589,0.435430109500885,-0.0760972797870636,-0.10627792775630951,0.26236364245414734,0.384708046913147,0.7238692045211792,0.42000001668930054,-0.4320336878299713,-3.0000054836273193,-1.4432556629180908,-2.9998278617858887,-0.17026251554489136,-0.17589044570922852,-0.178155317902565,-0.1791069656610489,0.1625920981168747,0.28142160177230835,0.3058028817176819,0.3362221419811249
0.6833333333333333,0.05757113918662071,0.016854502260684967,0.0,0.6751723289489746,0.0,0.0,-0.7376599907875061,0.6864506602287292,-0.49611231684684753,0.0,0.0,0.0,-0.06147528812289238,0.38463661074638367,0.7280489802360535,0.4200000762939453,0.622605562210083,1.0575859960226808e-05,2.065745684376452e-05,-0.7825357913970947,0.00047779380111023784,0.00202094204723835,-0.0005057556554675102,-0.009944633580744267,0.0012029558420181274,-0.008328976109623909,0.38174086809158325,0.735416829586029,0.44086116552352905,0.23030737042427063,-0.0907914936542511,0.42966118454933167,0.384708046913147,0.7238692045211792,0.42000001668930054,-0.48204681277275085,-3.0000016689300537,-1.493273377418518,-3.000000476837158,-0.16897419095039368,-0.172343447804451,-0.1736602634191513,-0.1735159456729889,0.06257850676774979,0.2032310664653778,0.2787732183933258,0.3650822043418884
0.7,0.07066664844751358,0.008673381991684437,0.0,0.6586722731590271,0.0,0.0,-0.7524299621582031,0.8213496208190918,-0.5470220446586609,0.0,0.0,0.0,-3.5531187057495117,0.38463643193244934,0.7280513048171997,0.4200000464916229,0.6226040124893188,5.813415100419661e-07,-3.6966896459489362e-06,-0.7825371026992798,0.00018274036119692028,-0.00029205973260104656,-0.00010586157441139221,0.006065500900149345,-0.0006076167919673026,-0.0005944239092059433,0.38950830698013306,0.7357066869735718,0.45604532957077026,0.7009084224700928,0.0831608772277832,1.4668896198272705,0.384708046913147,0.7238692045211792,0.42000001668930054,-0.5320594310760498,-2.999987840652466,-1.543291687965393,-2.999999761581421,-0.17056740820407867,-0.17148013412952423,-0.17124424874782562,-0.16938646137714386,-0.14059089124202728,0.0014329943805932999,0.09932836890220642,0.20637032389640808
0.7166666666666667,0.08750873059034348,0.005768113769590855,0.0,0.6237950325012207,0.0,0.0,-0.7815879583358765,0.931207537651062,-0.19989223778247833,0.0,0.0,0.0,-6.183588981628418,0.38463646173477173,0.7280513048171997,0.4200000464916229,0.6226040720939636,6.005654995533405e-07,-3.434662403378752e-06,-0.7825369834899902,0.00017108829342760146,-0.00028205057606101036,-9.983987547457218e-05,0.005886843428015709,-0.0006284079281613231,-0.0005604621837846935,0.4082010090351105,0.7324917316436768,0.4863967001438141,1.633664608001709,-0.2389325052499771,2.222961187362671,0.384708046913147,0.7238692045211792,0.42000001668930054,-0.5820683240890503,-2.9993841648101807,-1.593307614326477,-2.9999189376831055,-0.17976462841033936,-0.17723309993743896,-0.17419344186782837,-0.16949398815631866,-0.3564603328704834,-0.2073517143726349,-0.08120350539684296,0.0540921725332737
0.7333333333333333,0.10007844120264053,0.003846250008791685,0.0,0.6047476530075073,0.0,0.0,-0.7964171767234802,0.6903767585754395,-0.12612169981002808,0.0,0.0,0.0,-1.7685903310775757,0.38463646173477173,0.7280513048171997,0.4200000464916229,0.6226038336753845,5.97963492054987e-07,-3.5319671951583587e-06,-0.7825371026992798,0.00017064725398086011,-0.00028205892886035144,-9.975256398320198e-05,0.00588887557387352,-0.0006348102469928563,-0.0005594504764303565,0.43453675508499146,0.7317044734954834,0.5238521695137024,1.488621711730957,0.1260949969291687,2.2573981285095215,0.384708046913147,0.7238692045211792,0.42000001668930054,-0.6012991070747375,0.3838958144187927,-1.6433221101760864,-2.999999523162842,-0.183377206325531,-0.17937512695789337,-0.17516079545021057,-0.16918238997459412,-0.039799388498067856,-0.01789175532758236,-0.008879108354449272,0.0051522888243198395
0.75,0.10809295624494553,0.003756955498829484,0.0,0.611504316329956,0.0,0.0,-0.7912411093711853,0.4060252904891968,0.04266805946826935,0.0,0.0,0.0,1.8799289464950562,0.38463646173477173,0.7280513048171997,0.4200000464916229,0.6226036548614502,6.961475378375326e-07,-3.3974406505876686e-06,-0.7825373411178589,0.0001730082876747474,-0.00028131098952144384,-0.00010039494372904301,0.005859157536178827,-0.0006025361944921315,-0.0005643449258059263,0.45426368713378906,0.734149694442749,0.5556965470314026,0.8064367771148682,0.17240369319915771,1.6241048574447632,0.384708046913147,0.7238692045211792,0.42000001668930054,-0.5732389092445374,2.7527718544006348,-1.6041845083236694,3.0000009536743164,-0.18259087204933167,-0.17844495177268982,-0.17422492802143097,-0.16820253431797028,0.12486454844474792,0.12341800332069397,0.11569714546203613,0.10666858404874802
0.7666666666666666,0.11182000488042831,0.003598903538659215,0.0,0.6058815717697144,0.0,0.0,-0.7955548167228699,0.18590740859508514,0.01606483943760395,0.0,0.0,0.0,-1.8073077201843262,0.38463646173477173,0.7280513048171997,0.4200000464916229,0.6226038336753845,5.820767796649307e-07,-3.4944991966767702e-06,-0.7825371026992798,0.00017173888045363128,-0.0002823942922987044,-9.995861910283566e-05,0.005891189910471439,-0.0006215044413693249,-0.0005618943250738084,0.4597952961921692,0.7367792129516602,0.5757116079330444,-0.14813628792762756,0.0664469450712204,0.9393543004989624,0.384708046913147,0.7238692045211792,0.42000001668930054,-0.5380594730377197,1.5444960594177246,-1.5541280508041382,2.999999761581421,-0.1803574562072754,-0.1761983335018158,-0.17205563187599182,-0.16620825231075287,0.03391912952065468,0.061646610498428345,0.08161620795726776,0.08846732974052429
0.7833333333333333,0.1121581569314003,0.005929751321673393,0.0,0.6117812395095825,0.0,0.0,-0.7910270094871521,-0.027035269886255264,0.19554640352725983,0.0,0.0,0.0,1.6942827701568604,0.38463646173477173,0.7280513048171997,0.4200000464916229,0.6226039528846741,5.890238981010043e-07,-3.409695182199357e-06,-0.7825371026992798,0.0001702091540209949,-0.0002820826484821737,-9.963288903236389e-05,0.005892000626772642,-0.0006399008561857045,-0.0005584691534750164,0.45610594749450684,0.738039493560791,0.5876770615577698,-0.34410983324050903,0.12510903179645538,0.557549774646759,0.384708046913147,0.7238692045211792,0.42000001668930054,-0.5043318271636963,2.398833990097046,-1.504090666770935,2.999999761581421,-0.17921975255012512,-0.17478519678115845,-0.1704363077878952,-0.16460303962230682,0.1311556100845337,0.13074436783790588,0.12852643430233002,0.11296553909778595
0.8,0.1103692352771759,0.004506584722548723,0.0,0.6054762601852417,0.0,0.0,-0.7958633899688721,-0.14247143268585205,-0.1756800264120102,0.0,0.0,0.0,-1.8674051761627197,0.3846364915370941,0.7280513048171997,0.4200000464916229,0.6226038336753845,5.890128704777453e-07,-3.501938408589922e-06,-0.7825371026992798,0.00017177144763991237,-0.0002824588736984879,-9.996350854635239e-05,0.005892574321478605,-0.0006214327877387404,-0.0005619872245006263,0.4462316036224365,0.7398560047149658,0.5926482677459717,-0.8487467765808105,0.0586220808327198,0.2056962251663208,0.384708046913147,0.7238692045211792,0.42000001668930054,-0.48985305428504944,-0.42893677949905396,-1.4540342092514038,2.999999523162842,-0.17516598105430603,-0.171087846159935,-0.1670684516429901,-0.16175779700279236,0.25733083486557007,0.2366708666086197,0.21823333203792572,0.18728138506412506
0.8166666666666667,0.11107184737920761,0.008258634246885777,0.0,0.6118900775909424,0.0,0.0,-0.7909427881240845,-0.00870579481124878,0.271579384803772,0.0,0.0,0.0,1.6489551067352295,0.38463646173477173,0.7280513048171997,0.4200000464916229,0.6226040124893188,5.954570951871574e-07,-3.4270001378899906e-06,-0.7825369834899902,0.00017157848924398422,-0.0002822282840497792,-9.996281005442142e-05,0.005888196639716625,-0.0006234799511730671,-0.0005615594564005733,0.4357949495315552,0.7396409511566162,0.594212532043457,-0.34656351804733276,0.1675591766834259,0.048583827912807465,0.384708046913147,0.7238692045211792,0.42000001668930054,-0.4770864248275757,1.7608325481414795,-1.4040311574935913,2.999999761581421,-0.1773485243320465,-0.1724509596824646,-0.167605921626091,-0.16175726056098938,0.033305972814559937,0.03282388299703598,0.041843827813863754,0.04285838082432747
0.8333333333333334,0.10869667679071426,0.007731699850410223,0.0,0.6056544184684753,0.0,0.0,-0.7957277894020081,-0.14292891323566437,-0.06263525784015656,0.0,0.0,0.0,-1.7172961235046387,0.38463646173477173,0.7280513048171997,0.4200000464916229,0.6226038336753845,5.875982083125564e-07,-3.522386805343558e-06,-0.7825372219085693,0.00017066094733309,-0.00028205709531903267,-9.975861757993698e-05,0.005888781044632196,-0.0006346352747641504,-0.0005594846443273127,0.4317839443683624,0.7408473491668701,0.5944377779960632,-0.20104244351387024,-0.10199958831071854,0.09421795606613159,0.384708046913147,0.7238692045211792,0.42000001668930054,-0.4937453269958496,-3.0000009536743164,-1.3539785146713257,3.0000007152557373,-0.17457999289035797,-0.17006681859493256,-0.16536933183670044,-0.1597166806459427,0.025144826620817184,0.03198496997356415,0.05281698331236839,0.06989669054746628
0.85,0.1090698167681694,0.009232762269675732,0.0,0.6115379333496094,0.0,0.0,-0.7912150621414185,0.07779884338378906,0.17945866286754608,0.0,0.0,0.0,1.576747179031372,0.38463646173477173,0.7280513048171997,0.4200000464916229,0.6226038932800293,6.166447406030784e-07,-3.4712850265350426e-06,-0.782537043094635,0.00017110732733272016,-0.00028180485242046416,-9.995163418352604e-05,0.005880291108042002,-0.0006298524676822126,-0.0005605670739896595,0.4330342411994934,0.7388061285018921,0.5958495140075684,0.33360061049461365,-0.10987971723079681,0.11513254046440125,0.384708046913147,0.7238692045211792,0.42000001668930054,-0.5213687419891357,-0.507737398147583,-1.3729274272918701,-2.9999990463256836,-0.17482364177703857,-0.16998115181922913,-0.16462676227092743,-0.1582898646593094,0.039763156324625015,0.05071724206209183,0.08728285133838654,0.1319461315870285
0.8666666666666667,0.11172820627689362,0.00839519314467907,0.0,0.6045815348625183,0.0,0.0,-0.7965432405471802,0.18881218135356903,-0.08940115571022034,0.0,0.0,0.0,-1.956754446029663,0.3846364915370941,0.7280513048171997,0.4200000464916229,0.6226038336753845,5.81816891553899e-07,-3.3853186778287636e-06,-0.7825371026992798,0.00017199607100337744,-0.00028239606763236225,-0.00010002613998949528,0.005890042055398226,-0.0006183882942423224,-0.0005624578916467726,0.4408285617828369,0.7359094619750977,0.5964748859405518,0.5625886917114258,-0.2913198471069336,0.11183556914329529,0.384708046913147,0.7238692045211792,0.42000001668930054,-0.5569726824760437,-3.000000238418579,-1.3750985860824585,2.283328056335449,-0.17235146462917328,-0.16763851046562195,-0.1619599312543869,-0.15511198341846466,0.10669417679309845,0.11501169949769974,0.14800678193569183,0.19055980443954468
0.8833333333333333,0.1165795624256134,0.010279669426381588,0.0,0.6096729636192322,0.0,0.0,-0.7926530241966248,0.3214121460914612,0.15683989226818085,0.0,0.0,0.0,1.725148320198059,0.38463646173477173,0.7280513048171997,0.4200000464916229,0.6226037740707397,3.9436582710550283e-07,-3.499169451970374e-06,-0.7825372219085693,0.0001692355435807258,-0.00028144227690063417,-9.954837150871754e-05,0.005881394259631634,-0.0006525570643134415,-0.0005564008606597781,0.45180243253707886,0.732016921043396,0.6018027663230896,0.7297570705413818,-0.1574651300907135,0.5391246676445007,0.384708046913147,0.7238692045211792,0.42000001668930054,-0.5775260329246521,0.26749157905578613,-1.4004333019256592,-3.0000007152557373,-0.17109093070030212,-0.16645757853984833,-0.16047166287899017,-0.15315909683704376,0.13907313346862793,0.11057639122009277,0.10365015268325806,0.10636891424655914
0.9,0.11888006329536438,0.00839297752827406,0.0,0.6316313147544861,0.0,0.0,-0.7752689123153687,0.0860508605837822,-0.15576307475566864,0.0,0.0,0.0,4.265623092651367,0.38463646173477173,0.7280513048171997,0.4200000464916229,0.6226038932800293,6.210566994013789e-07,-3.6156618534732843e-06,-0.7825371623039246,0.00016994249017443508,-0.0002817148924805224,-9.962241165339947e-05,0.005884725134819746,-0.0006425033789128065,-0.0005579027347266674,0.4632793664932251,0.72847980260849,0.6099933385848999,0.5988057851791382,-0.30881932377815247,0.4920752942562103,0.384708046913147,0.7238692045211792,0.42000001668930054,-0.5870627760887146,-1.2719292640686035,-1.3619872331619263,3.000000238418579,-0.1670791655778885,-0.16289938986301422,-0.15708746016025543,-0.14984214305877686,0.1718732714653015,0.1676243543624878,0.17410960793495178,0.18198589980602264
