vladlanda/robotic-transformer/data/env_000_episode_0118.csv
sim_time_s,robot_box_x,robot_box_y,robot_box_z,robot_box_quat_w,robot_box_quat_x,robot_box_quat_y,robot_box_quat_z,robot_box_linvel_x,robot_box_linvel_y,robot_box_linvel_z,robot_box_angvel_x,robot_box_angvel_y,robot_box_angvel_z,cube_world_x,cube_world_y,cube_world_z,cube_quat_w,cube_quat_x,cube_quat_y,cube_quat_z,cube_linvel_x,cube_linvel_y,cube_linvel_z,cube_angvel_x,cube_angvel_y,cube_angvel_z,endpoint_world_x,endpoint_world_y,endpoint_world_z,endpoint_linvel_x,endpoint_linvel_y,endpoint_linvel_z,target_cube_world_x,target_cube_world_y,target_cube_world_z,gripper_actual_pos_rad_gp_leftgearjoint,gripper_actual_vel_rad_s_gp_leftgearjoint,gripper_actual_pos_rad_gp_rotatingjoint,gripper_actual_vel_rad_s_gp_rotatingjoint,motor_angle_rad_joint1,motor_angle_rad_joint2,motor_angle_rad_joint3,motor_angle_rad_joint4,motor_speed_rad_s_joint1,motor_speed_rad_s_joint2,motor_speed_rad_s_joint3,motor_speed_rad_s_joint4
0.0,0.0,0.0,0.0,1.0,0.0,0.0,0.0,0.0,0.0,0.0,0.0,0.0,0.0,-0.3413163125514984,0.7613186240196228,0.41999998688697815,1.0,0.0,0.0,0.0,0.0,0.0,0.0,0.0,0.0,0.0,3.42540442943573e-06,-0.005000244826078415,1.313499927520752,0.0,0.0,0.0,0.35887718200683594,0.724181056022644,0.42000001668930054,-1.5707999467849731,0.0,0.0,0.0,0.0,0.0,0.0,0.0,0.0,0.0,0.0,0.0
0.016666666666666666,0.002893480472266674,0.002096491400152445,0.0,0.9998934268951416,0.0,0.0,-0.01459851861000061,0.2399936318397522,0.17868177592754364,0.0,0.0,0.0,-3.0784847736358643,-0.34131643176078796,0.7613183259963989,0.41999998688697815,1.0,3.2799914606584935e-06,-8.339814598912199e-07,8.465387679734704e-08,-1.9833554688375443e-05,0.00017983050202019513,-6.133061833679676e-05,0.0009432226070202887,-0.004689437802881002,-0.0003198152990080416,-0.007000653073191643,0.004029660485684872,1.315935730934143,-0.7958215475082397,1.042777180671692,0.17944926023483276,0.35887718200683594,0.724181056022644,0.42000001668930054,-1.5301095247268677,3.0000014305114746,-0.04586448520421982,-3.0,0.0008749340777285397,0.0008007418364286423,0.0007145731942728162,0.0006150314584374428,0.1106591522693634,0.09721467643976212,0.08290452510118484,0.06767481565475464
0.03333333333333333,0.008878524415194988,0.0066395653411746025,0.0,0.9998875856399536,0.0,0.0,-0.014992475509643555,0.4024837911128998,0.31155839562416077,0.0,0.0,0.0,0.9024037718772888,-0.3413165509700775,0.7613182663917542,0.4200000464916229,1.0,3.3908515888469992e-06,-2.13249495573109e-06,-3.7115494677664174e-08,0.000263578025624156,0.00026937643997371197,-0.00010509369894862175,-0.0017706367652863264,0.004130816552788019,-0.00013547707931138575,-0.025228217244148254,0.02578001655638218,1.3169386386871338,-1.3297452926635742,1.596083164215088,-0.03681938350200653,0.35887718200683594,0.724181056022644,0.42000001668930054,-1.4800903797149658,2.999999761581421,-0.09590425342321396,-3.0000009536743164,0.00278213107958436,0.002387150190770626,0.001954748760908842,0.0014819283969700336,0.14169754087924957,0.11167918145656586,0.08016344904899597,0.04705313965678215
0.05,0.0175172109156847,0.013402109034359455,0.0,0.9995558261871338,0.0,0.0,-0.029801947996020317,0.581019401550293,0.4483129680156708,0.0,0.0,0.0,-2.6080210208892822,-0.3413165807723999,0.7613183259963989,0.4200000464916229,1.0,3.765189603655017e-06,-2.2119716049928684e-06,5.599928076804872e-09,0.00026530888862907887,0.00026691562379710376,-0.00010440615005791187,-0.0017244024202227592,0.004177452065050602,-0.00012949395750183612,-0.04774165153503418,0.05784837156534195,1.3137747049331665,-1.3643858432769775,2.2042031288146973,-0.3167608976364136,0.35887718200683594,0.724181056022644,0.42000001668930054,-1.4300720691680908,3.00000262260437,-0.14594295620918274,-3.000000476837158,0.0046087331138551235,0.0035192191135138273,0.0023579751141369343,0.0011209157528355718,0.10894215852022171,0.05215081945061684,-0.006513239815831184,-0.06712733954191208
0.06666666666666667,0.029702715575695038,0.022644659504294395,0.0,0.9974460601806641,0.0,0.0,-0.07142341881990433,0.7912869453430176,0.5994067192077637,0.0,0.0,0.0,-5.8286542892456055,-0.3413165807723999,0.7613182663917542,0.4200000464916229,0.9999999403953552,3.4067852539010346e-06,-2.285639766341774e-06,4.30075232316085e-07,0.0002670250250957906,0.00026791656273417175,-0.0001043803058564663,-0.001740635372698307,0.004211715888231993,-0.00012850323400925845,-0.07140681147575378,0.09768960624933243,1.3067125082015991,-1.4652230739593506,2.546024799346924,-0.5341338515281677,0.35887718200683594,0.724181056022644,0.42000001668930054,-1.3800512552261353,2.9999985694885254,-0.11243750154972076,3.0000007152557373,0.005935933906584978,0.0038640021812170744,0.0016814006958156824,-0.0006162814679555595,0.06866493076086044,0.004477205686271191,-0.061767853796482086,-0.13009044528007507
0.08333333333333333,0.03605489060282707,0.03656278923153877,0.0,0.9954183101654053,0.0,0.0,-0.09561597555875778,0.24760907888412476,0.925383448600769,0.0,0.0,0.0,-1.8713405132293701,-0.3413165807723999,0.7613182663917542,0.4200000464916229,0.9999999403953552,3.6261167224438395e-06,-2.3353582037088927e-06,3.0319867505568254e-07,0.0002661397447809577,0.00026685098418965936,-0.00010405061766505241,-0.0017283124616369605,0.004196389112621546,-0.00012790902110282332,-0.09922720491886139,0.13712438941001892,1.295353889465332,-1.6735517978668213,2.4224867820739746,-0.7455722093582153,0.35887718200683594,0.724181056022644,0.42000001668930054,-1.3300548791885376,3.000000238418579,-0.14442825317382812,-3.000002384185791,0.0009065578924492002,-0.0018148908857256174,-0.0046997941099107265,-0.007756343577057123,-0.40717118978500366,-0.4484620988368988,-0.4923798739910126,-0.5391944646835327
0.1,0.04696141555905342,0.05097874253988266,0.0,0.9913750886917114,0.0,0.0,-0.13105514645576477,0.7331000566482544,0.8930382132530212,0.0,0.0,0.0,-5.122552394866943,-0.3413165807723999,0.7613182663917542,0.4200000464916229,1.0,3.4221743590023834e-06,-2.3086338387656724e-06,1.7961099274543812e-07,0.00026681629242375493,0.00026800515479408205,-0.00010440824553370476,-0.0017429791623726487,0.004207039251923561,-0.00012891215737909079,-0.12304584681987762,0.18029165267944336,1.2848308086395264,-1.1940110921859741,2.8654940128326416,-0.6448941230773926,0.35887718200683594,0.724181056022644,0.42000001668930054,-1.2800441980361938,3.0000007152557373,-0.19445419311523438,-2.999999523162842,-7.148514123400673e-05,-0.004503879230469465,-0.009086799807846546,-0.013827795162796974,-0.09786173701286316,-0.20788416266441345,-0.31680020689964294,-0.4245193898677826
0.11666666666666667,0.055965356528759,0.06313875317573547,0.0,0.9886595010757446,0.0,0.0,-0.15017448365688324,0.4974374771118164,0.6767848134040833,0.0,0.0,0.0,-0.8263320922851562,-0.3413165807723999,0.7613183259963989,0.4200000464916229,1.0,3.7115494251338532e-06,-2.3327434064412955e-06,2.5741127274159226e-07,0.00026485565467737615,0.0002663536579348147,-0.00010423408821225166,-0.0017182460287585855,0.004170051775872707,-0.00012915929255541414,-0.14894495904445648,0.22797316312789917,1.2706974744796753,-1.7058712244033813,3.044556140899658,-0.9772151112556458,0.35887718200683594,0.724181056022644,0.42000001668930054,-1.2373206615447998,2.1640658378601074,-0.16066184639930725,3.000000238418579,-0.002785708289593458,-0.00885805580765009,-0.015048532746732235,-0.021363623440265656,-0.15651604533195496,-0.2507319450378418,-0.3421233892440796,-0.4305725395679474
0.13333333333333333,0.061293669044971466,0.0751463994383812,0.0,0.9842076897621155,0.0,0.0,-0.1770174652338028,0.2498302310705185,0.7713266015052795,0.0,0.0,0.0,-4.041204929351807,-0.3413165807723999,0.7613182663917542,0.4200000464916229,1.0,3.3357478059770074e-06,-2.231917051176424e-06,3.1129582112043863e-07,0.00026669760700315237,0.0002675955183804035,-0.00010428694076836109,-0.0017371423309668899,0.004205842036753893,-0.00012839908595196903,-0.17482350766658783,0.2834039330482483,1.2526631355285645,-1.4051709175109863,3.6189708709716797,-1.2091068029403687,0.35887718200683594,0.724181056022644,0.42000001668930054,-1.189466118812561,3.0000014305114746,-0.192401722073555,-3.000000238418579,-0.0063680182211101055,-0.014052717946469784,-0.02179141715168953,-0.029588254168629646,-0.2725463807582855,-0.36441460251808167,-0.4521377682685852,-0.5355768203735352
0.15,0.06945441663265228,0.08941297233104706,0.0,0.9728697538375854,0.0,0.0,-0.23135359585285187,0.4929076135158539,0.9302510619163513,0.0,0.0,0.0,-7.495180606842041,-0.3413165807723999,0.7613182663917542,0.4200000464916229,1.0,3.518990752127138e-06,-2.2831172827864066e-06,-3.6256801649869885e-07,0.00026618465199135244,0.00026735785650089383,-0.0001042571384459734,-0.0017350201960653067,0.004195850808173418,-0.0001286099577555433,-0.20075160264968872,0.3471563458442688,1.2267875671386719,-1.6202644109725952,4.027653694152832,-1.8949201107025146,0.35887718200683594,0.724181056022644,0.42000001668930054,-1.1589230298995972,0.8254759311676025,-0.15865764021873474,2.9999992847442627,-0.010700375773012638,-0.01961909979581833,-0.028527451679110527,-0.037428587675094604,-0.4236290156841278,-0.4594894349575043,-0.4930289387702942,-0.5243397951126099
0.16666666666666666,0.07537578046321869,0.10157942026853561,0.0,0.963964581489563,0.0,0.0,-0.2660307288169861,0.3080258369445801,0.6681545972824097,0.0,0.0,0.0,-3.1536574363708496,-0.3413165807723999,0.7613182663917542,0.4200000464916229,1.0,3.6666649521066574e-06,-2.339138518436812e-06,-3.1501363650932035e-07,0.0002659583406057209,0.00026667420752346516,-0.0001040350180119276,-0.0017253097612410784,0.00419278210029006,-0.0001277868141187355,-0.23359616100788116,0.412802517414093,1.1900229454040527,-1.841237187385559,4.208443641662598,-2.528013229370117,0.35887718200683594,0.724181056022644,0.42000001668930054,-1.1159305572509766,2.999999523162842,-0.19036579132080078,-3.000000238418579,-0.01858716458082199,-0.027852365747094154,-0.03706707805395126,-0.046238526701927185,-0.5237557888031006,-0.5316083431243896,-0.5373570322990417,-0.541287362575531
0.18333333333333332,0.07748819142580032,0.11438782513141632,0.0,0.9505699872970581,0.0,0.0,-0.3105103373527527,0.04889260232448578,0.830248236656189,0.0,0.0,0.0,-6.384690284729004,-0.3413165807723999,0.7613182663917542,0.4200000464916229,1.0,3.814403271462652e-06,-2.3994771254365332e-06,-2.7028366389458824e-07,0.00026548991445451975,0.0002661106991581619,-0.00010391208343207836,-0.0017177541740238667,0.004184815101325512,-0.00012754372437484562,-0.26363110542297363,0.4849368929862976,1.1415257453918457,-1.573061227798462,4.544968605041504,-3.2605643272399902,0.35887718200683594,0.724181056022644,0.42000001668930054,-1.065927505493164,3.0000007152557373,-0.24039557576179504,-3.000000238418579,-0.029143424704670906,-0.038362111896276474,-0.04748937860131264,-0.056539054960012436,-0.6889635920524597,-0.6773417592048645,-0.6633095741271973,-0.6472756266593933
0.2,0.08333918452262878,0.12330537289381027,0.0,0.9416087865829468,0.0,0.0,-0.3367088735103607,0.37070751190185547,0.44360893964767456,0.0,0.0,0.0,-2.1595370769500732,-0.3413165807723999,0.7613182663917542,0.4200000464916229,1.0,3.600100171752274e-06,-2.291180180691299e-06,-2.2019816015017568e-07,0.00026572911883704364,0.0002664491184987128,-0.00010398216545581818,-0.0017227096250280738,0.004188808612525463,-0.00012773361231666058,-0.29171663522720337,0.5584133863449097,1.0780024528503418,-1.4290542602539062,4.498659133911133,-4.323488712310791,0.35887718200683594,0.724181056022644,0.42000001668930054,-1.015925645828247,3.0000011920928955,-0.29042378067970276,-3.0000014305114746,-0.03895620256662369,-0.047686100006103516,-0.05630611255764961,-0.06483978033065796,-0.730444073677063,-0.6667248606681824,-0.6039652824401855,-0.542885422706604
0.21666666666666667,0.08337164670228958,0.13567472994327545,0.0,0.9269125461578369,0.0,0.0,-0.37527745962142944,0.00435133371502161,0.7091154456138611,0.0,0.0,0.0,-5.658432960510254,-0.3413165807723999,0.7613182663917542,0.4200000464916229,0.9999999403953552,3.63963158633851e-06,-2.2618542061536573e-06,2.2247830600008456e-07,0.0002668750239536166,0.0002675459545571357,-0.00010411837138235569,-0.0017403949750587344,0.004211075138300657,-0.00012783941929228604,-0.31265687942504883,0.6279648542404175,0.9949719309806824,-0.9969189763069153,4.089233875274658,-5.3278398513793945,0.35887718200683594,0.724181056022644,0.42000001668930054,-0.9659162163734436,2.999997615814209,-0.3404504656791687,-3.0000007152557373,-0.05441826581954956,-0.06316635757684708,-0.0714811459183693,-0.07919509708881378,-0.5921835899353027,-0.6577455401420593,-0.7174598574638367,-0.7708674669265747
0.23333333333333334,0.08847183734178543,0.14205393195152283,0.0,0.9185031652450562,0.0,0.0,-0.3954136371612549,0.2995123565196991,0.311991810798645,0.0,0.0,0.0,-1.4186760187149048,-0.3413165509700775,0.7613182663917542,0.4200000464916229,1.0,3.4206832424388267e-06,-2.316702875759802e-06,2.955990794362151e-07,0.00026680328301154077,0.000268039497314021,-0.0001044231466948986,-0.0017437469214200974,0.0042069340124726295,-0.00012899030116386712,-0.33056366443634033,0.6878777742385864,0.9003394246101379,-0.7792434692382812,3.24177885055542,-6.052340507507324,0.35887718200683594,0.724181056022644,0.42000001668930054,-0.9159092903137207,2.99999737739563,-0.39047926664352417,-3.0000014305114746,-0.06335765868425369,-0.0725739374756813,-0.08132488280534744,-0.08944886177778244,-0.7834738492965698,-0.7531415820121765,-0.7250009179115295,-0.700214147567749
0.25,0.08777635544538498,0.15268036723136902,0.0,0.9065901637077332,0.0,0.0,-0.4220121204853058,-0.05008665472269058,0.5986061692237854,0.0,0.0,0.0,-4.410295486450195,-0.3413165807723999,0.7613182663917542,0.4200000464916229,0.9999999403953552,3.3475635063950904e-06,-2.25901885642088e-06,1.8085036401771504e-07,0.00026687642093747854,0.0002679110039025545,-0.00010439194738864899,-0.0017404319951310754,0.004208163358271122,-0.0001287051709368825,-0.34058570861816406,0.7303403615951538,0.792513906955719,-0.31075865030288696,2.09743595123291,-6.618557929992676,0.35887718200683594,0.724181056022644,0.42000001668930054,-0.8658995032310486,2.999986410140991,-0.44051027297973633,-3.000002145767212,-0.07969056814908981,-0.08889603614807129,-0.0976186990737915,-0.10570218414068222,-0.6514806151390076,-0.7215263843536377,-0.7852174043655396,-0.8417518138885498
0.26666666666666666,0.0913086012005806,0.1570468544960022,0.0,0.9015216827392578,0.0,0.0,-0.4327339231967926,0.2165510654449463,0.18455493450164795,0.0,0.0,0.0,-0.3294675946235657,-0.3413165807723999,0.7613182663917542,0.4200000464916229,0.9999999403953552,3.535622909112135e-06,-2.300120968357078e-06,-1.2684515127148188e-07,0.00026601762510836124,0.00026712229009717703,-0.00010419590398669243,-0.0017317035235464573,0.0041929371654987335,-0.00012849301856476814,-0.34884095191955566,0.7553831338882446,0.682550311088562,-0.3272092938423157,0.8876199722290039,-6.642009735107422,0.35887718200683594,0.724181056022644,0.42000001668930054,-0.8158901333808899,2.9999983310699463,-0.4905417859554291,-2.9999983310699463,-0.0906626284122467,-0.10025385022163391,-0.10933847725391388,-0.11776238679885864,-0.9289741516113281,-0.8886861205101013,-0.8513790369033813,-0.8182029128074646
0.2833333333333333,0.08968937397003174,0.16583649814128876,0.0,0.9100440740585327,0.0,0.0,-0.414511501789093,-0.11000031977891922,0.4947832524776459,0.0,0.0,0.0,3.0820319652557373,-0.3413165807723999,0.7613183259963989,0.4200000464916229,1.0,3.5933812796429265e-06,-2.2624792563874507e-06,-5.652345791418156e-08,0.0002670473186299205,0.00026774994330480695,-0.00010416517034173012,-0.0017431509913876653,0.004214108921587467,-0.00012789087486453354,-0.3563307523727417,0.7592473030090332,0.5801382064819336,-0.486544132232666,-0.24404926598072052,-5.634424209594727,0.35887718200683594,0.724181056022644,0.42000001668930054,-0.765881359577179,2.9995784759521484,-0.5405720472335815,-2.9999990463256836,-0.10813815146684647,-0.11755433678627014,-0.12654083967208862,-0.13490761816501617,-0.753196656703949,-0.8197160363197327,-0.8825456500053406,-0.939294159412384
0.3,0.08658596873283386,0.1691313534975052,0.0,0.9106149077415466,0.0,0.0,-0.4132559299468994,-0.27094796299934387,0.20250435173511505,0.0,0.0,0.0,-0.646477997303009,-0.3413165509700775,0.7613182663917542,0.4200000464916229,0.9999999403953552,3.7249433262331877e-06,-2.2358831301971804e-06,3.829069044058997e-07,0.00026479671942070127,0.00026673165848478675,-0.00010453932918608189,-0.0017189139034599066,0.004166595172137022,-0.00013016266166232526,-0.3607317805290222,0.7607407569885254,0.4861690402030945,0.0893123671412468,0.024644412100315094,-5.342531204223633,0.35887718200683594,0.724181056022644,0.42000001668930054,-0.7158730030059814,3.000002145767212,-0.590600848197937,-3.000001907348633,-0.12152864038944244,-0.1319482922554016,-0.14188972115516663,-0.1510985791683197,-1.075801134109497,-1.0573643445968628,-1.0432994365692139,-1.032039999961853
0.31666666666666665,0.08046047389507294,0.17044304311275482,0.0,0.9171432256698608,0.0,0.0,-0.39855778217315674,-0.4132976233959198,0.03552202880382538,0.0,0.0,0.0,2.768653154373169,-0.3413165807723999,0.7613182663917542,0.4200000464916229,0.9999999403953552,3.557635409379145e-06,-2.2786798581364565e-06,2.283793776314269e-07,0.0002659858437255025,0.0002665850333869457,-0.00010399171151220798,-0.0017241572495549917,0.004193597007542849,-0.00012769611203111708,-0.3550856411457062,0.7618204355239868,0.4024637043476105,0.6462860107421875,-0.01772746443748474,-5.019101142883301,0.35887718200683594,0.724181056022644,0.42000001668930054,-0.6659581065177917,2.999992847442627,-0.6406272053718567,-3.0000011920928955,-0.13838021457195282,-0.1487227976322174,-0.15860392153263092,-0.16775448620319366,-1.0000728368759155,-1.0000439882278442,-1.0000230073928833,-1.0000104904174805
0.3333333333333333,0.07210132479667664,0.16917464137077332,0.0,0.9167057275772095,0.0,0.0,-0.3995630145072937,-0.5410795211791992,-0.11884000897407532,0.0,0.0,0.0,-1.0555062294006348,-0.3410772681236267,0.7617257833480835,0.4212634563446045,0.9988260269165039,0.011500943452119827,0.019966403022408485,-0.04260973632335663,0.11968571692705154,0.227875754237175,0.1427982896566391,2.1170432567596436,5.09705114364624,-7.381210803985596,-0.35635995864868164,0.7668097019195557,0.42622077465057373,0.22011418640613556,0.3327786922454834,-0.15896877646446228,0.35887718200683594,0.724181056022644,0.42000001668930054,-0.6160436868667603,3.000002145767212,-0.6911598443984985,-2.997192144393921,-0.13706210255622864,-0.14858612418174744,-0.1592164933681488,-0.16858166456222534,-0.13889802992343903,-0.15215903520584106,-0.14639787375926971,-0.11785716563463211
0.35,0.06157093867659569,0.16541120409965515,0.0,0.9221413135528564,0.0,0.0,-0.38685324788093567,-0.6774176955223083,-0.2684944272041321,0.0,0.0,0.0,2.5094189643859863,-0.33879590034484863,0.7659110426902771,0.4219420552253723,0.9928008317947388,0.009471277706325054,0.0451979786157608,-0.11051670461893082,0.21168075501918793,0.36510318517684937,-0.0007293466478586197,-0.6335567831993103,0.8592939972877502,-12.633903503417969,-0.35064661502838135,0.7739813327789307,0.4231395125389099,0.4249477982521057,0.45981788635253906,-0.1787729561328888,0.35887718200683594,0.724181056022644,0.42000001668930054,-0.5660386085510254,2.9999828338623047,-0.741188108921051,-2.9999990463256836,-0.14183112978935242,-0.1526627242565155,-0.1623544543981552,-0.17051006853580475,-0.35083502531051636,-0.2770218551158905,-0.1920040249824524,-0.09577900171279907
0.36666666666666664,0.05389290302991867,0.15869833528995514,0.0,0.9209865927696228,0.0,0.0,-0.38959431648254395,-0.3538922965526581,-0.4557868242263794,0.0,0.0,0.0,-1.2311279773712158,-0.3349132537841797,0.7722291350364685,0.4209215044975281,0.978308916091919,0.005900686606764793,0.02235928177833557,-0.20585660636425018,0.32872575521469116,0.4603365361690521,-0.07650294899940491,-0.8953985571861267,-4.935438632965088,-1.6996008157730103,-0.34254592657089233,0.7795416116714478,0.42062509059906006,0.5753779411315918,0.30673637986183167,-0.15105807781219482,0.35887718200683594,0.724181056022644,0.42000001668930054,-0.5160338282585144,2.9999587535858154,-0.7912363409996033,-2.999927282333374,-0.14902684092521667,-0.1580040156841278,-0.16566181182861328,-0.17163126170635223,-0.4670071303844452,-0.33103692531585693,-0.18623965978622437,-0.03538970276713371
0.3833333333333333,0.04474291577935219,0.15035498142242432,0.0,0.925734281539917,0.0,0.0,-0.3781745433807373,-0.626977264881134,-0.5216082334518433,0.0,0.0,0.0,2.510556221008301,-0.32644709944725037,0.782597005367279,0.42001253366470337,0.9709132313728333,-0.00031467305961996317,6.585005758097395e-05,-0.23943112790584564,0.6720935702323914,0.7716652750968933,0.012077372521162033,-0.5463399291038513,0.25711047649383545,-6.169546604156494,-0.33125370740890503,0.7870725393295288,0.42037880420684814,0.7938095927238464,0.6234290599822998,0.05187166854739189,0.35887718200683594,0.724181056022644,0.42000001668930054,-0.4659824073314667,2.999948740005493,-0.8412418365478516,-2.999980926513672,-0.15979376435279846,-0.16559337079524994,-0.16994862258434296,-0.1725676953792572,-0.6480295062065125,-0.44540080428123474,-0.23514355719089508,-0.022530609741806984
0.4,0.032876480370759964,0.1400163769721985,0.0,0.9246236681938171,0.0,0.0,-0.38088202476501465,-0.7088956236839294,-0.6775656342506409,0.0,0.0,0.0,-1.3167827129364014,-0.3124658167362213,0.7931323647499084,0.42089027166366577,0.9576581120491028,-0.01769329607486725,-0.0010169142624363303,-0.2873615622520447,1.0609956979751587,0.3649649918079376,-0.260309100151062,13.526727676391602,-14.589497566223145,-2.679476499557495,-0.3152267336845398,0.7965072393417358,0.42223483324050903,1.1987130641937256,0.6285107731819153,0.12210177630186081,0.35887718200683594,0.724181056022644,0.42000001668930054,-0.41637375950813293,2.618726968765259,-0.8912503123283386,-3.0000126361846924,-0.17010651528835297,-0.17229142785072327,-0.17282409965991974,-0.1715177744626999,-0.49429216980934143,-0.2795851230621338,-0.04935242235660553,0.1896669715642929
0.4166666666666667,0.024910148233175278,0.12668518722057343,0.0,0.9121343493461609,0.0,0.0,-0.40989139676094055,-0.438863068819046,-0.8337660431861877,0.0,0.0,0.0,-4.575999736785889,-0.29006826877593994,0.8057830333709717,0.4236173629760742,0.9361363649368286,-0.03855161741375923,-0.0195915549993515,-0.34896793961524963,1.9647785425186157,0.5373004674911499,0.023967783898115158,11.827584266662598,-12.178303718566895,9.650228500366211,-0.29212093353271484,0.809170126914978,0.42465028166770935,1.6550726890563965,0.8427569270133972,0.17136341333389282,0.35887718200683594,0.724181056022644,0.42000001668930054,-0.38930320739746094,0.781502902507782,-0.9412609934806824,-3.000427484512329,-0.1766425222158432,-0.17557843029499054,-0.1725659966468811,-0.16753259301185608,-0.4138921797275543,-0.2143014669418335,-0.0009351763874292374,0.22189579904079437
0.43333333333333335,0.020619891583919525,0.11072024703025818,0.0,0.8870193362236023,0.0,0.0,-0.46173229813575745,-0.187449112534523,-1.0124627351760864,0.0,0.0,0.0,-7.745243072509766,-0.25506868958473206,0.8233137130737305,0.4253784418106079,0.917385995388031,-0.050411950796842575,-0.0479590967297554,-0.3918689787387848,2.6966395378112793,0.8147873282432556,0.12985984981060028,5.293051719665527,-8.382513999938965,10.141860961914062,-0.2570432424545288,0.826309084892273,0.4260733723640442,2.668870687484741,1.2696683406829834,0.11713661998510361,0.35887718200683594,0.724181056022644,0.42000001668930054,-0.37461116909980774,0.9742711782455444,-0.9912809729576111,-3.00000262260437,-0.18353183567523956,-0.1792902797460556,-0.17295624315738678,-0.16453957557678223,-0.4229964315891266,-0.23136509954929352,-0.03790270909667015,0.15199273824691772
0.45,0.018363524228334427,0.09926406294107437,0.0,0.8454496264457703,0.0,0.0,-0.5340551733970642,-0.09585718810558319,-0.5647066831588745,0.0,0.0,0.0,-10.817392349243164,-0.18618178367614746,0.8465470671653748,0.42716750502586365,0.895265519618988,-0.012653550133109093,-0.08716504275798798,-0.436739981174469,5.3177080154418945,1.2014989852905273,0.2946506142616272,8.607240676879883,-24.766529083251953,13.346853256225586,-0.18839547038078308,0.8497521877288818,0.42758941650390625,5.301462173461914,1.7351608276367188,0.3430817425251007,0.35887718200683594,0.724181056022644,0.42000001668930054,-0.3546234965324402,1.3561387062072754,-0.9586919546127319,3.000732183456421,-0.1977933794260025,-0.1893068104982376,-0.17811694741249084,-0.16524700820446014,-0.909492015838623,-0.7003116011619568,-0.39827895164489746,-0.12987716495990753
0.4666666666666667,0.012083647772669792,0.09499862045049667,0.0,0.8099645972251892,0.0,0.0,-0.5864787697792053,-0.49470067024230957,-0.2553931176662445,0.0,0.0,0.0,-6.291996479034424,-0.09939274191856384,0.8698365092277527,0.43540430068969727,0.8511292934417725,0.003113281913101673,-0.11809201538562775,-0.5114913582801819,5.315038681030273,1.115484595298767,0.9181690812110901,16.849069595336914,-2.277310371398926,3.7815253734588623,-0.10074090957641602,0.8750393390655518,0.43672463297843933,5.291304588317871,1.3101168870925903,0.5442548990249634,0.35887718200683594,0.724181056022644,0.42000001668930054,-0.33162808418273926,1.3064661026000977,-0.9838131070137024,-3.000000476837158,-0.2112555056810379,-0.20327046513557434,-0.1890442669391632,-0.17203611135482788,-0.5481433272361755,-0.632767915725708,-0.6016759872436523,-0.43314069509506226
0.48333333333333334,0.010637236759066582,0.08338222652673721,0.0,0.7939218282699585,0.0,0.0,-0.6080198287963867,0.046940747648477554,-0.8536496758460999,0.0,0.0,0.0,-2.2082931995391846,-0.009597651660442352,0.8845311999320984,0.44654005765914917,0.7946131229400635,0.001041470211930573,-0.10191341489553452,-0.5985002517700195,5.418660640716553,-0.3965702950954437,0.7020152807235718,-8.238059997558594,-8.309986114501953,12.936540603637695,-0.01044303085654974,0.8891429901123047,0.44716089963912964,5.49354362487793,0.2758334279060364,0.7849372625350952,0.35887718200683594,0.724181056022644,0.42000001668930054,-0.3123551607131958,0.898002564907074,-1.0338356494903564,-3.000005006790161,-0.21437373757362366,-0.2073361575603485,-0.19252707064151764,-0.17300882935523987,-0.1168489158153534,-0.11238087713718414,-0.04085136950016022,0.12197581678628922
0.5,0.008084424771368504,0.07407846301794052,0.0,0.7700092792510986,0.0,0.0,-0.6380326747894287,-0.20059815049171448,-0.4966081380844116,0.0,0.0,0.0,-5.289655685424805,0.07745306193828583,0.8819288015365601,0.45478254556655884,0.7396795749664307,-0.021137090399861336,-0.11081964522600174,-0.663435161113739,4.907960414886475,-1.1422533988952637,0.6549330353736877,2.170153856277466,-6.673676490783691,23.051780700683594,0.07643892616033554,0.888085126876831,0.4576495587825775,5.140939712524414,-0.37155085802078247,0.5742678046226501,0.35887718200683594,0.724181056022644,0.42000001668930054,-0.29969674348831177,0.5748392343521118,-1.083857774734497,-3.00000262260437,-0.21859201788902283,-0.21105539798736572,-0.19510456919670105,-0.17338451743125916,-0.18778863549232483,-0.16621479392051697,-0.12828940153121948,-0.047762446105480194
0.5166666666666666,0.007104653399437666,0.06947889178991318,0.0,0.7603470087051392,0.0,0.0,-0.6495170593261719,0.003865728387609124,-0.18569667637348175,0.0,0.0,0.0,-0.6471148133277893,0.15341930091381073,0.870428740978241,0.4613206386566162,0.7032665610313416,-0.026773743331432343,-0.082412488758564,-0.7056255340576172,3.9809367656707764,-1.492695927619934,0.3989076018333435,6.066433906555176,0.14325672388076782,12.070581436157227,0.15349610149860382,0.875816285610199,0.46433672308921814,4.285494804382324,-1.0779404640197754,0.2973421812057495,0.35887718200683594,0.724181056022644,0.42000001668930054,-0.2891143560409546,0.6743146777153015,-1.1338798999786377,-3.0000007152557373,-0.22256366908550262,-0.21427062153816223,-0.19766287505626678,-0.1749611645936966,-0.20598994195461273,-0.15347820520401,-0.1265646368265152,-0.09975455701351166
0.5333333333333333,0.0051772622391581535,0.06344807893037796,0.0,0.7433305382728577,0.0,0.0,-0.6689243316650391,-0.1662629097700119,-0.40391191840171814,0.0,0.0,0.0,-3.9390017986297607,0.2183878868818283,0.8487797379493713,0.4611067771911621,0.6673617959022522,-0.05203543230891228,-0.07150343060493469,-0.739464521408081,3.3939034938812256,-2.057014226913452,0.06626944988965988,3.9258604049682617,-0.9238421320915222,17.987186431884766,0.21916794776916504,0.854526937007904,0.4655352234840393,3.7157394886016846,-1.579831838607788,-0.08997587114572525,0.35887718200683594,0.724181056022644,0.42000001668930054,-0.277037113904953,0.6832897067070007,-1.1839020252227783,-3.0000007152557373,-0.22547799348831177,-0.21591322124004364,-0.1986428052186966,-0.1754962056875229,-0.18359211087226868,-0.08038923144340515,-0.02430058643221855,0.006350054405629635
0.55,0.004700762685388327,0.06096573546528816,0.0,0.7386847138404846,0.0,0.0,-0.67405104637146,0.021082963794469833,-0.0449504554271698,0.0,0.0,0.0,0.11749588698148727,0.27085062861442566,0.8209565281867981,0.4566519260406494,0.6380193829536438,-0.07450378686189651,-0.04115721583366394,-0.7653016448020935,2.3908426761627197,-2.297358512878418,-0.24738313257694244,6.030449867248535,0.7509109973907471,19.70321273803711,0.2723398506641388,0.8258134722709656,0.4612537622451782,2.8366780281066895,-1.8118371963500977,-0.408579021692276,0.35887718200683594,0.724181056022644,0.42000001668930054,-0.2657098174095154,0.5706969499588013,-1.233924150466919,-2.999997615814209,-0.2279476672410965,-0.21706750988960266,-0.1993977129459381,-0.1764216274023056,-0.039978839457035065,0.001719494117423892,-0.01734507642686367,-0.07660335302352905
0.5666666666666667,0.007725230418145657,0.055032163858413696,0.0,0.7246879935264587,0.0,0.0,-0.6890771389007568,0.202029749751091,-0.4022618532180786,0.0,0.0,0.0,-3.302334785461426,0.31313127279281616,0.7953870296478271,0.4437587857246399,0.6085910201072693,-0.11167118698358536,-0.02407541684806347,-0.7852177619934082,1.9089840650558472,-1.9610967636108398,-0.7387599945068359,4.738429069519043,1.8778742551803589,19.766204833984375,0.3148241639137268,0.799889087677002,0.4490566551685333,2.3074727058410645,-1.5239472389221191,-0.9518041014671326,0.35887718200683594,0.724181056022644,0.42000001668930054,-0.25688984990119934,0.4324629008769989,-1.2839444875717163,-3.0000007152557373,-0.22268915176391602,-0.21245132386684418,-0.19644173979759216,-0.17578329145908356,0.3444382846355438,0.29667189717292786,0.18193954229354858,0.021032361313700676
0.5833333333333334,0.013018157333135605,0.05301801487803459,0.0,0.7222710847854614,0.0,0.0,-0.6916100382804871,0.35010039806365967,-0.11312615126371384,0.0,0.0,0.0,0.4470694661140442,0.34358108043670654,0.7690518498420715,0.4256000518798828,0.584175705909729,-0.14360755681991577,-0.006513443775475025,-0.7987948656082153,1.1943690776824951,-1.960931420326233,-1.0623773336410522,2.9584481716156006,1.772167444229126,16.857593536376953,0.3452165126800537,0.7728079557418823,0.43107980489730835,1.586477279663086,-1.592970609664917,-1.228610634803772,0.35887718200683594,0.724181056022644,0.42000001668930054,-0.24895410239696503,0.4324581027030945,-1.3195053339004517,-1.3809658288955688,-0.2187771201133728,-0.2092091590166092,-0.19503732025623322,-0.17707215249538422,0.37429699301719666,0.2888520359992981,0.1371292769908905,-0.06271123886108398
0.6,0.018697362393140793,0.04790811240673065,0.0,0.7104845643043518,0.0,0.0,-0.7037128210067749,0.34535735845565796,-0.36825284361839294,0.0,0.0,0.0,-2.824367046356201,0.35570764541625977,0.7594649195671082,0.42568239569664,0.5893948078155518,-0.10938715189695358,0.008930191397666931,-0.8003551363945007,0.010322168469429016,-0.9901469945907593,-0.08849117904901505,-1.6071349382400513,-5.044673919677734,26.345869064331055,0.35571491718292236,0.7616540193557739,0.430343359708786,0.41828131675720215,-0.5211087465286255,-0.10252323001623154,0.35887718200683594,0.724181056022644,0.42000001668930054,-0.236367329955101,0.5969269871711731,-1.275072455406189,2.998109817504883,-0.2094040811061859,-0.20217733085155487,-0.19123035669326782,-0.17708837985992432,0.5203970074653625,0.38478749990463257,0.19560100138187408,-0.03157863765954971
0.6166666666666667,0.021789032965898514,0.0458853542804718,0.0,0.7108936905860901,0.0,0.0,-0.7032994627952576,0.12048749625682831,-0.0855666771531105,0.0,0.0,0.0,0.8476440906524658,0.357897013425827,0.7495520114898682,0.4259245693683624,0.5959619879722595,-0.11243142932653427,0.023401793092489243,-0.7947583198547363,-0.15664784610271454,-0.6186142563819885,0.10750165581703186,1.3271574974060059,6.074705600738525,6.134135723114014,0.35710978507995605,0.7514694929122925,0.4310157299041748,-0.019444067031145096,-0.5417503714561462,0.09391722828149796,0.35887718200683594,0.724181056022644,0.42000001668930054,-0.23933126032352448,-0.7134323716163635,-1.2950797080993652,-2.99981951713562,-0.20304715633392334,-0.19772809743881226,-0.189528688788414,-0.17875845730304718,0.4384385645389557,0.3064354658126831,0.1296216994524002,-0.08016494661569595
0.6333333333333333,0.025783596560359,0.04045121744275093,0.0,0.7005946040153503,0.0,0.0,-0.7135595679283142,0.28496816754341125,-0.3603886663913727,0.0,0.0,0.0,-2.521646499633789,0.357959121465683,0.7457383275032043,0.4248978793621063,0.6147817969322205,-0.09106563031673431,0.021659081801772118,-0.783122718334198,-0.08715125173330307,-0.279812216758728,-0.10413603484630585,-0.8374364972114563,-5.545608043670654,8.316688537597656,0.35664141178131104,0.7474699020385742,0.4294121563434601,-0.056564755737781525,-0.14127053320407867,-0.12065771222114563,0.35887718200683594,0.724181056022644,0.42000001668930054,-0.24362416565418243,-0.002403340535238385,-1.2568544149398804,2.9965717792510986,-0.19271816313266754,-0.19019483029842377,-0.18542291224002838,-0.178519606590271,0.5273326635360718,0.3840712308883667,0.20470093190670013,-0.00011482244008220732
0.65,0.032023582607507706,0.03843209519982338,0.0,0.7022416591644287,0.0,0.0,-0.7119386792182922,0.4173028767108917,-0.08786246925592422,0.0,0.0,0.0,1.0955901145935059,0.356147438287735,0.7417401671409607,0.4226542115211487,0.6312795877456665,-0.04916799068450928,-0.010648833587765694,-0.7739219069480896,-0.1666790097951889,-0.2229262739419937,-0.18434268236160278,-0.8724988698959351,-9.390812873840332,2.591017961502075,0.3541261553764343,0.744579553604126,0.4302886128425598,-0.1697973906993866,-0.10298510640859604,0.12887687981128693,0.35887718200683594,0.724181056022644,0.42000001668930054,-0.28094619512557983,-2.9999899864196777,-1.277097225189209,-2.99967622756958,-0.18646524846553802,-0.1858498901128769,-0.18350927531719208,-0.17942455410957336,0.4093102216720581,0.2884945869445801,0.14197131991386414,-0.02322997897863388
0.6666666666666666,0.03984866291284561,0.03950785845518112,0.0,0.6939983367919922,0.0,0.0,-0.7199766039848328,0.5317152142524719,0.11830972880125046,0.0,0.0,0.0,-2.3827030658721924,0.354882150888443,0.739403247833252,0.4202196002006531,0.6416747570037842,-0.0034676389768719673,-0.003017905168235302,-0.766963005065918,-0.04589607194066048,-0.12680114805698395,-0.13165900111198425,6.960052967071533,-1.2981312274932861,0.8252686262130737,0.3545090854167938,0.7454246282577515,0.4330293536186218,0.10894793272018433,0.12445025146007538,0.20713216066360474,0.35887718200683594,0.724181056022644,0.42000001668930054,-0.33093026280403137,-2.9978888034820557,-1.3270554542541504,-2.999223232269287,-0.17809231579303741,-0.1800335794687271,-0.18049144744873047,-0.17933961749076843,0.5641867518424988,0.40510302782058716,0.2361048310995102,0.06292976438999176
0.6833333333333333,0.050864629447460175,0.03571231663227081,0.0,0.6969316005706787,0.0,0.0,-0.7171375751495361,0.6217604279518127,-0.24220290780067444,0.0,0.0,0.0,1.3935717344284058,0.3547634780406952,0.7389721870422363,0.4200001060962677,0.6421540975570679,1.8263124729855917e-05,2.3259801309905015e-05,-0.7665755748748779,0.0002447572769597173,0.0019207124132663012,-0.001090389909222722,-0.0004969083238393068,0.005051136948168278,-0.004579884000122547,0.3551861047744751,0.7466392517089844,0.4374423027038574,-0.10939671099185944,0.016671601682901382,0.36156249046325684,0.35887718200683594,0.724181056022644,0.42000001668930054,-0.3809436857700348,-2.999999761581421,-1.3770740032196045,-3.0,-0.16660454869270325,-0.17087914049625397,-0.1737559288740158,-0.17503130435943604,0.5217775106430054,0.44681137800216675,0.36744818091392517,0.2860046327114105
0.7,0.06139177083969116,0.030377980321645737,0.0,0.6893356442451477,0.0,0.0,-0.7244420647621155,0.6655304431915283,-0.39065930247306824,0.0,0.0,0.0,-2.1954715251922607,0.3547632098197937,0.7389757037162781,0.42000001668930054,0.6421524286270142,-2.145604867109796e-06,-4.881200766249094e-06,-0.766576886177063,0.0001227773173013702,-0.0003996223385911435,-0.00011496199294924736,0.008434906601905823,-0.0019946079701185226,-0.00032941289828158915,0.35664355754852295,0.7456793189048767,0.44131746888160706,0.24193012714385986,-0.1258627027273178,0.29781848192214966,0.35887718200683594,0.724181056022644,0.42000001668930054,-0.4309455156326294,-2.999833345413208,-1.427086353302002,-2.9999213218688965,-0.16121861338615417,-0.1657201647758484,-0.1688040792942047,-0.17026489973068237,0.21949855983257294,0.24981589615345,0.28585103154182434,0.326222687959671
0.7166666666666667,0.07508682459592819,0.02879503183066845,0.0,0.6599900126457214,0.0,0.0,-0.7512743473052979,0.795936107635498,-0.038336753845214844,0.0,0.0,0.0,-5.578510284423828,0.3547632098197937,0.7389756441116333,0.42000001668930054,0.6421526670455933,-1.6439987575722625e-06,-4.521783466771012e-06,-0.7665767073631287,0.00012903832248412073,-0.00036942458245903254,-0.00010008434765040874,0.007897898554801941,-0.0016558925854042172,-0.00033988727955147624,0.3648994565010071,0.7425473928451538,0.45479488372802734,0.849922776222229,-0.10826791077852249,1.3961877822875977,0.35887718200683594,0.724181056022644,0.42000001668930054,-0.4809575080871582,-2.9999961853027344,-1.477104663848877,-3.000000476837158,-0.16398175060749054,-0.16698268055915833,-0.16849106550216675,-0.16835319995880127,-0.12219111621379852,-0.05272226780653,0.026203669607639313,0.11162589490413666
0.7333333333333333,0.08559093624353409,0.029988963156938553,0.0,0.6448742747306824,0.0,0.0,-0.7642886638641357,0.5722525119781494,0.07909509539604187,0.0,0.0,0.0,-1.3046444654464722,0.3547632396221161,0.7389755845069885,0.42000001668930054,0.6421522498130798,-1.7065253814507741e-06,-4.941927727486473e-06,-0.7665770053863525,0.0001286995830014348,-0.0003704238624777645,-0.0001004096120595932,0.007921518757939339,-0.001664823736064136,-0.00033912569051608443,0.38137882947921753,0.7441593408584595,0.4830506443977356,1.1008048057556152,0.2872447371482849,1.9441417455673218,0.35887718200683594,0.724181056022644,0.42000001668930054,-0.526585578918457,-2.483421802520752,-1.527122974395752,-3.0,-0.1654622107744217,-0.1679084450006485,-0.16872376203536987,-0.16779941320419312,0.005169645883142948,-0.0067474497482180595,-0.011371741071343422,-0.010077103041112423
0.75,0.09187842160463333,0.033180005848407745,0.0,0.6539642810821533,0.0,0.0,-0.756525456905365,0.3072022497653961,0.24099449813365936,0.0,0.0,0.0,2.2829983234405518,0.3547632098197937,0.7389756441116333,0.42000001668930054,0.6421525478363037,-1.8377447759121424e-06,-4.942296072840691e-06,-0.7665767669677734,0.00012698200589511544,-0.00036957100383006036,-0.00010082637891173363,0.007893525063991547,-0.0016857447335496545,-0.000335605232976377,0.3987704813480377,0.7493700981140137,0.5085057616233826,0.9120453000068665,0.35533127188682556,1.1813170909881592,0.35887718200683594,0.724181056022644,0.42000001668930054,-0.5411059856414795,0.4934265911579132,-1.5771405696868896,-2.999999761581421,-0.16448961198329926,-0.1671590507030487,-0.1681029498577118,-0.16724175214767456,0.11186785995960236,0.09756124764680862,0.08571138978004456,0.07464472204446793
0.7666666666666666,0.09403451532125473,0.031651534140110016,0.0,0.651550829410553,0.0,0.0,-0.7586050033569336,0.12994885444641113,-0.11555245518684387,0.0,0.0,0.0,-1.1510226726531982,0.3547632396221161,0.7389756441116333,0.42000001668930054,0.6421527862548828,-1.6985920865408843e-06,-4.696054475061828e-06,-0.7665766477584839,0.0001275750109925866,-0.00036987679777666926,-0.00010065827518701553,0.007904558442533016,-0.0016796230338513851,-0.0003368704637978226,0.4064023494720459,0.7566850781440735,0.5226686000823975,-0.013439229689538479,0.34959813952445984,0.6649059057235718,0.35887718200683594,0.724181056022644,0.42000001668930054,-0.5314500331878662,0.6449139714241028,-1.5381945371627808,2.999999523162842,-0.15910004079341888,-0.16242782771587372,-0.16402845084667206,-0.1638367623090744,0.15391403436660767,0.15888144075870514,0.15725187957286835,0.14718027412891388
0.7833333333333333,0.09360379725694656,0.03473741561174393,0.0,0.6611728072166443,0.0,0.0,-0.7502336502075195,-0.05012275278568268,0.24755652248859406,0.0,0.0,0.0,2.269521951675415,0.3547632098197937,0.7389756441116333,0.42000001668930054,0.6421524882316589,-1.8254886526847258e-06,-4.963160790794063e-06,-0.7665768265724182,0.000125954975374043,-0.0003688167780637741,-0.0001008668914437294,0.007874161005020142,-0.0016910186968743801,-0.0003331718617118895,0.40323513746261597,0.7603203058242798,0.5312669277191162,-0.24071857333183289,0.24117451906204224,0.37183666229248047,0.35887718200683594,0.724181056022644,0.42000001668930054,-0.5224096775054932,0.4517921507358551,-1.5171226263046265,-0.21067720651626587,-0.16133858263492584,-0.16351667046546936,-0.16419488191604614,-0.16336244344711304,-0.04219472035765648,-1.2223608791828156e-09,0.028840551152825356,0.04392370581626892
0.8,0.09084365516901016,0.03526279330253601,0.0,0.6586484313011169,0.0,0.0,-0.7524508237838745,-0.2287188023328781,0.009298468008637428,0.0,0.0,0.0,-1.1806952953338623,0.3547632098197937,0.7389755845069885,0.42000001668930054,0.6421524286270142,-1.6503527149325237e-06,-4.800553597306134e-06,-0.7665769457817078,0.00012850636267103255,-0.0003710238088387996,-0.00010063149966299534,0.007935124449431896,-0.0016718610422685742,-0.00033874178188852966,0.3946109414100647,0.7635936141014099,0.5308401584625244,-0.8053160309791565,0.11761324852705002,-0.24036775529384613,0.35887718200683594,0.724181056022644,0.42000001668930054,-0.5255184173583984,-0.7217239141464233,-1.470048189163208,3.0,-0.1616021692752838,-0.16306906938552856,-0.16327372193336487,-0.1622156947851181,-0.0938539206981659,-0.030781667679548264,0.015569319017231464,0.04383666813373566
0.8166666666666667,0.08982579410076141,0.03326241299510002,0.0,0.6669452786445618,0.0,0.0,-0.7451066970825195,-0.002965272404253483,-0.182786226272583,0.0,0.0,0.0,2.109358310699463,0.3547632098197937,0.7389756441116333,0.42000001668930054,0.6421523094177246,-1.7947061223821947e-06,-4.877295850747032e-06,-0.7665770649909973,0.00012705218978226185,-0.0003705677518155426,-0.00010100496001541615,0.00791865587234497,-0.0016887079691514373,-0.0003356073866598308,0.38505417108535767,0.7642787098884583,0.527597188949585,-0.34813833236694336,0.001847933977842331,-0.09212900698184967,0.35887718200683594,0.724181056022644,0.42000001668930054,-0.5458343029022217,-1.6213032007217407,-1.4868261814117432,-3.000000238418579,-0.1644270122051239,-0.1643732190132141,-0.16324640810489655,-0.16108500957489014,-0.17176656424999237,-0.07167307287454605,0.0221033226698637,0.10692213475704193
0.8333333333333334,0.09150300920009613,0.028493845835328102,0.0,0.6635437607765198,0.0,0.0,-0.7481374740600586,0.1426277756690979,-0.35156869888305664,0.0,0.0,0.0,-1.3816064596176147,0.3547632396221161,0.7389756441116333,0.42000001668930054,0.6421524882316589,-1.7325988892480382e-06,-4.811458438780392e-06,-0.7665768265724182,0.00012738180521409959,-0.0003697698994074017,-0.000100692268460989,0.007901512086391449,-0.0016815554117783904,-0.00033645963412709534,0.3835920989513397,0.7618499994277954,0.5214211940765381,0.15106219053268433,-0.28377312421798706,-0.4491521716117859,0.35887718200683594,0.724181056022644,0.42000001668930054,-0.5885834693908691,-2.9999969005584717,-1.5368444919586182,-2.9999992847442627,-0.16827084124088287,-0.16619440913200378,-0.16304661333560944,-0.15892426669597626,-0.2185681164264679,-0.08335189521312714,0.05600672960281372,0.19553036987781525
0.85,0.09574184566736221,0.02022792212665081,0.0,0.6405155062675476,0.0,0.0,-0.7679452300071716,0.29976049065589905,-0.5637988448143005,0.0,0.0,0.0,-4.5224504470825195,0.3547632098197937,0.7389755845069885,0.42000001668930054,0.6421524286270142,-1.9822250578727107e-06,-5.089182195661124e-06,-0.766576886177063,0.0001273897651117295,-0.0003708731383085251,-0.00010095094330608845,0.00792742520570755,-0.0016845074715092778,-0.000336260738549754,0.39035576581954956,0.7557955384254456,0.5184999704360962,0.6629173159599304,-0.4253592789173126,0.23987583816051483,0.35887718200683594,0.724181056022644,0.42000001668930054,-0.6385912895202637,-2.999967098236084,-1.5868628025054932,-2.9999985694885254,-0.17318668961524963,-0.16884873807430267,-0.16333718597888947,-0.1568189114332199,-0.30179357528686523,-0.17253227531909943,-0.03610214591026306,0.10345867276191711
0.8666666666666667,0.10409750044345856,0.017041467130184174,0.0,0.6298221349716187,0.0,0.0,-0.7767393589019775,0.42503461241722107,-0.158195361495018,0.0,0.0,0.0,-0.47951287031173706,0.3547632396221161,0.7389755845069885,0.42000001668930054,0.6421522498130798,-1.702106374068535e-06,-4.784046723216306e-06,-0.7665770053863525,0.0001291887165280059,-0.000370941124856472,-0.00010046781972050667,0.007932203821837902,-0.0016606900608167052,-0.0003400627465452999,0.3995134234428406,0.751858115196228,0.5281466245651245,0.5019027590751648,0.12125416100025177,0.8582769632339478,0.35887718200683594,0.724181056022644,0.42000001668930054,-0.6561881303787231,0.5893054604530334,-1.6368776559829712,-2.999999523162842,-0.18191280961036682,-0.1754797399044037,-0.1679142415523529,-0.15944291651248932,-0.27284255623817444,-0.24541674554347992,-0.2186301052570343,-0.19389931857585907
0.8833333333333333,0.10877574235200882,0.01559786032885313,0.0,0.6423525810241699,0.0,0.0,-0.7664092779159546,0.23730121552944183,-0.07311414182186127,0.0,0.0,0.0,2.6842846870422363,0.3547632098197937,0.7389756441116333,0.42000001668930054,0.6421522498130798,-1.798996891011484e-06,-4.9206478252017405e-06,-0.7665770053863525,0.00012796417286153883,-0.0003708270669449121,-0.00010082288645207882,0.007926316931843758,-0.0016784616746008396,-0.0003376091190148145,0.4104335308074951,0.7521423101425171,0.5377379655838013,0.7298550605773926,-0.049934133887290955,0.34632718563079834,0.35887718200683594,0.724181056022644,0.42000001668930054,-0.634663999080658,1.8633110523223877,-1.5977585315704346,3.0,-0.18420369923114777,-0.17764931917190552,-0.16988599300384521,-0.16116872429847717,-0.03341163694858551,-0.03715164586901665,-0.03418293967843056,-0.026157133281230927
0.9,0.10982159525156021,0.009466830641031265,0.0,0.6416361927986145,0.0,0.0,-0.7670090794563293,0.09493183344602585,-0.3632339835166931,0.0,0.0,0.0,-1.0583744049072266,0.3547632098197937,0.7389755845069885,0.42000001668930054,0.6421523094177246,-1.834785393839411e-06,-4.964900199411204e-06,-0.7665770649909973,0.0001277993287658319,-0.000370455818483606,-0.00010068737901747227,0.007919928058981895,-0.0016774378018453717,-0.00033718973281793296,0.41876524686813354,0.7521038055419922,0.5404438972473145,0.23485490679740906,-0.11833146959543228,0.11103332042694092,0.35887718200683594,0.724181056022644,0.42000001668930054,-0.6208876371383667,-0.053774815052747726,-1.5477020740509033,3.000000238418579,-0.1805713176727295,-0.174832284450531,-0.16776995360851288,-0.15964412689208984,0.08278067409992218,0.0630272850394249,0.04438281059265137,0.026165315881371498
0.9166666666666666,0.10907949507236481,0.00782252661883831,0.0,0.6512296199798584,0.0,0.0,-0.7588807344436646,-0.10767531394958496,-0.06788122653961182,0.0,0.0,0.0,2.1561708450317383,0.3547632396221161,0.7389756441116333,0.42000001668930054,0.6421526074409485,-1.5830506754355156e-06,-4.930393515678588e-06,-0.7665768265724182,0.0001273660600418225,-0.0003698347427416593,-0.0001007674727588892,0.007900581695139408,-0.0016803231555968523,-0.00033631548285484314,0.42295244336128235,0.7486952543258667,0.5417879223823547,0.29893043637275696,-0.1533052921295166,0.05872662365436554,0.35887718200683594,0.724181056022644,0.42000001668930054,-0.612786054611206,0.9332926273345947,-1.5628294944763184,-3.000000476837158,-0.18123571574687958,-0.17543183267116547,-0.1682898849248886,-0.1600908786058426,0.07310980558395386,0.04882875084877014,0.0298452265560627,0.015088084153831005
