vladlanda/robotic-transformer/data/env_000_episode_0123.csv
sim_time_s,robot_box_x,robot_box_y,robot_box_z,robot_box_quat_w,robot_box_quat_x,robot_box_quat_y,robot_box_quat_z,robot_box_linvel_x,robot_box_linvel_y,robot_box_linvel_z,robot_box_angvel_x,robot_box_angvel_y,robot_box_angvel_z,cube_world_x,cube_world_y,cube_world_z,cube_quat_w,cube_quat_x,cube_quat_y,cube_quat_z,cube_linvel_x,cube_linvel_y,cube_linvel_z,cube_angvel_x,cube_angvel_y,cube_angvel_z,endpoint_world_x,endpoint_world_y,endpoint_world_z,endpoint_linvel_x,endpoint_linvel_y,endpoint_linvel_z,target_cube_world_x,target_cube_world_y,target_cube_world_z,gripper_actual_pos_rad_gp_leftgearjoint,gripper_actual_vel_rad_s_gp_leftgearjoint,gripper_actual_pos_rad_gp_rotatingjoint,gripper_actual_vel_rad_s_gp_rotatingjoint,motor_angle_rad_joint1,motor_angle_rad_joint2,motor_angle_rad_joint3,motor_angle_rad_joint4,motor_speed_rad_s_joint1,motor_speed_rad_s_joint2,motor_speed_rad_s_joint3,motor_speed_rad_s_joint4
0.0,0.0,0.0,0.0,1.0,0.0,0.0,0.0,0.0,0.0,0.0,0.0,0.0,0.0,-0.4207542836666107,0.7276661396026611,0.41999998688697815,1.0,0.0,0.0,0.0,0.0,0.0,0.0,0.0,0.0,0.0,3.42540442943573e-06,-0.005000244826078415,1.313499927520752,0.0,0.0,0.0,0.4772810935974121,0.7095323204994202,0.42000001668930054,-1.5707999467849731,0.0,0.0,0.0,0.0,0.0,0.0,0.0,0.0,0.0,0.0,0.0
0.016666666666666666,0.0028778850100934505,0.0021806680597364902,0.0,0.9998081922531128,0.0,0.0,0.019586581736803055,0.24087215960025787,0.18240931630134583,0.0,0.0,0.0,3.1418697834014893,-0.42075440287590027,0.7276658415794373,0.41999998688697815,1.0,3.2799914606584935e-06,-8.339814598912199e-07,8.465387679734704e-08,-1.9833554688375443e-05,0.00017983050202019513,-6.133061833679676e-05,0.0009432226070202887,-0.004689437802881002,-0.0003198152990080416,-0.007110234349966049,0.003379564033821225,1.3159373998641968,-0.8143353462219238,0.9868683815002441,0.18095196783542633,0.4772810935974121,0.7095323204994202,0.42000001668930054,-1.5301095247268677,3.0000011920928955,-0.04584788903594017,-2.9999992847442627,0.0008691533003002405,0.0007963840034790337,0.0007110277656465769,0.0006108740926720202,0.11094217747449875,0.09756709635257721,0.08334315568208694,0.06823883205652237
0.03333333333333333,0.008960990235209465,0.006802025716751814,0.0,0.9997960329055786,0.0,0.0,0.020196840167045593,0.4070221781730652,0.3153078556060791,0.0,0.0,0.0,-0.8691333532333374,-0.4207545220851898,0.7276657819747925,0.4200000464916229,1.0,3.390914116607746e-06,-2.132455392711563e-06,-3.71076644967161e-08,0.0002635782293509692,0.00026937935035675764,-0.00010509486310184002,-0.001770757487975061,0.0041308156214654446,-0.00013547815615311265,-0.027556153014302254,0.026294175535440445,1.316581130027771,-1.5913021564483643,1.6163253784179688,-0.08696954697370529,0.4772810935974121,0.7095323204994202,0.42000001668930054,-1.4800903797149658,3.0000009536743164,-0.09588772058486938,-3.000000238418579,0.0029900919180363417,0.0026526902802288532,0.0022772501688450575,0.001860695774666965,0.16421249508857727,0.13975533843040466,0.11381355673074722,0.08629500865936279
0.05,0.0174876656383276,0.013563738204538822,0.0,0.9999492764472961,0.0,0.0,0.010072209872305393,0.5606350898742676,0.44343042373657227,0.0,0.0,0.0,-1.3866740465164185,-0.4207545518875122,0.7276658415794373,0.4200000464916229,1.0,3.7652293940482195e-06,-2.2118967990536476e-06,5.613899567435965e-09,0.000265309150563553,0.0002669153909664601,-0.0001044049859046936,-0.00172426737844944,0.004177379421889782,-0.0001294983085244894,-0.05818270146846771,0.056660570204257965,1.3113594055175781,-2.039283037185669,2.0004146099090576,-0.5050086975097656,0.4772810935974121,0.7095323204994202,0.42000001668930054,-1.4300720691680908,3.0000030994415283,-0.14592638611793518,-3.0000014305114746,0.0056188395246863365,0.004816482774913311,0.00394198764115572,0.0029907647985965014,0.18008725345134735,0.142317995429039,0.10268113762140274,0.061067838221788406
0.06666666666666667,0.028977055102586746,0.022418679669499397,0.0,0.999968409538269,0.0,0.0,-0.007952531799674034,0.7511610388755798,0.5711811780929565,0.0,0.0,0.0,-2.5630815029144287,-0.4207545518875122,0.7276657819747925,0.4200000464916229,0.9999999403953552,3.4068445984303253e-06,-2.2855729184811935e-06,4.300823945868615e-07,0.000267024093773216,0.0002679175231605768,-0.0001043803058564663,-0.0017406325787305832,0.004211729858070612,-0.00012850853090640157,-0.0930527001619339,0.09271154552698135,1.29987633228302,-2.0901570320129395,2.3662242889404297,-0.8572683334350586,0.4772810935974121,0.7095323204994202,0.42000001668930054,-1.3800537586212158,3.000000476837158,-0.19596366584300995,-3.000000238418579,0.008031033910810947,0.00644344137981534,0.004744838457554579,0.0029292860999703407,0.13641071319580078,0.07681271433830261,0.015137385576963425,-0.048657774925231934
0.08333333333333333,0.03471210226416588,0.035096053034067154,0.0,0.9991422891616821,0.0,0.0,-0.041408512741327286,0.20987842977046967,0.8367352485656738,0.0,0.0,0.0,-4.623976707458496,-0.4207545518875122,0.7276657819747925,0.4200000464916229,1.0,3.697329248097958e-06,-2.1889204617764335e-06,-2.632361599808064e-07,0.00026389621780253947,0.00026586378226056695,-0.00010433816350996494,-0.0017081365222111344,0.004150137305259705,-0.00012991174298804253,-0.126609206199646,0.13448762893676758,1.282102346420288,-1.8565101623535156,2.721435070037842,-1.187814474105835,0.4772810935974121,0.7095323204994202,0.42000001668930054,-1.3300268650054932,3.0000007152557373,-0.16746710240840912,3.000002145767212,0.00430262740701437,0.001997878309339285,-0.0004703002923633903,-0.003111579455435276,-0.33218127489089966,-0.382887601852417,-0.4362344443798065,-0.4924751818180084
0.1,0.04475802555680275,0.04882728308439255,0.0,0.9982835650444031,0.0,0.0,-0.0585654117166996,0.6841598749160767,0.8375887274742126,0.0,0.0,0.0,-0.6685701012611389,-0.4207545518875122,0.7276657819747925,0.4200000464916229,0.9999999403953552,3.620433972173487e-06,-2.265166358483839e-06,1.7460881451825117e-07,0.00026676940615288913,0.00026740849716588855,-0.0001040794886648655,-0.0017386502586305141,0.0042092143557965755,-0.00012775196228176355,-0.15997090935707092,0.1762077808380127,1.2641019821166992,-2.0130999088287354,2.552722930908203,-1.0893179178237915,0.4772810935974121,0.7095323204994202,0.42000001668930054,-1.280030608177185,3.0000011920928955,-0.19912198185920715,-3.000000476837158,0.00405708746984601,8.104077278403565e-05,-0.004053743556141853,-0.008355767466127872,-0.014582393690943718,-0.12185858190059662,-0.22820818424224854,-0.33357712626457214
0.11666666666666667,0.05243152752518654,0.06446406990289688,0.0,0.9963610768318176,0.0,0.0,-0.08523261547088623,0.4614545404911041,1.0053178071975708,0.0,0.0,0.0,-3.8846914768218994,-0.4207545518875122,0.7276657819747925,0.4200000464916229,1.0,3.7984186747053172e-06,-2.262772341055097e-06,-1.5020653165720432e-07,0.00026373984292149544,0.00026565982261672616,-0.00010428996756672859,-0.0017054551281034946,0.004147582221776247,-0.000129800770082511,-0.19105303287506104,0.2243765890598297,1.2447336912155151,-1.7307947874069214,3.2122929096221924,-1.1993355751037598,0.4772810935974121,0.7095323204994202,0.42000001668930054,-1.2300084829330444,2.9999938011169434,-0.16533654928207397,3.0000007152557373,0.0018925158074125648,-0.0039234887808561325,-0.009868648834526539,-0.015950443223118782,-0.08068769425153732,-0.20672431588172913,-0.3295190930366516,-0.44888314604759216
0.13333333333333333,0.057892393320798874,0.07885546237230301,0.0,0.9905057549476624,0.0,0.0,-0.13747118413448334,0.2753702998161316,0.7909221053123474,0.0,0.0,0.0,-7.149801254272461,-0.4207545518875122,0.7276658415794373,0.4200000464916229,0.9999999403953552,3.5505179312167456e-06,-2.2298092972050654e-06,2.9291240366546845e-07,0.0002670329704415053,0.0002677935699466616,-0.00010416889563202858,-0.0017439755611121655,0.004213570151478052,-0.00012800609692931175,-0.22004595398902893,0.2793199419975281,1.2236649990081787,-1.7355947494506836,3.397911548614502,-1.366675853729248,0.4772810935974121,0.7095323204994202,0.42000001668930054,-1.1942692995071411,1.3967705965042114,-0.19704876840114594,-3.0,-0.00012819394760299474,-0.008001519367098808,-0.015934893861413002,-0.023932525888085365,-0.1801135540008545,-0.291353702545166,-0.39834529161453247,-0.5009356737136841
0.15,0.059654053300619125,0.0936138853430748,0.0,0.9856472611427307,0.0,0.0,-0.16881801187992096,0.03282640501856804,0.9224030375480652,0.0,0.0,0.0,-2.736503839492798,-0.4207545518875122,0.7276657819747925,0.4200000464916229,0.9999999403953552,3.3381122648279415e-06,-2.2428905595006654e-06,-2.803136034401632e-08,0.0002667456865310669,0.0002675803261809051,-0.00010427623055875301,-0.0017366986721754074,0.004206871148198843,-0.00012831554340664297,-0.2569408416748047,0.33468085527420044,1.1950312852859497,-2.266402006149292,3.563319683074951,-2.058497428894043,0.4772810935974121,0.7095323204994202,0.42000001668930054,-1.150185227394104,3.0,-0.18900875747203827,3.0,-0.004481612704694271,-0.013862228021025658,-0.023221828043460846,-0.032562948763370514,-0.3281615376472473,-0.396581768989563,-0.4603419005870819,-0.5194471478462219
0.16666666666666666,0.06623268872499466,0.10569976270198822,0.0,0.9768834114074707,0.0,0.0,-0.2137727290391922,0.47785186767578125,0.6766875982284546,0.0,0.0,0.0,-6.185226917266846,-0.4207545518875122,0.7276658415794373,0.4200000464916229,0.9999999403953552,3.647830908448668e-06,-2.307289605596452e-06,3.526602299075421e-08,0.0002672695554792881,0.0002680134493857622,-0.0001041879877448082,-0.0017471626633778214,0.004217641893774271,-0.00012799118121620268,-0.29122599959373474,0.39742642641067505,1.158666729927063,-1.7806029319763184,4.063970565795898,-2.3813910484313965,0.4772810935974121,0.7095323204994202,0.42000001668930054,-1.1015890836715698,2.806436538696289,-0.2205459624528885,-3.0000007152557373,-0.007709719706326723,-0.018432321026921272,-0.029050901532173157,-0.03956811875104904,-0.3538086712360382,-0.4092135429382324,-0.46135497093200684,-0.5102323293685913
0.18333333333333332,0.06739185750484467,0.1193358451128006,0.0,0.9710458517074585,0.0,0.0,-0.23889312148094177,0.051867056638002396,0.8054708242416382,0.0,0.0,0.0,-1.9858914613723755,-0.4207545518875122,0.7276657819747925,0.4200000464916229,0.9999999403953552,3.290551603640779e-06,-2.1939342786936322e-06,-2.7924167511628184e-07,0.0002667796507012099,0.00026776036247611046,-0.00010434072464704514,-0.001739065395668149,0.004206969402730465,-0.00012845818127971143,-0.3251042366027832,0.46082884073257446,1.1085116863250732,-1.9183118343353271,3.965089797973633,-3.423238754272461,0.4772810935974121,0.7095323204994202,0.42000001668930054,-1.0637074708938599,1.7948781251907349,-0.2705738842487335,-3.0000009536743164,-0.02086321823298931,-0.031585801392793655,-0.04183189570903778,-0.051982332020998,-0.7135016322135925,-0.7310126423835754,-0.7066296339035034,-0.6812660098075867
0.2,0.07237926870584488,0.13388969004154205,0.0,0.9609410166740417,0.0,0.0,-0.2767532169818878,0.30827128887176514,0.9075506925582886,0.0,0.0,0.0,-5.582695007324219,-0.4207545518875122,0.7276657819747925,0.4200000464916229,1.0,3.2807351999508683e-06,-2.219225052613183e-06,1.594732026433121e-07,0.00026627970510162413,0.00026740136672742665,-0.0001042510848492384,-0.001735763973556459,0.004197762347757816,-0.0001286511542275548,-0.3568020462989807,0.5282593965530396,1.044755220413208,-1.7053985595703125,4.086622714996338,-4.2381272315979,0.4772810935974121,0.7095323204994202,0.42000001668930054,-1.0160496234893799,2.999997854232788,-0.32059934735298157,-3.0000007152557373,-0.03246418014168739,-0.043217506259679794,-0.0529278889298439,-0.06253395229578018,-0.8575531244277954,-0.8211127519607544,-0.7593185901641846,-0.699019730091095
0.21666666666666667,0.074380062520504,0.14575929939746857,0.0,0.9549685120582581,0.0,0.0,-0.2967071831226349,0.07871595770120621,0.6374098062515259,0.0,0.0,0.0,-1.4263975620269775,-0.4207545518875122,0.7276658415794373,0.4200000464916229,1.0,3.613135277191759e-06,-2.2701503894495545e-06,2.2101289687270764e-07,0.0002671263355296105,0.0002678169112186879,-0.00010414118878543377,-0.0017444867407903075,0.0042151641100645065,-0.00012786478328052908,-0.3861492872238159,0.5890821218490601,0.9661076664924622,-1.4980049133300781,3.5120086669921875,-5.104057788848877,0.4772810935974121,0.7095323204994202,0.42000001668930054,-0.9660420417785645,3.0,-0.3706267178058624,-3.0000009536743164,-0.04854869097471237,-0.05900851637125015,-0.0672011524438858,-0.07516680657863617,-0.975511372089386,-0.9590365886688232,-0.8683688044548035,-0.7610121369361877
0.23333333333333334,0.07235172390937805,0.15907259285449982,0.0,0.9445880055427551,0.0,0.0,-0.32825833559036255,-0.18937502801418304,0.8182421922683716,0.0,0.0,0.0,-4.800086975097656,-0.4207545518875122,0.7276657819747925,0.4200000464916229,1.0,3.3818234896898502e-06,-2.290981683472637e-06,2.728025378928578e-07,0.0002669123059604317,0.0002677978773135692,-0.00010433210991322994,-0.0017395822796970606,0.004209768958389759,-0.00012843773583881557,-0.4084462523460388,0.6443286538124084,0.8745747804641724,-1.1077806949615479,3.097992420196533,-5.725934028625488,0.4772810935974121,0.7095323204994202,0.42000001668930054,-0.9160318374633789,3.0,-0.42065632343292236,-2.9999983310699463,-0.0646405890583992,-0.07513805478811264,-0.08338123559951782,-0.09128918498754501,-0.9882559776306152,-0.9867850542068481,-0.9826835989952087,-0.9762593507766724
0.25,0.07486134767532349,0.16734643280506134,0.0,0.9395111203193665,0.0,0.0,-0.3425184190273285,0.14820286631584167,0.4107457995414734,0.0,0.0,0.0,-0.6649971604347229,-0.4207545220851898,0.7276657819747925,0.4200000464916229,0.9999999403953552,3.706510142365005e-06,-2.2230249214771902e-06,-2.254949436064635e-07,0.00026424831594340503,0.00026656725094653666,-0.00010457634925842285,-0.001716952072456479,0.004155570175498724,-0.00013063338701613247,-0.42865657806396484,0.6869961023330688,0.7768871784210205,-0.9662106037139893,2.091758966445923,-6.079432010650635,0.4772810935974121,0.7095323204994202,0.42000001668930054,-0.8660212159156799,2.9999990463256836,-0.4706871509552002,-2.999999523162842,-0.07876771688461304,-0.08897680789232254,-0.09697513282299042,-0.10448423773050308,-0.9847646355628967,-0.981619656085968,-0.9801135659217834,-0.9112624526023865
0.26666666666666666,0.07264154404401779,0.17277352511882782,0.0,0.9298434853553772,0.0,0.0,-0.3679552674293518,-0.22428233921527863,0.2659098505973816,0.0,0.0,0.0,-4.1495137214660645,-0.4207545518875122,0.7276657819747925,0.4200000464916229,0.9999999403953552,3.7196562061581062e-06,-2.4035145997913787e-06,-1.8307397908756684e-07,0.00026623206213116646,0.00026729085948318243,-0.00010425853542983532,-0.0017326372908428311,0.004196509253233671,-0.0001285135222133249,-0.4392015337944031,0.7133138179779053,0.6710953712463379,-0.24143105745315552,1.0684597492218018,-6.404546737670898,0.4772810935974121,0.7095323204994202,0.42000001668930054,-0.8160114884376526,2.9999990463256836,-0.5207183361053467,-2.9999990463256836,-0.09606287628412247,-0.1060735434293747,-0.11391931772232056,-0.12130552530288696,-1.000000238418579,-0.9999991655349731,-0.9999874234199524,-0.9999306797981262
0.2833333333333333,0.06658674776554108,0.17540408670902252,0.0,0.9266769886016846,0.0,0.0,-0.37585875391960144,-0.3191957175731659,0.07881668210029602,0.0,0.0,0.0,-0.05181169882416725,-0.4207545518875122,0.7276658415794373,0.4200000464916229,0.9999999403953552,3.584109208532027e-06,-2.315508709216374e-06,7.404404556154986e-08,0.0002652198018040508,0.0002645530621521175,-0.00010317005217075348,-0.001702171633951366,0.004185137338936329,-0.0001249976339749992,-0.44144076108932495,0.720289945602417,0.569625973701477,0.0585053488612175,-0.030696995556354523,-5.869247913360596,0.4772810935974121,0.7095323204994202,0.42000001668930054,-0.7660027146339417,2.9999942779541016,-0.5707480311393738,-3.000001907348633,-0.11279749125242233,-0.12273243069648743,-0.13055309653282166,-0.13793611526489258,-0.8517400026321411,-0.876481831073761,-0.9016074538230896,-0.9240672588348389
0.3,0.059408701956272125,0.1749488264322281,0.0,0.9186263680458069,0.0,0.0,-0.3951273262500763,-0.4775063395500183,-0.07421892136335373,0.0,0.0,0.0,-3.4020893573760986,-0.4207545518875122,0.7276657819747925,0.4200000464916229,1.0,3.724297130247578e-06,-2.271929133712547e-06,9.635297004706445e-08,0.0002631272072903812,0.00026525818975642323,-0.00010438100434839725,-0.0016960492357611656,0.004134910646826029,-0.00013027878594584763,-0.4364358186721802,0.7234532833099365,0.47491002082824707,0.593957781791687,0.1970319300889969,-5.258628845214844,0.4772810935974121,0.7095323204994202,0.42000001668930054,-0.7159945368766785,3.0,-0.6207756996154785,-3.000001907348633,-0.130059152841568,-0.13989590108394623,-0.14764437079429626,-0.1549682319164276,-1.0242078304290771,-1.0183449983596802,-1.0138661861419678,-1.0102722644805908
0.31666666666666665,0.05017784610390663,0.1719636619091034,0.0,0.9176493287086487,0.0,0.0,-0.39739111065864563,-0.5867786407470703,-0.22317972779273987,0.0,0.0,0.0,0.6415754556655884,-0.42075425386428833,0.7276653051376343,0.41999998688697815,1.0,9.246319677913561e-06,2.118920065186103e-06,-7.760437483739224e-07,0.000430284533649683,0.001021914416924119,-0.00030308656278066337,-0.013110929168760777,0.005434876773506403,0.0034483331255614758,-0.4315490424633026,0.7268065214157104,0.4286702871322632,0.16320565342903137,-0.010759305208921432,-0.3081854581832886,0.4772810935974121,0.7095323204994202,0.42000001668930054,-0.6659896373748779,3.00000262260437,-0.6711843013763428,-2.9989616870880127,-0.14161233603954315,-0.1516987830400467,-0.15959405899047852,-0.1669008731842041,-0.3291517496109009,-0.35652539134025574,-0.3717939853668213,-0.3666306734085083
0.3333333333333333,0.03881477564573288,0.16655714809894562,0.0,0.9113403558731079,0.0,0.0,-0.41165363788604736,-0.7312321066856384,-0.36559537053108215,0.0,0.0,0.0,-2.9352316856384277,-0.4207545518875122,0.7276657819747925,0.4200000464916229,0.9999999403953552,3.386496700841235e-06,-2.1729886157118017e-06,1.7399139906615346e-08,0.00026680383598431945,0.0002671175461728126,-0.00010493281297385693,-0.0016998698702082038,0.004199308343231678,-0.00012859501293860376,-0.4290420711040497,0.7324202060699463,0.4253527522087097,0.26278090476989746,0.4788368046283722,-0.1827482283115387,0.4772810935974121,0.7095323204994202,0.42000001668930054,-0.6159839630126953,2.999967336654663,-0.7212718725204468,-2.9999916553497314,-0.14746920764446259,-0.1576153039932251,-0.16539610922336578,-0.17223753035068512,-0.3767049312591553,-0.3596773147583008,-0.3360220491886139,-0.2932947874069214
0.35,0.025318020954728127,0.15873879194259644,0.0,0.9113053679466248,0.0,0.0,-0.41173118352890015,-0.8461500406265259,-0.5106651782989502,0.0,0.0,0.0,0.9360480904579163,-0.41641944646835327,0.734438419342041,0.4207727909088135,0.9967135787010193,0.019613051787018776,-0.001266868319362402,-0.0785856768488884,0.28673312067985535,0.43978843092918396,0.03230884298682213,1.673560380935669,-0.13260377943515778,-10.290753364562988,-0.4244459867477417,0.7404559850692749,0.42208346724510193,0.38655591011047363,0.5455451607704163,-0.17816174030303955,0.4772810935974121,0.7095323204994202,0.42000001668930054,-0.5659789443016052,2.9999794960021973,-0.7713135480880737,-3.0,-0.15551400184631348,-0.16438822448253632,-0.17081642150878906,-0.176015242934227,-0.5121532678604126,-0.3996882140636444,-0.2837047576904297,-0.1512693613767624
0.36666666666666664,0.01543687004595995,0.14792636036872864,0.0,0.9053090214729309,0.0,0.0,-0.4247535169124603,-0.5695315003395081,-0.6766945719718933,0.0,0.0,0.0,-2.5613179206848145,-0.4106157422065735,0.7431017160415649,0.42036235332489014,0.992607593536377,0.008916567079722881,-0.0010909660486504436,-0.1210344135761261,0.42953455448150635,0.6168516278266907,-0.02085496485233307,-0.9181202054023743,0.12169744074344635,-2.2711644172668457,-0.41669225692749023,0.7484883069992065,0.4199877977371216,0.5666201114654541,0.5024840831756592,-0.09366954118013382,0.4772810935974121,0.7095323204994202,0.42000001668930054,-0.5159741640090942,2.9999916553497314,-0.8213706612586975,-2.999976873397827,-0.16386380791664124,-0.17052945494651794,-0.17468269169330597,-0.17732563614845276,-0.5707231760025024,-0.40899670124053955,-0.24517372250556946,-0.06691575050354004
0.3833333333333333,0.0027865220326930285,0.13576017320156097,0.0,0.8872179388999939,0.0,0.0,-0.46135053038597107,-0.8314568996429443,-0.7573345899581909,0.0,0.0,0.0,-6.157411098480225,-0.40093642473220825,0.7562743425369263,0.42002055048942566,0.9894534349441528,-0.0005034737987443805,4.547243224806152e-05,-0.14485050737857819,0.7780294418334961,1.028478741645813,0.017877154052257538,-0.887139081954956,0.2805950343608856,-3.9568276405334473,-0.40452197194099426,0.7591835260391235,0.419929563999176,0.9109545946121216,0.8820555210113525,0.08594736456871033,0.4772810935974121,0.7095323204994202,0.42000001668930054,-0.46594494581222534,2.9997003078460693,-0.8714038133621216,-2.980829954147339,-0.17507082223892212,-0.17848317325115204,-0.17932093143463135,-0.17840123176574707,-0.6300647258758545,-0.43439871072769165,-0.2330550104379654,-0.015264302492141724
0.4,-0.007088671904057264,0.12067809700965881,0.0,0.8526155352592468,0.0,0.0,-0.5225387215614319,-0.533941388130188,-0.9506506323814392,0.0,0.0,0.0,-9.166255950927734,-0.3744128346443176,0.7815821766853333,0.42193281650543213,0.9797693490982056,-0.009540103375911713,-0.02945278212428093,-0.1977207064628601,4.147100925445557,1.618697166442871,0.34661445021629333,32.282386779785156,24.567270278930664,20.74367904663086,-0.37556344270706177,0.7825329303741455,0.422137975692749,2.610051155090332,1.9366049766540527,0.2737427353858948,0.4772810935974121,0.7095323204994202,0.42000001668930054,-0.41602787375450134,2.9577012062072754,-0.9214404821395874,-2.9980955123901367,-0.18544399738311768,-0.18520618975162506,-0.18229609727859497,-0.17738378047943115,-0.7151727676391602,-0.45028460025787354,-0.18287943303585052,0.09343910962343216
0.4166666666666667,-0.013943469151854515,0.10981651395559311,0.0,0.8001062273979187,0.0,0.0,-0.5998583436012268,-0.33978161215782166,-0.6641180515289307,0.0,0.0,0.0,-11.922453880310059,-0.3031737804412842,0.820685625076294,0.4277539849281311,0.9627529382705688,0.04762176051735878,-0.06596934795379639,-0.2578507661819458,5.599483489990234,2.8517558574676514,0.31246137619018555,27.05367660522461,-16.385263442993164,3.154038429260254,-0.3043813109397888,0.8225820064544678,0.4279504418373108,5.318398952484131,2.8787105083465576,0.5816947817802429,0.4772810935974121,0.7095323204994202,0.42000001668930054,-0.38649335503578186,0.9564424753189087,-0.8841736316680908,2.9959557056427,-0.20023348927497864,-0.19660066068172455,-0.18850718438625336,-0.1784893274307251,-0.530392587184906,-0.5306175947189331,-0.2894638776779175,-0.050598062574863434
0.43333333333333335,-0.017237909138202667,0.10169483721256256,0.0,0.7563543319702148,0.0,0.0,-0.6541621088981628,-0.14795924723148346,-0.4210107624530792,0.0,0.0,0.0,-7.17200231552124,-0.21213018894195557,0.8668993711471558,0.4390575885772705,0.9316335320472717,0.12147635221481323,-0.10451829433441162,-0.3261567950248718,6.036351203918457,1.9613540172576904,0.6773895621299744,15.604859352111816,-18.57416343688965,16.38090705871582,-0.21331004798412323,0.8701218366622925,0.43902382254600525,5.696026802062988,2.559875965118408,0.8015159368515015,0.4772810935974121,0.7095323204994202,0.42000001668930054,-0.37029698491096497,0.8896044492721558,-0.8375862240791321,2.63972544670105,-0.21064436435699463,-0.20631802082061768,-0.19452498853206635,-0.18103663623332977,-0.6153875589370728,-0.5502328872680664,-0.35040000081062317,-0.17053984105587006
0.45,-0.021378109231591225,0.09069289267063141,0.0,0.733684241771698,0.0,0.0,-0.6794905662536621,-0.28591880202293396,-0.6172806024551392,0.0,0.0,0.0,-2.764502763748169,-0.11097010970115662,0.9016092419624329,0.4538375437259674,0.8693085312843323,0.15074947476387024,-0.11791875213384628,-0.45571088790893555,6.450511455535889,0.7874417304992676,0.7924967408180237,0.6933211088180542,-22.038738250732422,12.269258499145508,-0.11369948089122772,0.9051024913787842,0.4523029625415802,6.383322715759277,1.533324956893921,1.0155342817306519,0.4772810935974121,0.7095323204994202,0.42000001668930054,-0.3531421720981598,1.0031930208206177,-0.8663639426231384,-3.0000052452087402,-0.22100730240345,-0.2143748551607132,-0.19867904484272003,-0.1816784292459488,-0.8396010398864746,-0.6089496612548828,-0.3165135979652405,-0.05193895101547241
0.4666666666666667,-0.02393857017159462,0.08244350552558899,0.0,0.7035574316978455,0.0,0.0,-0.7106384038925171,-0.11087096482515335,-0.4768666625022888,0.0,0.0,0.0,-6.086366653442383,-0.003191538155078888,0.9106099605560303,0.46598368883132935,0.796031653881073,0.1315389722585678,-0.16476762294769287,-0.56734699010849,6.502717971801758,-0.8390359878540039,0.6871296167373657,-14.446584701538086,-5.0653462409973145,7.42018461227417,-0.007336822338402271,0.9167004823684692,0.46631890535354614,6.575359344482422,0.06860166788101196,0.8453461527824402,0.4772810935974121,0.7095323204994202,0.42000001668930054,-0.33661359548568726,0.8330661058425903,-0.9163882732391357,-3.000002384185791,-0.23623839020729065,-0.22515329718589783,-0.2041103094816208,-0.18221241235733032,-0.7518323063850403,-0.4922044575214386,-0.19920431077480316,0.0744461938738823
0.48333333333333334,-0.02307858318090439,0.07431995868682861,0.0,0.6874352097511292,0.0,0.0,-0.7262457013130188,0.11266046017408371,-0.4979656934738159,0.0,0.0,0.0,-1.5935872793197632,0.10357992351055145,0.9012451171875,0.47624334692955017,0.7094256281852722,0.0942874401807785,-0.18307626247406006,-0.6740238666534424,6.070011138916016,-1.73661470413208,0.46366459131240845,-16.185956954956055,-9.79637622833252,15.477277755737305,0.0992177277803421,0.9095439910888672,0.47737017273902893,6.401145935058594,-0.9565960168838501,0.6649712920188904,0.4772810935974121,0.7095323204994202,0.42000001668930054,-0.32442212104797363,0.5567537546157837,-0.9664124846458435,-3.0000038146972656,-0.239955335855484,-0.23437967896461487,-0.2087586224079132,-0.18274478614330292,-0.030462749302387238,-0.48474445939064026,-0.2513156235218048,-0.050286561250686646
0.5,-0.01908564381301403,0.0688033178448677,0.0,0.6639662981033325,0.0,0.0,-0.7477625012397766,0.28780221939086914,-0.2618979513645172,0.0,0.0,0.0,-4.706811904907227,0.2004513144493103,0.8754960894584656,0.4795151948928833,0.6221829652786255,0.040196917951107025,-0.20399439334869385,-0.7547575235366821,5.566253185272217,-1.8523719310760498,0.06755878031253815,-6.929562568664551,2.115710735321045,8.60621452331543,0.19585683941841125,0.8874260187149048,0.48300278186798096,5.307192802429199,-1.7790272235870361,0.13595247268676758,0.4772810935974121,0.7095323204994202,0.42000001668930054,-0.31685301661491394,0.2674808204174042,-1.0164364576339722,-3.0000014305114746,-0.23999552428722382,-0.23999306559562683,-0.2122962772846222,-0.18386870622634888,0.004831645637750626,-0.0030386862345039845,-0.14971482753753662,-0.05896163731813431
0.5166666666666666,-0.016713816672563553,0.06691716611385345,0.0,0.6552714705467224,0.0,0.0,-0.7553935050964355,0.0756252333521843,-0.05192704498767853,0.0,0.0,0.0,-0.3029992878437042,0.28189948201179504,0.8417895436286926,0.47789090871810913,0.5595154166221619,1.2079675798304379e-05,-0.17724968492984772,-0.8096449375152588,4.384171485900879,-2.6061713695526123,-0.16224777698516846,-3.2741901874542236,1.826499342918396,-3.5357627868652344,0.27878493070602417,0.853779673576355,0.48163747787475586,4.481549263000488,-2.252081871032715,-0.23692575097084045,0.4772810935974121,0.7095323204994202,0.42000001668930054,-0.3090019226074219,0.6443209052085876,-1.0664585828781128,-3.0000009536743164,-0.23981086909770966,-0.23930606245994568,-0.21407148241996765,-0.18477024137973785,0.05880211293697357,0.1251145601272583,-0.0227805282920599,-0.021262072026729584
0.5333333333333333,-0.013241264037787914,0.06063274294137955,0.0,0.6369785666465759,0.0,0.0,-0.7708815336227417,0.2191634178161621,-0.374029278755188,0.0,0.0,0.0,-3.7009658813476562,0.349771112203598,0.8054304718971252,0.468127965927124,0.511419951915741,-0.037252265959978104,-0.16183365881443024,-0.8431320786476135,3.6008007526397705,-2.3011882305145264,-0.7186413407325745,-2.082914113998413,6.108879566192627,-7.597301006317139,0.3481343984603882,0.817185640335083,0.47255849838256836,3.7205491065979004,-2.338320732116699,-0.759925365447998,0.4772810935974121,0.7095323204994202,0.42000001668930054,-0.294256329536438,1.0344936847686768,-1.1164807081222534,-2.9998888969421387,-0.23361371457576752,-0.2326078712940216,-0.21071837842464447,-0.18277594447135925,0.3296675384044647,0.39150720834732056,0.20386123657226562,0.09959082305431366
0.55,-0.00748490821570158,0.05925360694527626,0.0,0.6322208642959595,0.0,0.0,-0.7747882008552551,0.3773542046546936,-0.0646936222910881,0.0,0.0,0.0,0.18551287055015564,0.4033186733722687,0.766412079334259,0.4532138407230377,0.4648282527923584,-0.07812513411045074,-0.1367781013250351,-0.8712764978408813,2.693559408187866,-2.8579587936401367,-0.9252201914787292,-12.652155876159668,9.74896240234375,3.884432315826416,0.4028046429157257,0.7770293951034546,0.4578375220298767,2.8920671939849854,-2.3703386783599854,-0.9920858144760132,0.4772810935974121,0.7095323204994202,0.42000001668930054,-0.277119904756546,0.7833607792854309,-1.166502833366394,-2.9997658729553223,-0.23079517483711243,-0.2281734198331833,-0.20898684859275818,-0.18291206657886505,0.29747188091278076,0.3578021824359894,0.16194415092468262,-0.002764154225587845
0.5666666666666667,0.00029908205033279955,0.06006918102502823,0.0,0.617294430732727,0.0,0.0,-0.7867321968078613,0.5077792406082153,0.15500369668006897,0.0,0.0,0.0,-3.186563014984131,0.44591838121414185,0.7313524484634399,0.43195411562919617,0.43282350897789,-0.12409506738185883,-0.12000185996294022,-0.8847959041595459,2.131066083908081,-2.111755132675171,-1.2868142127990723,-5.45811653137207,8.227917671203613,-0.038702141493558884,0.445854127407074,0.7415133714675903,0.4367634356021881,2.212303400039673,-1.9812321662902832,-1.4014431238174438,0.4772810935974121,0.7095323204994202,0.42000001668930054,-0.2676312327384949,0.44009923934936523,-1.2165249586105347,-2.9994869232177734,-0.22379744052886963,-0.22117267549037933,-0.2060416042804718,-0.183713898062706,0.45243698358535767,0.4265816807746887,0.16627660393714905,-0.09127657860517502
0.5833333333333334,0.010559728369116783,0.05678391456604004,0.0,0.6153780817985535,0.0,0.0,-0.7882320880889893,0.6013482213020325,-0.168405681848526,0.0,0.0,0.0,0.6332830190658569,0.47152450680732727,0.7118284702301025,0.4242863357067108,0.4247956871986389,-0.09098891168832779,-0.022750787436962128,-0.9004177451133728,0.7552261352539062,-0.8453314900398254,0.061755117028951645,9.763161659240723,3.8627541065216064,-0.44354161620140076,0.47100991010665894,0.719576358795166,0.42764970660209656,0.8330387473106384,-0.7890251874923706,0.1520976424217224,0.4772810935974121,0.7095323204994202,0.42000001668930054,-0.2557249665260315,0.8335524797439575,-1.2664743661880493,-2.999619483947754,-0.21083864569664001,-0.209697887301445,-0.19962337613105774,-0.18240271508693695,0.6965516209602356,0.6217661499977112,0.34527456760406494,0.05192256718873978
0.6,0.017860161140561104,0.05735551565885544,0.0,0.6022141575813293,0.0,0.0,-0.7983345985412598,0.3591780960559845,0.005418812856078148,0.0,0.0,0.0,-2.830486536026001,0.48311108350753784,0.7024737596511841,0.423658162355423,0.45738866925239563,-0.077120840549469,-0.014556201174855232,-0.8857969045639038,0.5628235936164856,-0.42863592505455017,-0.025646965950727463,3.8529903888702393,-1.4761184453964233,7.88930606842041,0.48119986057281494,0.7098816633224487,0.42698830366134644,0.4541435241699219,-0.42407333850860596,-0.0635368674993515,0.4772810935974121,0.7095323204994202,0.42000001668930054,-0.2610357999801636,-1.0109087228775024,-1.2283883094787598,3.0006871223449707,-0.19947831332683563,-0.1998039186000824,-0.19425861537456512,-0.18199032545089722,0.7984054684638977,0.6768430471420288,0.39120420813560486,0.07635936886072159
0.6166666666666667,0.025989407673478127,0.06009245663881302,0.0,0.6026445627212524,0.0,0.0,-0.7980097532272339,0.5039134621620178,0.2410876601934433,0.0,0.0,0.0,0.9738430380821228,0.4876748323440552,0.6967056393623352,0.4223894476890564,0.49333998560905457,-0.04904636740684509,-0.033037178218364716,-0.8678240180015564,0.0807284563779831,-0.1969434916973114,-0.023389751091599464,1.284859538078308,-1.2504788637161255,3.9389281272888184,0.4852730631828308,0.7049669027328491,0.42829012870788574,0.09929417818784714,-0.14088647067546844,0.14332455396652222,0.4772810935974121,0.7095323204994202,0.42000001668930054,-0.28640496730804443,-1.9497430324554443,-1.2490830421447754,-2.9996697902679443,-0.1884542554616928,-0.1905091553926468,-0.18911878764629364,-0.1816006302833557,0.6388375759124756,0.5323128700256348,0.2976505160331726,0.023134974762797356
0.6333333333333333,0.035500962287187576,0.060774754732847214,0.0,0.5914579629898071,0.0,0.0,-0.8063358068466187,0.6058395504951477,-0.0036489220801740885,0.0,0.0,0.0,-2.6468145847320557,0.4877941310405731,0.6952794194221497,0.42112627625465393,0.5198801159858704,-0.024336062371730804,-0.015096936374902725,-0.8537590503692627,-0.01848447322845459,-0.05323485657572746,-0.08534865826368332,4.143629550933838,-2.2698819637298584,2.7385165691375732,0.4857901334762573,0.7066174745559692,0.4307457506656647,-0.0754903182387352,0.22091729938983917,0.16521956026554108,0.4772810935974121,0.7095323204994202,0.42000001668930054,-0.3221704661846161,-2.287959575653076,-1.2990186214447021,-2.998192071914673,-0.17653560638427734,-0.1807067096233368,-0.18324270844459534,-0.1803196519613266,0.6796679496765137,0.5612360835075378,0.3486453592777252,0.09229074418544769
0.65,0.04730921611189842,0.06392866373062134,0.0,0.5930543541908264,0.0,0.0,-0.8051624298095703,0.7307258248329163,0.24177202582359314,0.0,0.0,0.0,1.159788727760315,0.4871642589569092,0.6945376396179199,0.4200001657009125,0.5340166091918945,-1.0335798833693843e-05,-5.643451731884852e-05,-0.8454739451408386,-0.06452677398920059,-0.019961848855018616,-0.0010736050317063928,0.14367461204528809,-0.005946029908955097,3.0069496631622314,0.4840404987335205,0.7092909216880798,0.4337605834007263,-0.11838167160749435,0.1912241280078888,0.20201720297336578,0.4772810935974121,0.7095323204994202,0.42000001668930054,-0.3712289333343506,-2.999985694885254,-1.3490012884140015,-2.9994513988494873,-0.16748113930225372,-0.17324747145175934,-0.17867924273014069,-0.17940373718738556,0.5408968925476074,0.444881409406662,0.2854642868041992,0.08131353557109833
0.6666666666666666,0.06079548969864845,0.06393228471279144,0.0,0.6187795400619507,0.0,0.0,-0.7855647206306458,0.8377059102058411,-0.026536237448453903,0.0,0.0,0.0,4.746140003204346,0.4846595227718353,0.6953204274177551,0.4200713336467743,0.5506268739700317,0.000986270373687148,-0.0014972637873142958,-0.8347495794296265,-0.12738928198814392,0.08182469755411148,0.01530330441892147,-0.3016537129878998,-0.7043123841285706,-0.08118396997451782,0.4829437732696533,0.7130651473999023,0.43704161047935486,-0.10548075288534164,0.24643369019031525,0.2139233648777008,0.4772810935974121,0.7095323204994202,0.42000001668930054,-0.4212641417980194,-2.99991512298584,-1.3989766836166382,-2.9990243911743164,-0.1574973613023758,-0.1647290736436844,-0.1724763959646225,-0.17626595497131348,0.5039164423942566,0.448223352432251,0.35032713413238525,0.20494934916496277
0.6833333333333333,0.07110472023487091,0.06034990772604942,0.0,0.6294914484024048,0.0,0.0,-0.7770074009895325,0.5320928692817688,-0.2770826816558838,0.0,0.0,0.0,0.5813316702842712,0.48324471712112427,0.6962432861328125,0.41999998688697815,0.5505093932151794,6.04647482305154e-07,-2.575702410467784e-06,-0.8348288536071777,-0.06522569805383682,0.04216836765408516,-3.2520387321710587e-05,0.0035299172159284353,0.0006233135354705155,-0.029133977368474007,0.48276305198669434,0.7155584096908569,0.4413989186286926,-0.02796091139316559,0.09964995831251144,0.28546902537345886,0.4772810935974121,0.7095323204994202,0.42000001668930054,-0.47126132249832153,-2.9998116493225098,-1.4489480257034302,-2.9997966289520264,-0.15139012038707733,-0.15858468413352966,-0.16673490405082703,-0.17162714898586273,0.28652143478393555,0.3314457833766937,0.3619673252105713,0.3543981611728668
0.7,0.08126436918973923,0.05371242016553879,0.0,0.6163829565048218,0.0,0.0,-0.7874465584754944,0.6451322436332703,-0.4548306465148926,0.0,0.0,0.0,-2.9312705993652344,0.48297977447509766,0.6964156031608582,0.42000001668930054,0.5504765510559082,-1.629525468160864e-05,2.163263525289949e-05,-0.8348506093025208,-0.0016000588657334447,0.001122619491070509,-0.0007762954337522388,-0.004899447783827782,-0.012710636481642723,0.0016917991451919079,0.4873521327972412,0.7178440690040588,0.4507986903190613,0.5488471388816833,0.1397685408592224,0.9520710110664368,0.4772810935974121,0.7095323204994202,0.42000001668930054,-0.521273672580719,-2.999980926513672,-1.4989662170410156,-2.999999761581421,-0.14924906194210052,-0.1553286463022232,-0.16242404282093048,-0.16681431233882904,0.03951311856508255,0.12268774211406708,0.21066126227378845,0.2694293260574341
0.7166666666666667,0.09610051661729813,0.05280683562159538,0.0,0.5792070627212524,0.0,0.0,-0.8151804208755493,0.8828469514846802,-0.01060204952955246,0.0,0.0,0.0,-6.5056681632995605,0.48297756910324097,0.6964170932769775,0.41999995708465576,0.5504775047302246,-1.5986238395271357e-06,-5.6584271987958346e-06,-0.8348499536514282,7.323300087591633e-05,-0.0003928829391952604,-7.409253157675266e-05,0.010338245891034603,-0.003461219370365143,-0.0010739915305748582,0.5040053725242615,0.7142871618270874,0.4731329381465912,1.5935933589935303,-0.42477118968963623,1.8214144706726074,0.4772810935974121,0.7095323204994202,0.42000001668930054,-0.5712854862213135,-2.9999969005584717,-1.5489845275878906,-2.9999759197235107,-0.15760578215122223,-0.16068652272224426,-0.1646793782711029,-0.16651248931884766,-0.4963071644306183,-0.3229576349258423,-0.1352730095386505,0.025819405913352966
0.7333333333333333,0.10633309185504913,0.05372422933578491,0.0,0.5565378665924072,0.0,0.0,-0.830822229385376,0.5443344116210938,-0.004362692590802908,0.0,0.0,0.0,-2.1351804733276367,0.48297756910324097,0.6964170932769775,0.41999995708465576,0.550477147102356,-1.875059524536482e-06,-5.327044618752552e-06,-0.8348501324653625,6.057340942788869e-05,-0.0003797315584961325,-7.24701676517725e-05,0.009952479973435402,-0.003287510247901082,-0.0010136580094695091,0.5301905870437622,0.71234530210495,0.5052617192268372,1.5665583610534668,0.10988468676805496,1.973502516746521,0.4772810935974121,0.7095323204994202,0.42000001668930054,-0.591434121131897,0.31384238600730896,-1.5989995002746582,-2.9999988079071045,-0.16242201626300812,-0.16380839049816132,-0.16582323610782623,-0.1660677194595337,-0.08425033092498779,-0.054820023477077484,-0.005946661811321974,0.02336222119629383
0.75,0.11159277707338333,0.0551079660654068,0.0,0.5611429214477539,0.0,0.0,-0.8277189135551453,0.28450268507003784,0.19593605399131775,0.0,0.0,0.0,1.4457712173461914,0.48297759890556335,0.6964170932769775,0.41999995708465576,0.5504773259162903,-1.5407067621708848e-06,-5.3158523769525345e-06,-0.8348500728607178,6.129012763267383e-05,-0.0003795473021455109,-7.24554993212223e-05,0.00994737446308136,-0.003284442238509655,-0.0010147914290428162,0.5523963570594788,0.7159314751625061,0.5326038002967834,0.9968584775924683,0.23841410875320435,1.3500196933746338,0.4772810935974121,0.7095323204994202,0.42000001668930054,-0.5647025108337402,2.6669974327087402,-1.5599886178970337,2.9999282360076904,-0.16194604337215424,-0.16308271884918213,-0.1645050048828125,-0.16444924473762512,-0.07851862907409668,-0.03530670702457428,0.024887606501579285,0.06427955627441406
0.7666666666666666,0.11348051577806473,0.05326276272535324,0.0,0.5542919635772705,0.0,0.0,-0.8323222994804382,0.06258050352334976,-0.20378462970256805,0.0,0.0,0.0,-2.0129082202911377,0.48297756910324097,0.6964170336723328,0.41999995708465576,0.5504773855209351,-1.892622776722419e-06,-5.490681814990239e-06,-0.834850013256073,6.113843846833333e-05,-0.0003796796081587672,-7.238704711198807e-05,0.009954122826457024,-0.0032888019923120737,-0.0010150887537747622,0.5613023638725281,0.7210046052932739,0.5482382774353027,0.054384853690862656,0.3703199625015259,0.7105391621589661,0.4772810935974121,0.7095323204994202,0.42000001668930054,-0.5301800966262817,1.5426862239837646,-1.5099436044692993,2.999999761581421,-0.16155970096588135,-0.1621614694595337,-0.16278599202632904,-0.16226311028003693,0.05842543765902519,0.09108076989650726,0.1366211324930191,0.16160641610622406
0.7833333333333333,0.11280087381601334,0.05571086332201958,0.0,0.560115396976471,0.0,0.0,-0.8284145593643188,-0.07409530133008957,0.2721523344516754,0.0,0.0,0.0,1.712536334991455,0.48297756910324097,0.6964170932769775,0.41999995708465576,0.5504772067070007,-1.8824889593815897e-06,-5.4056395129009616e-06,-0.8348501324653625,6.020813452778384e-05,-0.0003796231176238507,-7.246737368404865e-05,0.009948717430233955,-0.0032867160625755787,-0.0010126179549843073,0.5577924251556396,0.7272060513496399,0.5589262843132019,-0.4015618562698364,0.44905391335487366,0.5910985469818115,0.4772810935974121,0.7095323204994202,0.42000001668930054,-0.48970338702201843,3.000000476837158,-1.5258914232254028,-2.999999761581421,-0.16617164015769958,-0.16519805788993835,-0.16415084898471832,-0.1623985767364502,-0.3247799277305603,-0.23085953295230865,-0.1334676295518875,-0.062240973114967346
0.8,0.11375026404857635,0.0564156137406826,0.0,0.5538004636764526,0.0,0.0,-0.8326494097709656,0.08822362869977951,-0.002370270201936364,0.0,0.0,0.0,-1.8202756643295288,0.48297759890556335,0.6964170336723328,0.41999995708465576,0.5504775047302246,-1.70813279964932e-06,-5.5469877224822994e-06,-0.8348499536514282,6.237922934815288e-05,-0.00037964695366099477,-7.233512587845325e-05,0.00995580293238163,-0.003291194560006261,-0.001017904025502503,0.5433846712112427,0.7344308495521545,0.5620650053024292,-1.2911524772644043,0.3906205892562866,-0.018150750547647476,0.4772810935974121,0.7095323204994202,0.42000001668930054,-0.48164939880371094,-1.6378003358840942,-1.487088918685913,3.000000238418579,-0.17026056349277496,-0.16795513033866882,-0.16547651588916779,-0.16263580322265625,-0.2471974939107895,-0.16146220266819,-0.06958264112472534,0.0044564660638570786
0.8166666666666667,0.11721408367156982,0.058398544788360596,0.0,0.5596047043800354,0.0,0.0,-0.8287596702575684,0.19763337075710297,0.13816669583320618,0.0,0.0,0.0,1.4959592819213867,0.48297759890556335,0.6964170336723328,0.41999995708465576,0.5504775047302246,-1.6999060790112708e-06,-5.194929599383613e-06,-0.8348499536514282,6.42874656477943e-05,-0.0003803023137152195,-7.213838398456573e-05,0.009986162185668945,-0.003312075277790427,-0.0010235169902443886,0.5271651744842529,0.7410067915916443,0.5618959069252014,-0.6388634443283081,0.48086071014404297,0.020056873559951782,0.4772810935974121,0.7095323204994202,0.42000001668930054,-0.49021199345588684,0.4381091892719269,-1.5035183429718018,-3.0000007152557373,-0.1739402860403061,-0.17049972712993622,-0.16666577756404877,-0.16260330379009247,-0.03283606842160225,-0.018219374120235443,0.01893944852054119,0.06082348898053169
0.8333333333333334,0.1221371665596962,0.05765281990170479,0.0,0.5838006138801575,0.0,0.0,-0.8118970394134521,0.34672075510025024,-0.08416704088449478,0.0,0.0,0.0,4.862381458282471,0.48297759890556335,0.6964170932769775,0.41999995708465576,0.5504773259162903,-1.6851334976308863e-06,-5.603324098046869e-06,-0.8348501324653625,6.2422281189356e-05,-0.00038000731728971004,-7.245223969221115e-05,0.009963585063815117,-0.0032943447586148977,-0.0010187816806137562,0.5170979499816895,0.7474236488342285,0.562718391418457,-0.5749825835227966,0.2684786319732666,0.15916261076927185,0.4772810935974121,0.7095323204994202,0.42000001668930054,-0.521783709526062,-3.0000014305114746,-1.4647808074951172,3.000000476837158,-0.174098938703537,-0.17020542919635773,-0.165540874004364,-0.1605292707681656,-0.0543537475168705,-0.003952547442167997,0.06721930205821991,0.14570046961307526
0.85,0.12932947278022766,0.05394716560840607,0.0,0.5954762697219849,0.0,0.0,-0.8033729195594788,0.46579569578170776,-0.2675304412841797,0.0,0.0,0.0,0.6825823187828064,0.48297756910324097,0.6964170932769775,0.41999995708465576,0.5504772663116455,-1.68708731962397e-06,-5.308952495397534e-06,-0.8348501324653625,6.0497062804643065e-05,-0.0003797902900259942,-7.249740883708e-05,0.00995346624404192,-0.0032904394902288914,-0.0010137971257790923,0.5122908353805542,0.7497891187667847,0.5611961483955383,-0.033630166202783585,-0.0026022717356681824,-0.16630008816719055,0.4772810935974121,0.7095323204994202,0.42000001668930054,-0.5718010067939758,-3.0000007152557373,-1.4816603660583496,-3.0000007152557373,-0.17598921060562134,-0.1708800196647644,-0.164621502161026,-0.1578357219696045,-0.10082242637872696,-0.016002589836716652,0.09207013994455338,0.21329236030578613
0.8666666666666667,0.1384897530078888,0.04758255183696747,0.0,0.5828218460083008,0.0,0.0,-0.8125999569892883,0.5872318148612976,-0.4416635036468506,0.0,0.0,0.0,-2.790227174758911,0.48297756910324097,0.6964170336723328,0.41999995708465576,0.5504775643348694,-1.7015695448208135e-06,-5.1541378525143955e-06,-0.8348499536514282,6.374155054800212e-05,-0.00037986593088135123,-7.209461182355881e-05,0.00997254904359579,-0.0033026395831257105,-0.0010210948530584574,0.5157796144485474,0.7467176914215088,0.560253381729126,0.4370618462562561,-0.3530968427658081,0.19629588723182678,0.4772810935974121,0.7095323204994202,0.42000001668930054,-0.6218116879463196,-2.9999823570251465,-1.5316786766052246,-3.000000476837158,-0.1789947897195816,-0.17229484021663666,-0.16408121585845947,-0.15511690080165863,-0.17552891373634338,-0.079906165599823,0.03578120470046997,0.16489878296852112
0.8833333333333333,0.15043625235557556,0.04377014562487602,0.0,0.5486536026000977,0.0,0.0,-0.8360497951507568,0.7584397792816162,-0.17899416387081146,0.0,0.0,0.0,-5.87561559677124,0.48297759890556335,0.6964170932769775,0.41999995708465576,0.5504773259162903,-1.5472802488147863e-06,-5.4449719755211845e-06,-0.8348500728607178,6.189056148286909e-05,-0.0003797082754317671,-7.243012078106403e-05,0.009953852742910385,-0.003288026200607419,-0.0010167912114411592,0.5289077162742615,0.7395542860031128,0.564132571220398,1.1155269145965576,-0.45740175247192383,0.4067434072494507,0.4772810935974121,0.7095323204994202,0.42000001668930054,-0.6397525072097778,0.5518413782119751,-1.5816969871520996,-2.999993324279785,-0.18237873911857605,-0.17475657165050507,-0.16536860167980194,-0.15504828095436096,-0.11799468845129013,-0.1095992922782898,-0.09090898185968399,-0.06345472484827042
0.9,0.15940360724925995,0.04208153858780861,0.0,0.5296741127967834,0.0,0.0,-0.8482012152671814,0.4500649869441986,-0.06036825850605965,0.0,0.0,0.0,-1.6689839363098145,0.48297759890556335,0.6964170932769775,0.41999995708465576,0.5504773855209351,-1.8394285916656372e-06,-5.445780516311061e-06,-0.8348500728607178,6.397519609890878e-05,-0.0003801012353505939,-7.214676588773727e-05,0.009978880174458027,-0.003308089915663004,-0.0010220916010439396,0.5446063280105591,0.7366583347320557,0.5709017515182495,0.7262845039367676,0.0213682409375906,0.3420446515083313,0.4772810935974121,0.7095323204994202,0.42000001668930054,-0.6079456806182861,2.9999797344207764,-1.542721152305603,2.999999761581421,-0.1812075823545456,-0.174205482006073,-0.16531668603420258,-0.1553630828857422,0.18165533244609833,0.11272065341472626,0.046701885759830475,-0.01362709328532219
