vladlanda/robotic-transformer/data/env_000_episode_0034.csv
sim_time_s,robot_box_x,robot_box_y,robot_box_z,robot_box_quat_w,robot_box_quat_x,robot_box_quat_y,robot_box_quat_z,robot_box_linvel_x,robot_box_linvel_y,robot_box_linvel_z,robot_box_angvel_x,robot_box_angvel_y,robot_box_angvel_z,cube_world_x,cube_world_y,cube_world_z,cube_quat_w,cube_quat_x,cube_quat_y,cube_quat_z,cube_linvel_x,cube_linvel_y,cube_linvel_z,cube_angvel_x,cube_angvel_y,cube_angvel_z,endpoint_world_x,endpoint_world_y,endpoint_world_z,endpoint_linvel_x,endpoint_linvel_y,endpoint_linvel_z,target_cube_world_x,target_cube_world_y,target_cube_world_z,gripper_actual_pos_rad_gp_leftgearjoint,gripper_actual_vel_rad_s_gp_leftgearjoint,gripper_actual_pos_rad_gp_rotatingjoint,gripper_actual_vel_rad_s_gp_rotatingjoint,motor_angle_rad_joint1,motor_angle_rad_joint2,motor_angle_rad_joint3,motor_angle_rad_joint4,motor_speed_rad_s_joint1,motor_speed_rad_s_joint2,motor_speed_rad_s_joint3,motor_speed_rad_s_joint4
0.0,0.0,0.0,0.0,1.0,0.0,0.0,0.0,0.0,0.0,0.0,0.0,0.0,0.0,-0.4545319080352783,0.6858509182929993,0.41999998688697815,1.0,0.0,0.0,0.0,0.0,0.0,0.0,0.0,0.0,0.0,3.42540442943573e-06,-0.005000244826078415,1.313499927520752,0.0,0.0,0.0,0.4628065526485443,0.6227685213088989,0.42000001668930054,-1.5707999467849731,0.0,0.0,0.0,0.0,0.0,0.0,0.0,0.0,0.0,0.0,0.0
0.016666666666666666,0.0028778850100934505,0.0021806680597364902,0.0,0.9998081922531128,0.0,0.0,0.019586581736803055,0.24087215960025787,0.18240931630134583,0.0,0.0,0.0,3.1418697834014893,-0.45453202724456787,0.6858506202697754,0.41999998688697815,1.0,3.2799832752061775e-06,-8.339598593920527e-07,8.465660528145236e-08,-1.9833856640616432e-05,0.00017983021098189056,-6.132945418357849e-05,0.0009432561928406358,-0.004689492750912905,-0.0003198107879143208,-0.007110234349966049,0.003379564033821225,1.3159373998641968,-0.8143353462219238,0.9868683815002441,0.18095196783542633,0.4628065526485443,0.6227685213088989,0.42000001668930054,-1.5301095247268677,3.0000011920928955,-0.04584788903594017,-2.9999992847442627,0.0008691533003002405,0.0007963840034790337,0.0007110277656465769,0.0006108740926720202,0.11094217747449875,0.09756709635257721,0.08334315568208694,0.06823883205652237
0.03333333333333333,0.008960968814790249,0.006801901385188103,0.0,0.9997960329055786,0.0,0.0,0.020196840167045593,0.4070209562778473,0.3153080344200134,0.0,0.0,0.0,-0.8691295981407166,-0.4545321464538574,0.6858505606651306,0.4200000464916229,1.0,3.3908236218849197e-06,-2.1324740373529494e-06,-3.7087911408661967e-08,0.0002635786950122565,0.00026937879738397896,-0.00010509719140827656,-0.0017707741353660822,0.004130927845835686,-0.00013548358401749283,-0.02754792384803295,0.025994528084993362,1.3166277408599854,-1.5914742946624756,1.6132187843322754,-0.08135565370321274,0.4628065526485443,0.6227685213088989,0.42000001668930054,-1.4800903797149658,3.000000476837158,-0.09588771313428879,-3.0000007152557373,0.002990155015140772,0.0026527862064540386,0.0022773765958845615,0.001860851771198213,0.1642237901687622,0.13976889848709106,0.11382941901683807,0.08631287515163422
0.05,0.017741719260811806,0.013770148158073425,0.0,0.9993794560432434,0.0,0.0,0.03522339090704918,0.5936801433563232,0.46500861644744873,0.0,0.0,0.0,2.649587869644165,-0.4545321762561798,0.6858506202697754,0.4200000464916229,1.0,3.7651166167051997e-06,-2.2119024833955336e-06,5.637348365894468e-09,0.0002653102274052799,0.00026691530365496874,-0.0001044049859046936,-0.0017243424663320184,0.004177475813776255,-0.00012949523807037622,-0.059672754257917404,0.0536421574652195,1.3117268085479736,-2.187419891357422,1.7385358810424805,-0.46803852915763855,0.4628065526485443,0.6227685213088989,0.42000001668930054,-1.4300720691680908,3.0000009536743164,-0.145926371216774,-3.0,0.0057059768587350845,0.004914111457765102,0.004050119314342737,0.0031095475424081087,0.19275377690792084,0.15585267543792725,0.11707734316587448,0.07633346319198608
0.06666666666666667,0.029054926708340645,0.023062637075781822,0.0,0.9994511008262634,0.0,0.0,0.03312778100371361,0.720238208770752,0.595150887966156,0.0,0.0,0.0,-1.209794044494629,-0.4545321762561798,0.6858505606651306,0.4200000464916229,0.9999999403953552,3.4067338674503844e-06,-2.2856738723930903e-06,4.301002434203838e-07,0.0002670263347681612,0.0002679180761333555,-0.00010437914170324802,-0.001740648876875639,0.004211838357150555,-0.00012851078645326197,-0.09819763898849487,0.08753395080566406,1.299255132675171,-2.4503684043884277,2.2133259773254395,-1.0030890703201294,0.4628065526485443,0.6227685213088989,0.42000001668930054,-1.3800537586212158,3.0000014305114746,-0.19595329463481903,-3.000000238418579,0.00830491166561842,0.00682857446372509,0.005241244565695524,0.0035374390427023172,0.15338502824306488,0.10290597379207611,0.05039843171834946,-0.004229063633829355
0.08333333333333333,0.03449488431215286,0.0356849730014801,0.0,0.9999991655349731,0.0,0.0,0.0012738617369905114,0.1894204169511795,0.8243038654327393,0.0,0.0,0.0,-4.935558795928955,-0.4545321762561798,0.6858505606651306,0.4200000464916229,0.9999999403953552,3.6260375964047853e-06,-2.335399813091499e-06,3.0323869282256055e-07,0.0002661397447809577,0.0002668508095666766,-0.00010405457578599453,-0.0017283371416851878,0.004196438007056713,-0.00012790974869858474,-0.13746894896030426,0.1287226378917694,1.2776035070419312,-2.2897560596466064,2.6113123893737793,-1.492283582687378,0.4628065526485443,0.6227685213088989,0.42000001668930054,-1.3300236463546753,2.9999969005584717,-0.1707880049943924,3.0000011920928955,0.005348182283341885,0.003310922998934984,0.0011123080039396882,-0.001257599680684507,-0.27299875020980835,-0.31306663155555725,-0.3556765019893646,-0.4011301100254059
0.1,0.044073861092329025,0.04965347424149513,0.0,0.9999143481254578,0.0,0.0,-0.01308604795485735,0.6748910546302795,0.8509284853935242,0.0,0.0,0.0,-0.7055298686027527,-0.4545321762561798,0.6858505606651306,0.4200000464916229,1.0,3.4220713587274076e-06,-2.3086856799636735e-06,1.7965174947676132e-07,0.0002668143715709448,0.00026800335035659373,-0.00010440708138048649,-0.0017429604195058346,0.0042070322670042515,-0.00012891279766336083,-0.17796024680137634,0.16717810928821564,1.2545139789581299,-2.411196231842041,2.3093156814575195,-1.372605323791504,0.4628065526485443,0.6227685213088989,0.42000001668930054,-1.2800230979919434,3.0000011920928955,-0.20241153240203857,-3.0000007152557373,0.005744896363466978,0.0022118643391877413,-0.0014793308218941092,-0.005340241827070713,0.05477519333362579,-0.04909302294254303,-0.15209144353866577,-0.25415700674057007
0.11666666666666667,0.05178124085068703,0.061622098088264465,0.0,0.999190628528595,0.0,0.0,-0.0402250736951828,0.46263250708580017,0.6570336818695068,0.0,0.0,0.0,-3.9230234622955322,-0.4545321762561798,0.6858506202697754,0.4200000464916229,1.0,3.7114145925443154e-06,-2.3327797862293664e-06,2.5745856646608445e-07,0.00026485841954126954,0.0002663533086888492,-0.0001042329240590334,-0.0017181563889607787,0.004170076455920935,-0.0001291552762268111,-0.2142431139945984,0.2125997543334961,1.2305911779403687,-1.9677060842514038,3.1017050743103027,-1.4460177421569824,0.4628065526485443,0.6227685213088989,0.42000001668930054,-1.2299975156784058,2.9999947547912598,-0.16860425472259521,2.9999988079071045,0.004642263986170292,-0.0007960370858199894,-0.0063638039864599705,-0.012072127312421799,-0.025633232668042183,-0.1607474833726883,-0.292851060628891,-0.4217259883880615
0.13333333333333333,0.056667715311050415,0.07449344545602798,0.0,0.9958061575889587,0.0,0.0,-0.09148848056793213,0.22400611639022827,0.823226273059845,0.0,0.0,0.0,-7.0183210372924805,-0.4545321762561798,0.6858505606651306,0.4200000464916229,1.0,3.33562343257654e-06,-2.231935468444135e-06,3.113336504156905e-07,0.0002666971704456955,0.00026759487809613347,-0.00010428461246192455,-0.001737144310027361,0.004205835517495871,-0.00012839905684813857,-0.24791425466537476,0.26550954580307007,1.205569863319397,-2.0090577602386475,3.287273406982422,-1.6209776401519775,0.4628065526485443,0.6227685213088989,0.42000001668930054,-1.1876639127731323,2.1201558113098145,-0.20029519498348236,-3.000000476837158,0.002894660225138068,-0.0047265007160604,-0.012411839328706264,-0.020168377086520195,-0.18225909769535065,-0.3000876307487488,-0.4138500690460205,-0.5233416557312012
0.15,0.05792878940701485,0.0885479748249054,0.0,0.9925185441970825,0.0,0.0,-0.1220940575003624,0.00947289727628231,0.8699841499328613,0.0,0.0,0.0,-2.617574453353882,-0.4545321762561798,0.6858505606651306,0.4200000464916229,1.0,3.5188593301427318e-06,-2.2830813577456865e-06,-3.625297324560961e-07,0.00026618369156494737,0.0002673570706974715,-0.00010425481013953686,-0.001734902267344296,0.00419566361233592,-0.00012860818242188543,-0.28791388869285583,0.3170982599258423,1.1729989051818848,-2.3878085613250732,3.2980856895446777,-2.2664432525634766,0.4628065526485443,0.6227685213088989,0.42000001668930054,-1.1411586999893188,2.999997615814209,-0.17555080354213715,3.0000011920928955,-0.0012908189091831446,-0.010582263581454754,-0.01985960640013218,-0.029127780348062515,-0.3202560842037201,-0.40082845091819763,-0.47684571146965027,-0.5482831597328186
0.16666666666666666,0.06374357640743256,0.09972883015871048,0.0,0.9860691428184509,0.0,0.0,-0.16633594036102295,0.4459940791130066,0.6534898281097412,0.0,0.0,0.0,-6.048414707183838,-0.4545321762561798,0.6858505606651306,0.4200000464916229,1.0,3.6665835523308488e-06,-2.3391182821796974e-06,-3.149922918055381e-07,0.000265958602540195,0.00026667420752346516,-0.00010403734631836414,-0.001725313370116055,0.0041927797719836235,-0.00012778645032085478,-0.32448267936706543,0.37680673599243164,1.132619023323059,-1.939900279045105,3.8914949893951416,-2.6505208015441895,0.4628065526485443,0.6227685213088989,0.42000001668930054,-1.0925861597061157,2.803706407546997,-0.20718076825141907,-2.999999761581421,-0.004759506788104773,-0.01554311066865921,-0.026229115203022957,-0.03682231530547142,-0.37885501980781555,-0.4393795430660248,-0.49667853116989136,-0.5507665872573853
0.18333333333333332,0.06498691439628601,0.11286495625972748,0.0,0.9816197156906128,0.0,0.0,-0.19084735214710236,0.039305679500103,0.7688493728637695,0.0,0.0,0.0,-1.835994839668274,-0.4545321762561798,0.6858505606651306,0.4200000464916229,1.0,3.8143025449244305e-06,-2.399538061581552e-06,-2.702604433579836e-07,0.00026549160247668624,0.0002661106991581619,-0.00010391208343207836,-0.0017177729168906808,0.004184826277196407,-0.0001275383838219568,-0.3601088523864746,0.43574172258377075,1.0795142650604248,-2.033933162689209,3.621494770050049,-3.5462605953216553,0.4628065526485443,0.6227685213088989,0.42000001668930054,-1.0513200759887695,2.167600393295288,-0.2572093605995178,-2.9999990463256836,-0.017929615452885628,-0.02854868397116661,-0.039057038724422455,-0.04947100207209587,-0.7645120024681091,-0.7503039240837097,-0.73441481590271,-0.7173953056335449
0.2,0.06288577616214752,0.1272514909505844,0.0,0.9739912748336792,0.0,0.0,-0.2265854775905609,-0.19330322742462158,0.9053770303726196,0.0,0.0,0.0,-5.260042190551758,-0.4545321762561798,0.6858505606651306,0.4200000464916229,1.0,3.6000003547087545e-06,-2.291237706231186e-06,-2.2017823653186497e-07,0.00026573086506687105,0.0002664501662366092,-0.00010398100130259991,-0.0017227214993909001,0.0041888258419930935,-0.00012773244816344231,-0.39356866478919983,0.49741098284721375,1.0143580436706543,-1.7913939952850342,3.7483582496643066,-4.231166839599609,0.4628065526485443,0.6227685213088989,0.42000001668930054,-1.0024359226226807,3.000001907348633,-0.30723634362220764,-3.000000476837158,-0.032738152891397476,-0.042931657284498215,-0.052980128675699234,-0.0629100501537323,-0.9548901915550232,-0.9175137281417847,-0.8784151077270508,-0.838203489780426
0.21666666666666667,0.06615390628576279,0.13724592328071594,0.0,0.9693998694419861,0.0,0.0,-0.24548698961734772,0.2466583102941513,0.5834453105926514,0.0,0.0,0.0,-1.225544810295105,-0.4545321762561798,0.6858505606651306,0.4200000464916229,0.9999999403953552,3.6396120322024217e-06,-2.2620149593421957e-06,2.2248472930641583e-07,0.0002668747620191425,0.0002675442665349692,-0.00010411837138235569,-0.0017403680831193924,0.004211135674268007,-0.00012783527199644595,-0.42553237080574036,0.552871823310852,0.9394087791442871,-1.6196801662445068,3.183511257171631,-4.872644424438477,0.4628065526485443,0.6227685213088989,0.42000001668930054,-0.9524309039115906,3.000000238418579,-0.3572655916213989,-2.999997138977051,-0.04446732997894287,-0.0540584921836853,-0.06348598748445511,-0.07278763502836227,-0.9124343395233154,-0.8292661905288696,-0.7480596899986267,-0.6697505116462708
0.23333333333333334,0.06426793336868286,0.15082967281341553,0.0,0.9606766104698181,0.0,0.0,-0.27766963839530945,-0.12963154911994934,0.7612176537513733,0.0,0.0,0.0,-4.736130714416504,-0.4545321464538574,0.6858505606651306,0.4200000464916229,1.0,3.420692110012169e-06,-2.3168713596533053e-06,2.955990510145057e-07,0.00026680133305490017,0.00026803885702975094,-0.0001044226810336113,-0.001743639470078051,0.004206772428005934,-0.0001289946085307747,-0.44826704263687134,0.6013567447662354,0.8522629737854004,-1.1014845371246338,2.7276763916015625,-5.320939064025879,0.4628065526485443,0.6227685213088989,0.42000001668930054,-0.9024202227592468,3.000000238418579,-0.4072961211204529,-3.000000238418579,-0.06047883629798889,-0.07007074356079102,-0.07952765375375748,-0.08882544189691544,-0.7177409529685974,-0.7590765357017517,-0.8017297983169556,-0.8423658609390259
0.25,0.06681767106056213,0.15878792107105255,0.0,0.956741452217102,0.0,0.0,-0.29093948006629944,0.1719585508108139,0.3849809765815735,0.0,0.0,0.0,-0.5368824601173401,-0.4545321762561798,0.6858505606651306,0.4200000464916229,0.9999999403953552,3.3476046610303456e-06,-2.259236225654604e-06,1.8083763109189022e-07,0.0002668767119757831,0.0002679122262634337,-0.00010439427569508553,-0.0017404244281351566,0.004208163358271122,-0.00012870550563093275,-0.4682021737098694,0.6377329230308533,0.7615656852722168,-0.9562187194824219,1.8166813850402832,-5.6239166259765625,0.4628065526485443,0.6227685213088989,0.42000001668930054,-0.8524096012115479,3.0000014305114746,-0.4573274552822113,-3.0,-0.07316802442073822,-0.08263852447271347,-0.09203874319791794,-0.10130733996629715,-0.9869181513786316,-0.927257776260376,-0.8736119866371155,-0.824694812297821
0.26666666666666666,0.06468498706817627,0.16329291462898254,0.0,0.9487341642379761,0.0,0.0,-0.3160752058029175,-0.2320951223373413,0.23105895519256592,0.0,0.0,0.0,-4.057443618774414,-0.4545321762561798,0.6858505606651306,0.4200000464916229,0.9999999403953552,3.535753194228164e-06,-2.3003594833426178e-06,-1.2686646755355468e-07,0.0002660174504853785,0.00026712234830483794,-0.00010419590398669243,-0.001731633092276752,0.004192822612822056,-0.0001284947502426803,-0.4784289598464966,0.6619452238082886,0.665130615234375,-0.17481054365634918,1.0514942407608032,-5.68853235244751,0.4628065526485443,0.6227685213088989,0.42000001668930054,-0.802400529384613,2.9999988079071045,-0.5073583722114563,-3.0000030994415283,-0.09073488414287567,-0.09996606409549713,-0.10919156670570374,-0.11831491440534592,-1.0103230476379395,-1.007738471031189,-1.0057765245437622,-1.0042258501052856
0.2833333333333333,0.05917084217071533,0.16496983170509338,0.0,0.9465546607971191,0.0,0.0,-0.32254356145858765,-0.3054365813732147,0.03547702357172966,0.0,0.0,0.0,0.19936124980449677,-0.4545321762561798,0.6858506202697754,0.4200000464916229,1.0,3.5935188407165697e-06,-2.262744601466693e-06,-5.655506285506817e-08,0.00026704822084866464,0.000267749244812876,-0.00010416633449494839,-0.0017431654268875718,0.004214244429022074,-0.00012789323227480054,-0.480584979057312,0.6732621192932129,0.5762227773666382,0.00856669619679451,0.4793594181537628,-5.162121772766113,0.4628065526485443,0.6227685213088989,0.42000001668930054,-0.7523917555809021,2.999995470046997,-0.5573880672454834,-2.999999761581421,-0.10691872984170914,-0.11613418906927109,-0.12536585330963135,-0.1345021277666092,-0.9485779404640198,-0.9494233131408691,-0.9495514035224915,-0.9487816691398621
0.3,0.05208597332239151,0.16381512582302094,0.0,0.9400889277458191,0.0,0.0,-0.3409293591976166,-0.475313276052475,-0.11462561041116714,0.0,0.0,0.0,-3.2005441188812256,-0.4545321464538574,0.6858505606651306,0.4200000464916229,0.9999999403953552,3.725037913682172e-06,-2.236182581327739e-06,3.828752426215942e-07,0.0002647983201313764,0.0002667314256541431,-0.00010453932918608189,-0.001718917046673596,0.004166685976088047,-0.00013016501907259226,-0.4754694104194641,0.6820218563079834,0.4882187843322754,0.648788332939148,0.45293158292770386,-5.154541015625,0.4628065526485443,0.6227685213088989,0.42000001668930054,-0.7023838758468628,3.0000030994415283,-0.6074160933494568,-3.0,-0.12406346946954727,-0.13316407799720764,-0.14231112599372864,-0.1513819545507431,-1.0080281496047974,-1.0060744285583496,-1.0045840740203857,-1.0033916234970093
0.31666666666666665,0.042730480432510376,0.16022324562072754,0.0,0.9395768642425537,0.0,0.0,-0.342337965965271,-0.5976108908653259,-0.25719794631004333,0.0,0.0,0.0,0.7510687112808228,-0.4545321762561798,0.6858505606651306,0.4200000464916229,0.9999999403953552,3.557750233085244e-06,-2.2789749891671818e-06,2.283545939008036e-07,0.0002659836900420487,0.0002665854699444026,-0.00010398984886705875,-0.0017241021851077676,0.004193542525172234,-0.00012770354805979878,-0.46262383460998535,0.6866275668144226,0.40309375524520874,1.011278510093689,0.029369879513978958,-5.096728324890137,0.4628065526485443,0.6227685213088989,0.42000001668930054,-0.6523769497871399,2.9999871253967285,-0.6574424505233765,-3.0000007152557373,-0.14100301265716553,-0.15000854432582855,-0.15908637642860413,-0.1681046336889267,-0.999970018863678,-0.9999580383300781,-0.9998822808265686,-0.999809741973877
0.3333333333333333,0.031243206933140755,0.154261976480484,0.0,0.9350349307060242,0.0,0.0,-0.35455557703971863,-0.7395731806755066,-0.39761778712272644,0.0,0.0,0.0,-2.8474910259246826,-0.4545321762561798,0.6858505606651306,0.4200000464916229,1.0,3.7825971048732754e-06,-2.2365218228515005e-06,-9.632487518729249e-08,0.00026365372468717396,0.0002655528369359672,-0.00010426389053463936,-0.0017039472004398704,0.00414604926481843,-0.00012974384299013764,-0.46394771337509155,0.6904644966125488,0.4236939251422882,0.12802205979824066,0.35322582721710205,-0.14294461905956268,0.4628065526485443,0.6227685213088989,0.42000001668930054,-0.6025035381317139,2.999993085861206,-0.7080841660499573,-2.9992775917053223,-0.14231471717357635,-0.15180689096450806,-0.16091033816337585,-0.16941344738006592,-0.3083241283893585,-0.28103071451187134,-0.22935113310813904,-0.15043455362319946
0.35,0.017574124038219452,0.1459595412015915,0.0,0.9352436065673828,0.0,0.0,-0.35400480031967163,-0.8574003577232361,-0.5392662882804871,0.0,0.0,0.0,1.0146152973175049,-0.45164424180984497,0.6918012499809265,0.4200001358985901,0.9960525631904602,-1.0540123184910044e-05,-5.977144246571697e-05,-0.08876547962427139,0.21648359298706055,0.4284400939941406,-0.0003186129906680435,0.019278816878795624,-0.00497946934774518,-12.422332763671875,-0.4615989029407501,0.6978097558021545,0.4212135970592499,0.20898638665676117,0.5544478893280029,-0.13176117837429047,0.4628065526485443,0.6227685213088989,0.42000001668930054,-0.5524985790252686,2.9999849796295166,-0.7581120729446411,-2.999997138977051,-0.1489403396844864,-0.15732063353061676,-0.16493642330169678,-0.1715553253889084,-0.4270353317260742,-0.336702436208725,-0.2257693111896515,-0.09401609748601913
0.36666666666666664,0.0075971088372170925,0.13481609523296356,0.0,0.9303390383720398,0.0,0.0,-0.36670053005218506,-0.5718841552734375,-0.7046506404876709,0.0,0.0,0.0,-2.4594032764434814,-0.44694221019744873,0.7002257108688354,0.41999873518943787,0.9927573204040527,5.671978578902781e-05,-3.255820774938911e-05,-0.12013684213161469,0.3300428092479706,0.5623586177825928,-0.0002393375034444034,-0.03950297832489014,0.07106135785579681,-1.8472741842269897,-0.4560791552066803,0.7057900428771973,0.41966313123703003,0.4058041274547577,0.4505181312561035,0.06320164352655411,0.4628065526485443,0.6227685213088989,0.42000001668930054,-0.5024843811988831,2.9995856285095215,-0.8081578016281128,-2.9544639587402344,-0.15629072487354279,-0.16270357370376587,-0.16799770295619965,-0.17195865511894226,-0.5173474550247192,-0.36676469445228577,-0.1961696445941925,-0.00791978184133768
0.3833333333333333,-0.005800212267786264,0.12219919264316559,0.0,0.9138777256011963,0.0,0.0,-0.40598955750465393,-0.8873866200447083,-0.7833617925643921,0.0,0.0,0.0,-6.035439968109131,-0.43820682168006897,0.7136607766151428,0.4206305742263794,0.9890652298927307,-0.01576075330376625,0.002150140004232526,-0.1466178596019745,0.7677064538002014,1.0926673412322998,0.054430559277534485,-2.5866448879241943,0.6299153566360474,-5.306863307952881,-0.44564738869667053,0.7170505523681641,0.4210323095321655,0.8401981592178345,0.9779798984527588,0.10917528718709946,0.4628065526485443,0.6227685213088989,0.42000001668930054,-0.4524371325969696,3.0000159740448,-0.8581662774085999,-2.999995470046997,-0.16726143658161163,-0.1705998182296753,-0.17247609794139862,-0.17273704707622528,-0.638209342956543,-0.450456827878952,-0.24155576527118683,-0.015608608722686768
0.4,-0.015857016667723656,0.10680387169122696,0.0,0.8836284279823303,0.0,0.0,-0.46818891167640686,-0.5554816126823425,-0.95816570520401,0.0,0.0,0.0,-8.940890312194824,-0.4124225974082947,0.7387490272521973,0.4229203462600708,0.9805486798286438,-0.02345394529402256,-0.019629940390586853,-0.1938779652118683,2.4867706298828125,1.9209693670272827,0.026076175272464752,30.263383865356445,-15.615013122558594,3.2448270320892334,-0.4187590181827545,0.7422237396240234,0.4232367277145386,2.438386917114258,2.0235328674316406,0.26962319016456604,0.4628065526485443,0.6227685213088989,0.42000001668930054,-0.404379665851593,2.3686816692352295,-0.9080697298049927,-3.000002384185791,-0.17716290056705475,-0.17701464891433716,-0.1750505566596985,-0.1712074726819992,-0.6529474854469299,-0.40892091393470764,-0.14678043127059937,0.12663054466247559
0.4166666666666667,-0.021972371265292168,0.08869487792253494,0.0,0.8376355767250061,0.0,0.0,-0.5462294816970825,-0.29692542552948,-1.1474401950836182,0.0,0.0,0.0,-11.603330612182617,-0.34764161705970764,0.7810118794441223,0.4269060790538788,0.9633818864822388,0.040340907871723175,-0.06142546609044075,-0.25786590576171875,5.342408180236816,2.979421377182007,0.4118199050426483,10.63101863861084,-9.044962882995605,3.1045620441436768,-0.35359591245651245,0.7850404977798462,0.42729371786117554,4.984231948852539,3.06076717376709,0.3852648138999939,0.4628065526485443,0.6227685213088989,0.42000001668930054,-0.382612407207489,0.9406070113182068,-0.870940625667572,3.0000016689300537,-0.1907472312450409,-0.18568873405456543,-0.17872461676597595,-0.16993749141693115,-0.8007248640060425,-0.5142983198165894,-0.23053793609142303,0.04187878221273422
0.43333333333333335,-0.025676395744085312,0.07628298550844193,0.0,0.7716047763824463,0.0,0.0,-0.6361022591590881,-0.15464279055595398,-0.6060594916343689,0.0,0.0,0.0,-14.259026527404785,-0.24223844707012177,0.8267682194709778,0.43529000878334045,0.936290442943573,0.11508595943450928,-0.10207102447748184,-0.3157479465007782,7.819652557373047,2.0347509384155273,0.5768963694572449,16.322757720947266,-18.772811889648438,20.506711959838867,-0.2477463185787201,0.8325483202934265,0.43565237522125244,7.494798183441162,2.6460342407226562,0.5882229804992676,0.4628065526485443,0.6227685213088989,0.42000001668930054,-0.36762627959251404,0.9342105984687805,-0.8208979368209839,2.995621919631958,-0.2068348526954651,-0.20064811408519745,-0.18931077420711517,-0.17474864423274994,-0.9279882907867432,-0.9145533442497253,-0.7512403726577759,-0.4019424617290497
0.45,-0.03206158056855202,0.06971302628517151,0.0,0.7120744585990906,0.0,0.0,-0.7021039724349976,-0.34161823987960815,-0.4575096368789673,0.0,0.0,0.0,-9.156625747680664,-0.12030984461307526,0.8536797165870667,0.4460936188697815,0.8909096717834473,0.13193632662296295,-0.12115874886512756,-0.4173646867275238,7.395857810974121,0.3224163353443146,0.7523453235626221,14.55621337890625,-3.6221697330474854,29.365686416625977,-0.125296950340271,0.8619980812072754,0.44650131464004517,7.405028343200684,1.2245477437973022,0.7312202453613281,0.4628065526485443,0.6227685213088989,0.42000001668930054,-0.3513239324092865,0.9280505180358887,-0.8475891947746277,-3.0000035762786865,-0.2208552211523056,-0.2149783968925476,-0.20396389067173004,-0.18458211421966553,-0.5875377058982849,-0.6571757197380066,-0.7260228991508484,-0.5199123024940491
0.4666666666666667,-0.040643300861120224,0.05519673228263855,0.0,0.6753156781196594,0.0,0.0,-0.7375288009643555,-0.6029989123344421,-1.013113021850586,0.0,0.0,0.0,-5.144935607910156,1.8928200006484985e-05,0.8646101951599121,0.45657530426979065,0.8459089994430542,0.12536050379276276,-0.10819760710000992,-0.5069674253463745,7.158736228942871,-0.9217094779014587,0.7897993326187134,18.06869888305664,-5.348391532897949,28.39518165588379,-0.0037122219800949097,0.8730019927024841,0.45779144763946533,7.281692981719971,-0.10951093584299088,0.6985816955566406,0.4628065526485443,0.6227685213088989,0.42000001668930054,-0.3350268006324768,0.8752509951591492,-0.8976132273674011,-3.000004529953003,-0.22818660736083984,-0.22206319868564606,-0.2109273374080658,-0.1879299432039261,-0.4222613275051117,-0.32889676094055176,-0.25017091631889343,-0.01980152539908886
0.48333333333333334,-0.045222967863082886,0.045840516686439514,0.0,0.6621758937835693,0.0,0.0,-0.7493484020233154,-0.15085074305534363,-0.4247047007083893,0.0,0.0,0.0,-1.1393731832504272,0.11113084852695465,0.8511478900909424,0.4644365608692169,0.7711461782455444,0.11853799223899841,-0.10774276405572891,-0.6161766052246094,5.901726722717285,-2.307093381881714,0.5240615606307983,6.687762260437012,-8.966876983642578,23.67386817932129,0.10786563903093338,0.8612010478973389,0.46690061688423157,6.220728397369385,-1.3511919975280762,0.37192273139953613,0.4628065526485443,0.6227685213088989,0.42000001668930054,-0.32256242632865906,0.47299924492836,-0.9476374387741089,-3.000002384185791,-0.24002473056316376,-0.2342655509710312,-0.21945792436599731,-0.19144822657108307,-0.043894294649362564,-0.8692328333854675,-0.6104744672775269,-0.31883352994918823
0.5,-0.047280170023441315,0.03341652452945709,0.0,0.6413757801055908,0.0,0.0,-0.7672268748283386,-0.0958581268787384,-0.7470032572746277,0.0,0.0,0.0,-4.114600658416748,0.20240162312984467,0.8242462873458862,0.4669160544872284,0.7270626425743103,0.09814038872718811,-0.10514208674430847,-0.6713370680809021,4.768283843994141,-2.9565274715423584,0.1895417869091034,3.785768508911133,-7.020421981811523,25.146543502807617,0.20116177201271057,0.8340930938720703,0.46976321935653687,5.187406539916992,-2.2287192344665527,0.05891306698322296,0.4628065526485443,0.6227685213088989,0.42000001668930054,-0.3168562948703766,0.22164316475391388,-0.9976614117622375,-3.0000007152557373,-0.23681779205799103,-0.24001532793045044,-0.2246340662240982,-0.19329166412353516,-0.031505048274993896,-0.035382699221372604,-0.2925381064414978,-0.10246498882770538
0.5166666666666666,-0.04595640301704407,0.0258499663323164,0.0,0.6351116299629211,0.0,0.0,-0.772420346736908,0.11784929782152176,-0.3631492257118225,0.0,0.0,0.0,0.04101168364286423,0.28064101934432983,0.7837336659431458,0.46393468976020813,0.6525914669036865,0.0585690401494503,-0.0983438566327095,-0.7490141987800598,3.9838438034057617,-3.073259115219116,-0.3594074249267578,-4.134854316711426,0.08123855292797089,9.576569557189941,0.27944669127464294,0.7932511568069458,0.46737176179885864,4.3733062744140625,-2.683102607727051,-0.29556673765182495,0.4628065526485443,0.6227685213088989,0.42000001668930054,-0.3107156753540039,0.4853208661079407,-1.047683596611023,-3.0000014305114746,-0.23936155438423157,-0.2399442493915558,-0.22943800687789917,-0.19580186903476715,-0.058812204748392105,8.857529610395432e-05,-0.15599212050437927,-0.09360115230083466
0.5333333333333333,-0.042221616953611374,0.022685158997774124,0.0,0.6203049421310425,0.0,0.0,-0.7843607664108276,0.2742176651954651,-0.1178586557507515,0.0,0.0,0.0,-3.169003963470459,0.34310266375541687,0.7402196526527405,0.45293059945106506,0.6155195832252502,0.02125861868262291,-0.08722924441099167,-0.7829909324645996,2.904022216796875,-3.1321702003479004,-0.7200186848640442,-1.497270107269287,0.8226507306098938,19.17313575744629,0.34333956241607666,0.7493653893470764,0.4572068452835083,3.4311041831970215,-2.7016327381134033,-0.7981503009796143,0.4628065526485443,0.6227685213088989,0.42000001668930054,-0.2994581460952759,0.6943662762641907,-1.0977057218551636,-2.9999828338623047,-0.23876863718032837,-0.23867064714431763,-0.23077118396759033,-0.1974964737892151,0.10650897771120071,0.14908191561698914,0.006125297397375107,-0.0790061503648758
0.55,-0.03566453233361244,0.015849601477384567,0.0,0.6187531352043152,0.0,0.0,-0.7855854630470276,0.44731900095939636,-0.6112473607063293,0.0,0.0,0.0,0.6874853372573853,0.39120545983314514,0.6980167031288147,0.43708235025405884,0.5726189613342285,-0.019640101119875908,-0.06412794440984726,-0.8170735836029053,1.9084632396697998,-2.9807324409484863,-0.9464402794837952,-0.45421501994132996,3.6466336250305176,21.15517234802246,0.39194661378860474,0.7059513330459595,0.4414346218109131,2.5370688438415527,-2.5459814071655273,-1.040210247039795,0.4628065526485443,0.6227685213088989,0.42000001668930054,-0.28718873858451843,0.6256975531578064,-1.1477278470993042,-2.99997615814209,-0.23200532793998718,-0.23177063465118408,-0.22656506299972534,-0.19608741998672485,0.5845743417739868,0.5762048363685608,0.4112396538257599,0.18401353061199188
0.5666666666666667,-0.027197731658816338,0.011188880540430546,0.0,0.6062650084495544,0.0,0.0,-0.7952626943588257,0.5429409742355347,-0.1732254922389984,0.0,0.0,0.0,-2.832275390625,0.42724642157554626,0.6636183261871338,0.42019736766815186,0.5462461709976196,0.004583136178553104,0.015031198970973492,-0.8374772071838379,1.2259423732757568,-1.5027023553848267,-0.014793723821640015,41.91944885253906,1.9708845615386963,33.00032424926758,0.4278703033924103,0.6687859296798706,0.4205792546272278,1.5462982654571533,-1.659936785697937,-0.45354652404785156,0.4628065526485443,0.6227685213088989,0.42000001668930054,-0.2762015759944916,0.6349098682403564,-1.1977423429489136,-3.00001859664917,-0.22310547530651093,-0.22338691353797913,-0.2209792137145996,-0.19503891468048096,0.5864275693893433,0.5349730849266052,0.36833250522613525,0.06692894548177719
0.5833333333333334,-0.02027709223330021,0.01021102536469698,0.0,0.6070100665092468,0.0,0.0,-0.7946941256523132,0.33347734808921814,-0.03055395931005478,0.0,0.0,0.0,1.015264868736267,0.44903892278671265,0.6432266235351562,0.4217411279678345,0.5131081938743591,-0.03747008368372917,-0.019067956134676933,-0.8572935461997986,1.3340706825256348,-1.3137707710266113,-0.12044256925582886,-0.5285859107971191,-4.960668087005615,-6.718888759613037,0.4478200674057007,0.6483862400054932,0.42515647411346436,1.0977789163589478,-1.263411283493042,-0.08637390285730362,0.4628065526485443,0.6227685213088989,0.42000001668930054,-0.2592022120952606,1.118679165840149,-1.176276683807373,3.0011980533599854,-0.21188634634017944,-0.2133953869342804,-0.21372047066688538,-0.19308225810527802,0.6691784858703613,0.6009882092475891,0.4530017077922821,0.12494982033967972
0.6,-0.013292528688907623,0.00470454478636384,0.0,0.5958425998687744,0.0,0.0,-0.8031012415885925,0.4008713364601135,-0.29309675097465515,0.0,0.0,0.0,-2.523737907409668,0.46806812286376953,0.627861499786377,0.42053356766700745,0.4188429117202759,0.00496477959677577,-0.010438202880322933,-0.9079850912094116,0.966589629650116,-0.7617332935333252,-0.03967515751719475,-0.4914611876010895,0.21882471442222595,-19.89430046081543,0.4623454809188843,0.6348941326141357,0.42385923862457275,0.5356756448745728,-0.5692685842514038,-0.07067526876926422,0.4628065526485443,0.6227685213088989,0.42000001668930054,-0.2549436092376709,-0.47445258498191833,-1.1262147426605225,2.999748945236206,-0.19721220433712006,-0.19979137182235718,-0.2032390832901001,-0.1888456791639328,0.6771217584609985,0.7143920660018921,0.568915069103241,0.22100019454956055
0.6166666666666667,-0.004086086060851812,0.004197532776743174,0.0,0.5981001257896423,0.0,0.0,-0.8014214038848877,0.5780529379844666,-0.002399516524747014,0.0,0.0,0.0,1.2453515529632568,0.4744599759578705,0.6206781268119812,0.4200095236301422,0.4735414683818817,-0.00010349476360715926,0.00018645897216629237,-0.8807714581489563,0.3913945257663727,-0.5149024128913879,0.0032712456304579973,0.11844762414693832,0.17914393544197083,6.230951309204102,0.4699471890926361,0.624882161617279,0.4251047968864441,0.2486930787563324,-0.3856515884399414,0.1415259689092636,0.4628065526485443,0.6227685213088989,0.42000001668930054,-0.29748135805130005,-2.999570608139038,-1.148538589477539,-2.999863624572754,-0.18933075666427612,-0.19110634922981262,-0.19620153307914734,-0.18690896034240723,0.5163800120353699,0.5282825827598572,0.42769762873649597,0.12300301343202591
0.6333333333333333,0.006943291053175926,0.006819004658609629,0.0,0.6218433380126953,0.0,0.0,-0.7831416130065918,0.7019628882408142,0.22262156009674072,0.0,0.0,0.0,4.611529350280762,0.47573792934417725,0.6147785186767578,0.4204319417476654,0.5076806545257568,0.0021284741815179586,-0.008454804308712482,-0.8615010976791382,-0.1443800926208496,-0.14248913526535034,0.03091546893119812,-0.9572766423225403,-0.6345468163490295,0.8028205633163452,0.4712030291557312,0.6226263046264648,0.42728790640830994,-0.01764107495546341,0.06577174365520477,0.12651564180850983,0.4628065526485443,0.6227685213088989,0.42000001668930054,-0.33665499091148376,-1.8045680522918701,-1.1985127925872803,-2.9990146160125732,-0.18102677166461945,-0.18312332034111023,-0.18984343111515045,-0.18541917204856873,0.5036412477493286,0.46357619762420654,0.3716972768306732,0.09257417172193527
0.65,0.019735872745513916,0.005247015971690416,0.0,0.6329604983329773,0.0,0.0,-0.7741841077804565,0.765631377696991,-0.1108388677239418,0.0,0.0,0.0,0.6545853018760681,0.4737839698791504,0.6127070784568787,0.42000144720077515,0.5131304860115051,1.348752078911275e-07,1.8429009287501685e-05,-0.8583105206489563,-0.09212790429592133,-0.10237624496221542,-0.00043113227002322674,-0.012717364355921745,-0.01950908452272415,0.6668213605880737,0.4704062342643738,0.6270880103111267,0.42747730016708374,-0.13836340606212616,0.33281397819519043,-0.003144185058772564,0.4628065526485443,0.6227685213088989,0.42000001668930054,-0.3847323954105377,-2.9999425411224365,-1.1693989038467407,2.9998795986175537,-0.16878841817378998,-0.17225484549999237,-0.18076516687870026,-0.18100659549236298,0.647179126739502,0.5892497301101685,0.523904025554657,0.2938849925994873
0.6666666666666666,0.034032441675662994,0.0011448966106399894,0.0,0.6539790034294128,0.0,0.0,-0.7565127015113831,0.904820442199707,-0.3101036846637726,0.0,0.0,0.0,4.106098175048828,0.4719734489917755,0.6126677989959717,0.4199998378753662,0.5155407786369324,3.0226283342926763e-06,-6.375330485752784e-06,-0.8568650484085083,-0.09534702450037003,0.0027723575476557016,-3.7901801988482475e-05,0.002020451705902815,0.0006939083687029779,0.18960750102996826,0.46792376041412354,0.6304919719696045,0.43025967478752136,-0.19003435969352722,0.147980734705925,0.2753307521343231,0.4628065526485443,0.6227685213088989,0.42000001668930054,-0.4347427785396576,-2.999981641769409,-1.1912389993667603,-2.999999761581421,-0.16168147325515747,-0.1650804728269577,-0.17331287264823914,-0.17577941715717316,0.3014562129974365,0.3419967591762543,0.4116974174976349,0.3457365334033966
0.6833333333333333,0.050406280905008316,-0.005632206331938505,0.0,0.6612982749938965,0.0,0.0,-0.7501230239868164,1.0081522464752197,-0.48589032888412476,0.0,0.0,0.0,0.13720077276229858,0.4710904061794281,0.6127549409866333,0.4200001060962677,0.5157725214958191,1.973013968381565e-05,3.043146716663614e-05,-0.8567254543304443,-0.016706185415387154,-0.008620201610028744,-0.001281246542930603,-0.05682678520679474,-0.003071286715567112,0.2832402288913727,0.46888917684555054,0.6329480409622192,0.4356670379638672,0.12482872605323792,0.1201036348938942,0.3468065559864044,0.4628065526485443,0.6227685213088989,0.42000001668930054,-0.4847595691680908,-2.999950647354126,-1.2412430047988892,-2.9999794960021973,-0.15818364918231964,-0.16042234003543854,-0.16675348579883575,-0.16928330063819885,0.1906914860010147,0.2772788405418396,0.419451504945755,0.4593137800693512
0.7,0.07035135477781296,-0.00831555388867855,0.0,0.6448900103569031,0.0,0.0,-0.7642753720283508,1.29823899269104,0.04890047013759613,0.0,0.0,0.0,-3.6433236598968506,0.4710901975631714,0.6127565503120422,0.4200000464916229,0.5157724022865295,8.620794460512116e-07,-2.337190153411939e-06,-0.8567255139350891,0.0003027303609997034,-0.00023585207236465067,-9.362678974866867e-05,0.004924776963889599,0.0018654256127774715,-0.0014016286004334688,0.4752421975135803,0.6352018117904663,0.44993579387664795,0.6329783201217651,0.1180579662322998,1.4454673528671265,0.4628065526485443,0.6227685213088989,0.42000001668930054,-0.5347721576690674,-2.9999749660491943,-1.2912613153457642,-2.9999985694885254,-0.16152063012123108,-0.16161319613456726,-0.1648148000240326,-0.16574470698833466,-0.40312597155570984,-0.25547683238983154,-0.0458446703851223,0.0830862820148468
0.7166666666666667,0.0863579735159874,-0.0075031728483736515,0.0,0.6285600066184998,0.0,0.0,-0.7777610421180725,0.900003969669342,0.015923965722322464,0.0,0.0,0.0,-2.0114259719848633,0.47109028697013855,0.6127565503120422,0.4200000464916229,0.5157726407051086,-1.65265419127536e-07,-2.2809697384218452e-06,-0.8567254543304443,-1.4406894479179755e-05,-0.00023675245756749064,-6.471597589552402e-05,0.00663036247715354,-0.002549167489632964,-0.0006655977922491729,0.4898074269294739,0.6393198370933533,0.4777976870536804,1.0877264738082886,0.2710610330104828,1.9516018629074097,0.4628065526485443,0.6227685213088989,0.42000001668930054,-0.5847755670547485,-2.999998092651367,-1.3412796258926392,-3.000000476837158,-0.16382542252540588,-0.16286326944828033,-0.16386741399765015,-0.16364575922489166,-0.01360301859676838,9.906943887472153e-08,0.08169872313737869,0.11433970183134079
0.7333333333333333,0.0978618785738945,-0.005385658238083124,0.0,0.6339659094810486,0.0,0.0,-0.7733609676361084,0.6100741028785706,0.17169328033924103,0.0,0.0,0.0,1.741559624671936,0.47109028697013855,0.6127565503120422,0.4200000464916229,0.5157727599143982,-7.139981761383751e-08,-2.4802066036500037e-06,-0.8567253947257996,-7.191687018348603e-06,-0.00023387777036987245,-6.577838212251663e-05,0.0065190717577934265,-0.0024440751876682043,-0.0006719377706758678,0.5089033246040344,0.6434390544891357,0.5063499212265015,1.167198896408081,0.27215203642845154,1.5417227745056152,0.4628065526485443,0.6227685213088989,0.42000001668930054,-0.6042258143424988,0.3865804374217987,-1.3912979364395142,-2.999999761581421,-0.162898987531662,-0.1619856357574463,-0.16196586191654205,-0.16140159964561462,0.12056192755699158,0.10342348366975784,0.14511388540267944,0.15211234986782074
0.75,0.10435106605291367,-0.008133950643241405,0.0,0.642909049987793,0.0,0.0,-0.7659425139427185,0.3664928078651428,-0.1773628145456314,0.0,0.0,0.0,1.1437511444091797,0.47109025716781616,0.6127565503120422,0.4200000464916229,0.5157727599143982,-9.098719289113433e-08,-2.4883252081053797e-06,-0.8567254543304443,-5.016569957660977e-06,-0.00023385623353533447,-6.628059782087803e-05,0.00650667492300272,-0.0024207672104239464,-0.000676755968015641,0.5218459963798523,0.649294376373291,0.5277037620544434,0.33634084463119507,0.26291194558143616,1.1056255102157593,0.4628065526485443,0.6227685213088989,0.42000001668930054,-0.604491651058197,-0.35235074162483215,-1.3528789281845093,2.9999992847442627,-0.15711750090122223,-0.15685580670833588,-0.15663041174411774,-0.15635065734386444,0.14644913375377655,0.15362678468227386,0.2011897712945938,0.21840544044971466
0.7666666666666666,0.10799309611320496,-0.005808739457279444,0.0,0.666427493095398,0.0,0.0,-0.7455698251724243,0.1731240302324295,0.16141989827156067,0.0,0.0,0.0,4.538966178894043,0.47109028697013855,0.6127565503120422,0.4200000464916229,0.5157727003097534,-5.924920287725399e-08,-2.5148162876575952e-06,-0.8567254543304443,-8.20449713501148e-06,-0.00023407382832374424,-6.553390994668007e-05,0.006529754959046841,-0.002455362817272544,-0.0006702213431708515,0.5214748978614807,0.6520212888717651,0.5422401428222656,-0.2242918312549591,0.19501399993896484,0.6643986701965332,0.4628065526485443,0.6227685213088989,0.42000001668930054,-0.5913372039794922,1.7398630380630493,-1.3718197345733643,-3.000000238418579,-0.1583726853132248,-0.1572083979845047,-0.15558193624019623,-0.1544114053249359,0.03174419701099396,0.06108560413122177,0.11637932807207108,0.14783810079097748
0.7833333333333333,0.11268584430217743,-0.006875233259052038,0.0,0.675758957862854,0.0,0.0,-0.737122654914856,0.27020975947380066,-0.07392176985740662,0.0,0.0,0.0,0.34485191106796265,0.47109028697013855,0.6127565503120422,0.4200000464916229,0.5157726407051086,-6.37109280887671e-08,-2.519976760595455e-06,-0.8567253947257996,-7.286141681106528e-06,-0.00023396586766466498,-6.57851342111826e-05,0.006521799601614475,-0.002446216531097889,-0.0006719518569298089,0.5133432149887085,0.6572812795639038,0.5469613075256348,-0.786497950553894,0.32930898666381836,0.04532577097415924,0.4628065526485443,0.6227685213088989,0.42000001668930054,-0.6021154522895813,-2.643681526184082,-1.3334600925445557,3.0000007152557373,-0.15666159987449646,-0.1553506851196289,-0.15322142839431763,-0.15184910595417023,0.02339821495115757,0.042545199394226074,0.07665011286735535,0.0950765311717987
0.8,0.11899950355291367,-0.011015155352652073,0.0,0.6923162937164307,0.0,0.0,-0.7215941548347473,0.4277772307395935,-0.3263726234436035,0.0,0.0,0.0,3.4905474185943604,0.47109025716781616,0.6127565503120422,0.4200000464916229,0.515772819519043,-3.749819654785824e-08,-2.70860846285359e-06,-0.8567253351211548,-9.055340342456475e-06,-0.00023394798336084932,-6.542005576193333e-05,0.0065306732431054115,-0.0024661365896463394,-0.000668043561745435,0.504363477230072,0.6601413488388062,0.5448774099349976,-0.2845391631126404,0.08234898746013641,-0.2096845656633377,0.4628065526485443,0.6227685213088989,0.42000001668930054,-0.615841269493103,0.7161239981651306,-1.3527472019195557,-3.000000238418579,-0.1569400280714035,-0.1547735333442688,-0.1515301764011383,-0.1491725891828537,-0.0023755114525556564,0.06329802423715591,0.14487355947494507,0.22605736553668976
0.8166666666666667,0.12376910448074341,-0.018449272960424423,0.0,0.6949324607849121,0.0,0.0,-0.7190750241279602,0.1900186389684677,-0.47709184885025024,0.0,0.0,0.0,-0.5837780237197876,0.47109028697013855,0.6127565503120422,0.4200000464916229,0.5157726407051086,-1.474201525297758e-07,-2.7010555641027167e-06,-0.8567254543304443,-4.625188012141734e-06,-0.00023411473375745118,-6.628339178860188e-05,0.006512043531984091,-0.0024154153652489185,-0.00067815778311342,0.5004844069480896,0.659091591835022,0.5379430055618286,-0.21702934801578522,-0.22688600420951843,-0.43963515758514404,0.4628065526485443,0.6227685213088989,0.42000001668930054,-0.6397391557693481,-3.0,-1.3144426345825195,2.9999992847442627,-0.15887923538684845,-0.15530520677566528,-0.1504397988319397,-0.14641530811786652,-0.14676573872566223,-0.05206063389778137,0.052046921104192734,0.1609298139810562
0.8333333333333334,0.12995749711990356,-0.019949501380324364,0.0,0.6751220226287842,0.0,0.0,-0.7377060651779175,0.31955909729003906,-0.120517298579216,0.0,0.0,0.0,-3.9927470684051514,0.47109028697013855,0.6127565503120422,0.4200000464916229,0.5157726407051086,-9.41794695563658e-08,-2.726081902437727e-06,-0.8567255139350891,-8.664748747833073e-06,-0.00023460535157937557,-6.552692502737045e-05,0.006545751355588436,-0.0024651463609188795,-0.0006708942237310112,0.5023559331893921,0.6540446281433105,0.5331636667251587,0.5007902383804321,-0.20418301224708557,-0.020315617322921753,0.4628065526485443,0.6227685213088989,0.42000001668930054,-0.6671241521835327,-0.4837326407432556,-1.3341093063354492,-2.9999947547912598,-0.1672753244638443,-0.16149833798408508,-0.15431329607963562,-0.14786145091056824,-0.27386704087257385,-0.1990039348602295,-0.11069051921367645,-0.004803185351192951
0.85,0.1368165761232376,-0.019995301961898804,0.0,0.6695680618286133,0.0,0.0,-0.7427507042884827,0.46138066053390503,0.06389326602220535,0.0,0.0,0.0,0.09549588710069656,0.47109025716781616,0.6127565503120422,0.4200000464916229,0.5157727599143982,-9.871781259107593e-08,-2.7228820727032144e-06,-0.8567253351211548,-9.555984433973208e-06,-0.00023429548309650272,-6.532552652060986e-05,0.00654243491590023,-0.0024734747130423784,-0.0006679965881630778,0.5112659931182861,0.6545679569244385,0.5378817319869995,0.6552507281303406,0.20624740421772003,0.5508013963699341,0.4628065526485443,0.6227685213088989,0.42000001668930054,-0.6486095190048218,2.440007209777832,-1.3841276168823242,-3.000000476837158,-0.17004750669002533,-0.1640530228614807,-0.1564955860376358,-0.14937177300453186,-0.05663960427045822,-0.11074638366699219,-0.1569124460220337,-0.18255046010017395
0.8666666666666667,0.14121180772781372,-0.02504938282072544,0.0,0.6868266463279724,0.0,0.0,-0.7268213033676147,0.27660101652145386,-0.3287861943244934,0.0,0.0,0.0,3.479857921600342,0.47109025716781616,0.6127565503120422,0.4200000464916229,0.5157727599143982,-1.419767983179554e-07,-2.72236434284423e-06,-0.8567253947257996,-6.007176580169471e-06,-0.00023417684133164585,-6.60137739032507e-05,0.006520830560475588,-0.0024316473864018917,-0.0006753646885044873,0.5171000957489014,0.6562070846557617,0.5439644455909729,0.04111654311418533,-0.10294873267412186,0.19105371832847595,0.4628065526485443,0.6227685213088989,0.42000001668930054,-0.6397101283073425,-1.0725951194763184,-1.3457252979278564,3.000000238418579,-0.1659962683916092,-0.1611764281988144,-0.1547219306230545,-0.1483764499425888,0.09735056012868881,0.07054437696933746,0.04091695323586464,0.02440110594034195
0.8833333333333333,0.1430654525756836,-0.02569938637316227,0.0,0.690621018409729,0.0,0.0,-0.7232168316841125,0.06138813495635986,-0.0057261232286691666,0.0,0.0,0.0,-0.2697661221027374,0.47109025716781616,0.6127565503120422,0.4200000464916229,0.5157727599143982,-1.5455162838406977e-07,-2.7264172786090057e-06,-0.8567254543304443,-5.972984581603669e-06,-0.0002341686049476266,-6.602704524993896e-05,0.006520450580865145,-0.0024314457550644875,-0.0006754252826794982,0.5183205604553223,0.6548765301704407,0.5382474660873413,0.10928118228912354,-0.05571722239255905,-0.691954493522644,0.4628065526485443,0.6227685213088989,0.42000001668930054,-0.630279541015625,1.935306429862976,-1.3634155988693237,-2.999999523162842,-0.16698184609413147,-0.1624699980020523,-0.1564183533191681,-0.1502940058708191,0.02702665515244007,-0.014761734753847122,-0.06282155215740204,-0.0995364636182785
0.9,0.14638765156269073,-0.02945246733725071,0.0,0.7039649486541748,0.0,0.0,-0.7102347016334534,0.219587504863739,-0.2437639683485031,0.0,0.0,0.0,2.8845889568328857,0.47109028697013855,0.6127565503120422,0.4200000464916229,0.5157727003097534,-1.0936103134184805e-09,-2.358008487135521e-06,-0.8567253947257996,-7.3391670412092935e-06,-0.00023380755737889558,-6.570108234882355e-05,0.006518434267491102,-0.002444046549499035,-0.0006712644244544208,0.5159972906112671,0.6539193391799927,0.5263485908508301,-0.33675020933151245,-0.013085521757602692,-0.7162771224975586,0.4628065526485443,0.6227685213088989,0.42000001668930054,-0.6176967620849609,-0.24699214100837708,-1.3250787258148193,3.000000476837158,-0.16551002860069275,-0.1618591547012329,-0.15683580935001373,-0.15160511434078217,0.013056904077529907,-0.03434848040342331,-0.0951789990067482,-0.15157005190849304
