vladlanda/robotic-transformer/data/env_000_episode_0158.csv
sim_time_s,robot_box_x,robot_box_y,robot_box_z,robot_box_quat_w,robot_box_quat_x,robot_box_quat_y,robot_box_quat_z,robot_box_linvel_x,robot_box_linvel_y,robot_box_linvel_z,robot_box_angvel_x,robot_box_angvel_y,robot_box_angvel_z,cube_world_x,cube_world_y,cube_world_z,cube_quat_w,cube_quat_x,cube_quat_y,cube_quat_z,cube_linvel_x,cube_linvel_y,cube_linvel_z,cube_angvel_x,cube_angvel_y,cube_angvel_z,endpoint_world_x,endpoint_world_y,endpoint_world_z,endpoint_linvel_x,endpoint_linvel_y,endpoint_linvel_z,target_cube_world_x,target_cube_world_y,target_cube_world_z,gripper_actual_pos_rad_gp_leftgearjoint,gripper_actual_vel_rad_s_gp_leftgearjoint,gripper_actual_pos_rad_gp_rotatingjoint,gripper_actual_vel_rad_s_gp_rotatingjoint,motor_angle_rad_joint1,motor_angle_rad_joint2,motor_angle_rad_joint3,motor_angle_rad_joint4,motor_speed_rad_s_joint1,motor_speed_rad_s_joint2,motor_speed_rad_s_joint3,motor_speed_rad_s_joint4
0.0,0.0,0.0,0.0,1.0,0.0,0.0,0.0,0.0,0.0,0.0,0.0,0.0,0.0,-0.40151509642601013,0.7342039942741394,0.41999998688697815,1.0,0.0,0.0,0.0,0.0,0.0,0.0,0.0,0.0,0.0,3.42540442943573e-06,-0.005000244826078415,1.313499927520752,0.0,0.0,0.0,0.4370543360710144,0.6298596858978271,0.42000001668930054,-1.5707999467849731,0.0,0.0,0.0,0.0,0.0,0.0,0.0,0.0,0.0,0.0,0.0
0.016666666666666666,0.0028778850100934505,0.0021806680597364902,0.0,0.9998081922531128,0.0,0.0,0.019586581736803055,0.24087215960025787,0.18240931630134583,0.0,0.0,0.0,3.1418697834014893,-0.4015152156352997,0.7342036962509155,0.41999998688697815,1.0,3.279964630564791e-06,-8.339746386809566e-07,8.465587342243452e-08,-1.9833529222523794e-05,0.00017983045836444944,-6.132945418357849e-05,0.0009432713268324733,-0.004689474124461412,-0.00031981561915017664,-0.007110234349966049,0.003379564033821225,1.3159373998641968,-0.8143353462219238,0.9868683815002441,0.18095196783542633,0.4370543360710144,0.6298596858978271,0.42000001668930054,-1.5301095247268677,3.0000011920928955,-0.04584788903594017,-2.9999992847442627,0.0008691533003002405,0.0007963840034790337,0.0007110277656465769,0.0006108740926720202,0.11094217747449875,0.09756709635257721,0.08334315568208694,0.06823883205652237
0.03333333333333333,0.008960994891822338,0.006802009884268045,0.0,0.9997960329055786,0.0,0.0,0.02019684761762619,0.4070223271846771,0.31530794501304626,0.0,0.0,0.0,-0.8691324591636658,-0.40151533484458923,0.7342036366462708,0.4200000464916229,1.0,3.3908179375430336e-06,-2.132458348569344e-06,-3.7097745320124886e-08,0.00026357852038927376,0.00026937833172269166,-0.00010509369894862175,-0.0017707126680761576,0.004130884539335966,-0.0001354814594378695,-0.027554968371987343,0.026262905448675156,1.3165862560272217,-1.5913403034210205,1.6162152290344238,-0.08633202314376831,0.4370543360710144,0.6298596858978271,0.42000001668930054,-1.4800903797149658,3.00000262260437,-0.09588770568370819,-3.000000238418579,0.0029900968074798584,0.0026526993606239557,0.002277263207361102,0.0018607128877192736,0.16421326994895935,0.13975653052330017,0.11381514370441437,0.08629688620567322
0.05,0.0184618029743433,0.013886678032577038,0.0,0.9999807476997375,0.0,0.0,-0.006204729899764061,0.6361657381057739,0.4718668460845947,0.0,0.0,0.0,-4.07650089263916,-0.4015153646469116,0.7342036962509155,0.4200000464916229,1.0,3.7651293496310245e-06,-2.2119379536889028e-06,5.6273887771851605e-09,0.0002653067058417946,0.00026691422681324184,-0.00010440615005791187,-0.0017243530601263046,0.00417736079543829,-0.00012949267693329602,-0.05722629278898239,0.05750643461942673,1.311861276626587,-1.9517405033111572,2.0636284351348877,-0.4623521864414215,0.4370543360710144,0.6298596858978271,0.42000001668930054,-1.4300720691680908,3.000002861022949,-0.14592638611793518,-2.9999988079071045,0.0060099586844444275,0.005171140190213919,0.004259860143065453,0.003271921770647168,0.20725545287132263,0.16687741875648499,0.12458445876836777,0.08029454201459885
0.06666666666666667,0.030768973752856255,0.023366080597043037,0.0,0.9998922944068909,0.0,0.0,-0.014677250757813454,0.7724688053131104,0.6156230568885803,0.0,0.0,0.0,-0.04157198593020439,-0.4015153646469116,0.7342036366462708,0.4200000464916229,0.9999999403953552,3.406754103707499e-06,-2.2856077066535363e-06,4.300980265270482e-07,0.0002670255198609084,0.0002679179306142032,-0.0001043803058564663,-0.001740670995786786,0.004211848136037588,-0.00012850687198806554,-0.0925142839550972,0.09097625315189362,1.3017349243164062,-2.151437282562256,2.1236982345581055,-0.7425565719604492,0.4370543360710144,0.6298596858978271,0.42000001668930054,-1.3800461292266846,3.000002145767212,-0.15616609156131744,1.3943806886672974,0.00851157121360302,0.006878354586660862,0.005131741054356098,0.003268560627475381,0.12451677024364471,0.06579119712114334,0.004906583111733198,-0.0582222044467926
0.08333333333333333,0.03680156171321869,0.03672216832637787,0.0,0.9992554783821106,0.0,0.0,-0.038580093532800674,0.2268688678741455,0.8746414184570312,0.0,0.0,0.0,-3.8124494552612305,-0.4015153646469116,0.7342036366462708,0.4200000464916229,0.9999999403953552,3.6260603337723296e-06,-2.3353738924924983e-06,3.0322857469400333e-07,0.00026613770751282573,0.00026685066404752433,-0.00010405178181827068,-0.0017283547203987837,0.004196325317025185,-0.000127911422168836,-0.1229938492178917,0.13078776001930237,1.2874886989593506,-1.536914348602295,2.6543092727661133,-0.8961935639381409,0.4370543360710144,0.6298596858978271,0.42000001668930054,-1.3300400972366333,3.0,-0.19642607867717743,-3.0000009536743164,0.004267049487680197,0.0017973026260733604,-0.0008401348604820669,-0.003652578219771385,-0.3838135600090027,-0.44758960604667664,-0.514135479927063,-0.5837111473083496
0.1,0.046661145985126495,0.05166225880384445,0.0,0.9959502816200256,0.0,0.0,-0.08990596234798431,0.7373970150947571,0.9034110307693481,0.0,0.0,0.0,-6.970544338226318,-0.4015153646469116,0.7342036366462708,0.4200000464916229,1.0,3.4220743145851884e-06,-2.30867885875341e-06,1.7964234189093986e-07,0.0002668164379429072,0.0002680036413948983,-0.00010440708138048649,-0.0017430284060537815,0.004207152873277664,-0.00012891023652628064,-0.14978548884391785,0.17726340889930725,1.2724885940551758,-1.6670806407928467,2.941204071044922,-0.9557701945304871,0.4370543360710144,0.6298596858978271,0.42000001668930054,-1.2800233364105225,2.9999964237213135,-0.17214030027389526,3.0000011920928955,0.0022646791767328978,-0.0018186637898907065,-0.006073466502130032,-0.010507676750421524,-0.033024292439222336,-0.13827231526374817,-0.24252949655056,-0.3457401990890503
0.11666666666666667,0.05515085160732269,0.06378921121358871,0.0,0.9925651550292969,0.0,0.0,-0.1217142641544342,0.5393476486206055,0.6847853064537048,0.0,0.0,0.0,-2.5821945667266846,-0.4015153646469116,0.7342036962509155,0.4200000464916229,1.0,3.711451881827088e-06,-2.3327925191551913e-06,2.574467430349614e-07,0.0002648566151037812,0.0002663534542080015,-0.00010423408821225166,-0.0017182299634441733,0.004170136991888285,-0.0001291574299102649,-0.18127654492855072,0.22350704669952393,1.2550315856933594,-1.8507308959960938,2.980487585067749,-1.0533515214920044,0.4370543360710144,0.6298596858978271,0.42000001668930054,-1.2300373315811157,3.000002145767212,-0.2037573754787445,-3.000000476837158,-0.0005527035100385547,-0.006279909051954746,-0.01215322595089674,-0.01818050630390644,-0.08018108457326889,-0.19751326739788055,-0.31153663992881775,-0.42208656668663025
0.13333333333333333,0.06092721223831177,0.07736404240131378,0.0,0.9867137670516968,0.0,0.0,-0.16246840357780457,0.2827419936656952,0.8534991145133972,0.0,0.0,0.0,-5.69691801071167,-0.4015153646469116,0.7342036366462708,0.4200000464916229,1.0,3.335707106089103e-06,-2.2319818526739255e-06,3.1131835953601694e-07,0.00026669749058783054,0.00026759348111227155,-0.00010428577661514282,-0.0017370672430843115,0.004205907229334116,-0.00012840131239499897,-0.21157589554786682,0.2777091860771179,1.2347300052642822,-1.6940668821334839,3.607119083404541,-1.3800749778747559,0.4370543360710144,0.6298596858978271,0.42000001668930054,-1.1800235509872437,2.9999890327453613,-0.16994602978229523,2.999999523162842,-0.00359442294575274,-0.011180643923580647,-0.01884489133954048,-0.026592424139380455,-0.23721635341644287,-0.3411129415035248,-0.44059252738952637,-0.5355024933815002
0.15,0.06377112865447998,0.08860090374946594,0.0,0.9829652309417725,0.0,0.0,-0.1837916374206543,0.12861254811286926,0.5689204931259155,0.0,0.0,0.0,-1.4695463180541992,-0.4015153646469116,0.7342036366462708,0.4200000464916229,1.0,3.518956873449497e-06,-2.2831925434729783e-06,-3.625542035479157e-07,0.0002661838079802692,0.0002673559356480837,-0.00010425667278468609,-0.0017348496476188302,0.004195802379399538,-0.00012861037976108491,-0.24564389884471893,0.33409276604652405,1.2062792778015137,-2.0984668731689453,3.445237636566162,-1.994070053100586,0.4370543360710144,0.6298596858978271,0.42000001668930054,-1.1517698764801025,0.5788794159889221,-0.20157858729362488,-2.9999990463256836,-0.007754194084554911,-0.016835765913128853,-0.025911353528499603,-0.03498516231775284,-0.27522391080856323,-0.3483127951622009,-0.4164859354496002,-0.4797581136226654
0.16666666666666666,0.0692131444811821,0.09999942034482956,0.0,0.975993275642395,0.0,0.0,-0.21780067682266235,0.33419671654701233,0.7045815587043762,0.0,0.0,0.0,-5.003058910369873,-0.4015153646469116,0.7342036366462708,0.4200000464916229,1.0,3.6666233427240513e-06,-2.3392092316498747e-06,-3.150152849684673e-07,0.0002659587189555168,0.00026667414931580424,-0.00010403618216514587,-0.0017253721598535776,0.0041928282007575035,-0.00012778467498719692,-0.27962666749954224,0.3980645537376404,1.166032314300537,-1.903680443763733,4.185361862182617,-2.820491075515747,0.4370543360710144,0.6298596858978271,0.42000001668930054,-1.1104484796524048,3.0,-0.17151272296905518,3.0000009536743164,-0.013701891526579857,-0.023540250957012177,-0.03331178054213524,-0.04302443191409111,-0.5121746063232422,-0.5240827202796936,-0.5339318513870239,-0.5420671105384827
0.18333333333333332,0.07146594673395157,0.11327957361936569,0.0,0.9713771939277649,0.0,0.0,-0.23754242062568665,0.06511610746383667,0.8525446057319641,0.0,0.0,0.0,-0.8709027171134949,-0.4015153646469116,0.7342036366462708,0.4200000464916229,1.0,3.814353021880379e-06,-2.3995974061108427e-06,-2.7029872740058636e-07,0.00026549032190814614,0.0002661117759998888,-0.00010391208343207836,-0.0017177986446768045,0.004184774123132229,-0.0001275356044061482,-0.3144568204879761,0.46294093132019043,1.1138986349105835,-1.9705655574798584,3.899057388305664,-3.397462844848633,0.4370543360710144,0.6298596858978271,0.42000001668930054,-1.0648951530456543,2.4737565517425537,-0.20313864946365356,-2.999999761581421,-0.024365227669477463,-0.03409796953201294,-0.04373019188642502,-0.053278714418411255,-0.6677135825157166,-0.655850350856781,-0.6417723894119263,-0.6259770393371582
0.2,0.07115930318832397,0.12380547821521759,0.0,0.9639706611633301,0.0,0.0,-0.2660086452960968,-0.05816059559583664,0.5307704210281372,0.0,0.0,0.0,-4.407237529754639,-0.4015153646469116,0.7342036366462708,0.4200000464916229,1.0,3.6000251384393778e-06,-2.2912661279406166e-06,-2.202114615101891e-07,0.0002657297009136528,0.00026644894387573004,-0.00010398100130259991,-0.0017226373311132193,0.004188735969364643,-0.0001277304399991408,-0.3445532023906708,0.5304625034332275,1.0513916015625,-1.5797474384307861,4.099328517913818,-4.077994346618652,0.4370543360710144,0.6298596858978271,0.42000001668930054,-1.0155601501464844,2.9999983310699463,-0.253164678812027,-3.0,-0.03552281856536865,-0.04500873386859894,-0.054355207830667496,-0.06358855217695236,-0.6919524073600769,-0.6688258051872253,-0.6438767313957214,-0.6176683902740479
0.21666666666666667,0.07251112163066864,0.13540956377983093,0.0,0.9535204172134399,0.0,0.0,-0.3013283908367157,0.08614224940538406,0.7369078993797302,0.0,0.0,0.0,-4.332635402679443,-0.4015153646469116,0.7342036366462708,0.4200000464916229,0.9999999403953552,3.639628175733378e-06,-2.2620024537900463e-06,2.2244368835799833e-07,0.00026687400531955063,0.00026754438295029104,-0.00010411953553557396,-0.0017404285026714206,0.004211097024381161,-0.00012783633428625762,-0.3693735599517822,0.5964609384536743,0.9744508266448975,-1.2423487901687622,3.8428218364715576,-5.032343864440918,0.4370543360710144,0.6298596858978271,0.42000001668930054,-0.9655570983886719,3.0000014305114746,-0.30319204926490784,-3.0,-0.050147078931331635,-0.05918525531888008,-0.06735953688621521,-0.07542531937360764,-0.9736403226852417,-0.9603400230407715,-0.8667230606079102,-0.7727833390235901
0.23333333333333334,0.07140744477510452,0.14492623507976532,0.0,0.9502493739128113,0.0,0.0,-0.3114902675151825,-0.1001242995262146,0.4470635652542114,0.0,0.0,0.0,-0.27544406056404114,-0.40151533484458923,0.7342036366462708,0.4200000464916229,1.0,3.4207625958515564e-06,-2.3168413463281468e-06,2.955432591988938e-07,0.0002668008382897824,0.0002680383331608027,-0.00010442384518682957,-0.0017436932539567351,0.004206873942166567,-0.00012899334251414984,-0.39164984226226807,0.6497823596000671,0.8845434784889221,-1.1314759254455566,2.840938091278076,-5.672857284545898,0.4370543360710144,0.6298596858978271,0.42000001668930054,-0.9155477285385132,2.9999964237213135,-0.3532222807407379,-3.000000476837158,-0.06514950096607208,-0.07410690933465958,-0.08224372565746307,-0.09021526575088501,-0.9439024925231934,-0.9135686755180359,-0.8875331878662109,-0.8621871471405029
0.25,0.06664656847715378,0.1547458916902542,0.0,0.942911684513092,0.0,0.0,-0.3330429494380951,-0.3588431775569916,0.637710452079773,0.0,0.0,0.0,-3.515503168106079,-0.4015153646469116,0.7342036366462708,0.4200000464916229,0.9999999403953552,3.3476451335445745e-06,-2.259213715660735e-06,1.8079042263252632e-07,0.00026687688659876585,0.00026791199343279004,-0.00010439311154186726,-0.0017404770478606224,0.004208194557577372,-0.0001287040940951556,-0.40815937519073486,0.6928939819335938,0.7838116884231567,-0.7780400514602661,2.240976572036743,-6.238171577453613,0.4370543360710144,0.6298596858978271,0.42000001668930054,-0.865537166595459,3.000000476837158,-0.4032538831233978,-2.999999761581421,-0.08110244572162628,-0.09011740237474442,-0.09831048548221588,-0.10631714761257172,-0.9905509352684021,-0.9925084114074707,-0.9901217818260193,-0.983376681804657
0.26666666666666666,0.06609263271093369,0.15997010469436646,0.0,0.9409579038619995,0.0,0.0,-0.3385235667228699,-0.00014066311996430159,0.20762009918689728,0.0,0.0,0.0,0.1312497854232788,-0.4015153646469116,0.7342036366462708,0.4200000464916229,0.9999999403953552,3.535712721713935e-06,-2.300341748195933e-06,-1.2691427286881662e-07,0.00026601803256198764,0.00026712071849033237,-0.00010419590398669243,-0.0017315904842689633,0.004192848224192858,-0.00012849242193624377,-0.4222464859485626,0.7215968370437622,0.6789613962173462,-0.6411709785461426,1.1763250827789307,-6.377023220062256,0.4370543360710144,0.6298596858978271,0.42000001668930054,-0.8155278563499451,2.9999887943267822,-0.4532855451107025,-2.999998092651367,-0.09589332342147827,-0.10472141951322556,-0.11269717663526535,-0.12036098539829254,-0.9906136989593506,-0.9884102940559387,-0.9819434881210327,-0.9558781981468201
0.2833333333333333,0.06158995255827904,0.16196243464946747,0.0,0.933910071849823,0.0,0.0,-0.3575080633163452,-0.3675245940685272,0.08601146936416626,0.0,0.0,0.0,-3.3168447017669678,-0.4015153646469116,0.7342036962509155,0.4200000464916229,1.0,3.5934726838604547e-06,-2.2626072677667253e-06,-5.6595279573912194e-08,0.00026704673655331135,0.00026774933212436736,-0.00010416633449494839,-0.0017431472660973668,0.0042141880840063095,-0.00012789324682671577,-0.4261651933193207,0.7344053983688354,0.5726094841957092,0.20006057620048523,0.33374181389808655,-6.112398624420166,0.4370543360710144,0.6298596858978271,0.42000001668930054,-0.7655190825462341,2.999999761581421,-0.5033164024353027,-3.0000038146972656,-0.11371415108442307,-0.1222488284111023,-0.13000404834747314,-0.13749702274799347,-1.0129443407058716,-1.0097306966781616,-1.0072804689407349,-1.0053343772888184
0.3,0.052901122719049454,0.16222025454044342,0.0,0.933032751083374,0.0,0.0,-0.35979142785072327,-0.4353867769241333,-0.09014168381690979,0.0,0.0,0.0,0.6299704313278198,-0.40151533484458923,0.7342036366462708,0.4200000464916229,0.9999999403953552,3.7250313198455842e-06,-2.2360607090377016e-06,3.828210992651293e-07,0.00026479887310415506,0.00026673005777411163,-0.00010453932918608189,-0.0017189555801451206,0.004166737664490938,-0.00013016702723689377,-0.42055320739746094,0.7349893450737,0.4787938594818115,0.5349971055984497,-0.12182850390672684,-5.282217979431152,0.4370543360710144,0.6298596858978271,0.42000001668930054,-0.7155108451843262,2.9999520778656006,-0.5533450245857239,-2.9999210834503174,-0.13121825456619263,-0.13955047726631165,-0.14716006815433502,-0.15454283356666565,-0.7663474082946777,-0.8165733814239502,-0.8632533550262451,-0.9049723744392395
0.31666666666666665,0.04374835640192032,0.1593012511730194,0.0,0.9270736575126648,0.0,0.0,-0.37487924098968506,-0.5973309874534607,-0.2186264842748642,0.0,0.0,0.0,-2.794271469116211,-0.4015277028083801,0.7341774106025696,0.4200547933578491,0.9999997615814209,-0.0003285555576439947,0.00010147334251087159,-0.0004686571774072945,0.03618248552083969,-0.12937384843826294,-0.07035595923662186,0.7517099380493164,-0.6547136902809143,-4.039397239685059,-0.4158009886741638,0.7366987466812134,0.42915278673171997,0.10140487551689148,-0.0071538835763931274,-0.23704728484153748,0.4370543360710144,0.6298596858978271,0.42000001668930054,-0.66550612449646,2.993164300918579,-0.6037641763687134,-2.9971368312835693,-0.1436072289943695,-0.15220336616039276,-0.16002970933914185,-0.16750258207321167,-0.33655619621276855,-0.3865998089313507,-0.43006661534309387,-0.4567626118659973
0.3333333333333333,0.032468777149915695,0.1539289951324463,0.0,0.9274875521659851,0.0,0.0,-0.37385404109954834,-0.7133362889289856,-0.36441248655319214,0.0,0.0,0.0,1.064611792564392,-0.40048182010650635,0.7351711988449097,0.4200000464916229,0.9989136457443237,3.780415227083722e-06,2.3740124106552685e-06,-0.0465976744890213,0.0876518040895462,0.1360176056623459,-1.1721393093466759e-05,-0.0006516680005006492,0.0007122714887373149,-6.954349040985107,-0.4142990708351135,0.7429056167602539,0.4261755049228668,0.1878024935722351,0.377289354801178,-0.21675921976566315,0.4370543360710144,0.6298596858978271,0.42000001668930054,-0.6155002117156982,2.9999752044677734,-0.6538295149803162,-2.9999992847442627,-0.15024207532405853,-0.1588391214609146,-0.1665647327899933,-0.173690527677536,-0.4318190813064575,-0.4003661870956421,-0.3645091950893402,-0.31655025482177734
0.35,0.01901423931121826,0.14621637761592865,0.0,0.9221447110176086,0.0,0.0,-0.38684511184692383,-0.8526037931442261,-0.5025177001953125,0.0,0.0,0.0,-2.601557493209839,-0.3974340260028839,0.7393360137939453,0.42000019550323486,0.9926760792732239,-6.090995611884864e-06,4.3402010305726435e-06,-0.1208062693476677,0.1376587599515915,0.1979261040687561,-0.0002743572695180774,0.013194452971220016,-0.002232881495729089,-7.021977424621582,-0.4096152186393738,0.7464444041252136,0.42273542284965515,0.439588725566864,0.21922644972801208,-0.19305157661437988,0.4370543360710144,0.6298596858978271,0.42000001668930054,-0.5654953122138977,2.9999747276306152,-0.7038938999176025,-2.999507188796997,-0.1588790863752365,-0.1662081778049469,-0.17256049811840057,-0.17810611426830292,-0.5496333241462708,-0.440236896276474,-0.3243904113769531,-0.19725415110588074
0.36666666666666664,0.0036512191873043776,0.13618116080760956,0.0,0.9231026768684387,0.0,0.0,-0.38455361127853394,-0.9701538681983948,-0.6430497765541077,0.0,0.0,0.0,1.240291714668274,-0.3926143944263458,0.7466745376586914,0.4205828309059143,0.9842512607574463,0.0020623179152607918,0.001814414979889989,-0.17675381898880005,0.4410921633243561,0.6639752388000488,0.0791749581694603,0.6012024879455566,0.2741190195083618,-5.0310893058776855,-0.4022344946861267,0.753261923789978,0.42216846346855164,0.4977912902832031,0.6180167198181152,0.03504429757595062,0.4370543360710144,0.6298596858978271,0.42000001668930054,-0.5154902935028076,3.000000476837158,-0.7539268732070923,-3.0,-0.16873005032539368,-0.17361368238925934,-0.17737974226474762,-0.18014591932296753,-0.5492407083511353,-0.3910607099533081,-0.22279275953769684,-0.042147841304540634
0.3833333333333333,-0.008831379003822803,0.1234041377902031,0.0,0.9183343648910522,0.0,0.0,-0.3958055377006531,-0.673383355140686,-0.8138700127601624,0.0,0.0,0.0,-2.3563172817230225,-0.38403141498565674,0.7587978839874268,0.42037007212638855,0.9767402410507202,0.009071976877748966,-0.0019530090503394604,-0.21422506868839264,0.6305360794067383,0.8212082386016846,0.0046239630319178104,0.3842724859714508,-0.2601355314254761,-5.320868492126465,-0.39041435718536377,0.7636716365814209,0.4199201464653015,0.9396699666976929,0.6584391593933105,-0.2794357240200043,0.4370543360710144,0.6298596858978271,0.42000001668930054,-0.4654860198497772,3.0,-0.8039509057998657,-2.999993324279785,-0.17838025093078613,-0.18005192279815674,-0.1803802251815796,-0.17947918176651,-0.5425599217414856,-0.3340695798397064,-0.11090755462646484,0.12596896290779114
0.4,-0.0213859211653471,0.1085665374994278,0.0,0.9010727405548096,0.0,0.0,-0.4336680471897125,-0.8222578763961792,-0.9187766909599304,0.0,0.0,0.0,-5.943312644958496,-0.3681366443634033,0.7733303308486938,0.421029269695282,0.9638194441795349,-0.0049469382502138615,-0.015458747744560242,-0.26606109738349915,1.4892470836639404,0.7505248188972473,0.22342775762081146,-1.6219391822814941,1.8087621927261353,7.041563987731934,-0.37283194065093994,0.7762131690979004,0.4208179712295532,1.354353427886963,0.9606252312660217,0.1356106698513031,0.4370543360710144,0.6298596858978271,0.42000001668930054,-0.4154752492904663,2.9564034938812256,-0.8540109992027283,-2.9889276027679443,-0.18732856214046478,-0.18537400662899017,-0.18175549805164337,-0.1766243875026703,-0.504291296005249,-0.2877544164657593,-0.05194058269262314,0.2002580612897873
0.4166666666666667,-0.031875889748334885,0.09115132689476013,0.0,0.8692688941955566,0.0,0.0,-0.49433955550193787,-0.5565399527549744,-1.101862907409668,0.0,0.0,0.0,-9.048165321350098,-0.3328830897808075,0.7931973934173584,0.42600709199905396,0.9467030763626099,-0.012857465073466301,-0.04401154816150665,-0.31882739067077637,3.3445050716400146,1.4834579229354858,0.3257638216018677,21.192100524902344,-16.185300827026367,7.1517510414123535,-0.33686280250549316,0.796991229057312,0.42529040575027466,3.0089077949523926,1.610814094543457,0.5461540818214417,0.4370543360710144,0.6298596858978271,0.42000001668930054,-0.3856574594974518,0.9970390200614929,-0.9040339589118958,-3.0000011920928955,-0.19690632820129395,-0.19096256792545319,-0.18307729065418243,-0.17347954213619232,-0.5983178615570068,-0.34145769476890564,-0.07126396149396896,0.20639178156852722
0.43333333333333335,-0.03939639776945114,0.07908136397600174,0.0,0.8200345039367676,0.0,0.0,-0.5723140835762024,-0.3627435564994812,-0.771894633769989,0.0,0.0,0.0,-11.676773071289062,-0.256385862827301,0.8223000764846802,0.4331534504890442,0.9247679710388184,0.038297463208436966,-0.08667104691267014,-0.3685450255870819,5.847002983093262,1.8642857074737549,0.22540616989135742,3.6430490016937256,-14.14798641204834,27.87888526916504,-0.25991523265838623,0.8271285891532898,0.4324587881565094,5.7425031661987305,2.249621868133545,0.5557430982589722,0.4370543360710144,0.6298596858978271,0.42000001668930054,-0.3697175681591034,0.9928745627403259,-0.8668084740638733,2.998455762863159,-0.2123313695192337,-0.2025853991508484,-0.1890324205160141,-0.17403922975063324,-0.5239670872688293,-0.5017315745353699,-0.24998432397842407,-0.014413701370358467
0.45,-0.04306088760495186,0.06862878054380417,0.0,0.7778740525245667,0.0,0.0,-0.6284201741218567,-0.16808320581912994,-0.5631211400032043,0.0,0.0,0.0,-7.2396745681762695,-0.1585892140865326,0.8552712798118591,0.4438970386981964,0.8806190490722656,0.07430418580770493,-0.11545661836862564,-0.45349615812301636,6.16309928894043,1.0295531749725342,0.7587404847145081,5.051761150360107,-14.160006523132324,17.040393829345703,-0.16175195574760437,0.8619663715362549,0.4431152939796448,6.139551162719727,1.7738877534866333,0.7329341173171997,0.4370543360710144,0.6298596858978271,0.42000001668930054,-0.3530842363834381,0.9225998520851135,-0.8925396203994751,-3.00000262260437,-0.22183923423290253,-0.2113570123910904,-0.1941259652376175,-0.17586423456668854,-0.5365064144134521,-0.48244941234588623,-0.2960833013057709,-0.13812552392482758
0.4666666666666667,-0.04882682114839554,0.05491331219673157,0.0,0.7554201483726501,0.0,0.0,-0.6552407145500183,-0.3281645178794861,-0.7310059666633606,0.0,0.0,0.0,-2.926922082901001,-0.058233559131622314,0.8730900287628174,0.45626571774482727,0.8250205516815186,0.07895664870738983,-0.11645174026489258,-0.5473078489303589,6.164340019226074,-0.4446450173854828,0.7928279042243958,0.2959784269332886,-7.975499153137207,11.21863842010498,-0.060345251113176346,0.8795180320739746,0.4557296633720398,6.210516929626465,0.2395325005054474,0.901801586151123,0.4370543360710144,0.6298596858978271,0.42000001668930054,-0.33695119619369507,0.9300858378410339,-0.9425635933876038,-3.000000476837158,-0.23026393353939056,-0.21767018735408783,-0.19678951799869537,-0.1754104495048523,-0.8065913319587708,-0.5701683163642883,-0.2780120372772217,-0.024576416239142418
0.48333333333333334,-0.052212126553058624,0.0472552590072155,0.0,0.725353479385376,0.0,0.0,-0.6883765459060669,-0.18762409687042236,-0.43420276045799255,0.0,0.0,0.0,-6.1336588859558105,0.041456323117017746,0.8626585006713867,0.4674804210662842,0.7439309358596802,0.0779392272233963,-0.11181104928255081,-0.6542097926139832,5.465787410736084,-2.05336856842041,0.5034621953964233,-13.645557403564453,-5.183469295501709,25.476598739624023,0.038518741726875305,0.8712077140808105,0.46720772981643677,5.942200660705566,-1.050065517425537,0.7124699950218201,0.4370543360710144,0.6298596858978271,0.42000001668930054,-0.3228265643119812,0.575330376625061,-0.9925876259803772,-3.0000035762786865,-0.24005499482154846,-0.22986795008182526,-0.20401118695735931,-0.17778272926807404,-0.04581967741250992,-0.6071484088897705,-0.3777439594268799,-0.10689263045787811
0.5,-0.05200200155377388,0.03582701459527016,0.0,0.7078493237495422,0.0,0.0,-0.7063634991645813,0.08240540325641632,-0.6732428669929504,0.0,0.0,0.0,-1.8339861631393433,0.13494008779525757,0.8373212814331055,0.4733346402645111,0.6633158326148987,0.032292675226926804,-0.12278095632791519,-0.7374916672706604,4.888113498687744,-2.317101001739502,0.06352315098047256,-15.8668212890625,4.42763090133667,24.801517486572266,0.13186973333358765,0.8472272157669067,0.4748324155807495,5.547793388366699,-1.9460771083831787,0.39206576347351074,0.4370543360710144,0.6298596858978271,0.42000001668930054,-0.3135611116886139,0.49690306186676025,-1.0426100492477417,-3.0000014305114746,-0.2390173226594925,-0.23608733713626862,-0.2071661651134491,-0.17745965719223022,-0.04625670984387398,-0.3401087522506714,-0.17361848056316376,0.001566034508869052
0.5166666666666666,-0.05267881602048874,0.027888445183634758,0.0,0.6832919120788574,0.0,0.0,-0.7301453351974487,-0.0902375653386116,-0.4113621711730957,0.0,0.0,0.0,-4.982564926147461,0.21727652847766876,0.8010062575340271,0.4731720983982086,0.6085487604141235,0.010024131275713444,-0.10518518835306168,-0.786450207233429,4.245327472686768,-2.617098093032837,-0.11829664558172226,-5.841299057006836,4.681080341339111,9.752422332763672,0.21526998281478882,0.8116718530654907,0.47550737857818604,4.7232747077941895,-2.4169673919677734,-0.14414924383163452,0.4370543360710144,0.6298596858978271,0.42000001668930054,-0.3040205240249634,0.5609691143035889,-1.0926321744918823,-2.9996509552001953,-0.23922200500965118,-0.23998914659023285,-0.20969761908054352,-0.17832431197166443,0.05408703535795212,-0.003573858877643943,-0.09396415203809738,-0.06180817261338234
0.5333333333333333,-0.051917362958192825,0.0240265354514122,0.0,0.6733866930007935,0.0,0.0,-0.7392904758453369,0.08137406408786774,-0.16787530481815338,0.0,0.0,0.0,-0.5445833206176758,0.286720871925354,0.7600336670875549,0.4673295319080353,0.5170853137969971,-0.02931266278028488,-0.09231912344694138,-0.8504356145858765,3.8356575965881348,-2.3933053016662598,-0.4535158574581146,2.8195912837982178,2.844985246658325,-21.680572509765625,0.2835850119590759,0.7699486017227173,0.4707183837890625,3.5451741218566895,-2.619776725769043,-0.4185612201690674,0.4370543360710144,0.6298596858978271,0.42000001668930054,-0.29138684272766113,1.2016186714172363,-1.142654299736023,-3.0000011920928955,-0.2380649894475937,-0.23908497393131256,-0.21089567244052887,-0.17986269295215607,0.1822073608636856,0.1654217541217804,0.00454683369025588,-0.08031958341598511
0.55,-0.04771159216761589,0.014688396826386452,0.0,0.6533213257789612,0.0,0.0,-0.7570807337760925,0.24627810716629028,-0.5251394510269165,0.0,0.0,0.0,-4.01374626159668,0.34223997592926025,0.7199984788894653,0.45444440841674805,0.4928255081176758,-0.06226566806435585,-0.0588977187871933,-0.8658966422080994,2.863368034362793,-3.241744041442871,-0.6739715337753296,-3.2042720317840576,0.05807149410247803,7.347484588623047,0.34163379669189453,0.729367733001709,0.45846569538116455,3.044776439666748,-2.440819263458252,-0.9411786198616028,0.4370543360710144,0.6298596858978271,0.42000001668930054,-0.2688789963722229,1.0256785154342651,-1.1926764249801636,-3.0000011920928955,-0.22864645719528198,-0.23070864379405975,-0.2065756916999817,-0.1785321682691574,0.42188140749931335,0.4190523028373718,0.1959547996520996,0.012319046072661877
0.5666666666666667,-0.04208892956376076,0.011035406962037086,0.0,0.6471157670021057,0.0,0.0,-0.7623917460441589,0.36032775044441223,-0.12175063043832779,0.0,0.0,0.0,-0.021736349910497665,0.3864966928958893,0.6786618232727051,0.4369901418685913,0.4581587612628937,-0.08687754720449448,-0.047710273414850235,-0.8833268880844116,2.201212167739868,-2.8221545219421387,-1.0194987058639526,-8.39180850982666,-0.3369712233543396,9.142735481262207,0.3859896659851074,0.6875739097595215,0.441007137298584,2.271904945373535,-2.4377686977386475,-1.1408557891845703,0.4370543360710144,0.6298596858978271,0.42000001668930054,-0.26088523864746094,0.1445244550704956,-1.2065156698226929,0.9996150732040405,-0.2237548530101776,-0.22534747421741486,-0.2048274725675583,-0.18004480004310608,0.3201921582221985,0.3443039059638977,0.10799228399991989,-0.11947207897901535
0.5833333333333334,-0.033830709755420685,0.010215877555310726,0.0,0.6328292489051819,0.0,0.0,-0.7742913365364075,0.5475410223007202,0.0012988883536309004,0.0,0.0,0.0,-3.108417272567749,0.41608673334121704,0.6491976380348206,0.4247344136238098,0.44641509652137756,-0.10763689875602722,-0.02802848629653454,-0.8878863453865051,0.9895869493484497,-1.3220925331115723,0.14504343271255493,-0.8933085799217224,7.516634941101074,8.49034595489502,0.41556811332702637,0.6576034426689148,0.42899954319000244,1.1030665636062622,-1.1106600761413574,0.13194091618061066,0.4370543360710144,0.6298596858978271,0.42000001668930054,-0.2536098062992096,0.6752505898475647,-1.2433983087539673,-3.002403736114502,-0.21518808603286743,-0.21770386397838593,-0.20227482914924622,-0.18232524394989014,0.6207455396652222,0.5327288508415222,0.20088212192058563,-0.11586115509271622
0.6,-0.028952758759260178,0.003671666607260704,0.0,0.631455659866333,0.0,0.0,-0.7754119634628296,0.29362863302230835,-0.30204981565475464,0.0,0.0,0.0,0.7191499471664429,0.43115854263305664,0.6346292495727539,0.42454835772514343,0.45715558528900146,-0.09849497675895691,-0.01856481470167637,-0.8837209939956665,0.3472391366958618,-1.3976932764053345,0.054467737674713135,-13.26801586151123,1.1780363321304321,16.791011810302734,0.4299669563770294,0.6421762108802795,0.4292498528957367,0.4145388603210449,-0.8490496873855591,0.11690609157085419,0.4370543360710144,0.6298596858978271,0.42000001668930054,-0.24177967011928558,0.49542155861854553,-1.205374002456665,2.9986181259155273,-0.1995714008808136,-0.20325972139835358,-0.1938881278038025,-0.17991630733013153,0.51957768201828,0.6018520593643188,0.3257170617580414,0.03176344931125641
0.6166666666666667,-0.020643016323447227,0.003249930450692773,0.0,0.6192372441291809,0.0,0.0,-0.7852039337158203,0.4547056555747986,-0.031047476455569267,0.0,0.0,0.0,-2.620138168334961,0.43637678027153015,0.6246744990348816,0.4233889877796173,0.4840839207172394,-0.07244880497455597,-0.02101498283445835,-0.8717638254165649,0.12243051081895828,-0.6180214285850525,-0.016054078936576843,-7.719799995422363,-1.5898094177246094,14.155033111572266,0.4339919686317444,0.6314231753349304,0.4279009699821472,0.08320146799087524,-0.2651841342449188,-0.025253701955080032,0.4370543360710144,0.6298596858978271,0.42000001668930054,-0.23929177224636078,-0.09286666661500931,-1.15535569190979,2.9998326301574707,-0.19277700781822205,-0.19551751017570496,-0.19059082865715027,-0.18140095472335815,0.5920560956001282,0.5829166769981384,0.2882860600948334,-0.022489117458462715
0.6333333333333333,-0.011518757790327072,-0.001297472044825554,0.0,0.6209143996238708,0.0,0.0,-0.7838783860206604,0.5252454876899719,-0.303679883480072,0.0,0.0,0.0,1.1484347581863403,0.43665990233421326,0.6188886165618896,0.42196911573410034,0.5122301578521729,-0.04406868666410446,-0.026419157162308693,-0.8573098182678223,-0.09613130986690521,-0.38283056020736694,-0.10250663757324219,4.660240173339844,-2.8193464279174805,1.5359269380569458,0.4342174828052521,0.6284116506576538,0.4277762770652771,-0.0435933843255043,-0.06501169502735138,0.1497827023267746,0.4370543360710144,0.6298596858978271,0.42000001668930054,-0.2782849669456482,-2.999990701675415,-1.1773500442504883,-2.998901128768921,-0.18051396310329437,-0.1838729977607727,-0.18375015258789062,-0.17966249585151672,0.598720133304596,0.5908766388893127,0.36014118790626526,0.10486936569213867
0.65,-0.0002071902563329786,-0.0026626072358340025,0.0,0.6440581679344177,0.0,0.0,-0.7649765014648438,0.7270933985710144,-0.053286634385585785,0.0,0.0,0.0,4.386421203613281,0.4353599548339844,0.6147274971008301,0.42021167278289795,0.5048756003379822,-0.004214998800307512,-0.0012487712083384395,-0.8631808757781982,-0.07150352746248245,-0.17566539347171783,-0.07995909452438354,3.033771276473999,-2.0990772247314453,-3.8925697803497314,0.43303537368774414,0.6288638114929199,0.4302120804786682,-0.06130293756723404,0.14579984545707703,0.1687455177307129,0.4370543360710144,0.6298596858978271,0.42000001668930054,-0.32827240228652954,-2.9999778270721436,-1.2273101806640625,-2.998302936553955,-0.17229025065898895,-0.1758599728345871,-0.1790732443332672,-0.17871247231960297,0.5730515718460083,0.5271777510643005,0.3264230191707611,0.10505630075931549
0.6666666666666666,0.013122573494911194,-0.00625626789405942,0.0,0.653098464012146,0.0,0.0,-0.7572730183601379,0.8267366886138916,-0.2691534757614136,0.0,0.0,0.0,0.3688928782939911,0.4335910975933075,0.6141926646232605,0.42000001668930054,0.5151123404502869,2.143872961823945e-06,5.753150617238134e-06,-0.8571226596832275,-0.061914920806884766,-0.01931399665772915,-0.00010436400771141052,-0.0047996509820222855,-0.005285080522298813,0.048377618193626404,0.43293461203575134,0.6334148645401001,0.43373504281044006,0.009980250149965286,0.27785104513168335,0.2353411763906479,0.4370543360710144,0.6298596858978271,0.42000001668930054,-0.3782806396484375,-2.9998650550842285,-1.2772718667984009,-2.9993369579315186,-0.1623891294002533,-0.16676506400108337,-0.17285779118537903,-0.17570143938064575,0.5327963829040527,0.5016789436340332,0.3706263303756714,0.21811893582344055
0.6833333333333333,0.028341863304376602,-0.012329795397818089,0.0,0.6693270802497864,0.0,0.0,-0.7429678440093994,0.9384544491767883,-0.48826372623443604,0.0,0.0,0.0,3.8514456748962402,0.4324554204940796,0.61430823802948,0.4202204644680023,0.513836145401001,0.002839119406417012,-0.004719213116914034,-0.8578705787658691,-0.09118368476629257,0.015633665025234222,0.029410043731331825,-0.697249710559845,-1.3011668920516968,-0.7512245774269104,0.43171411752700806,0.6355530023574829,0.4393276870250702,-0.12200529873371124,0.032189324498176575,0.5002354979515076,0.4370543360710144,0.6298596858978271,0.42000001668930054,-0.42829468846321106,-3.000000238418579,-1.3272902965545654,-3.0,-0.15686848759651184,-0.16071943938732147,-0.16749867796897888,-0.17136074602603912,0.26344549655914307,0.3289044201374054,0.3460715115070343,0.34604597091674805
0.7,0.04587187245488167,-0.017705246806144714,0.0,0.675300121307373,0.0,0.0,-0.737542986869812,1.0718677043914795,-0.26883360743522644,0.0,0.0,0.0,-0.059770431369543076,0.43156734108924866,0.614406168460846,0.4200008511543274,0.5106033682823181,5.834355306433281e-06,-1.6300472225339036e-06,-0.859816312789917,-0.02703901380300522,0.0008692246046848595,-0.0003271788591518998,-0.014079198241233826,0.018404411152005196,-0.2733308970928192,0.4339548349380493,0.635944664478302,0.4469788074493408,0.36204683780670166,-0.023342229425907135,0.5303352475166321,0.4370543360710144,0.6298596858978271,0.42000001668930054,-0.47830790281295776,-2.999999523162842,-1.3773086071014404,-2.9999992847442627,-0.154623344540596,-0.1570773869752884,-0.16287490725517273,-0.165969118475914,0.17551948130130768,0.2475835382938385,0.3167138397693634,0.3794219493865967
0.7166666666666667,0.06490093469619751,-0.02505321614444256,0.0,0.6587010025978088,0.0,0.0,-0.7524048089981079,1.1711825132369995,-0.5009735226631165,0.0,0.0,0.0,-3.5978524684906006,0.4315674304962158,0.6144064664840698,0.41999995708465576,0.510603666305542,-1.9593188937960804e-07,-4.282439022063045e-06,-0.8598161935806274,0.00022522956714965403,-0.0002838248328771442,-6.58966600894928e-05,0.0069696842692792416,0.001793848816305399,-0.0011972296051681042,0.4466021656990051,0.6364586353302002,0.4634090065956116,1.0794696807861328,0.02011023461818695,1.5420198440551758,0.4370543360710144,0.6298596858978271,0.42000001668930054,-0.5283204913139343,-2.9999778270721436,-1.4273269176483154,-2.999999761581421,-0.15393094718456268,-0.15494318306446075,-0.15912267565727234,-0.16070950031280518,-0.061853617429733276,0.03988243266940117,0.16250313818454742,0.2774396240711212
0.7333333333333333,0.08132503181695938,-0.02970547415316105,0.0,0.6535412073135376,0.0,0.0,-0.7568909525871277,0.9070659279823303,-0.2315656691789627,0.0,0.0,0.0,0.33763909339904785,0.43156740069389343,0.6144065260887146,0.41999995708465576,0.5106033682823181,-1.911659182951553e-06,-5.207819867791841e-06,-0.8598162531852722,2.3722204787191004e-06,-0.0003471971722319722,-6.44344836473465e-05,0.00961608812212944,-0.0036042106803506613,-0.0010248085018247366,0.46796363592147827,0.6382731795310974,0.4960816502571106,1.4807751178741455,0.22662100195884705,2.3602232933044434,0.4370543360710144,0.6298596858978271,0.42000001668930054,-0.5783235430717468,-2.9999947547912598,-1.4773452281951904,-2.999999761581421,-0.15620674192905426,-0.15597981214523315,-0.1584642380475998,-0.15851916372776031,-0.06723958253860474,-0.039737723767757416,0.021105295047163963,0.07240395247936249
0.75,0.09355299174785614,-0.03118511661887169,0.0,0.6718904376029968,0.0,0.0,-0.7406505346298218,0.6734126210212708,-0.033810507506132126,0.0,0.0,0.0,3.7591264247894287,0.43156740069389343,0.6144065260887146,0.41999995708465576,0.5106038451194763,-1.8730373767539277e-06,-4.734485628432594e-06,-0.8598161339759827,8.081893611233681e-06,-0.00034590382711030543,-6.377324461936951e-05,0.009593289345502853,-0.0036185174249112606,-0.0010323184542357922,0.4905807375907898,0.6386430859565735,0.5276771783828735,1.2425289154052734,-0.058693647384643555,1.5522100925445557,0.4370543360710144,0.6298596858978271,0.42000001668930054,-0.5979946255683899,0.3619425594806671,-1.5273635387420654,-3.0,-0.15686994791030884,-0.156162828207016,-0.15759214758872986,-0.15678858757019043,0.01910915970802307,0.04241689667105675,0.0995926558971405,0.14248186349868774
0.7666666666666666,0.10142865777015686,-0.03371172025799751,0.0,0.6770642399787903,0.0,0.0,-0.7359238862991333,0.4129578471183777,-0.12361718714237213,0.0,0.0,0.0,-0.17833371460437775,0.43156740069389343,0.6144065260887146,0.41999995708465576,0.5106034874916077,-1.894937554425269e-06,-4.828002147405641e-06,-0.8598162531852722,3.7399768189061433e-06,-0.0003460485313553363,-6.391643546521664e-05,0.009594269096851349,-0.0036080623976886272,-0.00102336797863245,0.5047407746315002,0.6403710842132568,0.5479496717453003,0.39768126606941223,0.11336380243301392,1.0355174541473389,0.4370543360710144,0.6298596858978271,0.42000001668930054,-0.6036578416824341,-0.9249550700187683,-1.4885600805282593,2.999999523162842,-0.15467487275600433,-0.15399347245693207,-0.15487340092658997,-0.15377777814865112,0.020456429570913315,0.0415772907435894,0.09304425865411758,0.12321299314498901
0.7833333333333333,0.10605297237634659,-0.03312139958143234,0.0,0.6911346316337585,0.0,0.0,-0.7227259874343872,0.22858788073062897,0.10052881389856339,0.0,0.0,0.0,3.1249608993530273,0.43156740069389343,0.6144065260887146,0.41999995708465576,0.5106036067008972,-2.0399877485033358e-06,-4.97803557664156e-06,-0.8598162531852722,2.5797107809921727e-06,-0.0003467678907327354,-6.434367969632149e-05,0.009604403749108315,-0.0035990686155855656,-0.001023883349262178,0.5079420804977417,0.6403610110282898,0.5605220794677734,0.016345366835594177,-0.008371484465897083,0.5407175421714783,0.4370543360710144,0.6298596858978271,0.42000001668930054,-0.5950611233711243,1.7181150913238525,-1.504904866218567,-3.000000476837158,-0.15450282394886017,-0.1534159779548645,-0.153400257229805,-0.15178219974040985,0.042112696915864944,0.061314016580581665,0.10792498290538788,0.13111723959445953
0.8,0.10716945677995682,-0.03555337339639664,0.0,0.6928478479385376,0.0,0.0,-0.7210838198661804,0.01261663157492876,-0.14926272630691528,0.0,0.0,0.0,-0.551327645778656,0.43156740069389343,0.6144065260887146,0.41999995708465576,0.5106036067008972,-1.7913090459842351e-06,-4.711915153166046e-06,-0.8598161935806274,8.740467819734477e-06,-0.0003459437866695225,-6.372504867613316e-05,0.00959605723619461,-0.003624211996793747,-0.0010338121792301536,0.5037198066711426,0.6433149576187134,0.5645956993103027,-0.5947648286819458,0.23553037643432617,0.09729039669036865,0.4370543360710144,0.6298596858978271,0.42000001668930054,-0.5923985838890076,-1.1514344215393066,-1.4661669731140137,3.0000007152557373,-0.15235280990600586,-0.15133795142173767,-0.15095849335193634,-0.14934717118740082,0.026374436914920807,0.03519361838698387,0.06594155728816986,0.07241947203874588
0.8166666666666667,0.10949093848466873,-0.03474155440926552,0.0,0.7044858336448669,0.0,0.0,-0.7097180485725403,0.18690897524356842,0.08003780990839005,0.0,0.0,0.0,2.6665587425231934,0.43156740069389343,0.6144065260887146,0.41999995708465576,0.5106037259101868,-2.0148306703049457e-06,-4.9978625611402094e-06,-0.8598161339759827,6.724594641127624e-06,-0.0003467037167865783,-6.41669612377882e-05,0.009607366286218166,-0.003614343237131834,-0.0010325397597625852,0.496055006980896,0.645337700843811,0.5650287866592407,-0.2765379548072815,0.09599784016609192,0.019085172563791275,0.4370543360710144,0.6298596858978271,0.42000001668930054,-0.5858283638954163,1.68806791305542,-1.483001947402954,-2.999999761581421,-0.15244904160499573,-0.1512138694524765,-0.1501847803592682,-0.14821939170360565,0.06272725015878677,0.06355515867471695,0.09331325441598892,0.11184060573577881
0.8333333333333334,0.11123338341712952,-0.0373530238866806,0.0,0.7038568258285522,0.0,0.0,-0.7103418707847595,0.04773904010653496,-0.19807572662830353,0.0,0.0,0.0,-0.9828817248344421,0.43156740069389343,0.6144065260887146,0.41999995708465576,0.5106036067008972,-2.0257193682482466e-06,-4.911702944809804e-06,-0.8598161339759827,5.9759759096778e-06,-0.00034672117908485234,-6.42123632133007e-05,0.009606593288481236,-0.00361042027361691,-0.001031010295264423,0.4920802116394043,0.647479772567749,0.563969075679779,-0.2837100028991699,0.04517705738544464,-0.004321161657571793,0.4370543360710144,0.6298596858978271,0.42000001668930054,-0.5997595191001892,-2.9454615116119385,-1.4443278312683105,3.0000007152557373,-0.15114031732082367,-0.14999175071716309,-0.1485826075077057,-0.14637397229671478,-0.0170268677175045,-0.00333010614849627,0.03516380861401558,0.0654677078127861
0.85,0.11392290145158768,-0.03663332015275955,0.0,0.7090896964073181,0.0,0.0,-0.7051182985305786,0.20392082631587982,0.05795423313975334,0.0,0.0,0.0,1.8812822103500366,0.43156740069389343,0.6144065260887146,0.41999995708465576,0.5106035470962524,-1.999520691242651e-06,-5.035416961618466e-06,-0.8598162531852722,5.701471764041344e-06,-0.0003467423084657639,-6.423657760024071e-05,0.009606598876416683,-0.003609130159020424,-0.0010305177420377731,0.4908759891986847,0.6461561322212219,0.5652395486831665,0.17845085263252258,-0.13012757897377014,0.2143324613571167,0.4370543360710144,0.6298596858978271,0.42000001668930054,-0.6178463697433472,0.49227920174598694,-1.4616127014160156,-3.000000238418579,-0.15327264368534088,-0.15151789784431458,-0.14907236397266388,-0.1458929032087326,-0.04252653196454048,-0.016848672181367874,0.03719421848654747,0.09354544430971146
0.8666666666666667,0.11884095519781113,-0.03955477103590965,0.0,0.704636812210083,0.0,0.0,-0.7095681428909302,0.3285198211669922,-0.21960069239139557,0.0,0.0,0.0,-1.569885015487671,0.43156740069389343,0.6144065260887146,0.41999995708465576,0.5106035470962524,-1.7997501799982274e-06,-4.756706857733661e-06,-0.8598161935806274,8.804046956356615e-06,-0.00034593025338836014,-6.371620111167431e-05,0.00959591194987297,-0.0036242236383259296,-0.00103387504350394,0.49589046835899353,0.6454158425331116,0.5678170323371887,0.3261522650718689,-0.10677637159824371,0.23373326659202576,0.4370543360710144,0.6298596858978271,0.42000001668930054,-0.6358835697174072,-2.39064621925354,-1.4229995012283325,3.0,-0.1532263159751892,-0.1511842906475067,-0.14799726009368896,-0.14399145543575287,-0.07962259650230408,-0.040683381259441376,0.021366717293858528,0.08743883669376373
0.8833333333333333,0.12600299715995789,-0.03895770385861397,0.0,0.7086420059204102,0.0,0.0,-0.705568253993988,0.4615482687950134,0.04232632741332054,0.0,0.0,0.0,2.0411651134490967,0.43156740069389343,0.6144065260887146,0.41999995708465576,0.5106037259101868,-2.0091979422431905e-06,-4.881065706285881e-06,-0.8598161935806274,6.093333922763122e-06,-0.00034672164474613965,-6.42209779471159e-05,0.009606316685676575,-0.003610379761084914,-0.00103131087962538,0.5029709339141846,0.6429213881492615,0.5753496885299683,0.5784576535224915,-0.12598416209220886,0.7105970978736877,0.4370543360710144,0.6298596858978271,0.42000001668930054,-0.6449658274650574,1.0136221647262573,-1.4406955242156982,-3.000000238418579,-0.1561599224805832,-0.15331029891967773,-0.1489664912223816,-0.14372119307518005,-0.059878285974264145,-0.03630944341421127,0.008600941859185696,0.062166184186935425
0.9,0.1307208389043808,-0.04210628196597099,0.0,0.7053095102310181,0.0,0.0,-0.7088994383811951,0.21608182787895203,-0.22684688866138458,0.0,0.0,0.0,-1.4666707515716553,0.4315674304962158,0.6144065260887146,0.41999995708465576,0.5106037259101868,-2.0041156858496834e-06,-4.8767537919047754e-06,-0.8598160743713379,3.864126028929604e-06,-0.00034670939203351736,-6.430409848690033e-05,0.009603523649275303,-0.0036013186909258366,-0.0010264844167977571,0.5127313137054443,0.6411917805671692,0.5852536559104919,0.5149935483932495,-0.15674345195293427,0.5976694226264954,0.4370543360710144,0.6298596858978271,0.42000001668930054,-0.6487302780151367,-1.2656545639038086,-1.4021395444869995,3.000000238418579,-0.15639977157115936,-0.1532626748085022,-0.1483364999294281,-0.14237529039382935,-0.09279783815145493,-0.05722649395465851,-0.009545447304844856,0.04291858151555061
