vladlanda/robotic-transformer/data/env_000_episode_0201.csv
sim_time_s,robot_box_x,robot_box_y,robot_box_z,robot_box_quat_w,robot_box_quat_x,robot_box_quat_y,robot_box_quat_z,robot_box_linvel_x,robot_box_linvel_y,robot_box_linvel_z,robot_box_angvel_x,robot_box_angvel_y,robot_box_angvel_z,cube_world_x,cube_world_y,cube_world_z,cube_quat_w,cube_quat_x,cube_quat_y,cube_quat_z,cube_linvel_x,cube_linvel_y,cube_linvel_z,cube_angvel_x,cube_angvel_y,cube_angvel_z,endpoint_world_x,endpoint_world_y,endpoint_world_z,endpoint_linvel_x,endpoint_linvel_y,endpoint_linvel_z,target_cube_world_x,target_cube_world_y,target_cube_world_z,gripper_actual_pos_rad_gp_leftgearjoint,gripper_actual_vel_rad_s_gp_leftgearjoint,gripper_actual_pos_rad_gp_rotatingjoint,gripper_actual_vel_rad_s_gp_rotatingjoint,motor_angle_rad_joint1,motor_angle_rad_joint2,motor_angle_rad_joint3,motor_angle_rad_joint4,motor_speed_rad_s_joint1,motor_speed_rad_s_joint2,motor_speed_rad_s_joint3,motor_speed_rad_s_joint4
0.0,0.0,0.0,0.0,1.0,0.0,0.0,0.0,0.0,0.0,0.0,0.0,0.0,0.0,-0.42125239968299866,0.7281803488731384,0.41999998688697815,1.0,0.0,0.0,0.0,0.0,0.0,0.0,0.0,0.0,0.0,3.42540442943573e-06,-0.005000244826078415,1.313499927520752,0.0,0.0,0.0,0.3500496447086334,0.6620200276374817,0.42000001668930054,-1.5707999467849731,0.0,0.0,0.0,0.0,0.0,0.0,0.0,0.0,0.0,0.0,0.0
0.016666666666666666,0.0028778850100934505,0.0021806680597364902,0.0,0.9998081922531128,0.0,0.0,0.019586581736803055,0.24087215960025787,0.18240931630134583,0.0,0.0,0.0,3.1418697834014893,-0.4212525188922882,0.7281800508499146,0.41999998688697815,1.0,3.2799914606584935e-06,-8.339814598912199e-07,8.465387679734704e-08,-1.9833554688375443e-05,0.00017983050202019513,-6.133061833679676e-05,0.0009432226070202887,-0.004689437802881002,-0.0003198152990080416,-0.007110234349966049,0.003379564033821225,1.3159373998641968,-0.8143353462219238,0.9868683815002441,0.18095196783542633,0.3500496447086334,0.6620200276374817,0.42000001668930054,-1.5301095247268677,3.0000011920928955,-0.04584788903594017,-2.9999992847442627,0.0008691533003002405,0.0007963840034790337,0.0007110277656465769,0.0006108740926720202,0.11094217747449875,0.09756709635257721,0.08334315568208694,0.06823883205652237
0.03333333333333333,0.008960985578596592,0.00680196238681674,0.0,0.9997960329055786,0.0,0.0,0.020196842029690742,0.40702173113822937,0.3153083324432373,0.0,0.0,0.0,-0.8691312074661255,-0.42125263810157776,0.7281799912452698,0.4200000464916229,1.0,3.390914116607746e-06,-2.132455392711563e-06,-3.71076644967161e-08,0.0002635782293509692,0.00026937935035675764,-0.00010509486310184002,-0.001770757487975061,0.0041308156214654446,-0.00013547815615311265,-0.027551626786589622,0.026147615164518356,1.3166043758392334,-1.5914556980133057,1.615807294845581,-0.08400886505842209,0.3500496447086334,0.6620200276374817,0.42000001668930054,-1.4800904989242554,3.000000238418579,-0.09588774293661118,-3.0000014305114746,0.0029901231173425913,0.0026527398731559515,0.002277315827086568,0.0018607761012390256,0.16421820223331451,0.13976240158081055,0.11382178962230682,0.08630432188510895
0.05,0.017591148614883423,0.013738376088440418,0.0,0.9994295835494995,0.0,0.0,0.0337708555161953,0.5892212986946106,0.4638575613498688,0.0,0.0,0.0,2.6772308349609375,-0.42125266790390015,0.7281800508499146,0.4200000464916229,1.0,3.7652293940482195e-06,-2.2118967990536476e-06,5.613899567435965e-09,0.000265309150563553,0.0002669153909664601,-0.0001044049859046936,-0.00172426737844944,0.004177379421889782,-0.0001294983085244894,-0.059586051851511,0.05406246706843376,1.3115947246551514,-2.1859607696533203,1.7537543773651123,-0.47453683614730835,0.3500496447086334,0.6620200276374817,0.42000001668930054,-1.4300721883773804,3.0000009536743164,-0.14592640101909637,-2.999999523162842,0.005649430211633444,0.004860540386289358,0.0039995647966861725,0.003062000498175621,0.19164538383483887,0.15476113557815552,0.11601020395755768,0.07529875636100769
0.06666666666666667,0.028833962976932526,0.02301102876663208,0.0,0.999491274356842,0.0,0.0,0.03189421072602272,0.7160388231277466,0.5940455794334412,0.0,0.0,0.0,-1.1833536624908447,-0.42125266790390015,0.7281799912452698,0.4200000464916229,0.9999999403953552,3.4068445984303253e-06,-2.2855729184811935e-06,4.300823945868615e-07,0.000267024093773216,0.0002679175231605768,-0.0001043803058564663,-0.0017406325787305832,0.004211729858070612,-0.00012850853090640157,-0.09573804587125778,0.08890773355960846,1.2999372482299805,-2.189037799835205,2.3059067726135254,-0.8987624645233154,0.3500496447086334,0.6620200276374817,0.42000001668930054,-1.3800538778305054,2.9999990463256836,-0.19594451785087585,-2.999999523162842,0.007964112795889378,0.0063943518325686455,0.0047127120196819305,0.002916380064561963,0.12053234130144119,0.060007013380527496,-0.0025614090263843536,-0.06729619950056076
0.08333333333333333,0.03413984179496765,0.035644564777612686,0.0,0.9999992251396179,0.0,0.0,-0.0012288677971810102,0.18637606501579285,0.8246446251869202,0.0,0.0,0.0,-4.907474517822266,-0.42125266790390015,0.7281799912452698,0.4200000464916229,0.9999999403953552,3.6261940294934902e-06,-2.335324097657576e-06,3.032077131592814e-07,0.00026613869704306126,0.00026684990734793246,-0.00010405178181827068,-0.0017283851047977805,0.004196336027234793,-0.00012790512118954211,-0.13030359148979187,0.13140779733657837,1.2811853885650635,-2.0048625469207764,2.6640467643737793,-1.2622888088226318,0.3500496447086334,0.6620200276374817,0.42000001668930054,-1.3300294876098633,2.999990701675415,-0.1621806025505066,3.000000476837158,0.004337180871516466,0.0020629398059099913,-0.0003743038687389344,-0.002982255769893527,-0.31560632586479187,-0.3630833327770233,-0.413127064704895,-0.46605929732322693
0.1,0.04395516216754913,0.04957590997219086,0.0,0.9998064041137695,0.0,0.0,-0.019676920026540756,0.6783071160316467,0.8511925339698792,0.0,0.0,0.0,-0.6475696563720703,-0.42125266790390015,0.7281799912452698,0.4200000464916229,1.0,3.4221902751596645e-06,-2.308589955646312e-06,1.7962148035621794e-07,0.0002668164379429072,0.00026800547493621707,-0.00010440824553370476,-0.0017430244479328394,0.0042070322670042515,-0.00012891182268504053,-0.16569218039512634,0.1724654585123062,1.2622027397155762,-2.142460346221924,2.4793176651000977,-1.1340603828430176,0.3500496447086334,0.6620200276374817,0.42000001668930054,-1.280033826828003,3.0,-0.19387196004390717,-3.0000007152557373,0.004273881670087576,0.00038572479388676584,-0.0036597882863134146,-0.007871970534324646,0.005516675766557455,-0.09969032555818558,-0.20401814579963684,-0.3074294924736023
0.11666666666666667,0.05171794071793556,0.06146828830242157,0.0,0.9989219903945923,0.0,0.0,-0.04642082005739212,0.4653364419937134,0.6569205522537231,0.0,0.0,0.0,-3.882124423980713,-0.42125266790390015,0.7281800508499146,0.4200000464916229,1.0,3.7115696613909677e-06,-2.3326665541389957e-06,2.5742116349647404e-07,0.00026485652779228985,0.0002663531631696969,-0.00010423525236546993,-0.0017182076117023826,0.004170072730630636,-0.00012915638217236847,-0.19769035279750824,0.22026510536670685,1.2418928146362305,-1.7355420589447021,3.2105793952941895,-1.2421464920043945,0.3500496447086334,0.6620200276374817,0.42000001668930054,-1.230011224746704,2.9999914169311523,-0.16011187434196472,3.000000238418579,0.0023606515023857355,-0.0033929713536053896,-0.009275802411139011,-0.01529653649777174,-0.07555787265300751,-0.20536500215530396,-0.3320915400981903,-0.4555739462375641
0.13333333333333333,0.056627992540597916,0.07434120029211044,0.0,0.9952040910720825,0.0,0.0,-0.097819983959198,0.22503460943698883,0.8231123089790344,0.0,0.0,0.0,-6.973042011260986,-0.42125266790390015,0.7281799912452698,0.4200000464916229,1.0,3.33580555889057e-06,-2.2318915853247745e-06,3.1130230127018876e-07,0.0002666967629920691,0.00026759342290461063,-0.00010428694076836109,-0.0017371419817209244,0.004205943085253239,-0.0001284025638597086,-0.2274181842803955,0.27516645193099976,1.2198505401611328,-1.7842929363250732,3.4166083335876465,-1.4624969959259033,0.3500496447086334,0.6620200276374817,0.42000001668930054,-1.1949576139450073,1.3216692209243774,-0.19186314940452576,-3.000000238418579,-0.00016015887376852334,-0.007977267727255821,-0.015856711193919182,-0.023804068565368652,-0.22487467527389526,-0.33381935954093933,-0.4386216104030609,-0.5391362309455872
0.15,0.058331187814474106,0.08568868786096573,0.0,0.9917394518852234,0.0,0.0,-0.12826848030090332,0.05858990177512169,0.5851952433586121,0.0,0.0,0.0,-2.596862554550171,-0.42125266790390015,0.7281799912452698,0.4200000464916229,1.0,3.5190355447412003e-06,-2.283108187839389e-06,-3.6255448776501e-07,0.000266183604253456,0.0002673582639545202,-0.00010425667278468609,-0.0017349626868963242,0.004195743706077337,-0.00012861307186540216,-0.264835000038147,0.33011743426322937,1.1891396045684814,-2.295841693878174,3.4951882362365723,-2.188763380050659,0.3500496447086334,0.6620200276374817,0.42000001668930054,-1.1520106792449951,2.9999992847442627,-0.17851151525974274,3.0000007152557373,-0.004618968348950148,-0.013912788592278957,-0.02319079078733921,-0.03245825693011284,-0.3116254508495331,-0.3790845274925232,-0.44207465648651123,-0.5007051825523376
0.16666666666666666,0.05751873925328255,0.09726517647504807,0.0,0.985414981842041,0.0,0.0,-0.17016862332820892,-0.16738446056842804,0.7379112243652344,0.0,0.0,0.0,-5.869778156280518,-0.42125266790390015,0.7281799912452698,0.4200000464916229,1.0,3.666726797746378e-06,-2.339156480957172e-06,-3.150096574700001e-07,0.00026595761300995946,0.0002666733635123819,-0.0001040350180119276,-0.0017252563266083598,0.004192715510725975,-0.00012778647942468524,-0.3004913330078125,0.390898197889328,1.1513903141021729,-1.8776416778564453,3.8892459869384766,-2.3684418201446533,0.3500496447086334,0.6620200276374817,0.42000001668930054,-1.1020234823226929,2.999999523162842,-0.21012206375598907,-3.0,-0.011566095054149628,-0.021996930241584778,-0.032331448048353195,-0.04257644712924957,-0.5280012488365173,-0.5887190103530884,-0.6448394060134888,-0.6964165568351746
0.18333333333333332,0.06057705357670784,0.11100848019123077,0.0,0.9805120825767517,0.0,0.0,-0.19645889103412628,0.30117690563201904,0.865189790725708,0.0,0.0,0.0,-1.8765578269958496,-0.42125266790390015,0.7281799912452698,0.4200000464916229,1.0,3.814431011051056e-06,-2.3995532956178067e-06,-2.702744552607328e-07,0.0002654912241268903,0.000266111281234771,-0.00010391324758529663,-0.001717864186502993,0.00418497622013092,-0.00012754154158756137,-0.3357788324356079,0.4530426859855652,1.1040904521942139,-2.0196750164031982,3.802178382873535,-3.2824881076812744,0.3500496447086334,0.6620200276374817,0.42000001668930054,-1.0681040287017822,1.1980446577072144,-0.2601498067378998,-2.9999992847442627,-0.017990093678236008,-0.029207097366452217,-0.04024999588727951,-0.05113018676638603,-0.38545045256614685,-0.4082522690296173,-0.42731645703315735,-0.44307419657707214
0.2,0.060015998780727386,0.12182321399450302,0.0,0.9723212718963623,0.0,0.0,-0.23364797234535217,-0.07302003353834152,0.6222144365310669,0.0,0.0,0.0,-5.256550312042236,-0.42125266790390015,0.7281799912452698,0.4200000464916229,1.0,3.6001260923512746e-06,-2.2912167878530454e-06,-2.2018525669409428e-07,0.0002657284203451127,0.0002664485073182732,-0.00010398100130259991,-0.0017226488562300801,0.0041888137347996235,-0.00012773837079294026,-0.3682147264480591,0.5179949402809143,1.0422258377075195,-1.6827998161315918,4.056163311004639,-4.084824562072754,0.3500496447086334,0.6620200276374817,0.42000001668930054,-1.0233972072601318,2.9999988079071045,-0.31017544865608215,-3.0000007152557373,-0.030327079817652702,-0.041332975029945374,-0.05210050940513611,-0.06237196549773216,-0.756557047367096,-0.784325897693634,-0.8011804819107056,-0.7469658851623535
0.21666666666666667,0.06090860068798065,0.13348881900310516,0.0,0.9675683975219727,0.0,0.0,-0.2526092231273651,0.10488266497850418,0.7315436601638794,0.0,0.0,0.0,-1.0628281831741333,-0.42125266790390015,0.7281799912452698,0.4200000464916229,0.9999999403953552,3.6397161693457747e-06,-2.261916051793378e-06,2.224815318641049e-07,0.00026687278295867145,0.0002675443247426301,-0.00010411837138235569,-0.0017404217505827546,0.004211027175188065,-0.00012783741112798452,-0.3981204032897949,0.5785821676254272,0.9658938050270081,-1.5952632427215576,3.460906505584717,-4.9737396240234375,0.3500496447086334,0.6620200276374817,0.42000001668930054,-0.9733951687812805,3.00000262260437,-0.360202819108963,-2.999999523162842,-0.045930471271276474,-0.05672725662589073,-0.06687179952859879,-0.07550381124019623,-0.9808499217033386,-0.9621394276618958,-0.9012150168418884,-0.7860187292098999
0.23333333333333334,0.060260109603405,0.14269568026065826,0.0,0.9594552516937256,0.0,0.0,-0.2818610966205597,-0.0964917242527008,0.4725859761238098,0.0,0.0,0.0,-4.493980407714844,-0.42125263810157776,0.7281799912452698,0.4200000464916229,1.0,3.4208417218906106e-06,-2.3167299332271796e-06,2.955848401597905e-07,0.00026680331211537123,0.0002680404868442565,-0.00010442500934004784,-0.0017438061768189073,0.004206990823149681,-0.00012899591820314527,-0.4213094711303711,0.6347333192825317,0.8770948052406311,-1.0901155471801758,3.2030844688415527,-5.559547424316406,0.3500496447086334,0.6620200276374817,0.42000001668930054,-0.9233846664428711,3.000002145767212,-0.41023239493370056,-3.0,-0.062305063009262085,-0.07308409363031387,-0.08318594843149185,-0.09123291075229645,-0.9882261753082275,-0.9906262755393982,-0.9886555075645447,-0.9853554964065552
0.25,0.05599362403154373,0.1521071493625641,0.0,0.9561719298362732,0.0,0.0,-0.29280582070350647,-0.31847575306892395,0.6268344521522522,0.0,0.0,0.0,-0.315529465675354,-0.42125266790390015,0.7281799912452698,0.4200000464916229,0.9999999403953552,3.3477169836260146e-06,-2.259082293676329e-06,1.808312646289778e-07,0.0002668776432983577,0.0002679125755093992,-0.00010439660400152206,-0.0017405485268682241,0.0042083123698830605,-0.00012870294449385256,-0.4403631091117859,0.6777325868606567,0.780301034450531,-0.9438266754150391,2.1523942947387695,-6.0167765617370605,0.3500496447086334,0.6620200276374817,0.42000001668930054,-0.8733739852905273,3.0000009536743164,-0.46026331186294556,-2.999998092651367,-0.07881030440330505,-0.08954830467700958,-0.09960860759019852,-0.10762543231248856,-0.9904423952102661,-0.9921172857284546,-0.9919685125350952,-0.9899922013282776
0.26666666666666666,0.05549290031194687,0.1582334041595459,0.0,0.9490607976913452,0.0,0.0,-0.31509295105934143,0.007766228634864092,0.30835673213005066,0.0,0.0,0.0,-3.4522933959960938,-0.42125266790390015,0.7281799912452698,0.4200000464916229,0.9999999403953552,3.535839823598508e-06,-2.3001828139967984e-06,-1.268791862685248e-07,0.000266018119873479,0.00026712199905887246,-0.00010419473983347416,-0.0017316329758614302,0.004192839842289686,-0.00012849616177845746,-0.4531158208847046,0.7100982666015625,0.674064040184021,-0.4065346121788025,1.563315510749817,-6.581148147583008,0.3500496447086334,0.6620200276374817,0.42000001668930054,-0.8233639597892761,2.9999964237213135,-0.5102946162223816,-3.0,-0.09458889067173004,-0.10530376434326172,-0.11531788855791092,-0.12330760806798935,-0.9948261976242065,-0.9951722025871277,-0.9954493641853333,-0.995688259601593
0.2833333333333333,0.05148869752883911,0.16143694519996643,0.0,0.9480645656585693,0.0,0.0,-0.318077951669693,-0.30459120869636536,0.14538882672786713,0.0,0.0,0.0,0.5841359496116638,-0.42125266790390015,0.7281800508499146,0.4200000464916229,1.0,3.5935649975726847e-06,-2.262558382426505e-06,-5.655136803284222e-08,0.00026704679476097226,0.00026774988509714603,-0.00010416749864816666,-0.0017431802116334438,0.004214214626699686,-0.00012789499305654317,-0.4557444453239441,0.7242727875709534,0.5678801536560059,0.20004725456237793,0.34654974937438965,-6.143667221069336,0.3500496447086334,0.6620200276374817,0.42000001668930054,-0.7733551263809204,3.0000016689300537,-0.560324490070343,-2.9999992847442627,-0.11220303177833557,-0.12266743928194046,-0.1324959546327591,-0.14034301042556763,-1.0054728984832764,-1.004115343093872,-1.0030810832977295,-1.0022579431533813
0.3,0.043974556028842926,0.16224198043346405,0.0,0.9426154494285583,0.0,0.0,-0.33388033509254456,-0.42888277769088745,-0.023207828402519226,0.0,0.0,0.0,-2.815220832824707,-0.42125263810157776,0.7281799912452698,0.4200000464916229,0.9999999403953552,3.725162969203666e-06,-2.2359929516824195e-06,3.8286188441816194e-07,0.00026479855296202004,0.0002667319786269218,-0.0001045397948473692,-0.0017189806094393134,0.004166760481894016,-0.00013016823504585773,-0.4453910291194916,0.7275766134262085,0.4686984419822693,0.996973991394043,0.15766161680221558,-5.715414047241211,0.3500496447086334,0.6620200276374817,0.42000001668930054,-0.723346471786499,2.999993324279785,-0.6103531718254089,-3.000000238418579,-0.12918412685394287,-0.13954704999923706,-0.14933568239212036,-0.1571495085954666,-0.8684146404266357,-0.8941144943237305,-0.9199209809303284,-0.9412321448326111
0.31666666666666665,0.03536592796444893,0.16023015975952148,0.0,0.9429531097412109,0.0,0.0,-0.33292555809020996,-0.5517237186431885,-0.16232818365097046,0.0,0.0,0.0,1.0298913717269897,-0.4211302101612091,0.72779780626297,0.42022252082824707,0.9999709725379944,0.005494521930813789,5.551824506255798e-05,-0.005283118691295385,0.026629924774169922,-0.015913821756839752,0.01483246125280857,0.8643878698348999,-0.07542219758033752,-0.5735589265823364,-0.4365946650505066,0.7309873104095459,0.4284892678260803,0.039607927203178406,-0.0490882471203804,-0.20512615144252777,0.3500496447086334,0.6620200276374817,0.42000001668930054,-0.6733760833740234,2.9949305057525635,-0.6608132719993591,-3.002225399017334,-0.1375868022441864,-0.148649200797081,-0.15890896320343018,-0.16691181063652039,-0.1637914776802063,-0.21550409495830536,-0.2449422925710678,-0.2484673708677292
0.3333333333333333,0.024517331272363663,0.15580250322818756,0.0,0.9382423162460327,0.0,0.0,-0.34597891569137573,-0.7001475095748901,-0.3084591329097748,0.0,0.0,0.0,-2.5438356399536133,-0.42099595069885254,0.7278731465339661,0.42000019550323486,0.9999723434448242,1.0016161468229257e-05,1.636306660657283e-05,-0.007436678744852543,-0.001766146975569427,0.00379513599909842,-0.0008793328888714314,-0.044633448123931885,-0.050566013902425766,-0.008965464308857918,-0.43780601024627686,0.7331588268280029,0.42588603496551514,0.06581725180149078,0.12776225805282593,-0.21292540431022644,0.3500496447086334,0.6620200276374817,0.42000001668930054,-0.6233693957328796,2.999988555908203,-0.7108685374259949,-2.999992609024048,-0.1416575014591217,-0.15296772122383118,-0.16315670311450958,-0.17077939212322235,-0.3207675814628601,-0.2997356057167053,-0.26490241289138794,-0.2203974723815918
0.35,0.011502059176564217,0.14896216988563538,0.0,0.9392514228820801,0.0,0.0,-0.3432299494743347,-0.8190326690673828,-0.4515017569065094,0.0,0.0,0.0,1.2836753129959106,-0.41949039697647095,0.7305761575698853,0.42000022530555725,0.9993463158607483,8.98090274858987e-06,-2.6733632694231346e-06,-0.03615184128284454,0.19021496176719666,0.3420701026916504,-0.0004553720646072179,-0.02217022143304348,0.015545116737484932,-8.693073272705078,-0.43397945165634155,0.7377418279647827,0.42252326011657715,0.3511762022972107,0.39062607288360596,-0.1779056042432785,0.3500496447086334,0.6620200276374817,0.42000001668930054,-0.5733641386032104,3.000000476837158,-0.7609052658081055,-3.0000033378601074,-0.1488196700811386,-0.1589396744966507,-0.16773498058319092,-0.1738860011100769,-0.46096742153167725,-0.3616432249546051,-0.25152572989463806,-0.1404477059841156
0.36666666666666664,0.0021089494694024324,0.13927768170833588,0.0,0.935276448726654,0.0,0.0,-0.3539181053638458,-0.5168818235397339,-0.6237907409667969,0.0,0.0,0.0,-2.198171615600586,-0.4156855642795563,0.7366023659706116,0.42000025510787964,0.9948464035987854,-9.31392605707515e-06,9.410946404386777e-06,-0.10139280557632446,0.22567719221115112,0.34487321972846985,-0.00040028325747698545,0.01852288469672203,-0.004067916423082352,-7.148987770080566,-0.4271855354309082,0.7423261404037476,0.4199538826942444,0.5362588763237,0.2747519314289093,-0.1460605412721634,0.3500496447086334,0.6620200276374817,0.42000001668930054,-0.5233592987060547,2.9999825954437256,-0.8109602332115173,-2.999978542327881,-0.15713267028331757,-0.16498492658138275,-0.1713135689496994,-0.17500101029872894,-0.5625991821289062,-0.3900262117385864,-0.2069195806980133,-0.027294950559735298
0.3833333333333333,-0.010139765217900276,0.12805014848709106,0.0,0.9292352795600891,0.0,0.0,-0.3694886267185211,-0.8119897842407227,-0.6985436081886292,0.0,0.0,0.0,-1.8704168796539307,-0.4092240631580353,0.7447117567062378,0.4200000762939453,0.9814750552177429,1.03895890788408e-05,-3.303441644675331e-06,-0.19158948957920074,0.5620723962783813,0.6501727104187012,-0.00031922856578603387,-0.022395726293325424,0.01814928650856018,-16.48140525817871,-0.4168269634246826,0.7498318552970886,0.4204080104827881,0.7842145562171936,0.7024508118629456,0.07433696836233139,0.3500496447086334,0.6620200276374817,0.42000001668930054,-0.47330835461616516,3.0000009536743164,-0.8609640002250671,-2.999973773956299,-0.16903801262378693,-0.17330573499202728,-0.17587414383888245,-0.17588816583156586,-0.6895000338554382,-0.4712049663066864,-0.24192382395267487,-0.01783023029565811
0.4,-0.01899459771811962,0.11408056318759918,0.0,0.9151102304458618,0.0,0.0,-0.4032038152217865,-0.4873681962490082,-0.8802281022071838,0.0,0.0,0.0,-5.182686805725098,-0.39507195353507996,0.7594359517097473,0.4211500585079193,0.9670895338058472,-0.028129341080784798,0.006228308659046888,-0.2527998089790344,1.4975943565368652,0.682183027267456,0.3734464645385742,-12.760273933410645,-4.200613498687744,-8.922782897949219,-0.40078380703926086,0.7630069255828857,0.422385036945343,1.151282548904419,0.8854231834411621,0.15150830149650574,0.3500496447086334,0.6620200276374817,0.42000001668930054,-0.4232398569583893,2.9754087924957275,-0.9109699130058289,-2.998940944671631,-0.17792047560214996,-0.17863795161247253,-0.17736665904521942,-0.17352569103240967,-0.51026850938797,-0.27709224820137024,-0.024764617905020714,0.22946658730506897
0.4166666666666667,-0.02443096600472927,0.0973280519247055,0.0,0.8880206942558289,0.0,0.0,-0.4598034918308258,-0.23309779167175293,-1.0652711391448975,0.0,0.0,0.0,-8.324865341186523,-0.36440935730934143,0.7791767716407776,0.42589303851127625,0.9512220025062561,-0.04189741238951683,-0.015504060313105583,-0.305255264043808,2.7916183471679688,1.647876262664795,0.43080517649650574,27.701440811157227,-19.87825584411621,6.8837151527404785,-0.36953797936439514,0.7844334840774536,0.426312118768692,2.61161470413208,1.6669135093688965,0.4591672420501709,0.3500496447086334,0.6620200276374817,0.42000001668930054,-0.38057976961135864,1.5544288158416748,-0.960992157459259,-2.999988555908203,-0.1871754378080368,-0.1838206946849823,-0.17820487916469574,-0.17003920674324036,-0.5599299073219299,-0.3067728579044342,-0.04122406989336014,0.21913202106952667
0.43333333333333335,-0.02964327484369278,0.0856233537197113,0.0,0.8440382480621338,0.0,0.0,-0.536283016204834,-0.3069010376930237,-0.5742824673652649,0.0,0.0,0.0,-11.405141830444336,-0.29430171847343445,0.8120306730270386,0.43275779485702515,0.9321300983428955,0.013380654156208038,-0.05733868479728699,-0.3573046326637268,5.7907328605651855,1.920987844467163,0.47157174348831177,16.56477928161621,-14.124960899353027,17.027359008789062,-0.2991524338722229,0.8174158334732056,0.43309396505355835,5.4390692710876465,2.405701160430908,0.5062414407730103,0.3500496447086334,0.6620200276374817,0.42000001668930054,-0.36715951561927795,0.5494634509086609,-0.9236125946044922,2.997283697128296,-0.20246277749538422,-0.19513584673404694,-0.18376922607421875,-0.17031697928905487,-0.8852392435073853,-0.7641773819923401,-0.42750006914138794,-0.12915748357772827
0.45,-0.03204963356256485,0.07786041498184204,0.0,0.8065046072006226,0.0,0.0,-0.5912277698516846,-0.064432792365551,-0.4822843372821808,0.0,0.0,0.0,-6.442408561706543,-0.20374695956707,0.848595917224884,0.44311466813087463,0.8862776756286621,0.05972843989729881,-0.08143161237239838,-0.45201006531715393,5.716225624084473,1.563319444656372,0.9348633289337158,-0.9552611112594604,1.0094120502471924,3.296201705932617,-0.20864638686180115,0.8548535704612732,0.44345301389694214,5.611078262329102,2.12442684173584,0.7088105082511902,0.3500496447086334,0.6620200276374817,0.42000001668930054,-0.35712915658950806,0.7014355659484863,-0.9387369751930237,-2.999473810195923,-0.21254083514213562,-0.2062229961156845,-0.19092802703380585,-0.17375700175762177,-0.40094828605651855,-0.48794883489608765,-0.33554607629776,-0.19369705021381378
0.4666666666666667,-0.035830531269311905,0.06588036566972733,0.0,0.7890611290931702,0.0,0.0,-0.6143146753311157,-0.20651134848594666,-0.634946882724762,0.0,0.0,0.0,-2.186140537261963,-0.1095861941576004,0.8718186616897583,0.4562954902648926,0.822958767414093,0.06830180436372757,-0.0856797844171524,-0.5574339032173157,5.692793846130371,0.05132249742746353,0.9954675436019897,11.622968673706055,-1.6531989574432373,17.13374137878418,-0.1148667261004448,0.8793285489082336,0.45641815662384033,5.879843711853027,0.7197802662849426,0.8559213876724243,0.3500496447086334,0.6620200276374817,0.42000001668930054,-0.3431612551212311,0.8818479180335999,-0.9887609481811523,-3.0000016689300537,-0.21970315277576447,-0.21307294070720673,-0.19451428949832916,-0.17438344657421112,-0.7165594696998596,-0.5723287463188171,-0.3066767156124115,-0.06871156394481659
0.48333333333333334,-0.041068755090236664,0.05327296257019043,0.0,0.7648645639419556,0.0,0.0,-0.6441910862922668,-0.37846267223358154,-0.8006594181060791,0.0,0.0,0.0,-5.427326679229736,-0.015494581311941147,0.8695086240768433,0.4677407443523407,0.7699631452560425,0.06452937424182892,-0.07339838892221451,-0.6305595636367798,5.32200288772583,-1.6819665431976318,0.5719957947731018,-12.014179229736328,-8.666409492492676,30.295204162597656,-0.01937263458967209,0.8794331550598145,0.4683980941772461,5.8224897384643555,-0.6417099833488464,0.7502744197845459,0.3500496447086334,0.6620200276374817,0.42000001668930054,-0.3294244408607483,0.6036584377288818,-1.0387835502624512,-3.000002145767212,-0.23308944702148438,-0.222774475812912,-0.19926312565803528,-0.17467448115348816,-0.8317277431488037,-0.5572828054428101,-0.245282843708992,0.03654111921787262
0.5,-0.0446712002158165,0.043723031878471375,0.0,0.7531330585479736,0.0,0.0,-0.6578682065010071,-0.14122769236564636,-0.5041240453720093,0.0,0.0,0.0,-1.03645920753479,0.07161663472652435,0.8516361713409424,0.4755427837371826,0.7177310585975647,0.04490386322140694,-0.05517256259918213,-0.6926772594451904,4.654218673706055,-2.146498203277588,0.3452318608760834,-7.3181281089782715,-4.056972980499268,18.332874298095703,0.06948262453079224,0.8609111309051514,0.47678476572036743,5.132294654846191,-1.510042428970337,0.3970580995082855,0.3500496447086334,0.6620200276374817,0.42000001668930054,-0.31926214694976807,0.5662904977798462,-1.0888056755065918,-3.000002145767212,-0.2399502992630005,-0.23186048865318298,-0.20401453971862793,-0.1756269633769989,-0.022208118811249733,-0.430307000875473,-0.23977616429328918,-0.0798976868391037
0.5166666666666666,-0.04422036185860634,0.034125979989767075,0.0,0.7330952286720276,0.0,0.0,-0.6801259517669678,0.07868082821369171,-0.5547119975090027,0.0,0.0,0.0,-4.513980388641357,0.15055646002292633,0.8231552839279175,0.47194984555244446,0.6375271677970886,-0.07929648458957672,-0.13372424244880676,-0.7545786499977112,4.188186168670654,-2.2567057609558105,-0.3978068232536316,-21.43669319152832,2.456923246383667,6.647214412689209,0.14785021543502808,0.834655225276947,0.4799174666404724,4.485881805419922,-1.8506755828857422,0.04085812345147133,0.3500496447086334,0.6620200276374817,0.42000001668930054,-0.3083847165107727,0.7120440602302551,-1.1388278007507324,-3.000000476837158,-0.23643183708190918,-0.23437614738941193,-0.20487165451049805,-0.1751713752746582,0.26589372754096985,-0.01704527623951435,0.03475397825241089,0.06812378764152527
0.5333333333333333,-0.0428919717669487,0.029153592884540558,0.0,0.7253836989402771,0.0,0.0,-0.6883447766304016,0.10580035299062729,-0.20211435854434967,0.0,0.0,0.0,-0.36310407519340515,0.2167424112558365,0.7879838943481445,0.4670134484767914,0.5681615471839905,-0.13474136590957642,-0.10971417278051376,-0.8043631315231323,3.6516096591949463,-2.2314417362213135,-0.3608364760875702,-9.49662971496582,5.4717559814453125,-13.332391738891602,0.2154940664768219,0.8002117872238159,0.476279079914093,3.6568989753723145,-2.258579730987549,-0.37087753415107727,0.3500496447086334,0.6620200276374817,0.42000001668930054,-0.29238957166671753,1.0271917581558228,-1.188849925994873,-2.999999761581421,-0.2327856719493866,-0.23418672382831573,-0.2045421004295349,-0.1750125288963318,0.2991059422492981,0.12888763844966888,0.07381625473499298,0.003396870568394661
0.55,-0.038652416318655014,0.02080046385526657,0.0,0.7084670066833496,0.0,0.0,-0.7057439088821411,0.27390429377555847,-0.5432397723197937,0.0,0.0,0.0,-3.7582671642303467,0.27298760414123535,0.7546448111534119,0.45455506443977356,0.5224570035934448,-0.13189998269081116,-0.10979855805635452,-0.8352156281471252,3.1439075469970703,-2.504563331604004,-0.6657059788703918,-2.538975715637207,15.277756690979004,24.68768882751465,0.272053599357605,0.7657328248023987,0.4655953347682953,2.9365828037261963,-2.0394833087921143,-0.8391326665878296,0.3500496447086334,0.6620200276374817,0.42000001668930054,-0.2702789306640625,1.2341605424880981,-1.1619681119918823,2.9996323585510254,-0.22355763614177704,-0.22775693237781525,-0.20043957233428955,-0.17338624596595764,0.5543432235717773,0.4314388632774353,0.25836119055747986,0.07584228366613388
0.5666666666666667,-0.032166171818971634,0.016622168943285942,0.0,0.7036203742027283,0.0,0.0,-0.710576057434082,0.4166460633277893,-0.21859590709209442,0.0,0.0,0.0,0.13564428687095642,0.31596094369888306,0.7190679907798767,0.44039851427078247,0.4969085156917572,-0.15828604996204376,-0.08471779525279999,-0.8490290641784668,2.169597625732422,-2.7044119834899902,-0.6034342050552368,2.6086161136627197,12.614131927490234,4.5764994621276855,0.31617528200149536,0.7298389077186584,0.4514537751674652,2.290912389755249,-2.055272102355957,-0.9171517491340637,0.3500496447086334,0.6620200276374817,0.42000001668930054,-0.25854364037513733,0.1491411179304123,-1.183971881866455,-2.999328374862671,-0.21694758534431458,-0.22233517467975616,-0.1981380134820938,-0.1743791550397873,0.49390751123428345,0.4120280146598816,0.16685953736305237,-0.08175458014011383
0.5833333333333334,-0.027826683595776558,0.015554580837488174,0.0,0.6904814839363098,0.0,0.0,-0.7233500480651855,0.20057035982608795,-0.0012658184859901667,0.0,0.0,0.0,-3.0581820011138916,0.34924036264419556,0.6896222233772278,0.4246777892112732,0.49911224842071533,-0.11513945460319519,-0.06522736698389053,-0.8563733100891113,1.3965328931808472,-1.0818783044815063,-0.07458095252513885,28.52493667602539,0.1481061577796936,-1.4532126188278198,0.34830379486083984,0.6990030407905579,0.4340149164199829,1.2746987342834473,-1.4230341911315918,-0.48112812638282776,0.3500496447086334,0.6620200276374817,0.42000001668930054,-0.25299322605133057,0.45139452815055847,-1.1461397409439087,3.0000064373016357,-0.20802171528339386,-0.21505427360534668,-0.19575795531272888,-0.17679378390312195,0.6032471060752869,0.4983347952365875,0.17350251972675323,-0.13676269352436066
0.6,-0.0223525483161211,0.010438541881740093,0.0,0.689490795135498,0.0,0.0,-0.7242944240570068,0.31492725014686584,-0.3071252703666687,0.0,0.0,0.0,0.7430199980735779,0.3638031482696533,0.6731019020080566,0.42275068163871765,0.4984833002090454,-0.0503249391913414,0.0073152026161551476,-0.8654064536094666,0.2571771442890167,-1.1799206733703613,0.37396538257598877,-7.200067043304443,12.799996376037598,24.39601707458496,0.3621339499950409,0.6803467273712158,0.42926064133644104,0.20038628578186035,-0.5919946432113647,0.4040925204753876,0.3500496447086334,0.6620200276374817,0.42000001668930054,-0.24466459453105927,0.1796179562807083,-1.1683844327926636,-2.9989922046661377,-0.19476208090782166,-0.20370067656040192,-0.19029703736305237,-0.17692188918590546,0.7325605154037476,0.6474379897117615,0.31081047654151917,-0.005425766576081514
0.6166666666666667,-0.014908620156347752,0.009396394714713097,0.0,0.6786358952522278,0.0,0.0,-0.7344748377799988,0.4959924519062042,-0.05286673456430435,0.0,0.0,0.0,-2.5728845596313477,0.3690381348133087,0.6656996011734009,0.42142409086227417,0.5290375351905823,-0.022894589230418205,0.012113984674215317,-0.8482030034065247,0.2965330481529236,-0.34895238280296326,-0.21892639994621277,5.838431358337402,-6.964885711669922,3.2238142490386963,0.3655014932155609,0.6723402738571167,0.42729178071022034,0.19301393628120422,-0.3563704490661621,-0.45319512486457825,0.3500496447086334,0.6620200276374817,0.42000001668930054,-0.25547242164611816,-1.0603034496307373,-1.1305779218673706,2.9999959468841553,-0.18364831805229187,-0.19405828416347504,-0.18637017905712128,-0.17831885814666748,0.7405571937561035,0.6359173655509949,0.2774937152862549,-0.05424204841256142
0.6333333333333333,-0.007397030480206013,0.010492594912648201,0.0,0.6806256175041199,0.0,0.0,-0.7326313853263855,0.43581336736679077,0.16483540832996368,0.0,0.0,0.0,1.2085493803024292,0.3703862428665161,0.6619665622711182,0.4200000762939453,0.5547294616699219,2.95173504127888e-05,-1.3692590073333122e-05,-0.8320307731628418,-0.045365992933511734,-0.16568167507648468,-0.0007125586271286011,-0.009516906924545765,0.03806201368570328,2.2183313369750977,0.36555805802345276,0.6688858270645142,0.4282127618789673,-0.12354349344968796,-0.12738291919231415,0.14546644687652588,0.3500496447086334,0.6620200276374817,0.42000001668930054,-0.29953134059906006,-3.0000007152557373,-1.1523170471191406,-2.9994025230407715,-0.17296305298805237,-0.18460896611213684,-0.1822481006383896,-0.17905370891094208,0.5595529079437256,0.5088416934013367,0.2191612422466278,-0.04434913769364357
0.65,0.0012549922103062272,0.008923253044486046,0.0,0.6739581227302551,0.0,0.0,-0.7387695908546448,0.5429930090904236,-0.12403060495853424,0.0,0.0,0.0,-2.462116241455078,0.3696293532848358,0.6603667736053467,0.41999951004981995,0.5726999640464783,-6.065704656066373e-05,-4.329597140895203e-05,-0.8197650909423828,-0.08997838199138641,-0.04803319647908211,-0.001871660235337913,0.052538368850946426,-0.049615196883678436,6.300507068634033,0.3650830388069153,0.6708099842071533,0.43091991543769836,-0.09118643403053284,0.23810981214046478,0.17679469287395477,0.3500496447086334,0.6620200276374817,0.42000001668930054,-0.3458559811115265,-2.543027877807617,-1.202273964881897,-2.9990618228912354,-0.16122296452522278,-0.17403723299503326,-0.17659474909305573,-0.17786109447479248,0.6182777881622314,0.5716944932937622,0.31110134720802307,0.07405473291873932
0.6666666666666666,0.012016684748232365,0.010919054038822651,0.0,0.6763610243797302,0.0,0.0,-0.7365702986717224,0.6637952923774719,0.1425953507423401,0.0,0.0,0.0,1.290732741355896,0.36786478757858276,0.6600885987281799,0.42000022530555725,0.5921443104743958,4.2247447140653094e-07,1.1383006494725123e-05,-0.8058319687843323,-0.11506612598896027,0.006597960367798805,-0.00026509928284212947,-0.005495903547853231,-0.013187957927584648,1.449928641319275,0.3624055087566376,0.6734262704849243,0.43388959765434265,-0.13739052414894104,0.17088446021080017,0.20056383311748505,0.3500496447086334,0.6620200276374817,0.42000001668930054,-0.39560171961784363,-2.999955177307129,-1.2522544860839844,-2.9993369579315186,-0.15420196950435638,-0.16713590919971466,-0.17313483357429504,-0.17752958834171295,0.4296702444553375,0.4233039617538452,0.23408634960651398,0.06196444481611252
0.6833333333333333,0.020215187221765518,0.008533554151654243,0.0,0.6995596885681152,0.0,0.0,-0.7145741581916809,0.42868438363075256,-0.18369701504707336,0.0,0.0,0.0,4.552794933319092,0.3657068908214569,0.660294234752655,0.42023175954818726,0.5899341702461243,0.0034601290244609118,-0.0046701147221028805,-0.8074304461479187,-0.23362813889980316,0.017612995579838753,0.04163539409637451,-0.613213062286377,-1.992568850517273,-0.728549599647522,0.35980886220932007,0.6751541495323181,0.43729257583618164,-0.25201135873794556,0.07521523535251617,0.22042210400104523,0.3500496447086334,0.6620200276374817,0.42000001668930054,-0.4456150233745575,-2.9999918937683105,-1.302230715751648,-2.9994266033172607,-0.14707115292549133,-0.15951964259147644,-0.16778065264225006,-0.17420758306980133,0.2640027701854706,0.3438320457935333,0.2746276259422302,0.21432247757911682
0.7,0.02890782803297043,0.002855770755559206,0.0,0.7076137661933899,0.0,0.0,-0.7065994143486023,0.55507892370224,-0.38404595851898193,0.0,0.0,0.0,0.33891984820365906,0.36239778995513916,0.6605445742607117,0.42007458209991455,0.5861048102378845,0.0010663510765880346,-0.001495298114605248,-0.8102330565452576,-0.1867375373840332,0.013671346008777618,-0.02656613662838936,0.4164280295372009,1.2825961112976074,-0.5320910811424255,0.35829389095306396,0.6769521236419678,0.44248324632644653,-0.0880754142999649,0.07178820669651031,0.3683461844921112,0.3500496447086334,0.6620200276374817,0.42000001668930054,-0.4956204295158386,-2.9990148544311523,-1.3522005081176758,-2.9999802112579346,-0.1445995271205902,-0.15476864576339722,-0.1628044992685318,-0.16879157721996307,0.1011650562286377,0.2784506380558014,0.3537999391555786,0.4435778856277466
0.7166666666666667,0.03947661444544792,-0.005796155426651239,0.0,0.6945241093635559,0.0,0.0,-0.719469428062439,0.6711329817771912,-0.5850561857223511,0.0,0.0,0.0,-3.068976402282715,0.36047837138175964,0.6606707572937012,0.4200000464916229,0.5840428471565247,1.5314060419768794e-07,-2.2276571698398584e-08,-0.8117226958274841,-0.09214024990797043,0.006195428781211376,-6.558606401085854e-06,-0.0003006106708198786,2.895219950005412e-05,-0.2483244091272354,0.3624333143234253,0.6794033050537109,0.45557913184165955,0.5397394895553589,0.18222270905971527,1.3026446104049683,0.3500496447086334,0.6620200276374817,0.42000001668930054,-0.5456330180168152,-2.9999823570251465,-1.4022188186645508,-2.9999992847442627,-0.1456006020307541,-0.1525949090719223,-0.15885555744171143,-0.1628524661064148,-0.14029893279075623,0.05650017037987709,0.18477793037891388,0.32394853234291077
0.7333333333333333,0.053711265325546265,-0.008755992166697979,0.0,0.6596609354019165,0.0,0.0,-0.7515633702278137,0.9275177717208862,-0.041816167533397675,0.0,0.0,0.0,-6.706799030303955,0.3599231243133545,0.6607077717781067,0.42000001668930054,0.583497941493988,-4.250262918503722e-06,3.3368062304361956e-06,-0.8121145963668823,-0.010769536718726158,0.0006916585261933506,-0.00018617382738739252,-0.002064145402982831,-0.008192548528313637,-0.02845388650894165,0.3805263042449951,0.67679363489151,0.48297256231307983,1.6862367391586304,-0.4384515881538391,2.134425640106201,0.3500496447086334,0.6620200276374817,0.42000001668930054,-0.5956441760063171,-2.9998347759246826,-1.4522371292114258,-2.9999771118164062,-0.15693992376327515,-0.15910519659519196,-0.1615162193775177,-0.1616394966840744,-0.8658217787742615,-0.5436529517173767,-0.26888105273246765,0.0028112512081861496
0.75,0.06473641842603683,-0.006835834588855505,0.0,0.6372817158699036,0.0,0.0,-0.7706308960914612,0.5777721405029297,-0.08393118530511856,0.0,0.0,0.0,-2.0755014419555664,0.3599226176738739,0.660707950592041,0.4200000464916229,0.5834984183311462,8.116268759295053e-07,-3.187967877238407e-06,-0.8121142983436584,0.00016824365593492985,-0.000258634943747893,-9.364821016788483e-05,0.005796835292130709,-0.0004133501788601279,-0.000781406182795763,0.4059921205043793,0.6739379167556763,0.5209541320800781,1.559065580368042,0.06136348471045494,2.3656554222106934,0.3500496447086334,0.6620200276374817,0.42000001668930054,-0.61480313539505,0.4196593463420868,-1.5022554397583008,-2.9999992847442627,-0.1678982526063919,-0.16687366366386414,-0.16587699949741364,-0.162705197930336,-0.1977061629295349,-0.14631342887878418,-0.07179930806159973,0.0025627112481743097
0.7666666666666666,0.07106591016054153,-0.006071321666240692,0.0,0.6419953107833862,0.0,0.0,-0.7667085528373718,0.308098703622818,0.09487456828355789,0.0,0.0,0.0,1.5875202417373657,0.3599226474761963,0.6607080101966858,0.4200000464916229,0.5834981203079224,4.352872053914325e-07,-2.7747994408855448e-06,-0.8121143579483032,0.00010314028622815385,-0.0002706176892388612,-8.893175981938839e-05,0.006405325140804052,-0.001503706444054842,-0.0006717716460116208,0.4268922209739685,0.6762067079544067,0.5545653104782104,0.9077773094177246,0.21221241354942322,1.741863489151001,0.3500496447086334,0.6620200276374817,0.42000001668930054,-0.5857274532318115,2.8347384929656982,-1.463523268699646,2.999997615814209,-0.16964270174503326,-0.1680452823638916,-0.16610804200172424,-0.16204221546649933,-3.2014213502407074e-09,0.014053834602236748,0.04864412918686867,0.07726851850748062
0.7833333333333333,0.07309915870428085,-0.010177724063396454,0.0,0.6350823640823364,0.0,0.0,-0.7724444270133972,0.1588543951511383,-0.2699372470378876,0.0,0.0,0.0,-1.802140235900879,0.3599226474761963,0.6607080101966858,0.4200000464916229,0.5834983587265015,4.244789124641102e-07,-2.999724756591604e-06,-0.8121142387390137,0.00010313699749531224,-0.000270668271696195,-8.887634612619877e-05,0.006408400367945433,-0.0015013506636023521,-0.0006715720519423485,0.4358900189399719,0.6819385886192322,0.5774495005607605,0.06671083718538284,0.25749942660331726,1.1282099485397339,0.3500496447086334,0.6620200276374817,0.42000001668930054,-0.5408156514167786,2.543642044067383,-1.4134706258773804,2.9999990463256836,-0.16499710083007812,-0.16392889618873596,-0.16220471262931824,-0.1584581881761551,0.11299052834510803,0.11793505400419235,0.1346226930618286,0.1371418684720993
0.8,0.07309596985578537,-0.008898826315999031,0.0,0.6408892273902893,0.0,0.0,-0.7676333785057068,-0.034597545862197876,0.10028350353240967,0.0,0.0,0.0,1.6423026323318481,0.3599226474761963,0.6607080101966858,0.4200000464916229,0.5834981799125671,4.071115142778581e-07,-3.042517391804722e-06,-0.8121143579483032,0.00010193902562605217,-0.000271037220954895,-8.857413195073605e-05,0.006424271035939455,-0.0015165400691330433,-0.0006693379837088287,0.43025726079940796,0.684971809387207,0.5928734540939331,-0.5912286043167114,0.2292260229587555,0.7466590404510498,0.3500496447086334,0.6620200276374817,0.42000001668930054,-0.49198758602142334,3.000000238418579,-1.363425612449646,3.000000476837158,-0.16704991459846497,-0.16504019498825073,-0.16230398416519165,-0.1579127162694931,-0.0036568772047758102,0.02403663843870163,0.05598300322890282,0.06759669631719589
0.8166666666666667,0.07095304876565933,-0.011303200386464596,0.0,0.6342810988426208,0.0,0.0,-0.7731025218963623,-0.1557018905878067,-0.22010450065135956,0.0,0.0,0.0,-1.9640980958938599,0.3599226474761963,0.660707950592041,0.4200000464916229,0.5834980010986328,4.774657327288878e-07,-2.9026257379882736e-06,-0.8121145367622375,0.00010873181599890813,-0.00026677633286453784,-9.018718264997005e-05,0.006280433386564255,-0.001416849554516375,-0.0006785676232539117,0.4153403043746948,0.6886340975761414,0.5988122224807739,-1.2240469455718994,0.17228734493255615,0.14732204377651215,0.3500496447086334,0.6620200276374817,0.42000001668930054,-0.4668770730495453,0.23149383068084717,-1.3133729696273804,3.0,-0.16529062390327454,-0.16313762962818146,-0.16019560396671295,-0.1559128314256668,0.12379538267850876,0.13372254371643066,0.14484886825084686,0.13622507452964783
0.8333333333333334,0.07050987333059311,-0.009064340963959694,0.0,0.6390464305877686,0.0,0.0,-0.7691681385040283,-0.0008339237538166344,0.1122826337814331,0.0,0.0,0.0,1.2548260688781738,0.3599226176738739,0.660707950592041,0.4200000464916229,0.5834980010986328,5.030002512285137e-07,-2.9486061521311058e-06,-0.8121145367622375,0.00010819714225362986,-0.0002661674516275525,-9.013758972287178e-05,0.006266995798796415,-0.0014226081548258662,-0.0006768712773919106,0.3969423174858093,0.6918262243270874,0.599432647228241,-0.8211678266525269,0.36758023500442505,-0.04260401055216789,0.3500496447086334,0.6620200276374817,0.42000001668930054,-0.44586417078971863,2.1146905422210693,-1.2633525133132935,3.000000238418579,-0.16769270598888397,-0.16479583084583282,-0.1611163318157196,-0.15643934905529022,0.06330431997776031,0.04363280162215233,0.03106367029249668,0.008145040832459927
0.85,0.0708998441696167,-0.01182336825877428,0.0,0.6307387351989746,0.0,0.0,-0.7759952545166016,0.07695761322975159,-0.1770089715719223,0.0,0.0,0.0,-2.0073294639587402,0.3599226176738739,0.6607080101966858,0.4200000464916229,0.5834983587265015,4.503485513396299e-07,-3.0701605737704085e-06,-0.8121143579483032,0.00010545796249061823,-0.0002675444702617824,-8.945981971919537e-05,0.006316829472780228,-0.0014601225266233087,-0.0006726384744979441,0.386148601770401,0.6967835426330566,0.5967025756835938,-0.5625969171524048,0.12755374610424042,-0.16039137542247772,0.3500496447086334,0.6620200276374817,0.42000001668930054,-0.45891326665878296,-2.999992609024048,-1.213302731513977,2.9999992847442627,-0.16443435847759247,-0.16220781207084656,-0.15902434289455414,-0.15491870045661926,0.04380106180906296,0.039991866797208786,0.04490036517381668,0.04462895542383194
0.8666666666666667,0.07438769191503525,-0.011259812861680984,0.0,0.635451078414917,0.0,0.0,-0.7721410989761353,0.2395792156457901,0.08323151618242264,0.0,0.0,0.0,1.4823118448257446,0.3599226474761963,0.6607080101966858,0.4200000464916229,0.5834980607032776,4.483331110805011e-07,-2.9576285669463687e-06,-0.812114417552948,0.00010190543252974749,-0.0002707740350160748,-8.852314203977585e-05,0.006418376229703426,-0.0015142386546358466,-0.0006688039284199476,0.38230568170547485,0.6986183524131775,0.593802273273468,0.11468693614006042,0.15839555859565735,-0.1665242463350296,0.3500496447086334,0.6620200276374817,0.42000001668930054,-0.48354390263557434,-0.1785650998353958,-1.2345678806304932,-3.0000009536743164,-0.1654503047466278,-0.1627608984708786,-0.15894003212451935,-0.154236301779747,0.018956905230879784,0.035646554082632065,0.06750454753637314,0.10335910320281982
0.8833333333333333,0.07966076582670212,-0.013789561577141285,0.0,0.6279115676879883,0.0,0.0,-0.7782846689224243,0.3532877564430237,-0.1870676726102829,0.0,0.0,0.0,-2.0296075344085693,0.3599226474761963,0.660707950592041,0.4200000464916229,0.5834978818893433,4.5352007305154984e-07,-2.8133156320109265e-06,-0.8121145963668823,0.00010848779493244365,-0.0002668313682079315,-9.012664668262005e-05,0.006283045746386051,-0.0014200701843947172,-0.0006781034753657877,0.3870672583580017,0.6991308927536011,0.5878102779388428,0.42256274819374084,-0.14002548158168793,-0.37472617626190186,0.3500496447086334,0.6620200276374817,0.42000001668930054,-0.520538330078125,-2.999997854232788,-1.1965917348861694,3.000000476837158,-0.1639121174812317,-0.16106852889060974,-0.15683439373970032,-0.15161100029945374,-0.003912008833140135,0.03491223230957985,0.08581865578889847,0.14077365398406982
0.9,0.08725003898143768,-0.01298519130796194,0.0,0.6302229166030884,0.0,0.0,-0.7764142751693726,0.4761730134487152,0.08892247825860977,0.0,0.0,0.0,1.7587536573410034,0.3599226474761963,0.660707950592041,0.4200000464916229,0.5834980607032776,4.4771653051611793e-07,-2.85230976260209e-06,-0.8121144771575928,0.00010946512338705361,-0.0002664692001417279,-9.039859287440777e-05,0.006267414428293705,-0.0014088103780522943,-0.0006802143179811537,0.39578360319137573,0.6975115537643433,0.5850718021392822,0.62212073802948,-0.022808019071817398,0.07802954316139221,0.3500496447086334,0.6620200276374817,0.42000001668930054,-0.5424594283103943,0.11802613735198975,-1.2181241512298584,-3.0,-0.16503047943115234,-0.1617102473974228,-0.15683020651340485,-0.1508990377187729,0.010089706629514694,0.010386952199041843,0.019723201170563698,0.03371306136250496
0.9166666666666666,0.09211339056491852,-0.016544008627533913,0.0,0.6558868885040283,0.0,0.0,-0.7548591494560242,0.23792634904384613,-0.24708791077136993,0.0,0.0,0.0,4.977075576782227,0.3599226474761963,0.660707950592041,0.4200000464916229,0.5834978818893433,4.592691311700037e-07,-2.8935846785316244e-06,-0.8121145963668823,0.000109248430817388,-0.00026654021348804235,-9.035132825374603e-05,0.006270318292081356,-0.001411766977980733,-0.0006796108209528029,0.4049290120601654,0.69553142786026,0.5843222141265869,0.4218929409980774,-0.2627985179424286,-0.13435855507850647,0.3500496447086334,0.6620200276374817,0.42000001668930054,-0.5624086856842041,-2.2886221408843994,-1.1801941394805908,3.0,-0.16242514550685883,-0.15903091430664062,-0.15398800373077393,-0.14785508811473846,0.05938466265797615,0.09768054634332657,0.13603690266609192,0.17198912799358368
