vladlanda/robotic-transformer/data/env_000_episode_0053.csv
sim_time_s,robot_box_x,robot_box_y,robot_box_z,robot_box_quat_w,robot_box_quat_x,robot_box_quat_y,robot_box_quat_z,robot_box_linvel_x,robot_box_linvel_y,robot_box_linvel_z,robot_box_angvel_x,robot_box_angvel_y,robot_box_angvel_z,cube_world_x,cube_world_y,cube_world_z,cube_quat_w,cube_quat_x,cube_quat_y,cube_quat_z,cube_linvel_x,cube_linvel_y,cube_linvel_z,cube_angvel_x,cube_angvel_y,cube_angvel_z,endpoint_world_x,endpoint_world_y,endpoint_world_z,endpoint_linvel_x,endpoint_linvel_y,endpoint_linvel_z,target_cube_world_x,target_cube_world_y,target_cube_world_z,gripper_actual_pos_rad_gp_leftgearjoint,gripper_actual_vel_rad_s_gp_leftgearjoint,gripper_actual_pos_rad_gp_rotatingjoint,gripper_actual_vel_rad_s_gp_rotatingjoint,motor_angle_rad_joint1,motor_angle_rad_joint2,motor_angle_rad_joint3,motor_angle_rad_joint4,motor_speed_rad_s_joint1,motor_speed_rad_s_joint2,motor_speed_rad_s_joint3,motor_speed_rad_s_joint4
0.0,0.0,0.0,0.0,1.0,0.0,0.0,0.0,0.0,0.0,0.0,0.0,0.0,0.0,-0.42312371730804443,0.6403720378875732,0.41999998688697815,1.0,0.0,0.0,0.0,0.0,0.0,0.0,0.0,0.0,0.0,3.42540442943573e-06,-0.005000244826078415,1.313499927520752,0.0,0.0,0.0,0.37700405716896057,0.6721584796905518,0.42000001668930054,-1.5707999467849731,0.0,0.0,0.0,0.0,0.0,0.0,0.0,0.0,0.0,0.0,0.0
0.016666666666666666,0.0028778850100934505,0.0021806680597364902,0.0,0.9998081922531128,0.0,0.0,0.019586581736803055,0.24087215960025787,0.18240931630134583,0.0,0.0,0.0,3.1418697834014893,-0.423123836517334,0.6403717398643494,0.41999998688697815,1.0,3.279964630564791e-06,-8.339746386809566e-07,8.465587342243452e-08,-1.9833529222523794e-05,0.00017983045836444944,-6.132945418357849e-05,0.0009432713268324733,-0.004689474124461412,-0.00031981561915017664,-0.007110234349966049,0.003379564033821225,1.3159373998641968,-0.8143353462219238,0.9868683815002441,0.18095196783542633,0.37700405716896057,0.6721584796905518,0.42000001668930054,-1.5301095247268677,3.0000011920928955,-0.04584788903594017,-2.9999992847442627,0.0008691533003002405,0.0007963840034790337,0.0007110277656465769,0.0006108740926720202,0.11094217747449875,0.09756709635257721,0.08334315568208694,0.06823883205652237
0.03333333333333333,0.008960950188338757,0.006801781244575977,0.0,0.9997960329055786,0.0,0.0,0.020196830853819847,0.40701791644096375,0.3153018355369568,0.0,0.0,0.0,-0.8691303133964539,-0.42312395572662354,0.6403716802597046,0.4200000464916229,1.0,3.3908354453160428e-06,-2.1324485715012997e-06,-3.710144014235084e-08,0.00026357831666246057,0.00026937946677207947,-0.00010509486310184002,-0.0017707672668620944,0.004130808170884848,-0.000135478752781637,-0.027540307492017746,0.025729134678840637,1.3166685104370117,-1.5909912586212158,1.5984187126159668,-0.07640531659126282,0.37700405716896057,0.6721584796905518,0.42000001668930054,-1.4800904989242554,3.0000009536743164,-0.09588772058486938,-3.0000009536743164,0.0029902139212936163,0.0026528709568083286,0.0022774836979806423,0.0018609779654070735,0.1642325073480606,0.13977989554405212,0.11384238302707672,0.0863276943564415
0.05,0.017734365537762642,0.013768845237791538,0.0,0.9993814826011658,0.0,0.0,0.03516658768057823,0.593526303768158,0.464946448802948,0.0,0.0,0.0,2.650545358657837,-0.4231239855289459,0.6403717398643494,0.4200000464916229,1.0,3.765139354072744e-06,-2.2119161258160602e-06,5.630195420991413e-09,0.0002653095289133489,0.00026691411039792,-0.00010440382175147533,-0.0017242460744455457,0.004177400842308998,-0.00012949357915204018,-0.05965409427881241,0.0530228316783905,1.3118994235992432,-2.1872668266296387,1.7114105224609375,-0.45647603273391724,0.37700405716896057,0.6721584796905518,0.42000001668930054,-1.4300721883773804,3.0000007152557373,-0.145926371216774,-2.999999523162842,0.005704794079065323,0.004913152661174536,0.004049366805702448,0.0031089934054762125,0.19286121428012848,0.15596124529838562,0.11718583852052689,0.07644213736057281
0.06666666666666667,0.02904493175446987,0.023060165345668793,0.0,0.9994527697563171,0.0,0.0,0.03307854384183884,0.7200756669044495,0.5950801372528076,0.0,0.0,0.0,-1.2088884115219116,-0.4231239855289459,0.6403716802597046,0.4200000464916229,0.9999999403953552,3.4067529668391217e-06,-2.2856381747260457e-06,4.300985096961085e-07,0.00026702662580646574,0.00026791892014443874,-0.00010437914170324802,-0.001740677747875452,0.004211848136037588,-0.0001285130565520376,-0.09846285730600357,0.08619977533817291,1.2996840476989746,-2.478672981262207,2.1566660404205322,-0.9832572340965271,0.37700405716896057,0.6721584796905518,0.42000001668930054,-1.3800500631332397,3.0,-0.1827724128961563,-1.5153288841247559,0.00833404716104269,0.0068670534528791904,0.005289112217724323,0.003594796871766448,0.1566571593284607,0.1069379597902298,0.05518710985779762,1.7229467630386353e-08
0.08333333333333333,0.04349672794342041,0.03444376587867737,0.0,0.9999927282333374,0.0,0.0,0.003813423216342926,0.9359941482543945,0.7254527807235718,0.0,0.0,0.0,-4.545254230499268,-0.4231239855289459,0.6403716802597046,0.4200000464916229,1.0,3.697281499626115e-06,-2.1890098196308827e-06,-2.632294240356714e-07,0.00026389621780253947,0.00026586363674141467,-0.00010433816350996494,-0.0017081034602597356,0.004150185268372297,-0.00012991165567655116,-0.13898205757141113,0.12577496469020844,1.2807588577270508,-2.4127824306488037,2.4826745986938477,-1.2805111408233643,0.37700405716896057,0.6721584796905518,0.42000001668930054,-1.3300355672836304,3.0000011920928955,-0.21603603661060333,-2.3723905086517334,0.010207697749137878,0.007799985818564892,0.005240997765213251,0.0025062693748623133,0.09296110272407532,0.027351824566721916,-0.040358252823352814,-0.11104321479797363
0.1,0.052340202033519745,0.049203984439373016,0.0,0.9999551177024841,0.0,0.0,-0.00947285071015358,0.37938082218170166,0.9963228106498718,0.0,0.0,0.0,-0.5937744975090027,-0.4231239855289459,0.6403716802597046,0.4200000464916229,0.9999999403953552,3.6203855415806174e-06,-2.265273224111297e-06,1.7462159007664013e-07,0.0002667683002073318,0.00026740814791992307,-0.0001040794886648655,-0.0017385776154696941,0.004209164995700121,-0.00012775571667589247,-0.1817622184753418,0.16286234557628632,1.256406545639038,-2.53033447265625,2.2400856018066406,-1.5514476299285889,0.37700405716896057,0.6721584796905518,0.42000001668930054,-1.280009150505066,2.999995231628418,-0.17889945209026337,3.000000238418579,0.005558548960834742,0.0024320653174072504,-0.0008953149081207812,-0.004462873563170433,-0.41666245460510254,-0.46110233664512634,-0.5081565380096436,-0.5585821270942688
0.11666666666666667,0.05562548711895943,0.0609419122338295,0.0,0.9993489384651184,0.0,0.0,-0.03607875853776932,0.3889976739883423,0.6610714197158813,0.0,0.0,0.0,-3.51092791557312,-0.4231239855289459,0.6403716802597046,0.4200000464916229,1.0,3.7983813854225446e-06,-2.2628894384979503e-06,-1.5019897148249584e-07,0.00026373917353339493,0.00026566049200482666,-0.00010429113171994686,-0.0017053951742127538,0.004147559404373169,-0.00012979967868886888,-0.22063329815864563,0.20277059078216553,1.231161117553711,-2.199178695678711,2.6381049156188965,-1.3869136571884155,0.37700405716896057,0.6721584796905518,0.42000001668930054,-1.2300108671188354,3.000001907348633,-0.2105116993188858,-2.999999523162842,-0.0022213850170373917,-0.006467778235673904,-0.010927772149443626,-0.01565011776983738,-0.10713828355073929,-0.23990313708782196,-0.36907511949539185,-0.49471795558929443
0.13333333333333333,0.059615228325128555,0.07001600414514542,0.0,0.9964640140533447,0.0,0.0,-0.08402048796415329,0.18729686737060547,0.4765692353248596,0.0,0.0,0.0,-6.712417125701904,-0.4231239855289459,0.6403717398643494,0.4200000464916229,0.9999999403953552,3.55046631739242e-06,-2.229890242233523e-06,2.9291771852513193e-07,0.00026703221374191344,0.00026779237668961287,-0.00010416773147881031,-0.0017439918592572212,0.0042135524563491344,-0.00012800241529475898,-0.2573826313018799,0.2526565492153168,1.2028639316558838,-2.1478917598724365,3.2917556762695312,-1.9960567951202393,0.37700405716896057,0.6721584796905518,0.42000001668930054,-1.1799960136413574,2.9999959468841553,-0.17666032910346985,2.999999761581421,-0.00514887785539031,-0.011489258147776127,-0.01796628348529339,-0.024628881365060806,-0.2311594933271408,-0.34391698241233826,-0.4518023729324341,-0.5547884702682495
0.15,0.06859926134347916,0.08025308698415756,0.0,0.993412435054779,0.0,0.0,-0.11459366232156754,0.7014383673667908,0.6625832319259644,0.0,0.0,0.0,-2.6702723503112793,-0.42312395572662354,0.6403716802597046,0.4200000464916229,1.0,3.3322221497655846e-06,-2.1020302938268287e-06,1.3131158027590573e-07,0.0002673070412129164,0.0002685954386834055,-0.00010459451004862785,-0.0017497260123491287,0.004215645603835583,-0.00012928212527185678,-0.2964467704296112,0.3035391867160797,1.1651439666748047,-2.23164701461792,3.227966547012329,-2.5256118774414062,0.37700405716896057,0.6721584796905518,0.42000001668930054,-1.1300971508026123,2.9713850021362305,-0.20824357867240906,-3.000000476837158,-0.006178082898259163,-0.014503781683743,-0.02286534570157528,-0.03131028637290001,-0.03342336416244507,-0.14301376044750214,-0.24667832255363464,-0.3442826569080353
0.16666666666666666,0.07497890293598175,0.08737662434577942,0.0,0.9872085452079773,0.0,0.0,-0.15943442285060883,0.39483290910720825,0.40278297662734985,0.0,0.0,0.0,-6.095466613769531,-0.4231239855289459,0.6403716802597046,0.4200000464916229,1.0,3.737278348125983e-06,-2.2331944364850642e-06,-1.8764472997645498e-07,0.00026432870072312653,0.00026626777253113687,-0.00010446063242852688,-0.0017119222320616245,0.004157560411840677,-0.00013001241313759238,-0.3321077227592468,0.36079490184783936,1.116611123085022,-1.9159693717956543,3.7532172203063965,-3.1559367179870605,0.37700405716896057,0.6721584796905518,0.42000001668930054,-1.0800964832305908,2.9999988079071045,-0.17440904676914215,2.999999523162842,-0.012712879106402397,-0.022090820595622063,-0.03144191578030586,-0.040817052125930786,-0.37809956073760986,-0.44284147024154663,-0.5030112266540527,-0.5586223006248474
0.18333333333333332,0.07824503630399704,0.09562815725803375,0.0,0.983344554901123,0.0,0.0,-0.1817511022090912,0.11052891612052917,0.5354377627372742,0.0,0.0,0.0,-1.5558931827545166,-0.4231239855289459,0.6403717398643494,0.4200000464916229,0.9999999403953552,3.6602618820325006e-06,-2.3023178528092103e-06,2.528582569993887e-07,0.0002669094246812165,0.0002676024450920522,-0.0001041253563016653,-0.001741250162012875,0.004211540333926678,-0.0001278737763641402,-0.3668965697288513,0.41793137788772583,1.058661699295044,-1.8837685585021973,3.4903676509857178,-3.784231185913086,0.37700405716896057,0.6721584796905518,0.42000001668930054,-1.0303490161895752,2.941848039627075,-0.20600980520248413,-3.000000238418579,-0.021213140338659286,-0.03122875653207302,-0.041143663227558136,-0.05101126432418823,-0.5995984673500061,-0.6156060099601746,-0.6279175877571106,-0.6367358565330505
0.2,0.07787299156188965,0.1031249538064003,0.0,0.9766096472740173,0.0,0.0,-0.21501988172531128,-0.07462342083454132,0.39992138743400574,0.0,0.0,0.0,-4.937440872192383,-0.4231239855289459,0.6403716802597046,0.4200000464916229,1.0,3.5908608424506383e-06,-2.300466803717427e-06,1.3872747217646975e-07,0.00026654714019969106,0.00026732240803539753,-0.00010424014180898666,-0.0017327213427051902,0.004203526768833399,-0.0001282061421079561,-0.3966085910797119,0.47735780477523804,0.9880337715148926,-1.530012845993042,3.582937240600586,-4.596105575561523,0.37700405716896057,0.6721584796905518,0.42000001668930054,-0.9803435206413269,3.0000011920928955,-0.2560381293296814,-2.999997854232788,-0.03337901830673218,-0.04331088438630104,-0.053088996559381485,-0.06277233362197876,-0.8091537952423096,-0.784623384475708,-0.7578966617584229,-0.7293366193771362
0.21666666666666667,0.0785817950963974,0.11140383034944534,0.0,0.9713979363441467,0.0,0.0,-0.23745758831501007,0.09085951000452042,0.5347207188606262,0.0,0.0,0.0,-1.751785397529602,-0.4231239855289459,0.6403717398643494,0.4200000464916229,1.0,3.6069873203814495e-06,-2.261009740323061e-06,1.9610945756198817e-08,0.00026447101845405996,0.000265582901192829,-0.00010396563448011875,-0.0017088254680857062,0.004164384678006172,-0.00012832769425585866,-0.42249733209609985,0.5297940373420715,0.9053269624710083,-1.32161283493042,2.870835304260254,-5.22723388671875,0.37700405716896057,0.6721584796905518,0.42000001668930054,-0.930334746837616,3.000002145767212,-0.3060683608055115,-2.999999523162842,-0.04944352060556412,-0.05894434079527855,-0.06808607280254364,-0.07653483748435974,-0.982933759689331,-0.9789418578147888,-0.9577439427375793,-0.8630980849266052
0.23333333333333334,0.07777653634548187,0.1175772175192833,0.0,0.962384819984436,0.0,0.0,-0.2716900408267975,-0.10406934469938278,0.29889973998069763,0.0,0.0,0.0,-5.093462944030762,-0.42312395572662354,0.6403716802597046,0.4200000464916229,0.9999999403953552,3.742314447663375e-06,-2.2275469291344052e-06,4.588965509810805e-07,0.00026475070626474917,0.00026671463274396956,-0.0001045342069119215,-0.001718964078463614,0.004165732767432928,-0.0001301961310673505,-0.44060802459716797,0.5760773420333862,0.8105736970901489,-0.7576035857200623,2.5556859970092773,-5.935509204864502,0.37700405716896057,0.6721584796905518,0.42000001668930054,-0.8803240656852722,2.999997615814209,-0.35610002279281616,-3.000000238418579,-0.06596172600984573,-0.07544004917144775,-0.08454491198062897,-0.09292090684175491,-0.9896633625030518,-0.9915469884872437,-0.9930016994476318,-0.9916126132011414
0.25,0.07822776585817337,0.121941938996315,0.0,0.958225429058075,0.0,0.0,-0.28601396083831787,0.11637525260448456,0.22437210381031036,0.0,0.0,0.0,-0.7009798288345337,-0.4231239855289459,0.6403716802597046,0.4200000464916229,1.0,3.394471605133731e-06,-2.28208023145271e-06,1.3361282924506668e-07,0.0002667925728019327,0.00026793935103341937,-0.00010439474135637283,-0.001741714426316321,0.004206551238894463,-0.00012884216266684234,-0.4532623887062073,0.6067723035812378,0.7101675271987915,-0.4932018518447876,1.3662109375,-6.096709251403809,0.37700405716896057,0.6721584796905518,0.42000001668930054,-0.8303145170211792,2.999994993209839,-0.40613168478012085,-3.0000009536743164,-0.08267848193645477,-0.09209245443344116,-0.10112608969211578,-0.10943564772605896,-0.9912938475608826,-0.9931525588035583,-0.9864794611930847,-0.9786818027496338
0.26666666666666666,0.07664807140827179,0.12360963225364685,0.0,0.9502186179161072,0.0,0.0,-0.3115840554237366,-0.12597614526748657,0.04046701267361641,0.0,0.0,0.0,-4.042562961578369,-0.4231239855289459,0.6403717398643494,0.4200000464916229,1.0,3.683473778437474e-06,-2.310144282091642e-06,2.1009151396356174e-07,0.0002647919754963368,0.00026625837199389935,-0.00010421406477689743,-0.0017168897902593017,0.004169071558862925,-0.00012909626821056008,-0.4547692835330963,0.6225951910018921,0.6081780195236206,0.2833818793296814,0.6565552949905396,-6.009652614593506,0.37700405716896057,0.6721584796905518,0.42000001668930054,-0.7803057432174683,3.0000009536743164,-0.45616286993026733,-3.0000009536743164,-0.10042863339185715,-0.1095765233039856,-0.11840730160474777,-0.12655675411224365,-1.0055903196334839,-1.0041954517364502,-1.003133773803711,-1.0022921562194824
0.2833333333333333,0.07266125828027725,0.1224856898188591,0.0,0.9480012655258179,0.0,0.0,-0.31826651096343994,-0.2732204496860504,-0.1061917394399643,0.0,0.0,0.0,0.1264781653881073,-0.4231239855289459,0.6403716802597046,0.4200000464916229,1.0,3.306992994112079e-06,-2.2125836949271616e-06,2.6255548846165766e-07,0.0002666075888555497,0.0002674507559277117,-0.00010424456559121609,-0.0017352629220113158,0.004204458557069302,-0.0001282876473851502,-0.44989949464797974,0.633254885673523,0.5161285400390625,0.4892390966415405,0.5823054313659668,-5.088596820831299,0.37700405716896057,0.6721584796905518,0.42000001668930054,-0.7302969694137573,3.0000016689300537,-0.5061923861503601,-3.000002861022949,-0.11772787570953369,-0.12675191462039948,-0.1354922503232956,-0.14357253909111023,-1.0194106101989746,-1.0146443843841553,-1.0110081434249878,-1.00810706615448
0.3,0.06612654775381088,0.11893708258867264,0.0,0.9415243268013,0.0,0.0,-0.3369450271129608,-0.44466495513916016,-0.25928136706352234,0.0,0.0,0.0,-3.224026679992676,-0.4231239855289459,0.6403716802597046,0.4200000464916229,1.0,3.64134757546708e-06,-2.3780066840117797e-06,-4.194093037312996e-07,0.0002661148027982563,0.0002672590489964932,-0.00010423548519611359,-0.0017336418386548758,0.004194686189293861,-0.0001285519974771887,-0.43641889095306396,0.640830397605896,0.4303961992263794,1.1707754135131836,0.289772093296051,-5.091830730438232,0.37700405716896057,0.6721584796905518,0.42000001668930054,-0.6802900433540344,2.9999966621398926,-0.5562201142311096,-3.0000016689300537,-0.13497880101203918,-0.14384806156158447,-0.152470201253891,-0.16045686602592468,-1.0012346506118774,-1.0009361505508423,-1.0007085800170898,-1.000523328781128
0.31666666666666665,0.057190630584955215,0.11299467086791992,0.0,0.9409915208816528,0.0,0.0,-0.33843016624450684,-0.5740459561347961,-0.3983970582485199,0.0,0.0,0.0,0.7601866126060486,-0.4231239855289459,0.6403717398643494,0.4200000464916229,1.0,3.621927362473798e-06,-2.2891222215548623e-06,1.9689053942784085e-07,0.0002673399867489934,0.00026802747743204236,-0.00010420684702694416,-0.0017466300632804632,0.004218979272991419,-0.0001279420976061374,-0.4371851682662964,0.6446331143379211,0.4255085587501526,0.028604846447706223,0.194740429520607,-0.25351589918136597,0.37700405716896057,0.6721584796905518,0.42000001668930054,-0.6302861571311951,2.9999794960021973,-0.6066564917564392,-3.0000014305114746,-0.1464240401983261,-0.1542215645313263,-0.1614704579114914,-0.1677834540605545,-0.6599358916282654,-0.5786988735198975,-0.48112425208091736,-0.36856046319007874
0.3333333333333333,0.04596492648124695,0.10469667613506317,0.0,0.935472846031189,0.0,0.0,-0.35339853167533875,-0.7212123274803162,-0.5389838218688965,0.0,0.0,0.0,-2.8060052394866943,-0.4227330684661865,0.6416624188423157,0.419999361038208,0.999858558177948,5.133175363880582e-05,-1.673668339208234e-05,-0.016816571354866028,0.02949392795562744,0.09541633725166321,-0.0005851844325661659,-0.030314618721604347,0.0292102862149477,-2.3217272758483887,-0.43579286336898804,0.6465108394622803,0.4228013753890991,0.0022445665672421455,0.03371620923280716,0.29934486746788025,0.37700405716896057,0.6721584796905518,0.42000001668930054,-0.580281138420105,2.9999477863311768,-0.6567094326019287,-3.0000007152557373,-0.15755225718021393,-0.16369971632957458,-0.1689896434545517,-0.17307782173156738,-0.5469343662261963,-0.4438422918319702,-0.3214389681816101,-0.18293176591396332
0.35,0.03249654173851013,0.09412642568349838,0.0,0.9357974529266357,0.0,0.0,-0.352538138628006,-0.8467797040939331,-0.6738625168800354,0.0,0.0,0.0,1.0532667636871338,-0.4208412170410156,0.6470322608947754,0.4206863343715668,0.9952191710472107,-0.0010506371036171913,0.003318189876154065,-0.09760424494743347,0.2810347080230713,0.677975058555603,0.10512286424636841,-0.30020153522491455,-0.5043883919715881,-4.504438400268555,-0.4344746470451355,0.6530452966690063,0.42542675137519836,0.17347227036952972,0.6553424000740051,0.001023910939693451,0.37700405716896057,0.6721584796905518,0.42000001668930054,-0.5302761793136597,2.999983549118042,-0.7067344784736633,-3.0000011920928955,-0.16705837845802307,-0.17111271619796753,-0.17397192120552063,-0.17536574602127075,-0.534246027469635,-0.4024610221385956,-0.2505113482475281,-0.08331077545881271
0.36666666666666664,0.022556737065315247,0.08082960546016693,0.0,0.9308978915214539,0.0,0.0,-0.36527949571609497,-0.5129576325416565,-0.8452121019363403,0.0,0.0,0.0,-2.5202414989471436,-0.41536498069763184,0.6593148708343506,0.42041242122650146,0.9913431406021118,0.009540822356939316,-0.001549902488477528,-0.130939781665802,0.43853843212127686,0.8576951622962952,-0.019826967269182205,1.5976872444152832,1.3050107955932617,-4.795116901397705,-0.4275822341442108,0.6648101806640625,0.4225761890411377,0.6487240195274353,0.7950477004051208,-0.31181296706199646,0.37700405716896057,0.6721584796905518,0.42000001668930054,-0.48027166724205017,2.999990224838257,-0.7567585110664368,-2.9999921321868896,-0.17566752433776855,-0.17707504332065582,-0.17692400515079498,-0.17504887282848358,-0.47891613841056824,-0.3026171922683716,-0.10542325675487518,0.10562453418970108
0.3833333333333333,0.010338198393583298,0.0658554807305336,0.0,0.9142031073570251,0.0,0.0,-0.40525633096694946,-0.8424816131591797,-0.9187605381011963,0.0,0.0,0.0,-6.135138988494873,-0.404705286026001,0.6777500510215759,0.4200919270515442,0.9848231077194214,0.0019283517030999064,-0.0010081451619043946,-0.17354725301265717,0.8247296214103699,1.3192100524902344,0.040976911783218384,1.3751485347747803,-0.9873695969581604,-5.540289878845215,-0.412891685962677,0.6809144020080566,0.4206579923629761,1.1048836708068848,1.1770834922790527,0.14495308697223663,0.37700405716896057,0.6721584796905518,0.42000001668930054,-0.4302675426006317,2.999724864959717,-0.8068211674690247,-2.9989285469055176,-0.18507881462574005,-0.18320289254188538,-0.17941586673259735,-0.17368574440479279,-0.5320842266082764,-0.33715829253196716,-0.12149202823638916,0.10675743222236633
0.4,0.0008681347244419158,0.04811276122927666,0.0,0.8832293152809143,0.0,0.0,-0.4689413607120514,-0.5236110687255859,-1.1057279109954834,0.0,0.0,0.0,-9.230644226074219,-0.37172931432724,0.7038566470146179,0.4252028167247772,0.9724680185317993,-0.00018989942327607423,-0.03513401746749878,-0.23037226498126984,2.9364547729492188,2.1741600036621094,0.26768460869789124,40.48454666137695,-18.25584602355957,1.994343638420105,-0.37982606887817383,0.7089385986328125,0.42480581998825073,2.8873956203460693,2.1741108894348145,0.5199207067489624,0.37700405716896057,0.6721584796905518,0.42000001668930054,-0.3899257779121399,1.2992972135543823,-0.8522469997406006,-2.461348056793213,-0.19415868818759918,-0.18865695595741272,-0.1809587925672531,-0.1711835265159607,-0.6010107398033142,-0.36009663343429565,-0.10654376447200775,0.14964576065540314
0.4166666666666667,-0.00633194949477911,0.03566610813140869,0.0,0.8351070880889893,0.0,0.0,-0.5500874519348145,-0.38314089179039,-0.6225011944770813,0.0,0.0,0.0,-12.106963157653809,-0.29706355929374695,0.7451697587966919,0.43264681100845337,0.9521967768669128,0.07038996368646622,-0.07789213955402374,-0.2868785262107849,6.119338512420654,2.542351007461548,0.5710145235061646,16.137107849121094,-13.417686462402344,13.56284236907959,-0.3045439124107361,0.75142902135849,0.4321092963218689,5.7147111892700195,2.968005657196045,0.5387054085731506,0.37700405716896057,0.6721584796905518,0.42000001668930054,-0.3765958845615387,0.7007620930671692,-0.8129943013191223,2.9979405403137207,-0.20965726673603058,-0.20069245994091034,-0.18754534423351288,-0.17266523838043213,-0.8687469959259033,-0.7931902408599854,-0.4824385941028595,-0.20275893807411194
0.43333333333333335,-0.009752653539180756,0.026418408378958702,0.0,0.7956297397613525,0.0,0.0,-0.6057831645011902,-0.14248406887054443,-0.5140310525894165,0.0,0.0,0.0,-7.015321254730225,-0.20284059643745422,0.7889838218688965,0.44380417466163635,0.9067858457565308,0.10611909627914429,-0.1055467501282692,-0.3941293954849243,6.119997024536133,1.6742117404937744,0.9138179421424866,24.210098266601562,-0.966174304485321,22.5131893157959,-0.20979250967502594,0.7969170808792114,0.44287315011024475,5.879178524017334,2.3525116443634033,0.6917303204536438,0.37700405716896057,0.6721584796905518,0.42000001668930054,-0.3639100193977356,0.8276887536048889,-0.8400601148605347,-3.0000052452087402,-0.2200516015291214,-0.21185776591300964,-0.19466866552829742,-0.1762750744819641,-0.5589796900749207,-0.5827953219413757,-0.38124457001686096,-0.21365468204021454
0.45,-0.015146644786000252,0.021924123167991638,0.0,0.7765732407569885,0.0,0.0,-0.6300269365310669,-0.2946176826953888,-0.23469209671020508,0.0,0.0,0.0,-2.371093273162842,-0.10262668877840042,0.8168690800666809,0.45605236291885376,0.8436890840530396,0.11573351174592972,-0.10758334398269653,-0.5130499005317688,5.993546009063721,0.4202701151371002,0.42264530062675476,-12.900514602661133,-17.198261260986328,34.50917053222656,-0.10893803089857101,0.8264399766921997,0.45438140630722046,6.40167760848999,1.3362483978271484,0.8648496866226196,0.37700405716896057,0.6721584796905518,0.42000001668930054,-0.34918394684791565,0.7912982702255249,-0.8900841474533081,-3.00000262260437,-0.23251938819885254,-0.2231752574443817,-0.20204392075538635,-0.18029318749904633,-0.6469305157661438,-0.5629076361656189,-0.3544366955757141,-0.1730460673570633
0.4666666666666667,-0.015502403490245342,0.011316295713186264,0.0,0.7487829327583313,0.0,0.0,-0.662815272808075,0.06712663173675537,-0.7835921049118042,0.0,0.0,0.0,-6.191980838775635,0.0016785599291324615,0.8247141242027283,0.4640085995197296,0.7712582945823669,0.09476719051599503,-0.14136995375156403,-0.6133468151092529,5.908775329589844,-0.9733105897903442,0.24115097522735596,-11.415128707885742,0.15431226789951324,27.4542293548584,-0.004507049918174744,0.8376216888427734,0.4637914001941681,6.450237274169922,0.058549702167510986,0.6187973618507385,0.37700405716896057,0.6721584796905518,0.42000001668930054,-0.3372626304626465,0.4696674346923828,-0.9401082396507263,-3.0000009536743164,-0.23740693926811218,-0.22668388485908508,-0.2027381807565689,-0.1784619688987732,-0.17141342163085938,-0.05551567301154137,0.11041896790266037,0.2634241282939911
0.48333333333333334,-0.019740307703614235,0.004789425991475582,0.0,0.7319015860557556,0.0,0.0,-0.6814103722572327,-0.22294972836971283,-0.32757332921028137,0.0,0.0,0.0,-1.606597900390625,0.09897439181804657,0.815319836139679,0.4732290506362915,0.6994037628173828,0.07815924286842346,-0.12413560599088669,-0.6995111107826233,5.262937068939209,-1.5772310495376587,0.43563395738601685,-13.423041343688965,-7.28986120223999,19.346168518066406,0.09446422010660172,0.8291922807693481,0.47320497035980225,5.869663238525391,-0.8443170189857483,0.6612706184387207,0.37700405716896057,0.6721584796905518,0.42000001668930054,-0.3308333158493042,0.2677570581436157,-0.9901322722434998,-3.000000476837158,-0.23984798789024353,-0.23281286656856537,-0.20567743480205536,-0.17869150638580322,0.053321175277233124,-0.29617664217948914,-0.1770995855331421,-0.08264292776584625
0.5,-0.02101527899503708,0.002161678858101368,0.0,0.7095425128936768,0.0,0.0,-0.7046626210212708,-0.02256859466433525,-0.08960798382759094,0.0,0.0,0.0,-4.7397141456604,0.18493792414665222,0.7961229681968689,0.47692492604255676,0.6579346656799316,0.06196035072207451,-0.11602511256933212,-0.741499125957489,4.359320163726807,-2.1049325466156006,0.05975590646266937,-13.04763412475586,-2.816972255706787,21.65658187866211,0.18256473541259766,0.810370147228241,0.4781726002693176,5.005828857421875,-1.4866341352462769,0.1612785905599594,0.37700405716896057,0.6721584796905518,0.42000001668930054,-0.32543638348579407,0.28299373388290405,-1.0401548147201538,-3.0,-0.23831748962402344,-0.23610180616378784,-0.20793259143829346,-0.18018536269664764,0.11738719791173935,-0.10141675174236298,-0.0765456035733223,-0.06496860086917877
0.5166666666666666,-0.01920478790998459,0.00026034400798380375,0.0,0.7001643776893616,0.0,0.0,-0.7139816880226135,0.15143373608589172,-0.08514026552438736,0.0,0.0,0.0,-0.5268664956092834,0.25997987389564514,0.7664402723312378,0.47053825855255127,0.5234124660491943,-0.06053987145423889,-0.20513933897018433,-0.8247982263565063,4.036896228790283,-1.9441417455673218,-0.6444848775863647,-21.266603469848633,2.176724672317505,-21.311992645263672,0.2545686364173889,0.7839643955230713,0.4786456227302551,3.849377155303955,-1.777620553970337,-0.07980170845985413,0.37700405716896057,0.6721584796905518,0.42000001668930054,-0.31594786047935486,1.0936777591705322,-1.0901769399642944,-2.999431610107422,-0.23451699316501617,-0.23507963120937347,-0.20729577541351318,-0.180132657289505,0.3041553497314453,0.17790721356868744,0.10928917676210403,0.030627325177192688
0.5333333333333333,-0.014666557312011719,-0.0037761086132377386,0.0,0.6835887432098389,0.0,0.0,-0.7298673987388611,0.3208446800708771,-0.29550901055336,0.0,0.0,0.0,-3.559058904647827,0.3150787651538849,0.7373075485229492,0.4605213701725006,0.5118012428283691,-0.08936168998479843,-0.17145149409770966,-0.8370652198791504,2.8775060176849365,-2.23799204826355,-0.4887385666370392,-1.782488465309143,9.09007453918457,4.9456939697265625,0.3131409287452698,0.7547848224639893,0.47021594643592834,3.029191493988037,-1.7861887216567993,-0.7488158941268921,0.37700405716896057,0.6721584796905518,0.42000001668930054,-0.2980574667453766,0.885168194770813,-1.140199065208435,-2.999999761581421,-0.22974412143230438,-0.23162096738815308,-0.20545201003551483,-0.18006709218025208,0.28939324617385864,0.24667146801948547,0.12218669056892395,-0.011606438085436821
0.55,-0.007519170176237822,-0.004455495625734329,0.0,0.6799609661102295,0.0,0.0,-0.7332482933998108,0.45057740807533264,-0.004016421269625425,0.0,0.0,0.0,0.3375551700592041,0.35609692335128784,0.7065674662590027,0.4455907940864563,0.48839274048805237,-0.12414658069610596,-0.151824489235878,-0.8502995371818542,1.7055628299713135,-2.160024642944336,-0.5966509580612183,12.355009078979492,26.9423770904541,0.09483444690704346,0.35539424419403076,0.7237459421157837,0.4557264745235443,2.155623435974121,-1.8514623641967773,-1.0999298095703125,0.37700405716896057,0.6721584796905518,0.42000001668930054,-0.2865942418575287,0.3291839361190796,-1.1902211904525757,-2.9941282272338867,-0.226374089717865,-0.2283513993024826,-0.20448757708072662,-0.18153516948223114,0.30418524146080017,0.28849145770072937,0.1028837114572525,-0.08438437432050705
0.5666666666666667,0.0013190183090046048,-0.0027207769453525543,0.0,0.6662836074829102,0.0,0.0,-0.7456984519958496,0.5712718963623047,0.19807983934879303,0.0,0.0,0.0,-3.1284589767456055,0.38546380400657654,0.6816332340240479,0.4237678349018097,0.4868452548980713,-0.14042215049266815,-0.1495315283536911,-0.8490604758262634,1.3355097770690918,-1.5877394676208496,-1.3198059797286987,-4.821892738342285,5.821191787719727,2.4652743339538574,0.3844348192214966,0.6979713439941406,0.4335215091705322,1.3728952407836914,-1.3740880489349365,-1.492129921913147,0.37700405716896057,0.6721584796905518,0.42000001668930054,-0.28510767221450806,0.17686693370342255,-1.159212589263916,3.000000476837158,-0.21899715065956116,-0.22199012339115143,-0.20232944190502167,-0.18340644240379333,0.4768960773944855,0.4070263206958771,0.12477846443653107,-0.14279323816299438
0.5833333333333334,0.007420808542519808,-0.005126940086483955,0.0,0.6646438837051392,0.0,0.0,-0.7471602559089661,0.3077375888824463,-0.15297240018844604,0.0,0.0,0.0,0.6125097870826721,0.39996910095214844,0.6719491481781006,0.4206008017063141,0.5103013515472412,-0.01290218811482191,-0.006354879587888718,-0.8598753213882446,0.34720367193222046,-0.6797111630439758,0.2221403867006302,-13.161703109741211,4.77992582321167,6.097056865692139,0.39729881286621094,0.6823064088821411,0.4256443679332733,0.32311874628067017,-0.633762538433075,0.13241669535636902,0.37700405716896057,0.6721584796905518,0.42000001668930054,-0.27441278100013733,1.1317880153656006,-1.181490421295166,-2.9974117279052734,-0.2061087191104889,-0.2105262130498886,-0.19614523649215698,-0.182099848985672,0.5223326086997986,0.5169281959533691,0.25017333030700684,0.003963264171034098
0.6,0.015230954624712467,-0.0028376395348459482,0.0,0.6515902280807495,0.0,0.0,-0.7585711479187012,0.45355457067489624,0.13117171823978424,0.0,0.0,0.0,-2.8991286754608154,0.4026585817337036,0.6661620736122131,0.4200209081172943,0.5439268946647644,0.00029317615553736687,0.0012847953476011753,-0.8391315340995789,-0.07601001858711243,-0.42782652378082275,-0.009268248453736305,1.0118906497955322,0.7004479169845581,13.12574291229248,0.3988068699836731,0.6754579544067383,0.4249846935272217,-0.12648199498653412,-0.05949792265892029,0.14840510487556458,0.37700405716896057,0.6721584796905518,0.42000001668930054,-0.27107396721839905,-0.6043776273727417,-1.1436291933059692,2.9952993392944336,-0.19929780066013336,-0.2038090080022812,-0.1937936544418335,-0.18374475836753845,0.5721041560173035,0.5240731239318848,0.2329988330602646,-0.028198039159178734
0.6166666666666667,0.02012045681476593,-0.005303196609020233,0.0,0.6514368057250977,0.0,0.0,-0.7587028741836548,0.16607846319675446,-0.16035760939121246,0.0,0.0,0.0,0.8505136966705322,0.3998773992061615,0.6630638241767883,0.4199996590614319,0.5747715830802917,1.98319162336702e-06,-0.00010958407074213028,-0.8183138370513916,-0.2767535150051117,-0.1582641750574112,-0.0016298363916575909,0.10668502002954483,0.06409630179405212,2.540889263153076,0.394550621509552,0.6732537746429443,0.4259788990020752,-0.38024070858955383,-0.15217676758766174,0.15057240426540375,0.37700405716896057,0.6721584796905518,0.42000001668930054,-0.3139247000217438,-2.9999873638153076,-1.1658942699432373,-2.9992637634277344,-0.1889181286096573,-0.19399696588516235,-0.18846389651298523,-0.18246932327747345,0.43451109528541565,0.4470830261707306,0.2338239848613739,0.040321484208106995
0.6333333333333333,0.025248073041439056,-0.0032056798227131367,0.0,0.6609870195388794,0.0,0.0,-0.7503973245620728,0.3308027684688568,0.12257736921310425,0.0,0.0,0.0,1.7977536916732788,0.39549222588539124,0.6609484553337097,0.4200000464916229,0.5861194133758545,1.4632928468927275e-06,1.6763752910264884e-06,-0.8102245926856995,-0.23428921401500702,-0.11064770817756653,-7.326481863856316e-05,-0.0034527305979281664,0.001416141982190311,1.2732597589492798,0.3905419409275055,0.6734441518783569,0.42810267210006714,-0.08285848796367645,0.19624121487140656,0.13357694447040558,0.37700405716896057,0.6721584796905518,0.42000001668930054,-0.3449661135673523,-0.8618500828742981,-1.215842843055725,-2.998387336730957,-0.18381093442440033,-0.18857452273368835,-0.1861816942691803,-0.1829923838376999,0.46646401286125183,0.43932729959487915,0.22640952467918396,0.038554999977350235
0.65,0.03208934888243675,-0.005499592516571283,0.0,0.6551117300987244,0.0,0.0,-0.7555320262908936,0.43966665863990784,-0.15188099443912506,0.0,0.0,0.0,-1.842734694480896,0.39251062273979187,0.6595401167869568,0.42000001668930054,0.594607949256897,5.096715653962747e-07,4.893170171271777e-07,-0.8040157556533813,-0.16026794910430908,-0.07589549571275711,-1.1774536687880754e-05,-0.0003300346143078059,0.0006027035415172577,1.2682175636291504,0.38808125257492065,0.6783803701400757,0.43024498224258423,-0.28063175082206726,0.27070510387420654,0.11317797005176544,0.37700405716896057,0.6721584796905518,0.42000001668930054,-0.3886842131614685,-2.9999685287475586,-1.2443206310272217,-0.6210271120071411,-0.17356209456920624,-0.17917951941490173,-0.1804145872592926,-0.18043945729732513,0.46991536021232605,0.45455214381217957,0.28624051809310913,0.13575497269630432
0.6666666666666666,0.041153620928525925,-0.004138604737818241,0.0,0.6611031889915466,0.0,0.0,-0.7502949833869934,0.5631558299064636,0.10676299780607224,0.0,0.0,0.0,1.8239178657531738,0.38880249857902527,0.6596261858940125,0.4204009473323822,0.6040173768997192,0.00608771713450551,-0.008060415275394917,-0.7969071269035339,-0.24763430655002594,0.02321591041982174,0.036905378103256226,-0.515102744102478,-1.791119933128357,0.8935241103172302,0.3834233283996582,0.682096004486084,0.43550026416778564,-0.25784745812416077,0.2704227566719055,0.5428982377052307,0.37700405716896057,0.6721584796905518,0.42000001668930054,-0.43869665265083313,-2.9999985694885254,-1.2896625995635986,-2.999999523162842,-0.16907890141010284,-0.17439574003219604,-0.17746290564537048,-0.17897607386112213,0.2694579064846039,0.2855782210826874,0.19748373329639435,0.13425055146217346
0.6833333333333333,0.05179133266210556,-0.006473866757005453,0.0,0.6552863121032715,0.0,0.0,-0.7553805708885193,0.66282719373703,-0.16143354773521423,0.0,0.0,0.0,-1.8772486448287964,0.3852635622024536,0.6599492430686951,0.4201589524745941,0.6089990735054016,0.0024173534475266933,-0.003115973901003599,-0.793161153793335,-0.20049794018268585,0.017940109595656395,-0.0314866304397583,0.4245595335960388,1.5519206523895264,0.6991544961929321,0.3831508755683899,0.6870487332344055,0.4425777196884155,0.12740731239318848,0.20207428932189941,0.47321999073028564,0.37700405716896057,0.6721584796905518,0.42000001668930054,-0.48870959877967834,-3.000000238418579,-1.3396809101104736,-3.0,-0.16356636583805084,-0.16851234436035156,-0.17257210612297058,-0.17462211847305298,0.17888545989990234,0.24923153221607208,0.25425130128860474,0.283821702003479
0.7,0.06415773928165436,-0.012030063197016716,0.0,0.6285642385482788,0.0,0.0,-0.7777576446533203,0.7812504768371582,-0.4026266634464264,0.0,0.0,0.0,-5.07484769821167,0.38311290740966797,0.6601244807243347,0.419999897480011,0.6117866039276123,-3.3405551675969036e-06,-1.4327532653624075e-06,-0.7910228371620178,-0.1036946251988411,0.0084276357665658,-3.344076685607433e-05,-0.00019905953377019614,-0.00147940160240978,0.31381410360336304,0.3905295729637146,0.6893461346626282,0.45742854475975037,0.7711435556411743,0.0892653614282608,1.4348478317260742,0.37700405716896057,0.6721584796905518,0.42000001668930054,-0.5387221574783325,-2.9999380111694336,-1.3896992206573486,-2.999995231628418,-0.16363443434238434,-0.16694512963294983,-0.17022785544395447,-0.1711682677268982,-0.10193442553281784,0.010639502666890621,0.08353045582771301,0.17222946882247925
0.7166666666666667,0.07992422580718994,-0.012822214514017105,0.0,0.6146309971809387,0.0,0.0,-0.7888147830963135,0.9068153500556946,0.017249640077352524,0.0,0.0,0.0,-1.1213096380233765,0.3823715150356293,0.6601842045783997,0.4200000464916229,0.6125589609146118,4.714885051271267e-07,5.263402158561803e-08,-0.7904248237609863,-0.022321954369544983,0.0017251484096050262,-4.142755642533302e-06,-0.00023971406335476786,0.00023748190142214298,0.04882662743330002,0.4040757715702057,0.6943970322608948,0.4855891168117523,0.8743993639945984,0.5911766886711121,1.8923553228378296,0.37700405716896057,0.6721584796905518,0.42000001668930054,-0.5657835602760315,-0.4484296441078186,-1.4397175312042236,-3.0,-0.16954860091209412,-0.17087844014167786,-0.17274975776672363,-0.17217561602592468,-0.2258566915988922,-0.17209218442440033,-0.14145641028881073,-0.10505185276269913
0.7333333333333333,0.09155309200286865,-0.012898250482976437,0.0,0.6253113746643066,0.0,0.0,-0.7803753018379211,0.6282241344451904,0.08242318779230118,0.0,0.0,0.0,2.4966940879821777,0.38237130641937256,0.6601844429969788,0.42000001668930054,0.6125593185424805,3.1752722406963585e-07,-3.1557319744024426e-06,-0.790424644947052,0.00020148973271716386,-0.00028622738318517804,-6.704381667077541e-05,0.0062676724046468735,0.0008961034473031759,-0.0006140876212157309,0.4222910404205322,0.7036231756210327,0.5100221633911133,1.1146427392959595,0.49914732575416565,1.128635287284851,0.37700405716896057,0.6721584796905518,0.42000001668930054,-0.558586061000824,1.162451982498169,-1.4011571407318115,3.000000238418579,-0.17014862596988678,-0.17107951641082764,-0.17275375127792358,-0.17189937829971313,-0.02098744548857212,0.010136405937373638,0.03372138738632202,0.05644272267818451
0.75,0.0986499935388565,-0.016343357041478157,0.0,0.6233421564102173,0.0,0.0,-0.7819492220878601,0.3772437572479248,-0.26063036918640137,0.0,0.0,0.0,-1.3068244457244873,0.3823712170124054,0.6601844429969788,0.4200000464916229,0.6125592589378357,6.011288178342511e-07,-3.610661678976612e-06,-0.7904245853424072,0.00015372381312772632,-0.0002790731959976256,-9.754183702170849e-05,0.006024460308253765,-0.0008805893012322485,-0.0005932509084232152,0.43560951948165894,0.7098144888877869,0.5225919485092163,0.44704437255859375,0.1711592674255371,0.5524126291275024,0.37700405716896057,0.6721584796905518,0.42000001668930054,-0.5631436109542847,-1.4757200479507446,-1.351104497909546,3.0000014305114746,-0.16859358549118042,-0.16907523572444916,-0.17037224769592285,-0.16924546658992767,0.0014670476084575057,0.06034119054675102,0.11468397080898285,0.1544591635465622
0.7666666666666666,0.10224443674087524,-0.01487390510737896,0.0,0.6326273083686829,0.0,0.0,-0.7744563817977905,0.16500963270664215,0.06415494531393051,0.0,0.0,0.0,2.184417486190796,0.3823712170124054,0.6601844429969788,0.4200000464916229,0.6125592589378357,4.3852242015418597e-07,-3.222299937988282e-06,-0.7904247045516968,0.0001558450167067349,-0.00027967095957137644,-9.780819527804852e-05,0.006028761621564627,-0.0008512180647812784,-0.0005978115368634462,0.4415042996406555,0.7110670208930969,0.5284498333930969,0.37454017996788025,0.15198376774787903,0.17493510246276855,0.37700405716896057,0.6721584796905518,0.42000001668930054,-0.5623027682304382,1.3340262174606323,-1.3700858354568481,-2.999999523162842,-0.17315393686294556,-0.1716957837343216,-0.1711430549621582,-0.16855217516422272,-0.08869952708482742,-0.018261844292283058,0.05421162396669388,0.10704442113637924
0.7833333333333333,0.1026216447353363,-0.017732759937644005,0.0,0.6289258599281311,0.0,0.0,-0.777465283870697,-0.019637931138277054,-0.25426262617111206,0.0,0.0,0.0,-1.5376337766647339,0.3823712170124054,0.6601844429969788,0.4200000464916229,0.6125593185424805,6.420738714041363e-07,-3.3207625165232457e-06,-0.7904245257377625,0.00015593550051562488,-0.00027990579837933183,-9.775091893970966e-05,0.006034078076481819,-0.0008495188085362315,-0.0005980870919302106,0.4420078992843628,0.7121559381484985,0.5266209840774536,-0.29461097717285156,-0.010563630610704422,-0.21511538326740265,0.37700405716896057,0.6721584796905518,0.42000001668930054,-0.5691691040992737,-1.8737739324569702,-1.3317303657531738,3.0,-0.17357246577739716,-0.17111827433109283,-0.1694905161857605,-0.16616010665893555,0.0024488684721291065,0.058810409158468246,0.1214185282588005,0.1623726636171341
0.8,0.10500068962574005,-0.015476761385798454,0.0,0.6365870833396912,0.0,0.0,-0.7712048292160034,0.07957103103399277,0.19790388643741608,0.0,0.0,0.0,1.8298144340515137,0.3823712170124054,0.6601844429969788,0.4200000464916229,0.6125591993331909,4.408382210385753e-07,-3.3957123832806246e-06,-0.7904247045516968,0.00015447591431438923,-0.00027979727019555867,-9.741936810314655e-05,0.006039824802428484,-0.0008666703943163157,-0.000594870129134506,0.4374396800994873,0.7113108038902283,0.5248935222625732,-0.20046848058700562,0.12921732664108276,0.010570786893367767,0.37700405716896057,0.6721584796905518,0.42000001668930054,-0.5772581100463867,0.6864860653877258,-1.3510773181915283,-3.0,-0.17867231369018555,-0.1745329201221466,-0.1710859090089798,-0.1663171947002411,-0.16822059452533722,-0.11587528139352798,-0.04588441923260689,0.010596917010843754
0.8166666666666667,0.1075151339173317,-0.01739395037293434,0.0,0.6496224999427795,0.0,0.0,-0.7602569460868835,0.2203129231929779,-0.15737290680408478,0.0,0.0,0.0,2.1002230644226074,0.3823712468147278,0.6601844429969788,0.4200000464916229,0.6125592589378357,4.751498465793702e-07,-3.502439085423248e-06,-0.7904245853424072,0.0001536114141345024,-0.00027932017110288143,-9.728060103952885e-05,0.006032603792846203,-0.0008765667444095016,-0.000592742464505136,0.43225863575935364,0.7121719717979431,0.5248119831085205,-0.4734261631965637,-0.0774313360452652,0.0561191625893116,0.37700405716896057,0.6721584796905518,0.42000001668930054,-0.6042722463607788,-2.9999992847442627,-1.315716028213501,2.9999992847442627,-0.17842823266983032,-0.17380771040916443,-0.1694834977388382,-0.1639581322669983,-0.07442498207092285,-0.02100267820060253,0.057468995451927185,0.12951278686523438
0.8333333333333334,0.11282727867364883,-0.018984612077474594,0.0,0.646632969379425,0.0,0.0,-0.7628012895584106,0.3537476062774658,-0.08830317854881287,0.0,0.0,0.0,-1.5794875621795654,0.3823712170124054,0.6601844429969788,0.4200000464916229,0.6125592589378357,4.707858352048788e-07,-3.4967704323207727e-06,-0.7904245853424072,0.00015386701852548867,-0.0002790137950796634,-9.74459107965231e-05,0.006023464258760214,-0.000874463701620698,-0.0005932403146289289,0.43027278780937195,0.7116422653198242,0.5243704915046692,0.18590901792049408,-0.013025399297475815,0.0246712826192379,0.37700405716896057,0.6721584796905518,0.42000001668930054,-0.6479673981666565,-2.2700281143188477,-1.3353321552276611,-3.000000238418579,-0.17946821451187134,-0.1742539405822754,-0.16879990696907043,-0.16211767494678497,0.00952059030532837,0.02818489819765091,0.08352134376764297,0.14646406471729279
0.85,0.12040593475103378,-0.023311279714107513,0.0,0.6220303773880005,0.0,0.0,-0.7829930782318115,0.5010955333709717,-0.32554495334625244,0.0,0.0,0.0,-4.712711811065674,0.3823712468147278,0.6601844429969788,0.4200000464916229,0.6125593781471252,4.686927752572956e-07,-3.6134729270997923e-06,-0.7904245853424072,0.00015397735114675015,-0.0002792711602523923,-9.736744686961174e-05,0.006029518786817789,-0.0008718614699319005,-0.0005935235531069338,0.43437570333480835,0.7107158899307251,0.5273011922836304,0.32797256112098694,-0.09969083964824677,0.47245436906814575,0.37700405716896057,0.6721584796905518,0.42000001668930054,-0.6835557818412781,-1.9940626621246338,-1.3853504657745361,-2.9999988079071045,-0.18049252033233643,-0.17482808232307434,-0.16836205124855042,-0.16056501865386963,-0.07806533575057983,-0.04862198233604431,0.011006730608642101,0.07512127608060837
0.8666666666666667,0.1305834949016571,-0.0246324110776186,0.0,0.6115636825561523,0.0,0.0,-0.7911952137947083,0.6429974436759949,-0.028312062844634056,0.0,0.0,0.0,-0.5373082756996155,0.3823712468147278,0.6601844429969788,0.4200000464916229,0.6125593185424805,4.38020293813679e-07,-3.3710609841364203e-06,-0.7904245853424072,0.00015727111895103008,-0.00028000891325064003,-9.812088683247566e-05,0.006029106676578522,-0.0008351262658834457,-0.000601190491579473,0.437654048204422,0.712344765663147,0.5368733406066895,0.11301127076148987,0.3109034597873688,0.6447716355323792,0.37700405716896057,0.6721584796905518,0.42000001668930054,-0.6854140758514404,1.4719592332839966,-1.4353687763214111,-3.0,-0.18247371912002563,-0.17670981585979462,-0.16974951326847076,-0.16144686937332153,-0.0019261098932474852,-0.04687277227640152,-0.07174582779407501,-0.09610157459974289
0.8833333333333333,0.13788379728794098,-0.023840241134166718,0.0,0.6255913972854614,0.0,0.0,-0.7801508903503418,0.3739545941352844,0.12601922452449799,0.0,0.0,0.0,2.9633500576019287,0.3823712170124054,0.6601844429969788,0.4200000464916229,0.6125591993331909,4.876665116171353e-07,-3.3801948120526504e-06,-0.7904245853424072,0.00015424867160618305,-0.0002790325088426471,-9.755324572324753e-05,0.006021577399224043,-0.0008705566870048642,-0.0005941384006291628,0.43617331981658936,0.7186504602432251,0.5448212623596191,-0.33170947432518005,0.4109993278980255,0.3289060592651367,0.37700405716896057,0.6721584796905518,0.42000001668930054,-0.6530644297599792,2.3095099925994873,-1.396823763847351,3.0000007152557373,-0.1805785447359085,-0.1759278029203415,-0.16979876160621643,-0.16232579946517944,0.14190788567066193,0.07070418447256088,0.011307726614177227,-0.05061635375022888
