vladlanda/robotic-transformer/data/env_000_episode_0133.csv
sim_time_s,robot_box_x,robot_box_y,robot_box_z,robot_box_quat_w,robot_box_quat_x,robot_box_quat_y,robot_box_quat_z,robot_box_linvel_x,robot_box_linvel_y,robot_box_linvel_z,robot_box_angvel_x,robot_box_angvel_y,robot_box_angvel_z,cube_world_x,cube_world_y,cube_world_z,cube_quat_w,cube_quat_x,cube_quat_y,cube_quat_z,cube_linvel_x,cube_linvel_y,cube_linvel_z,cube_angvel_x,cube_angvel_y,cube_angvel_z,endpoint_world_x,endpoint_world_y,endpoint_world_z,endpoint_linvel_x,endpoint_linvel_y,endpoint_linvel_z,target_cube_world_x,target_cube_world_y,target_cube_world_z,gripper_actual_pos_rad_gp_leftgearjoint,gripper_actual_vel_rad_s_gp_leftgearjoint,gripper_actual_pos_rad_gp_rotatingjoint,gripper_actual_vel_rad_s_gp_rotatingjoint,motor_angle_rad_joint1,motor_angle_rad_joint2,motor_angle_rad_joint3,motor_angle_rad_joint4,motor_speed_rad_s_joint1,motor_speed_rad_s_joint2,motor_speed_rad_s_joint3,motor_speed_rad_s_joint4
0.0,0.0,0.0,0.0,1.0,0.0,0.0,0.0,0.0,0.0,0.0,0.0,0.0,0.0,-0.3575783669948578,0.7309018969535828,0.41999998688697815,1.0,0.0,0.0,0.0,0.0,0.0,0.0,0.0,0.0,0.0,3.42540442943573e-06,-0.005000244826078415,1.313499927520752,0.0,0.0,0.0,0.37740403413772583,0.6258074641227722,0.42000001668930054,-1.5707999467849731,0.0,0.0,0.0,0.0,0.0,0.0,0.0,0.0,0.0,0.0,0.0
0.016666666666666666,0.002890312811359763,0.002165314508602023,0.0,0.9998351335525513,0.0,0.0,0.018156975507736206,0.24118097126483917,0.18190716207027435,0.0,0.0,0.0,3.141716480255127,-0.35757848620414734,0.7309015989303589,0.41999998688697815,1.0,3.279964630564791e-06,-8.339746386809566e-07,8.465587342243452e-08,-1.9833529222523794e-05,0.00017983045836444944,-6.132945418357849e-05,0.0009432713268324733,-0.004689474124461412,-0.00031981561915017664,-0.0071046240627765656,0.0034149938728660345,1.3159403800964355,-0.8132458329200745,0.9880948066711426,0.18097753822803497,0.37740403413772583,0.6258074641227722,0.42000001668930054,-1.5301094055175781,3.0000014305114746,-0.04585102200508118,-2.999999523162842,0.0008709603571332991,0.0007977632922120392,0.0007123468676581979,0.000612770498264581,0.11100221425294876,0.09763482213020325,0.08340968191623688,0.06828776001930237
0.03333333333333333,0.008975965902209282,0.006779225077480078,0.0,0.9998238682746887,0.0,0.0,0.018767597153782845,0.4071899950504303,0.31486955285072327,0.0,0.0,0.0,-0.8688150644302368,-0.3575786054134369,0.7309015393257141,0.4200000464916229,1.0,3.3908179375430336e-06,-2.132458348569344e-06,-3.7097745320124886e-08,0.00026357852038927376,0.00026937833172269166,-0.00010509369894862175,-0.0017707126680761576,0.004130884539335966,-0.0001354814594378695,-0.026408545672893524,0.026425153017044067,1.3167376518249512,-1.4652409553527832,1.6273720264434814,-0.0678950697183609,0.37740403413772583,0.6258074641227722,0.42000001668930054,-1.4800901412963867,3.000000238418579,-0.09589084982872009,-3.0000009536743164,0.002873258665204048,0.0024941125884652138,0.0020771482959389687,0.0016194991767406464,0.14998847246170044,0.12123004347085953,0.09097868204116821,0.05914187803864479
0.05,0.018487796187400818,0.01388279814273119,0.0,0.9999645352363586,0.0,0.0,-0.008422883227467537,0.6361106634140015,0.47208720445632935,0.0,0.0,0.0,-4.072667121887207,-0.3575786352157593,0.7309015989303589,0.4200000464916229,1.0,3.7651902857760433e-06,-2.2119197637948673e-06,5.609367637049445e-09,0.00026530938339419663,0.00026691678795032203,-0.00010440615005791187,-0.0017243892652913928,0.004177466034889221,-0.00012949809024576098,-0.053589630872011185,0.057818703353405,1.3128564357757568,-1.804152011871338,2.0679550170898438,-0.3891026973724365,0.37740403413772583,0.6258074641227722,0.42000001668930054,-1.4300718307495117,3.00000262260437,-0.14590635895729065,-3.000000476837158,0.005546269007027149,0.004592724610120058,0.0035668248310685158,0.002464658347889781,0.18082523345947266,0.13691899180412292,0.0910925641655922,0.04327003285288811
0.06666666666666667,0.030847009271383286,0.02337491139769554,0.0,0.9998473525047302,0.0,0.0,-0.01747271791100502,0.7733708024024963,0.6162777543067932,0.0,0.0,0.0,-0.028122801333665848,-0.3575786352157593,0.7309015393257141,0.4200000464916229,0.9999999403953552,3.406832092878176e-06,-2.28558906201215e-06,4.300801492718165e-07,0.0002670248504728079,0.0002679176686797291,-0.0001043803058564663,-0.00174071139190346,0.00421183044090867,-0.00012850876373704523,-0.08685430884361267,0.09150615334510803,1.3042285442352295,-2.048884868621826,2.121509313583374,-0.6372163891792297,0.37740403413772583,0.6258074641227722,0.42000001668930054,-1.3800475597381592,2.9999990463256836,-0.11235058307647705,2.9999985694885254,0.007621928583830595,0.005846722982823849,0.003958737477660179,0.0019532963633537292,0.09796051681041718,0.039349570870399475,-0.021425209939479828,-0.08440683037042618
0.08333333333333333,0.036942340433597565,0.036582477390766144,0.0,0.9991457462310791,0.0,0.0,-0.04132521525025368,0.22625887393951416,0.8780398368835449,0.0,0.0,0.0,-3.800332546234131,-0.3575786352157593,0.7309015393257141,0.4200000464916229,0.9999999403953552,3.626166289905086e-06,-2.3353043161478126e-06,3.032100153177453e-07,0.00026614085072651505,0.0002668516826815903,-0.00010405341163277626,-0.001728349830955267,0.004196455702185631,-0.0001279077841900289,-0.11560668796300888,0.1308060586452484,1.2917914390563965,-1.43996262550354,2.601033926010132,-0.7818526029586792,0.37740403413772583,0.6258074641227722,0.42000001668930054,-1.3300483226776123,3.000002384185791,-0.14438346028327942,-3.0000009536743164,0.0030035001691430807,0.00040059591992758214,-0.0023689325898885727,-0.005313305649906397,-0.4135339558124542,-0.4751759469509125,-0.5396110415458679,-0.6070691347122192
0.1,0.046766042709350586,0.05156681686639786,0.0,0.9956942200660706,0.0,0.0,-0.09269852191209793,0.7369519472122192,0.9046297073364258,0.0,0.0,0.0,-6.957176208496094,-0.3575786352157593,0.7309015393257141,0.4200000464916229,1.0,3.4222334761579987e-06,-2.3086047349352157e-06,1.796183539681806e-07,0.0002668157103471458,0.00026800340856425464,-0.00010440708138048649,-0.0017429988365620375,0.004207124002277851,-0.00012891183723695576,-0.14158818125724792,0.17596736550331116,1.2786376476287842,-1.6671833992004395,2.850210666656494,-0.8473387956619263,0.37740403413772583,0.6258074641227722,0.42000001668930054,-1.280033826828003,2.999997138977051,-0.13127335906028748,3.000000238418579,0.0005486389854922891,-0.0035954883787781,-0.007910105399787426,-0.012403467670083046,-0.05272611975669861,-0.15243184566497803,-0.2510986328125,-0.34865400195121765
0.11666666666666667,0.05534406378865242,0.06363947689533234,0.0,0.9922216534614563,0.0,0.0,-0.12448348850011826,0.5396047830581665,0.6848011016845703,0.0,0.0,0.0,-2.571070432662964,-0.3575786352157593,0.7309015989303589,0.4200000464916229,1.0,3.711570343511994e-06,-2.332746134925401e-06,2.5742929210537113e-07,0.0002648576919455081,0.0002663539198692888,-0.00010423408821225166,-0.0017182708252221346,0.004170178435742855,-0.0001291575754294172,-0.17277948558330536,0.22107189893722534,1.2629660367965698,-1.8203208446502686,2.916473388671875,-0.9500601887702942,0.37740403413772583,0.6258074641227722,0.42000001668930054,-1.2304149866104126,2.9263105392456055,-0.16315047442913055,-3.0000009536743164,-0.002449540188536048,-0.00817303266376257,-0.014039941132068634,-0.020058127120137215,-0.0989830270409584,-0.21200938522815704,-0.3216606676578522,-0.4277661442756653
0.13333333333333333,0.061669737100601196,0.07289566844701767,0.0,0.9861577153205872,0.0,0.0,-0.16581016778945923,0.3295518159866333,0.48025649785995483,0.0,0.0,0.0,-5.7965474128723145,-0.3575786352157593,0.7309015393257141,0.4200000464916229,1.0,3.335774863444385e-06,-2.2319691197481006e-06,3.1131583000387764e-07,0.0002666965883690864,0.0002675943251233548,-0.00010428344830870628,-0.0017370636342093349,0.004205815959721804,-0.0001284035388380289,-0.20175187289714813,0.27523475885391235,1.2431541681289673,-1.6005852222442627,3.635312557220459,-1.392923355102539,0.37740403413772583,0.6258074641227722,0.42000001668930054,-1.1806658506393433,2.9927306175231934,-0.12954510748386383,2.9999990463256836,-0.005593704991042614,-0.013059308752417564,-0.020604534074664116,-0.02823549509048462,-0.2316189557313919,-0.32867783308029175,-0.4216140806674957,-0.5103339552879333
0.15,0.06409153342247009,0.08312646299600601,0.0,0.9729306101799011,0.0,0.0,-0.2310974895954132,0.07189922779798508,0.6708946824073792,0.0,0.0,0.0,-8.837804794311523,-0.3575786352157593,0.7309015393257141,0.4200000464916229,1.0,3.51896619577019e-06,-2.2831691239844076e-06,-3.625396516326873e-07,0.00026618328411132097,0.00026735622668638825,-0.00010425481013953686,-0.0017348447581753135,0.004195693414658308,-0.0001286104234168306,-0.23128089308738708,0.33732378482818604,1.2154407501220703,-1.729734182357788,3.9370720386505127,-1.9532299041748047,0.37740403413772583,0.6258074641227722,0.42000001668930054,-1.1520109176635742,0.6274024248123169,-0.16147874295711517,-2.9999992847442627,-0.01109328493475914,-0.019953297451138496,-0.028811872005462646,-0.03767387196421623,-0.4039739966392517,-0.4684903919696808,-0.5283195972442627,-0.5834618210792542
0.16666666666666666,0.07040847092866898,0.09049174189567566,0.0,0.9611036777496338,0.0,0.0,-0.27618783712387085,0.43012917041778564,0.35031184554100037,0.0,0.0,0.0,-4.270321369171143,-0.3575786352157593,0.7309015393257141,0.4200000464916229,1.0,3.6666901905846316e-06,-2.339151933483663e-06,-3.150083500713663e-07,0.00026595874805934727,0.0002666740329004824,-0.00010403385385870934,-0.001725255511701107,0.004192718770354986,-0.0001277866685995832,-0.26661431789398193,0.4032071828842163,1.1747801303863525,-2.00944185256958,4.318333625793457,-2.9061203002929688,0.37740403413772583,0.6258074641227722,0.42000001668930054,-1.1103851795196533,3.000002145767212,-0.21150325238704681,-3.0,-0.016877640038728714,-0.026444924995303154,-0.03594415634870529,-0.04538200423121452,-0.4726317822933197,-0.4801660478115082,-0.4853423535823822,-0.48833903670310974
0.18333333333333332,0.07135124504566193,0.10065191239118576,0.0,0.9434341788291931,0.0,0.0,-0.3315598964691162,0.06602520495653152,0.6069099307060242,0.0,0.0,0.0,-7.66091251373291,-0.3575786352157593,0.7309015393257141,0.4200000464916229,1.0,3.814420779235661e-06,-2.399499635430402e-06,-2.7027235205423494e-07,0.00026548944879323244,0.0002661115431692451,-0.00010391324758529663,-0.0017178029520437121,0.004184751771390438,-0.00012753890769090503,-0.2974807322025299,0.47426074743270874,1.1177046298980713,-1.498117446899414,4.513258934020996,-3.6592965126037598,0.37740403413772583,0.6258074641227722,0.42000001668930054,-1.0603821277618408,2.999851942062378,-0.2615315020084381,-2.999999761581421,-0.030753832310438156,-0.04018182307481766,-0.049510277807712555,-0.05875598266720772,-0.6065927743911743,-0.6662577986717224,-0.7219119071960449,-0.7724581956863403
0.2,0.07793179899454117,0.10574749857187271,0.0,0.9301798939704895,0.0,0.0,-0.3671039640903473,0.39995428919792175,0.23430855572223663,0.0,0.0,0.0,-3.2059173583984375,-0.3575786352157593,0.7309015393257141,0.4200000464916229,1.0,3.600102218115353e-06,-2.29119359573815e-06,-2.2019156631358783e-07,0.0002657294971868396,0.00026644946774467826,-0.00010398216545581818,-0.0017227602656930685,0.004188841208815575,-0.00012773591151926666,-0.3243938088417053,0.5456096529960632,1.0480873584747314,-1.2655824422836304,4.359945297241211,-4.707912445068359,0.37740403413772583,0.6258074641227722,0.42000001668930054,-1.0143977403640747,2.51874041557312,-0.3115578591823578,-2.999998092651367,-0.03931887075304985,-0.04925664886832237,-0.05905408039689064,-0.06871730089187622,-0.7379913926124573,-0.7147549986839294,-0.6918124556541443,-0.6689311861991882
0.21666666666666667,0.07867744565010071,0.11481288820505142,0.0,0.9127601981163025,0.0,0.0,-0.4084957540035248,0.045414481312036514,0.5159193873405457,0.0,0.0,0.0,-6.42429256439209,-0.3575786352157593,0.7309015393257141,0.4200000464916229,0.9999999403953552,3.639728220150573e-06,-2.261914687551325e-06,2.2246757680477458e-07,0.0002668741799425334,0.0002675442083273083,-0.00010411837138235569,-0.0017403532983735204,0.004211121238768101,-0.00012784327554982156,-0.34290018677711487,0.6108462810516357,0.9594024419784546,-0.74207603931427,3.8181777000427246,-5.676325798034668,0.37740403413772583,0.6258074641227722,0.42000001668930054,-0.9647279977798462,2.9999914169311523,-0.36158475279808044,-3.000000476837158,-0.05520482361316681,-0.06516044586896896,-0.07494184374809265,-0.08446606248617172,-0.6408723592758179,-0.6995815634727478,-0.753928005695343,-0.8026079535484314
0.23333333333333334,0.08063890784978867,0.11888132244348526,0.0,0.9010561108589172,0.0,0.0,-0.4337025582790375,0.07666302472352982,0.23602773249149323,0.0,0.0,0.0,-2.1545615196228027,-0.3575786054134369,0.7309015393257141,0.4200000464916229,1.0,3.4208205761387944e-06,-2.31679678108776e-06,2.9558265168816433e-07,0.0002668011875357479,0.00026803891523741186,-0.00010442500934004784,-0.0017436320194974542,0.004206853918731213,-0.00012899722787551582,-0.3567966818809509,0.6648616790771484,0.8603494167327881,-0.45050349831581116,2.8642988204956055,-6.2717084884643555,0.37740403413772583,0.6258074641227722,0.42000001668930054,-0.9147191047668457,2.9999964237213135,-0.4116145372390747,-3.0000009536743164,-0.0664854422211647,-0.07662518322467804,-0.08657251298427582,-0.0962383896112442,-0.9258702397346497,-0.8753201961517334,-0.8274880647659302,-0.7828631401062012
0.25,0.07868483662605286,0.12588824331760406,0.0,0.9030126333236694,0.0,0.0,-0.42961397767066956,-0.1782347559928894,0.4162980616092682,0.0,0.0,0.0,1.3422040939331055,-0.3575786352157593,0.7309015393257141,0.4200000464916229,0.9999999403953552,3.3476744647487067e-06,-2.2591534616367426e-06,1.8083225938880787e-07,0.0002668770612217486,0.00026791077107191086,-0.00010439194738864899,-0.0017404238460585475,0.004208190366625786,-0.00012870175123680383,-0.3686071038246155,0.7002845406532288,0.7550164461135864,-0.7005345225334167,1.568718671798706,-6.347820281982422,0.37740403413772583,0.6258074641227722,0.42000001668930054,-0.8647084832191467,2.9999945163726807,-0.4616456627845764,-3.0000009536743164,-0.08206303417682648,-0.09228721261024475,-0.10235925018787384,-0.11211171746253967,-0.9106624126434326,-0.9248873591423035,-0.9381600618362427,-0.9491486549377441
0.26666666666666666,0.07463905215263367,0.12842342257499695,0.0,0.8981017470359802,0.0,0.0,-0.43978768587112427,-0.3311088979244232,0.16607871651649475,0.0,0.0,0.0,-2.1598594188690186,-0.3575786352157593,0.7309015393257141,0.4200000464916229,0.9999999403953552,3.5357529668544885e-06,-2.3003142359812045e-06,-1.2686169270637038e-07,0.00026601762510836124,0.0002671225811354816,-0.00010419590398669243,-0.0017317383317276835,0.004192912019789219,-0.0001284929021494463,-0.3768220841884613,0.7238122224807739,0.6468601226806641,-0.20088139176368713,0.9191795587539673,-6.482316017150879,0.37740403413772583,0.6258074641227722,0.42000001668930054,-0.8146990537643433,3.0000011920928955,-0.5116767883300781,-2.9999992847442627,-0.09780813008546829,-0.1079627275466919,-0.11798365414142609,-0.1276889145374298,-1.0062882900238037,-1.004734992980957,-1.0035563707351685,-1.0026196241378784
0.2833333333333333,0.0677376389503479,0.12924817204475403,0.0,0.9005031585693359,0.0,0.0,-0.43484950065612793,-0.45518359541893005,0.0056079658679664135,0.0,0.0,0.0,1.5147300958633423,-0.3575786352157593,0.7309015989303589,0.4200000464916229,1.0,3.5935311188950436e-06,-2.2625688416155754e-06,-5.654767321061627e-08,0.00026704734773375094,0.0002677497686818242,-0.00010416633449494839,-0.0017430580919608474,0.004214033950120211,-0.00012789166066795588,-0.3788604438304901,0.7320272922515869,0.5428634881973267,0.01771724969148636,0.00024630874395370483,-6.019540309906006,0.37740403413772583,0.6258074641227722,0.42000001668930054,-0.7646902799606323,3.000001907348633,-0.5617064237594604,-2.999999523162842,-0.11510725319385529,-0.12509864568710327,-0.1349998265504837,-0.1446133255958557,-1.0050570964813232,-1.0038264989852905,-1.0028899908065796,-1.0021415948867798
0.3,0.05876053124666214,0.12748056650161743,0.0,0.8960788249969482,0.0,0.0,-0.44389498233795166,-0.5808302164077759,-0.14921283721923828,0.0,0.0,0.0,-2.0864672660827637,-0.3575786054134369,0.7309015393257141,0.4200000464916229,0.9999999403953552,3.725058377312962e-06,-2.236010232081753e-06,3.828667161087651e-07,0.0002647990477271378,0.00026672965032048523,-0.00010453816503286362,-0.001718871295452118,0.0041667441837489605,-0.00013016721641179174,-0.37250006198883057,0.7314527034759521,0.44555991888046265,0.6962405443191528,-0.16542014479637146,-5.491779327392578,0.37740403413772583,0.6258074641227722,0.42000001668930054,-0.7146823406219482,3.0000011920928955,-0.61173415184021,-2.999999523162842,-0.13271674513816833,-0.14250177145004272,-0.15224860608577728,-0.16174042224884033,-1.01731538772583,-1.0131504535675049,-1.0099749565124512,-1.0074232816696167
0.31666666666666665,0.04791164770722389,0.12313280999660492,0.0,0.8989207148551941,0.0,0.0,-0.4381113648414612,-0.6881765127182007,-0.30605989694595337,0.0,0.0,0.0,1.6635130643844604,-0.35774198174476624,0.7302299737930298,0.42047667503356934,0.9999362826347351,0.007189577911049128,-0.0047058784402906895,-0.007314995396882296,0.006135204806923866,0.002027881098911166,0.057590726763010025,1.7296932935714722,-1.161935567855835,1.1642189025878906,-0.3676714599132538,0.7312971353530884,0.415635883808136,0.29206129908561707,0.22925932705402374,-0.1603737771511078,0.37740403413772583,0.6258074641227722,0.42000001668930054,-0.6648545861244202,2.9316048622131348,-0.6622368693351746,-2.858217239379883,-0.13943488895893097,-0.150102898478508,-0.16059298813343048,-0.17061366140842438,-0.12829995155334473,-0.19559870660305023,-0.24241992831230164,-0.26197922229766846
0.3333333333333333,0.03501838818192482,0.11620950698852539,0.0,0.8948028087615967,0.0,0.0,-0.44646161794662476,-0.8153120279312134,-0.457220196723938,0.0,0.0,0.0,-2.049020767211914,-0.35588905215263367,0.7325353622436523,0.42061910033226013,0.9996252655982971,0.015647446736693382,-0.00021241758076939732,-0.02245612069964409,0.2685704827308655,0.32807666063308716,0.04434317722916603,2.256159782409668,-0.03259715065360069,-3.5694732666015625,-0.3647480010986328,0.7364838719367981,0.4252951145172119,0.31153690814971924,0.32868635654449463,-0.14902791380882263,0.37740403413772583,0.6258074641227722,0.42000001668930054,-0.6148443222045898,2.999980926513672,-0.7123124599456787,-2.999896287918091,-0.14096461236476898,-0.15234613418579102,-0.1631435751914978,-0.17297706007957458,-0.2622602581977844,-0.2554076611995697,-0.2298019826412201,-0.1822611689567566
0.35,0.020064039155840874,0.10688948631286621,0.0,0.8978028893470764,0.0,0.0,-0.4403974711894989,-0.9355181455612183,-0.5999454259872437,0.0,0.0,0.0,1.7381387948989868,-0.35061559081077576,0.739010214805603,0.42041170597076416,0.9979715943336487,0.010310828685760498,-0.0008033166523091495,-0.06281524896621704,0.32270631194114685,0.3938949704170227,-0.03578399866819382,-1.8506860733032227,0.15906259417533875,-4.798300743103027,-0.3582718074321747,0.7431879043579102,0.4227268695831299,0.48606353998184204,0.4585689604282379,-0.13850882649421692,0.37740403413772583,0.6258074641227722,0.42000001668930054,-0.5648393034934998,2.999983310699463,-0.7623432278633118,-2.999999761581421,-0.1478787511587143,-0.1581396907567978,-0.16751094162464142,-0.17559795081615448,-0.4728563725948334,-0.3699292838573456,-0.24934172630310059,-0.11165028065443039
0.36666666666666664,0.008602065034210682,0.09455608576536179,0.0,0.8939526081085205,0.0,0.0,-0.4481614828109741,-0.6026427745819092,-0.7915993928909302,0.0,0.0,0.0,-1.9625003337860107,-0.34428903460502625,0.7457475066184998,0.42000049352645874,0.991207480430603,-1.1248387636442203e-05,1.0263613148708828e-05,-0.13231657445430756,0.37873613834381104,0.37807899713516235,-0.0006776945083402097,0.02635049819946289,-0.009015089832246304,-9.287493705749512,-0.34950438141822815,0.748286783695221,0.4209977984428406,0.6553249359130859,0.3049377202987671,-0.09369344264268875,0.37740403413772583,0.6258074641227722,0.42000001668930054,-0.5148345232009888,2.999967575073242,-0.812390923500061,-2.999997138977051,-0.15621216595172882,-0.16423958539962769,-0.17105494439601898,-0.17629750072956085,-0.5000618100166321,-0.34405869245529175,-0.1694774478673935,0.020572664216160774
0.3833333333333333,-0.004445877857506275,0.08047034591436386,0.0,0.8758856058120728,0.0,0.0,-0.4825187623500824,-0.8537384867668152,-0.8710188865661621,0.0,0.0,0.0,-5.606780052185059,-0.3347862958908081,0.7545340061187744,0.4201454520225525,0.9703513979911804,0.0035619214177131653,-0.0005175916594453156,-0.24167148768901825,0.7653618454933167,0.6778561472892761,0.05379771441221237,2.6303791999816895,-1.0800564289093018,-18.714563369750977,-0.33563172817230225,0.7565244436264038,0.4209667444229126,1.0454483032226562,0.7499830722808838,0.07341630756855011,0.37740403413772583,0.6258074641227722,0.42000001668930054,-0.4648303687572479,2.999985933303833,-0.862443745136261,-2.999985456466675,-0.16604089736938477,-0.17104853689670563,-0.1745152622461319,-0.17615121603012085,-0.5592199563980103,-0.37701237201690674,-0.17446713149547577,0.043707169592380524
0.4,-0.014977345243096352,0.06346744298934937,0.0,0.8419234752655029,0.0,0.0,-0.5395969748497009,-0.5740441679954529,-1.0679512023925781,0.0,0.0,0.0,-8.771271705627441,-0.3047177195549011,0.7734678387641907,0.4228862524032593,0.9593911170959473,0.0021916728001087904,-0.024045825004577637,-0.28104373812675476,2.2660796642303467,1.7668684720993042,0.03441955894231796,12.905426979064941,-26.291526794433594,-12.423056602478027,-0.306005597114563,0.7745830416679382,0.4233938455581665,2.831756591796875,1.5109386444091797,0.3151720464229584,0.37740403413772583,0.6258074641227722,0.42000001668930054,-0.4149453341960907,2.8696906566619873,-0.9124786853790283,-2.9999985694885254,-0.17559543251991272,-0.17712464928627014,-0.1767754703760147,-0.17436076700687408,-0.6121403574943542,-0.37177908420562744,-0.11417420208454132,0.1531560868024826
0.4166666666666667,-0.022829914465546608,0.05127875879406929,0.0,0.7889088988304138,0.0,0.0,-0.614510178565979,-0.4175580143928528,-0.5551544427871704,0.0,0.0,0.0,-11.849588394165039,-0.23146477341651917,0.801181435585022,0.42825111746788025,0.9349510073661804,0.0580420196056366,-0.07095877081155777,-0.34272804856300354,6.043749809265137,1.860621452331543,0.33402031660079956,15.676685333251953,-15.502440452575684,7.0478291511535645,-0.2321406602859497,0.8027008175849915,0.4290952682495117,5.6415581703186035,1.9192631244659424,0.5335500240325928,0.37740403413772583,0.6258074641227722,0.42000001668930054,-0.38580647110939026,1.0737985372543335,-0.8755434155464172,2.998540163040161,-0.19174446165561676,-0.19009825587272644,-0.18388450145721436,-0.17579446732997894,-0.9270297884941101,-0.8942579627037048,-0.5435687899589539,-0.21391773223876953
0.43333333333333335,-0.027319924905896187,0.04333864152431488,0.0,0.7461685538291931,0.0,0.0,-0.6657570600509644,-0.22592486441135406,-0.4348471462726593,0.0,0.0,0.0,-6.796471118927002,-0.13875934481620789,0.8290277719497681,0.4391763210296631,0.9028257131576538,0.09031964093446732,-0.09563927352428436,-0.40939122438430786,5.9093475341796875,1.098979115486145,0.8040387034416199,8.901657104492188,-10.482898712158203,4.659474849700928,-0.13875442743301392,0.8317772150039673,0.44003230333328247,5.611205101013184,1.4555721282958984,0.7961767315864563,0.37740403413772583,0.6258074641227722,0.42000001668930054,-0.36968132853507996,1.0091423988342285,-0.9019342064857483,-3.0000014305114746,-0.20253391563892365,-0.20187826454639435,-0.1937224566936493,-0.18102288246154785,-0.5615622401237488,-0.6105603575706482,-0.5368143916130066,-0.32203829288482666
0.45,-0.034147731959819794,0.03053426183760166,0.0,0.7245067954063416,0.0,0.0,-0.689267635345459,-0.33130890130996704,-0.6980928182601929,0.0,0.0,0.0,-2.5806071758270264,-0.043619073927402496,0.8447028398513794,0.45348986983299255,0.8422858715057373,0.09537836909294128,-0.09103498607873917,-0.5226567387580872,5.731135845184326,-0.4454178810119629,0.8101673126220703,0.21608197689056396,-10.989816665649414,12.256333351135254,-0.0450921505689621,0.8475551605224609,0.45312318205833435,5.769426345825195,0.24465322494506836,0.9017331004142761,0.37740403413772583,0.6258074641227722,0.42000001668930054,-0.35078585147857666,1.1096683740615845,-0.9519582390785217,-3.0000011920928955,-0.21019558608531952,-0.20897313952445984,-0.19877314567565918,-0.18223828077316284,-0.7793834805488586,-0.6063186526298523,-0.3776283860206604,-0.0769534483551979
0.4666666666666667,-0.04095464199781418,0.022740157321095467,0.0,0.6951537728309631,0.0,0.0,-0.7188610434532166,-0.4429333209991455,-0.37403327226638794,0.0,0.0,0.0,-5.9275994300842285,0.050166528671979904,0.8364953994750977,0.46392807364463806,0.7826513648033142,0.08902405947446823,-0.09543050080537796,-0.6086251139640808,5.294365882873535,-1.795652151107788,0.4062764644622803,0.950704038143158,2.427809953689575,24.09671401977539,0.04814693331718445,0.8405824899673462,0.46431979537010193,5.628202438354492,-0.9889224767684937,0.6694291830062866,0.37740403413772583,0.6258074641227722,0.42000001668930054,-0.3330150842666626,0.8622938990592957,-1.0019822120666504,-2.9998326301574707,-0.2250722050666809,-0.2199093997478485,-0.20525270700454712,-0.18349485099315643,-0.8745079636573792,-0.603182315826416,-0.3217375576496124,-0.015762709081172943
0.48333333333333334,-0.04597307741641998,0.010943148285150528,0.0,0.6784112453460693,0.0,0.0,-0.7346823811531067,-0.2781103849411011,-0.6816140413284302,0.0,0.0,0.0,-1.6360323429107666,0.13500405848026276,0.8147953152656555,0.4710733890533447,0.7301183938980103,0.06334107369184494,-0.07163729518651962,-0.6765967011451721,4.3365278244018555,-2.3951404094696045,0.22069863975048065,-9.561837196350098,-5.595391750335693,20.215869903564453,0.13328105211257935,0.8197231292724609,0.4714028239250183,4.780412673950195,-1.6787041425704956,0.39773446321487427,0.37740403413772583,0.6258074641227722,0.42000001668930054,-0.3205276429653168,0.5647240877151489,-1.052004337310791,-3.00000262260437,-0.23381085693836212,-0.22481709718704224,-0.2065645158290863,-0.18117228150367737,-0.5558434724807739,-0.3011744022369385,-0.0865386500954628,0.10406812280416489
0.5,-0.04818117618560791,0.003933480940759182,0.0,0.6534436345100403,0.0,0.0,-0.7569751739501953,-0.054119471460580826,-0.392353892326355,0.0,0.0,0.0,-4.795412063598633,0.20497256517410278,0.7847601771354675,0.47144025564193726,0.6980529427528381,0.036456190049648285,-0.053457051515579224,-0.7131165862083435,3.611048460006714,-2.351478338241577,-0.16444170475006104,-5.274413585662842,-0.5210264325141907,11.048564910888672,0.2036130130290985,0.7888914346694946,0.47232022881507874,3.9269514083862305,-2.030241012573242,-0.1294996291399002,0.37740403413772583,0.6258074641227722,0.42000001668930054,-0.3091341257095337,0.7973262667655945,-1.1020264625549316,-3.0000016689300537,-0.23995181918144226,-0.22986838221549988,-0.20879866182804108,-0.18121355772018433,-0.00966266542673111,-0.1778261363506317,-0.07273878157138824,-0.012747961096465588
0.5166666666666666,-0.046922359615564346,0.0005791533039882779,0.0,0.6441447734832764,0.0,0.0,-0.7649036049842834,0.10857932269573212,-0.1288011372089386,0.0,0.0,0.0,-0.4360378384590149,0.2619902193546295,0.750402569770813,0.46580424904823303,0.6575547456741333,-0.007433324120938778,-0.033272936940193176,-0.7526348829269409,2.6796875,-2.5106241703033447,-0.4419853389263153,-0.4426938593387604,-0.025151405483484268,14.176924705505371,0.26078248023986816,0.7543572187423706,0.4674007296562195,3.066425085067749,-2.1545917987823486,-0.3860313594341278,0.37740403413772583,0.6258074641227722,0.42000001668930054,-0.2929615378379822,0.9849759936332703,-1.1520485877990723,-3.0,-0.23950549960136414,-0.23196269571781158,-0.20984768867492676,-0.18209509551525116,0.09139898419380188,-0.028608888387680054,-0.010399870574474335,-0.05138827860355377
0.5333333333333333,-0.042594701051712036,-0.00797094777226448,0.0,0.624174952507019,0.0,0.0,-0.7812845706939697,0.3168986737728119,-0.6454561352729797,0.0,0.0,0.0,-4.129339694976807,0.30727484822273254,0.7181847095489502,0.4535676836967468,0.6324909925460815,-0.042452771216630936,-0.005757225211709738,-0.7733820080757141,2.036081314086914,-2.3408052921295166,-0.8533090949058533,-1.3390617370605469,-0.24471506476402283,20.61349868774414,0.3062928020954132,0.7213027477264404,0.45547306537628174,2.491184949874878,-1.947059988975525,-0.8637450933456421,0.37740403413772583,0.6258074641227722,0.42000001668930054,-0.2766720950603485,0.8341003656387329,-1.202070713043213,-2.999999523162842,-0.2306738793849945,-0.22614841163158417,-0.20556502044200897,-0.18023447692394257,0.6729276180267334,0.4946928918361664,0.35700365900993347,0.1638110876083374
0.55,-0.03688453510403633,-0.011889797635376453,0.0,0.6178407669067383,0.0,0.0,-0.7863032221794128,0.37901657819747925,-0.11024671792984009,0.0,0.0,0.0,-0.0028593300376087427,0.34098020195961,0.6873545050621033,0.4375664293766022,0.6144248247146606,-0.052870381623506546,-0.007192492950707674,-0.7871690988540649,1.360799789428711,-2.084887742996216,-0.9212704300880432,1.6783430576324463,-3.7526919841766357,16.096412658691406,0.3393385708332062,0.6895678043365479,0.4397221803665161,1.7362611293792725,-1.8188066482543945,-0.9874898195266724,0.37740403413772583,0.6258074641227722,0.42000001668930054,-0.2619855999946594,0.8395493626594543,-1.164175033569336,2.999267816543579,-0.2241625338792801,-0.22151479125022888,-0.2029210776090622,-0.18063120543956757,0.3645576536655426,0.2641617953777313,0.1208876520395279,-0.08573052287101746
0.5666666666666667,-0.033227819949388504,-0.01909443363547325,0.0,0.6021345257759094,0.0,0.0,-0.7983946204185486,0.1812310367822647,-0.49477672576904297,0.0,0.0,0.0,-2.921630382537842,0.3608807623386383,0.6631504893302917,0.4245532751083374,0.6227443218231201,-0.08195780217647552,0.00642701331526041,-0.778094470500946,0.8115212321281433,-1.2695108652114868,0.3268122375011444,6.418721675872803,-10.462089538574219,9.491483688354492,0.3605859875679016,0.6655158996582031,0.42705512046813965,0.5541889667510986,-1.0109684467315674,0.07317790389060974,0.37740403413772583,0.6258074641227722,0.42000001668930054,-0.24475252628326416,0.7134078741073608,-1.1860487461090088,-2.9967422485351562,-0.21406503021717072,-0.2136916220188141,-0.19843128323554993,-0.18034310638904572,0.46043211221694946,0.3665653169155121,0.18953104317188263,-0.03523378074169159
0.5833333333333334,-0.02749570645391941,-0.02189478650689125,0.0,0.6014396548271179,0.0,0.0,-0.7989182472229004,0.3549632430076599,-0.14709672331809998,0.0,0.0,0.0,0.7001465559005737,0.37118202447891235,0.6477608680725098,0.4223116934299469,0.5914890766143799,-0.042959168553352356,-0.008638424798846245,-0.8051213622093201,0.38341599702835083,-0.7765045762062073,-0.13795311748981476,6.481691360473633,-2.757477283477783,-3.1111598014831543,0.36781108379364014,0.6495984792709351,0.42536717653274536,0.32941198348999023,-0.7281926870346069,-0.1439322829246521,0.37740403413772583,0.6258074641227722,0.42000001668930054,-0.23369108140468597,0.9851467609405518,-1.1481342315673828,3.0000927448272705,-0.20957183837890625,-0.21015550196170807,-0.19755718111991882,-0.18290944397449493,0.40420329570770264,0.31221652030944824,0.110327810049057,-0.12762804329395294
0.6,-0.024273771792650223,-0.023042598739266396,0.0,0.5894593000411987,0.0,0.0,-0.8077980875968933,0.13841727375984192,0.0276150181889534,0.0,0.0,0.0,-2.6715023517608643,0.3713191747665405,0.6367059946060181,0.4214455485343933,0.6099509000778198,-0.025924474000930786,-0.0001030240673571825,-0.792015016078949,-0.20951694250106812,-0.5926749110221863,-0.04996085911989212,3.4619853496551514,-0.30321601033210754,3.9327330589294434,0.36956146359443665,0.6418824195861816,0.42556118965148926,-0.051439639180898666,-0.3308088183403015,0.0800500363111496,0.37740403413772583,0.6258074641227722,0.42000001668930054,-0.2197451889514923,0.9845631122589111,-1.1667864322662354,-2.997620105743408,-0.20181912183761597,-0.2041381299495697,-0.19515617191791534,-0.18455897271633148,0.43741750717163086,0.34656447172164917,0.13715499639511108,-0.09441772103309631
0.6166666666666667,-0.020519299432635307,-0.02752598002552986,0.0,0.5908501148223877,0.0,0.0,-0.8067813515663147,0.230433389544487,-0.23552639782428741,0.0,0.0,0.0,1.0471018552780151,0.3715595602989197,0.6352407336235046,0.4210974872112274,0.6087808012962341,-0.01586003415286541,0.018898477777838707,-0.792954683303833,0.004862397909164429,-0.1977687031030655,-0.055448297411203384,5.717138290405273,-1.971145749092102,1.0067311525344849,0.36723592877388,0.6379747986793518,0.42631059885025024,-0.27109673619270325,-0.16184337437152863,-0.007880263030529022,0.37740403413772583,0.6258074641227722,0.42000001668930054,-0.23212167620658875,-1.6369743347167969,-1.1289100646972656,2.996147394180298,-0.19062265753746033,-0.19496235251426697,-0.18999208509922028,-0.1836678832769394,0.5240016579627991,0.44805654883384705,0.24761296808719635,0.029249539598822594
0.6333333333333333,-0.014688648283481598,-0.027536680921912193,0.0,0.581380307674408,0.0,0.0,-0.8136319518089294,0.3982408046722412,0.011693852953612804,0.0,0.0,0.0,-2.2499852180480957,0.3703747093677521,0.6333264708518982,0.42000433802604675,0.62273770570755,8.02056456450373e-05,0.00012532791879493743,-0.7824305891990662,-0.034894783049821854,-0.07290125638246536,-0.006649818271398544,-0.3184984624385834,0.05273054540157318,0.8911186456680298,0.3649563789367676,0.6365747451782227,0.42593440413475037,-0.02664806693792343,-0.005660209804773331,0.17536157369613647,0.37740403413772583,0.6258074641227722,0.42000001668930054,-0.2784807085990906,-2.998494863510132,-1.1511406898498535,-2.999018430709839,-0.18307740986347198,-0.1886395663022995,-0.18683695793151855,-0.18384678661823273,0.5377016067504883,0.4489416480064392,0.2517808675765991,0.052497509866952896
0.65,-0.006718505639582872,-0.0302334725856781,0.0,0.5855360627174377,0.0,0.0,-0.8106463551521301,0.4883716404438019,-0.192180335521698,0.0,0.0,0.0,1.5006712675094604,0.3702203929424286,0.6330262422561646,0.4200000464916229,0.6240211725234985,-3.923998974642018e-07,4.098369572602678e-06,-0.7814074158668518,0.0011113829677924514,0.002406707964837551,-8.182681631296873e-05,-0.00037992099532857537,-0.0018489594804123044,-0.02425401099026203,0.3646194338798523,0.6377604007720947,0.42911481857299805,-0.09679955989122391,0.06537996977567673,0.20833995938301086,0.37740403413772583,0.6258074641227722,0.42000001668930054,-0.3284839987754822,-2.9999587535858154,-1.2011451721191406,-2.9998891353607178,-0.17306341230869293,-0.17995470762252808,-0.18117645382881165,-0.18119032680988312,0.46295955777168274,0.43288454413414,0.3038594126701355,0.1736530065536499
0.6666666666666666,0.0036283533554524183,-0.0335618332028389,0.0,0.6115143895149231,0.0,0.0,-0.7912333011627197,0.6668235659599304,-0.2395056188106537,0.0,0.0,0.0,4.784426689147949,0.3702199161052704,0.6330267786979675,0.41999995708465576,0.6240211725234985,-7.362024234680575e-07,-6.036735612724442e-06,-0.7814074158668518,0.00019247591262683272,-0.00043045158963650465,-9.095924906432629e-05,0.009740959852933884,-0.0017578990664333105,-0.0006778135430067778,0.3634476363658905,0.6383252143859863,0.4332040548324585,-0.04058641940355301,0.013616591691970825,0.29472604393959045,0.37740403413772583,0.6258074641227722,0.42000001668930054,-0.3784855306148529,-2.999964714050293,-1.2511465549468994,-2.999933958053589,-0.16849641501903534,-0.1747913360595703,-0.17684827744960785,-0.17763158679008484,0.22304889559745789,0.29522037506103516,0.29306626319885254,0.2994513213634491
0.6833333333333333,0.01600673422217369,-0.039780691266059875,0.0,0.6227759122848511,0.0,0.0,-0.7824002504348755,0.7757446765899658,-0.4196832478046417,0.0,0.0,0.0,0.6818472146987915,0.3702199161052704,0.6330267190933228,0.41999995708465576,0.6240211725234985,-7.289790460163204e-07,-5.390237220126437e-06,-0.781407356262207,0.00018819318211171776,-0.00041005806997418404,-8.649611845612526e-05,0.00930547434836626,-0.0016709690680727363,-0.0006595197482965887,0.3647298812866211,0.6375259160995483,0.4387558698654175,0.17480146884918213,-0.13908928632736206,0.3764033615589142,0.37740403413772583,0.6258074641227722,0.42000001668930054,-0.4284973442554474,-2.9999988079071045,-1.3011606931686401,-2.999999761581421,-0.1664699763059616,-0.171012744307518,-0.17237675189971924,-0.172281876206398,0.09225772321224213,0.21424688398838043,0.28137463331222534,0.36095133423805237
0.7,0.030261024832725525,-0.048631131649017334,0.0,0.6099566221237183,0.0,0.0,-0.792434811592102,0.8872751593589783,-0.5910582542419434,0.0,0.0,0.0,-2.894399642944336,0.3702199161052704,0.6330267190933228,0.41999995708465576,0.6240213513374329,-7.258095138240606e-07,-5.487970611284254e-06,-0.7814072370529175,0.00018939613073598593,-0.0004110980371478945,-8.663348853588104e-05,0.009334706701338291,-0.0016717725666239858,-0.000663166050799191,0.37171655893325806,0.6350910663604736,0.45191872119903564,0.6590080261230469,-0.15580591559410095,1.2953248023986816,0.37740403413772583,0.6258074641227722,0.42000001668930054,-0.47851040959358215,-2.999983549118042,-1.3511790037155151,-3.000000238418579,-0.1670304387807846,-0.16939100623130798,-0.16936342418193817,-0.16767911612987518,-0.07308737188577652,0.05674687772989273,0.1456635743379593,0.2458299994468689
0.7166666666666667,0.04697369784116745,-0.054969023913145065,0.0,0.5753717422485352,0.0,0.0,-0.8178920149803162,1.040468692779541,-0.3323793113231659,0.0,0.0,0.0,-6.047424793243408,0.3702199161052704,0.6330267190933228,0.41999995708465576,0.6240213513374329,-7.249213354043604e-07,-5.561031230172375e-06,-0.7814072370529175,0.00018943945178762078,-0.0004111280431970954,-8.662743493914604e-05,0.009335610084235668,-0.0016706392634660006,-0.0006632177392020822,0.3915870785713196,0.6293885707855225,0.4784485697746277,1.7184948921203613,-0.47967469692230225,2.0215251445770264,0.37740403413772583,0.6258074641227722,0.42000001668930054,-0.5285229682922363,-2.9997148513793945,-1.4011973142623901,-2.9999616146087646,-0.17043079435825348,-0.17062753438949585,-0.16895857453346252,-0.16542024910449982,-0.2022016942501068,-0.08495613932609558,0.008383957669138908,0.11514697223901749
0.7333333333333333,0.060733139514923096,-0.058854129165410995,0.0,0.5555658340454102,0.0,0.0,-0.8314725160598755,0.7404618859291077,-0.18720129132270813,0.0,0.0,0.0,-1.8627917766571045,0.3702199161052704,0.6330267190933228,0.41999995708465576,0.624021053314209,-7.484213710995391e-07,-5.395736934588058e-06,-0.7814074754714966,0.00018875094247050583,-0.0004100981750525534,-8.653011173009872e-05,0.009307165630161762,-0.0016678014071658254,-0.0006609041593037546,0.41941124200820923,0.6273052096366882,0.513631284236908,1.5273946523666382,0.11977805197238922,2.168842077255249,0.37740403413772583,0.6258074641227722,0.42000001668930054,-0.5500945448875427,0.14293430745601654,-1.4512156248092651,-2.9999992847442627,-0.17141610383987427,-0.17060339450836182,-0.16829414665699005,-0.16396135091781616,0.05127357691526413,0.06473775953054428,0.056484390050172806,0.05307752639055252
0.75,0.06926877051591873,-0.060175348073244095,0.0,0.5620912909507751,0.0,0.0,-0.827075183391571,0.46425631642341614,0.018543539568781853,0.0,0.0,0.0,1.7801531553268433,0.3702199161052704,0.6330267190933228,0.41999995708465576,0.624021053314209,-7.342451908698422e-07,-5.421722562459763e-06,-0.7814074754714966,0.0001888893311843276,-0.000410196342272684,-8.654175326228142e-05,0.009309927001595497,-0.001667803735472262,-0.0006613074219785631,0.4413367211818695,0.631397008895874,0.5451804399490356,0.982115626335144,0.25945353507995605,1.637890100479126,0.37740403413772583,0.6258074641227722,0.42000001668930054,-0.5273534059524536,2.3734121322631836,-1.4126253128051758,2.999992847442627,-0.16878148913383484,-0.16799242794513702,-0.16601911187171936,-0.16199037432670593,0.08514683693647385,0.10628879070281982,0.10721193999052048,0.10279256850481033
0.7666666666666666,0.07381366938352585,-0.057774320244789124,0.0,0.555782675743103,0.0,0.0,-0.8313276171684265,0.20565858483314514,0.20748171210289001,0.0,0.0,0.0,-1.850934386253357,0.3702199459075928,0.6330267190933228,0.41999995708465576,0.624021053314209,-7.427177024510456e-07,-5.449411219160538e-06,-0.7814074754714966,0.00018907188496086746,-0.0004102367383893579,-8.654664270579815e-05,0.009311581961810589,-0.001667333533987403,-0.0006618145853281021,0.4502851963043213,0.6353679895401001,0.5656442642211914,0.10644130408763885,0.24087125062942505,1.0113129615783691,0.37740403413772583,0.6258074641227722,0.42000001668930054,-0.4839611053466797,2.763314723968506,-1.3625726699829102,3.0000009536743164,-0.16742555797100067,-0.16640837490558624,-0.16449442505836487,-0.16064661741256714,0.11285403370857239,0.12082361429929733,0.11262159794569016,0.09420808404684067
0.7833333333333333,0.07437559962272644,-0.05942133441567421,0.0,0.5616887211799622,0.0,0.0,-0.8273486495018005,-0.014486672356724739,-0.20144003629684448,0.0,0.0,0.0,1.6716190576553345,0.3702199161052704,0.6330267190933228,0.41999995708465576,0.6240213513374329,-7.312075922527583e-07,-5.574384886131156e-06,-0.7814072370529175,0.0001897842885227874,-0.0004113185277674347,-8.666655048727989e-05,0.009341225028038025,-0.0016720197163522243,-0.0006643072701990604,0.44845154881477356,0.6401530504226685,0.5798550248146057,-0.38065430521965027,0.3188631236553192,0.7398837804794312,0.37740403413772583,0.6258074641227722,0.42000001668930054,-0.4406045377254486,2.430549144744873,-1.312535285949707,2.9999992847442627,-0.16394869983196259,-0.16273684799671173,-0.16087937355041504,-0.15730299055576324,0.2455105185508728,0.2603799104690552,0.26077067852020264,0.2458115667104721
0.8,0.07261021435260773,-0.05673864111304283,0.0,0.5544968843460083,0.0,0.0,-0.8321858048439026,-0.1507689505815506,0.29271405935287476,0.0,0.0,0.0,-2.032503366470337,0.3702199459075928,0.6330267190933228,0.41999995708465576,0.624021053314209,-7.459427706635324e-07,-5.4104139053379185e-06,-0.7814074754714966,0.00018886160978581756,-0.000410161359468475,-8.653686381876469e-05,0.009309125132858753,-0.001667520496994257,-0.0006612123106606305,0.43815189599990845,0.6428447961807251,0.5880906581878662,-0.7675224542617798,0.09560269117355347,0.4140193462371826,0.37740403413772583,0.6258074641227722,0.42000001668930054,-0.41355615854263306,0.9247376918792725,-1.2624826431274414,3.000000476837158,-0.1653251349925995,-0.16289596259593964,-0.1600576937198639,-0.15581826865673065,-0.16354842483997345,-0.07635115087032318,-6.490154191851616e-08,0.05643013119697571
0.8166666666666667,0.06891895830631256,-0.05743875354528427,0.0,0.5599126815795898,0.0,0.0,-0.8285515904426575,-0.2594947814941406,-0.1456311196088791,0.0,0.0,0.0,1.6363650560379028,0.3702199161052704,0.6330267190933228,0.41999995708465576,0.6240213513374329,-7.433653763655457e-07,-5.5340542530757375e-06,-0.7814072370529175,0.00018967504729516804,-0.0004112559254281223,-8.665979839861393e-05,0.009339342825114727,-0.0016721333377063274,-0.000663996092043817,0.42615872621536255,0.6451612710952759,0.5948371887207031,-0.7601300477981567,0.1527661830186844,0.4105246365070343,0.37740403413772583,0.6258074641227722,0.42000001668930054,-0.40622827410697937,0.024055197834968567,-1.2829703092575073,-3.000000238418579,-0.16524574160575867,-0.16170106828212738,-0.15787576138973236,-0.15294545888900757,0.07212959975004196,0.12843401730060577,0.17890849709510803,0.21274161338806152
0.8333333333333334,0.06859884411096573,-0.05236852169036865,0.0,0.5527267456054688,0.0,0.0,-0.8333625197410583,-0.10675105452537537,0.33932700753211975,0.0,0.0,0.0,-1.7323979139328003,0.3702199161052704,0.6330267190933228,0.41999995708465576,0.6240214109420776,-6.712941740261158e-07,-5.791586318082409e-06,-0.7814072370529175,0.00018973674741573632,-0.00041123657138086855,-8.664163760840893e-05,0.00933924876153469,-0.0016700001433491707,-0.0006640504579991102,0.41469502449035645,0.6445134878158569,0.5939772129058838,-0.4530907869338989,0.04544268175959587,-0.221530482172966,0.37740403413772583,0.6258074641227722,0.42000001668930054,-0.4067678153514862,-0.07679497450590134,-1.2448548078536987,3.000000238418579,-0.17122651636600494,-0.1656379997730255,-0.15984442830085754,-0.15324252843856812,-0.10734062641859055,-0.04775145649909973,0.019357724115252495,0.08097407221794128
0.85,0.06890417635440826,-0.05248849466443062,0.0,0.5598220229148865,0.0,0.0,-0.8286128640174866,0.11267471313476562,-0.03379644826054573,0.0,0.0,0.0,1.6148961782455444,0.3702199161052704,0.6330267190933228,0.41999995708465576,0.6240214109420776,-7.488915230169368e-07,-5.530488579097437e-06,-0.7814072370529175,0.00018896244000643492,-0.0004112851747777313,-8.664210326969624e-05,0.009338708594441414,-0.0016756549011915922,-0.0006621877546422184,0.4081880450248718,0.645992636680603,0.5951595902442932,-0.4177556335926056,-0.0033326540142297745,0.2981438636779785,0.37740403413772583,0.6258074641227722,0.42000001668930054,-0.44341936707496643,-2.99997615814209,-1.265637755393982,-2.9999260902404785,-0.16829387843608856,-0.16262973845005035,-0.1565505862236023,-0.14965161681175232,0.05650090426206589,0.07774565368890762,0.11090171337127686,0.14370830357074738
0.8666666666666667,0.07205765694379807,-0.055171191692352295,0.0,0.5531092286109924,0.0,0.0,-0.8331087231636047,0.23720701038837433,-0.21289020776748657,0.0,0.0,0.0,-1.887172818183899,0.3702199161052704,0.6330267190933228,0.41999995708465576,0.6240211129188538,-7.431260655721417e-07,-5.366565346776042e-06,-0.7814074754714966,0.00018876366084441543,-0.0004101119702681899,-8.6531275883317e-05,0.009307540021836758,-0.001667955075390637,-0.0006609528791159391,0.40721896290779114,0.6424046754837036,0.592070460319519,0.263508141040802,-0.41488826274871826,-0.42064279317855835,0.37740403413772583,0.6258074641227722,0.42000001668930054,-0.4924295246601105,-2.853691339492798,-1.3156566619873047,-3.0,-0.16796495020389557,-0.1615312099456787,-0.15440969169139862,-0.14640960097312927,0.009502160362899303,0.08155063539743423,0.17106671631336212,0.26513442397117615
0.8833333333333333,0.07816480100154877,-0.05588645115494728,0.0,0.525147557258606,0.0,0.0,-0.8510112166404724,0.4217730760574341,0.04122597351670265,0.0,0.0,0.0,-4.900028228759766,0.3702199161052704,0.6330267190933228,0.41999995708465576,0.6240211129188538,-7.381670457107248e-07,-5.3910243877908215e-06,-0.7814074754714966,0.00018877899856306612,-0.00041013286681845784,-8.653453551232815e-05,0.009308066219091415,-0.0016680093249306083,-0.0006610046257264912,0.4155910313129425,0.6330270767211914,0.5857897996902466,0.7203156352043152,-0.6581701040267944,-0.17014017701148987,0.37740403413772583,0.6258074641227722,0.42000001668930054,-0.5232811570167542,-0.9857923984527588,-1.3656749725341797,-3.000000238418579,-0.16747073829174042,-0.16067135334014893,-0.15287093818187714,-0.14407172799110413,0.06339091807603836,0.052301377058029175,0.05770212411880493,0.06957072764635086
0.9,0.0815034955739975,-0.05401467904448509,0.0,0.5130071043968201,0.0,0.0,-0.858384370803833,0.10858305543661118,0.143093541264534,0.0,0.0,0.0,-0.6431290507316589,0.3702199161052704,0.6330267190933228,0.41999995708465576,0.6240211129188538,-7.2402468731525e-07,-5.4169745453691576e-06,-0.7814074754714966,0.00018888883641920984,-0.000410195323638618,-8.654175326228142e-05,0.009309934452176094,-0.0016678187530487776,-0.000661309459246695,0.4255540370941162,0.62716144323349,0.5850171446800232,0.4612833261489868,-0.19810080528259277,-0.010221261531114578,0.37740403413772583,0.6258074641227722,0.42000001668930054,-0.5172152519226074,1.4933083057403564,-1.3284235000610352,2.9999992847442627,-0.1631302386522293,-0.1573202759027481,-0.15027683973312378,-0.14213727414608002,0.3595293164253235,0.27244362235069275,0.1948283463716507,0.12037180364131927
