vladlanda/robotic-transformer/data/env_000_episode_0179.csv
sim_time_s,robot_box_x,robot_box_y,robot_box_z,robot_box_quat_w,robot_box_quat_x,robot_box_quat_y,robot_box_quat_z,robot_box_linvel_x,robot_box_linvel_y,robot_box_linvel_z,robot_box_angvel_x,robot_box_angvel_y,robot_box_angvel_z,cube_world_x,cube_world_y,cube_world_z,cube_quat_w,cube_quat_x,cube_quat_y,cube_quat_z,cube_linvel_x,cube_linvel_y,cube_linvel_z,cube_angvel_x,cube_angvel_y,cube_angvel_z,endpoint_world_x,endpoint_world_y,endpoint_world_z,endpoint_linvel_x,endpoint_linvel_y,endpoint_linvel_z,target_cube_world_x,target_cube_world_y,target_cube_world_z,gripper_actual_pos_rad_gp_leftgearjoint,gripper_actual_vel_rad_s_gp_leftgearjoint,gripper_actual_pos_rad_gp_rotatingjoint,gripper_actual_vel_rad_s_gp_rotatingjoint,motor_angle_rad_joint1,motor_angle_rad_joint2,motor_angle_rad_joint3,motor_angle_rad_joint4,motor_speed_rad_s_joint1,motor_speed_rad_s_joint2,motor_speed_rad_s_joint3,motor_speed_rad_s_joint4
0.0,0.0,0.0,0.0,1.0,0.0,0.0,0.0,0.0,0.0,0.0,0.0,0.0,0.0,-0.32449039816856384,0.7590750455856323,0.41999998688697815,1.0,0.0,0.0,0.0,0.0,0.0,0.0,0.0,0.0,0.0,3.42540442943573e-06,-0.005000244826078415,1.313499927520752,0.0,0.0,0.0,0.44339901208877563,0.6819403767585754,0.42000001668930054,-1.5707999467849731,0.0,0.0,0.0,0.0,0.0,0.0,0.0,0.0,0.0,0.0,0.0
0.016666666666666666,0.002863572910428047,0.002163046272471547,0.0,0.9998124837875366,0.0,0.0,-0.01936628855764866,0.23889946937561035,0.18035565316677094,0.0,0.0,0.0,-3.1462509632110596,-0.3244905173778534,0.7590747475624084,0.41999998688697815,1.0,3.2799914606584935e-06,-8.339814598912199e-07,8.465387679734704e-08,-1.9833554688375443e-05,0.00017983050202019513,-6.133061833679676e-05,0.0009432226070202887,-0.004689437802881002,-0.0003198152990080416,-0.006976580247282982,0.004113080911338329,1.3159246444702148,-0.7929859161376953,1.0454001426696777,0.17911690473556519,0.44339901208877563,0.6819403767585754,0.42000001668930054,-1.5301092863082886,3.0000014305114746,-0.04587216302752495,-3.000000476837158,0.0008635544218122959,0.0007901919889263809,0.0007047091494314373,0.0006045182817615569,0.11024637520313263,0.09681997448205948,0.08253232389688492,0.06735856086015701
0.03333333333333333,0.008920668624341488,0.0068611265160143375,0.0,0.9997555613517761,0.0,0.0,-0.0221103448420763,0.400972455739975,0.31990984082221985,0.0,0.0,0.0,0.9527059197425842,-0.32449063658714294,0.7590746879577637,0.4200000464916229,1.0,3.3908554541994818e-06,-2.1324258341337554e-06,-3.71021506850866e-08,0.00026357799652032554,0.00026937821530736983,-0.00010509602725505829,-0.0017706358339637518,0.004130718298256397,-0.00013547799608204514,-0.023647543042898178,0.02626233920454979,1.317094326019287,-1.167679786682129,1.6226894855499268,-0.019512027502059937,0.44339901208877563,0.6819403767585754,0.42000001668930054,-1.4800899028778076,2.999998092651367,-0.0959119200706482,-3.0,0.0026498460210859776,0.002204714110121131,0.0017218048451468349,0.00119826290756464,0.1230320930480957,0.08803141117095947,0.05153736472129822,0.013467610813677311
0.05,0.017504572868347168,0.013756603933870792,0.0,0.9993319511413574,0.0,0.0,-0.036546144634485245,0.5771873593330383,0.4558587372303009,0.0,0.0,0.0,-2.565835952758789,-0.32449066638946533,0.7590747475624084,0.4200000464916229,1.0,3.7651939237548504e-06,-2.2118608740129275e-06,5.60899771073764e-09,0.00026530810282565653,0.00026691504172049463,-0.0001044049859046936,-0.0017242984613403678,0.004177365452051163,-0.0001294947724090889,-0.043685540556907654,0.0586862713098526,1.3144381046295166,-1.2325489521026611,2.2195091247558594,-0.27879080176353455,0.44339901208877563,0.6819403767585754,0.42000001668930054,-1.4300715923309326,3.0,-0.1459285467863083,-3.000000238418579,0.004137965384870768,0.002948531648144126,0.0016872900305315852,0.0003504097112454474,0.08804438263177872,0.02993893437087536,-0.030019277706742287,-0.09189432859420776
0.06666666666666667,0.02960398979485035,0.02312113717198372,0.0,0.996967077255249,0.0,0.0,-0.07782461494207382,0.7858859896659851,0.6066667437553406,0.0,0.0,0.0,-5.789890766143799,-0.32449066638946533,0.7590746879577637,0.4200000464916229,0.9999999403953552,3.4068139029841404e-06,-2.285532218593289e-06,4.300781313304469e-07,0.0002670244430191815,0.00026791702839545906,-0.00010437797755002975,-0.0017406229162588716,0.004211728926748037,-0.00012850547500420362,-0.06520093977451324,0.09859302639961243,1.3081731796264648,-1.3418889045715332,2.5433437824249268,-0.4752708971500397,0.44339901208877563,0.6819403767585754,0.42000001668930054,-1.3800514936447144,2.9999945163726807,-0.11242377012968063,2.9999990463256836,0.005090185906738043,0.00291076535359025,0.0006212262669578195,-0.0017823795787990093,0.04557938128709793,-0.018351655453443527,-0.08429762721061707,-0.1522672474384308
0.08333333333333333,0.03587968647480011,0.03719877079129219,0.0,0.9936721920967102,0.0,0.0,-0.11231879144906998,0.37854644656181335,0.773500919342041,0.0,0.0,0.0,-2.9564223289489746,-0.32449066638946533,0.7590746879577637,0.4200000464916229,1.0,3.697365627886029e-06,-2.188874532293994e-06,-2.632473012909031e-07,0.0002638955775182694,0.00026586430612951517,-0.00010433816350996494,-0.0017081414116546512,0.0041501461528241634,-0.00012991174298804253,-0.08985476940870285,0.13910874724388123,1.2979977130889893,-1.4775304794311523,2.4443299770355225,-0.5355954766273499,0.44339901208877563,0.6819403767585754,0.42000001668930054,-1.3300573825836182,2.9987053871154785,-0.1444295346736908,-2.9999992847442627,-0.0003175513993483037,-0.00314583838917315,-0.006136522628366947,-0.009297243319451809,-0.18220245838165283,-0.2554972171783447,-0.32934194803237915,-0.403827965259552
0.1,0.046939194202423096,0.051698729395866394,0.0,0.9874271750450134,0.0,0.0,-0.15807461738586426,0.7268422842025757,0.9095762372016907,0.0,0.0,0.0,-6.387379169464111,-0.32449066638946533,0.7590746879577637,0.4200000464916229,0.9999999403953552,3.620469442466856e-06,-2.265199782414129e-06,1.7460122592183325e-07,0.00026676751440390944,0.0002674077113624662,-0.00010408111847937107,-0.0017386862309649587,0.004209261853247881,-0.0001277514238609001,-0.11132445931434631,0.18407899141311646,1.2882237434387207,-1.0845651626586914,3.003810405731201,-0.6464563608169556,0.44339901208877563,0.6819403767585754,0.42000001668930054,-1.2800357341766357,2.9999947547912598,-0.11287408322095871,3.0000009536743164,-0.0012747927103191614,-0.0057734539732337,-0.010420026257634163,-0.01522139459848404,-0.1164095401763916,-0.21793338656425476,-0.3184642493724823,-0.4179302453994751
0.11666666666666667,0.05606493353843689,0.06409145146608353,0.0,0.9827653765678406,0.0,0.0,-0.1848573535680771,0.5110728740692139,0.6974667906761169,0.0,0.0,0.0,-1.9752717018127441,-0.32449066638946533,0.7590746879577637,0.4200000464916229,1.0,3.7984973459970206e-06,-2.262850330225774e-06,-1.5022780530671298e-07,0.00026374062872491777,0.0002656611322890967,-0.00010428996756672859,-0.0017054914496839046,0.004147571045905352,-0.00012980044994037598,-0.1358419954776764,0.23277468979358673,1.2747256755828857,-1.6013134717941284,3.1057491302490234,-0.9169636964797974,0.44339901208877563,0.6819403767585754,0.42000001668930054,-1.2416709661483765,1.6878716945648193,-0.14486852288246155,-2.999999761581421,-0.004183446988463402,-0.01020736526697874,-0.016348974779248238,-0.02261410653591156,-0.17748147249221802,-0.264577716588974,-0.34909388422966003,-0.4309159219264984
0.13333333333333333,0.06158259138464928,0.07717640697956085,0.0,0.9754543304443359,0.0,0.0,-0.2202017903327942,0.258182168006897,0.8464339375495911,0.0,0.0,0.0,-5.106898307800293,-0.32449066638946533,0.7590747475624084,0.4200000464916229,0.9999999403953552,3.5506336644175462e-06,-2.229908659501234e-06,2.9287866709637456e-07,0.00026703192270360887,0.0002677936281543225,-0.00010416889563202858,-0.0017441402887925506,0.004213549196720123,-0.00012799854448530823,-0.16208414733409882,0.2905063033103943,1.256208896636963,-1.459045171737671,3.8523030281066895,-1.3311080932617188,0.44339901208877563,0.6819403767585754,0.42000001668930054,-1.1946302652359009,2.9999938011169434,-0.11136017739772797,3.0,-0.00792827270925045,-0.015377894975244999,-0.02288324385881424,-0.030448008328676224,-0.27233225107192993,-0.3493283987045288,-0.42231497168540955,-0.49119308590888977
0.15,0.07107646763324738,0.08757372200489044,0.0,0.9596375823020935,0.0,0.0,-0.28123968839645386,0.6137298941612244,0.5489428639411926,0.0,0.0,0.0,-8.291038513183594,-0.32449066638946533,0.7590746879577637,0.4200000464916229,0.9999999403953552,3.338222313686856e-06,-2.2429633190768072e-06,-2.8065409551913945e-08,0.00026674597756937146,0.00026758023886941373,-0.00010427623055875301,-0.0017366515239700675,0.004206906538456678,-0.00012831691128667444,-0.187988743185997,0.3563925623893738,1.23038649559021,-1.5637242794036865,4.142739295959473,-1.7746505737304688,0.44339901208877563,0.6819403767585754,0.42000001668930054,-1.1589343547821045,1.391007900238037,-0.14340518414974213,-3.0,-0.010821974836289883,-0.01952141709625721,-0.028209391981363297,-0.03688690438866615,-0.30423739552497864,-0.3518123924732208,-0.3966742157936096,-0.4386626183986664
0.16666666666666666,0.07532370090484619,0.10070638358592987,0.0,0.9463881850242615,0.0,0.0,-0.3230316638946533,0.25398510694503784,0.7785258889198303,0.0,0.0,0.0,-4.00439977645874,-0.32449066638946533,0.7590747475624084,0.4200000464916229,0.9999999403953552,3.647950279628276e-06,-2.3073771444614977e-06,3.522540836797816e-08,0.0002672699047252536,0.0002680133911781013,-0.0001041879877448082,-0.0017472021281719208,0.004217667505145073,-0.00012798169336747378,-0.2201770842075348,0.4251716732978821,1.1900269985198975,-1.7851091623306274,4.507946014404297,-2.807420253753662,0.44339901208877563,0.6819403767585754,0.42000001668930054,-1.1130759716033936,2.9999990463256836,-0.19343741238117218,-2.9999992847442627,-0.022528134286403656,-0.031067855656147003,-0.03946284204721451,-0.04785315692424774,-0.5793484449386597,-0.5943659543991089,-0.5877386331558228,-0.5792034864425659
0.18333333333333332,0.08170169591903687,0.10951703041791916,0.0,0.9376196265220642,0.0,0.0,-0.3476627469062805,0.37501955032348633,0.47812145948410034,0.0,0.0,0.0,-2.557175874710083,-0.32449066638946533,0.7590746879577637,0.4200000464916229,0.9999999403953552,3.2907048534980277e-06,-2.1939954422123265e-06,-2.792942552787281e-07,0.0002667790977284312,0.00026776062441058457,-0.00010434072464704514,-0.0017391468863934278,0.004207019228488207,-0.0001284570462303236,-0.25054726004600525,0.49803251028060913,1.1366033554077148,-1.5346596240997314,4.490826606750488,-3.633448600769043,0.44339901208877563,0.6819403767585754,0.42000001668930054,-1.0630708932876587,3.0000009536743164,-0.24346764385700226,-3.000000476837158,-0.030622124671936035,-0.039343126118183136,-0.047621820122003555,-0.055870600044727325,-0.6358225345611572,-0.615715742111206,-0.582851767539978,-0.5505450963973999
0.2,0.08387023955583572,0.12064698338508606,0.0,0.9220577478408813,0.0,0.0,-0.38705241680145264,0.07006969302892685,0.671335756778717,0.0,0.0,0.0,-5.849051475524902,-0.32449066638946533,0.7590746879577637,0.4200000464916229,1.0,3.2809446111059515e-06,-2.2193044060259126e-06,1.5940101150135888e-07,0.0002662785700522363,0.00026740002795122564,-0.0001042510848492384,-0.0017357796896249056,0.0041978610679507256,-0.0001286507904296741,-0.2730773985385895,0.5732992887496948,1.0672358274459839,-1.1051266193389893,4.530056476593018,-4.532235145568848,0.44339901208877563,0.6819403767585754,0.42000001668930054,-1.0130640268325806,3.00000262260437,-0.29349595308303833,-2.999999761581421,-0.04446594789624214,-0.053119681775569916,-0.06038732826709747,-0.06765828281641006,-0.8069015145301819,-0.8042872548103333,-0.7508503794670105,-0.6981319189071655
0.21666666666666667,0.08880189061164856,0.1324097365140915,0.0,0.9128252863883972,0.0,0.0,-0.4083503484725952,0.37013179063796997,0.738560140132904,0.0,0.0,0.0,-1.775181770324707,-0.32449066638946533,0.7590747475624084,0.4200000464916229,1.0,3.6133139929006575e-06,-2.270231789225363e-06,2.2094616269896505e-07,0.0002671256079338491,0.0002678168239071965,-0.0001041400246322155,-0.0017445703269913793,0.004215201362967491,-0.00012786625302396715,-0.29409852623939514,0.6421088576316833,0.9844924807548523,-1.0143189430236816,3.907552719116211,-5.355857849121094,0.44339901208877563,0.6819403767585754,0.42000001668930054,-0.9630571603775024,2.9999992847442627,-0.343522846698761,-3.000000476837158,-0.057194143533706665,-0.06546729803085327,-0.07171344012022018,-0.07799054682254791,-0.7630782127380371,-0.7255470156669617,-0.6602593660354614,-0.5970889329910278
0.23333333333333334,0.091060571372509,0.14191961288452148,0.0,0.915966272354126,0.0,0.0,-0.4012553095817566,0.07746155560016632,0.5122190117835999,0.0,0.0,0.0,1.915117621421814,-0.32449066638946533,0.7590746879577637,0.4200000464916229,1.0,3.3820165299403016e-06,-2.291018063260708e-06,2.7273955538476e-07,0.0002669125096872449,0.00026780000189319253,-0.00010433257557451725,-0.0017395613249391317,0.004209738690406084,-0.00012844214506912977,-0.31569480895996094,0.6946007013320923,0.8898504376411438,-1.252375841140747,2.596461296081543,-5.950202941894531,0.44339901208877563,0.6819403767585754,0.42000001668930054,-0.9130481481552124,2.9999725818634033,-0.39355212450027466,-3.000002384185791,-0.07227593660354614,-0.07995861023664474,-0.0854344516992569,-0.09028711915016174,-0.8821336030960083,-0.8842278718948364,-0.8906494975090027,-0.8218868970870972
0.25,0.0898929014801979,0.14725638926029205,0.0,0.9131810665130615,0.0,0.0,-0.40755417943000793,-0.12874095141887665,0.2573511302471161,0.0,0.0,0.0,-1.6734627485275269,-0.32449063658714294,0.7590746879577637,0.4200000464916229,0.9999999403953552,3.706662027980201e-06,-2.223067895101849e-06,-2.2555951773028937e-07,0.00026424802490510046,0.0002665686188265681,-0.00010458100587129593,-0.0017170849023386836,0.004155674949288368,-0.0001306299673160538,-0.3319379389286041,0.7336994409561157,0.7846267223358154,-0.8087813854217529,1.8696099519729614,-6.512192726135254,0.44339901208877563,0.6819403767585754,0.42000001668930054,-0.8630378842353821,2.999999523162842,-0.44358310103416443,-2.999999761581421,-0.08873558044433594,-0.09634628146886826,-0.10177626460790634,-0.10599429160356522,-0.9895262122154236,-0.9789252877235413,-0.9730390906333923,-0.970122218132019
0.26666666666666666,0.086021788418293,0.1537669450044632,0.0,0.916289746761322,0.0,0.0,-0.4005160331726074,-0.33647432923316956,0.44487327337265015,0.0,0.0,0.0,1.792217493057251,-0.32449066638946533,0.7590746879577637,0.4200000464916229,0.9999999403953552,3.7197962683421792e-06,-2.4035462047322653e-06,-1.8313727423446835e-07,0.00026623293524608016,0.0002672916161827743,-0.00010425853542983532,-0.0017326482338830829,0.004196591675281525,-0.000128514802781865,-0.3461630940437317,0.7548177242279053,0.6750773787498474,-0.8368229269981384,0.647961437702179,-6.568304061889648,0.44339901208877563,0.6819403767585754,0.42000001668930054,-0.8130285739898682,2.9999806880950928,-0.4936144948005676,-3.0000011920928955,-0.10496845096349716,-0.11259261518716812,-0.11805421113967896,-0.122307188808918,-0.9925260543823242,-0.9940275549888611,-0.995281994342804,-0.9961915016174316
0.2833333333333333,0.08518802374601364,0.1557822823524475,0.0,0.9135503172874451,0.0,0.0,-0.4067257344722748,0.01156973373144865,0.044276684522628784,0.0,0.0,0.0,-1.5569192171096802,-0.32449066638946533,0.7590747475624084,0.4200000464916229,0.9999999403953552,3.5841883345710812e-06,-2.315521442142199e-06,7.399037116329055e-08,0.0002652214025147259,0.00026455294573679566,-0.00010317191481590271,-0.001702220644801855,0.004185272380709648,-0.0001250008208444342,-0.3554339110851288,0.7635566592216492,0.5629600286483765,-0.21840597689151764,0.0901116281747818,-6.64243745803833,0.44339901208877563,0.6819403767585754,0.42000001668930054,-0.7630198001861572,2.999998092651367,-0.543644368648529,-3.0,-0.1206987202167511,-0.12840257585048676,-0.1339738667011261,-0.13826888799667358,-1.0054346323013306,-1.0040916204452515,-1.0030651092529297,-1.00224769115448
0.3,0.0822942778468132,0.15552575886249542,0.0,0.9173312187194824,0.0,0.0,-0.3981248736381531,-0.25294530391693115,-0.03527093678712845,0.0,0.0,0.0,2.008358955383301,-0.32449066638946533,0.7590746879577637,0.4200000464916229,1.0,3.724333510035649e-06,-2.2719859771314077e-06,9.631197883663845e-08,0.00026312688714824617,0.00026525830617174506,-0.00010438100434839725,-0.001696021412499249,0.0041348570957779884,-0.00013028032844886184,-0.3537323772907257,0.7639603614807129,0.46114492416381836,0.4681802988052368,-0.08260273188352585,-5.594809532165527,0.44339901208877563,0.6819403767585754,0.42000001668930054,-0.7130116820335388,3.0000011920928955,-0.5936728715896606,-3.0,-0.13870090246200562,-0.14610588550567627,-0.1514531373977661,-0.15557241439819336,-1.0223702192306519,-1.0169209241867065,-1.01274573802948,-1.0093975067138672
0.31666666666666665,0.07533244788646698,0.15367507934570312,0.0,0.9145817756652832,0.0,0.0,-0.404401034116745,-0.49437880516052246,-0.14010924100875854,0.0,0.0,0.0,-1.7138783931732178,-0.3254234790802002,0.7565935850143433,0.421215295791626,0.9992527365684509,0.025498976930975914,-0.004489172715693712,-0.028695296496152878,0.03437916561961174,-0.00826544314622879,0.10888389497995377,3.722130060195923,-1.7847579717636108,-0.22468845546245575,-0.347924143075943,0.7640659809112549,0.42741501331329346,0.05844942852854729,-0.09910834580659866,-0.09086667001247406,0.44339901208877563,0.6819403767585754,0.42000001668930054,-0.6630861163139343,2.9795615673065186,-0.64420086145401,-2.854037046432495,-0.14918211102485657,-0.1566794514656067,-0.1619279384613037,-0.16569890081882477,-0.4389744997024536,-0.41479724645614624,-0.373728483915329,-0.310428261756897
0.3333333333333333,0.06575404107570648,0.14969222247600555,0.0,0.9182036519050598,0.0,0.0,-0.3961086869239807,-0.5255621671676636,-0.322842538356781,0.0,0.0,0.0,1.9152157306671143,-0.32495781779289246,0.7563729286193848,0.4214543104171753,0.9988529682159424,0.0377151258289814,-0.0010564322583377361,-0.02948174811899662,0.012167527340352535,-0.009729535318911076,-0.003530906978994608,0.01621006242930889,-0.22035343945026398,-0.006990259513258934,-0.3480262756347656,0.7651411890983582,0.42619603872299194,0.11321213096380234,0.042287640273571014,-0.2123863846063614,0.44339901208877563,0.6819403767585754,0.42000001668930054,-0.6130794286727905,2.9999899864196777,-0.6942375898361206,-2.9999992847442627,-0.15810450911521912,-0.16422618925571442,-0.16793352365493774,-0.16991786658763885,-0.42113229632377625,-0.3382517099380493,-0.2487708479166031,-0.14715369045734406
0.35,0.05544956773519516,0.142674520611763,0.0,0.9152221083641052,0.0,0.0,-0.4029497802257538,-0.6606584787368774,-0.4603744149208069,0.0,0.0,0.0,-1.8317359685897827,-0.3234574496746063,0.7579610347747803,0.42077356576919556,0.9990634918212891,0.01928020641207695,-0.0005093117943033576,-0.038729336112737656,0.25207674503326416,0.14291974902153015,-0.06544192135334015,-2.364621877670288,-0.9775744080543518,-9.943316459655762,-0.3438398241996765,0.7664307355880737,0.42313820123672485,0.38094958662986755,0.15460631251335144,-0.1639837771654129,0.44339901208877563,0.6819403767585754,0.42000001668930054,-0.5630744099617004,2.999722480773926,-0.744285523891449,-2.999946117401123,-0.16578075289726257,-0.17026281356811523,-0.17227129638195038,-0.1724056601524353,-0.45315292477607727,-0.34695059061050415,-0.24121525883674622,-0.13027821481227875
0.36666666666666664,0.04319768771529198,0.13338889181613922,0.0,0.9184945821762085,0.0,0.0,-0.39543360471725464,-0.7835767865180969,-0.5964282155036926,0.0,0.0,0.0,1.9424771070480347,-0.31712234020233154,0.7617438435554504,0.42000022530555725,0.9905916452407837,-6.650171599176247e-06,7.422534508805256e-06,-0.13685058057308197,0.46620190143585205,0.2977018356323242,-0.00033557883580215275,0.01615515910089016,-0.00243530236184597,-12.21683406829834,-0.33482450246810913,0.7707124948501587,0.4206418991088867,0.6795222759246826,0.34562820196151733,-0.1218351274728775,0.44339901208877563,0.6819403767585754,0.42000001668930054,-0.5130695104598999,2.9999825954437256,-0.794319212436676,-2.9999990463256836,-0.17417006194591522,-0.1762954294681549,-0.1759694516658783,-0.1737152636051178,-0.472924143075943,-0.32072150707244873,-0.17002280056476593,-0.016656938940286636
0.3833333333333333,0.03385094925761223,0.1214534267783165,0.0,0.9156712293624878,0.0,0.0,-0.4019280672073364,-0.4938448667526245,-0.7585651278495789,0.0,0.0,0.0,-1.7649284601211548,-0.31007662415504456,0.7662124633789062,0.42000022530555725,0.9732074737548828,5.845336545462487e-06,-1.0925115248028305e-06,-0.22992828488349915,0.45537325739860535,0.3046995997428894,-0.0002811176236718893,0.002846556017175317,0.008016375824809074,-13.09962272644043,-0.32274723052978516,0.7753555178642273,0.42124688625335693,0.8662464618682861,0.3129199147224426,0.09153779596090317,0.44339901208877563,0.6819403767585754,0.42000001668930054,-0.46302366256713867,2.999997854232788,-0.8443198204040527,-2.999976634979248,-0.18208418786525726,-0.18134647607803345,-0.1781201809644699,-0.17288212478160858,-0.44318723678588867,-0.261699914932251,-0.07726047188043594,0.11214244365692139
0.4,0.022235244512557983,0.10799838602542877,0.0,0.9000979661941528,0.0,0.0,-0.4356876015663147,-0.7699297666549683,-0.8334761261940002,0.0,0.0,0.0,-5.399868965148926,-0.2929946482181549,0.7754695415496826,0.4221895635128021,0.9533155560493469,-0.029795322567224503,-0.005086052231490612,-0.3004593849182129,1.4526082277297974,0.4934784173965454,-0.01140203420072794,18.580883026123047,-13.869544982910156,1.4799506664276123,-0.30388760566711426,0.7840922474861145,0.42316606640815735,1.508778691291809,0.8158079385757446,0.14192861318588257,0.44339901208877563,0.6819403767585754,0.42000001668930054,-0.4132947027683258,2.6727330684661865,-0.8943305015563965,-3.00034236907959,-0.19082728028297424,-0.1867651343345642,-0.18012182414531708,-0.17136350274085999,-0.4843635857105255,-0.28684601187705994,-0.08236062526702881,0.12913547456264496
0.4166666666666667,0.013644888065755367,0.09169444441795349,0.0,0.8699827790260315,0.0,0.0,-0.49308210611343384,-0.46258866786956787,-1.0264482498168945,0.0,0.0,0.0,-8.573040962219238,-0.2564861476421356,0.7920019626617432,0.42628979682922363,0.9250026345252991,-0.03797810524702072,-0.043179627507925034,-0.37558385729789734,2.7984116077423096,0.8729623556137085,0.7664266228675842,-3.148385763168335,-7.594532489776611,33.87541961669922,-0.26720571517944336,0.8016091585159302,0.4264553189277649,3.0362722873687744,1.3723868131637573,0.3486928641796112,0.44339901208877563,0.6819403767585754,0.42000001668930054,-0.38177090883255005,1.2734633684158325,-0.9443528056144714,-2.999368906021118,-0.19853635132312775,-0.19115912914276123,-0.18110376596450806,-0.16885265707969666,-0.5160552859306335,-0.29868239164352417,-0.07946407794952393,0.1394951194524765
0.43333333333333335,0.007807599380612373,0.07888776063919067,0.0,0.8221075534820557,0.0,0.0,-0.5693322420120239,-0.27454161643981934,-0.7609022855758667,0.0,0.0,0.0,-11.540881156921387,-0.18128293752670288,0.8161770105361938,0.43252259492874146,0.895869791507721,0.009809033013880253,-0.08943913131952286,-0.43511104583740234,6.055793762207031,1.7056983709335327,0.4988345801830292,13.097375869750977,-12.491827011108398,9.05864429473877,-0.19103245437145233,0.827468991279602,0.4322777986526489,5.677979469299316,1.8686985969543457,0.3663032650947571,0.44339901208877563,0.6819403767585754,0.42000001668930054,-0.3697245419025421,0.7339640855789185,-0.9073115587234497,2.999063014984131,-0.2111697643995285,-0.19993706047534943,-0.1853419542312622,-0.1688636839389801,-0.5527651309967041,-0.4271670877933502,-0.2081756740808487,-0.012886003591120243
0.45,0.005709278397262096,0.06902811676263809,0.0,0.7828119993209839,0.0,0.0,-0.6222583055496216,-0.0739426389336586,-0.5293211340904236,0.0,0.0,0.0,-6.748317718505859,-0.08585087954998016,0.8437986969947815,0.4406302273273468,0.8433334827423096,0.015712309628725052,-0.14847774803638458,-0.516232430934906,5.777620315551758,0.8517572283744812,0.6411985754966736,25.76628875732422,-28.385826110839844,16.687952041625977,-0.0952516496181488,0.858570396900177,0.441819429397583,5.966689109802246,1.6026228666305542,0.650797426700592,0.44339901208877563,0.6819403767585754,0.42000001668930054,-0.3557242155075073,0.8463021516799927,-0.9333072304725647,-3.0000038146972656,-0.21990737318992615,-0.2069397270679474,-0.18955180048942566,-0.1707613468170166,-0.4583114683628082,-0.3724497854709625,-0.2451910525560379,-0.1496325135231018
0.4666666666666667,0.0067045302130281925,0.06002829223871231,0.0,0.7642802000045776,0.0,0.0,-0.6448842883110046,0.11309415847063065,-0.5238785743713379,0.0,0.0,0.0,-2.407515287399292,0.008147329092025757,0.8573579788208008,0.4535061717033386,0.7829103469848633,0.066534124314785,-0.10105298459529877,-0.6102563142776489,5.314783096313477,-0.8085371255874634,0.6876367926597595,-9.387069702148438,2.771812915802002,25.56184196472168,0.0016109347343444824,0.8740940093994141,0.4518844485282898,5.904604434967041,0.33738383650779724,0.7918208241462708,0.44339901208877563,0.6819403767585754,0.42000001668930054,-0.34334078431129456,0.5197834968566895,-0.9833312034606934,-3.0000030994415283,-0.22875715792179108,-0.2134232372045517,-0.19331470131874084,-0.17240601778030396,-0.5807382464408875,-0.4015428125858307,-0.21640530228614807,-0.06887204945087433
0.48333333333333334,0.006012365221977234,0.054825879633426666,0.0,0.7385313510894775,0.0,0.0,-0.6742191314697266,-0.060067012906074524,-0.2607561945915222,0.0,0.0,0.0,-5.455323696136475,0.09751411527395248,0.8527787327766418,0.4611738324165344,0.7184330224990845,0.05850248038768768,-0.0814720094203949,-0.6883266568183899,4.777711868286133,-1.799797773361206,0.5243949294090271,-14.442200660705566,-4.704615116119385,33.81962966918945,0.09289747476577759,0.8706594109535217,0.46046242117881775,5.471662998199463,-0.6823276281356812,0.4854693114757538,0.44339901208877563,0.6819403767585754,0.42000001668930054,-0.33692458271980286,0.1940579116344452,-1.0333539247512817,-3.0000009536743164,-0.23815934360027313,-0.22004666924476624,-0.19712652266025543,-0.17388953268527985,-0.5001480579376221,-0.3402700126171112,-0.18439704179763794,-0.05214283615350723
0.5,0.007739093154668808,0.0460037961602211,0.0,0.724889874458313,0.0,0.0,-0.6888647675514221,0.12204587459564209,-0.5524805188179016,0.0,0.0,0.0,-1.3244215250015259,0.17871201038360596,0.8367642164230347,0.46534353494644165,0.6485941410064697,0.04449969530105591,-0.05475359410047531,-0.7578570246696472,4.123464107513428,-1.5596178770065308,0.3393343389034271,-7.21502685546875,6.706585884094238,7.264342308044434,0.1746072769165039,0.854314386844635,0.46517229080200195,4.642975807189941,-1.3692296743392944,0.14260897040367126,0.44339901208877563,0.6819403767585754,0.42000001668930054,-0.33487868309020996,0.10953138768672943,-1.0833760499954224,-2.999307870864868,-0.23993147909641266,-0.22228442132472992,-0.19761617481708527,-0.17304928600788116,-0.00407132413238287,-0.12057201564311981,-0.03527006879448891,0.021028636023402214
0.5166666666666666,0.007885035127401352,0.04156918078660965,0.0,0.7028403282165527,0.0,0.0,-0.7113476395606995,-0.03484327718615532,-0.2450229674577713,0.0,0.0,0.0,-4.576913833618164,0.24918967485427856,0.8126088976860046,0.46238425374031067,0.5872488617897034,0.0316467359662056,-0.045511163771152496,-0.8075060248374939,3.9661920070648193,-1.6686856746673584,-0.3160139322280884,3.2388012409210205,8.1852445602417,-9.41772174835205,0.24558086693286896,0.8283806443214417,0.46320581436157227,4.060662269592285,-1.7143199443817139,-0.35504770278930664,0.44339901208877563,0.6819403767585754,0.42000001668930054,-0.33038976788520813,0.6271945834159851,-1.133398175239563,-2.9995248317718506,-0.2398037165403366,-0.2255941927433014,-0.19992248713970184,-0.17478631436824799,0.07828657329082489,-0.009144638665020466,-0.020610246807336807,-0.04924126714468002
0.5333333333333333,0.00934791099280119,0.03967924043536186,0.0,0.6950511336326599,0.0,0.0,-0.7189603447914124,0.11821823567152023,-0.010948887094855309,0.0,0.0,0.0,-0.25873932242393494,0.30805739760398865,0.7829355597496033,0.45325857400894165,0.5446034073829651,0.007361050229519606,-0.02948187105357647,-0.8381429314613342,3.1204464435577393,-2.1162359714508057,-0.593105673789978,-0.6106408834457397,1.8266956806182861,-3.0282442569732666,0.30630576610565186,0.7980793714523315,0.4547617435455322,3.199514389038086,-1.9307091236114502,-0.6378917098045349,0.44339901208877563,0.6819403767585754,0.42000001668930054,-0.31401607394218445,1.0850173234939575,-1.1834203004837036,-3.000000476837158,-0.23779435455799103,-0.22500896453857422,-0.20012231171131134,-0.17599895596504211,0.183614581823349,0.09020081907510757,0.0026309997774660587,-0.09495405107736588
0.55,0.013495482504367828,0.03433404490351677,0.0,0.6781495809555054,0.0,0.0,-0.7349238991737366,0.26361072063446045,-0.3650156557559967,0.0,0.0,0.0,-3.629155158996582,0.35737189650535583,0.7543072700500488,0.4369136095046997,0.5082091689109802,-0.020428389310836792,-0.026111731305718422,-0.8605952858924866,2.4563841819763184,-2.2538630962371826,-0.7831726670265198,13.729547500610352,19.98651695251465,5.860794544219971,0.35628199577331543,0.768812358379364,0.4390825033187866,2.709395408630371,-1.7538434267044067,-1.1541852951049805,0.44339901208877563,0.6819403767585754,0.42000001668930054,-0.2994026839733124,0.5796370506286621,-1.2334424257278442,-2.997398853302002,-0.22986216843128204,-0.21951377391815186,-0.1973676085472107,-0.17600765824317932,0.47373542189598083,0.33692437410354614,0.15565171837806702,-0.027178406715393066
0.5666666666666667,0.020160427317023277,0.03341573849320412,0.0,0.6735877990722656,0.0,0.0,-0.7391071915626526,0.4121869206428528,-0.03186986222863197,0.0,0.0,0.0,0.17190884053707123,0.3921443223953247,0.7285838723182678,0.4268583059310913,0.4846130609512329,-0.04236403480172157,-0.011727094650268555,-0.8736233711242676,1.3418513536453247,-1.5573893785476685,0.4658525288105011,19.90700912475586,18.109432220458984,0.4707036018371582,0.3913143277168274,0.742720901966095,0.4298159182071686,1.5192233324050903,-1.160413384437561,0.10219061374664307,0.44339901208877563,0.6819403767585754,0.42000001668930054,-0.2922990918159485,0.40678921341896057,-1.2833592891693115,-2.9850528240203857,-0.2247549444437027,-0.21627922356128693,-0.1970316767692566,-0.1785515546798706,0.45353883504867554,0.29691189527511597,0.07340887188911438,-0.13684716820716858
0.5833333333333334,0.024246105924248695,0.02854166179895401,0.0,0.6594619750976562,0.0,0.0,-0.7517379522323608,0.1870688498020172,-0.3323831558227539,0.0,0.0,0.0,-3.064927339553833,0.41455644369125366,0.7127517461776733,0.42475393414497375,0.4965033531188965,-0.02393062226474285,-0.009377715177834034,-0.8676540851593018,0.9081547856330872,-1.1870120763778687,0.08664882928133011,4.808870792388916,6.364614963531494,6.805326461791992,0.412406325340271,0.7260732650756836,0.4281774163246155,0.9228205680847168,-0.8879863023757935,-0.12989205121994019,0.44339901208877563,0.6819403767585754,0.42000001668930054,-0.2855125963687897,0.4785791337490082,-1.245177149772644,3.0002410411834717,-0.2150336056947708,-0.20937496423721313,-0.19421885907649994,-0.1795526146888733,0.5165661573410034,0.3723893463611603,0.1413445770740509,-0.07453480362892151
0.6,0.02957938425242901,0.027876995503902435,0.0,0.6581403613090515,0.0,0.0,-0.7528952956199646,0.3377666175365448,-0.033459167927503586,0.0,0.0,0.0,0.6274951100349426,0.42538514733314514,0.6996865272521973,0.42430782318115234,0.5054043531417847,-0.02420203387737274,0.0025188506115227938,-0.8625394701957703,0.31534361839294434,-1.026179552078247,0.2723711133003235,10.093585014343262,10.208099365234375,3.4683468341827393,0.4229167699813843,0.7124061584472656,0.428592324256897,0.42897671461105347,-0.601482629776001,0.0842859148979187,0.44339901208877563,0.6819403767585754,0.42000001668930054,-0.27673280239105225,0.5267707109451294,-1.265638828277588,-2.994398832321167,-0.20942531526088715,-0.2056761384010315,-0.19396249949932098,-0.18249715864658356,0.43674471974372864,0.2937621474266052,0.06062645837664604,-0.15203870832920074
0.6166666666666667,0.03681314364075661,0.023042630404233932,0.0,0.6454680562019348,0.0,0.0,-0.7637872695922852,0.45491844415664673,-0.31890708208084106,0.0,0.0,0.0,-2.9141154289245605,0.4310840964317322,0.696175754070282,0.42223092913627625,0.5326381921768188,-0.011881290003657341,0.012171770446002483,-0.8461720943450928,0.2372616082429886,-0.4345586597919464,0.07450932264328003,-1.3851046562194824,1.5023916959762573,9.220433235168457,0.42758142948150635,0.7067769765853882,0.4267488420009613,0.16200992465019226,-0.23296180367469788,-0.11960659176111221,0.44339901208877563,0.6819403767585754,0.42000001668930054,-0.26825419068336487,0.255573570728302,-1.2275038957595825,2.9999759197235107,-0.19851753115653992,-0.1977832019329071,-0.19052813947200775,-0.1830958127975464,0.6270021796226501,0.4633258283138275,0.212682843208313,-0.014163615182042122
0.6333333333333333,0.041900813579559326,0.021322280168533325,0.0,0.6456792950630188,0.0,0.0,-0.7636086940765381,0.22961890697479248,-0.07373055815696716,0.0,0.0,0.0,0.8800797462463379,0.4341905415058136,0.6899806261062622,0.4212159216403961,0.56235671043396,-0.018624339252710342,-0.0029554611537605524,-0.8266797065734863,0.1429617553949356,-0.3744508922100067,-0.06514445692300797,-2.012026309967041,-0.9424910545349121,1.6798549890518188,0.42974433302879333,0.7011511921882629,0.4274832010269165,0.09327280521392822,-0.26475805044174194,0.11380830407142639,0.44339901208877563,0.6819403767585754,0.42000001668930054,-0.30492401123046875,-2.999478816986084,-1.2482037544250488,-2.9998674392700195,-0.19158035516738892,-0.1927897036075592,-0.18888689577579498,-0.184458926320076,0.4267309308052063,0.3114596903324127,0.11614885926246643,-0.05811893939971924
0.65,0.0473666787147522,0.022940250113606453,0.0,0.6366882920265198,0.0,0.0,-0.7711212635040283,0.355694055557251,0.1456586867570877,0.0,0.0,0.0,-2.5354833602905273,0.4346470534801483,0.6863206028938293,0.4200044572353363,0.5662106871604919,2.4796247089398094e-05,-1.6033231077017263e-05,-0.8242604732513428,-0.021269643679261208,-0.11444762349128723,-0.000599104561842978,-0.027582544833421707,0.011579781770706177,0.8296175599098206,0.4302678108215332,0.7016491293907166,0.429849237203598,0.06418637186288834,0.18512924015522003,0.17882420122623444,0.44339901208877563,0.6819403767585754,0.42000001668930054,-0.349775493144989,-2.4344890117645264,-1.2981520891189575,-2.9985177516937256,-0.18372207880020142,-0.18725834786891937,-0.18680283427238464,-0.18535619974136353,0.5558215975761414,0.4033680856227875,0.19157251715660095,0.009764127433300018
0.6666666666666666,0.05458676815032959,0.020388396456837654,0.0,0.638764500617981,0.0,0.0,-0.7694023251533508,0.4244420826435089,-0.1830691397190094,0.0,0.0,0.0,1.221287488937378,0.4344736337661743,0.6854029297828674,0.4200000464916229,0.5683247447013855,-3.943555100249796e-07,-4.748655726416473e-07,-0.8228042125701904,-0.006651089992374182,-0.034095749258995056,-2.1447893232107162e-05,0.0016742838779464364,-7.18615046935156e-05,0.15592879056930542,0.4312099814414978,0.7046545743942261,0.43289434909820557,-0.01890597492456436,0.1719624102115631,0.19525639712810516,0.44339901208877563,0.6819403767585754,0.42000001668930054,-0.39940232038497925,-2.999948740005493,-1.34816575050354,-2.999943971633911,-0.1731475293636322,-0.1790006011724472,-0.1817740947008133,-0.18310660123825073,0.5039055943489075,0.41241946816444397,0.2678857743740082,0.1436435729265213
0.6833333333333333,0.06375027447938919,0.015322740189731121,0.0,0.6582861542701721,0.0,0.0,-0.7527677416801453,0.6000469923019409,-0.3847608268260956,0.0,0.0,0.0,4.385582447052002,0.43447351455688477,0.6854031682014465,0.41999998688697815,0.5683249831199646,-2.166012109228177e-06,-3.3985836580541218e-06,-0.8228040933609009,6.943831976968795e-06,-0.00027665658853948116,-7.164361886680126e-05,0.007101511117070913,-0.002713191555812955,-0.0005730639095418155,0.4311745762825012,0.7053191065788269,0.43662136793136597,0.05691928789019585,-0.032138220965862274,0.26619136333465576,0.44339901208877563,0.6819403767585754,0.42000001668930054,-0.44939640164375305,-2.9998793601989746,-1.398171305656433,-2.999927043914795,-0.16895899176597595,-0.17488853633403778,-0.1784522831439972,-0.18024316430091858,0.18470323085784912,0.22661009430885315,0.23476149141788483,0.26325997710227966
0.7,0.07521981745958328,0.007044603116810322,0.0,0.6665735840797424,0.0,0.0,-0.7454392313957214,0.720136821269989,-0.5516729354858398,0.0,0.0,0.0,0.3036958575248718,0.43447351455688477,0.6854032278060913,0.41999998688697815,0.5683247447013855,-3.0455589694611263e-06,-4.235476353642298e-06,-0.82280433177948,-2.6455236366018653e-06,-0.0003436818078625947,-9.688502177596092e-05,0.008662598207592964,-0.0033350703306496143,-0.0006938575534150004,0.4352736473083496,0.7054377794265747,0.4417276382446289,0.39269956946372986,-0.041763871908187866,0.3780119717121124,0.44339901208877563,0.6819403767585754,0.42000001668930054,-0.49940773844718933,-3.0000011920928955,-1.4481879472732544,-3.0,-0.16741621494293213,-0.17213086783885956,-0.1749008595943451,-0.17556029558181763,0.06500642001628876,0.15728949010372162,0.23071807622909546,0.32338374853134155
0.7166666666666667,0.08863978832960129,-0.0032579824328422546,0.0,0.6521466970443726,0.0,0.0,-0.7580928206443787,0.8288460373878479,-0.7316589951515198,0.0,0.0,0.0,-3.173722982406616,0.43447351455688477,0.6854032278060913,0.41999998688697815,0.5683248043060303,-3.0463882012554677e-06,-4.254045961715747e-06,-0.82280433177948,-1.8846963030227926e-06,-0.0003437028790358454,-9.669223800301552e-05,0.008663144893944263,-0.0033242464996874332,-0.000695361290127039,0.4457145631313324,0.7065722346305847,0.4557276964187622,0.8468340635299683,0.12012019753456116,1.3785490989685059,0.44339901208877563,0.6819403767585754,0.42000001668930054,-0.5494203567504883,-2.9999945163726807,-1.4982062578201294,-3.000000238418579,-0.1687718629837036,-0.17169170081615448,-0.17291317880153656,-0.17175836861133575,-0.12307228893041611,-0.011135212145745754,0.08974672853946686,0.20389649271965027
0.7333333333333333,0.10602975636720657,-0.00865083560347557,0.0,0.6151995658874512,0.0,0.0,-0.7883713841438293,1.1256022453308105,-0.1890905648469925,0.0,0.0,0.0,-6.83206844329834,0.43447351455688477,0.6854032278060913,0.41999998688697815,0.5683248043060303,-3.0702904041390866e-06,-4.268183147360105e-06,-0.8228042125701904,-1.7882766769616865e-06,-0.0003437094565015286,-9.666499681770802e-05,0.008663473650813103,-0.003323877463117242,-0.0006955724093131721,0.46804532408714294,0.7016939520835876,0.4843738079071045,1.937204122543335,-0.6740594506263733,2.17079496383667,0.44339901208877563,0.6819403767585754,0.42000001668930054,-0.5994291305541992,-2.99967885017395,-1.5482245683670044,-2.9999563694000244,-0.17942669987678528,-0.17878639698028564,-0.17668429017066956,-0.17218339443206787,-0.8159940838813782,-0.561740517616272,-0.32107990980148315,-0.08495131880044937
0.75,0.11950156837701797,-0.010592743754386902,0.0,0.5917568206787109,0.0,0.0,-0.80611652135849,0.6987903118133545,-0.2507496774196625,0.0,0.0,0.0,-2.2302956581115723,0.43447351455688477,0.6854032278060913,0.41999998688697815,0.568324863910675,-3.0600506306655006e-06,-4.284182068658993e-06,-0.8228042125701904,-1.804055500542745e-06,-0.0003437212435528636,-9.666685946285725e-05,0.00866385642439127,-0.0033238683827221394,-0.0006955465069040656,0.49727287888526917,0.6947984099388123,0.5211693048477173,1.6512607336044312,-0.1994820237159729,2.214183807373047,0.44339901208877563,0.6819403767585754,0.42000001668930054,-0.6183224320411682,0.4388997256755829,-1.5982425212860107,-2.999999523162842,-0.18825148046016693,-0.18485131859779358,-0.18016450107097626,-0.17315532267093658,-0.14227718114852905,-0.09211358428001404,-0.04591371864080429,8.731149137020111e-09
0.7666666666666666,0.12762632966041565,-0.012604964897036552,0.0,0.5957958698272705,0.0,0.0,-0.803135871887207,0.410988986492157,-0.0691278725862503,0.0,0.0,0.0,1.468538522720337,0.43447351455688477,0.6854032278060913,0.41999998688697815,0.5683249235153198,-3.071934770559892e-06,-4.294334303267533e-06,-0.8228042125701904,-1.710494871076662e-06,-0.0003437244740780443,-9.663891978561878e-05,0.008664162829518318,-0.0033235044684261084,-0.0006957502919249237,0.5210924744606018,0.6925097703933716,0.5513213872909546,1.1065385341644287,-0.08617259562015533,1.4965980052947998,0.44339901208877563,0.6819403767585754,0.42000001668930054,-0.5888179540634155,2.8641128540039062,-1.5610615015029907,3.0000009536743164,-0.18885774910449982,-0.1848839968442917,-0.1796751767396927,-0.17219653725624084,0.06284832209348679,0.08342255651950836,0.09987355768680573,0.10944824665784836
0.7833333333333333,0.13124126195907593,-0.011746442876756191,0.0,0.5878496170043945,0.0,0.0,-0.8089702129364014,0.1583375483751297,0.10918251425027847,0.0,0.0,0.0,-2.1158454418182373,0.43447351455688477,0.6854032278060913,0.41999998688697815,0.5683249831199646,-3.0497199077217374e-06,-4.306246410124004e-06,-0.8228041529655457,-1.7250231394427828e-06,-0.0003437366394791752,-9.664124809205532e-05,0.008664584718644619,-0.003323404584079981,-0.00069571437779814,0.532476544380188,0.6935602426528931,0.5700769424438477,0.24467585980892181,0.15020042657852173,0.9123548269271851,0.44339901208877563,0.6819403767585754,0.42000001668930054,-0.5409513115882874,2.841919183731079,-1.511008858680725,2.9999983310699463,-0.1859956830739975,-0.1823153793811798,-0.17742431163787842,-0.17036466300487518,0.22500964999198914,0.19459393620491028,0.1612885445356369,0.11885674297809601
0.8,0.13141413033008575,-0.013221342116594315,0.0,0.5931200981140137,0.0,0.0,-0.8051140308380127,-0.0236275102943182,-0.23521648347377777,0.0,0.0,0.0,1.5825103521347046,0.43447351455688477,0.6854032278060913,0.41999998688697815,0.568324863910675,-3.0948101539252093e-06,-4.286343937565107e-06,-0.8228042125701904,-1.0571361599431839e-06,-0.00034378241980448365,-9.642005898058414e-05,0.008667795918881893,-0.0033194124698638916,-0.0006970904069021344,0.530943751335144,0.6956837773323059,0.5828973054885864,-0.41705167293548584,0.1790023148059845,0.6704180240631104,0.44339901208877563,0.6819403767585754,0.42000001668930054,-0.4913810193538666,2.9999945163726807,-1.460971474647522,2.999999761581421,-0.18224015831947327,-0.17873822152614594,-0.17412801086902618,-0.1675904244184494,0.2817353904247284,0.26718294620513916,0.24516865611076355,0.20645886659622192
0.8166666666666667,0.12921544909477234,-0.010854270309209824,0.0,0.5855198502540588,0.0,0.0,-0.8106580376625061,-0.18086719512939453,0.27852189540863037,0.0,0.0,0.0,-2.123818874359131,0.43447351455688477,0.6854032278060913,0.41999998688697815,0.5683249235153198,-3.077069322898751e-06,-4.297308805689681e-06,-0.8228042125701904,-1.7088241293095052e-06,-0.0003437375125940889,-9.664311073720455e-05,0.008664553053677082,-0.0033237109892070293,-0.0006957800360396504,0.5178011059761047,0.697561502456665,0.5905574560165405,-1.048648715019226,0.09814409166574478,0.3918186128139496,0.44339901208877563,0.6819403767585754,0.42000001668930054,-0.45615333318710327,1.3436028957366943,-1.410918116569519,3.0,-0.18259529769420624,-0.17844261229038239,-0.17332841455936432,-0.1666245013475418,-0.08173184096813202,-0.03223775699734688,0.009948947466909885,0.032682113349437714
0.8333333333333334,0.12527114152908325,-0.011595862917602062,0.0,0.5903670191764832,0.0,0.0,-0.8071349263191223,-0.2705433666706085,-0.1502082198858261,0.0,0.0,0.0,1.5852888822555542,0.43447354435920715,0.6854032278060913,0.41999998688697815,0.5683248043060303,-3.069511876674369e-06,-4.278924279788043e-06,-0.8228042721748352,-2.9239572540973313e-07,-0.00034386024344712496,-9.624077938497066e-05,0.008670222014188766,-0.0033137742429971695,-0.000698676856700331,0.5006108283996582,0.6989242434501648,0.5968867540359497,-1.082204818725586,0.10487908124923706,0.40815284848213196,0.44339901208877563,0.6819403767585754,0.42000001668930054,-0.43960267305374146,0.6834536790847778,-1.4270946979522705,-3.000000238418579,-0.18154484033584595,-0.17687596380710602,-0.1713481843471527,-0.16453005373477936,0.13661107420921326,0.1521163135766983,0.16233207285404205,0.15593992173671722
0.85,0.12421681731939316,-0.008247511461377144,0.0,0.5831702947616577,0.0,0.0,-0.8123499155044556,-0.1665634661912918,0.22248023748397827,0.0,0.0,0.0,-1.6558752059936523,0.43447351455688477,0.6854032278060913,0.41999998688697815,0.5683251023292542,-3.081157274209545e-06,-4.397535121825058e-06,-0.8228040933609009,-2.2124277165858075e-06,-0.00034370901994407177,-9.670457802712917e-05,0.008665514178574085,-0.003328748280182481,-0.0006948648951947689,0.4854199290275574,0.7004039287567139,0.597703218460083,-0.6211292743682861,0.2920931577682495,-0.06137258559465408,0.44339901208877563,0.6819403767585754,0.42000001668930054,-0.4336613118648529,0.07789859175682068,-1.388572335243225,3.0,-0.18272913992404938,-0.17743037641048431,-0.17130227386951447,-0.16411301493644714,0.22172506153583527,0.18401221930980682,0.15770627558231354,0.1323266625404358
0.8666666666666667,0.12439672648906708,-0.00868926476687193,0.0,0.5889586806297302,0.0,0.0,-0.8081631660461426,0.09884776175022125,-0.04472912847995758,0.0,0.0,0.0,1.5321357250213623,0.43447351455688477,0.6854032278060913,0.41999998688697815,0.568324863910675,-3.0744813557248563e-06,-4.398030341690173e-06,-0.8228042721748352,-1.298873030464165e-06,-0.0003438028506934643,-9.650830179452896e-05,0.008667709305882454,-0.0033218739554286003,-0.0006966989603824914,0.4770827293395996,0.7040644884109497,0.5998907089233398,-0.46013885736465454,0.11271952837705612,0.33735620975494385,0.44339901208877563,0.6819403767585754,0.42000001668930054,-0.46922996640205383,-3.000000238418579,-1.3385616540908813,3.000000476837158,-0.17795783281326294,-0.17345030605793,-0.1678834706544876,-0.16118930280208588,0.15824684500694275,0.13634395599365234,0.12664894759655,0.11939597874879837
0.8833333333333333,0.12760275602340698,-0.011633827351033688,0.0,0.594231903553009,0.0,0.0,-0.8042937517166138,0.22876401245594025,-0.21972115337848663,0.0,0.0,0.0,0.5539723038673401,0.43447351455688477,0.6854032278060913,0.41999998688697815,0.5683249235153198,-3.08069297716429e-06,-4.393160907056881e-06,-0.8228042125701904,-1.3798953659716062e-06,-0.0003437720297370106,-9.653065353631973e-05,0.008666528388857841,-0.0033218893222510815,-0.0006964786443859339,0.47516071796417236,0.7041347026824951,0.6012405157089233,0.19848710298538208,-0.11053086817264557,-0.018759720027446747,0.44339901208877563,0.6819403767585754,0.42000001668930054,-0.5192313194274902,-3.0,-1.3577712774276733,-3.0,-0.17651858925819397,-0.17172196507453918,-0.16562356054782867,-0.15832476317882538,0.0810062438249588,0.12398702651262283,0.1826445460319519,0.24702812731266022
0.9,0.13302433490753174,-0.017310870811343193,0.0,0.5815780758857727,0.0,0.0,-0.8134905695915222,0.36960718035697937,-0.4014918804168701,0.0,0.0,0.0,-2.7638494968414307,0.43447351455688477,0.6854032278060913,0.41999998688697815,0.5683248043060303,-3.059533810301218e-06,-4.233966592437355e-06,-0.8228042721748352,-3.1327931537816767e-06,-0.00034362758742645383,-9.704288095235825e-05,0.008659295737743378,-0.0033333832398056984,-0.0006925928173586726,0.4813094139099121,0.6988347768783569,0.5999974012374878,0.551282525062561,-0.5073468685150146,0.04470520466566086,0.44339901208877563,0.6819403767585754,0.42000001668930054,-0.5692362785339355,-2.9999895095825195,-1.4077895879745483,-3.000000476837158,-0.17662227153778076,-0.1707518845796585,-0.1633223444223404,-0.15459567308425903,-0.012508407235145569,0.061862967908382416,0.1507866382598877,0.24538655579090118
0.9166666666666666,0.14146094024181366,-0.02047131210565567,0.0,0.5489473342895508,0.0,0.0,-0.8358569145202637,0.5558764934539795,-0.12986290454864502,0.0,0.0,0.0,-5.791774272918701,0.43447351455688477,0.6854032278060913,0.41999998688697815,0.568324863910675,-3.059841446884093e-06,-4.2519436647125985e-06,-0.8228042721748352,-1.8844725673261564e-06,-0.00034369860077276826,-9.668990969657898e-05,0.008662921376526356,-0.0033242448698729277,-0.0006953549454919994,0.4938209056854248,0.6897557377815247,0.6006054878234863,0.9777023792266846,-0.5974432229995728,0.15662474930286407,0.44339901208877563,0.6819403767585754,0.42000001668930054,-0.5892308354377747,0.329530268907547,-1.4578078985214233,-2.9999935626983643,-0.17712906002998352,-0.17078430950641632,-0.1627017706632614,-0.15326233208179474,0.02745242603123188,0.01507128868252039,0.008214298635721207,0.00204605795443058
