vladlanda/robotic-transformer/data/env_000_episode_0076.csv
sim_time_s,robot_box_x,robot_box_y,robot_box_z,robot_box_quat_w,robot_box_quat_x,robot_box_quat_y,robot_box_quat_z,robot_box_linvel_x,robot_box_linvel_y,robot_box_linvel_z,robot_box_angvel_x,robot_box_angvel_y,robot_box_angvel_z,cube_world_x,cube_world_y,cube_world_z,cube_quat_w,cube_quat_x,cube_quat_y,cube_quat_z,cube_linvel_x,cube_linvel_y,cube_linvel_z,cube_angvel_x,cube_angvel_y,cube_angvel_z,endpoint_world_x,endpoint_world_y,endpoint_world_z,endpoint_linvel_x,endpoint_linvel_y,endpoint_linvel_z,target_cube_world_x,target_cube_world_y,target_cube_world_z,gripper_actual_pos_rad_gp_leftgearjoint,gripper_actual_vel_rad_s_gp_leftgearjoint,gripper_actual_pos_rad_gp_rotatingjoint,gripper_actual_vel_rad_s_gp_rotatingjoint,motor_angle_rad_joint1,motor_angle_rad_joint2,motor_angle_rad_joint3,motor_angle_rad_joint4,motor_speed_rad_s_joint1,motor_speed_rad_s_joint2,motor_speed_rad_s_joint3,motor_speed_rad_s_joint4
0.0,0.0,0.0,0.0,1.0,0.0,0.0,0.0,0.0,0.0,0.0,0.0,0.0,0.0,-0.4028630554676056,0.720371663570404,0.41999998688697815,1.0,0.0,0.0,0.0,0.0,0.0,0.0,0.0,0.0,0.0,3.42540442943573e-06,-0.005000244826078415,1.313499927520752,0.0,0.0,0.0,0.43649932742118835,0.7147574424743652,0.42000001668930054,-1.5707999467849731,0.0,0.0,0.0,0.0,0.0,0.0,0.0,0.0,0.0,0.0,0.0
0.016666666666666666,0.0028778850100934505,0.0021806680597364902,0.0,0.9998081922531128,0.0,0.0,0.019586581736803055,0.24087215960025787,0.18240931630134583,0.0,0.0,0.0,3.1418697834014893,-0.40286317467689514,0.7203713655471802,0.41999998688697815,1.0,3.279964630564791e-06,-8.339746386809566e-07,8.465587342243452e-08,-1.9833529222523794e-05,0.00017983045836444944,-6.132945418357849e-05,0.0009432713268324733,-0.004689474124461412,-0.00031981561915017664,-0.007110234349966049,0.003379564033821225,1.3159373998641968,-0.8143353462219238,0.9868683815002441,0.18095196783542633,0.43649932742118835,0.7147574424743652,0.42000001668930054,-1.5301095247268677,3.0000011920928955,-0.04584788903594017,-2.9999992847442627,0.0008691533003002405,0.0007963840034790337,0.0007110277656465769,0.0006108740926720202,0.11094217747449875,0.09756709635257721,0.08334315568208694,0.06823883205652237
0.03333333333333333,0.008960996754467487,0.006802017334848642,0.0,0.9997960329055786,0.0,0.0,0.02019684761762619,0.40702226758003235,0.31530773639678955,0.0,0.0,0.0,-0.8691330552101135,-0.4028632938861847,0.7203713059425354,0.4200000464916229,1.0,3.3908179375430336e-06,-2.132458348569344e-06,-3.7097745320124886e-08,0.00026357852038927376,0.00026937833172269166,-0.00010509369894862175,-0.0017707126680761576,0.004130884539335966,-0.0001354814594378695,-0.02755594253540039,0.02628435008227825,1.3165825605392456,-1.5913145542144775,1.6162885427474976,-0.08675418794155121,0.43649932742118835,0.7147574424743652,0.42000001668930054,-1.4800903797149658,2.999999523162842,-0.09588772058486938,-3.000000476837158,0.002990094479173422,0.0026526947040110826,0.002277255989611149,0.0018607024103403091,0.16421277821063995,0.13975578546524048,0.1138140931725502,0.08629556000232697
0.05,0.01844303496181965,0.013861729763448238,0.0,0.999984860420227,0.0,0.0,-0.005502504296600819,0.6359835267066956,0.47109293937683105,0.0,0.0,0.0,-4.080428123474121,-0.4028633236885071,0.7203713655471802,0.4200000464916229,1.0,3.7651293496310245e-06,-2.2119379536889028e-06,5.6273887771851605e-09,0.0002653067058417946,0.00026691422681324184,-0.00010440615005791187,-0.0017243530601263046,0.00417736079543829,-0.00012949267693329602,-0.0572577640414238,0.05766218155622482,1.3117893934249878,-1.950796365737915,2.0833828449249268,-0.4693693220615387,0.43649932742118835,0.7147574424743652,0.42000001668930054,-1.4300720691680908,3.000000476837158,-0.14592641592025757,-3.0000011920928955,0.006002753507345915,0.0051645818166434765,0.004253969062119722,0.003266708692535758,0.20735622942447662,0.16693975031375885,0.12461056560277939,0.08028594404459
0.06666666666666667,0.03074861876666546,0.02332795038819313,0.0,0.9999024868011475,0.0,0.0,-0.013966141268610954,0.7724598050117493,0.614815890789032,0.0,0.0,0.0,-0.0454520508646965,-0.4028633236885071,0.7203713059425354,0.4200000464916229,0.9999999403953552,3.406754103707499e-06,-2.2856077066535363e-06,4.300980265270482e-07,0.0002670255198609084,0.0002679179306142032,-0.0001043803058564663,-0.001740670995786786,0.004211848136037588,-0.00012850687198806554,-0.0932994857430458,0.09135264158248901,1.3010883331298828,-2.234978199005127,2.1355957984924316,-0.8033217191696167,0.43649932742118835,0.7147574424743652,0.42000001668930054,-1.3800537586212158,3.0000016689300537,-0.19593016803264618,-3.0000007152557373,0.008609662763774395,0.00701295118778944,0.005303595215082169,0.003476522397249937,0.1369963437318802,0.08203230798244476,0.024920430034399033,-0.03440061956644058
0.08333333333333333,0.03698372840881348,0.03662033751606941,0.0,0.9992827773094177,0.0,0.0,-0.03786735236644745,0.22458812594413757,0.8742218017578125,0.0,0.0,0.0,-3.816699743270874,-0.4028633236885071,0.7203713059425354,0.4200000464916229,0.9999999403953552,3.6260603337723296e-06,-2.3353738924924983e-06,3.0322857469400333e-07,0.00026613770751282573,0.00026685066404752433,-0.00010405178181827068,-0.0017283547203987837,0.004196325317025185,-0.000127911422168836,-0.1264473795890808,0.13198626041412354,1.284635066986084,-1.739636778831482,2.720184087753296,-1.088439702987671,0.43649932742118835,0.7147574424743652,0.42000001668930054,-1.3300244808197021,2.999995470046997,-0.16215914487838745,3.000001907348633,0.0047949752770364285,0.0024444740265607834,-7.224591536214575e-05,-0.002764046424999833,-0.36072665452957153,-0.41739991307258606,-0.47684651613235474,-0.5393199324607849
0.1,0.046714410185813904,0.05160193890333176,0.0,0.9959960579872131,0.0,0.0,-0.0893968790769577,0.7352072596549988,0.9036126732826233,0.0,0.0,0.0,-6.976283550262451,-0.4028633236885071,0.7203713059425354,0.4200000464916229,1.0,3.4220743145851884e-06,-2.30867885875341e-06,1.7964234189093986e-07,0.0002668164379429072,0.0002680036413948983,-0.00010440708138048649,-0.0017430284060537815,0.004207152873277664,-0.00012891023652628064,-0.15489928424358368,0.17872214317321777,1.2676684856414795,-1.6978341341018677,2.916189432144165,-1.0125168561935425,0.43649932742118835,0.7147574424743652,0.42000001668930054,-1.280031442642212,3.0000007152557373,-0.1938999444246292,-2.999999761581421,0.002997978823259473,-0.0009260769002139568,-0.005021830089390278,-0.009298381395637989,-0.014684676192700863,-0.12330161780118942,-0.23094263672828674,-0.33752837777137756
0.11666666666666667,0.05503178760409355,0.06417502462863922,0.0,0.992608904838562,0.0,0.0,-0.12135719507932663,0.541702389717102,0.6825177669525146,0.0,0.0,0.0,-2.5879650115966797,-0.4028633236885071,0.7203713655471802,0.4200000464916229,1.0,3.711451881827088e-06,-2.3327925191551913e-06,2.574467430349614e-07,0.0002648566151037812,0.0002663534542080015,-0.00010423408821225166,-0.0017182299634441733,0.004170136991888285,-0.0001291574299102649,-0.18815657496452332,0.22510968148708344,1.2480318546295166,-1.993833303451538,3.0127291679382324,-1.2307246923446655,0.43649932742118835,0.7147574424743652,0.42000001668930054,-1.2300138473510742,2.9999916553497314,-0.16010308265686035,3.0000009536743164,0.00030455252272076905,-0.005252136383205652,-0.010956895537674427,-0.0168186966329813,-0.04697146266698837,-0.16465550661087036,-0.2789882719516754,-0.3897959589958191
0.13333333333333333,0.06095771864056587,0.07745963335037231,0.0,0.9867976903915405,0.0,0.0,-0.16195784509181976,0.2827758193016052,0.8533883690834045,0.0,0.0,0.0,-5.6960225105285645,-0.4028633236885071,0.7203713059425354,0.4200000464916229,1.0,3.335707106089103e-06,-2.2319818526739255e-06,3.1131835953601694e-07,0.00026669749058783054,0.00026759348111227155,-0.00010428577661514282,-0.0017370672430843115,0.004205907229334116,-0.00012840131239499897,-0.2196071743965149,0.27821364998817444,1.2271348237991333,-1.7100046873092651,3.476344108581543,-1.324346661567688,0.43649932742118835,0.7147574424743652,0.42000001668930054,-1.1800265312194824,2.9999988079071045,-0.19184385240077972,-2.9999992847442627,-0.002074324758723378,-0.009623291902244091,-0.01725020818412304,-0.024960575625300407,-0.2212250530719757,-0.3355187773704529,-0.44539690017700195,-0.5506482124328613
0.15,0.06364629417657852,0.08912761509418488,0.0,0.9831538200378418,0.0,0.0,-0.18278005719184875,0.13039520382881165,0.5651184320449829,0.0,0.0,0.0,-1.4811232089996338,-0.4028633236885071,0.7203713059425354,0.4200000464916229,1.0,3.518956873449497e-06,-2.2831925434729783e-06,-3.625542035479157e-07,0.0002661838079802692,0.0002673559356480837,-0.00010425667278468609,-0.0017348496476188302,0.004195802379399538,-0.00012861037976108491,-0.2546764612197876,0.33394449949264526,1.1973986625671387,-2.1688103675842285,3.477092742919922,-2.166153907775879,0.43649932742118835,0.7147574424743652,0.42000001668930054,-1.1475838422775269,1.0375843048095703,-0.15805640816688538,3.0000009536743164,-0.006216227542608976,-0.01530466228723526,-0.024388592690229416,-0.033472418785095215,-0.2564355731010437,-0.32946592569351196,-0.39757660031318665,-0.46080276370048523
0.16666666666666666,0.069520503282547,0.10021497309207916,0.0,0.9762458801269531,0.0,0.0,-0.2166656106710434,0.3475690186023712,0.713559627532959,0.0,0.0,0.0,-4.869999408721924,-0.4028633236885071,0.7203713059425354,0.4200000464916229,1.0,3.6666233427240513e-06,-2.3392092316498747e-06,-3.150152849684673e-07,0.0002659587189555168,0.00026667414931580424,-0.00010403618216514587,-0.0017253721598535776,0.0041928282007575035,-0.00012778467498719692,-0.2889133095741272,0.39627206325531006,1.1574808359146118,-1.8774969577789307,4.0102314949035645,-2.666513442993164,0.43649932742118835,0.7147574424743652,0.42000001668930054,-1.1033276319503784,3.0000011920928955,-0.1898096203804016,-2.9999752044677734,-0.011260812170803547,-0.021338148042559624,-0.03134162351489067,-0.04127795621752739,-0.5170414447784424,-0.5423744916915894,-0.5654535889625549,-0.5864743590354919
0.18333333333333332,0.07114997506141663,0.11404917389154434,0.0,0.9722957015037537,0.0,0.0,-0.23375427722930908,0.049170684069395065,0.8566341400146484,0.0,0.0,0.0,-0.709526002407074,-0.4028633236885071,0.7203713059425354,0.4200000464916229,1.0,3.814353021880379e-06,-2.3995974061108427e-06,-2.7029872740058636e-07,0.00026549032190814614,0.0002661117759998888,-0.00010391208343207836,-0.0017177986446768045,0.004184774123132229,-0.0001275356044061482,-0.32388877868652344,0.4589393138885498,1.1044387817382812,-2.0016589164733887,3.823425769805908,-3.578192949295044,0.43649932742118835,0.7147574424743652,0.42000001668930054,-1.0575370788574219,2.4992783069610596,-0.23983784019947052,-2.9999988079071045,-0.023181067779660225,-0.03302978351712227,-0.04278012365102768,-0.052448540925979614,-0.7056344151496887,-0.6834445595741272,-0.6593771576881409,-0.6340014338493347
0.2,0.0771796926856041,0.12426003813743591,0.0,0.9653534889221191,0.0,0.0,-0.2609456181526184,0.40272122621536255,0.5064627528190613,0.0,0.0,0.0,-4.056052207946777,-0.4028633236885071,0.7203713059425354,0.4200000464916229,1.0,3.6000251384393778e-06,-2.2912661279406166e-06,-2.202114615101891e-07,0.0002657297009136528,0.00026644894387573004,-0.00010398100130259991,-0.0017226373311132193,0.004188735969364643,-0.0001277304399991408,-0.3542352318763733,0.5249319076538086,1.0394175052642822,-1.595985770225525,4.000567436218262,-4.225144386291504,0.43649932742118835,0.7147574424743652,0.42000001668930054,-1.0079878568649292,2.9999988079071045,-0.2898640036582947,-2.999999761581421,-0.03383653238415718,-0.04328882321715355,-0.052623119205236435,-0.06186550110578537,-0.7892229557037354,-0.7404125928878784,-0.6921072006225586,-0.6448976397514343
0.21666666666666667,0.07767077535390854,0.13686200976371765,0.0,0.9514135718345642,0.0,0.0,-0.30791595578193665,0.039059534668922424,0.7427507638931274,0.0,0.0,0.0,-6.460797309875488,-0.4028633236885071,0.7203713059425354,0.4200000464916229,0.9999999403953552,3.639628175733378e-06,-2.2620024537900463e-06,2.2244368835799833e-07,0.00026687400531955063,0.00026754438295029104,-0.00010411953553557396,-0.0017404285026714206,0.004211097024381161,-0.00012783633428625762,-0.37635642290115356,0.5886855721473694,0.9588586091995239,-0.9898861646652222,3.823887825012207,-5.157632827758789,0.43649932742118835,0.7147574424743652,0.42000001668930054,-0.9579790234565735,2.999980926513672,-0.33989185094833374,-2.9999985694885254,-0.04990871995687485,-0.0593184195458889,-0.06860025227069855,-0.07767987996339798,-0.7187708616256714,-0.7543394565582275,-0.7904722690582275,-0.824604868888855
0.23333333333333334,0.08361121267080307,0.14432276785373688,0.0,0.9422968626022339,0.0,0.0,-0.33477842807769775,0.356129914522171,0.36820274591445923,0.0,0.0,0.0,-2.205340623855591,-0.4028632938861847,0.7203713059425354,0.4200000464916229,1.0,3.4207625958515564e-06,-2.3168413463281468e-06,2.955432591988938e-07,0.0002668008382897824,0.0002680383331608027,-0.00010442384518682957,-0.0017436932539567351,0.004206873942166567,-0.00012899334251414984,-0.39533501863479614,0.6427701711654663,0.8688578605651855,-0.8328131437301636,2.9639129638671875,-5.7405171394348145,0.43649932742118835,0.7147574424743652,0.42000001668930054,-0.9079702496528625,2.9999985694885254,-0.3899220824241638,-3.000000476837158,-0.061149682849645615,-0.07054150849580765,-0.07984858751296997,-0.0889703705906868,-0.9094104170799255,-0.8541334867477417,-0.8038846254348755,-0.7580235600471497
0.25,0.08358245342969894,0.15533347427845,0.0,0.9429741501808167,0.0,0.0,-0.33286601305007935,0.010722285136580467,0.6207900643348694,0.0,0.0,0.0,1.5527225732803345,-0.4028633236885071,0.7203713059425354,0.4200000464916229,0.9999999403953552,3.3476451335445745e-06,-2.259213715660735e-06,1.8079042263252632e-07,0.00026687688659876585,0.00026791199343279004,-0.00010439311154186726,-0.0017404770478606224,0.004208194557577372,-0.0001287040940951556,-0.40999239683151245,0.6761866807937622,0.7719681262969971,-0.7752649784088135,1.414265751838684,-5.770713806152344,0.43649932742118835,0.7147574424743652,0.42000001668930054,-0.8579598665237427,2.9999396800994873,-0.4399535357952118,-2.9999983310699463,-0.07760492712259293,-0.0869564637541771,-0.09626644849777222,-0.10537771135568619,-0.6694820523262024,-0.730735182762146,-0.7873215675354004,-0.8379244804382324
0.26666666666666666,0.08266100287437439,0.1608988642692566,0.0,0.939635694026947,0.0,0.0,-0.34217649698257446,-0.09513385593891144,0.24923203885555267,0.0,0.0,0.0,-2.0602147579193115,-0.4028633236885071,0.7203713059425354,0.4200000464916229,0.9999999403953552,3.535712721713935e-06,-2.300341748195933e-06,-1.2691427286881662e-07,0.00026601803256198764,0.00026712071849033237,-0.00010419590398669243,-0.0017315904842689633,0.004192848224192858,-0.00012849242193624377,-0.4206348657608032,0.6996259689331055,0.6736446619033813,-0.43254736065864563,1.1691609621047974,-5.892465591430664,0.43649932742118835,0.7147574424743652,0.42000001668930054,-0.8079507350921631,2.999995470046997,-0.4899848699569702,-3.0000016689300537,-0.0894748866558075,-0.09962955862283707,-0.1096675917506218,-0.11941982060670853,-0.7897595763206482,-0.8198440670967102,-0.8462592363357544,-0.8687658309936523
0.2833333333333333,0.07864882051944733,0.1632767915725708,0.0,0.9416787624359131,0.0,0.0,-0.3365132212638855,-0.2980514466762543,0.09901990741491318,0.0,0.0,0.0,1.5282995700836182,-0.4028633236885071,0.7203713655471802,0.4200000464916229,1.0,3.5934726838604547e-06,-2.2626072677667253e-06,-5.6595279573912194e-08,0.00026704673655331135,0.00026774933212436736,-0.00010416633449494839,-0.0017431472660973668,0.0042141880840063095,-0.00012789324682671577,-0.4257167875766754,0.7138289213180542,0.5777701139450073,-0.10289833694696426,0.5117807984352112,-5.540916919708252,0.43649932742118835,0.7147574424743652,0.42000001668930054,-0.7579419612884521,3.0000014305114746,-0.5400148034095764,-3.000001907348633,-0.10628136992454529,-0.11634569615125656,-0.12632064521312714,-0.1360265165567398,-1.0064899921417236,-1.0048924684524536,-1.0036773681640625,-1.0027116537094116
0.3,0.0720849335193634,0.16313228011131287,0.0,0.9382189512252808,0.0,0.0,-0.3460422158241272,-0.44262635707855225,-0.05113272741436958,0.0,0.0,0.0,-2.091190814971924,-0.4028632938861847,0.7203713059425354,0.4200000464916229,0.9999999403953552,3.7250313198455842e-06,-2.2360607090377016e-06,3.828210992651293e-07,0.00026479887310415506,0.00026673005777411163,-0.00010453932918608189,-0.0017189555801451206,0.004166737664490938,-0.00013016702723689377,-0.42127612233161926,0.7196940183639526,0.4838346540927887,0.6376862525939941,0.1387975513935089,-5.566839218139648,0.43649932742118835,0.7147574424743652,0.42000001668930054,-0.7079339027404785,3.0000016689300537,-0.5900435447692871,-3.000000238418579,-0.12368679791688919,-0.13356296718120575,-0.1433948129415512,-0.1529873013496399,-1.0025330781936646,-1.0019149780273438,-1.0014426708221436,-1.0010658502578735
0.31666666666666665,0.06329058855772018,0.1605047583580017,0.0,0.9403042197227478,0.0,0.0,-0.34033507108688354,-0.5703604221343994,-0.1986689418554306,0.0,0.0,0.0,1.5984514951705933,-0.4028633236885071,0.7203713059425354,0.4200000464916229,0.9999999403953552,3.557747731974814e-06,-2.2788008209317923e-06,2.2828703549748752e-07,0.00026598561089485884,0.00026658433489501476,-0.00010398984886705875,-0.0017240943852812052,0.00419356394559145,-0.00012769577733706683,-0.40741443634033203,0.7198916673660278,0.3930214047431946,1.101109504699707,-0.1683761030435562,-5.323610305786133,0.43649932742118835,0.7147574424743652,0.42000001668930054,-0.6579270362854004,3.000001907348633,-0.640070378780365,-3.000000238418579,-0.14086586236953735,-0.15060675144195557,-0.1603386551141739,-0.1698540896177292,-1.0021685361862183,-1.0016471147537231,-1.0012482404708862,-1.0009262561798096
0.3333333333333333,0.05279145389795303,0.15564802289009094,0.0,0.9370478391647339,0.0,0.0,-0.3492010831832886,-0.6461312174797058,-0.318987101316452,0.0,0.0,0.0,-2.0155062675476074,-0.40286341309547424,0.7203711867332458,0.42000001668930054,1.0,4.514048214332433e-06,-3.56210352947528e-06,-8.617505642405376e-08,0.0004127665306441486,0.000338944693794474,-0.00010831770487129688,-0.001964594004675746,0.007667423691600561,-9.957965085050091e-05,-0.40991488099098206,0.7221685647964478,0.42400115728378296,0.2565518021583557,0.3007010817527771,-0.13436295092105865,0.43649932742118835,0.7147574424743652,0.42000001668930054,-0.6088621020317078,2.99998140335083,-0.6903642416000366,-2.941737174987793,-0.13794127106666565,-0.14885957539081573,-0.15933457016944885,-0.16907136142253876,-0.1787872016429901,-0.1874769628047943,-0.17095637321472168,-0.12600725889205933
0.35,0.04063906893134117,0.14861471951007843,0.0,0.9393566846847534,0.0,0.0,-0.3429417908191681,-0.7729148864746094,-0.4698619246482849,0.0,0.0,0.0,1.640558123588562,-0.3992968499660492,0.7254719734191895,0.4205021858215332,0.9990095496177673,0.012645273469388485,-0.0003584627993404865,-0.042658496648073196,0.2984956204891205,0.42765432596206665,0.03567314147949219,1.9160144329071045,-0.12619593739509583,-7.6713080406188965,-0.4059785008430481,0.7283971309661865,0.42174580693244934,0.2740866541862488,0.47016003727912903,-0.1284656524658203,0.43649932742118835,0.7147574424743652,0.42000001668930054,-0.5588568449020386,2.999995470046997,-0.7403974533081055,-2.9999196529388428,-0.14272534847259521,-0.15313678979873657,-0.16272924840450287,-0.17118224501609802,-0.33033475279808044,-0.2803151607513428,-0.2097865492105484,-0.1182856634259224
0.36666666666666664,0.03209802508354187,0.13862016797065735,0.0,0.9362424612045288,0.0,0.0,-0.35135456919670105,-0.4299089014530182,-0.6467703580856323,0.0,0.0,0.0,-1.93812096118927,-0.39435452222824097,0.7324742674827576,0.42000332474708557,0.9946489334106445,-2.022724765993189e-05,-0.00013360251614358276,-0.10331171751022339,0.34763869643211365,0.465116411447525,-0.0004284317546989769,0.018326785415410995,-0.0036618937738239765,-8.0603609085083,-0.3998909294605255,0.7351391315460205,0.4200427532196045,0.4990513324737549,0.4416930079460144,-0.09602310508489609,0.43649932742118835,0.7147574424743652,0.42000001668930054,-0.5088521242141724,2.9999773502349854,-0.790446400642395,-2.9999942779541016,-0.14906714856624603,-0.15798693895339966,-0.16573266685009003,-0.17199942469596863,-0.4093130826950073,-0.2880432605743408,-0.147177055478096,0.011228236369788647
0.3833333333333333,0.020724544301629066,0.1269661784172058,0.0,0.9220948815345764,0.0,0.0,-0.38696393370628357,-0.7756475210189819,-0.724285900592804,0.0,0.0,0.0,-5.521814346313477,-0.38570475578308105,0.7428064346313477,0.42000114917755127,0.9780124425888062,-1.599617098690942e-05,-2.624603212098009e-06,-0.20854653418064117,0.7321764826774597,0.8181506991386414,-0.0012269912986084819,0.029117560014128685,0.012228889390826225,-19.83922576904297,-0.38913482427597046,0.7460662126541138,0.4205099940299988,0.8374704122543335,0.9714131355285645,0.10244518518447876,0.43649932742118835,0.7147574424743652,0.42000001668930054,-0.45880529284477234,3.0,-0.840465784072876,-2.9999661445617676,-0.15861472487449646,-0.16487915813922882,-0.1696491539478302,-0.17267479002475739,-0.5739613771438599,-0.4081266224384308,-0.22350876033306122,-0.02382850833237171
0.4,0.012573057785630226,0.11226829886436462,0.0,0.8945211172103882,0.0,0.0,-0.44702571630477905,-0.46187537908554077,-0.9247401356697083,0.0,0.0,0.0,-8.662337303161621,-0.35984599590301514,0.7676021456718445,0.42194023728370667,0.9707034826278687,-0.016181940212845802,-0.023353133350610733,-0.23859454691410065,2.3446173667907715,1.713494896888733,0.3032650351524353,18.026599884033203,-13.264593124389648,-5.508444309234619,-0.3643203377723694,0.7689251899719238,0.42250216007232666,2.3855655193328857,1.8296685218811035,0.12616939842700958,0.43649932742118835,0.7147574424743652,0.42000001668930054,-0.41012340784072876,2.3190109729766846,-0.8904824256896973,-3.000002145767212,-0.1674029529094696,-0.17044520378112793,-0.1716536432504654,-0.17086072266101837,-0.6603482365608215,-0.40552595257759094,-0.13385149836540222,0.14771677553653717
0.4166666666666667,0.006765781901776791,0.09770511835813522,0.0,0.8505175709724426,0.0,0.0,-0.5259466767311096,-0.30025652050971985,-0.8468021750450134,0.0,0.0,0.0,-11.645706176757812,-0.29545488953590393,0.8048715591430664,0.4260634183883667,0.9578455686569214,0.030665922909975052,-0.062236081808805466,-0.2787795662879944,5.293309688568115,2.4877994060516357,0.3546573519706726,11.85322380065918,-10.20743465423584,-17.9035587310791,-0.29964667558670044,0.8068300485610962,0.42647892236709595,5.122034072875977,2.8143393993377686,0.3114250600337982,0.43649932742118835,0.7147574424743652,0.42000001668930054,-0.38543933629989624,1.0725115537643433,-0.8535160422325134,3.000335454940796,-0.18253566324710846,-0.18042124807834625,-0.1759880632162094,-0.16969072818756104,-0.9243648052215576,-0.6457682847976685,-0.31016814708709717,0.006249006371945143
0.43333333333333335,0.0035093212500214577,0.08975691348314285,0.0,0.7865421175956726,0.0,0.0,-0.6175366640090942,-0.12539246678352356,-0.5613733530044556,0.0,0.0,0.0,-14.048811912536621,-0.1878858208656311,0.8478182554244995,0.4333886206150055,0.925212562084198,0.07042192667722702,-0.08866145461797714,-0.36216220259666443,7.956392288208008,2.6137917041778564,0.5648699402809143,3.5858325958251953,0.4397568702697754,-32.688011169433594,-0.19202351570129395,0.8507320880889893,0.4338263273239136,7.391473770141602,2.6409053802490234,0.5402317047119141,0.43649932742118835,0.7147574424743652,0.42000001668930054,-0.3685886859893799,1.0414605140686035,-0.8800292611122131,-2.9975390434265137,-0.1987193524837494,-0.1963922530412674,-0.18826033174991608,-0.17547503113746643,-0.5210885405540466,-0.6104958653450012,-0.6504961252212524,-0.34760794043540955
0.45,-0.0018166310619562864,0.08419034630060196,0.0,0.7285521030426025,0.0,0.0,-0.684990406036377,-0.302968829870224,-0.31286191940307617,0.0,0.0,0.0,-9.329339027404785,-0.06458468735218048,0.8770960569381714,0.4424572288990021,0.884072482585907,0.11359702050685883,-0.11107438802719116,-0.439515620470047,7.9201836585998535,1.0916688442230225,0.9111300110816956,20.552120208740234,-8.73859977722168,-34.51055908203125,-0.0684792548418045,0.8828377723693848,0.4429853856563568,7.196130752563477,1.1693462133407593,0.48960280418395996,0.43649932742118835,0.7147574424743652,0.42000001668930054,-0.3517812192440033,0.9781503081321716,-0.8546196222305298,2.9999186992645264,-0.21306928992271423,-0.2107008844614029,-0.20159301161766052,-0.1826745867729187,-0.7182886004447937,-0.7522885799407959,-0.7342207431793213,-0.4226119816303253
0.4666666666666667,-0.0036240636836737394,0.07430591434240341,0.0,0.6913859844207764,0.0,0.0,-0.7224856019020081,-0.11706812679767609,-0.6339437365531921,0.0,0.0,0.0,-5.053867816925049,0.056352656334638596,0.8877550959587097,0.45145806670188904,0.8225687146186829,0.09605952352285385,-0.12164391577243805,-0.5471343994140625,7.184060573577881,-0.7578374743461609,0.6503641605377197,11.812742233276367,-12.36717700958252,-30.5981502532959,0.0508759431540966,0.8945403099060059,0.4515409469604492,6.873421669006348,-0.15105080604553223,0.5400242805480957,0.43649932742118835,0.7147574424743652,0.42000001668930054,-0.3373788893222809,0.7839484810829163,-0.880499541759491,-3.0000009536743164,-0.22490999102592468,-0.22125540673732758,-0.21041177213191986,-0.1861458122730255,-0.9079957604408264,-0.7142632603645325,-0.5164214968681335,-0.17171575129032135
0.48333333333333334,-0.007517568301409483,0.06846032291650772,0.0,0.6795644164085388,0.0,0.0,-0.7336158156394958,-0.23012514412403107,-0.2969193756580353,0.0,0.0,0.0,-0.766085684299469,0.1621667444705963,0.8739991784095764,0.45676079392433167,0.7502943873405457,0.07134503871202469,-0.15345518290996552,-0.6390771269798279,5.821126937866211,-1.9072035551071167,0.40208980441093445,-1.4569571018218994,-28.24527359008789,-34.837738037109375,0.15610988438129425,0.8841794729232788,0.4588810205459595,5.62893009185791,-1.085146188735962,0.256355345249176,0.43649932742118835,0.7147574424743652,0.42000001668930054,-0.32627785205841064,0.5292695760726929,-0.9305243492126465,-3.000002384185791,-0.23978543281555176,-0.23514503240585327,-0.22007203102111816,-0.19018016755580902,-0.41190004348754883,-0.7479404807090759,-0.5169397592544556,-0.24512885510921478
0.5,-0.00898545142263174,0.0603020153939724,0.0,0.6598296761512756,0.0,0.0,-0.7514151930809021,-0.027515249326825142,-0.5204834342002869,0.0,0.0,0.0,-4.015610218048096,0.24636636674404144,0.8477370738983154,0.45727866888046265,0.7126868367195129,0.057672031223773956,-0.13339601457118988,-0.6862629055976868,4.890748500823975,-2.5225675106048584,0.42120760679244995,6.872491359710693,-19.72231674194336,-60.45612716674805,0.2424933910369873,0.8592004179954529,0.459651380777359,4.5557332038879395,-1.9875890016555786,-0.21051159501075745,0.43649932742118835,0.7147574424743652,0.42000001668930054,-0.31992965936660767,0.24984008073806763,-0.9805483818054199,-3.000001907348633,-0.2400246113538742,-0.24001885950565338,-0.2282886505126953,-0.19440346956253052,-0.021413519978523254,-0.015293327160179615,-0.4490417242050171,-0.24053740501403809
0.5166666666666666,-0.007287595421075821,0.0559774674475193,0.0,0.6541410684585571,0.0,0.0,-0.7563725113868713,0.1317770630121231,-0.1941242814064026,0.0,0.0,0.0,0.08829265832901001,0.31382516026496887,0.8112697601318359,0.45143988728523254,0.6843129992485046,0.012982356362044811,-0.1252242922782898,-0.7182379961013794,3.683119297027588,-3.018390655517578,-0.14742411673069,7.375384330749512,-12.607344627380371,-29.448545455932617,0.312434583902359,0.8225725889205933,0.45500144362449646,3.621342182159424,-2.308361053466797,-0.5233566164970398,0.43649932742118835,0.7147574424743652,0.42000001668930054,-0.31709614396095276,0.16549105942249298,-1.0305712223052979,-3.0000016689300537,-0.23993836343288422,-0.23992158472537994,-0.23554985225200653,-0.19920437037944794,-0.013908217661082745,0.01668398641049862,-0.2521953284740448,-0.1961946040391922
0.5333333333333333,-0.003280661767348647,0.05553428456187248,0.0,0.6400028467178345,0.0,0.0,-0.7683725357055664,0.29237058758735657,0.03905916586518288,0.0,0.0,0.0,-3.1114962100982666,0.3667775094509125,0.7746251225471497,0.4378115236759186,0.6538476347923279,-0.03252877667546272,-0.10394621640443802,-0.7487457394599915,2.7954225540161133,-2.729137659072876,-0.6887049674987793,4.063626289367676,-6.543525218963623,-22.877254486083984,0.3665394186973572,0.7854795455932617,0.4419633448123932,2.707078456878662,-2.161348581314087,-1.0301049947738647,0.43649932742118835,0.7147574424743652,0.42000001668930054,-0.3118976354598999,0.44564586877822876,-1.0805933475494385,-3.000002145767212,-0.23819755017757416,-0.23817245662212372,-0.23796911537647247,-0.2023446410894394,0.18665336072444916,0.18252798914909363,-0.03429441154003143,-0.1526058316230774
0.55,0.003755927551537752,0.050501808524131775,0.0,0.6386984586715698,0.0,0.0,-0.7694571018218994,0.47625723481178284,-0.462828665971756,0.0,0.0,0.0,0.7291240692138672,0.4054579436779022,0.7414134740829468,0.42214134335517883,0.6491673588752747,-0.03490578383207321,-0.03328832983970642,-0.7591147422790527,1.4729267358779907,-1.714953899383545,0.34474340081214905,-9.083603858947754,-17.599367141723633,-48.03640365600586,0.4064379930496216,0.7508537769317627,0.42438310384750366,1.506931185722351,-1.6190173625946045,-0.28646594285964966,0.43649932742118835,0.7147574424743652,0.42000001668930054,-0.30225691199302673,0.6159297823905945,-1.1306815147399902,-3.0018765926361084,-0.23002083599567413,-0.23071134090423584,-0.2341248244047165,-0.20200753211975098,0.6537805795669556,0.5958189964294434,0.403138130903244,0.14345157146453857
0.5666666666666667,0.012082180939614773,0.04800984263420105,0.0,0.6265632510185242,0.0,0.0,-0.7793705463409424,0.554006040096283,-0.04882818087935448,0.0,0.0,0.0,-2.8049986362457275,0.42699888348579407,0.7244203090667725,0.4215312600135803,0.6735392808914185,-0.02632826380431652,0.030600110068917274,-0.7380481958389282,1.3545995950698853,-1.4175293445587158,0.05004232004284859,0.37100619077682495,2.5563549995422363,-24.322572708129883,0.4287010431289673,0.7318828105926514,0.4222053587436676,0.8865910768508911,-0.6172894239425659,0.2176513671875,0.43649932742118835,0.7147574424743652,0.42000001668930054,-0.2917975187301636,0.5213565230369568,-1.180702805519104,-2.9993438720703125,-0.21951496601104736,-0.22154277563095093,-0.22791258990764618,-0.20087262988090515,0.6732150912284851,0.5742031335830688,0.40902847051620483,0.06628058850765228
0.5833333333333334,0.017899997532367706,0.048309795558452606,0.0,0.6272849440574646,0.0,0.0,-0.7787898182868958,0.2850307822227478,0.0737714171409607,0.0,0.0,0.0,1.017408847808838,0.44045132398605347,0.7125548720359802,0.423147052526474,0.6751851439476013,-0.057497262954711914,0.04573194310069084,-0.7339807152748108,0.6138270497322083,-0.685429036617279,0.11977124959230423,-1.304723858833313,5.009877681732178,-2.4460198879241943,0.44305282831192017,0.7196571230888367,0.4248078763484955,0.685202419757843,-0.6601596474647522,0.16430363059043884,0.43649932742118835,0.7147574424743652,0.42000001668930054,-0.29778608679771423,-0.8894748687744141,-1.2306843996047974,-2.9978039264678955,-0.20817266404628754,-0.21158084273338318,-0.21999943256378174,-0.1986709088087082,0.6721462607383728,0.5993553996086121,0.5089049935340881,0.16651050746440887
0.6,0.02445884235203266,0.04684979468584061,0.0,0.6168787479400635,0.0,0.0,-0.7870581746101379,0.40290749073028564,-0.13583135604858398,0.0,0.0,0.0,-2.4504215717315674,0.44702064990997314,0.7067790031433105,0.4230943024158478,0.6886589527130127,-0.057831838726997375,0.049324892461299896,-0.7210903167724609,0.3219022750854492,-0.5316179990768433,-0.00537763349711895,-4.438961982727051,-4.702133655548096,-9.457831382751465,0.44913250207901,0.7143141031265259,0.4246065616607666,0.042012136429548264,-0.08371228724718094,-0.07036223262548447,0.43649932742118835,0.7147574424743652,0.42000001668930054,-0.2993157207965851,0.365254670381546,-1.2078545093536377,2.9984588623046875,-0.19647210836410522,-0.2011699229478836,-0.2108614593744278,-0.19535322487354279,0.609912097454071,0.5577857494354248,0.5198469758033752,0.19123795628547668
0.6166666666666667,0.03306069225072861,0.04861335828900337,0.0,0.6195648908615112,0.0,0.0,-0.7849454283714294,0.5345332622528076,0.1428898721933365,0.0,0.0,0.0,1.314910650253296,0.44880011677742004,0.702341616153717,0.4217264652252197,0.6653707027435303,-0.028316298499703407,0.007704435382038355,-0.7459359169006348,0.08871976286172867,-0.24869327247142792,-0.12336108088493347,1.9855138063430786,-4.7614288330078125,-7.206319332122803,0.4493083357810974,0.7127915620803833,0.4260672330856323,-0.030221909284591675,0.015721913427114487,0.15949133038520813,0.43649932742118835,0.7147574424743652,0.42000001668930054,-0.330547034740448,-2.9987895488739014,-1.2288627624511719,-2.9977810382843018,-0.18925683200359344,-0.1944151520729065,-0.20411671698093414,-0.1935657113790512,0.4547536075115204,0.4147452414035797,0.4132131040096283,0.11592886596918106
0.6333333333333333,0.04343999922275543,0.050966594368219376,0.0,0.6444432139396667,0.0,0.0,-0.7646521925926208,0.6631777882575989,0.18228653073310852,0.0,0.0,0.0,4.810137748718262,0.4484911262989044,0.7003133893013,0.4200003743171692,0.6329361200332642,-2.7984280677628703e-05,-1.0362788088968955e-05,-0.7742040157318115,-0.10895349085330963,-0.008660309948027134,-0.000506414333358407,0.04827621951699257,0.013153817504644394,-4.252038955688477,0.4478641748428345,0.7146913409233093,0.42897820472717285,-0.13120704889297485,0.19493696093559265,0.19398891925811768,0.43649932742118835,0.7147574424743652,0.42000001668930054,-0.38056546449661255,-3.0000007152557373,-1.278830647468567,-2.99885630607605,-0.18000027537345886,-0.18622362613677979,-0.1961638182401657,-0.19059358537197113,0.5859363079071045,0.515896201133728,0.5015724897384644,0.21288630366325378
0.65,0.05569883808493614,0.04956424981355667,0.0,0.6562896966934204,0.0,0.0,-0.7545090317726135,0.7639681696891785,-0.0672752782702446,0.0,0.0,0.0,0.7822909951210022,0.44631555676460266,0.7010208964347839,0.4200000464916229,0.6125467419624329,-4.996222742192913e-06,1.295791571465088e-05,-0.7904342412948608,-0.15847136080265045,0.07487618923187256,-0.00024951991508714855,-0.0035848990082740784,-0.01289751473814249,-3.5926239490509033,0.44581300020217896,0.720963180065155,0.43325334787368774,-0.18988589942455292,0.3293793201446533,0.2793343961238861,0.43649932742118835,0.7147574424743652,0.42000001668930054,-0.43058350682258606,-2.999941110610962,-1.328796148300171,-2.9994688034057617,-0.16765454411506653,-0.17520387470722198,-0.18541641533374786,-0.1843637228012085,0.5416045188903809,0.5216190218925476,0.5647269487380981,0.36492255330085754
0.6666666666666666,0.06942563503980637,0.04598912224173546,0.0,0.6456379890441895,0.0,0.0,-0.7636436223983765,0.8520740866661072,-0.2799850106239319,0.0,0.0,0.0,-2.8551323413848877,0.44452911615371704,0.7018084526062012,0.4200000464916229,0.5999072790145874,-3.925700582385616e-07,-5.113383281241113e-07,-0.8000695109367371,-0.08946393430233002,0.0379028394818306,-1.2853415682911873e-06,-2.2638647351413965e-05,-6.489316001534462e-05,-1.4400473833084106,0.444787859916687,0.7260876893997192,0.4386536777019501,0.05376848578453064,0.2498815357685089,0.47947707772254944,0.43649932742118835,0.7147574424743652,0.42000001668930054,-0.4805970788002014,-2.9999938011169434,-1.378814458847046,-2.9999988079071045,-0.16124963760375977,-0.16835729777812958,-0.17701208591461182,-0.1780802309513092,0.2937764823436737,0.3557058572769165,0.4860568940639496,0.41644152998924255
0.6833333333333333,0.0859375149011612,0.046033360064029694,0.0,0.6107627749443054,0.0,0.0,-0.7918136119842529,0.9722011089324951,0.08259941637516022,0.0,0.0,0.0,-6.279378414154053,0.4439294934272766,0.7020475268363953,0.42000001668930054,0.5971100330352783,-9.746401019583573e-07,1.8571627151686698e-06,-0.802159309387207,-0.015922440215945244,0.005888065323233604,-4.820793401449919e-05,-0.0008874042541719973,-0.002397894626483321,-0.14665107429027557,0.45308321714401245,0.7257636785507202,0.4546353816986084,0.9975043535232544,-0.1722995638847351,1.5077269077301025,0.43649932742118835,0.7147574424743652,0.42000001668930054,-0.530609667301178,-2.9999120235443115,-1.428832769393921,-2.999990940093994,-0.16315686702728271,-0.16802260279655457,-0.17337308824062347,-0.17418347299098969,-0.1813592165708542,-0.03993525356054306,0.16418656706809998,0.20741169154644012
0.7,0.09909926354885101,0.047501564025878906,0.0,0.590359091758728,0.0,0.0,-0.8071407079696655,0.7033869028091431,0.12955045700073242,0.0,0.0,0.0,-2.037760019302368,0.44392913579940796,0.7020477652549744,0.4200000464916229,0.5971102118492126,4.296923066249292e-07,-3.187939228155301e-06,-0.8021591305732727,0.00016654531646054238,-0.0002617531281430274,-8.830148726701736e-05,0.005802696570754051,-0.00028427827055566013,-0.0006838773842900991,0.4738243520259857,0.7279767990112305,0.4813455045223236,1.3397914171218872,0.38896051049232483,1.7008342742919922,0.43649932742118835,0.7147574424743652,0.42000001668930054,-0.552115797996521,0.1563182771205902,-1.478851079940796,-2.9999992847442627,-0.16358405351638794,-0.16732962429523468,-0.17061123251914978,-0.17167946696281433,0.05073441192507744,0.06772235780954361,0.1333339810371399,0.07591336965560913
0.7166666666666667,0.1074860692024231,0.0496455654501915,0.0,0.5956167578697205,0.0,0.0,-0.8032687306404114,0.45027846097946167,0.19691330194473267,0.0,0.0,0.0,1.6607062816619873,0.44392913579940796,0.7020477652549744,0.4200000464916229,0.5971103310585022,3.271258037784719e-07,-3.2683615245332476e-06,-0.8021591305732727,0.00012994800636079162,-0.0002739972260314971,-9.37760341912508e-05,0.006202815566211939,-0.001183858374133706,-0.0006440432043746114,0.4919537305831909,0.735926628112793,0.5042035579681396,0.7825429439544678,0.5226842164993286,1.0864813327789307,0.43649932742118835,0.7147574424743652,0.42000001668930054,-0.5290778875350952,2.393993616104126,-1.4441293478012085,2.9999992847442627,-0.1627098023891449,-0.1659328192472458,-0.16802531480789185,-0.16970162093639374,-0.00861347559839487,0.04019832983613014,0.12021504342556,0.10575214773416519
0.7333333333333333,0.11204319447278976,0.04794280603528023,0.0,0.5888471603393555,0.0,0.0,-0.8082444071769714,0.21494020521640778,-0.19105863571166992,0.0,0.0,0.0,-1.9405072927474976,0.44392913579940796,0.7020477652549744,0.4200000464916229,0.597110390663147,3.302558297946234e-07,-3.3098804124165326e-06,-0.8021590113639832,0.0001297345443163067,-0.00027418011450208724,-9.369314648211002e-05,0.0062091536819934845,-0.0011859370861202478,-0.0006436342955566943,0.49785661697387695,0.7442586421966553,0.5158867835998535,-0.09079214930534363,0.4931190609931946,0.5078320503234863,0.43649932742118835,0.7147574424743652,0.42000001668930054,-0.502921998500824,0.8550940155982971,-1.3940995931625366,3.000000238418579,-0.16180336475372314,-0.16428256034851074,-0.1652274876832962,-0.16707508265972137,0.06488512456417084,0.11502166092395782,0.1815394163131714,0.1811075657606125
0.75,0.11315789073705673,0.0509331189095974,0.0,0.5947200655937195,0.0,0.0,-0.8039328455924988,0.018845416605472565,0.3165525794029236,0.0,0.0,0.0,1.7482064962387085,0.44392913579940796,0.7020477652549744,0.4200000464916229,0.5971104502677917,3.767832197354437e-07,-3.1771621706866426e-06,-0.8021588921546936,0.0001300436706515029,-0.0002741818316280842,-9.376881644129753e-05,0.006207554135471582,-0.001182411564514041,-0.0006443285965360701,0.4930819272994995,0.7516815662384033,0.5221368074417114,-0.4427594840526581,0.4933605194091797,0.2589006721973419,0.43649932742118835,0.7147574424743652,0.42000001668930054,-0.4800643026828766,1.7886179685592651,-1.4123259782791138,-3.0,-0.16629940271377563,-0.1669004261493683,-0.16588978469371796,-0.16679902374744415,-0.331155002117157,-0.21709145605564117,-0.10465623438358307,-0.04255605861544609
0.7666666666666666,0.1160462498664856,0.05216516926884651,0.0,0.589620053768158,0.0,0.0,-0.8076807856559753,0.19055120646953583,0.061516597867012024,0.0,0.0,0.0,-1.6264175176620483,0.44392913579940796,0.7020477652549744,0.4200000464916229,0.5971103310585022,2.640061609326949e-07,-3.496655608614674e-06,-0.8021590113639832,0.00012858507398050278,-0.0002750427811406553,-9.340071119368076e-05,0.006236512213945389,-0.0012037387350574136,-0.0006417250842787325,0.47881829738616943,0.7587729692459106,0.5200236439704895,-1.269261360168457,0.33385419845581055,-0.32502028346061707,0.43649932742118835,0.7147574424743652,0.42000001668930054,-0.4857928454875946,-2.131958246231079,-1.3738465309143066,3.000000238418579,-0.16998858749866486,-0.16912220418453217,-0.16670337319374084,-0.1668059229850769,-0.2734071612358093,-0.1767517477273941,-0.08751186728477478,-0.02503795363008976
0.7833333333333333,0.12056805938482285,0.05067281424999237,0.0,0.5968424081802368,0.0,0.0,-0.8023584485054016,0.3094976842403412,-0.1602032482624054,0.0,0.0,0.0,1.8770819902420044,0.44392913579940796,0.7020477652549744,0.4200000464916229,0.5971103310585022,3.545343645328103e-07,-3.1077929634193424e-06,-0.8021591305732727,0.00013112706074025482,-0.00027425569714978337,-9.398162364959717e-05,0.006203208584338427,-0.0011691957479342818,-0.000646873377263546,0.46132761240005493,0.7633407115936279,0.5141766667366028,-0.8603953123092651,0.25823965668678284,-0.32920145988464355,0.43649932742118835,0.7147574424743652,0.42000001668930054,-0.5150139927864075,-1.413215160369873,-1.3924530744552612,-2.999999523162842,-0.17544202506542206,-0.1725870668888092,-0.1682410091161728,-0.16661730408668518,-0.29494157433509827,-0.17698919773101807,-0.05878852307796478,0.06122181564569473
0.8,0.12668541073799133,0.045695118606090546,0.0,0.591361939907074,0.0,0.0,-0.8064062595367432,0.4059634506702423,-0.3537648320198059,0.0,0.0,0.0,-1.727107048034668,0.44392913579940796,0.7020477652549744,0.4200000464916229,0.597110390663147,4.021392214781372e-07,-3.145033360851812e-06,-0.8021590113639832,0.00012983189662918448,-0.000274048768915236,-9.373202919960022e-05,0.0062053450383245945,-0.0011845877161249518,-0.0006437552510760725,0.45107918977737427,0.7648911476135254,0.5055540800094604,-0.3820778429508209,-0.063539057970047,-0.5101184844970703,0.43649932742118835,0.7147574424743652,0.42000001668930054,-0.5608094334602356,-2.9999847412109375,-1.4424713850021362,-3.0,-0.17999579012393951,-0.1752750426530838,-0.16895602643489838,-0.16509461402893066,-0.2617456614971161,-0.14294755458831787,-0.015773769468069077,0.13602982461452484
0.8166666666666667,0.13521766662597656,0.03752860054373741,0.0,0.5642708539962769,0.0,0.0,-0.8255897164344788,0.5574844479560852,-0.547896146774292,0.0,0.0,0.0,-4.907337188720703,0.44392913579940796,0.7020477652549744,0.4200000464916229,0.5971104502677917,3.9385218997267657e-07,-3.1832805689191446e-06,-0.8021588921546936,0.00012994017743039876,-0.00027402109117247164,-9.375438094139099e-05,0.006204153876751661,-0.0011830036528408527,-0.0006439535645768046,0.4504653811454773,0.7592761516571045,0.5023964047431946,0.3525610566139221,-0.5374244451522827,0.2545775771141052,0.43649932742118835,0.7147574424743652,0.42000001668930054,-0.6108182072639465,-2.9999070167541504,-1.4924896955490112,-2.9999942779541016,-0.1861209273338318,-0.1792670339345932,-0.1706937998533249,-0.16410237550735474,-0.37843751907348633,-0.25812771916389465,-0.13129235804080963,0.027816714718937874
0.8333333333333334,0.14636985957622528,0.03217421844601631,0.0,0.5527414083480835,0.0,0.0,-0.83335280418396,0.7034282684326172,-0.23961080610752106,0.0,0.0,0.0,-0.6369884014129639,0.44392913579940796,0.7020477652549744,0.4200000464916229,0.5971103310585022,2.812130333040841e-07,-3.5029725040658377e-06,-0.8021590113639832,0.00012852954387199134,-0.00027499167481437325,-9.338767267763615e-05,0.006235545501112938,-0.0012041248846799135,-0.0006415515090338886,0.4583820700645447,0.7568132877349854,0.5106416344642639,0.556779146194458,0.13281533122062683,0.6848678588867188,0.43649932742118835,0.7147574424743652,0.42000001668930054,-0.6293212175369263,0.48969531059265137,-1.5425080060958862,-2.999999523162842,-0.19157038629055023,-0.1838427484035492,-0.17432428896427155,-0.1662164181470871,-0.21338166296482086,-0.22694601118564606,-0.23905299603939056,-0.21587370336055756
0.85,0.1543504148721695,0.02953305095434189,0.0,0.5668935775756836,0.0,0.0,-0.8237910270690918,0.4072348177433014,-0.10069352388381958,0.0,0.0,0.0,2.8735251426696777,0.44392913579940796,0.7020477652549744,0.4200000464916229,0.5971103310585022,3.7177198919380317e-07,-3.1141842100623762e-06,-0.8021591305732727,0.00013106955157127231,-0.0002742065116763115,-9.396742098033428e-05,0.006202361546456814,-0.0011695900466293097,-0.0006466913619078696,0.46999502182006836,0.7595764398574829,0.5166044235229492,0.72718346118927,0.12615296244621277,0.07764395326375961,0.43649932742118835,0.7147574424743652,0.42000001668930054,-0.6153103113174438,1.1233247518539429,-1.5036561489105225,3.0,-0.19235312938690186,-0.18524031341075897,-0.17629681527614594,-0.1681416779756546,0.021465113386511803,-0.016496691852808,-0.05419027432799339,-0.05636674538254738
0.8666666666666667,0.15761698782444,0.023115526884794235,0.0,0.567256510257721,0.0,0.0,-0.8235411643981934,0.1678805649280548,-0.41846778988838196,0.0,0.0,0.0,-1.0071437358856201,0.44392913579940796,0.7020477652549744,0.4200000464916229,0.597110390663147,3.853426164823759e-07,-3.1508975553151686e-06,-0.8021590113639832,0.00012982824409846216,-0.00027404562570154667,-9.372830390930176e-05,0.006205249112099409,-0.0011845461558550596,-0.0006437399424612522,0.479178249835968,0.7586460709571838,0.5133676528930664,0.3773382306098938,-0.29141631722450256,-0.3153780400753021,0.43649932742118835,0.7147574424743652,0.42000001668930054,-0.6331430673599243,-2.898437261581421,-1.4536035060882568,3.000000476837158,-0.1891932487487793,-0.18298475444316864,-0.17498010396957397,-0.16720303893089294,0.08897600322961807,0.06615833938121796,0.03553513437509537,0.03164399787783623
0.8833333333333333,0.164208322763443,0.022247016429901123,0.0,0.5794745087623596,0.0,0.0,-0.8149904012680054,0.3391188383102417,0.002308069495484233,0.0,0.0,0.0,2.4749584197998047,0.44392913579940796,0.7020477652549744,0.4200000464916229,0.5971104502677917,3.770342118514236e-07,-3.1891454455035273e-06,-0.8021588921546936,0.0001299942086916417,-0.0002740689378697425,-9.376439265906811e-05,0.0062048546969890594,-0.0011827318230643868,-0.0006441306904889643,0.48903965950012207,0.7544403076171875,0.509868860244751,0.7674069404602051,-0.05101362615823746,-0.09709131717681885,0.43649932742118835,0.7147574424743652,0.42000001668930054,-0.6517269015312195,0.3957204818725586,-1.470719814300537,-2.9999992847442627,-0.19248268008232117,-0.18587206304073334,-0.17760364711284637,-0.16917769610881805,-0.03723859041929245,-0.060607798397541046,-0.0835207998752594,-0.07579118758440018
