vladlanda/robotic-transformer/data/env_000_episode_0122.csv
sim_time_s,robot_box_x,robot_box_y,robot_box_z,robot_box_quat_w,robot_box_quat_x,robot_box_quat_y,robot_box_quat_z,robot_box_linvel_x,robot_box_linvel_y,robot_box_linvel_z,robot_box_angvel_x,robot_box_angvel_y,robot_box_angvel_z,cube_world_x,cube_world_y,cube_world_z,cube_quat_w,cube_quat_x,cube_quat_y,cube_quat_z,cube_linvel_x,cube_linvel_y,cube_linvel_z,cube_angvel_x,cube_angvel_y,cube_angvel_z,endpoint_world_x,endpoint_world_y,endpoint_world_z,endpoint_linvel_x,endpoint_linvel_y,endpoint_linvel_z,target_cube_world_x,target_cube_world_y,target_cube_world_z,gripper_actual_pos_rad_gp_leftgearjoint,gripper_actual_vel_rad_s_gp_leftgearjoint,gripper_actual_pos_rad_gp_rotatingjoint,gripper_actual_vel_rad_s_gp_rotatingjoint,motor_angle_rad_joint1,motor_angle_rad_joint2,motor_angle_rad_joint3,motor_angle_rad_joint4,motor_speed_rad_s_joint1,motor_speed_rad_s_joint2,motor_speed_rad_s_joint3,motor_speed_rad_s_joint4
0.0,0.0,0.0,0.0,1.0,0.0,0.0,0.0,0.0,0.0,0.0,0.0,0.0,0.0,-0.4593949019908905,0.6544497609138489,0.41999998688697815,1.0,0.0,0.0,0.0,0.0,0.0,0.0,0.0,0.0,0.0,3.42540442943573e-06,-0.005000244826078415,1.313499927520752,0.0,0.0,0.0,0.3910418152809143,0.6753009557723999,0.42000001668930054,-1.5707999467849731,0.0,0.0,0.0,0.0,0.0,0.0,0.0,0.0,0.0,0.0,0.0
0.016666666666666666,0.0028778850100934505,0.0021806680597364902,0.0,0.9998081922531128,0.0,0.0,0.019586581736803055,0.24087215960025787,0.18240931630134583,0.0,0.0,0.0,3.1418697834014893,-0.45939502120018005,0.654449462890625,0.41999998688697815,1.0,3.2799914606584935e-06,-8.339814598912199e-07,8.465387679734704e-08,-1.9833554688375443e-05,0.00017983050202019513,-6.133061833679676e-05,0.0009432226070202887,-0.004689437802881002,-0.0003198152990080416,-0.007110234349966049,0.003379564033821225,1.3159373998641968,-0.8143353462219238,0.9868683815002441,0.18095196783542633,0.3910418152809143,0.6753009557723999,0.42000001668930054,-1.5301095247268677,3.0000011920928955,-0.04584788903594017,-2.9999992847442627,0.0008691533003002405,0.0007963840034790337,0.0007110277656465769,0.0006108740926720202,0.11094217747449875,0.09756709635257721,0.08334315568208694,0.06823883205652237
0.03333333333333333,0.008960951119661331,0.006801786366850138,0.0,0.9997960329055786,0.0,0.0,0.020196832716464996,0.40701794624328613,0.315302312374115,0.0,0.0,0.0,-0.8691300749778748,-0.4593951404094696,0.6544494032859802,0.4200000464916229,1.0,3.390885240150965e-06,-2.1324319732229924e-06,-3.711133800265998e-08,0.00026357753085903823,0.00026937859365716577,-0.00010509602725505829,-0.0017706351354718208,0.004130707122385502,-0.00013548039714805782,-0.027540694922208786,0.025743288919329643,1.3166663646697998,-1.5910258293151855,1.599395751953125,-0.07666357606649399,0.3910418152809143,0.6753009557723999,0.42000001668930054,-1.4800903797149658,3.000001907348633,-0.09588771313428879,-3.000000238418579,0.002990212058648467,0.002652867930009961,0.002277479274198413,0.0018609723774716258,0.16423210501670837,0.13977941870689392,0.1138417199254036,0.08632688969373703
0.05,0.017759529873728752,0.013772841542959213,0.0,0.9993746876716614,0.0,0.0,0.035358838737010956,0.5939741134643555,0.46515873074531555,0.0,0.0,0.0,2.6474483013153076,-0.459395170211792,0.654449462890625,0.4200000464916229,1.0,3.7652134778909385e-06,-2.2118977085483493e-06,5.605784725304375e-09,0.0002653079864103347,0.00026691483799368143,-0.00010440615005791187,-0.0017242918256670237,0.0041773696430027485,-0.00012949654774274677,-0.05967000126838684,0.053165361285209656,1.3118622303009033,-2.1876132488250732,1.7262420654296875,-0.4612983167171478,0.3910418152809143,0.6753009557723999,0.42000001668930054,-1.4300720691680908,3.000002145767212,-0.145926371216774,-3.000000238418579,0.005713399033993483,0.004921290557831526,0.004057032056152821,0.0031161869410425425,0.19286835193634033,0.15597422420978546,0.11720389872789383,0.07646443694829941
0.06666666666666667,0.029077347368001938,0.02306744083762169,0.0,0.999447226524353,0.0,0.0,0.033245958387851715,0.7205116748809814,0.5952650904655457,0.0,0.0,0.0,-1.211875557899475,-0.459395170211792,0.6544494032859802,0.4200000464916229,0.9999999403953552,3.4068298191414215e-06,-2.28560702453251e-06,4.300801776935259e-07,0.00026702682953327894,0.0002679186000023037,-0.00010437914170324802,-0.0017406968399882317,0.004211870953440666,-0.00012850748316850513,-0.09855419397354126,0.086469367146492,1.2995092868804932,-2.4791383743286133,2.1593387126922607,-0.9922705292701721,0.3910418152809143,0.6753009557723999,0.42000001668930054,-1.3800537586212158,3.0,-0.19595937430858612,-2.999999761581421,0.008366803638637066,0.006905062589794397,0.0053323847241699696,0.003642478957772255,0.15826092660427094,0.1087820827960968,0.05727213993668556,0.0036563489120453596
0.08333333333333333,0.04211154952645302,0.03473814204335213,0.0,0.9989631772041321,0.0,0.0,0.04552515223622322,0.8750588893890381,0.740504264831543,0.0,0.0,0.0,2.531890869140625,-0.459395170211792,0.6544494032859802,0.4200000464916229,0.9999999403953552,3.6261494642531034e-06,-2.3353520646196557e-06,3.03220957675876e-07,0.00026613869704306126,0.00026685185730457306,-0.00010405178181827068,-0.001728373346850276,0.0041963220573961735,-0.0001279099815292284,-0.143437922000885,0.12064136564731598,1.278965950012207,-2.8265843391418457,2.01234769821167,-1.4216413497924805,0.3910418152809143,0.6753009557723999,0.42000001668930054,-1.3300272226333618,2.9999992847442627,-0.2042686939239502,1.6071184873580933,0.009844928979873657,0.007563609164208174,0.005132654681801796,0.002544912975281477,0.09393986314535141,0.0364297479391098,-0.023070793598890305,-0.08457054197788239
0.1,0.05016587674617767,0.04864558205008507,0.0,0.9990984201431274,0.0,0.0,0.04245397076010704,0.34149372577667236,0.9153399467468262,0.0,0.0,0.0,-1.313504695892334,-0.459395170211792,0.6544494032859802,0.4200000464916229,1.0,3.422180270717945e-06,-2.3086204237188213e-06,1.7963316167879384e-07,0.0002668162633199245,0.00026800515479408205,-0.00010440475307404995,-0.001743071130476892,0.0042070611380040646,-0.00012891352525912225,-0.18580901622772217,0.15932831168174744,1.252322793006897,-2.367922306060791,2.465857982635498,-1.6890935897827148,0.3910418152809143,0.6753009557723999,0.42000001668930054,-1.280021071434021,3.0000030994415283,-0.2433447390794754,-2.9999992847442627,0.005547035951167345,0.002486801939085126,-0.0007689009071327746,-0.004230471793562174,-0.3931735157966614,-0.44812634587287903,-0.5054668188095093,-0.5654018521308899
0.11666666666666667,0.05420489236712456,0.06372427195310593,0.0,0.9999379515647888,0.0,0.0,0.011141489259898663,0.25851166248321533,0.8970562219619751,0.0,0.0,0.0,-4.509748935699463,-0.459395170211792,0.654449462890625,0.4200000464916229,1.0,3.7115075883775717e-06,-2.3327127109951107e-06,2.5744481035872013e-07,0.00026485862326808274,0.0002663535997271538,-0.00010423525236546993,-0.0017182156443595886,0.004170025233179331,-0.00012915159459225833,-0.22579863667488098,0.20280590653419495,1.2242705821990967,-2.4672794342041016,2.624289035797119,-1.7287746667861938,0.3910418152809143,0.6753009557723999,0.42000001668930054,-1.2299985885620117,2.9999966621398926,-0.22824986279010773,2.999999523162842,0.00013093830784782767,-0.004219728522002697,-0.008765380829572678,-0.013518313877284527,-0.23054121434688568,-0.32431548833847046,-0.4162284731864929,-0.5063114166259766
0.13333333333333333,0.05719080939888954,0.0766994059085846,0.0,0.9999995231628418,0.0,0.0,0.0009575977455824614,0.11656282842159271,0.6941336393356323,0.0,0.0,0.0,-0.1615661084651947,-0.459395170211792,0.6544494032859802,0.4200000464916229,1.0,3.335707560836454e-06,-2.231929784102249e-06,3.113250670594425e-07,0.00026669655926525593,0.00026759272441267967,-0.00010428344830870628,-0.0017370833083987236,0.004205867648124695,-0.00012840259296353906,-0.2685665190219879,0.24400478601455688,1.1958034038543701,-2.471341609954834,2.5398032665252686,-1.698232889175415,0.3910418152809143,0.6753009557723999,0.42000001668930054,-1.1800073385238647,3.0000038146972656,-0.2594566345214844,-2.999999761581421,-0.0020875628106296062,-0.00846059899777174,-0.01495664194226265,-0.021585965529084206,-0.16935814917087555,-0.29496845602989197,-0.4157116115093231,-0.53143310546875
0.15,0.06492874026298523,0.08886712044477463,0.0,0.9997013807296753,0.0,0.0,-0.02443743124604225,0.6230901479721069,0.7523941993713379,0.0,0.0,0.0,-4.032819747924805,-0.459395170211792,0.6544494032859802,0.4200000464916229,1.0,3.518910716593382e-06,-2.283128196722828e-06,-3.6253297253097116e-07,0.00026618537958711386,0.0002673573326319456,-0.00010425900109112263,-0.001734911696985364,0.004195764660835266,-0.0001286038022954017,-0.30797404050827026,0.2927408814430237,1.162090539932251,-2.277946949005127,3.191683292388916,-2.329737424850464,0.3910418152809143,0.6753009557723999,0.42000001668930054,-1.1299903392791748,2.9999923706054688,-0.22535677254199982,3.0000007152557373,-0.0027641423512250185,-0.011292833834886551,-0.019849445670843124,-0.028443261981010437,-0.03832259774208069,-0.15511782467365265,-0.2664068937301636,-0.37220773100852966
0.16666666666666666,0.07108289748430252,0.09841540455818176,0.0,0.9968637824058533,0.0,0.0,-0.07913621515035629,0.3332027792930603,0.521851658821106,0.0,0.0,0.0,-7.261749744415283,-0.459395170211792,0.6544494032859802,0.4200000464916229,1.0,3.6666367577709025e-06,-2.339185357413953e-06,-3.1499951091973344e-07,0.00026595836970955133,0.00026667435304261744,-0.0001040350180119276,-0.001725263660773635,0.004192706663161516,-0.0001277874398510903,-0.3426649570465088,0.35131603479385376,1.120276927947998,-1.8339914083480835,3.8637402057647705,-2.6443426609039307,0.3910418152809143,0.6753009557723999,0.42000001668930054,-1.0894955396652222,1.9166265726089478,-0.25664788484573364,-3.000000238418579,-0.008430767804384232,-0.018473464995622635,-0.028468148782849312,-0.03842753916978836,-0.4048408567905426,-0.49109646677970886,-0.5726209878921509,-0.6495276689529419
0.18333333333333332,0.07368256896734238,0.10859305411577225,0.0,0.9938223361968994,0.0,0.0,-0.11098264902830124,0.08284679800271988,0.6502882838249207,0.0,0.0,0.0,-2.6775379180908203,-0.459395170211792,0.6544494032859802,0.4200000464916229,1.0,3.81432801077608e-06,-2.3995953597477637e-06,-2.702601591408893e-07,0.00026549241738393903,0.00026611125213094056,-0.0001039144117385149,-0.001717846025712788,0.004184907767921686,-0.0001275365357287228,-0.37891897559165955,0.40916532278060913,1.069090485572815,-2.0734376907348633,3.5815186500549316,-3.4889066219329834,0.3910418152809143,0.6753009557723999,0.42000001668930054,-1.0508606433868408,2.627821207046509,-0.30666935443878174,-3.000000476837158,-0.017223866656422615,-0.02809124067425728,-0.03883540630340576,-0.04947512224316597,-0.6182633638381958,-0.636224091053009,-0.650526762008667,-0.6616892218589783
0.2,0.07259479910135269,0.11971990764141083,0.0,0.988169252872467,0.0,0.0,-0.15336740016937256,-0.13317923247814178,0.7083454728126526,0.0,0.0,0.0,-5.965027332305908,-0.459395170211792,0.6544494032859802,0.4200000464916229,1.0,3.6000305954075884e-06,-2.291332975801197e-06,-2.2018426193426421e-07,0.0002657303703017533,0.00026644946774467826,-0.00010398332960903645,-0.0017227656207978725,0.004188916180282831,-0.0001277326955460012,-0.4137251377105713,0.4697955250740051,1.0036624670028687,-1.8787002563476562,3.7373600006103516,-4.292698860168457,0.3910418152809143,0.6753009557723999,0.42000001668930054,-1.0013916492462158,2.9999983310699463,-0.3566967248916626,-3.000000238418579,-0.03006669320166111,-0.04089725762605667,-0.05154704675078392,-0.06204497814178467,-0.8663021922111511,-0.8437463045120239,-0.8185287714004517,-0.7912843823432922
0.21666666666666667,0.07457080483436584,0.12781868875026703,0.0,0.9843637347221375,0.0,0.0,-0.1761477291584015,0.18048185110092163,0.38777098059654236,0.0,0.0,0.0,-1.5953282117843628,-0.459395170211792,0.6544494032859802,0.4200000464916229,0.9999999403953552,3.6395945244294126e-06,-2.262050429635565e-06,2.22480679212822e-07,0.0002668731613084674,0.00026754382997751236,-0.00010412069968879223,-0.0017403790261596441,0.004211051855236292,-0.00012783856072928756,-0.4456031620502472,0.5242701768875122,0.9252228736877441,-1.632946491241455,3.1172492504119873,-5.075955390930176,0.3910418152809143,0.6753009557723999,0.42000001668930054,-0.9513866901397705,3.000002145767212,-0.40672504901885986,-2.999997854232788,-0.04512932151556015,-0.05553542077541351,-0.06509632617235184,-0.07446783781051636,-0.9719628691673279,-0.9516744017601013,-0.8600027561187744,-0.7652118802070618
0.23333333333333334,0.07165586948394775,0.13768546283245087,0.0,0.977312445640564,0.0,0.0,-0.21180273592472076,-0.25034329295158386,0.5767360329627991,0.0,0.0,0.0,-5.194518089294434,-0.4593951404094696,0.6544494032859802,0.4200000464916229,1.0,3.4206784675916424e-06,-2.3168879579316126e-06,2.955945888061251e-07,0.0002668003144208342,0.00026803938089869916,-0.00010442547500133514,-0.001743790227919817,0.0042069097980856895,-0.00012899360444862396,-0.4679577350616455,0.5709577202796936,0.8352327346801758,-1.011634111404419,2.622685432434082,-5.475787162780762,0.3910418152809143,0.6753009557723999,0.42000001668930054,-0.9013760089874268,3.0,-0.45675528049468994,-3.0000009536743164,-0.06225452199578285,-0.0725058913230896,-0.08196276426315308,-0.09125969558954239,-0.96628338098526,-0.9723771214485168,-0.9783616065979004,-0.9829704165458679
0.25,0.07351022213697433,0.1437164843082428,0.0,0.9735332131385803,0.0,0.0,-0.22854562103748322,0.1276351362466812,0.29022783041000366,0.0,0.0,0.0,-0.9004058241844177,-0.459395170211792,0.6544494032859802,0.4200000464916229,0.9999999403953552,3.347569418110652e-06,-2.2592607820115518e-06,1.8083566999393952e-07,0.00026687703211791813,0.000267912371782586,-0.00010439497418701649,-0.0017404744867235422,0.004208243917673826,-0.00012870493810623884,-0.48498043417930603,0.6062871813774109,0.7420822381973267,-0.6967459917068481,1.7619297504425049,-5.788506031036377,0.3910418152809143,0.6753009557723999,0.42000001668930054,-0.851365327835083,3.000001907348633,-0.506786048412323,-2.9999990463256836,-0.07657026499509811,-0.0868103876709938,-0.09625345468521118,-0.10560063272714615,-1.000036358833313,-0.9999998211860657,-0.9766374826431274,-0.9590720534324646
0.26666666666666666,0.07127411663532257,0.1464385837316513,0.0,0.9665242433547974,0.0,0.0,-0.2565753161907196,-0.13445626199245453,0.09766427427530289,0.0,0.0,0.0,-4.258212089538574,-0.459395170211792,0.6544494032859802,0.4200000464916229,0.9999999403953552,3.7080028505442897e-06,-2.3925720142869977e-06,-1.2727348064345279e-07,0.00026603767764754593,0.0002671651600394398,-0.00010421336628496647,-0.001732167787849903,0.004193236585706472,-0.00012854699161835015,-0.4899728298187256,0.6290072202682495,0.6450220346450806,0.08727823942899704,1.12337064743042,-5.697351932525635,0.3910418152809143,0.6753009557723999,0.42000001668930054,-0.8013558983802795,2.999998092651367,-0.5568161606788635,-2.9999985694885254,-0.09365443140268326,-0.10372546315193176,-0.11306963115930557,-0.12235624343156815,-0.8717789053916931,-0.893427312374115,-0.9152342677116394,-0.9350758194923401
0.2833333333333333,0.0670851320028305,0.1461021900177002,0.0,0.9642192721366882,0.0,0.0,-0.2651059329509735,-0.28780001401901245,-0.05880720913410187,0.0,0.0,0.0,-0.0776941254734993,-0.459395170211792,0.654449462890625,0.4200000464916229,0.9999999403953552,3.5726452551898547e-06,-2.3041482108965283e-06,1.2983555564005655e-07,0.0002652166585903615,0.0002645513159222901,-0.00010317121632397175,-0.0017022769898176193,0.00418518902733922,-0.0001250016939593479,-0.4885690212249756,0.6460022926330566,0.5555880069732666,0.31053540110588074,0.9034116268157959,-5.037550449371338,0.3910418152809143,0.6753009557723999,0.42000001668930054,-0.7513471245765686,3.0000011920928955,-0.6068456768989563,-2.9999985694885254,-0.1103568896651268,-0.12042655050754547,-0.12980706989765167,-0.13913580775260925,-1.0170273780822754,-1.0127984285354614,-1.0095810890197754,-1.007027268409729
0.3,0.060259535908699036,0.14328935742378235,0.0,0.9582831859588623,0.0,0.0,-0.28582054376602173,-0.4623815417289734,-0.215635284781456,0.0,0.0,0.0,-3.4400970935821533,-0.459395170211792,0.6544494032859802,0.4200000464916229,1.0,3.7450704439834226e-06,-2.2382607767212903e-06,-1.7680952169030206e-07,0.00026436272310093045,0.00026623535086400807,-0.00010443315841257572,-0.0017120752017945051,0.004158850759267807,-0.0001299006980843842,-0.47874024510383606,0.657096266746521,0.46954667568206787,0.9455748200416565,0.4311709403991699,-5.193609714508057,0.3910418152809143,0.6753009557723999,0.42000001668930054,-0.7013393044471741,2.9999945163726807,-0.6568734049797058,-3.000001907348633,-0.12751245498657227,-0.13744081556797028,-0.14671310782432556,-0.15595613420009613,-1.000004529953003,-1.0000017881393433,-1.0000001192092896,-0.999628484249115
0.31666666666666665,0.05095289275050163,0.13811199367046356,0.0,0.9573013782501221,0.0,0.0,-0.28909173607826233,-0.5941929817199707,-0.350482702255249,0.0,0.0,0.0,0.539055585861206,-0.45925989747047424,0.6547490954399109,0.42000052332878113,0.9999955892562866,-1.9728886400116608e-05,1.0431200280436315e-05,-0.0029607703909277916,0.01090740691870451,0.011953897774219513,-0.0007640758412890136,0.04457873851060867,-0.003232677234336734,0.4594741463661194,-0.4712887406349182,0.6611502170562744,0.42526960372924805,0.1145181953907013,-0.058771438896656036,-0.2446098029613495,0.3910418152809143,0.6753009557723999,0.42000001668930054,-0.6513346433639526,2.999999523162842,-0.7072837352752686,-2.9998433589935303,-0.14081133902072906,-0.15050354599952698,-0.15938229858875275,-0.1680293083190918,-0.5691693425178528,-0.5387662053108215,-0.4898627996444702,-0.4172026216983795
0.3333333333333333,0.03934963420033455,0.13047434389591217,0.0,0.95225590467453,0.0,0.0,-0.30530110001564026,-0.7462942600250244,-0.501923143863678,0.0,0.0,0.0,-2.9138777256011963,-0.4581668972969055,0.6566562056541443,0.42000025510787964,0.9997056126594543,-1.2817162087230827e-06,-5.510930805030512e-06,-0.02426237054169178,0.021372012794017792,0.044582124799489975,-0.00013165385462343693,0.0017874098848551512,0.004875663202255964,-0.8453512191772461,-0.47074443101882935,0.6632139682769775,0.42250943183898926,0.16510605812072754,0.1810908317565918,-0.1961812973022461,0.3910418152809143,0.6753009557723999,0.42000001668930054,-0.6013292670249939,2.9999797344207764,-0.7573714256286621,-2.9999241828918457,-0.15007856488227844,-0.15886731445789337,-0.16645964980125427,-0.17334699630737305,-0.5830169916152954,-0.49531659483909607,-0.38580039143562317,-0.2492142915725708
0.35,0.025542352348566055,0.12049946933984756,0.0,0.9522882699966431,0.0,0.0,-0.30520007014274597,-0.8714591860771179,-0.6383371949195862,0.0,0.0,0.0,0.9553267955780029,-0.45522522926330566,0.6615308523178101,0.42016419768333435,0.9951046705245972,0.00015582292689941823,0.003941899165511131,-0.09874776005744934,0.20960451662540436,0.37236618995666504,0.03666568920016289,0.16711382567882538,1.9096542596817017,-13.030799865722656,-0.46830081939697266,0.668575644493103,0.4221269488334656,0.17445476353168488,0.5100606679916382,0.13046908378601074,0.3910418152809143,0.6753009557723999,0.42000001668930054,-0.5513242483139038,2.9999630451202393,-0.8074030876159668,-2.999997615814209,-0.16059131920337677,-0.16735677421092987,-0.1725681573152542,-0.17664077877998352,-0.6001245975494385,-0.4642339050769806,-0.3080323040485382,-0.12711048126220703
0.36666666666666664,0.015296735800802708,0.10785095393657684,0.0,0.9478820562362671,0.0,0.0,-0.3186213970184326,-0.5327818393707275,-0.8050435185432434,0.0,0.0,0.0,-2.5492424964904785,-0.4497118890285492,0.6714078783988953,0.4207638204097748,0.9911391735076904,-0.009046998806297779,0.0065123108215630054,-0.1323586106300354,0.4607757329940796,0.747234582901001,0.00998432096093893,2.535248279571533,-0.5978827476501465,-3.51007080078125,-0.4629535973072052,0.6782939434051514,0.4217364192008972,0.5209599733352661,0.7188850045204163,-0.1604686677455902,0.3910418152809143,0.6753009557723999,0.42000001668930054,-0.5013192892074585,3.0000007152557373,-0.8574271202087402,-3.0000007152557373,-0.1701388955116272,-0.1742195338010788,-0.17639514803886414,-0.17702437937259674,-0.5362188220024109,-0.35601523518562317,-0.156480610370636,0.0651094987988472
0.3833333333333333,0.0019069621339440346,0.09347564727067947,0.0,0.9331409335136414,0.0,0.0,-0.3595108091831207,-0.9013535976409912,-0.889192521572113,0.0,0.0,0.0,-6.139546871185303,-0.43804892897605896,0.6888208389282227,0.420576810836792,0.9852492213249207,-0.01216946542263031,-0.000735500012524426,-0.17069092392921448,0.913024365901947,1.3047096729278564,0.1359196901321411,-5.049476623535156,-0.7246050238609314,-6.571310520172119,-0.4508403539657593,0.694472074508667,0.42098352313041687,0.9184249639511108,1.2617311477661133,0.13480660319328308,0.3910418152809143,0.6753009557723999,0.42000001668930054,-0.45125332474708557,2.999752998352051,-0.9074317812919617,-2.9999780654907227,-0.18107762932777405,-0.18173453211784363,-0.18017594516277313,-0.1767355501651764,-0.6104271411895752,-0.41013312339782715,-0.19139423966407776,0.046957820653915405
0.4,-0.008027562871575356,0.0762372761964798,0.0,0.9052290916442871,0.0,0.0,-0.4249238967895508,-0.5720838904380798,-1.0743212699890137,0.0,0.0,0.0,-9.230807304382324,-0.4097735583782196,0.7175350785255432,0.42344316840171814,0.9757691621780396,0.010504738427698612,-0.030909234657883644,-0.21635332703590393,2.5693790912628174,2.177762746810913,0.2942614257335663,25.385072708129883,-14.822949409484863,-0.423059344291687,-0.42210185527801514,0.7241865992546082,0.4234975576400757,2.5631039142608643,2.2430577278137207,0.3874157965183258,0.3910418152809143,0.6753009557723999,0.42000001668930054,-0.40252596139907837,2.456348180770874,-0.8718605041503906,2.9960126876831055,-0.19069074094295502,-0.1876877248287201,-0.182208850979805,-0.17459246516227722,-0.6867489218711853,-0.42302823066711426,-0.14877286553382874,0.13364538550376892
0.4166666666666667,-0.016199979931116104,0.0639617070555687,0.0,0.861018717288971,0.0,0.0,-0.5085732936859131,-0.4098227322101593,-0.7086753249168396,0.0,0.0,0.0,-12.06052303314209,-0.3408122658729553,0.7610887289047241,0.42953816056251526,0.9537773132324219,0.0779825821518898,-0.07266326993703842,-0.280975878238678,5.658560752868652,3.1669414043426514,0.42040181159973145,14.577156066894531,-11.626087188720703,6.45136022567749,-0.352333128452301,0.7691547870635986,0.42930740118026733,5.300588607788086,3.1768198013305664,0.43879345059394836,0.3910418152809143,0.6753009557723999,0.42000001668930054,-0.3806004524230957,0.8224471211433411,-0.8218176364898682,2.999117374420166,-0.20662830770015717,-0.2010299414396286,-0.18955141305923462,-0.17620959877967834,-0.695143461227417,-0.7334475517272949,-0.42308440804481506,-0.13522765040397644
0.43333333333333335,-0.019940586760640144,0.05369092524051666,0.0,0.8133459687232971,0.0,0.0,-0.5817803144454956,-0.16315121948719025,-0.5660373568534851,0.0,0.0,0.0,-9.587577819824219,-0.25022798776626587,0.8100293278694153,0.4380459487438202,0.9225046038627625,0.1246112510561943,-0.10966046899557114,-0.3484705984592438,6.173138618469238,2.3291218280792236,0.6552936434745789,10.11139965057373,-15.098718643188477,8.453181266784668,-0.25984570384025574,0.821343183517456,0.4376705288887024,5.802716255187988,2.803999900817871,0.5637129545211792,0.3910418152809143,0.6753009557723999,0.42000001668930054,-0.368680477142334,0.7338435649871826,-0.8268330097198486,-3.0000009536743164,-0.21748727560043335,-0.21210984885692596,-0.19635097682476044,-0.1791834533214569,-0.6102514863014221,-0.5960046648979187,-0.37706416845321655,-0.1893741339445114
0.45,-0.020480483770370483,0.046644244343042374,0.0,0.7818638682365417,0.0,0.0,-0.6234492063522339,0.01754908263683319,-0.3596194088459015,0.0,0.0,0.0,-5.139660358428955,-0.15145988762378693,0.8466241955757141,0.4489303529262543,0.8566885590553284,0.14640405774116516,-0.11798423528671265,-0.4803437292575836,6.1732892990112305,0.7504138350486755,0.54181969165802,-8.443127632141113,-22.928855895996094,23.832727432250977,-0.16086792945861816,0.8597643971443176,0.44720473885536194,6.176011085510254,1.7951514720916748,0.769540011882782,0.3910418152809143,0.6753009557723999,0.42000001668930054,-0.3555716276168823,0.696336567401886,-0.8768570423126221,-3.000004291534424,-0.22933268547058105,-0.22239534556865692,-0.20266960561275482,-0.18213112652301788,-0.7230861186981201,-0.5851066708564758,-0.35342884063720703,-0.15822653472423553
0.4666666666666667,-0.02333575300872326,0.036635056138038635,0.0,0.7702049612998962,0.0,0.0,-0.6377964615821838,-0.14717501401901245,-0.48154616355895996,0.0,0.0,0.0,-0.9856670498847961,-0.050052620470523834,0.8610495328903198,0.45783179998397827,0.7810114026069641,0.12138862162828445,-0.13836559653282166,-0.596775472164154,6.0277581214904785,-0.7534687519073486,0.46503132581710815,-3.255661964416504,-2.952636241912842,14.573029518127441,-0.05871139466762543,0.8769780397415161,0.45757004618644714,6.231321334838867,0.1664915680885315,0.6785117387771606,0.3910418152809143,0.6753009557723999,0.42000001668930054,-0.34590545296669006,0.3817363679409027,-0.9268814325332642,-3.000005006790161,-0.24004285037517548,-0.23022574186325073,-0.20616748929023743,-0.18189306557178497,-0.06971493363380432,-0.810771107673645,-0.46319180727005005,-0.1560136079788208
0.48333333333333334,-0.02338562346994877,0.02632126212120056,0.0,0.7525894641876221,0.0,0.0,-0.658490002155304,0.06772711127996445,-0.7059965133666992,0.0,0.0,0.0,-4.062627792358398,0.0482095442712307,0.8518171906471252,0.4642438292503357,0.711104691028595,0.10576751828193665,-0.1338770091533661,-0.6820706129074097,5.381644248962402,-2.095531463623047,0.2348041832447052,-22.96216583251953,-11.334989547729492,33.0526123046875,0.04216744750738144,0.8696611523628235,0.46488457918167114,6.206170558929443,-0.9594036340713501,0.42929768562316895,0.3910418152809143,0.6753009557723999,0.42000001668930054,-0.34269893169403076,-0.019502317532896996,-0.9769058227539062,-3.0000016689300537,-0.2400452345609665,-0.24003437161445618,-0.21333922445774078,-0.1840762495994568,-0.05226098746061325,-0.03783955052495003,-0.39538004994392395,-0.11194545775651932
0.5,-0.020764237269759178,0.020421205088496208,0.0,0.7465062141418457,0.0,0.0,-0.6653784513473511,0.1414995938539505,-0.29865244030952454,0.0,0.0,0.0,-0.12142035365104675,0.14023809134960175,0.8250661492347717,0.4684361517429352,0.6451556086540222,0.08141173422336578,-0.13037793338298798,-0.7484303116798401,4.736782073974609,-2.5960662364959717,0.08375946432352066,-14.108680725097656,-1.0387156009674072,21.32644271850586,0.1371292620897293,0.8425904512405396,0.4694591760635376,5.534358978271484,-1.9568216800689697,0.22543688118457794,0.3910418152809143,0.6753009557723999,0.42000001668930054,-0.34181782603263855,0.06878503412008286,-1.026929259300232,-3.000000476837158,-0.23981879651546478,-0.23978574573993683,-0.22271829843521118,-0.1891999989748001,0.026325656101107597,0.05527622252702713,-0.3682192862033844,-0.21557441353797913
0.5166666666666666,-0.016664335504174232,0.016733240336179733,0.0,0.7332400679588318,0.0,0.0,-0.679969847202301,0.3143891990184784,-0.1662319451570511,0.0,0.0,0.0,-3.1960604190826416,0.22345782816410065,0.7894166111946106,0.4632118344306946,0.5339931845664978,0.01242420170456171,-0.16249613463878632,-0.8296335339546204,4.72145938873291,-2.310096502304077,-0.6751351952552795,-19.07010841369629,8.908660888671875,-25.917457580566406,0.2200855016708374,0.8100109100341797,0.4675365090370178,4.557192325592041,-2.150650978088379,-0.29641321301460266,0.3910418152809143,0.6753009557723999,0.42000001668930054,-0.33596503734588623,0.6472017168998718,-1.0769513845443726,-3.000000238418579,-0.23635199666023254,-0.23630206286907196,-0.22599665820598602,-0.1917320191860199,0.3166751563549042,0.3148137927055359,-0.05594630539417267,-0.09210003912448883
0.5333333333333333,-0.010970174334943295,0.01280015055090189,0.0,0.7318452000617981,0.0,0.0,-0.6814709305763245,0.3663517236709595,-0.24658329784870148,0.0,0.0,0.0,0.665594220161438,0.289109468460083,0.7503973245620728,0.45391127467155457,0.4809923768043518,-0.02971416711807251,-0.13630631566047668,-0.86555415391922,3.3297133445739746,-3.176772117614746,-0.3310294449329376,-0.2685210108757019,8.435944557189941,5.931087493896484,0.2896398603916168,0.7710289359092712,0.45897403359413147,3.5838255882263184,-2.4174351692199707,-0.677548885345459,0.3910418152809143,0.6753009557723999,0.42000001668930054,-0.3235777020454407,0.5834552049636841,-1.1269735097885132,-2.999814510345459,-0.22940443456172943,-0.22921408712863922,-0.2243044227361679,-0.1917286366224289,0.48873403668403625,0.4952913224697113,0.20561030507087708,0.0426817312836647
0.55,-0.0033247952815145254,0.011309467256069183,0.0,0.7215750217437744,0.0,0.0,-0.6923362612724304,0.5060613751411438,-0.03156716749072075,0.0,0.0,0.0,-2.662642478942871,0.3427988886833191,0.7140222787857056,0.43796709179878235,0.43761807680130005,-0.0697840228676796,-0.11911481618881226,-0.8885000348091125,2.745011568069458,-2.5658159255981445,-0.8368213772773743,-0.8305010795593262,10.148463249206543,7.904991149902344,0.3450639843940735,0.7342743873596191,0.4433425962924957,2.9464783668518066,-2.1062121391296387,-1.1533712148666382,0.3910418152809143,0.6753009557723999,0.42000001668930054,-0.31905317306518555,0.14503301680088043,-1.1769956350326538,-2.9998950958251953,-0.21952612698078156,-0.22000660002231598,-0.21992100775241852,-0.1913028061389923,0.6299585700035095,0.5778226852416992,0.31280285120010376,0.02952713705599308
0.5666666666666667,0.006344498135149479,0.012464262545108795,0.0,0.7229836583137512,0.0,0.0,-0.690865159034729,0.6005286574363708,0.18515433371067047,0.0,0.0,0.0,1.1388798952102661,0.3824603855609894,0.6840834617614746,0.42269599437713623,0.4116063117980957,-0.05870485678315163,-0.02184184454381466,-0.9092066884040833,1.7858680486679077,-1.423127293586731,-0.1007036492228508,0.707223653793335,-4.263343811035156,-0.3789820373058319,0.3851515054702759,0.7004094123840332,0.42610424757003784,1.6627812385559082,-1.6713874340057373,-0.5832148790359497,0.3910418152809143,0.6753009557723999,0.42000001668930054,-0.3132078945636749,0.6104217767715454,-1.227002501487732,-2.9962689876556396,-0.20868349075317383,-0.21026602387428284,-0.2141830176115036,-0.19082285463809967,0.6664807200431824,0.5833718180656433,0.36268559098243713,0.02174610085785389
0.5833333333333334,0.013254400342702866,0.00917427334934473,0.0,0.7136861681938171,0.0,0.0,-0.7004656195640564,0.4168678820133209,-0.17454756796360016,0.0,0.0,0.0,-2.297577381134033,0.4078446924686432,0.670579195022583,0.4219827651977539,0.4255133271217346,-0.0408758819103241,-0.025271037593483925,-0.9036752581596375,1.120719313621521,-0.8949941992759705,-0.09392426908016205,3.9877355098724365,-7.650938034057617,4.976316452026367,0.408244252204895,0.6855536699295044,0.42625635862350464,1.0557070970535278,-0.8834844827651978,-0.061185598373413086,0.3910418152809143,0.6753009557723999,0.42000001668930054,-0.311199814081192,-0.2942262291908264,-1.1885319948196411,2.999788761138916,-0.1930423080921173,-0.19553376734256744,-0.20244808495044708,-0.18591845035552979,0.5121796727180481,0.5933431386947632,0.5932691097259521,0.2246430367231369
0.6,0.022035079076886177,0.011070635169744492,0.0,0.7166283130645752,0.0,0.0,-0.6974552273750305,0.518168568611145,0.09082140773534775,0.0,0.0,0.0,1.305869460105896,0.4193732738494873,0.6579701900482178,0.4204174280166626,0.45890048146247864,0.0011315696174278855,-0.00807443168014288,-0.8884502649307251,0.32147544622421265,-0.527278482913971,0.12087244540452957,-6.508857250213623,14.154820442199707,1.6591795682907104,0.41896724700927734,0.6723426580429077,0.4276374578475952,0.4208280146121979,-0.48343849182128906,0.13718999922275543,0.3910418152809143,0.6753009557723999,0.42000001668930054,-0.3155626356601715,-0.24657799303531647,-1.2098631858825684,-2.992032289505005,-0.18730837106704712,-0.18852223455905914,-0.19509504735469818,-0.18421922624111176,0.5366300344467163,0.5369865298271179,0.5096386075019836,0.14361456036567688
0.6166666666666667,0.032139621675014496,0.00854487530887127,0.0,0.7085683941841125,0.0,0.0,-0.7056421637535095,0.6225362420082092,-0.16397331655025482,0.0,0.0,0.0,-2.253387451171875,0.4250256419181824,0.6555255651473999,0.41999879479408264,0.49944451451301575,-4.547093703877181e-05,-1.7506630683783442e-05,-0.8663457632064819,0.20719066262245178,-0.04391040652990341,-0.0004572695470415056,-0.00458287401124835,-0.017767267301678658,3.756528854370117,0.4227270781993866,0.669957160949707,0.42681825160980225,-0.015096791088581085,-0.005122259259223938,-0.05514664202928543,0.3910418152809143,0.6753009557723999,0.42000001668930054,-0.34880173206329346,-2.9999263286590576,-1.1719017028808594,2.999833106994629,-0.1762150377035141,-0.17819778621196747,-0.1856493353843689,-0.18092632293701172,0.558975338935852,0.5158095359802246,0.48063668608665466,0.1470808982849121
0.6333333333333333,0.04414032772183418,0.010058308951556683,0.0,0.7119843363761902,0.0,0.0,-0.7021953463554382,0.7415362000465393,0.1042494997382164,0.0,0.0,0.0,1.460891604423523,0.42749643325805664,0.6550735235214233,0.4200022518634796,0.5156082510948181,-0.00012642604997381568,0.000157552000018768,-0.8568244576454163,0.11755776405334473,-0.0038793054409325123,-0.009870623238384724,-0.20143620669841766,-0.397819846868515,4.46751594543457,0.4220544099807739,0.6697747707366943,0.4283112585544586,-0.033514343202114105,0.10427642613649368,0.1469634473323822,0.3910418152809143,0.6753009557723999,0.42000001668930054,-0.39885076880455017,-2.999725341796875,-1.1934318542480469,-2.999509811401367,-0.16901105642318726,-0.17186498641967773,-0.1798054426908493,-0.18011251091957092,0.5323168635368347,0.43270212411880493,0.3703922629356384,0.06423720717430115
0.65,0.05369466543197632,0.009640154428780079,0.0,0.7325138449668884,0.0,0.0,-0.680752158164978,0.5366136431694031,-0.051284126937389374,0.0,0.0,0.0,4.851963520050049,0.4249952733516693,0.6568010449409485,0.42007461190223694,0.5245100259780884,0.0009773938218131661,-0.0015689422143623233,-0.8514021635055542,-0.36996281147003174,0.13088451325893402,0.002870883559808135,-0.09368644654750824,-0.15871214866638184,0.21019911766052246,0.4181034564971924,0.6711089611053467,0.4306182563304901,-0.4913727641105652,0.08320260047912598,0.12853312492370605,0.3910418152809143,0.6753009557723999,0.42000001668930054,-0.44887298345565796,-2.9999749660491943,-1.2434133291244507,-2.9992239475250244,-0.15973132848739624,-0.16430363059043884,-0.17320367693901062,-0.17809318006038666,0.45004141330718994,0.36567896604537964,0.3308245539665222,0.100800521671772
0.6666666666666666,0.06413261592388153,0.005726662930101156,0.0,0.741848349571228,0.0,0.0,-0.6705676913261414,0.6428230404853821,-0.28241926431655884,0.0,0.0,0.0,0.5907250046730042,0.41973406076431274,0.6586605310440063,0.4199998378753662,0.5257571935653687,-4.1597136259952094e-06,-3.341188858030364e-06,-0.8506345748901367,-0.2942976653575897,0.10399670898914337,-1.8372084014117718e-05,0.0012377012753859162,-0.0003066349891014397,0.1545906364917755,0.413180947303772,0.6752300262451172,0.4336993098258972,-0.31123054027557373,0.3111296594142914,0.24943359196186066,0.3910418152809143,0.6753009557723999,0.42000001668930054,-0.49893081188201904,-3.0000007152557373,-1.2933708429336548,-2.999479055404663,-0.15319259464740753,-0.1587003767490387,-0.16755229234695435,-0.17512954771518707,0.36643585562705994,0.3336814045906067,0.36554792523384094,0.2599051594734192
0.6833333333333333,0.07635004818439484,0.0011278862366452813,0.0,0.730231523513794,0.0,0.0,-0.6831997632980347,0.772865891456604,-0.3219926953315735,0.0,0.0,0.0,-2.9429543018341064,0.41579288244247437,0.660054624080658,0.4200000464916229,0.5266332030296326,3.3554653100509313e-07,-1.9200169276700763e-07,-0.8500926494598389,-0.21722917258739471,0.07674427330493927,-1.496064942330122e-05,0.000198797119082883,0.0007084344979375601,0.10172996670007706,0.4112081229686737,0.6817232966423035,0.43948525190353394,0.010429112240672112,0.38590413331985474,0.561052680015564,0.3910418152809143,0.6753009557723999,0.42000001668930054,-0.5489439964294434,-3.000000476837158,-1.3433893918991089,-2.999999761581421,-0.15018364787101746,-0.15544569492340088,-0.16289420425891876,-0.17090441286563873,0.09514391422271729,0.14358334243297577,0.2643003761768341,0.2990170419216156
0.7,0.091025210916996,0.0004753412795253098,0.0,0.6986516118049622,0.0,0.0,-0.7154620289802551,0.8811854124069214,-0.02748972177505493,0.0,0.0,0.0,-6.2296671867370605,0.4131357967853546,0.6609947681427002,0.4200000464916229,0.527168333530426,4.0338284179597395e-07,-1.2094845658339182e-07,-0.8497608304023743,-0.14016805589199066,0.04946618154644966,-1.4742836356163025e-05,3.3006203011609614e-05,0.0007523006643168628,0.0521819107234478,0.41837918758392334,0.6864345073699951,0.4568227231502533,0.8646246194839478,0.2417220026254654,1.6032752990722656,0.3910418152809143,0.6753009557723999,0.42000001668930054,-0.5989552140235901,-2.9999451637268066,-1.3934077024459839,-2.9999945163726807,-0.15502774715423584,-0.15834501385688782,-0.16268135607242584,-0.16870006918907166,-0.31739285588264465,-0.19524645805358887,-0.0029667222406715155,0.14273753762245178
0.7166666666666667,0.10787588357925415,0.0015475510153919458,0.0,0.6809028387069702,0.0,0.0,-0.7323737740516663,1.044049620628357,0.12396173924207687,0.0,0.0,0.0,-1.9171391725540161,0.4117509722709656,0.6614852547645569,0.4200000464916229,0.5273878574371338,4.173623722181219e-07,-4.598889091766978e-08,-0.8496246337890625,-0.06311488896608353,0.02215171791613102,-7.990223821252584e-06,-0.00035716561251319945,0.0001833257992984727,0.013848050497472286,0.4358060956001282,0.6943964958190918,0.48661738634109497,1.1569515466690063,0.6965724229812622,1.965999722480774,0.3910418152809143,0.6753009557723999,0.42000001668930054,-0.6179110407829285,0.4387698471546173,-1.4434260129928589,-2.999999761581421,-0.15936902165412903,-0.16186721622943878,-0.16430683434009552,-0.16893231868743896,-0.20691032707691193,-0.21206192672252655,-0.1602461338043213,-0.12659403681755066
0.7333333333333333,0.12202142924070358,0.005229766946285963,0.0,0.6865537166595459,0.0,0.0,-0.7270790934562683,0.7786053419113159,0.3137918710708618,0.0,0.0,0.0,1.8329665660858154,0.41152840852737427,0.6615644097328186,0.4200001657009125,0.5274116396903992,1.384184361086227e-05,-2.3404665626003407e-05,-0.8496098518371582,0.002733370987698436,-0.0018356582149863243,-0.0011067241430282593,0.007844612002372742,0.02701755054295063,-0.006552410777658224,0.452660471200943,0.7048342227935791,0.5122480988502502,0.8497381210327148,0.617291271686554,1.1801146268844604,0.3910418152809143,0.6753009557723999,0.42000001668930054,-0.5883239507675171,2.8742191791534424,-1.404858946800232,2.9999992847442627,-0.16219612956047058,-0.16469046473503113,-0.16628779470920563,-0.17019961774349213,-0.1439276486635208,-0.14087623357772827,-0.09500037878751755,-0.0489228181540966
0.75,0.13130983710289001,0.003870934946462512,0.0,0.6807056665420532,0.0,0.0,-0.7325569987297058,0.5352796316146851,-0.061389774084091187,0.0,0.0,0.0,-1.8217297792434692,0.4115307927131653,0.6615627408027649,0.4200000464916229,0.5274097323417664,-1.2845794117311016e-07,-2.2595095288124867e-06,-0.8496109843254089,-1.0455465599079616e-05,-0.00025386380730196834,-6.452319212257862e-05,0.007045218721032143,-0.0025756889954209328,-0.0006792037165723741,0.4620524048805237,0.7175788879394531,0.5264871120452881,0.08797428011894226,0.5939034223556519,0.6384198069572449,0.3910418152809143,0.6753009557723999,0.42000001668930054,-0.5585070848464966,0.8557907938957214,-1.3548063039779663,3.000000238418579,-0.15858064591884613,-0.16187456250190735,-0.16365134716033936,-0.16757109761238098,-0.0644579529762268,-0.042950376868247986,0.0030749738216400146,0.05734265595674515
0.7666666666666666,0.13704974949359894,0.006655808538198471,0.0,0.6865816712379456,0.0,0.0,-0.7270526885986328,0.27993282675743103,0.21264298260211945,0.0,0.0,0.0,1.8223764896392822,0.4115307927131653,0.6615627408027649,0.4200000464916229,0.5274094939231873,1.482685831888375e-07,-2.501810740795918e-06,-0.8496111631393433,6.663849035248859e-06,-0.0002423947589704767,-6.92030880600214e-05,0.006622561253607273,-0.002374676987528801,-0.0006920015439391136,0.45881974697113037,0.726046085357666,0.5333493947982788,-0.4216514527797699,0.5467063188552856,0.22392123937606812,0.3910418152809143,0.6753009557723999,0.42000001668930054,-0.5294342637062073,2.4692461490631104,-1.373721957206726,-3.000000476837158,-0.1614731103181839,-0.1639927476644516,-0.16471777856349945,-0.16741088032722473,-0.11469937115907669,-0.079796701669693,-0.03352997079491615,0.027537040412425995
0.7833333333333333,0.13911689817905426,0.005810806527733803,0.0,0.6813238263130188,0.0,0.0,-0.7319821119308472,0.08086494356393814,-0.12718874216079712,0.0,0.0,0.0,-1.7530730962753296,0.4115307927131653,0.6615627408027649,0.4200000464916229,0.5274096727371216,9.065709605238226e-08,-2.682568492673454e-06,-0.8496110439300537,1.0799503797898069e-05,-0.0002419876109343022,-7.007503882050514e-05,0.006589311175048351,-0.0023265532217919827,-0.0007003808277659118,0.4452887177467346,0.7342060208320618,0.5308820009231567,-1.1944172382354736,0.4126697778701782,-0.3343982696533203,0.3910418152809143,0.6753009557723999,0.42000001668930054,-0.5264676213264465,-1.7498654127120972,-1.3353525400161743,2.999999761581421,-0.16254651546478271,-0.16455361247062683,-0.16467054188251495,-0.16645875573158264,-0.0569213330745697,-0.021220235154032707,0.014030450023710728,0.06778841465711594
0.8,0.14307795464992523,0.00927725713700056,0.0,0.6876733303070068,0.0,0.0,-0.7260202169418335,0.176327183842659,0.1793801635503769,0.0,0.0,0.0,1.7937915325164795,0.4115307927131653,0.6615627408027649,0.4200000464916229,0.5274096727371216,3.758265449960163e-07,-2.4904832116590114e-06,-0.8496109843254089,1.2888618584838696e-05,-0.0002386938431300223,-7.032649591565132e-05,0.006491571664810181,-0.0022840257734060287,-0.0006956291617825627,0.42685699462890625,0.7402514219284058,0.5241702795028687,-0.9167813062667847,0.5822768211364746,-0.4419781565666199,0.3910418152809143,0.6753009557723999,0.42000001668930054,-0.5307582020759583,1.0010470151901245,-1.3546360731124878,-3.0,-0.16759228706359863,-0.1683821678161621,-0.16736868023872375,-0.16773360967636108,-0.054645005613565445,-0.04678091034293175,-0.03958151862025261,-0.005245700944215059
0.8166666666666667,0.14702633023262024,0.008569402620196342,0.0,0.682835042476654,0.0,0.0,-0.7305725812911987,0.29134342074394226,-0.08867436647415161,0.0,0.0,0.0,-1.6682031154632568,0.4115307927131653,0.6615627408027649,0.4200000464916229,0.527409553527832,1.2071647859102086e-07,-2.686891548364656e-06,-0.8496111631393433,7.672555511817336e-06,-0.0002419256343273446,-6.944709457457066e-05,0.006604349706321955,-0.0023621711879968643,-0.0006930681993253529,0.4099413752555847,0.7468477487564087,0.5117806196212769,-1.0952404737472534,0.1389501988887787,-0.875627875328064,0.3910418152809143,0.6753009557723999,0.42000001668930054,-0.5552787780761719,-3.0000016689300537,-1.316316843032837,3.0000007152557373,-0.16882610321044922,-0.16904976963996887,-0.16747550666332245,-0.1667967438697815,-0.1938711404800415,-0.11469773948192596,-0.0379815548658371,0.06597278267145157
0.8333333333333334,0.15365128219127655,0.004147018305957317,0.0,0.6588426232337952,0.0,0.0,-0.7522807717323303,0.44402560591697693,-0.33285245299339294,0.0,0.0,0.0,-4.744101524353027,0.4115307927131653,0.6615627408027649,0.4200000464916229,0.527409553527832,3.743612353446224e-07,-2.4906653379730415e-06,-0.8496111035346985,1.2855906788900029e-05,-0.00023870205041021109,-7.031694985926151e-05,0.006492073647677898,-0.002284276532009244,-0.0006955622229725122,0.4002821445465088,0.7479513883590698,0.5004411935806274,-0.0781356617808342,-0.0042233653366565704,-0.33627328276634216,0.3910418152809143,0.6753009557723999,0.42000001668930054,-0.6052828431129456,-2.9998486042022705,-1.3359473943710327,-2.9999845027923584,-0.1737574189901352,-0.17247025668621063,-0.1693841964006424,-0.16669487953186035,-0.34237945079803467,-0.24498127400875092,-0.1462996006011963,-0.016460958868265152
0.85,0.16397517919540405,0.00466094259172678,0.0,0.6473806500434875,0.0,0.0,-0.7621667981147766,0.5645050406455994,0.06385021656751633,0.0,0.0,0.0,-0.7303653955459595,0.4115307927131653,0.6615627408027649,0.4200000464916229,0.5274097323417664,1.1198035565485043e-07,-2.6755171802506084e-06,-0.8496109843254089,7.969631042215042e-06,-0.0002417669747956097,-6.949645467102528e-05,0.0065986705012619495,-0.0023577818647027016,-0.0006934774573892355,0.39916566014289856,0.7490705251693726,0.49883291125297546,0.006999656558036804,0.282374769449234,0.10240822285413742,0.3910418152809143,0.6753009557723999,0.42000001668930054,-0.6239249110221863,0.47174975275993347,-1.3859657049179077,-2.999999523162842,-0.18397921323776245,-0.18058165907859802,-0.17547793686389923,-0.1703891158103943,-0.42979109287261963,-0.3694877028465271,-0.31207340955734253,-0.22856605052947998
0.8666666666666667,0.17041289806365967,0.0002920828992500901,0.0,0.6595905423164368,0.0,0.0,-0.751625120639801,0.36361947655677795,-0.3391152322292328,0.0,0.0,0.0,2.6868112087249756,0.4115307927131653,0.6615627408027649,0.4200000464916229,0.5274096131324768,1.2058011122917378e-07,-2.5554440981068183e-06,-0.8496110439300537,7.782346074236557e-06,-0.00024210478295572102,-6.947852671146393e-05,0.00660815229639411,-0.0023622175212949514,-0.0006940808962099254,0.40060877799987793,0.7509749531745911,0.49822676181793213,0.1047726422548294,-0.12745094299316406,-0.18408185243606567,0.3910418152809143,0.6753009557723999,0.42000001668930054,-0.6396833062171936,-2.1259653568267822,-1.3475582599639893,3.0000007152557373,-0.18829657137393951,-0.1836719810962677,-0.17734912037849426,-0.1706053912639618,-0.30042141675949097,-0.18887203931808472,-0.07786808162927628,0.05619141086935997
0.8833333333333333,0.17768815159797668,-0.006555292755365372,0.0,0.6586219668388367,0.0,0.0,-0.7524740099906921,0.46274957060813904,-0.4438534080982208,0.0,0.0,0.0,-1.1317726373672485,0.4115307927131653,0.6615626811981201,0.4200000464916229,0.5274098515510559,1.1042826741913814e-07,-2.5210929379682057e-06,-0.8496109843254089,1.228720611834433e-05,-0.00023758452152833343,-7.010926492512226e-05,0.0064664240926504135,-0.0022833156399428844,-0.000691274122800678,0.4052003026008606,0.7487906217575073,0.4928983747959137,0.45062828063964844,-0.11591286957263947,-0.28626155853271484,0.3910418152809143,0.6753009557723999,0.42000001668930054,-0.6630749106407166,-0.7776902914047241,-1.366621494293213,-2.999999523162842,-0.1939360350370407,-0.18747033178806305,-0.17928142845630646,-0.1702948659658432,-0.3017295002937317,-0.2014750838279724,-0.0984007865190506,0.026663199067115784
