vladlanda/robotic-transformer/data/env_000_episode_0184.csv
sim_time_s,robot_box_x,robot_box_y,robot_box_z,robot_box_quat_w,robot_box_quat_x,robot_box_quat_y,robot_box_quat_z,robot_box_linvel_x,robot_box_linvel_y,robot_box_linvel_z,robot_box_angvel_x,robot_box_angvel_y,robot_box_angvel_z,cube_world_x,cube_world_y,cube_world_z,cube_quat_w,cube_quat_x,cube_quat_y,cube_quat_z,cube_linvel_x,cube_linvel_y,cube_linvel_z,cube_angvel_x,cube_angvel_y,cube_angvel_z,endpoint_world_x,endpoint_world_y,endpoint_world_z,endpoint_linvel_x,endpoint_linvel_y,endpoint_linvel_z,target_cube_world_x,target_cube_world_y,target_cube_world_z,gripper_actual_pos_rad_gp_leftgearjoint,gripper_actual_vel_rad_s_gp_leftgearjoint,gripper_actual_pos_rad_gp_rotatingjoint,gripper_actual_vel_rad_s_gp_rotatingjoint,motor_angle_rad_joint1,motor_angle_rad_joint2,motor_angle_rad_joint3,motor_angle_rad_joint4,motor_speed_rad_s_joint1,motor_speed_rad_s_joint2,motor_speed_rad_s_joint3,motor_speed_rad_s_joint4
0.0,0.0,0.0,0.0,1.0,0.0,0.0,0.0,0.0,0.0,0.0,0.0,0.0,0.0,-0.46933743357658386,0.7470580339431763,0.41999998688697815,1.0,0.0,0.0,0.0,0.0,0.0,0.0,0.0,0.0,0.0,3.42540442943573e-06,-0.005000244826078415,1.313499927520752,0.0,0.0,0.0,0.434297114610672,0.7728556990623474,0.42000001668930054,-1.5707999467849731,0.0,0.0,0.0,0.0,0.0,0.0,0.0,0.0,0.0,0.0,0.0
0.016666666666666666,0.0028778850100934505,0.0021806680597364902,0.0,0.9998081922531128,0.0,0.0,0.019586581736803055,0.24087215960025787,0.18240931630134583,0.0,0.0,0.0,3.1418697834014893,-0.4693375527858734,0.7470577359199524,0.41999998688697815,1.0,3.2799914606584935e-06,-8.339814598912199e-07,8.465387679734704e-08,-1.9833554688375443e-05,0.00017983050202019513,-6.133061833679676e-05,0.0009432226070202887,-0.004689437802881002,-0.0003198152990080416,-0.007110234349966049,0.003379564033821225,1.3159373998641968,-0.8143353462219238,0.9868683815002441,0.18095196783542633,0.434297114610672,0.7728556990623474,0.42000001668930054,-1.5301095247268677,3.0000011920928955,-0.04584788903594017,-2.9999992847442627,0.0008691533003002405,0.0007963840034790337,0.0007110277656465769,0.0006108740926720202,0.11094217747449875,0.09756709635257721,0.08334315568208694,0.06823883205652237
0.03333333333333333,0.008960993029177189,0.006802007090300322,0.0,0.9997960329055786,0.0,0.0,0.02019684575498104,0.407022088766098,0.31530776619911194,0.0,0.0,0.0,-0.869132936000824,-0.46933767199516296,0.7470576763153076,0.4200000464916229,1.0,3.390845222384087e-06,-2.1324976842151955e-06,-3.711132379180526e-08,0.0002635784330777824,0.00026937914662994444,-0.00010509486310184002,-0.0017707627266645432,0.004130853805691004,-0.0001354794076178223,-0.02755490317940712,0.02626100927591324,1.3165864944458008,-1.5913420915603638,1.6162097454071045,-0.08630199730396271,0.434297114610672,0.7728556990623474,0.42000001668930054,-1.4800903797149658,3.0000014305114746,-0.09588771313428879,-3.0000011920928955,0.00299009564332664,0.0026526986621320248,0.0022772629745304585,0.0018607131205499172,0.16421319544315338,0.13975650072097778,0.11381510645151138,0.08629688620567322
0.05,0.017756622284650803,0.013772916048765182,0.0,0.9993755221366882,0.0,0.0,0.035335469990968704,0.5939512252807617,0.465171754360199,0.0,0.0,0.0,2.64786434173584,-0.46933770179748535,0.7470577359199524,0.4200000464916229,1.0,3.7652005175914383e-06,-2.2119343157100957e-06,5.590461871207708e-09,0.0002653098199516535,0.0002669170789886266,-0.0001044049859046936,-0.0017244198825210333,0.004177446011453867,-0.00012949570373166353,-0.059702955186367035,0.054842159152030945,1.311375379562378,-2.187985897064209,1.8405756950378418,-0.5032138228416443,0.434297114610672,0.7728556990623474,0.42000001668930054,-1.4300720691680908,3.000000476837158,-0.145926371216774,-3.000000476837158,0.005708533804863691,0.00491629121825099,0.004051942378282547,0.0031110451091080904,0.19250404834747314,0.15559782087802887,0.11681964248418808,0.07607578486204147
0.06666666666666667,0.02907445654273033,0.023068007081747055,0.0,0.9994478225708008,0.0,0.0,0.03322659805417061,0.720522403717041,0.5952981114387512,0.0,0.0,0.0,-1.2113279104232788,-0.46933770179748535,0.7470576763153076,0.4200000464916229,0.9999999403953552,3.406806399652851e-06,-2.2856308987684315e-06,4.300680132018897e-07,0.00026702607283368707,0.0002679183962754905,-0.0001043803058564663,-0.0017406531842425466,0.004211826715618372,-0.00012850573693867773,-0.09744784981012344,0.09057396650314331,1.2983002662658691,-2.3623979091644287,2.332165479660034,-1.0359342098236084,0.434297114610672,0.7728556990623474,0.42000001668930054,-1.3800537586212158,3.0000007152557373,-0.19596371054649353,-3.0000007152557373,0.008207691833376884,0.006700955331325531,0.005083308555185795,0.0033490832429379225,0.1420930027961731,0.08852861076593399,0.03292657434940338,-0.02479206956923008
0.08333333333333333,0.03564045950770378,0.03550996258854866,0.0,0.9999997019767761,0.0,0.0,0.0007926294347271323,0.1769133061170578,0.8284740447998047,0.0,0.0,0.0,-4.939835071563721,-0.46933770179748535,0.7470576763153076,0.4200000464916229,1.0,3.6973385704186512e-06,-2.18897503145854e-06,-2.632636153521162e-07,0.0002638976729940623,0.0002658646262716502,-0.00010434049181640148,-0.00170818530023098,0.004150219261646271,-0.00012991046241950244,-0.13426341116428375,0.1336563378572464,1.2769877910614014,-2.1129488945007324,2.722414970397949,-1.4671194553375244,0.434297114610672,0.7728556990623474,0.42000001668930054,-1.3300354480743408,2.9999985694885254,-0.2459794133901596,-3.0000011920928955,0.005649527534842491,0.0034647975116968155,0.0011202620808035135,-0.0013935071183368564,-0.3114721179008484,-0.3521924316883087,-0.39567258954048157,-0.44221794605255127
0.1,0.04461238905787468,0.049760568886995316,0.0,0.9999058246612549,0.0,0.0,-0.013725804165005684,0.6736251711845398,0.854541003704071,0.0,0.0,0.0,-0.7004796862602234,-0.46933770179748535,0.7470576763153076,0.4200000464916229,0.9999999403953552,3.620416691774153e-06,-2.2652686766377883e-06,1.7459160517319106e-07,0.00026676911511458457,0.0002674083225429058,-0.0001040794886648655,-0.001738598570227623,0.004209225997328758,-0.0001277570117963478,-0.17261189222335815,0.17567552626132965,1.252830982208252,-2.292715072631836,2.5903961658477783,-1.4749850034713745,0.434297114610672,0.7728556990623474,0.42000001668930054,-1.2800209522247314,2.9999992847442627,-0.29601138830184937,-2.999999761581421,0.004801880568265915,0.0012331331381574273,-0.002500122180208564,-0.0064083365723490715,0.03754114732146263,-0.06450537592172623,-0.16559481620788574,-0.2656913697719574
0.11666666666666667,0.05218779668211937,0.06582744419574738,0.0,0.9991666078567505,0.0,0.0,-0.040818050503730774,0.4585459232330322,1.026789665222168,0.0,0.0,0.0,-3.9303665161132812,-0.46933770179748535,0.7470576763153076,0.4200000464916229,1.0,3.7983977563271765e-06,-2.262809857711545e-06,-1.5022655475149804e-07,0.00026374030858278275,0.0002656604046933353,-0.00010428996756672859,-0.0017053865594789386,0.0041475072503089905,-0.00012980049359612167,-0.2060471475124359,0.22431588172912598,1.22966468334198,-1.7353732585906982,3.2528433799743652,-1.2952840328216553,0.434297114610672,0.7728556990623474,0.42000001668930054,-1.2299937009811401,2.9999897480010986,-0.2617245018482208,3.0000011920928955,0.0033086715266108513,-0.002211182378232479,-0.007866394706070423,-0.01366597879678011,-0.047519538551568985,-0.18994757533073425,-0.3291631042957306,-0.46491625905036926
0.13333333333333333,0.057157326489686966,0.08472521603107452,0.0,0.9956681132316589,0.0,0.0,-0.09297849237918854,0.23340484499931335,1.1804237365722656,0.0,0.0,0.0,-7.098613739013672,-0.46933770179748535,0.7470577359199524,0.4200000464916229,0.9999999403953552,3.5504558582033496e-06,-2.229795200037188e-06,2.928983633410098e-07,0.0002670337271410972,0.00026779333711601794,-0.00010416889563202858,-0.0017440594965592027,0.004213673993945122,-0.00012799995602108538,-0.23524275422096252,0.27954691648483276,1.2093615531921387,-1.7314887046813965,3.4134764671325684,-1.2291913032531738,0.434297114610672,0.7728556990623474,0.42000001668930054,-1.1940027475357056,1.4242143630981445,-0.2927643656730652,-3.000000238418579,0.001312181819230318,-0.00655387481674552,-0.014486344531178474,-0.022489236667752266,-0.19685061275959015,-0.32592490315437317,-0.4507029950618744,-0.5709017515182495
0.15,0.05899905785918236,0.10158798098564148,0.0,0.9921380877494812,0.0,0.0,-0.12514783442020416,0.0625472217798233,0.9229897856712341,0.0,0.0,0.0,-2.8312864303588867,-0.46933770179748535,0.7470576763153076,0.4200000464916229,0.9999999403953552,3.3380524655513e-06,-2.242872824353981e-06,-2.8044349065226015e-08,0.00026674586115404963,0.0002675809955690056,-0.00010427739471197128,-0.0017366900574415922,0.004206832032650709,-0.00012831503408960998,-0.27194029092788696,0.3338888883590698,1.1836408376693726,-2.28422212600708,3.459865093231201,-1.8278675079345703,0.434297114610672,0.7728556990623474,0.42000001668930054,-1.1522327661514282,2.9999964237213135,-0.26525649428367615,2.9999990463256836,-0.002727571176365018,-0.012402631342411041,-0.022062331438064575,-0.03170762583613396,-0.2976590394973755,-0.38391754031181335,-0.4654436707496643,-0.5421764850616455
0.16666666666666666,0.05735713988542557,0.11866416782140732,0.0,0.9855483770370483,0.0,0.0,-0.16939426958560944,-0.16280938684940338,1.0638099908828735,0.0,0.0,0.0,-6.234376430511475,-0.46933770179748535,0.7470577359199524,0.4200000464916229,0.9999999403953552,3.647784069471527e-06,-2.3072868771123467e-06,3.5248113761099376e-08,0.00026726917712949216,0.00026801443891599774,-0.0001041879877448082,-0.0017472599865868688,0.004217621870338917,-0.0001279867865378037,-0.30749690532684326,0.3948332667350769,1.151444911956787,-1.9060592651367188,3.9229249954223633,-2.059513568878174,0.434297114610672,0.7728556990623474,0.42000001668930054,-1.1083821058273315,2.2853336334228516,-0.2962586581707001,-2.999999523162842,-0.009693815372884274,-0.02071039006114006,-0.0316266193985939,-0.04244247451424599,-0.5066975355148315,-0.5758610963821411,-0.6402198076248169,-0.6997346878051758
0.18333333333333332,0.06050826981663704,0.13766740262508392,0.0,0.9805769920349121,0.0,0.0,-0.19613471627235413,0.3077922761440277,1.1863561868667603,0.0,0.0,0.0,-2.2692623138427734,-0.46933770179748535,0.7470576763153076,0.4200000464916229,0.9999999403953552,3.290539780209656e-06,-2.193962473029387e-06,-2.7927569590247003e-07,0.0002667782246135175,0.00026775995502248406,-0.0001043418888002634,-0.0017391587607562542,0.004207043442875147,-0.00012845918536186218,-0.34400153160095215,0.4579622149467468,1.1094443798065186,-2.124199151992798,3.9488883018493652,-2.943586587905884,0.434297114610672,0.7728556990623474,0.42000001668930054,-1.0749789476394653,1.7432328462600708,-0.34628602862358093,-2.999999761581421,-0.01577194780111313,-0.027684824541211128,-0.039414506405591965,-0.0509641207754612,-0.369666188955307,-0.398285448551178,-0.4227775037288666,-0.4434874951839447
0.2,0.060672860592603683,0.15389204025268555,0.0,0.9714490175247192,0.0,0.0,-0.23724842071533203,-0.07350022345781326,0.9272928237915039,0.0,0.0,0.0,-5.666476726531982,-0.46933770179748535,0.7470576763153076,0.4200000464916229,1.0,3.2807747629703954e-06,-2.2192716642166488e-06,1.5941849085265858e-07,0.00026627921033650637,0.00026739956228993833,-0.00010424992069602013,-0.0017356653697788715,0.004197738599032164,-0.00012864639575127512,-0.3783537745475769,0.5251538753509521,1.053270697593689,-1.8562626838684082,4.241600036621094,-3.756380558013916,0.434297114610672,0.7728556990623474,0.42000001668930054,-1.028790831565857,2.9999897480010986,-0.396311491727829,-2.9999985694885254,-0.027181891724467278,-0.03867347911000252,-0.049962908029556274,-0.06106815114617348,-0.853672206401825,-0.8013327717781067,-0.7487898468971252,-0.6968425512313843
0.21666666666666667,0.06159805878996849,0.17055965960025787,0.0,0.9661679863929749,0.0,0.0,-0.2579135596752167,0.11019627749919891,1.0387345552444458,0.0,0.0,0.0,-1.5587477684020996,-0.46933770179748535,0.7470577359199524,0.4200000464916229,1.0,3.613111175582162e-06,-2.270180857522064e-06,2.20972012243692e-07,0.00026712502585723996,0.00026781679480336607,-0.00010413886047899723,-0.0017444492550566792,0.004215085878968239,-0.0001278657146031037,-0.4121245741844177,0.5883293747901917,0.9822348356246948,-1.8437410593032837,3.667285919189453,-4.6766886711120605,0.434297114610672,0.7728556990623474,0.42000001668930054,-0.9787886142730713,3.0000009536743164,-0.44633781909942627,-3.000000238418579,-0.04326745495200157,-0.05424979329109192,-0.06408435106277466,-0.07357499748468399,-0.9778143763542175,-0.9712607860565186,-0.8780838847160339,-0.7625371813774109
0.23333333333333334,0.061014384031295776,0.1846945732831955,0.0,0.9566168189048767,0.0,0.0,-0.29134899377822876,-0.09295342862606049,0.769700288772583,0.0,0.0,0.0,-5.048277378082275,-0.46933770179748535,0.7470576763153076,0.4200000464916229,1.0,3.3818209885794204e-06,-2.291000555487699e-06,2.727579442307615e-07,0.0002669139939825982,0.00026779883773997426,-0.00010433373972773552,-0.001739645842462778,0.0042097545228898525,-0.0001284296449739486,-0.4402359127998352,0.6473968029022217,0.8969825506210327,-1.4231828451156616,3.381648540496826,-5.446153163909912,0.434297114610672,0.7728556990623474,0.42000001668930054,-0.9287782907485962,3.0000007152557373,-0.49636614322662354,-3.0000007152557373,-0.059626318514347076,-0.07053946703672409,-0.0802856832742691,-0.08853043615818024,-0.9871867895126343,-0.9839796423912048,-0.9716891646385193,-0.9388653039932251
0.25,0.06276896595954895,0.19474230706691742,0.0,0.9520650506019592,0.0,0.0,-0.3058956563472748,0.18803715705871582,0.4773412048816681,0.0,0.0,0.0,-0.7646520137786865,-0.46933767199516296,0.7470576763153076,0.4200000464916229,0.9999999403953552,3.706543566295295e-06,-2.223036062787287e-06,-2.2554368683813664e-07,0.0002642498002387583,0.00026656812406145036,-0.00010457867756485939,-0.0017169741913676262,0.004155667964369059,-0.00013063245569355786,-0.4644586443901062,0.6930106282234192,0.8011415004730225,-1.2136998176574707,2.329437494277954,-6.016274929046631,0.434297114610672,0.7728556990623474,0.42000001668930054,-0.8787676095962524,3.0000016689300537,-0.5463958978652954,-2.999999523162842,-0.07598122954368591,-0.08679407835006714,-0.09642700105905533,-0.10459117591381073,-0.9774804711341858,-0.9624118804931641,-0.9448336362838745,-0.9310778975486755
0.26666666666666666,0.05974593386054039,0.20739154517650604,0.0,0.9425048232078552,0.0,0.0,-0.33419251441955566,-0.18051588535308838,0.7372786402702332,0.0,0.0,0.0,-4.300602912902832,-0.46933770179748535,0.7470576763153076,0.4200000464916229,0.9999999403953552,3.719662799994694e-06,-2.4035498427110724e-06,-1.831128315643582e-07,0.00026623348821885884,0.0002672912960406393,-0.00010425737127661705,-0.0017327109817415476,0.004196645691990852,-0.00012851289648097008,-0.4779953956604004,0.7209029197692871,0.6970078945159912,-0.45536381006240845,1.2372939586639404,-6.248856544494629,0.434297114610672,0.7728556990623474,0.42000001668930054,-0.8287571668624878,2.999983787536621,-0.5964256525039673,-2.9999983310699463,-0.09347108751535416,-0.10402239859104156,-0.11347762495279312,-0.12151514738798141,-0.721668541431427,-0.7745627760887146,-0.8245717287063599,-0.8700005412101746
0.2833333333333333,0.06188531592488289,0.2143736183643341,0.0,0.9387431740760803,0.0,0.0,-0.344617635011673,0.14861758053302765,0.3201475441455841,0.0,0.0,0.0,-0.2811857759952545,-0.46933770179748535,0.7470577359199524,0.4200000464916229,0.9999999403953552,3.584099886211334e-06,-2.3155416783993132e-06,7.400480939168119e-08,0.00026521991821937263,0.0002645511704031378,-0.00010317121632397175,-0.001702037756331265,0.004185070283710957,-0.00012499641161412,-0.4863828420639038,0.7344393730163574,0.5947422981262207,-0.24205635488033295,0.37756580114364624,-6.089596271514893,0.434297114610672,0.7728556990623474,0.42000001668930054,-0.7787483334541321,2.9999961853027344,-0.6464554071426392,-2.9999992847442627,-0.1056724414229393,-0.11629971116781235,-0.12587805092334747,-0.13408298790454865,-0.9847564697265625,-0.9271854162216187,-0.8773807883262634,-0.8367329239845276
0.3,0.05984896048903465,0.2179272174835205,0.0,0.9447351098060608,0.0,0.0,-0.3278346657752991,-0.21903586387634277,0.18205897510051727,0.0,0.0,0.0,3.1332614421844482,-0.46933770179748535,0.7470576763153076,0.4200000464916229,1.0,3.7243021324684378e-06,-2.2719423213857226e-06,9.631845188096122e-08,0.00026312502450309694,0.0002652578114066273,-0.00010437984019517899,-0.0016960330540314317,0.004134780261665583,-0.00013027878594584763,-0.4895719289779663,0.7392724752426147,0.4996788501739502,0.030581524595618248,0.12252692133188248,-5.221671104431152,0.434297114610672,0.7728556990623474,0.42000001668930054,-0.7287396192550659,3.000000238418579,-0.6964831352233887,-2.9999988079071045,-0.12318127602338791,-0.13361823558807373,-0.14306332170963287,-0.15114474296569824,-1.023154854774475,-1.0175144672393799,-1.0132142305374146,-1.0097723007202148
0.31666666666666665,0.05355172976851463,0.21887758374214172,0.0,0.9449013471603394,0.0,0.0,-0.3273552358150482,-0.32059141993522644,-0.01161052193492651,0.0,0.0,0.0,-0.8481159210205078,-0.46933770179748535,0.7470576763153076,0.4200000464916229,1.0,3.666271368274465e-06,-2.392588612565305e-06,1.6795482338238799e-07,0.00026601922581903636,0.000267068506218493,-0.00010418705642223358,-0.001731043099425733,0.004193427506834269,-0.00012849595805164427,-0.48132848739624023,0.7398635149002075,0.41432487964630127,0.8613631725311279,0.01468352135270834,-5.046769142150879,0.434297114610672,0.7728556990623474,0.42000001668930054,-0.6787327527999878,2.9999778270721436,-0.7465089559555054,-2.999999523162842,-0.13998839259147644,-0.15034514665603638,-0.15975730121135712,-0.1678284853696823,-0.824055552482605,-0.8556486964225769,-0.885172426700592,-0.911923885345459
0.3333333333333333,0.04655779153108597,0.21684038639068604,0.0,0.9496394395828247,0.0,0.0,-0.31334471702575684,-0.4671255350112915,-0.1667700707912445,0.0,0.0,0.0,2.609823226928711,-0.46989452838897705,0.744854748249054,0.4207029342651367,0.9992767572402954,0.017889663577079773,-0.0006035238620825112,-0.03354663401842117,0.013788094744086266,0.0017644631443545222,-0.007457928732037544,-0.38658323884010315,0.026471678167581558,0.19026431441307068,-0.4810914993286133,0.7481933832168579,0.42706209421157837,0.09785709530115128,0.7531483173370361,-0.15834151208400726,0.434297114610672,0.7728556990623474,0.42000001668930054,-0.628852903842926,2.999990463256836,-0.7970374822616577,-3.0000007152557373,-0.13857430219650269,-0.15080977976322174,-0.16145798563957214,-0.17016711831092834,-0.12721925973892212,-0.17436662316322327,-0.19497011601924896,-0.19291752576828003
0.35,0.03717350214719772,0.21241076290607452,0.0,0.9489237666130066,0.0,0.0,-0.31550538539886475,-0.6062122583389282,-0.30532485246658325,0.0,0.0,0.0,-1.2027677297592163,-0.46695780754089355,0.748991072177887,0.4203031361103058,0.9963420033454895,0.007626666221767664,-0.0007516740006394684,-0.08510997891426086,0.24427206814289093,0.32987919449806213,-0.01637321338057518,-0.8317459225654602,0.05498610436916351,-7.6968302726745605,-0.47765257954597473,0.7561860680580139,0.42421841621398926,0.35222327709198,0.3755391538143158,-0.1983698159456253,0.434297114610672,0.7728556990623474,0.42000001668930054,-0.5788477659225464,2.9999959468841553,-0.847072958946228,-3.000000476837158,-0.14298401772975922,-0.15505896508693695,-0.1651771515607834,-0.1730639636516571,-0.35683953762054443,-0.2990940809249878,-0.22480326890945435,-0.13910020887851715
0.36666666666666664,0.025609388947486877,0.2056572288274765,0.0,0.9528164267539978,0.0,0.0,-0.30354708433151245,-0.7385975122451782,-0.44540199637413025,0.0,0.0,0.0,2.4370129108428955,-0.46063530445098877,0.7583528757095337,0.4201478362083435,0.9893199801445007,-0.0018720855005085468,0.0019624875858426094,-0.14573432505130768,0.4665389955043793,0.7594543099403381,0.12566444277763367,-1.9368103742599487,3.930727958679199,-4.632688045501709,-0.47003811597824097,0.7657989263534546,0.42180055379867554,0.4916430711746216,0.6869150400161743,0.028236035257577896,0.434297114610672,0.7728556990623474,0.42000001668930054,-0.5288209915161133,2.999929904937744,-0.8970879912376404,-3.0000150203704834,-0.15022608637809753,-0.16070306301116943,-0.1689807027578354,-0.174874946475029,-0.43486306071281433,-0.32100310921669006,-0.19402992725372314,-0.059106383472681046
0.3833333333333333,0.01856607012450695,0.1962016075849533,0.0,0.9519295692443848,0.0,0.0,-0.30631694197654724,-0.449933797121048,-0.5955942869186401,0.0,0.0,0.0,-1.140459656715393,-0.45105087757110596,0.7727595567703247,0.4209355115890503,0.9834508299827576,-0.014491245150566101,0.010275130160152912,-0.1803021878004074,0.643074095249176,0.9316150546073914,0.037418484687805176,-2.0225424766540527,0.5108211636543274,-4.465756893157959,-0.459542453289032,0.778859555721283,0.4226921796798706,0.7830715179443359,0.7987927198410034,0.05720248445868492,0.434297114610672,0.7728556990623474,0.42000001668930054,-0.478780597448349,2.999939441680908,-0.9470994472503662,-2.9999866485595703,-0.1563115119934082,-0.16463598608970642,-0.17052946984767914,-0.17388929426670074,-0.5281999707221985,-0.34633058309555054,-0.15338154137134552,0.04467809572815895
0.4,0.00659796642139554,0.18526692688465118,0.0,0.9416803121566772,0.0,0.0,-0.33650878071784973,-0.8145951628684998,-0.6844101548194885,0.0,0.0,0.0,-4.745090961456299,-0.4359607994556427,0.7920964360237122,0.4216378629207611,0.9734632968902588,-0.041607193648815155,0.009248935617506504,-0.22483856976032257,1.261438250541687,1.292499303817749,0.11184043437242508,-5.550414085388184,2.2846338748931885,-10.472061157226562,-0.4426996111869812,0.796019434928894,0.4240894317626953,1.2672480344772339,1.2967455387115479,0.10153235495090485,0.434297114610672,0.7728556990623474,0.42000001668930054,-0.42874041199684143,2.9924044609069824,-0.9971128702163696,-2.999337673187256,-0.1679203063249588,-0.17249706387519836,-0.1744692027568817,-0.1738450825214386,-0.6975364685058594,-0.4608936905860901,-0.2141961008310318,0.035880640149116516
0.4166666666666667,-0.0018625083612278104,0.17142780125141144,0.0,0.9198835492134094,0.0,0.0,-0.3921915888786316,-0.48493900895118713,-0.8778161406517029,0.0,0.0,0.0,-7.892096519470215,-0.4073275625705719,0.8179956674575806,0.4243529736995697,0.9569051861763,-0.045624978840351105,-0.014933951199054718,-0.2864049971103668,2.286344289779663,1.5893603563308716,0.14636167883872986,17.93776512145996,-8.42642593383789,3.5200419425964355,-0.4136304259300232,0.8238080143928528,0.425947368144989,2.1778039932250977,1.8675874471664429,0.31154489517211914,0.434297114610672,0.7728556990623474,0.42000001668930054,-0.3871214985847473,1.4736545085906982,-1.0471227169036865,-3.000000476837158,-0.17762264609336853,-0.17842353880405426,-0.1764426976442337,-0.17179511487483978,-0.6495357751846313,-0.4011498987674713,-0.1454164683818817,0.11066943407058716
0.43333333333333335,-0.0069032227620482445,0.1546110063791275,0.0,0.8840885758399963,0.0,0.0,-0.4673193395137787,-0.22813113033771515,-1.0587774515151978,0.0,0.0,0.0,-10.685531616210938,-0.34995830059051514,0.8572396636009216,0.42804041504859924,0.9374933242797852,0.009198669344186783,-0.0539744533598423,-0.343669056892395,4.776500701904297,2.4627702236175537,0.5770106315612793,-0.024716628715395927,-2.5108280181884766,7.935128688812256,-0.3562047779560089,0.8632287979125977,0.42951762676239014,4.491940498352051,2.8780083656311035,0.28306204080581665,0.434297114610672,0.7728556990623474,0.42000001668930054,-0.3710240423679352,0.9097177982330322,-1.0096936225891113,3.000000476837158,-0.1913301944732666,-0.18705588579177856,-0.18011607229709625,-0.1707688868045807,-0.8571833968162537,-0.5450394153594971,-0.2505245804786682,0.01783321239054203
0.45,-0.009597919881343842,0.14278274774551392,0.0,0.8303300142288208,0.0,0.0,-0.5572719573974609,-0.12228143960237503,-0.5856674313545227,0.0,0.0,0.0,-13.409342765808105,-0.2522919774055481,0.9040679335594177,0.4346463978290558,0.906777024269104,0.07449254393577576,-0.08926304429769516,-0.40526339411735535,7.306865692138672,2.3498544692993164,0.547850489616394,13.078372955322266,-12.431560516357422,17.343772888183594,-0.25813671946525574,0.9109256267547607,0.436123788356781,7.135148525238037,2.9920270442962646,0.5597251653671265,0.434297114610672,0.7728556990623474,0.42000001668930054,-0.354763925075531,1.03737473487854,-0.9596527814865112,2.997589111328125,-0.20754553377628326,-0.20194610953330994,-0.1902882605791092,-0.1753285676240921,-0.9378985166549683,-0.9281507730484009,-0.7471989393234253,-0.4167894721031189
0.4666666666666667,-0.01598489284515381,0.13746342062950134,0.0,0.7815093994140625,0.0,0.0,-0.6238934993743896,-0.31083425879478455,-0.3914177119731903,0.0,0.0,0.0,-8.282709121704102,-0.1354856789112091,0.9324349761009216,0.4431287944316864,0.8505248427391052,0.08650979399681091,-0.12410403788089752,-0.503708004951477,7.018801212310791,0.7907214760780334,0.6329150795936584,-2.8985960483551025,-0.3683595359325409,1.705503225326538,-0.1425013691186905,0.9441268444061279,0.44590258598327637,7.015262126922607,1.4700778722763062,0.5737870335578918,0.434297114610672,0.7728556990623474,0.42000001668930054,-0.3389299511909485,0.8783112168312073,-0.9848658442497253,-3.0000009536743164,-0.22253623604774475,-0.21697701513767242,-0.20520025491714478,-0.18588732182979584,-0.5924785733222961,-0.6602048277854919,-0.7056346535682678,-0.5304592251777649
0.48333333333333334,-0.016636494547128677,0.12417198717594147,0.0,0.7527510523796082,0.0,0.0,-0.658305287361145,0.04835575446486473,-0.9334027767181396,0.0,0.0,0.0,-4.428346157073975,-0.019633866846561432,0.9447514414787292,0.4502619504928589,0.7806787490844727,0.0846501812338829,-0.1327771097421646,-0.6047687530517578,6.6340413093566895,-1.0463413000106812,0.7153314352035522,-13.510103225708008,14.013148307800293,9.929283142089844,-0.0264822319149971,0.9590399265289307,0.4542272984981537,7.089773654937744,0.1630665510892868,0.46313542127609253,0.434297114610672,0.7728556990623474,0.42000001668930054,-0.3247673511505127,0.5899078249931335,-1.0348886251449585,-2.997235059738159,-0.2296140044927597,-0.22378884255886078,-0.2116093933582306,-0.189117431640625,-0.4118840992450714,-0.31665241718292236,-0.2253686934709549,-0.015616264194250107
0.5,-0.020541513338685036,0.11561495065689087,0.0,0.7447172999382019,0.0,0.0,-0.6673800349235535,-0.19575634598731995,-0.3991149067878723,0.0,0.0,0.0,-0.2506539225578308,0.08562804013490677,0.9338935017585754,0.45739832520484924,0.6997325420379639,0.07633507251739502,-0.11181569844484329,-0.7014588117599487,5.272098064422607,-2.038516044616699,0.43648672103881836,-15.923079490661621,1.0487195253372192,31.413362503051758,0.08098001778125763,0.9511336088180542,0.4624737799167633,6.0759687423706055,-0.9062950015068054,0.4497053623199463,0.434297114610672,0.7728556990623474,0.42000001668930054,-0.3190840184688568,0.0071954429149627686,-1.0849107503890991,-2.999593734741211,-0.23997396230697632,-0.23401913046836853,-0.21917253732681274,-0.19300676882266998,-0.048398490995168686,-0.6101397275924683,-0.49422433972358704,-0.34827515482902527
0.5166666666666666,-0.021094007417559624,0.10917031019926071,0.0,0.7291808128356934,0.0,0.0,-0.6843211054801941,0.014188933186233044,-0.3321986198425293,0.0,0.0,0.0,-3.6556801795959473,0.17412680387496948,0.9109822511672974,0.4570552408695221,0.5894899964332581,0.037038132548332214,-0.14762042462825775,-0.7933081388473511,4.9077630043029785,-2.5067265033721924,0.34841489791870117,-5.405580043792725,0.20062221586704254,4.402133464813232,0.16999980807304382,0.9320759773254395,0.4649564027786255,4.9903669357299805,-1.6399164199829102,-0.12175767123699188,0.434297114610672,0.7728556990623474,0.42000001668930054,-0.3230222761631012,-0.5652157664299011,-1.1349326372146606,-3.000001907348633,-0.23901648819446564,-0.24002321064472198,-0.22402101755142212,-0.19614733755588531,-7.699709385633469e-07,-0.03699265792965889,-0.20930206775665283,-0.11757665127515793
0.5333333333333333,-0.01890978030860424,0.10645108669996262,0.0,0.7263361811637878,0.0,0.0,-0.6873396039009094,0.16570855677127838,-0.09930984675884247,0.0,0.0,0.0,0.3993471562862396,0.2495327889919281,0.8807514309883118,0.4514414072036743,0.5218220949172974,0.00389351649209857,-0.13667523860931396,-0.8420252203941345,4.020632743835449,-2.0777289867401123,-0.3453468382358551,7.355240821838379,14.862045288085938,-12.214825630187988,0.24723376333713531,0.9003661870956421,0.459686815738678,4.259112358093262,-2.1906208992004395,-0.5528621673583984,0.434297114610672,0.7728556990623474,0.42000001668930054,-0.328968346118927,0.07264971733093262,-1.1849547624588013,-2.9986073970794678,-0.23865452408790588,-0.23949407041072845,-0.2262456715106964,-0.19768404960632324,0.09456441551446915,0.10580666363239288,-0.0327155627310276,-0.04640743508934975
0.55,-0.014190497808158398,0.10134530812501907,0.0,0.7149051427841187,0.0,0.0,-0.6992214322090149,0.3308315575122833,-0.36390069127082825,0.0,0.0,0.0,-2.807070255279541,0.3109862506389618,0.8473061919212341,0.4388262927532196,0.464915007352829,-0.035755716264247894,-0.10366862267255783,-0.878537654876709,3.172456979751587,-2.2886061668395996,-0.7700566053390503,3.6194167137145996,10.786133766174316,-2.156357526779175,0.3117868900299072,0.8666250109672546,0.44634994864463806,3.482311248779297,-2.06044602394104,-0.9961357116699219,0.434297114610672,0.7728556990623474,0.42000001668930054,-0.31719061732292175,1.0335173606872559,-1.234976887702942,-2.9986777305603027,-0.23553672432899475,-0.236097514629364,-0.22516688704490662,-0.19776639342308044,0.23180001974105835,0.2585361897945404,0.12435740232467651,0.010382048785686493
0.5666666666666667,-0.006921971216797829,0.09968020766973495,0.0,0.715179979801178,0.0,0.0,-0.6989403367042542,0.46267765760421753,-0.08339668810367584,0.0,0.0,0.0,0.8837059736251831,0.3578966557979584,0.8141736388206482,0.4233067035675049,0.4219786822795868,-0.050217367708683014,-0.041237179189920425,-0.9042741060256958,2.561267852783203,-1.4364149570465088,-0.06708601117134094,-8.585217475891113,-5.822545528411865,15.955404281616211,0.36091408133506775,0.8313202857971191,0.43049901723861694,2.0984959602355957,-1.7046222686767578,-0.32510173320770264,0.434297114610672,0.7728556990623474,0.42000001668930054,-0.3006512522697449,0.8237838745117188,-1.284998893737793,-3.0000128746032715,-0.23361442983150482,-0.2333671748638153,-0.224310502409935,-0.19916550815105438,0.31242749094963074,0.30708590149879456,0.1548379808664322,-0.041818879544734955
0.5833333333333334,0.0024750763550400734,0.09434936195611954,0.0,0.70493483543396,0.0,0.0,-0.7092720866203308,0.5998761653900146,-0.35706648230552673,0.0,0.0,0.0,-2.5689847469329834,0.3892919719219208,0.7979118227958679,0.42339596152305603,0.41523000597953796,-0.04977520555257797,-0.04930741712450981,-0.9070143699645996,1.5272234678268433,-1.215277075767517,0.2536185383796692,-11.913857460021973,8.425639152526855,11.82128620147705,0.39095455408096313,0.814052939414978,0.4316141605377197,1.4868391752243042,-0.840973973274231,-0.004997715353965759,0.434297114610672,0.7728556990623474,0.42000001668930054,-0.2947494089603424,0.17794178426265717,-1.2925776243209839,1.7307624816894531,-0.224821999669075,-0.22534716129302979,-0.21928353607654572,-0.19818903505802155,0.4923369586467743,0.46005532145500183,0.299251914024353,0.04978464916348457
0.6,0.00950080156326294,0.09254716336727142,0.0,0.7065115571022034,0.0,0.0,-0.7077015042304993,0.36556535959243774,-0.0645752102136612,0.0,0.0,0.0,1.1051905155181885,0.4086396396160126,0.7807351350784302,0.4224585294723511,0.41021639108657837,-0.05574702471494675,-0.027458665892481804,-0.9098684787750244,0.771798849105835,-1.360835075378418,0.12290777266025543,-7.931153297424316,6.331284523010254,7.29762601852417,0.4103253483772278,0.7960368394851685,0.4310339093208313,0.8555574417114258,-0.9947078227996826,0.0017886906862258911,0.434297114610672,0.7728556990623474,0.42000001668930054,-0.2884944975376129,0.5487098097801208,-1.3235962390899658,-3.0000014305114746,-0.21938547492027283,-0.2198343276977539,-0.21570909023284912,-0.19836872816085815,0.3630819320678711,0.359768271446228,0.24659699201583862,0.01365099661052227
0.6166666666666667,0.017309270799160004,0.08802399784326553,0.0,0.6971777081489563,0.0,0.0,-0.7168983817100525,0.49796661734580994,-0.34211066365242004,0.0,0.0,0.0,-2.3420403003692627,0.4202294945716858,0.7739113569259644,0.4224518835544586,0.42559048533439636,-0.04130063205957413,-0.03289295732975006,-0.903374195098877,0.3018200695514679,-0.7008433938026428,0.2611532509326935,-12.719622611999512,3.2035627365112305,14.957757949829102,0.4208664298057556,0.7886717319488525,0.43123891949653625,0.2688746452331543,-0.13892531394958496,0.032633885741233826,0.434297114610672,0.7728556990623474,0.42000001668930054,-0.2795710563659668,0.46283626556396484,-1.285401463508606,3.000004768371582,-0.2089473009109497,-0.21045462787151337,-0.2089415341615677,-0.1962004452943802,0.5678048729896545,0.5208888649940491,0.38915643095970154,0.1308814138174057
0.6333333333333333,0.02685033343732357,0.0861026793718338,0.0,0.7000936269760132,0.0,0.0,-0.7140510678291321,0.6138877868652344,-0.05933668836951256,0.0,0.0,0.0,1.3469570875167847,0.42300182580947876,0.7679669260978699,0.42236921191215515,0.45386508107185364,-0.05609579011797905,-0.028437452390789986,-0.8888481259346008,0.08734286576509476,-0.371553897857666,0.005701890215277672,-0.7296879887580872,0.17257043719291687,4.104269981384277,0.42259031534194946,0.7831633687019348,0.429426908493042,-0.0028796792030334473,-0.3300303518772125,-0.3168961703777313,0.434297114610672,0.7728556990623474,0.42000001668930054,-0.31046321988105774,-3.0000009536743164,-1.3055387735366821,-2.9999892711639404,-0.20132625102996826,-0.20350490510463715,-0.20389625430107117,-0.19519412517547607,0.47758936882019043,0.42282572388648987,0.30370914936065674,0.05757715180516243
0.65,0.03817860037088394,0.08772826194763184,0.0,0.692035973072052,0.0,0.0,-0.7218630313873291,0.7159290909767151,0.15383002161979675,0.0,0.0,0.0,-2.2880899906158447,0.42317280173301697,0.7645281553268433,0.4212600290775299,0.46404093503952026,-0.028105542063713074,-0.0127195343375206,-0.8852763772010803,0.08189330250024796,0.08308947086334229,0.0646027997136116,-4.490142822265625,1.6352434158325195,2.6943047046661377,0.4238031804561615,0.7854572534561157,0.42692556977272034,0.1414232850074768,0.37928518652915955,0.2097776085138321,0.434297114610672,0.7728556990623474,0.42000001668930054,-0.35393720865249634,-2.290344476699829,-1.3554519414901733,-2.9979474544525146,-0.19190603494644165,-0.19577090442180634,-0.19860172271728516,-0.1942199170589447,0.637229323387146,0.5167140960693359,0.36341625452041626,0.1061723530292511
0.6666666666666666,0.05253260210156441,0.08419501781463623,0.0,0.6955657005310059,0.0,0.0,-0.7184624671936035,0.8147018551826477,-0.21166612207889557,0.0,0.0,0.0,1.4981532096862793,0.4242176115512848,0.7662802338600159,0.42205479741096497,0.4764196574687958,-0.044193070381879807,-0.026798278093338013,-0.8776975870132446,-0.03894112631678581,0.190704345703125,0.06415952742099762,-2.1395723819732666,-1.271436095237732,2.123861074447632,0.424253910779953,0.7903388738632202,0.43032318353652954,-0.12092205137014389,0.2652605175971985,0.22913053631782532,0.434297114610672,0.7728556990623474,0.42000001668930054,-0.40334415435791016,-2.9999964237213135,-1.4054415225982666,-2.9999005794525146,-0.17834091186523438,-0.18438757956027985,-0.18984833359718323,-0.1897481232881546,0.6557544469833374,0.5740832090377808,0.46698319911956787,0.26032114028930664
0.6833333333333333,0.062906414270401,0.08472765237092972,0.0,0.7029264569282532,0.0,0.0,-0.7112625241279602,0.5726879239082336,0.04485376179218292,0.0,0.0,0.0,1.068692922592163,0.4236275851726532,0.7690918445587158,0.42184722423553467,0.49043747782707214,-0.03823859617114067,-0.024773359298706055,-0.8702844977378845,-0.03334704414010048,0.16093426942825317,-0.03811873495578766,1.5201371908187866,-0.11228608340024948,1.8462042808532715,0.4245234429836273,0.7932754755020142,0.4343631863594055,0.06775009632110596,0.1541069746017456,0.2603461742401123,0.434297114610672,0.7728556990623474,0.42000001668930054,-0.4533618092536926,-2.998899459838867,-1.4554105997085571,-2.999246835708618,-0.16982685029506683,-0.17672500014305115,-0.1833193600177765,-0.1858627200126648,0.5452709794044495,0.48832401633262634,0.423667848110199,0.2800164818763733
0.7,0.07424581050872803,0.08208302408456802,0.0,0.693645715713501,0.0,0.0,-0.7203163504600525,0.6801120042800903,-0.20105724036693573,0.0,0.0,0.0,-2.5163450241088867,0.423145592212677,0.7711617946624756,0.42040789127349854,0.5027465224266052,-0.008381159976124763,-0.005040574818849564,-0.8643785119056702,-0.028340153396129608,0.11048709601163864,-0.09976878017187119,4.607354164123535,-2.699995756149292,1.5453537702560425,0.4269255995750427,0.7980321049690247,0.4384898543357849,0.17376428842544556,0.2919173836708069,0.25824445486068726,0.434297114610672,0.7728556990623474,0.42000001668930054,-0.5033679008483887,-2.9999759197235107,-1.5054190158843994,-2.9999592304229736,-0.1618994176387787,-0.16937445104122162,-0.1765860915184021,-0.18092107772827148,0.33937978744506836,0.3429105579853058,0.346365749835968,0.28478771448135376
0.7166666666666667,0.08713633567094803,0.07637449353933334,0.0,0.6643521785736084,0.0,0.0,-0.7474197149276733,0.8108384609222412,-0.45864784717559814,0.0,0.0,0.0,-5.603879451751709,0.4229625463485718,0.7715346813201904,0.42000001668930054,0.5058513879776001,-4.897944563708734e-06,-7.047606686683139e-06,-0.8626206517219543,8.349575364263728e-05,-0.0008059993269853294,-0.0003024099860340357,0.011655236594378948,0.007790564559400082,0.0038979751989245415,0.4346351623535156,0.8034886121749878,0.4487990140914917,0.773334264755249,0.27808424830436707,1.0893691778182983,0.434297114610672,0.7728556990623474,0.42000001668930054,-0.5533803701400757,-2.9999709129333496,-1.5554373264312744,-2.9999992847442627,-0.16013403236865997,-0.16667510569095612,-0.17287743091583252,-0.17714738845825195,-0.03413274511694908,0.06009778752923012,0.16231007874011993,0.21555399894714355
0.7333333333333333,0.1041424497961998,0.07532060146331787,0.0,0.6475726366043091,0.0,0.0,-0.7620037198066711,0.9573121666908264,-0.03981868177652359,0.0,0.0,0.0,-1.6203809976577759,0.4229622483253479,0.7715341448783875,0.41999998688697815,0.5058526992797852,-3.182654381816974e-06,-3.487459935058723e-06,-0.8626198768615723,-9.392361243953928e-05,-0.0002949422923848033,-8.54486133903265e-05,0.008164789527654648,-0.0036565351765602827,-0.0007411009864881635,0.44644695520401,0.80948805809021,0.47280430793762207,0.7766625881195068,0.6882388591766357,1.6945185661315918,0.434297114610672,0.7728556990623474,0.42000001668930054,-0.5741259455680847,0.24142497777938843,-1.605454683303833,-2.9999887943267822,-0.1676173061132431,-0.1718682199716568,-0.17576125264167786,-0.17857523262500763,-0.2751269042491913,-0.21727986633777618,-0.15402305126190186,-0.1303173005580902
0.75,0.11665305495262146,0.07692288607358932,0.0,0.6550881266593933,0.0,0.0,-0.7555524706840515,0.694125771522522,0.07360132783651352,0.0,0.0,0.0,2.064448833465576,0.4229622185230255,0.7715341448783875,0.41999998688697815,0.5058528184890747,-3.236362999814446e-06,-3.53444556822069e-06,-0.8626198172569275,-8.943003922468051e-05,-0.0002908530586864799,-8.284184150397778e-05,0.008066513575613499,-0.0035957228392362595,-0.000733999302610755,0.45956552028656006,0.8168597221374512,0.4940151572227478,0.8148684501647949,0.31442099809646606,0.8834987878799438,0.434297114610672,0.7728556990623474,0.42000001668930054,-0.5612403154373169,1.2084368467330933,-1.5664244890213013,2.9999992847442627,-0.17215204238891602,-0.17524005472660065,-0.17785820364952087,-0.1799525022506714,-0.15329571068286896,-0.10075629502534866,-0.039289869368076324,-0.003430395619943738
0.7666666666666666,0.1247001513838768,0.0727037787437439,0.0,0.6508115530014038,0.0,0.0,-0.7592393159866333,0.45098423957824707,-0.2670151889324188,0.0,0.0,0.0,-1.5834506750106812,0.4229622483253479,0.7715341448783875,0.41999998688697815,0.5058526396751404,-3.19627474709705e-06,-3.58724514626374e-06,-0.8626198172569275,-8.793978486210108e-05,-0.00029087954317219555,-8.2455575466156e-05,0.008067755959928036,-0.0035858878400176764,-0.0007366789504885674,0.4682498574256897,0.8234462141990662,0.5015762448310852,0.1390288770198822,0.23079301416873932,0.1833881288766861,0.434297114610672,0.7728556990623474,0.42000001668930054,-0.5616002678871155,-1.0510605573654175,-1.516398549079895,2.9999992847442627,-0.1707419753074646,-0.17342282831668854,-0.17548541724681854,-0.17734842002391815,-0.08838258683681488,-0.01346322800964117,0.06500229984521866,0.12205540388822556
0.7833333333333333,0.12941411137580872,0.07336150109767914,0.0,0.6579193472862244,0.0,0.0,-0.7530884146690369,0.23546935617923737,0.061475884169340134,0.0,0.0,0.0,1.8962692022323608,0.4229622483253479,0.7715341448783875,0.41999998688697815,0.5058526992797852,-3.126946239717654e-06,-3.467073156571132e-06,-0.8626198172569275,-8.778052870184183e-05,-0.0002908945898525417,-8.229119703173637e-05,0.008071128278970718,-0.0035915810149163008,-0.0007368133519776165,0.4703768193721771,0.8251606225967407,0.5036116242408752,0.18913574516773224,0.1704023778438568,0.07672105729579926,0.434297114610672,0.7728556990623474,0.42000001668930054,-0.5570414662361145,1.3818027973175049,-1.5322120189666748,-2.999999523162842,-0.17617979645729065,-0.17702113091945648,-0.1772514283657074,-0.17764438688755035,-0.23444879055023193,-0.16044701635837555,-0.08537108451128006,-0.02537507377564907
0.8,0.13060158491134644,0.07027912884950638,0.0,0.6529144644737244,0.0,0.0,-0.7574316263198853,0.034113723784685135,-0.2610985338687897,0.0,0.0,0.0,-1.6954121589660645,0.4229622185230255,0.7715341448783875,0.41999998688697815,0.5058528184890747,-3.237205191908288e-06,-3.5347470657143276e-06,-0.8626197576522827,-8.953546785051003e-05,-0.000290845608105883,-8.287676610052586e-05,0.008066056296229362,-0.0035955170169472694,-0.0007337885326705873,0.4675360321998596,0.8280942440032959,0.49908846616744995,-0.5133698582649231,0.11186249554157257,-0.4563794732093811,0.434297114610672,0.7728556990623474,0.42000001668930054,-0.5641444325447083,-1.9385913610458374,-1.4942127466201782,2.999999523162842,-0.1783381998538971,-0.17813175916671753,-0.17728647589683533,-0.17677566409111023,-0.1211429163813591,-0.05111359432339668,0.019199620932340622,0.08117092400789261
0.8166666666666667,0.13263514637947083,0.07174844294786453,0.0,0.6587284207344055,0.0,0.0,-0.7523807883262634,0.15074270963668823,0.07757370173931122,0.0,0.0,0.0,1.5038785934448242,0.4229622483253479,0.7715341448783875,0.41999998688697815,0.5058526992797852,-3.1969793781172484e-06,-3.587331320886733e-06,-0.8626198768615723,-8.79410799825564e-05,-0.0002908803871832788,-8.245487697422504e-05,0.00806764792650938,-0.003585983533412218,-0.0007366891950368881,0.45969802141189575,0.828551173210144,0.4947492778301239,-0.29906338453292847,0.1572638750076294,-0.0740668773651123,0.434297114610672,0.7728556990623474,0.42000001668930054,-0.5845605731010437,-0.6097074151039124,-1.5105032920837402,-2.999999761581421,-0.18486714363098145,-0.1829206794500351,-0.18026991188526154,-0.17800235748291016,-0.22468812763690948,-0.17723873257637024,-0.11582259088754654,-0.04349179565906525
0.8333333333333334,0.13662436604499817,0.06879346072673798,0.0,0.6516023278236389,0.0,0.0,-0.7585607171058655,0.2837507724761963,-0.19690288603305817,0.0,0.0,0.0,-1.9372597932815552,0.4229622483253479,0.7715341448783875,0.41999998688697815,0.5058527588844299,-3.128772959826165e-06,-3.4753700219880557e-06,-0.8626198172569275,-8.927089220378548e-05,-0.0002908158057834953,-8.276081643998623e-05,0.008066308684647083,-0.0035952222533524036,-0.0007340626325458288,0.4553983509540558,0.8317174315452576,0.4924071431159973,-0.2682316303253174,0.0740731880068779,-0.06906238943338394,0.434297114610672,0.7728556990623474,0.42000001668930054,-0.6234503984451294,-2.9999938011169434,-1.5605216026306152,-2.999999761581421,-0.1861213743686676,-0.1836727410554886,-0.1801781803369522,-0.1767301857471466,-0.18014214932918549,-0.11261892318725586,-0.023662475869059563,0.08696749806404114
0.85,0.1431892365217209,0.06291809678077698,0.0,0.62491774559021,0.0,0.0,-0.780690610408783,0.44066211581230164,-0.41588762402534485,0.0,0.0,0.0,-5.050417900085449,0.4229622483253479,0.7715341448783875,0.41999998688697815,0.5058526396751404,-3.200429091521073e-06,-3.5427081002126215e-06,-0.8626198768615723,-8.795951725915074e-05,-0.0002908947644755244,-8.239457383751869e-05,0.008069675415754318,-0.003589821979403496,-0.0007365987985394895,0.4550415277481079,0.8335028886795044,0.4970989525318146,0.2652930021286011,0.09699497371912003,0.731877326965332,0.434297114610672,0.7728556990623474,0.42000001668930054,-0.6734568476676941,-2.9999287128448486,-1.6105399131774902,-2.999995470046997,-0.19037982821464539,-0.18675124645233154,-0.18172220885753632,-0.17635837197303772,-0.2791692018508911,-0.20967458188533783,-0.11989083141088486,-0.006783788558095694
0.8666666666666667,0.15310898423194885,0.06154295429587364,0.0,0.611473798751831,0.0,0.0,-0.7912647128105164,0.5866456031799316,-0.09974167495965958,0.0,0.0,0.0,-0.9222142100334167,0.4229622483253479,0.7715341448783875,0.41999998688697815,0.5058527588844299,-3.2411448955826927e-06,-3.582849785743747e-06,-0.8626198172569275,-8.932684431783855e-05,-0.00029083434492349625,-8.278968743979931e-05,0.008066583424806595,-0.0035955985076725483,-0.0007340637384913862,0.4569111764431,0.8359209299087524,0.5120029449462891,0.07573862373828888,0.3836671710014343,0.9830894470214844,0.434297114610672,0.7728556990623474,0.42000001668930054,-0.6896374821662903,0.7441930770874023,-1.660556435585022,-3.000000238418579,-0.19857093691825867,-0.19353273510932922,-0.1869356781244278,-0.1797824651002884,-0.2591138184070587,-0.2590722441673279,-0.2486961930990219,-0.22130745649337769
0.8833333333333333,0.15956345200538635,0.05631796270608902,0.0,0.623044490814209,0.0,0.0,-0.7821863889694214,0.3638603687286377,-0.404371052980423,0.0,0.0,0.0,2.4882164001464844,0.4229622483253479,0.7715341448783875,0.41999998688697815,0.5058526396751404,-3.127492163912393e-06,-3.44147906616854e-06,-0.8626198768615723,-8.769965643296018e-05,-0.0002908742753788829,-8.228025399148464e-05,0.008070303127169609,-0.003589803585782647,-0.0007368929218500853,0.4571647047996521,0.8406515121459961,0.5217273235321045,-0.14195910096168518,0.13287407159805298,0.22992455959320068,0.434297114610672,0.7728556990623474,0.42000001668930054,-0.6693066954612732,1.6029472351074219,-1.6213698387145996,2.999999523162842,-0.19969475269317627,-0.19470420479774475,-0.18801425397396088,-0.1805095672607422,-0.0760432630777359,-0.048959486186504364,-0.018394796177744865,0.022182775661349297
0.9,0.163048654794693,0.05427742749452591,0.0,0.621554434299469,0.0,0.0,-0.7833709716796875,0.15967413783073425,-0.07427601516246796,0.0,0.0,0.0,-1.077718734741211,0.4229622483253479,0.7715341448783875,0.41999998688697815,0.5058526992797852,-3.119915163551923e-06,-3.345640607221867e-06,-0.8626198172569275,-8.90667870407924e-05,-0.000290815340122208,-8.267397060990334e-05,0.008067193441092968,-0.003595580579712987,-0.000734355766326189,0.45078766345977783,0.8408101797103882,0.522675633430481,-0.5120300054550171,-0.02447478473186493,-0.01444157212972641,0.434297114610672,0.7728556990623474,0.42000001668930054,-0.6625505089759827,-0.6048668026924133,-1.5713133811950684,2.999999761581421,-0.20365357398986816,-0.1977909803390503,-0.19021998345851898,-0.18173134326934814,-0.1426752805709839,-0.11582174152135849,-0.08720908313989639,-0.050622910261154175
0.9166666666666666,0.16704660654067993,0.050249531865119934,0.0,0.6313139200210571,0.0,0.0,-0.7755274176597595,0.28749263286590576,-0.2837219834327698,0.0,0.0,0.0,2.250615358352661,0.4229622483253479,0.7715341448783875,0.41999998688697815,0.5058527588844299,-3.1159843274508603e-06,-3.4641268484847387e-06,-0.8626197576522827,-8.928024908527732e-05,-0.00029082901892252266,-8.27624462544918e-05,0.008066833950579166,-0.003595858346670866,-0.0007340888259932399,0.44361764192581177,0.8401758670806885,0.5236220359802246,-0.4008249044418335,-0.05843331664800644,0.18199481070041656,0.434297114610672,0.7728556990623474,0.42000001668930054,-0.661505401134491,0.6220837831497192,-1.5859240293502808,-2.999999761581421,-0.20572254061698914,-0.19931933283805847,-0.1911459118127823,-0.18190084397792816,-0.15178072452545166,-0.10864095389842987,-0.06122792139649391,-0.004740336909890175
