vladlanda/robotic-transformer/data/env_000_episode_0128.csv
sim_time_s,robot_box_x,robot_box_y,robot_box_z,robot_box_quat_w,robot_box_quat_x,robot_box_quat_y,robot_box_quat_z,robot_box_linvel_x,robot_box_linvel_y,robot_box_linvel_z,robot_box_angvel_x,robot_box_angvel_y,robot_box_angvel_z,cube_world_x,cube_world_y,cube_world_z,cube_quat_w,cube_quat_x,cube_quat_y,cube_quat_z,cube_linvel_x,cube_linvel_y,cube_linvel_z,cube_angvel_x,cube_angvel_y,cube_angvel_z,endpoint_world_x,endpoint_world_y,endpoint_world_z,endpoint_linvel_x,endpoint_linvel_y,endpoint_linvel_z,target_cube_world_x,target_cube_world_y,target_cube_world_z,gripper_actual_pos_rad_gp_leftgearjoint,gripper_actual_vel_rad_s_gp_leftgearjoint,gripper_actual_pos_rad_gp_rotatingjoint,gripper_actual_vel_rad_s_gp_rotatingjoint,motor_angle_rad_joint1,motor_angle_rad_joint2,motor_angle_rad_joint3,motor_angle_rad_joint4,motor_speed_rad_s_joint1,motor_speed_rad_s_joint2,motor_speed_rad_s_joint3,motor_speed_rad_s_joint4
0.0,0.0,0.0,0.0,1.0,0.0,0.0,0.0,0.0,0.0,0.0,0.0,0.0,0.0,-0.40851688385009766,0.6939724087715149,0.41999998688697815,1.0,0.0,0.0,0.0,0.0,0.0,0.0,0.0,0.0,0.0,3.42540442943573e-06,-0.005000244826078415,1.313499927520752,0.0,0.0,0.0,0.3799694776535034,0.6931539177894592,0.42000001668930054,-1.5707999467849731,0.0,0.0,0.0,0.0,0.0,0.0,0.0,0.0,0.0,0.0,0.0
0.016666666666666666,0.0028778850100934505,0.0021806680597364902,0.0,0.9998081922531128,0.0,0.0,0.019586581736803055,0.24087215960025787,0.18240931630134583,0.0,0.0,0.0,3.1418697834014893,-0.4085170030593872,0.693972110748291,0.41999998688697815,1.0,3.279964630564791e-06,-8.339746386809566e-07,8.465587342243452e-08,-1.9833529222523794e-05,0.00017983045836444944,-6.132945418357849e-05,0.0009432713268324733,-0.004689474124461412,-0.00031981561915017664,-0.007110234349966049,0.003379564033821225,1.3159373998641968,-0.8143353462219238,0.9868683815002441,0.18095196783542633,0.3799694776535034,0.6931539177894592,0.42000001668930054,-1.5301095247268677,3.0000011920928955,-0.04584788903594017,-2.9999992847442627,0.0008691533003002405,0.0007963840034790337,0.0007110277656465769,0.0006108740926720202,0.11094217747449875,0.09756709635257721,0.08334315568208694,0.06823883205652237
0.03333333333333333,0.008960984647274017,0.00680195726454258,0.0,0.9997960329055786,0.0,0.0,0.020196840167045593,0.4070216715335846,0.31530845165252686,0.0,0.0,0.0,-0.8691310286521912,-0.40851712226867676,0.6939720511436462,0.4200000464916229,1.0,3.3908354453160428e-06,-2.1324485715012997e-06,-3.710144014235084e-08,0.00026357831666246057,0.00026937946677207947,-0.00010509486310184002,-0.0017707672668620944,0.004130808170884848,-0.000135478752781637,-0.027551142498850822,0.026133904233574867,1.3166062831878662,-1.591465950012207,1.615760326385498,-0.08375875651836395,0.3799694776535034,0.6931539177894592,0.42000001668930054,-1.4800904989242554,2.9999990463256836,-0.09588772058486938,-3.0000011920928955,0.0029901277739554644,0.0026527445297688246,0.0022773214150220156,0.001860783202573657,0.16421887278556824,0.1397629827260971,0.11382252722978592,0.08630504459142685
0.05,0.017286941409111023,0.013695127330720425,0.0,0.9996057748794556,0.0,0.0,0.028075771406292915,0.5566132664680481,0.45361578464508057,0.0,0.0,0.0,1.8152766227722168,-0.40851715207099915,0.693972110748291,0.4200000464916229,1.0,3.765139354072744e-06,-2.2119161258160602e-06,5.630195420991413e-09,0.0002653095289133489,0.00026691411039792,-0.00010440382175147533,-0.0017242460744455457,0.004177400842308998,-0.00012949357915204018,-0.05922476574778557,0.054615654051303864,1.3114806413650513,-2.1634016036987305,1.7877135276794434,-0.4873645603656769,0.3799694776535034,0.6931539177894592,0.42000001668930054,-1.4300721883773804,3.0000035762786865,-0.14592638611793518,-3.000000476837158,0.005532304290682077,0.004748588427901268,0.0038928273133933544,0.002960366429761052,0.17925649881362915,0.14290045201778412,0.1046864241361618,0.06450608372688293
0.06666666666666667,0.028155382722616196,0.022764621302485466,0.0,0.9998083114624023,0.0,0.0,0.019577639177441597,0.704418420791626,0.5801098942756653,0.0,0.0,0.0,-1.9329599142074585,-0.40851715207099915,0.6939720511436462,0.4200000464916229,0.9999999403953552,3.4067325032083318e-06,-2.285616346853203e-06,4.301086846680846e-07,0.0002670263056643307,0.0002679172612261027,-0.00010437914170324802,-0.0017406872939318419,0.004211808554828167,-0.0001285045873373747,-0.0955774262547493,0.08986462652683258,1.2994725704193115,-2.234769821166992,2.3192193508148193,-0.9287675619125366,0.3799694776535034,0.6931539177894592,0.42000001668930054,-1.3800538778305054,2.999997854232788,-0.1959349513053894,-2.999999761581421,0.00782901793718338,0.006301549728959799,0.004662279970943928,0.002909127390012145,0.1309194415807724,0.0739373043179512,0.01496803853660822,-0.04615156725049019
0.08333333333333333,0.04180910810828209,0.03408827260136604,0.0,0.9998587369918823,0.0,0.0,-0.016807187348604202,0.9319785833358765,0.7203253507614136,0.0,0.0,0.0,-5.162818908691406,-0.40851715207099915,0.6939720511436462,0.4200000464916229,0.9999999403953552,3.626018951763399e-06,-2.335360477445647e-06,3.0324326871777885e-07,0.00026613904628902674,0.00026685016928240657,-0.00010405411012470722,-0.0017283597262576222,0.004196425899863243,-0.00012790990876965225,-0.1317867636680603,0.1324431598186493,1.281923770904541,-2.134432792663574,2.6943931579589844,-1.156255841255188,0.3799694776535034,0.6931539177894592,0.42000001668930054,-1.3300273418426514,2.9999947547912598,-0.1621689796447754,2.9999988079071045,0.00898529402911663,0.0064177559688687325,0.0036982318852096796,0.0008239054586738348,0.06595718115568161,-0.0064862738363444805,-0.08094523847103119,-0.15746313333511353
0.1,0.05044463649392128,0.049463119357824326,0.0,0.9993687272071838,0.0,0.0,-0.035526175051927567,0.38024014234542847,1.0044540166854858,0.0,0.0,0.0,-1.199680209159851,-0.40851715207099915,0.6939720511436462,0.4200000464916229,1.0,3.422117288209847e-06,-2.3086265628080582e-06,1.7964211451726442e-07,0.0002668147499207407,0.0002680043689906597,-0.00010440591722726822,-0.0017430688021704555,0.004207088612020016,-0.0001289069332415238,-0.16943441331386566,0.17268645763397217,1.261124610900879,-2.194289207458496,2.4364521503448486,-1.2726069688796997,0.3799694776535034,0.6931539177894592,0.42000001668930054,-1.2800308465957642,3.0000011920928955,-0.19385294616222382,-3.0,0.003537075826898217,0.00016113258607219905,-0.0034173934254795313,-0.007205339148640633,-0.45336589217185974,-0.5050777792930603,-0.5592762231826782,-0.6162309050559998
0.11666666666666667,0.05438195914030075,0.06478261947631836,0.0,0.9978142380714417,0.0,0.0,-0.06608141958713531,0.30120959877967834,0.9779605269432068,0.0,0.0,0.0,-4.265359401702881,-0.40851715207099915,0.693972110748291,0.4200000464916229,1.0,3.711538511197432e-06,-2.332751819267287e-06,2.574376765096531e-07,0.00026485807029530406,0.0002663535997271538,-0.00010423525236546993,-0.001718185725621879,0.004170059692114592,-0.00012915738625451922,-0.2040177583694458,0.21670734882354736,1.2404201030731201,-1.9479820728302002,2.944283962249756,-1.2241320610046387,0.3799694776535034,0.6931539177894592,0.42000001668930054,-1.2300217151641846,2.999998092651367,-0.24386489391326904,-2.9998443126678467,-0.003569024847820401,-0.008248232305049896,-0.01313242968171835,-0.018231365829706192,-0.2623114585876465,-0.37530335783958435,-0.48567894101142883,-0.5934051871299744
0.13333333333333333,0.05843770503997803,0.07936513423919678,0.0,0.9935047626495361,0.0,0.0,-0.11379031836986542,0.19734682142734528,0.8207065463066101,0.0,0.0,0.0,-6.665578365325928,-0.40851715207099915,0.6939720511436462,0.4200000464916229,0.9999999403953552,3.4247223084094003e-06,-2.3020445496513275e-06,1.5600510039348592e-07,0.00026707007782533765,0.0002681128098629415,-0.0001044438686221838,-0.0017433085013180971,0.004212053492665291,-0.00012877491826657206,-0.23718976974487305,0.26979607343673706,1.2168035507202148,-1.9364843368530273,3.4409332275390625,-1.6193561553955078,0.3799694776535034,0.6931539177894592,0.42000001668930054,-1.186678171157837,2.2308690547943115,-0.20983466506004333,3.000000476837158,-0.006909104995429516,-0.013631789945065975,-0.020482687279582024,-0.02747005969285965,-0.24458545446395874,-0.35687124729156494,-0.46425461769104004,-0.5666872262954712
0.15,0.06813403964042664,0.08861492574214935,0.0,0.989521324634552,0.0,0.0,-0.1443866640329361,0.7361401319503784,0.4481145441532135,0.0,0.0,0.0,-2.721787452697754,-0.40851715207099915,0.6939720511436462,0.4200000464916229,1.0,3.7138524930924177e-06,-2.207856823588372e-06,-1.690766850970249e-07,0.000263533613178879,0.0002653617993928492,-0.00010421895422041416,-0.0017013129545375705,0.004144155420362949,-0.0001296056725550443,-0.27421072125434875,0.3228406608104706,1.1865434646606445,-2.163670301437378,3.3758187294006348,-2.0483133792877197,0.3799694776535034,0.6931539177894592,0.42000001668930054,-1.1443313360214233,2.7709920406341553,-0.24118679761886597,-2.999999523162842,-0.007065804209560156,-0.015838302671909332,-0.02463613823056221,-0.03346632793545723,0.012343517504632473,-0.09782298654317856,-0.20219272375106812,-0.3007519841194153
0.16666666666666666,0.07499528676271439,0.0954657644033432,0.0,0.9826121926307678,0.0,0.0,-0.18566980957984924,0.2868436872959137,0.3971528708934784,0.0,0.0,0.0,-5.785064220428467,-0.40851715207099915,0.6939720511436462,0.4200000464916229,0.9999999403953552,3.6382996313477634e-06,-2.278827423651819e-06,2.700894583540503e-07,0.00026682656607590616,0.0002674996212590486,-0.00010410207323729992,-0.001739894738420844,0.004210094455629587,-0.00012781668920069933,-0.30840814113616943,0.3835402727127075,1.1451764106750488,-1.8307254314422607,3.9182357788085938,-2.818509817123413,0.3799694776535034,0.6931539177894592,0.42000001668930054,-1.0950993299484253,2.9999961853027344,-0.20717716217041016,3.0,-0.014265168458223343,-0.02387377806007862,-0.03345831111073494,-0.0430314764380455,-0.6379393935203552,-0.657107949256897,-0.6745731234550476,-0.6908088326454163
0.18333333333333332,0.0761771872639656,0.10561627894639969,0.0,0.9681667685508728,0.0,0.0,-0.25030606985092163,0.05688844621181488,0.5624573230743408,0.0,0.0,0.0,-8.836832046508789,-0.40851715207099915,0.6939720511436462,0.4200000464916229,1.0,3.386368462088285e-06,-2.300295591339818e-06,1.4395122605037614e-07,0.00026674632681533694,0.000267872994299978,-0.00010436843149363995,-0.0017412762390449643,0.004206033889204264,-0.0001287875056732446,-0.33705389499664307,0.4526902437210083,1.0895806550979614,-1.484899878501892,4.459565162658691,-3.652042865753174,0.3799694776535034,0.6931539177894592,0.42000001668930054,-1.0482279062271118,2.614593505859375,-0.23858410120010376,-3.0,-0.028013622388243675,-0.037787582725286484,-0.047471269965171814,-0.05712078884243965,-0.6837698221206665,-0.7265306115150452,-0.760844886302948,-0.791774332523346
0.2,0.08229067921638489,0.1160377636551857,0.0,0.9550360441207886,0.0,0.0,-0.2964896559715271,0.36641964316368103,0.6776372194290161,0.0,0.0,0.0,-4.666287422180176,-0.40851715207099915,0.693972110748291,0.4200000464916229,1.0,3.675464540719986e-06,-2.3265372419700725e-06,2.211534564366957e-07,0.0002648438676260412,0.00026631305809132755,-0.00010421895422041416,-0.0017176724504679441,0.004169867839664221,-0.00012910064833704382,-0.365585595369339,0.5212267637252808,1.021092176437378,-1.4074944257736206,4.1796369552612305,-4.606969833374023,0.3799694776535034,0.6931539177894592,0.42000001668930054,-1.0011248588562012,2.9667623043060303,-0.2886107563972473,-3.0000007152557373,-0.038349833339452744,-0.04841791093349457,-0.0582817941904068,-0.0680716335773468,-0.8065338134765625,-0.7759562134742737,-0.7418878674507141,-0.7082381844520569
0.21666666666666667,0.08439421653747559,0.12419941276311874,0.0,0.9507686495780945,0.0,0.0,-0.309901624917984,0.08068952709436417,0.4195762574672699,0.0,0.0,0.0,-0.6499438881874084,-0.40851715207099915,0.6939720511436462,0.4200000464916229,1.0,3.322247721371241e-06,-2.207966417699936e-06,2.7429487658992e-07,0.00026662711752578616,0.0002674948482308537,-0.00010426202788949013,-0.001735763973556459,0.004204656928777695,-0.00012834012159146369,-0.3921261429786682,0.5788823366165161,0.9377663731575012,-1.3351776599884033,3.25184965133667,-5.378198146820068,0.3799694776535034,0.6931539177894592,0.42000001668930054,-0.9511160850524902,2.999998092651367,-0.3386392891407013,-3.000000476837158,-0.05348403379321098,-0.06312538683414459,-0.0723588839173317,-0.08155390620231628,-0.8404683470726013,-0.833511233329773,-0.832126259803772,-0.8324369788169861
0.23333333333333334,0.08251158893108368,0.1330241560935974,0.0,0.9424124360084534,0.0,0.0,-0.33445295691490173,-0.19066260755062103,0.5815121531486511,0.0,0.0,0.0,-3.920722246170044,-0.40851715207099915,0.6939720511436462,0.4200000464916229,1.0,3.6564260881277733e-06,-2.373456709392485e-06,-4.076544826148165e-07,0.0002661164617165923,0.00026725901989266276,-0.00010423315688967705,-0.0017335545271635056,0.004194728098809719,-0.00012855185195803642,-0.4121496081352234,0.6294894814491272,0.8412810564041138,-0.9593883156776428,2.731367826461792,-6.079166412353516,0.3799694776535034,0.6931539177894592,0.42000001668930054,-0.9011057615280151,3.0000007152557373,-0.3886699378490448,-2.999999523162842,-0.06957940012216568,-0.07929765433073044,-0.0883210226893425,-0.09729216992855072,-0.9896901845932007,-0.9916015863418579,-0.9893137812614441,-0.9789032340049744
0.25,0.08425026386976242,0.13746170699596405,0.0,0.9395860433578491,0.0,0.0,-0.34231290221214294,0.1264742612838745,0.17110101878643036,0.0,0.0,0.0,-0.027879783883690834,-0.40851715207099915,0.693972110748291,0.4200000464916229,1.0,3.6304663808550686e-06,-2.242617028969107e-06,1.1234231322987398e-08,0.00026679987786337733,0.0002670600370038301,-0.00010390859097242355,-0.0017342320643365383,0.004210509359836578,-0.00012702777166850865,-0.4289393126964569,0.665534496307373,0.7379562854766846,-0.7789223194122314,1.63789701461792,-6.353481292724609,0.3799694776535034,0.6931539177894592,0.42000001668930054,-0.8510951995849609,2.9999983310699463,-0.4387015998363495,-3.000000238418579,-0.08480579406023026,-0.09439313411712646,-0.1032390296459198,-0.11183488368988037,-0.9912351965904236,-0.9924870729446411,-0.9934816956520081,-0.968921422958374
0.26666666666666666,0.08053535968065262,0.14433671534061432,0.0,0.9311548471450806,0.0,0.0,-0.36462393403053284,-0.28308969736099243,0.5632257461547852,0.0,0.0,0.0,-3.7100746631622314,-0.40851712226867676,0.6939720511436462,0.4200000464916229,0.9999999403953552,3.7400714063551277e-06,-2.2362910385709256e-06,4.4999521264799114e-07,0.000264796573901549,0.00026673043612390757,-0.00010454049333930016,-0.0017189934151247144,0.004166724160313606,-0.0001301671436522156,-0.43424081802368164,0.6823338270187378,0.6319363117218018,0.14525164663791656,0.462026447057724,-6.104437828063965,0.3799694776535034,0.6931539177894592,0.42000001668930054,-0.8010861277580261,3.0000014305114746,-0.4887327253818512,-2.9999821186065674,-0.1029253602027893,-0.11213817447423935,-0.12070068717002869,-0.12907525897026062,-0.9533011317253113,-0.963440477848053,-0.9739145040512085,-0.9836412668228149
0.2833333333333333,0.08069604635238647,0.14723311364650726,0.0,0.9286430478096008,0.0,0.0,-0.3709745705127716,0.03444644808769226,0.0619322806596756,0.0,0.0,0.0,0.0531822107732296,-0.40851715207099915,0.6939720511436462,0.4200000464916229,1.0,3.391595782886725e-06,-2.2910930965736043e-06,1.2462022880299628e-07,0.0002667723165359348,0.00026789327966980636,-0.00010437355376780033,-0.0017412476008757949,0.004206296522170305,-0.00012878577399533242,-0.433330774307251,0.6869088411331177,0.5332062244415283,0.2636464536190033,-0.03056418150663376,-5.756919860839844,0.3799694776535034,0.6931539177894592,0.42000001668930054,-0.7510773539543152,2.9999918937683105,-0.5387626886367798,-2.9999992847442627,-0.11713673919439316,-0.12652640044689178,-0.13527865707874298,-0.14366135001182556,-0.9956362843513489,-0.9968494176864624,-0.9912287592887878,-0.962163507938385
0.3,0.07747311145067215,0.14710387587547302,0.0,0.9318155646324158,0.0,0.0,-0.36293211579322815,-0.2731510400772095,-0.035290710628032684,0.0,0.0,0.0,1.6116782426834106,-0.40851715207099915,0.693972110748291,0.4200000464916229,1.0,3.680656618598732e-06,-2.3190602860267973e-06,2.011123285683425e-07,0.00026479075313545763,0.0002662576735019684,-0.00010421290062367916,-0.0017168199410662055,0.004168981220573187,-0.00012909970246255398,-0.42505550384521484,0.6882678270339966,0.442372590303421,0.7632092237472534,0.12089470773935318,-5.0165839195251465,0.3799694776535034,0.6931539177894592,0.42000001668930054,-0.7010694742202759,2.999997854232788,-0.5887903571128845,-3.0000030994415283,-0.1349460929632187,-0.1440829336643219,-0.1526481658220291,-0.16088679432868958,-1.0210353136062622,-1.015967607498169,-1.012094259262085,-1.008979320526123
0.31666666666666665,0.07237577438354492,0.1443355828523636,0.0,0.928467869758606,0.0,0.0,-0.3714126646518707,-0.35043272376060486,-0.21174044907093048,0.0,0.0,0.0,-1.9288491010665894,-0.4093930423259735,0.6916565299034119,0.4206557869911194,0.9989607334136963,0.004149428568780422,-0.01230521872639656,-0.04369017109274864,0.0044905696995556355,0.009175938554108143,-0.03994854539632797,-0.8785943984985352,1.099333643913269,1.2391437292099,-0.41944506764411926,0.689771294593811,0.41570428013801575,0.2030627727508545,0.21841001510620117,0.01086120679974556,0.3799694776535034,0.6931539177894592,0.42000001668930054,-0.6512553095817566,2.9554622173309326,-0.6393131613731384,-2.8305721282958984,-0.1420144885778427,-0.15177039802074432,-0.1607898324728012,-0.16925127804279327,-0.212746262550354,-0.2461908906698227,-0.2570713758468628,-0.23953233659267426
0.3333333333333333,0.06505368649959564,0.1391775906085968,0.0,0.9311901330947876,0.0,0.0,-0.3645338714122772,-0.48284730315208435,-0.3485132157802582,0.0,0.0,0.0,1.7727067470550537,-0.4090447425842285,0.6918585896492004,0.4200000464916229,0.9991053342819214,3.4348337862866174e-07,-3.6268410497086734e-08,-0.042290009558200836,0.017781060189008713,0.004927746020257473,-1.016946043819189e-05,-0.0004947002744302154,-9.30233218241483e-05,-0.14844848215579987,-0.41810888051986694,0.6979570388793945,0.4257696568965912,0.23185326159000397,0.6441610455513,-0.1406209021806717,0.3799694776535034,0.6931539177894592,0.42000001668930054,-0.6012475490570068,2.99997878074646,-0.6893620491027832,-2.9998726844787598,-0.14569158852100372,-0.15541872382164001,-0.16406893730163574,-0.17173880338668823,-0.3456094563007355,-0.3045400083065033,-0.25036805868148804,-0.17923764884471893
0.35,0.05543677881360054,0.13168203830718994,0.0,0.9281049966812134,0.0,0.0,-0.37231865525245667,-0.6211298704147339,-0.4914758503437042,0.0,0.0,0.0,-1.916944146156311,-0.4055773913860321,0.6975390315055847,0.4204058051109314,0.9913951754570007,0.010104456916451454,-0.0014588627964258194,-0.130504310131073,0.25067034363746643,0.3811779022216797,-0.03506757318973541,-1.932545781135559,0.6000614762306213,2.821000814437866,-0.4133906364440918,0.7041616439819336,0.42336100339889526,0.40405410528182983,0.3446331024169922,-0.15233114361763,0.3799694776535034,0.6931539177894592,0.42000001668930054,-0.5512427091598511,2.999998092651367,-0.7394101023674011,-2.999845027923584,-0.1526561975479126,-0.16122426092624664,-0.16850081086158752,-0.17453479766845703,-0.45729318261146545,-0.3623250722885132,-0.2568158507347107,-0.13870809972286224
0.36666666666666664,0.04360894486308098,0.12191341072320938,0.0,0.9309312701225281,0.0,0.0,-0.3651944398880005,-0.7501741647720337,-0.624528169631958,0.0,0.0,0.0,1.846097469329834,-0.3987698256969452,0.7080750465393066,0.42000070214271545,0.9882196187973022,-5.509606853593141e-05,2.9201755751273595e-05,-0.15304237604141235,0.5243105292320251,0.7256070971488953,-0.0025705492589622736,0.12699925899505615,-0.04538966342806816,-5.127063751220703,-0.4057026505470276,0.7126590609550476,0.421150803565979,0.5485213994979858,0.6745641231536865,-0.09423719346523285,0.3799694776535034,0.6931539177894592,0.42000001668930054,-0.5012378096580505,2.999983310699463,-0.7894493937492371,-2.999952793121338,-0.16102781891822815,-0.16755738854408264,-0.1726011335849762,-0.17619124054908752,-0.4815331697463989,-0.34762173891067505,-0.2017434984445572,-0.04335196688771248
0.3833333333333333,0.034718289971351624,0.10949638485908508,0.0,0.9280270338058472,0.0,0.0,-0.3725128471851349,-0.41088083386421204,-0.7972159385681152,0.0,0.0,0.0,-1.845794677734375,-0.3895646929740906,0.7204343676567078,0.4200022518634796,0.9821022152900696,5.236825381871313e-05,7.011124398559332e-05,-0.18834848701953888,0.6631489396095276,0.8495103716850281,-0.0020149664487689734,-0.03690493851900101,-0.04880096763372421,-4.731537818908691,-0.39421847462654114,0.7234014868736267,0.42046332359313965,0.8518907427787781,0.7108485698699951,-0.02353018894791603,0.3799694776535034,0.6931539177894592,0.42000001668930054,-0.4512339234352112,2.999992847442627,-0.8395006656646729,-2.9999964237213135,-0.16890722513198853,-0.17283020913600922,-0.17501455545425415,-0.17550252377986908,-0.4197459816932678,-0.2526342570781708,-0.06959794461727142,0.12816856801509857
0.4,0.02399311028420925,0.09542401880025864,0.0,0.9132433533668518,0.0,0.0,-0.4074145257472992,-0.7286745309829712,-0.8687013387680054,0.0,0.0,0.0,-5.488358497619629,-0.37236839532852173,0.7374638319015503,0.42150935530662537,0.9711561799049377,-0.016723113134503365,-0.0105745205655694,-0.2376219481229782,1.4592832326889038,1.2429041862487793,-0.11591669172048569,33.445823669433594,-15.186086654663086,4.606957912445068,-0.37582457065582275,0.740273654460907,0.42187684774398804,1.3813546895980835,1.2766883373260498,0.2331450879573822,0.3799694776535034,0.6931539177894592,0.42000001668930054,-0.4040531814098358,2.0976343154907227,-0.8895208835601807,-3.000001907348633,-0.17775648832321167,-0.17857050895690918,-0.17737604677677155,-0.17425225675106049,-0.5216132402420044,-0.3374291658401489,-0.13815724849700928,0.07369282841682434
0.4166666666666667,0.016390934586524963,0.07842978090047836,0.0,0.8843919634819031,0.0,0.0,-0.4667450189590454,-0.4170991778373718,-1.0620847940444946,0.0,0.0,0.0,-8.681424140930176,-0.3376460671424866,0.7641100287437439,0.4254741966724396,0.9525521993637085,-0.006211490370333195,-0.04106568545103073,-0.30152833461761475,3.192366600036621,1.2460533380508423,0.5527799725532532,7.347710609436035,-7.018210411071777,26.401405334472656,-0.3406175971031189,0.7665615677833557,0.42562469840049744,2.86426043510437,1.9437706470489502,0.4625757336616516,0.3799694776535034,0.6931539177894592,0.42000001668930054,-0.382646381855011,1.0003941059112549,-0.9395294189453125,-3.000006914138794,-0.1863533854484558,-0.18382024765014648,-0.1790585219860077,-0.17220860719680786,-0.6380588412284851,-0.3937661945819855,-0.14030689001083374,0.11689533293247223
0.43333333333333335,0.010860102251172066,0.06653223931789398,0.0,0.8387809991836548,0.0,0.0,-0.5444689989089966,-0.28502950072288513,-0.5910926461219788,0.0,0.0,0.0,-11.596028327941895,-0.2649710178375244,0.8002923727035522,0.432645708322525,0.9300734996795654,0.04985176771879196,-0.0799003317952156,-0.35509729385375977,5.845623016357422,1.959049105644226,0.5221038460731506,18.012876510620117,-16.118236541748047,26.202505111694336,-0.26770931482315063,0.8031333088874817,0.43282410502433777,5.593979835510254,2.637968063354492,0.5823095440864563,0.3799694776535034,0.6931539177894592,0.42000001668930054,-0.3653757572174072,1.029992699623108,-0.902310311794281,2.9950711727142334,-0.20197050273418427,-0.19598375260829926,-0.18584318459033966,-0.17391277849674225,-0.9055392742156982,-0.8199188113212585,-0.5040500164031982,-0.216880202293396
0.45,0.008692741394042969,0.057690855115652084,0.0,0.8013807535171509,0.0,0.0,-0.5981545448303223,-0.05432313308119774,-0.49540141224861145,0.0,0.0,0.0,-6.675256729125977,-0.17258141934871674,0.8387588262557983,0.4440108835697174,0.8872947692871094,0.08649900555610657,-0.09944958984851837,-0.4419679045677185,5.862375736236572,1.4709774255752563,0.9296080470085144,-2.1997740268707275,0.23860234022140503,1.3997875452041626,-0.17555314302444458,0.843142032623291,0.44417646527290344,5.6976470947265625,2.0734357833862305,0.7317099571228027,0.3799694776535034,0.6931539177894592,0.42000001668930054,-0.34750646352767944,1.0948455333709717,-0.9282472729682922,-2.999999761581421,-0.2126680314540863,-0.2076592594385147,-0.19350022077560425,-0.1779281497001648,-0.5774876475334167,-0.612646758556366,-0.41273534297943115,-0.23846463859081268
0.4666666666666667,0.004897319711744785,0.049618199467659,0.0,0.7828276753425598,0.0,0.0,-0.6222385764122009,-0.19864273071289062,-0.5227341055870056,0.0,0.0,0.0,-2.4008307456970215,-0.07613062858581543,0.8622922301292419,0.4570837914943695,0.8234841823577881,0.09050954133272171,-0.09382304549217224,-0.552158534526825,5.8689799308776855,0.028374597430229187,0.6992488503456116,-8.22079086303711,-17.881643295288086,18.316879272460938,-0.07943054288625717,0.867339015007019,0.45660334825515747,5.983323097229004,0.9561988115310669,0.8621573448181152,0.3799694776535034,0.6931539177894592,0.42000001668930054,-0.3290643095970154,0.963313102722168,-0.9782712459564209,-3.0000030994415283,-0.22396807372570038,-0.21789272129535675,-0.19976668059825897,-0.18071360886096954,-0.585824191570282,-0.49216488003730774,-0.2699887156486511,-0.07126660645008087
0.48333333333333334,-0.0002668610541149974,0.038741037249565125,0.0,0.7564092874526978,0.0,0.0,-0.654098629951477,-0.3407113552093506,-0.5703634023666382,0.0,0.0,0.0,-5.819401741027832,0.02285047620534897,0.8659890294075012,0.4657897651195526,0.7360373139381409,0.07356791943311691,-0.11043094098567963,-0.6638084650039673,5.735197067260742,-0.9551196098327637,0.3254315257072449,-21.420866012573242,1.761349081993103,-1.6574599742889404,0.017620079219341278,0.873388409614563,0.4667472243309021,5.918776035308838,-0.3681168556213379,0.6239025592803955,0.3799694776535034,0.6931539177894592,0.42000001668930054,-0.3147720992565155,0.6802459955215454,-1.028294324874878,-2.999993085861206,-0.2313859462738037,-0.22330738604068756,-0.20171424746513367,-0.17947807908058167,-0.6590325832366943,-0.4390971064567566,-0.17561766505241394,0.06537745893001556
0.5,-0.0034238763619214296,0.032355230301618576,0.0,0.7432893514633179,0.0,0.0,-0.6689700484275818,-0.12884081900119781,-0.30092722177505493,0.0,0.0,0.0,-1.189962387084961,0.11357700824737549,0.8514419198036194,0.47122636437416077,0.6722021698951721,0.04014115780591965,-0.09855052083730698,-0.7326803803443909,5.101687908172607,-1.5373704433441162,0.22719117999076843,2.2808291912078857,-5.801870346069336,-3.114400863647461,0.10905145108699799,0.8603910207748413,0.4727897047996521,5.140496253967285,-1.2330867052078247,0.23569780588150024,0.3799694776535034,0.6931539177894592,0.42000001668930054,-0.30374816060066223,0.6939395070075989,-1.0783164501190186,-3.0000016689300537,-0.23997762799263,-0.23002071678638458,-0.20474673807621002,-0.17923350632190704,-0.006271810736507177,-0.37293529510498047,-0.19990041851997375,-0.05149422213435173
0.5166666666666666,-0.003022128250449896,0.023856528103351593,0.0,0.7231128215789795,0.0,0.0,-0.6907299757003784,0.08037140220403671,-0.56102055311203,0.0,0.0,0.0,-4.388585567474365,0.1924033910036087,0.8286279439926147,0.4695810377597809,0.6178974509239197,0.01275232620537281,-0.08260610699653625,-0.7818032503128052,4.48899507522583,-1.7404594421386719,-0.3193468153476715,-2.9633028507232666,-4.719858646392822,-6.115023612976074,0.18934249877929688,0.8369322419166565,0.471760094165802,4.461946487426758,-1.719430685043335,-0.23210537433624268,0.3799694776535034,0.6931539177894592,0.42000001668930054,-0.28916382789611816,0.9300258159637451,-1.1283385753631592,-3.0000016689300537,-0.2386457324028015,-0.23352853953838348,-0.20616251230239868,-0.17893248796463013,0.11449766904115677,-0.10401897132396698,-0.016902772709727287,0.04890431463718414
0.5333333333333333,0.00012494267139118165,0.019224608317017555,0.0,0.7153458595275879,0.0,0.0,-0.6987705230712891,0.21845795214176178,-0.24391810595989227,0.0,0.0,0.0,-0.3073950707912445,0.2592131495475769,0.7969816327095032,0.46266305446624756,0.5667757987976074,-0.017918409779667854,-0.06568509340286255,-0.8210539221763611,3.6423048973083496,-2.142957925796509,-0.5508403778076172,-2.348266124725342,-3.696674346923828,-5.4312214851379395,0.25669217109680176,0.8042640089988708,0.4652475118637085,3.6337368488311768,-2.086344003677368,-0.519010066986084,0.3799694776535034,0.6931539177894592,0.42000001668930054,-0.2732345163822174,0.8852179646492004,-1.1783607006072998,-3.0000007152557373,-0.23885230720043182,-0.23596039414405823,-0.20749875903129578,-0.1795862913131714,0.16045936942100525,0.03127751126885414,0.01773117296397686,-0.013039261102676392
0.55,0.005205240566283464,0.01744673028588295,0.0,0.6996835470199585,0.0,0.0,-0.7144529223442078,0.37871965765953064,-0.02502177096903324,0.0,0.0,0.0,-3.5186710357666016,0.3136856257915497,0.7649829983711243,0.44830626249313354,0.5373322367668152,-0.05314195528626442,-0.05105917155742645,-0.8401445150375366,2.684433698654175,-2.0320980548858643,-1.0209753513336182,-1.399642825126648,6.950994491577148,7.600559234619141,0.31199413537979126,0.7720096111297607,0.45145171880722046,3.0166025161743164,-1.9069292545318604,-0.9897242784500122,0.3799694776535034,0.6931539177894592,0.42000001668930054,-0.25901398062705994,0.9046322703361511,-1.2283828258514404,-2.999990463256836,-0.2340146005153656,-0.23349151015281677,-0.20664040744304657,-0.18044413626194,0.3801620602607727,0.24374838173389435,0.08905115723609924,-0.06664029508829117
0.5666666666666667,0.00902282539755106,0.011548392474651337,0.0,0.6961621642112732,0.0,0.0,-0.7178845405578613,0.17360498011112213,-0.2806229889392853,0.0,0.0,0.0,0.3694134056568146,0.3556128144264221,0.7341174483299255,0.43013688921928406,0.5039583444595337,-0.07879883795976639,-0.042304739356040955,-0.8590849041938782,1.912575125694275,-2.336735725402832,-0.9564999938011169,2.4242446422576904,-1.1651690006256104,6.03938627243042,0.35360342264175415,0.7402665615081787,0.433599054813385,1.9609838724136353,-2.002964973449707,-1.10103440284729,0.3799694776535034,0.6931539177894592,0.42000001668930054,-0.24860826134681702,0.39243969321250916,-1.2306944131851196,2.2660458087921143,-0.22356665134429932,-0.22524061799049377,-0.20185288786888123,-0.17910775542259216,0.414509117603302,0.3531404733657837,0.1630735993385315,-0.03224542737007141
0.5833333333333334,0.014600208960473537,0.010838773101568222,0.0,0.6832809448242188,0.0,0.0,-0.7301555871963501,0.3402571976184845,-0.029945412650704384,0.0,0.0,0.0,-2.8738999366760254,0.37859225273132324,0.7129294276237488,0.42461714148521423,0.5110911726951599,-0.09122228622436523,-0.025460759177803993,-0.8542927503585815,0.8913166522979736,-0.7795892953872681,0.26837530732154846,11.639226913452148,9.021364212036133,1.406661868095398,0.3765207529067993,0.7187644839286804,0.42858439683914185,0.9703078269958496,-0.8056086301803589,0.11226031929254532,0.3799694776535034,0.6931539177894592,0.42000001668930054,-0.23729000985622406,0.967772364616394,-1.2573517560958862,-2.9925501346588135,-0.21640364825725555,-0.21953184902668,-0.20012226700782776,-0.1811933070421219,0.6189076900482178,0.4894208014011383,0.19035932421684265,-0.08681613206863403
0.6,0.021809233352541924,0.0056199077516794205,0.0,0.6832317113876343,0.0,0.0,-0.7302016019821167,0.4707518517971039,-0.2705834209918976,0.0,0.0,0.0,0.8687140345573425,0.3916586935520172,0.7005566954612732,0.4234236776828766,0.5268365740776062,-0.07105974853038788,-0.021191753447055817,-0.8467258214950562,0.4591245651245117,-0.8161560893058777,-0.03550281748175621,1.300882339477539,-1.143099308013916,6.537370681762695,0.3883811831474304,0.7054637670516968,0.42761707305908203,0.386513888835907,-0.7595282793045044,-0.031862515956163406,0.3799694776535034,0.6931539177894592,0.42000001668930054,-0.24007254838943481,-0.80179363489151,-1.2192898988723755,3.0,-0.2034757137298584,-0.20864875614643097,-0.19445963203907013,-0.1803830862045288,0.5884460806846619,0.5232923626899719,0.2497299313545227,-0.006341725122183561
0.6166666666666667,0.02694927528500557,0.00490822596475482,0.0,0.672924816608429,0.0,0.0,-0.7397108674049377,0.24228499829769135,-0.03157233074307442,0.0,0.0,0.0,-2.5002565383911133,0.39516544342041016,0.6907857060432434,0.42240479588508606,0.5575256943702698,-0.04811139777302742,-0.015945876017212868,-0.8286109566688538,0.08760867267847061,-0.4468156397342682,-0.05498944967985153,1.409579873085022,-1.4937678575515747,4.368806838989258,0.39161401987075806,0.6970514059066772,0.4283874034881592,0.07811332494020462,-0.3148919343948364,0.1353985071182251,0.3799694776535034,0.6931539177894592,0.42000001668930054,-0.2704697251319885,-2.674614191055298,-1.2400398254394531,-2.9994449615478516,-0.19513246417045593,-0.20125547051429749,-0.19153422117233276,-0.18157260119915009,0.5848273634910583,0.5118882060050964,0.22867603600025177,-0.0291933361440897
0.6333333333333333,0.03225744143128395,0.006894773803651333,0.0,0.6755675673484802,0.0,0.0,-0.7372980713844299,0.3540518879890442,0.17639392614364624,0.0,0.0,0.0,1.3013654947280884,0.394928902387619,0.685759425163269,0.4219561219215393,0.5779207348823547,-0.03785316273570061,-0.011763786897063255,-0.8151296377182007,-0.06104917451739311,-0.11852602660655975,0.12200752645730972,-1.3603956699371338,4.632791042327881,1.587856650352478,0.39192044734954834,0.6935768127441406,0.4303457736968994,-0.012036779895424843,-0.0783030316233635,0.10443436354398727,0.3799694776535034,0.6931539177894592,0.42000001668930054,-0.29784712195396423,-0.7713221311569214,-1.2900111675262451,-2.997807741165161,-0.18602323532104492,-0.19328342378139496,-0.18810203671455383,-0.18222196400165558,0.5465962290763855,0.48256683349609375,0.21933630108833313,-0.01704510673880577
0.65,0.03973442316055298,0.004405613988637924,0.0,0.6668906807899475,0.0,0.0,-0.7451555728912354,0.4330439269542694,-0.19174820184707642,0.0,0.0,0.0,-2.30307674407959,0.3941218852996826,0.6850305795669556,0.422155499458313,0.5975909233093262,-0.039661768823862076,-0.0012104016495868564,-0.8008185625076294,-0.15439020097255707,-0.012999959290027618,0.005370155908167362,0.7112013101577759,0.5906906723976135,2.880642890930176,0.38995009660720825,0.6957712173461914,0.4298021197319031,-0.2630716860294342,0.2146224081516266,-0.02431706339120865,0.3799694776535034,0.6931539177894592,0.42000001668930054,-0.3375137746334076,-2.999857187271118,-1.2518107891082764,2.9998552799224854,-0.17277894914150238,-0.18172483146190643,-0.18142297863960266,-0.17994137108325958,0.7303704619407654,0.6584543585777283,0.39786553382873535,0.16094714403152466
0.6666666666666666,0.04956788197159767,0.006123556289821863,0.0,0.6700443029403687,0.0,0.0,-0.7423210740089417,0.6046552062034607,0.1039188951253891,0.0,0.0,0.0,1.361730694770813,0.39151203632354736,0.6849180459976196,0.4207153022289276,0.6126093864440918,-0.013479641638696194,-0.006314386148005724,-0.7902456521987915,-0.16495993733406067,0.0015041993465274572,-0.11562099307775497,1.5901299715042114,-4.012890815734863,1.9408886432647705,0.38675975799560547,0.6990594863891602,0.43106502294540405,-0.09301882982254028,0.3282735347747803,0.1159880980849266,0.3799694776535034,0.6931539177894592,0.42000001668930054,-0.3875347375869751,-2.9994406700134277,-1.2723441123962402,-2.9999427795410156,-0.16552121937274933,-0.17502689361572266,-0.17825737595558167,-0.1800297200679779,0.48309168219566345,0.42047417163848877,0.19502229988574982,-0.013560090214014053
0.6833333333333333,0.05662747845053673,0.003968019969761372,0.0,0.6930373907089233,0.0,0.0,-0.7209016680717468,0.36366966366767883,-0.1990986317396164,0.0,0.0,0.0,4.527586936950684,0.3901355266571045,0.6844795346260071,0.4200001060962677,0.6165488362312317,-1.0324130016670097e-05,6.366865363816032e-06,-0.787316620349884,-0.03924749791622162,-0.018536005169153214,-0.0005235719727352262,-0.003975450061261654,-0.023310983553528786,0.4878351092338562,0.38445383310317993,0.7020736932754517,0.43329429626464844,-0.19182591140270233,0.13063834607601166,0.1720035970211029,0.3799694776535034,0.6931539177894592,0.42000001668930054,-0.43755537271499634,-2.9996917247772217,-1.322325348854065,-2.999472141265869,-0.159490168094635,-0.16898024082183838,-0.1746158003807068,-0.1785537749528885,0.2642792761325836,0.31091949343681335,0.22857289016246796,0.15837061405181885
0.7,0.06435957551002502,-0.0016754554817453027,0.0,0.7009931206703186,0.0,0.0,-0.7131680250167847,0.4979328513145447,-0.3928336501121521,0.0,0.0,0.0,0.29910603165626526,0.3884081542491913,0.6849806904792786,0.420188844203949,0.6022233366966248,0.002856954699382186,-0.003786215092986822,-0.798313558101654,-0.08882454037666321,0.02162627875804901,0.0005963275907561183,-0.007682921830564737,-0.029350521042943,-1.723514437675476,0.3829764127731323,0.7050337195396423,0.4373576045036316,-0.11871665716171265,0.15323585271835327,0.2911437153816223,0.3799694776535034,0.6931539177894592,0.42000001668930054,-0.487554132938385,-2.998997449874878,-1.372307300567627,-2.99996018409729,-0.15683110058307648,-0.1647341251373291,-0.17054599523544312,-0.17439799010753632,0.1121838167309761,0.24440965056419373,0.28977328538894653,0.3520631194114685
0.7166666666666667,0.07401696592569351,-0.010434710420668125,0.0,0.6876596212387085,0.0,0.0,-0.7260332703590393,0.6176489591598511,-0.5913959741592407,0.0,0.0,0.0,-3.0877058506011963,0.3877629339694977,0.6851107478141785,0.42000001668930054,0.5978325009346008,4.531911770300212e-07,-1.2680970939982217e-06,-0.8016210198402405,-0.012926588766276836,0.0019173645414412022,-1.60514609888196e-05,0.0014622343005612493,0.0005429078009910882,-0.16140995919704437,0.38506364822387695,0.7095339894294739,0.44924724102020264,0.3504139184951782,0.3311351239681244,1.2397868633270264,0.3799694776535034,0.6931539177894592,0.42000001668930054,-0.5375668406486511,-2.9999825954437256,-1.4223254919052124,-2.9999990463256836,-0.1574518382549286,-0.162936732172966,-0.16751186549663544,-0.16987645626068115,-0.11775749921798706,0.03529869765043259,0.131069615483284,0.2395222783088684
0.7333333333333333,0.08743991702795029,-0.013465766794979572,0.0,0.65241539478302,0.0,0.0,-0.7578615546226501,0.8805940747261047,-0.045225437730550766,0.0,0.0,0.0,-6.7166290283203125,0.3877626955509186,0.6851109266281128,0.4200000464916229,0.5978326201438904,6.581913112313487e-07,-3.047204472750309e-06,-0.8016209006309509,0.00017952524649444968,-0.0002656991418916732,-8.812826126813889e-05,0.005836131051182747,-6.471763481386006e-05,-0.0007055064779706299,0.40046805143356323,0.7087944746017456,0.4755866825580597,1.558114767074585,-0.35358402132987976,2.0481672286987305,0.3799694776535034,0.6931539177894592,0.42000001668930054,-0.5875784754753113,-2.9997334480285645,-1.4723438024520874,-2.9999630451202393,-0.16848763823509216,-0.16970868408679962,-0.17086030542850494,-0.16976916790008545,-0.8545545935630798,-0.5605504512786865,-0.3077232539653778,-0.058012209832668304
0.75,0.0977649986743927,-0.011465673334896564,0.0,0.629752516746521,0.0,0.0,-0.7767958641052246,0.5383913516998291,-0.08361475169658661,0.0,0.0,0.0,-2.075192451477051,0.3877626955509186,0.6851109266281128,0.4200000464916229,0.5978327393531799,4.462490608148073e-07,-3.1468439374293666e-06,-0.8016208410263062,0.00013098651834297925,-0.00027407711604610085,-9.395787492394447e-05,0.006191217340528965,-0.0011708101956173778,-0.000641518272459507,0.42334169149398804,0.7059856653213501,0.5109121799468994,1.379929780960083,0.05164257064461708,2.130049228668213,0.3799694776535034,0.6931539177894592,0.42000001668930054,-0.606927752494812,0.39307650923728943,-1.5223621129989624,-3.0000007152557373,-0.17987672984600067,-0.17805463075637817,-0.17589260637760162,-0.1716119945049286,-0.21739837527275085,-0.17125900089740753,-0.09933318942785263,-0.02719179168343544
0.7666666666666666,0.10340545326471329,-0.010768064297735691,0.0,0.6344842314720154,0.0,0.0,-0.7729358077049255,0.26728662848472595,0.08968714624643326,0.0,0.0,0.0,1.578987956047058,0.3877626955509186,0.6851109266281128,0.4200000464916229,0.5978327989578247,4.014360968085384e-07,-3.2734856176830363e-06,-0.8016207218170166,0.00012985581997781992,-0.0002746888785623014,-9.361677803099155e-05,0.006213064771145582,-0.0011851981980726123,-0.0006394156953319907,0.44322049617767334,0.7074652910232544,0.5397216081619263,0.9214814901351929,0.12674888968467712,1.4114480018615723,0.3799694776535034,0.6931539177894592,0.42000001668930054,-0.5784751772880554,2.7875566482543945,-1.4852213859558105,2.999999523162842,-0.18195486068725586,-0.17958463728427887,-0.1764753758907318,-0.17128312587738037,-0.02359410747885704,-0.004701363854110241,0.034610189497470856,0.0687282457947731
0.7833333333333333,0.10477495938539505,-0.014835850335657597,0.0,0.6274741291999817,0.0,0.0,-0.7786374092102051,0.12413325160741806,-0.2697017192840576,0.0,0.0,0.0,-1.8201606273651123,0.3877626955509186,0.6851109266281128,0.4200000464916229,0.597832977771759,4.2216123574689846e-07,-3.0399623938137665e-06,-0.8016207218170166,0.00013040276826359332,-0.0002746543032117188,-9.374995715916157e-05,0.006209406070411205,-0.0011784792877733707,-0.0006405955646187067,0.45177966356277466,0.7113940715789795,0.556726336479187,0.04432203248143196,0.11619225144386292,0.7534643411636353,0.3799694776535034,0.6931539177894592,0.42000001668930054,-0.5393956303596497,1.9445914030075073,-1.4351682662963867,2.999999523162842,-0.17750050127506256,-0.17553794384002686,-0.17253434658050537,-0.16753996908664703,0.11026724427938461,0.12773603200912476,0.15499813854694366,0.16821275651454926
0.8,0.1042846217751503,-0.013505184091627598,0.0,0.6331630349159241,0.0,0.0,-0.7740184664726257,-0.06431503593921661,0.10017801821231842,0.0,0.0,0.0,1.6267421245574951,0.3877626955509186,0.6851109266281128,0.4200000464916229,0.5978329181671143,4.341667363405577e-07,-3.161748054480995e-06,-0.8016207218170166,0.0001300722942687571,-0.00027462150319479406,-9.366334415972233e-05,0.006210292689502239,-0.001182135078124702,-0.0006398186669684947,0.4490402340888977,0.7121597528457642,0.5671889781951904,-0.2497524917125702,0.13358628749847412,0.5154858827590942,0.3799694776535034,0.6931539177894592,0.42000001668930054,-0.49632060527801514,3.000000238418579,-1.3851690292358398,2.999999761581421,-0.17976611852645874,-0.17676271498203278,-0.17269267141819,-0.16699844598770142,-0.005368306301534176,0.016969967633485794,0.04113197326660156,0.045831404626369476
0.8166666666666667,0.10155725479125977,-0.01562425121665001,0.0,0.6267180442810059,0.0,0.0,-0.7792460918426514,-0.22931784391403198,-0.08756598085165024,0.0,0.0,0.0,-1.7589315176010132,0.3877626955509186,0.6851109266281128,0.4200000464916229,0.5978328585624695,4.35259437381319e-07,-2.9143941446818644e-06,-0.8016207218170166,0.00013108240091241896,-0.00027497310657054186,-9.386963210999966e-05,0.006213328801095486,-0.0011712550185620785,-0.0006422839942388237,0.4390609860420227,0.7137309312820435,0.5698906183242798,-1.0117859840393066,0.00978463888168335,-0.023385778069496155,0.3799694776535034,0.6931539177894592,0.42000001668930054,-0.4747724235057831,-0.1604636162519455,-1.3351163864135742,3.000000238418579,-0.17838303744792938,-0.17518556118011475,-0.1709018051624298,-0.16529643535614014,-0.04401713237166405,-0.0018378288950771093,0.037738949060440063,0.056234169751405716
0.8333333333333334,0.10075344145298004,-0.013155605643987656,0.0,0.6326407194137573,0.0,0.0,-0.7744454145431519,0.0005744529771618545,0.13277192413806915,0.0,0.0,0.0,1.5863113403320312,0.3877626955509186,0.6851109266281128,0.4200000464916229,0.597832977771759,4.766305892189848e-07,-3.0438236535701435e-06,-0.8016207218170166,0.0001312489912379533,-0.0002743807854130864,-9.398767724633217e-05,0.006197725888341665,-0.0011681212345138192,-0.0006423006416298449,0.4265638589859009,0.7137646675109863,0.569165825843811,-0.4587574601173401,0.11020305007696152,-0.02700364589691162,0.3799694776535034,0.6931539177894592,0.42000001668930054,-0.47161367535591125,0.4820195436477661,-1.3543956279754639,-2.999999761581421,-0.18027381598949432,-0.1763472706079483,-0.17129863798618317,-0.16517697274684906,0.061856552958488464,0.05902184545993805,0.06634990870952606,0.06918468326330185
0.85,0.10230636596679688,-0.014941356144845486,0.0,0.6258785128593445,0.0,0.0,-0.7799205780029297,0.1224663183093071,-0.1352294236421585,0.0,0.0,0.0,-1.9240330457687378,0.3877626955509186,0.6851109266281128,0.4200000464916229,0.5978329181671143,4.5411263727146434e-07,-3.165843281749403e-06,-0.8016207218170166,0.00013016571756452322,-0.0002745396632235497,-9.368779137730598e-05,0.006207791157066822,-0.0011806219117715955,-0.0006399592966772616,0.4216635227203369,0.7150812149047852,0.5648707151412964,-0.17515626549720764,-0.02111833542585373,-0.30861562490463257,0.3799694776535034,0.6931539177894592,0.42000001668930054,-0.5029085874557495,-3.000000476837158,-1.316077709197998,2.999999761581421,-0.17713986337184906,-0.17358432710170746,-0.16869042813777924,-0.16271227598190308,0.12412001192569733,0.12590639293193817,0.13868606090545654,0.15143005549907684
0.8666666666666667,0.10624101758003235,-0.01409539021551609,0.0,0.627460777759552,0.0,0.0,-0.7786481380462646,0.26225197315216064,0.10516072064638138,0.0,0.0,0.0,1.3184545040130615,0.3877626955509186,0.6851109266281128,0.4200000464916229,0.5978328585624695,4.5513755253523414e-07,-2.91868309432175e-06,-0.8016207218170166,0.00013102957746014,-0.00027492508525028825,-9.385845623910427e-05,0.0062125371769070625,-0.0011716048466041684,-0.0006421172874979675,0.42228925228118896,0.713957667350769,0.5633218884468079,0.23306478559970856,-0.06871423125267029,0.16569893062114716,0.3799694776535034,0.6931539177894592,0.42000001668930054,-0.551643967628479,-2.8233306407928467,-1.3357019424438477,-2.9999988079071045,-0.17630359530448914,-0.17263859510421753,-0.16740575432777405,-0.16102051734924316,0.08799569308757782,0.08323083817958832,0.09477327018976212,0.1145416721701622
0.8833333333333333,0.11178188025951385,-0.015880387276411057,0.0,0.6190003156661987,0.0,0.0,-0.7853907346725464,0.3660930097103119,-0.15505419671535492,0.0,0.0,0.0,-2.1901636123657227,0.3877626955509186,0.6851109266281128,0.4200000464916229,0.597832977771759,4.6243405904533574e-07,-3.0476003303192556e-06,-0.8016207218170166,0.00013129771105013788,-0.0002744267403613776,-9.399815462529659e-05,0.006198551505804062,-0.0011678009759634733,-0.0006424555322155356,0.4300481677055359,0.711367130279541,0.5617330074310303,0.6496225595474243,-0.309226393699646,-0.17815987765789032,0.3799694776535034,0.6931539177894592,0.42000001668930054,-0.6001677513122559,-2.9483695030212402,-1.3857202529907227,-3.0,-0.17417210340499878,-0.170404851436615,-0.16477487981319427,-0.15781225264072418,0.07228796184062958,0.11074256151914597,0.16491562128067017,0.2286418080329895
0.9,0.1200428307056427,-0.015015161596238613,0.0,0.5887689590454102,0.0,0.0,-0.8083013892173767,0.5331228971481323,0.10861638188362122,0.0,0.0,0.0,-5.403832912445068,0.3877626955509186,0.6851109266281128,0.4200000464916229,0.5978329181671143,4.4559314460457244e-07,-3.1710769690107554e-06,-0.8016207218170166,0.00013020922779105604,-0.0002745914680417627,-9.369850158691406e-05,0.006208787672221661,-0.0011804061941802502,-0.0006401066784746945,0.4439893066883087,0.7053948640823364,0.5601308345794678,1.0415453910827637,-0.3374530076980591,0.13025042414665222,0.3799694776535034,0.6931539177894592,0.42000001668930054,-0.6254188418388367,-0.2913018763065338,-1.4357385635375977,-3.000000238418579,-0.17436383664608002,-0.17028264701366425,-0.16413497924804688,-0.15652629733085632,0.0455005019903183,0.02963751181960106,0.02351648174226284,0.02488275058567524
0.9166666666666666,0.1256038248538971,-0.011783401481807232,0.0,0.5736660957336426,0.0,0.0,-0.8190892338752747,0.25378143787384033,0.23013313114643097,0.0,0.0,0.0,-1.1827261447906494,0.3877626955509186,0.6851109266281128,0.4200000464916229,0.5978328585624695,4.4666114717983874e-07,-2.9239081413834356e-06,-0.8016207218170166,0.00013108321581967175,-0.0002749728155322373,-9.387079626321793e-05,0.006213360000401735,-0.001171194831840694,-0.0006422829465009272,0.45702219009399414,0.7033958435058594,0.562799334526062,0.48972856998443604,0.02765962854027748,0.1489585041999817,0.3799694776535034,0.6931539177894592,0.42000001668930054,-0.6058868169784546,2.38612961769104,-1.4676865339279175,-0.9830870628356934,-0.17169250547885895,-0.16831202805042267,-0.16277794539928436,-0.15570472180843353,0.23245002329349518,0.17159925401210785,0.1105981171131134,0.050627585500478745
