vladlanda/robotic-transformer/data/env_000_episode_0036.csv
sim_time_s,robot_box_x,robot_box_y,robot_box_z,robot_box_quat_w,robot_box_quat_x,robot_box_quat_y,robot_box_quat_z,robot_box_linvel_x,robot_box_linvel_y,robot_box_linvel_z,robot_box_angvel_x,robot_box_angvel_y,robot_box_angvel_z,cube_world_x,cube_world_y,cube_world_z,cube_quat_w,cube_quat_x,cube_quat_y,cube_quat_z,cube_linvel_x,cube_linvel_y,cube_linvel_z,cube_angvel_x,cube_angvel_y,cube_angvel_z,endpoint_world_x,endpoint_world_y,endpoint_world_z,endpoint_linvel_x,endpoint_linvel_y,endpoint_linvel_z,target_cube_world_x,target_cube_world_y,target_cube_world_z,gripper_actual_pos_rad_gp_leftgearjoint,gripper_actual_vel_rad_s_gp_leftgearjoint,gripper_actual_pos_rad_gp_rotatingjoint,gripper_actual_vel_rad_s_gp_rotatingjoint,motor_angle_rad_joint1,motor_angle_rad_joint2,motor_angle_rad_joint3,motor_angle_rad_joint4,motor_speed_rad_s_joint1,motor_speed_rad_s_joint2,motor_speed_rad_s_joint3,motor_speed_rad_s_joint4
0.0,0.0,0.0,0.0,1.0,0.0,0.0,0.0,0.0,0.0,0.0,0.0,0.0,0.0,-0.4762703776359558,0.6648973822593689,0.41999998688697815,1.0,0.0,0.0,0.0,0.0,0.0,0.0,0.0,0.0,0.0,3.42540442943573e-06,-0.005000244826078415,1.313499927520752,0.0,0.0,0.0,0.4015335738658905,0.74456387758255,0.42000001668930054,-1.5707999467849731,0.0,0.0,0.0,0.0,0.0,0.0,0.0,0.0,0.0,0.0,0.0
0.016666666666666666,0.0028778850100934505,0.0021806680597364902,0.0,0.9998081922531128,0.0,0.0,0.019586581736803055,0.24087215960025787,0.18240931630134583,0.0,0.0,0.0,3.1418697834014893,-0.47627049684524536,0.664897084236145,0.41999998688697815,1.0,3.2799832752061775e-06,-8.339598593920527e-07,8.465660528145236e-08,-1.9833856640616432e-05,0.00017983021098189056,-6.132945418357849e-05,0.0009432561928406358,-0.004689492750912905,-0.0003198107879143208,-0.007110234349966049,0.003379564033821225,1.3159373998641968,-0.8143353462219238,0.9868683815002441,0.18095196783542633,0.4015335738658905,0.74456387758255,0.42000001668930054,-1.5301095247268677,3.0000011920928955,-0.04584788903594017,-2.9999992847442627,0.0008691533003002405,0.0007963840034790337,0.0007110277656465769,0.0006108740926720202,0.11094217747449875,0.09756709635257721,0.08334315568208694,0.06823883205652237
0.03333333333333333,0.008963441476225853,0.0068167406134307384,0.0,0.9997934699058533,0.0,0.0,0.02032352052628994,0.40720754861831665,0.3154294788837433,0.0,0.0,0.0,-0.8734046220779419,-0.4762706160545349,0.6648970246315002,0.4200000464916229,1.0,3.3908236218849197e-06,-2.1324740373529494e-06,-3.7087911408661967e-08,0.0002635786950122565,0.00026937879738397896,-0.00010509719140827656,-0.0017707741353660822,0.004130927845835686,-0.00013548358401749283,-0.027548428624868393,0.025873254984617233,1.3166460990905762,-1.591414213180542,1.6081507205963135,-0.0791589543223381,0.4015335738658905,0.74456387758255,0.42000001668930054,-1.4800903797149658,3.000001907348633,-0.09588771313428879,-3.0000007152557373,0.002990489359945059,0.0026531910989433527,0.0022778441198170185,0.0018613743595778942,0.16428446769714355,0.13982835412025452,0.11388681828975677,0.08636786788702011
0.05,0.01776309683918953,0.013790003024041653,0.0,0.9993712306022644,0.0,0.0,0.03545650467276573,0.5940383076667786,0.46528273820877075,0.0,0.0,0.0,2.6440954208374023,-0.4762706458568573,0.664897084236145,0.4200000464916229,1.0,3.7651166167051997e-06,-2.2119024833955336e-06,5.637348365894468e-09,0.0002653102274052799,0.00026691530365496874,-0.0001044049859046936,-0.0017243424663320184,0.004177475813776255,-0.00012949523807037622,-0.05968921259045601,0.05365431308746338,1.3117202520370483,-2.18798828125,1.759016513824463,-0.4734613597393036,0.4015335738658905,0.74456387758255,0.42000001668930054,-1.4300720691680908,3.00000262260437,-0.1459263563156128,-3.0,0.005712949670851231,0.0049207923002541065,0.0040564886294305325,0.0031155922915786505,0.19277989864349365,0.15587866306304932,0.1171024739742279,0.07635711133480072
0.06666666666666667,0.029082080349326134,0.023086583241820335,0.0,0.999444842338562,0.0,0.0,0.033317066729068756,0.7206010222434998,0.5953643918037415,0.0,0.0,0.0,-1.215018391609192,-0.4762706458568573,0.6648970246315002,0.4200000464916229,0.9999999403953552,3.4067338674503844e-06,-2.2856738723930903e-06,4.301002434203838e-07,0.0002670263347681612,0.0002679180761333555,-0.00010437914170324802,-0.001740648876875639,0.004211838357150555,-0.00012851078645326197,-0.0985342413187027,0.08739550411701202,1.299130916595459,-2.4740729331970215,2.179962158203125,-1.0076017379760742,0.4015335738658905,0.74456387758255,0.42000001668930054,-1.3800537586212158,2.999999761581421,-0.19596369564533234,-3.000000476837158,0.00836432259529829,0.006901908200234175,0.005328585859388113,0.0036374335177242756,0.158129021525383,0.10859403759241104,0.05702913925051689,0.0033702764194458723
0.08333333333333333,0.042681459337472916,0.03474872186779976,0.0,0.9989238381385803,0.0,0.0,0.0463799387216568,0.8709246516227722,0.7430328130722046,0.0,0.0,0.0,2.534407615661621,-0.4762706458568573,0.6648970246315002,0.4200000464916229,0.9999999403953552,3.6260375964047853e-06,-2.335399813091499e-06,3.0323869282256055e-07,0.0002661397447809577,0.0002668508095666766,-0.00010405457578599453,-0.0017283371416851878,0.004196438007056713,-0.00012790974869858474,-0.14372816681861877,0.12172107398509979,1.2782411575317383,-2.8510780334472656,2.0200963020324707,-1.4682972431182861,0.4015335738658905,0.74456387758255,0.42000001668930054,-1.3300354480743408,2.999999523162842,-0.2459799349308014,-3.0000007152557373,0.010094808414578438,0.00781654380261898,0.005387479439377785,0.002801697002723813,0.09328713268041611,0.038247402757406235,-0.01876641809940338,-0.07780378311872482
0.1,0.05045988783240318,0.049555905163288116,0.0,0.999057412147522,0.0,0.0,0.043408773839473724,0.3353959918022156,0.9435248970985413,0.0,0.0,0.0,-1.304374098777771,-0.4762706458568573,0.6648970246315002,0.4200000464916229,1.0,3.4220713587274076e-06,-2.3086856799636735e-06,1.7965174947676132e-07,0.0002668143715709448,0.00026800335035659373,-0.00010440708138048649,-0.0017429604195058346,0.0042070322670042515,-0.00012891279766336083,-0.18749359250068665,0.16112761199474335,1.2495266199111938,-2.467216968536377,2.5330140590667725,-1.8784745931625366,0.4015335738658905,0.74456387758255,0.42000001668930054,-1.2800052165985107,2.9999945163726807,-0.21195070445537567,2.999999523162842,0.005563533399254084,0.0026059048250317574,-0.0005506423767656088,-0.003915890585631132,-0.388923704624176,-0.43891388177871704,-0.49125292897224426,-0.5461901426315308
0.11666666666666667,0.05455589294433594,0.06508269160985947,0.0,0.9999263286590576,0.0,0.0,0.012138676829636097,0.25576379895210266,0.921231746673584,0.0,0.0,0.0,-4.502125263214111,-0.4762706458568573,0.664897084236145,0.4200000464916229,1.0,3.7114145925443154e-06,-2.3327797862293664e-06,2.5745856646608445e-07,0.00026485841954126954,0.0002663533086888492,-0.0001042329240590334,-0.0017181563889607787,0.004170076455920935,-0.0001291552762268111,-0.22749720513820648,0.2044782042503357,1.2210360765457153,-2.4053895473480225,2.5548095703125,-1.618600845336914,0.4015335738658905,0.74456387758255,0.42000001668930054,-1.230013370513916,2.999999761581421,-0.243340864777565,-2.999999523162842,0.00026291701942682266,-0.004021446220576763,-0.008503496646881104,-0.013195144943892956,-0.2289697825908661,-0.330030232667923,-0.42918121814727783,-0.5264439582824707
0.13333333333333333,0.05749793350696564,0.08254464715719223,0.0,0.9999988675117493,0.0,0.0,0.0015217065811157227,0.11771133542060852,1.0939083099365234,0.0,0.0,0.0,-0.23851658403873444,-0.4762706458568573,0.6648970246315002,0.4200000464916229,1.0,3.33562343257654e-06,-2.231935468444135e-06,3.113336504156905e-07,0.0002666971704456955,0.00026759487809613347,-0.00010428461246192455,-0.001737144310027361,0.004205835517495871,-0.00012839905684813857,-0.27060583233833313,0.2454180270433426,1.1931499242782593,-2.540363073348999,2.6083130836486816,-1.7347369194030762,0.4015335738658905,0.74456387758255,0.42000001668930054,-1.1799967288970947,3.0,-0.260772168636322,0.6054611206054688,-0.0021876776590943336,-0.008503715507686138,-0.014948142692446709,-0.02153109759092331,-0.15459147095680237,-0.2817288637161255,-0.4038730263710022,-0.5208611488342285
0.15,0.0662296935915947,0.09738387912511826,0.0,0.9997125864028931,0.0,0.0,-0.023973843082785606,0.6634549498558044,0.8167598843574524,0.0,0.0,0.0,-4.001124382019043,-0.4762706458568573,0.6648970246315002,0.4200000464916229,1.0,3.5188593301427318e-06,-2.2830813577456865e-06,-3.625297324560961e-07,0.00026618369156494737,0.0002673570706974715,-0.00010425481013953686,-0.001734902267344296,0.00419566361233592,-0.00012860818242188543,-0.31115588545799255,0.29335111379623413,1.1634639501571655,-2.338958740234375,3.086494207382202,-1.9097135066986084,0.4015335738658905,0.74456387758255,0.42000001668930054,-1.1300233602523804,2.9903552532196045,-0.30127811431884766,-3.0000009536743164,-0.00120632688049227,-0.010005716234445572,-0.018824398517608643,-0.02766912616789341,0.04826687276363373,-0.09169314801692963,-0.22540904581546783,-0.3526676297187805
0.16666666666666666,0.07263759523630142,0.10927121341228485,0.0,0.9970582723617554,0.0,0.0,-0.07664734870195389,0.2360808104276657,0.6924234628677368,0.0,0.0,0.0,-7.157759189605713,-0.4762706458568573,0.6648970246315002,0.4200000464916229,1.0,3.6665835523308488e-06,-2.3391182821796974e-06,-3.149922918055381e-07,0.000265958602540195,0.00026667420752346516,-0.00010403734631836414,-0.001725313370116055,0.0041927797719836235,-0.00012778645032085478,-0.34733742475509644,0.3525024950504303,1.125577449798584,-1.9487206935882568,3.9044201374053955,-2.5437850952148438,0.4015335738658905,0.74456387758255,0.42000001668930054,-1.08988618850708,1.8849890232086182,-0.26695716381073,3.000000238418579,-0.006344425491988659,-0.016766084358096123,-0.02712974138557911,-0.037443146109580994,-0.564657986164093,-0.6256303191184998,-0.6835014224052429,-0.7384935021400452
0.18333333333333332,0.0723288431763649,0.12428320944309235,0.0,0.9938438534736633,0.0,0.0,-0.11078991740942001,0.028342129662632942,0.7968467473983765,0.0,0.0,0.0,-2.8323004245758057,-0.4762706458568573,0.6648970246315002,0.4200000464916229,1.0,3.8143025449244305e-06,-2.399538061581552e-06,-2.702604433579836e-07,0.00026549160247668624,0.0002661106991581619,-0.00010391208343207836,-0.0017177729168906808,0.004184826277196407,-0.0001275383838219568,-0.38261210918426514,0.4116067886352539,1.0743123292922974,-2.119326591491699,3.67864990234375,-3.3751018047332764,0.4015335738658905,0.74456387758255,0.42000001668930054,-1.0487446784973145,2.924248695373535,-0.2979145348072052,-3.000000476837158,-0.019867857918143272,-0.03061399608850479,-0.04126475378870964,-0.051828403025865555,-0.5947784185409546,-0.648475706577301,-0.697009265422821,-0.7387304306030273
0.2,0.07141566276550293,0.13590309023857117,0.0,0.9878714680671692,0.0,0.0,-0.1552736759185791,-0.136466383934021,0.6160750389099121,0.0,0.0,0.0,-6.228385925292969,-0.4762706458568573,0.6648970246315002,0.4200000464916229,1.0,3.6000003547087545e-06,-2.291237706231186e-06,-2.2017823653186497e-07,0.00026573086506687105,0.0002664501662366092,-0.00010398100130259991,-0.0017227214993909001,0.0041888258419930935,-0.00012773244816344231,-0.4169885516166687,0.4743746817111969,1.0099520683288574,-1.8159458637237549,3.892503023147583,-4.281392574310303,0.4015335738658905,0.74456387758255,0.42000001668930054,-0.9996949434280396,2.9179861545562744,-0.34794190526008606,-2.999999761581421,-0.03197135776281357,-0.04311755672097206,-0.05409465357661247,-0.06489292532205582,-0.8313148021697998,-0.8258917927742004,-0.8171902894973755,-0.8045579195022583
0.21666666666666667,0.07461373507976532,0.14755158126354218,0.0,0.98335862159729,0.0,0.0,-0.18167507648468018,0.12840472161769867,0.6793053150177002,0.0,0.0,0.0,-2.137101650238037,-0.4762706458568573,0.6648970246315002,0.4200000464916229,0.9999999403953552,3.6396120322024217e-06,-2.2620149593421957e-06,2.2248472930641583e-07,0.0002668747620191425,0.0002675442665349692,-0.00010411837138235569,-0.0017403680831193924,0.004211135674268007,-0.00012783527199644595,-0.4491930603981018,0.531685471534729,0.9330368041992188,-1.7096471786499023,3.252686023712158,-4.987590789794922,0.4015335738658905,0.74456387758255,0.42000001668930054,-0.9497008919715881,2.999985694885254,-0.3979702293872833,-3.0000030994415283,-0.044182732701301575,-0.0549253486096859,-0.06545520573854446,-0.07576903700828552,-0.9763530492782593,-0.9128605127334595,-0.8335893750190735,-0.7561737895011902
0.23333333333333334,0.07319171726703644,0.15787847340106964,0.0,0.9752846360206604,0.0,0.0,-0.22095215320587158,-0.09999721497297287,0.574363648891449,0.0,0.0,0.0,-5.544464111328125,-0.4762706160545349,0.6648970246315002,0.4200000464916229,1.0,3.420692110012169e-06,-2.3168713596533053e-06,2.955990510145057e-07,0.00026680133305490017,0.00026803885702975094,-0.0001044226810336113,-0.001743639470078051,0.004206772428005934,-0.0001289946085307747,-0.4748201370239258,0.5828973054885864,0.8428504467010498,-1.219475269317627,2.9635300636291504,-5.681941986083984,0.4015335738658905,0.74456387758255,0.42000001668930054,-0.8996902108192444,2.9999988079071045,-0.4480004608631134,-3.0000014305114746,-0.059836313128471375,-0.07056938111782074,-0.08114118129014969,-0.09149294346570969,-0.9688670635223389,-0.9548868536949158,-0.9456179738044739,-0.939131498336792
0.25,0.0745096206665039,0.16350841522216797,0.0,0.9713318943977356,0.0,0.0,-0.2377275973558426,0.1563441902399063,0.24366852641105652,0.0,0.0,0.0,-0.9681978821754456,-0.4762706458568573,0.6648970246315002,0.4200000464916229,0.9999999403953552,3.3476046610303456e-06,-2.259236225654604e-06,1.8083763109189022e-07,0.0002668767119757831,0.0002679122262634337,-0.00010439427569508553,-0.0017404244281351566,0.004208163358271122,-0.00012870550563093275,-0.49431943893432617,0.6209406852722168,0.744737982749939,-0.8655215501785278,1.8786914348602295,-6.079567909240723,0.4015335738658905,0.74456387758255,0.42000001668930054,-0.8496795296669006,3.000000238418579,-0.4980311691761017,-3.000000238418579,-0.07640036940574646,-0.08709311485290527,-0.09755146503448486,-0.10773515701293945,-0.9915083646774292,-0.9927778244018555,-0.9937731027603149,-0.9739385843276978
0.26666666666666666,0.0715680718421936,0.1691218912601471,0.0,0.9633257389068604,0.0,0.0,-0.2683347463607788,-0.1887577474117279,0.3862035572528839,0.0,0.0,0.0,-4.594743251800537,-0.4762706458568573,0.6648970246315002,0.4200000464916229,0.9999999403953552,3.535753194228164e-06,-2.3003594833426178e-06,-1.2686646755355468e-07,0.0002660174504853785,0.00026712234830483794,-0.00010419590398669243,-0.001731633092276752,0.004192822612822056,-0.0001284947502426803,-0.5015135407447815,0.6419718861579895,0.641971230506897,0.047713346779346466,0.8740530014038086,-6.079947471618652,0.4015335738658905,0.74456387758255,0.42000001668930054,-0.7996702790260315,2.99999737739563,-0.5480618476867676,-3.0000007152557373,-0.09432799369096756,-0.10468591004610062,-0.11489512771368027,-0.12488662451505661,-0.8808909058570862,-0.9043235182762146,-0.9261415004730225,-0.9454648494720459
0.2833333333333333,0.07208355516195297,0.17141012847423553,0.0,0.9603993892669678,0.0,0.0,-0.27862706780433655,0.07207072526216507,0.0425889790058136,0.0,0.0,0.0,-0.12392483651638031,-0.4762706458568573,0.664897084236145,0.4200000464916229,1.0,3.5935188407165697e-06,-2.262744601466693e-06,-5.655506285506817e-08,0.00026704822084866464,0.000267749244812876,-0.00010416633449494839,-0.0017431654268875718,0.004214244429022074,-0.00012789323227480054,-0.5013933181762695,0.6530370116233826,0.5451043844223022,0.23945418000221252,0.43876537680625916,-5.5632548332214355,0.4015335738658905,0.74456387758255,0.42000001668930054,-0.7496615052223206,3.0000009536743164,-0.5980916023254395,-3.0000014305114746,-0.11022968590259552,-0.12060212343931198,-0.13081246614456177,-0.14080816507339478,-1.0120996236801147,-1.009116768836975,-1.00684654712677,-1.0050387382507324
0.3,0.06895922124385834,0.1705872118473053,0.0,0.9540031552314758,0.0,0.0,-0.2997966706752777,-0.18215656280517578,-0.11338537186384201,0.0,0.0,0.0,-3.4636876583099365,-0.4762706160545349,0.6648970246315002,0.4200000464916229,0.9999999403953552,3.725037913682172e-06,-2.236182581327739e-06,3.828752426215942e-07,0.0002647983201313764,0.0002667314256541431,-0.00010453932918608189,-0.001718917046673596,0.004166685976088047,-0.00013016501907259226,-0.4907454252243042,0.658043384552002,0.45659223198890686,0.9754483103752136,0.31872379779815674,-5.069674015045166,0.4015335738658905,0.74456387758255,0.42000001668930054,-0.699653685092926,2.9999938011169434,-0.6481192708015442,-3.000000476837158,-0.12774650752544403,-0.13790985941886902,-0.14798733592033386,-0.1578877866268158,-0.8540809750556946,-0.8868486881256104,-0.9185718894004822,-0.9463820457458496
0.31666666666666665,0.06408766657114029,0.16706101596355438,0.0,0.9530975222587585,0.0,0.0,-0.30266329646110535,-0.3293344974517822,-0.24956203997135162,0.0,0.0,0.0,0.5698750615119934,-0.4762706458568573,0.6648970246315002,0.4200000464916229,0.9999999403953552,3.557750233085244e-06,-2.2789749891671818e-06,2.283545939008036e-07,0.0002659836900420487,0.0002665854699444026,-0.00010398984886705875,-0.0017241021851077676,0.004193542525172234,-0.00012770354805979878,-0.4827604293823242,0.663070559501648,0.42692774534225464,0.12228240072727203,-0.0976170003414154,-0.14668211340904236,0.4015335738658905,0.74456387758255,0.42000001668930054,-0.649765133857727,2.990164041519165,-0.69863361120224,-2.841735601425171,-0.1358061134815216,-0.14665371179580688,-0.15720327198505402,-0.16729573905467987,-0.12899915874004364,-0.18693262338638306,-0.22395721077919006,-0.23374730348587036
0.3333333333333333,0.056745730340480804,0.16129058599472046,0.0,0.9478452801704407,0.0,0.0,-0.31873077154159546,-0.4926367998123169,-0.38966789841651917,0.0,0.0,0.0,-2.9144134521484375,-0.4762706458568573,0.6648970246315002,0.4200000464916229,1.0,3.7825971048732754e-06,-2.2365218228515005e-06,-9.632487518729249e-08,0.00026365372468717396,0.0002655528369359672,-0.00010426389053463936,-0.0017039472004398704,0.00414604926481843,-0.00012974384299013764,-0.48195338249206543,0.6647357940673828,0.42493605613708496,0.17763015627861023,0.17829744517803192,-0.17062541842460632,0.4015335738658905,0.74456387758255,0.42000001668930054,-0.5997588038444519,2.9999871253967285,-0.7486845254898071,-2.999983310699463,-0.13930460810661316,-0.15056338906288147,-0.1611878126859665,-0.17093925178050995,-0.2930857837200165,-0.2813293933868408,-0.2526485323905945,-0.2037408947944641
0.35,0.0470338799059391,0.15317875146865845,0.0,0.9479473829269409,0.0,0.0,-0.3184269368648529,-0.6218274235725403,-0.5270894169807434,0.0,0.0,0.0,0.9849907159805298,-0.47486987709999084,0.6674370169639587,0.42052990198135376,0.9994282126426697,0.013232830911874771,5.2425701142055914e-05,-0.03111472725868225,0.23936650156974792,0.41134175658226013,0.09449893236160278,4.768455505371094,-0.028822587803006172,-9.652956008911133,-0.47855085134506226,0.6714575290679932,0.42223381996154785,0.23108811676502228,0.5366315841674805,-0.13545489311218262,0.4015335738658905,0.74456387758255,0.42000001668930054,-0.5497537851333618,2.9999728202819824,-0.7987228035926819,-3.0000040531158447,-0.1456974744796753,-0.15613681077957153,-0.1656445860862732,-0.17395275831222534,-0.40758955478668213,-0.33599603176116943,-0.24680283665657043,-0.13917334377765656
0.36666666666666664,0.0350407212972641,0.1427813023328781,0.0,0.9432137608528137,0.0,0.0,-0.3321864604949951,-0.7656649351119995,-0.6631449460983276,0.0,0.0,0.0,-2.6533381938934326,-0.4694175720214844,0.6769476532936096,0.4208343029022217,0.9965357184410095,0.021230412647128105,-0.0017201442969962955,-0.08039140701293945,0.4649745225906372,0.7841619253158569,-0.0030478360131382942,-0.11193704605102539,-0.010428866371512413,-2.740166664123535,-0.47258222103118896,0.6808115243911743,0.4205096960067749,0.48466846346855164,0.6667108535766602,-0.0854431614279747,0.4015335738658905,0.74456387758255,0.42000001668930054,-0.49974897503852844,2.9999818801879883,-0.8487682938575745,-3.0000081062316895,-0.1530744731426239,-0.16193999350070953,-0.16952991485595703,-0.17557980120182037,-0.44681233167648315,-0.33172452449798584,-0.19604814052581787,-0.04084554687142372
0.3833333333333333,0.025519218295812607,0.12957708537578583,0.0,0.928686261177063,0.0,0.0,-0.3708663582801819,-0.4985959827899933,-0.8465035557746887,0.0,0.0,0.0,-5.7657694816589355,-0.4598383605480194,0.6934341788291931,0.42070019245147705,0.993338406085968,-0.01659170351922512,0.000809371704235673,-0.11403006315231323,0.7754772305488586,1.300801157951355,0.0748198926448822,-2.0966339111328125,-1.5978538990020752,-4.794568061828613,-0.46298453211784363,0.6954523324966431,0.42162367701530457,0.7335776686668396,1.1912169456481934,0.10606582462787628,0.4015335738658905,0.74456387758255,0.42000001668930054,-0.44968631863594055,3.0000152587890625,-0.8987724781036377,-2.9999966621398926,-0.1603517234325409,-0.16706064343452454,-0.17209213972091675,-0.17521299421787262,-0.39651018381118774,-0.26008841395378113,-0.09903022646903992,0.08435448259115219
0.4,0.019102491438388824,0.11338619887828827,0.0,0.9015976190567017,0.0,0.0,-0.4325757324695587,-0.26921501755714417,-1.0336717367172241,0.0,0.0,0.0,-8.837358474731445,-0.4357704818248749,0.7245880365371704,0.4237724244594574,0.9878349900245667,0.013894830830395222,-0.030767016112804413,-0.15179678797721863,2.2804625034332275,2.258514642715454,0.12530086934566498,40.31581115722656,-12.998433113098145,7.162484169006348,-0.4392598271369934,0.7258760929107666,0.42471227049827576,2.2077341079711914,2.5859484672546387,0.48612356185913086,0.4015335738658905,0.74456387758255,0.42000001668930054,-0.4018664062023163,2.103067636489868,-0.8681847453117371,2.991258382797241,-0.16881221532821655,-0.17254412174224854,-0.17422518134117126,-0.17368899285793304,-0.54356849193573,-0.33481937646865845,-0.10652673244476318,0.13611620664596558
0.4166666666666667,0.015328456647694111,0.10171765089035034,0.0,0.8585589528083801,0.0,0.0,-0.5127148628234863,-0.18116945028305054,-0.5770165324211121,0.0,0.0,0.0,-11.65389347076416,-0.3738308250904083,0.7760877013206482,0.43067118525505066,0.9712066054344177,0.09573078155517578,-0.06735645234584808,-0.20750045776367188,5.285130023956299,3.282039165496826,0.5409656763076782,14.859423637390137,-9.53069019317627,18.973106384277344,-0.3771980106830597,0.7780158519744873,0.4318470358848572,4.814951419830322,3.7338128089904785,0.52894127368927,0.4015335738658905,0.74456387758255,0.42000001668930054,-0.3802622854709625,0.9508808851242065,-0.8181419968605042,2.9985549449920654,-0.18402647972106934,-0.18434754014015198,-0.18084977567195892,-0.17527537047863007,-0.9179759621620178,-0.8065664768218994,-0.4962901473045349,-0.20598113536834717
0.43333333333333335,0.007626131176948547,0.09741433709859848,0.0,0.819824755191803,0.0,0.0,-0.5726144909858704,-0.5726485252380371,-0.2559967339038849,0.0,0.0,0.0,-6.9708757400512695,-0.28963223099708557,0.8295761346817017,0.441667765378952,0.9370532035827637,0.13483946025371552,-0.0920330211520195,-0.308673620223999,5.556255340576172,2.554990291595459,0.8060099482536316,17.097442626953125,-2.621781826019287,15.375016212463379,-0.2930562496185303,0.8328049182891846,0.44232088327407837,5.284815311431885,3.037346839904785,0.7242525815963745,0.4015335738658905,0.74456387758255,0.42000001668930054,-0.3641967475414276,1.038771629333496,-0.8451265692710876,-3.000002145767212,-0.1981957107782364,-0.198841854929924,-0.1942639946937561,-0.1834850311279297,-0.6328697800636292,-0.6887959241867065,-0.7474939227104187,-0.5091859698295593
0.45,0.004412493202835321,0.08608215302228928,0.0,0.7975174784660339,0.0,0.0,-0.6032958030700684,-0.03837147355079651,-0.8396130204200745,0.0,0.0,0.0,-2.904808282852173,-0.19341567158699036,0.8742190599441528,0.45232096314430237,0.8869518041610718,0.13970951735973358,-0.10299766063690186,-0.4280061721801758,6.338723182678223,1.5048727989196777,0.5315141081809998,1.1747150421142578,-10.707077026367188,15.699847221374512,-0.19741758704185486,0.8784569501876831,0.4524092674255371,6.260526657104492,2.3341708183288574,0.6962697505950928,0.4015335738658905,0.74456387758255,0.42000001668930054,-0.3454945683479309,1.0347604751586914,-0.8951506018638611,-3.000002861022949,-0.20313994586467743,-0.20413990318775177,-0.1999899297952652,-0.18562646210193634,-0.21489034593105316,-0.17410698533058167,-0.141010120511055,0.0804898738861084
0.4666666666666667,0.0004987673601135612,0.07708675414323807,0.0,0.7700262665748596,0.0,0.0,-0.638012170791626,-0.2843969762325287,-0.48723798990249634,0.0,0.0,0.0,-5.992316722869873,-0.08873198926448822,0.9023078680038452,0.46300166845321655,0.8400129079818726,0.13549770414829254,-0.1149192750453949,-0.5126520395278931,6.651532173156738,0.9347763657569885,0.7607401609420776,-3.8502955436706543,-22.42362403869629,-1.1173973083496094,-0.09136328101158142,0.908367395401001,0.4636548161506653,6.552617073059082,1.3739380836486816,0.7809025049209595,0.4015335738658905,0.74456387758255,0.42000001668930054,-0.33005785942077637,0.7677431702613831,-0.9451746344566345,-3.0000052452087402,-0.2107933759689331,-0.21017175912857056,-0.20474639534950256,-0.186968594789505,-0.4036198556423187,-0.3152225613594055,-0.2530364394187927,-0.10739388316869736
0.48333333333333334,-0.0017936760559678078,0.07246743142604828,0.0,0.7566518187522888,0.0,0.0,-0.6538180112838745,-0.07551800459623337,-0.19081243872642517,0.0,0.0,0.0,-1.3180009126663208,0.017872028052806854,0.9113010168075562,0.47435513138771057,0.7596078515052795,0.1581941545009613,-0.08609113842248917,-0.6249470114707947,5.95115327835083,-1.051808476448059,0.7732970714569092,6.328304767608643,13.010674476623535,19.446205139160156,0.015588928014039993,0.9192641973495483,0.4729772210121155,6.518153190612793,-0.0499437153339386,0.4550226330757141,0.4015335738658905,0.74456387758255,0.42000001668930054,-0.31971099972724915,0.37511512637138367,-0.995198667049408,-2.9995839595794678,-0.22082366049289703,-0.21731653809547424,-0.20954257249832153,-0.1887989193201065,-0.6427022814750671,-0.42252108454704285,-0.23931607604026794,-0.05735374242067337
0.5,-0.0005372340092435479,0.06601026654243469,0.0,0.7367041707038879,0.0,0.0,-0.6762151718139648,0.13146637380123138,-0.4496097266674042,0.0,0.0,0.0,-4.433632850646973,0.11500345915555954,0.9005852937698364,0.4793764650821686,0.6904833912849426,0.18401069939136505,-0.046067722141742706,-0.6980332136154175,5.185949325561523,-1.8509188890457153,-0.17572848498821259,-13.684971809387207,-12.417872428894043,19.083789825439453,0.11369282752275467,0.909946620464325,0.4764620363712311,5.608548641204834,-1.1269233226776123,0.19235903024673462,0.4015335738658905,0.74456387758255,0.42000001668930054,-0.3149015009403229,0.13530957698822021,-1.0452226400375366,-3.0000030994415283,-0.2309385985136032,-0.22326017916202545,-0.21195992827415466,-0.18823224306106567,-0.5786852836608887,-0.30523034930229187,-0.07216302305459976,0.1018824353814125
0.5166666666666666,-0.0006668694550171494,0.0638340413570404,0.0,0.7292791604995728,0.0,0.0,-0.6842162609100342,-0.035307448357343674,-0.07280854880809784,0.0,0.0,0.0,-0.11987828463315964,0.1982661634683609,0.8749005794525146,0.47654464840888977,0.6318026185035706,0.1364496797323227,-0.06070638820528984,-0.7606061100959778,4.20051383972168,-2.1199488639831543,-0.4125376045703888,-11.057209014892578,7.906993389129639,2.191774368286133,0.19703641533851624,0.8839223384857178,0.47543036937713623,4.551012992858887,-1.835565447807312,-0.18768450617790222,0.4015335738658905,0.74456387758255,0.42000001668930054,-0.3097912073135376,0.4566444158554077,-1.0952447652816772,-3.000002384185791,-0.23995639383792877,-0.23059816658496857,-0.21509817242622375,-0.18864136934280396,-0.008049486204981804,-0.34401553869247437,-0.1514621376991272,-0.05744967982172966
0.5333333333333333,0.001395987463183701,0.05735701322555542,0.0,0.7137370109558105,0.0,0.0,-0.7004137635231018,0.1424938440322876,-0.4345913827419281,0.0,0.0,0.0,-3.5336644649505615,0.2659042477607727,0.8467158079147339,0.4662478268146515,0.5806609988212585,0.0894516333937645,-0.06227612495422363,-0.8068164587020874,3.7334959506988525,-1.8582754135131836,-0.6821346879005432,1.1250896453857422,-7.602818489074707,-4.174178600311279,0.26510757207870483,0.8561500310897827,0.4667016863822937,3.6442766189575195,-1.782090187072754,-0.7431498765945435,0.4015335738658905,0.74456387758255,0.42000001668930054,-0.2976958453655243,0.8561563491821289,-1.1452667713165283,-2.9991135597229004,-0.2348291575908661,-0.23085364699363708,-0.21369557082653046,-0.18727737665176392,0.34583908319473267,0.0784749686717987,0.14190563559532166,0.0942026749253273
0.55,0.005802515894174576,0.0552942156791687,0.0,0.7098610401153564,0.0,0.0,-0.7043417096138,0.28464972972869873,-0.11254489421844482,0.0,0.0,0.0,0.20215551555156708,0.3231343924999237,0.8168104290962219,0.4512642025947571,0.5075717568397522,0.08857902884483337,-0.050635091960430145,-0.8555470705032349,2.982719898223877,-1.862837791442871,-1.003063440322876,1.4799832105636597,2.658658504486084,-4.048223495483398,0.31974121928215027,0.8230063319206238,0.45227935910224915,3.0470118522644043,-2.032064914703369,-0.9971321821212769,0.4015335738658905,0.74456387758255,0.42000001668930054,-0.2756432592868805,1.7671258449554443,-1.195288896560669,-3.000000476837158,-0.2327236831188202,-0.2315915822982788,-0.21326743066310883,-0.1877114325761795,0.2810341715812683,0.10968662798404694,0.11024041473865509,-0.005425337236374617
0.5666666666666667,0.012477032840251923,0.049574002623558044,0.0,0.696364164352417,0.0,0.0,-0.7176886200904846,0.44398242235183716,-0.3865634799003601,0.0,0.0,0.0,-3.0734167098999023,0.36782073974609375,0.7897165417671204,0.4299704134464264,0.4731844961643219,0.047680407762527466,-0.018665224313735962,-0.8794740438461304,2.2771553993225098,-2.1921613216400146,-1.2984399795532227,-6.713705539703369,-14.3458833694458,19.287267684936523,0.3654712438583374,0.7943333983421326,0.4325568974018097,2.3010501861572266,-1.567267656326294,-1.207655429840088,0.4015335738658905,0.74456387758255,0.42000001668930054,-0.24577443301677704,1.1821746826171875,-1.2453110218048096,-3.0,-0.22564586997032166,-0.22742052376270294,-0.21022433042526245,-0.18763186037540436,0.38444170355796814,0.24384230375289917,0.15018053352832794,-0.05181602016091347
0.5833333333333334,0.02131323330104351,0.04744994267821312,0.0,0.6952601075172424,0.0,0.0,-0.718758225440979,0.5669947862625122,-0.09095565229654312,0.0,0.0,0.0,0.7154544591903687,0.3953832983970642,0.7685503959655762,0.4214440584182739,0.4640757143497467,0.019127463921904564,0.0030923604499548674,-0.8855836391448975,1.046992301940918,-1.2117691040039062,0.09570619463920593,13.009916305541992,-0.31920894980430603,4.611509323120117,0.3921370208263397,0.773006796836853,0.42480432987213135,1.0836460590362549,-0.8788434863090515,0.07873531430959702,0.4015335738658905,0.74456387758255,0.42000001668930054,-0.2389671951532364,0.16984860599040985,-1.2953768968582153,-3.0001649856567383,-0.22111427783966064,-0.22460231184959412,-0.20908503234386444,-0.18980689346790314,0.37027937173843384,0.2568407356739044,0.11061219871044159,-0.1193782165646553
0.6,0.02771441824734211,0.048298709094524384,0.0,0.6844254732131958,0.0,0.0,-0.7290828227996826,0.32584139704704285,0.10462367534637451,0.0,0.0,0.0,-2.680047035217285,0.40860217809677124,0.7590832114219666,0.4215191602706909,0.4895578920841217,0.030626745894551277,0.008456725627183914,-0.8713916540145874,0.4294148087501526,-0.40448862314224243,0.12025991827249527,2.517392873764038,-5.243951320648193,6.09360408782959,0.4047577381134033,0.7626370787620544,0.42475834488868713,0.3997756838798523,-0.39520296454429626,0.09588336944580078,0.4015335738658905,0.74456387758255,0.42000001668930054,-0.23873819410800934,0.22498725354671478,-1.2572201490402222,2.999772548675537,-0.21360453963279724,-0.21915513277053833,-0.20670168101787567,-0.19162079691886902,0.5063122510910034,0.39370429515838623,0.1945073902606964,-0.06282857805490494
0.6166666666666667,0.0352914072573185,0.044388674199581146,0.0,0.6855660676956177,0.0,0.0,-0.7280104160308838,0.4204016327857971,-0.2351549118757248,0.0,0.0,0.0,1.0781677961349487,0.4135703146457672,0.7531930208206177,0.4217018187046051,0.5031890273094177,0.0385112427175045,0.02243654802441597,-0.8630262017250061,0.1912078559398651,-0.3193729817867279,0.0023656131234019995,0.11312483996152878,-0.06475874036550522,-2.8173372745513916,0.40738141536712646,0.756191611289978,0.4245995283126831,-0.11172924935817719,-0.2950882911682129,0.15788495540618896,0.4015335738658905,0.74456387758255,0.42000001668930054,-0.2653449773788452,-2.9999964237213135,-1.2777544260025024,-2.9993224143981934,-0.2017899602651596,-0.2092430740594864,-0.20051714777946472,-0.18999385833740234,0.6053552627563477,0.5396959185600281,0.344149649143219,0.10209473967552185
0.6333333333333333,0.04435763508081436,0.04486158490180969,0.0,0.6759604215621948,0.0,0.0,-0.736937940120697,0.5908352136611938,0.023820217698812485,0.0,0.0,0.0,-2.4125750064849854,0.4145541489124298,0.7495934367179871,0.4213414192199707,0.5364671945571899,0.0291860681027174,0.018685154616832733,-0.8432092666625977,0.08513949066400528,-0.17640170454978943,-0.03857673704624176,-1.8864037990570068,0.9413360953330994,2.5700747966766357,0.4090854823589325,0.7556381225585938,0.42736542224884033,0.2344547063112259,0.13603509962558746,0.1866816282272339,0.4015335738658905,0.74456387758255,0.42000001668930054,-0.31254714727401733,-2.6368696689605713,-1.327702522277832,-2.9985647201538086,-0.19267183542251587,-0.2012115716934204,-0.19585129618644714,-0.18926650285720825,0.7034236788749695,0.60509192943573,0.3676327168941498,0.10929112881422043
0.65,0.05539010465145111,0.04753342643380165,0.0,0.6788448095321655,0.0,0.0,-0.7342817187309265,0.6924959421157837,0.24081923067569733,0.0,0.0,0.0,1.3821653127670288,0.4156349301338196,0.7473598718643188,0.4200134575366974,0.5518685579299927,-9.245130058843642e-05,8.574032835895196e-05,-0.833931028842926,0.01297532208263874,-0.059473469853401184,-0.0015852726064622402,0.06122399494051933,-0.034717410802841187,1.3775639533996582,0.4095836877822876,0.7567180395126343,0.4306134581565857,-0.034738630056381226,0.030602622777223587,0.22081762552261353,0.4015335738658905,0.74456387758255,0.42000001668930054,-0.3624468743801117,-2.9999477863311768,-1.3776886463165283,-2.9991631507873535,-0.18221208453178406,-0.1920228749513626,-0.19030529260635376,-0.1876162737607956,0.5692914128303528,0.5164715051651001,0.3179262578487396,0.10694830864667892
0.6666666666666666,0.06397164613008499,0.04661984369158745,0.0,0.6936943531036377,0.0,0.0,-0.720269501209259,0.42549657821655273,-0.08714667707681656,0.0,0.0,0.0,2.8753409385681152,0.4155789911746979,0.7471670508384705,0.4200005531311035,0.554373562335968,-4.6270317398011684e-05,-0.0001646046293899417,-0.8322678804397583,-0.06018929183483124,-0.026972441002726555,-0.004497166723012924,0.47096699476242065,0.0402233824133873,2.2809925079345703,0.4084751605987549,0.7566555738449097,0.43455567955970764,-0.18696916103363037,-0.061591822654008865,0.2434445023536682,0.4015335738658905,0.74456387758255,0.42000001668930054,-0.41245120763778687,-2.9990034103393555,-1.4276612997055054,-2.9996705055236816,-0.17179280519485474,-0.18205603957176208,-0.183190256357193,-0.18350088596343994,0.44069570302963257,0.47472652792930603,0.3651348352432251,0.2455800324678421
0.6833333333333333,0.072222039103508,0.04291068762540817,0.0,0.6936196088790894,0.0,0.0,-0.7203415036201477,0.5249285101890564,-0.2836458086967468,0.0,0.0,0.0,-0.9928385615348816,0.4152514338493347,0.7470244765281677,0.42000070214271545,0.5596351623535156,-1.9120116121484898e-05,3.9530627873318736e-06,-0.8287389874458313,-0.003901316085830331,-0.0010062571382150054,-0.0008355177706107497,0.021835194900631905,-0.040890585631132126,0.013117334805428982,0.40807414054870605,0.75787353515625,0.4389815628528595,0.0030938414856791496,0.12006698548793793,0.2914348840713501,0.4015335738658905,0.74456387758255,0.42000001668930054,-0.462460458278656,-2.9976446628570557,-1.4776335954666138,-2.999997138977051,-0.1658662110567093,-0.1750265508890152,-0.17728708684444427,-0.17879359424114227,0.3216997981071472,0.4110358655452728,0.3750883638858795,0.3386760354042053
0.7,0.08252840489149094,0.03639242798089981,0.0,0.6731827855110168,0.0,0.0,-0.7394760847091675,0.6532270312309265,-0.5252078175544739,0.0,0.0,0.0,-4.142919540405273,0.41525059938430786,0.7470244765281677,0.41999998688697815,0.55963534116745,-2.5043207187991356e-06,-4.23603660237859e-06,-0.8287389278411865,8.015393177629448e-06,-0.0003242052625864744,-8.486676961183548e-05,0.008326929062604904,-0.003050275379791856,-0.0007368171936832368,0.41111743450164795,0.7614443898200989,0.4494026005268097,0.3723125457763672,0.2548750340938568,1.0629806518554688,0.4015335738658905,0.74456387758255,0.42000001668930054,-0.5124732851982117,-2.9999961853027344,-1.5276519060134888,-3.000000238418579,-0.1632811576128006,-0.17053937911987305,-0.1727934181690216,-0.17423272132873535,0.07894111424684525,0.20855893194675446,0.23521660268306732,0.26877954602241516
0.7166666666666667,0.09697039425373077,0.03438610956072807,0.0,0.6623334884643555,0.0,0.0,-0.7492091059684753,0.9535471796989441,0.016602065414190292,0.0,0.0,0.0,-0.23249535262584686,0.41525059938430786,0.7470244765281677,0.41999998688697815,0.5596350431442261,-3.04104651149828e-06,-4.249895482644206e-06,-0.8287391066551208,-1.375722058583051e-05,-0.00033744325628504157,-9.423983283340931e-05,0.00865771621465683,-0.0034108273684978485,-0.0007265401654876769,0.41664135456085205,0.76490318775177,0.4758310317993164,0.3772679567337036,0.25496041774749756,2.1174795627593994,0.4015335738658905,0.74456387758255,0.42000001668930054,-0.5624858736991882,-2.99999737739563,-1.5776697397232056,-3.000000238418579,-0.16932621598243713,-0.17339064180850983,-0.1740475296974182,-0.17383024096488953,-0.46737051010131836,-0.2761087119579315,-0.1697513312101364,-0.057669203728437424
0.7333333333333333,0.10794004797935486,0.0369274877011776,0.0,0.6769648790359497,0.0,0.0,-0.7360153198242188,0.5937427282333374,0.0017052219482138753,0.0,0.0,0.0,2.9709320068359375,0.41525062918663025,0.7470245361328125,0.41999998688697815,0.5596354603767395,-2.86926160697476e-06,-3.9640494833292905e-06,-0.828738808631897,-1.4374674719874747e-05,-0.00033773883478716016,-9.50121320784092e-05,0.00864952988922596,-0.0034122972283512354,-0.0007272952352650464,0.4247020483016968,0.7667297124862671,0.5067089796066284,0.7217642068862915,0.05102410912513733,1.601191520690918,0.4015335738658905,0.74456387758255,0.42000001668930054,-0.5985874533653259,-1.4343119859695435,-1.627684235572815,-2.999999761581421,-0.17533539235591888,-0.17633682489395142,-0.17510069906711578,-0.17282229661941528,-0.022739188745617867,0.09240656346082687,0.15641279518604279,0.24125944077968597
0.75,0.11440996080636978,0.03183501958847046,0.0,0.677888810634613,0.0,0.0,-0.73516446352005,0.35531923174858093,-0.26492995023727417,0.0,0.0,0.0,-0.8187407851219177,0.41525062918663025,0.7470245361328125,0.41999998688697815,0.5596354603767395,-2.900173740272294e-06,-4.066514975420432e-06,-0.8287388682365417,-1.30772468764917e-05,-0.00033773595350794494,-9.427242912352085e-05,0.008661841973662376,-0.0034094040747731924,-0.0007292868685908616,0.4381117820739746,0.7669241428375244,0.5278605222702026,0.7981102466583252,-0.2501138150691986,1.0595883131027222,0.4015335738658905,0.74456387758255,0.42000001668930054,-0.6434287428855896,-3.0,-1.6023528575897217,2.999999761581421,-0.17169052362442017,-0.17134131491184235,-0.16950178146362305,-0.16631612181663513,0.014269436709582806,0.14224474132061005,0.22554729878902435,0.31678617000579834
0.7666666666666666,0.12270328402519226,0.03189260885119438,0.0,0.6570920944213867,0.0,0.0,-0.7538103461265564,0.5027279853820801,0.002055208198726177,0.0,0.0,0.0,-4.089776515960693,0.41525062918663025,0.7470245361328125,0.41999998688697815,0.5596354603767395,-2.8757656309608137e-06,-4.060063020006055e-06,-0.8287388682365417,-1.3427003068500198e-05,-0.0003375596716068685,-9.436788968741894e-05,0.008655685000121593,-0.0034079551696777344,-0.0007284911116585135,0.4530658721923828,0.7644529342651367,0.5472737550735474,1.0378860235214233,-0.0311517845839262,1.3495972156524658,0.4015335738658905,0.74456387758255,0.42000001668930054,-0.6792817115783691,-1.409385323524475,-1.616285800933838,-3.0,-0.17351575195789337,-0.17125901579856873,-0.16811791062355042,-0.16351084411144257,0.027561474591493607,0.09284736961126328,0.13240066170692444,0.18238326907157898
0.7833333333333333,0.13209271430969238,0.034259598702192307,0.0,0.6507928371429443,0.0,0.0,-0.7592553496360779,0.6136728525161743,0.21434053778648376,0.0,0.0,0.0,-0.029766594991087914,0.41525062918663025,0.7470245361328125,0.41999998688697815,0.5596354603767395,-2.900762183344341e-06,-4.147265372012043e-06,-0.8287389278411865,-1.2852037798438687e-05,-0.00033775853808037937,-9.419117122888565e-05,0.008663336746394634,-0.0034081856720149517,-0.0007297305855900049,0.46959078311920166,0.7647404074668884,0.5688291788101196,0.9184551239013672,0.09964373707771301,1.2828301191329956,0.4015335738658905,0.74456387758255,0.42000001668930054,-0.6731237173080444,1.858532190322876,-1.666292667388916,-3.000000238418579,-0.17249447107315063,-0.16960807144641876,-0.16619829833507538,-0.16120852530002594,0.10373365879058838,0.11642008274793625,0.10967186093330383,0.10558202862739563
0.8,0.13902701437473297,0.03200719133019447,0.0,0.6674084663391113,0.0,0.0,-0.7446918487548828,0.3958423435688019,-0.19169843196868896,0.0,0.0,0.0,3.362001419067383,0.41525059938430786,0.7470245361328125,0.41999998688697815,0.5596352815628052,-2.884587729568011e-06,-3.969573299400508e-06,-0.8287389278411865,-1.4853108041279484e-05,-0.00033747206907719374,-9.477999992668629e-05,0.00865081511437893,-0.0034175370819866657,-0.0007254092488437891,0.48121005296707153,0.7655850648880005,0.5873709917068481,0.4599475860595703,-0.06221361085772514,0.9841570854187012,0.4015335738658905,0.74456387758255,0.42000001668930054,-0.661250650882721,-0.2592693865299225,-1.627091884613037,2.999999523162842,-0.16677823662757874,-0.1641307920217514,-0.16125129163265228,-0.15681077539920807,0.24864155054092407,0.2558515965938568,0.24412792921066284,0.2237265557050705
0.8166666666666667,0.1426156759262085,0.03428519144654274,0.0,0.6703516244888306,0.0,0.0,-0.7420435547828674,0.1478022336959839,0.1218651756644249,0.0,0.0,0.0,-0.4815559685230255,0.41525062918663025,0.7470244765281677,0.41999998688697815,0.5596352815628052,-2.885361254811869e-06,-4.061233084939886e-06,-0.8287389874458313,-1.2803632671420928e-05,-0.0003372285282239318,-9.394553489983082e-05,0.00865219160914421,-0.0033993965480476618,-0.0007280461140908301,0.48514804244041443,0.7646313905715942,0.5965396165847778,0.15234631299972534,0.0007817801088094711,0.24015459418296814,0.4015335738658905,0.74456387758255,0.42000001668930054,-0.6560568809509277,0.7881813645362854,-1.5770353078842163,2.999999761581421,-0.16662515699863434,-0.16332627832889557,-0.1601077914237976,-0.15556716918945312,0.15806187689304352,0.15882378816604614,0.14699870347976685,0.12332519143819809
0.8333333333333334,0.1428631842136383,0.03296896815299988,0.0,0.6819480061531067,0.0,0.0,-0.7314006686210632,-0.047548532485961914,-0.1211853101849556,0.0,0.0,0.0,2.582935094833374,0.41525059938430786,0.7470245361328125,0.41999998688697815,0.559635579586029,-2.864298949134536e-06,-3.974119863414671e-06,-0.828738808631897,-1.6516029063495807e-05,-0.00033776069176383317,-9.567174129188061e-05,0.008646502159535885,-0.0034278726670891047,-0.0007230817573145032,0.48525938391685486,0.7627894878387451,0.6008806824684143,-0.1260145902633667,-0.11761616915464401,0.31973975896835327,0.4015335738658905,0.74456387758255,0.42000001668930054,-0.6427996158599854,0.7893913984298706,-1.526978850364685,2.999999523162842,-0.16470207273960114,-0.16119100153446198,-0.1579582393169403,-0.15365566313266754,0.06477910280227661,0.07940569519996643,0.08347533643245697,0.07067475467920303
0.85,0.14025725424289703,0.03547050803899765,0.0,0.6809911727905273,0.0,0.0,-0.7322916388511658,-0.1877327263355255,0.18883979320526123,0.0,0.0,0.0,-0.8726404905319214,0.41525062918663025,0.7470245361328125,0.41999998688697815,0.5596352219581604,-2.888589506255812e-06,-4.1076482375501655e-06,-0.8287389278411865,-1.3797309293295257e-05,-0.00033738467027433217,-9.445450268685818e-05,0.008649696595966816,-0.003405535826459527,-0.0007269753259606659,0.48354268074035645,0.7603845596313477,0.6015520691871643,-0.022994711995124817,-0.10882556438446045,-0.10055328905582428,0.4015335738658905,0.74456387758255,0.42000001668930054,-0.6325486302375793,0.46012458205223083,-1.4769223928451538,2.9999992847442627,-0.1665809005498886,-0.1625734120607376,-0.15892648696899414,-0.1544487625360489,0.008125836960971355,0.0018804008141160011,-8.66129994392395e-08,-0.007801855448633432
0.8666666666666667,0.13944374024868011,0.03421478718519211,0.0,0.6915163397789001,0.0,0.0,-0.7223608493804932,-0.011656008660793304,-0.10786919295787811,0.0,0.0,0.0,2.505244493484497,0.41525059938430786,0.7470245361328125,0.41999998688697815,0.5596354603767395,-3.0848234473523917e-06,-4.264855760993669e-06,-0.8287389278411865,-1.815771247493103e-05,-0.0003371895872987807,-9.57404263317585e-05,0.008637284860014915,-0.0034370601642876863,-0.0007183924899436533,0.48294326663017273,0.7588329911231995,0.601912260055542,-0.07970549166202545,-0.07311295717954636,0.16918987035751343,0.4015335738658905,0.74456387758255,0.42000001668930054,-0.6146948933601379,1.5709478855133057,-1.4935575723648071,-3.0000007152557373,-0.16428034007549286,-0.1607191264629364,-0.15740731358528137,-0.1533406376838684,0.0775894820690155,0.05805259943008423,0.04500984773039818,0.0261495653539896
0.8833333333333333,0.14017827808856964,0.03409118577837944,0.0,0.6898699998855591,0.0,0.0,-0.7239332795143127,0.08604055643081665,-0.014057368040084839,0.0,0.0,0.0,-1.0513875484466553,0.41525062918663025,0.7470244765281677,0.41999998688697815,0.5596355199813843,-2.99942507808737e-06,-4.117158823646605e-06,-0.8287388682365417,-1.2594242434715852e-05,-0.0003370728809386492,-9.370269253849983e-05,0.008652483113110065,-0.0033972510136663914,-0.0007283380255103111,0.48377376794815063,0.7581724524497986,0.6002520322799683,0.2018679678440094,-0.03159160166978836,-0.2033235877752304,0.4015335738658905,0.74456387758255,0.42000001668930054,-0.60422682762146,-0.17242814600467682,-1.4548511505126953,2.9999988079071045,-0.16475708782672882,-0.16135147213935852,-0.1579982042312622,-0.15391544997692108,0.04246631637215614,0.01833280734717846,0.012364259921014309,0.010932267643511295
0.9,0.1433728039264679,0.03287139907479286,0.0,0.6985525488853455,0.0,0.0,-0.7155587673187256,0.2431703358888626,-0.11714792996644974,0.0,0.0,0.0,2.274266481399536,0.41525059938430786,0.7470244765281677,0.41999998688697815,0.5596354603767395,-2.918513700933545e-06,-4.164958227192983e-06,-0.8287388682365417,-1.469391008868115e-05,-0.00033766613341867924,-9.472551755607128e-05,0.008657959289848804,-0.003418957581743598,-0.0007260248530656099,0.48592936992645264,0.7564721703529358,0.5981167554855347,0.07934930920600891,-0.11320646107196808,0.0038128457963466644,0.4015335738658905,0.74456387758255,0.42000001668930054,-0.5987473130226135,0.7458158135414124,-1.4719414710998535,-2.999999523162842,-0.16500620543956757,-0.16175158321857452,-0.15826906263828278,-0.15400388836860657,-0.04348168894648552,-0.044292762875556946,-0.030065476894378662,-0.014619361609220505
