vladlanda/robotic-transformer/data/env_000_episode_0096.csv
sim_time_s,robot_box_x,robot_box_y,robot_box_z,robot_box_quat_w,robot_box_quat_x,robot_box_quat_y,robot_box_quat_z,robot_box_linvel_x,robot_box_linvel_y,robot_box_linvel_z,robot_box_angvel_x,robot_box_angvel_y,robot_box_angvel_z,cube_world_x,cube_world_y,cube_world_z,cube_quat_w,cube_quat_x,cube_quat_y,cube_quat_z,cube_linvel_x,cube_linvel_y,cube_linvel_z,cube_angvel_x,cube_angvel_y,cube_angvel_z,endpoint_world_x,endpoint_world_y,endpoint_world_z,endpoint_linvel_x,endpoint_linvel_y,endpoint_linvel_z,target_cube_world_x,target_cube_world_y,target_cube_world_z,gripper_actual_pos_rad_gp_leftgearjoint,gripper_actual_vel_rad_s_gp_leftgearjoint,gripper_actual_pos_rad_gp_rotatingjoint,gripper_actual_vel_rad_s_gp_rotatingjoint,motor_angle_rad_joint1,motor_angle_rad_joint2,motor_angle_rad_joint3,motor_angle_rad_joint4,motor_speed_rad_s_joint1,motor_speed_rad_s_joint2,motor_speed_rad_s_joint3,motor_speed_rad_s_joint4
0.0,0.0,0.0,0.0,1.0,0.0,0.0,0.0,0.0,0.0,0.0,0.0,0.0,0.0,-0.3356725573539734,0.699624240398407,0.41999998688697815,1.0,0.0,0.0,0.0,0.0,0.0,0.0,0.0,0.0,0.0,3.42540442943573e-06,-0.005000244826078415,1.313499927520752,0.0,0.0,0.0,0.3823581337928772,0.7351944446563721,0.42000001668930054,-1.5707999467849731,0.0,0.0,0.0,0.0,0.0,0.0,0.0,0.0,0.0,0.0,0.0
0.016666666666666666,0.002882748143747449,0.002137321513146162,0.0,0.9998511075973511,0.0,0.0,-0.017256127670407295,0.23951184749603271,0.1796898990869522,0.0,0.0,0.0,-3.145662546157837,-0.33567267656326294,0.6996239423751831,0.41999998688697815,1.0,3.2799905511637917e-06,-8.339794135281409e-07,8.465515577427141e-08,-1.9833774786093272e-05,0.00017983047291636467,-6.132945418357849e-05,0.0009432245860807598,-0.004689525347203016,-0.00031981084612198174,-0.006988700479269028,0.004075238481163979,1.3159308433532715,-0.7946070432662964,1.0440913438796997,0.17932789027690887,0.3823581337928772,0.7351944446563721,0.42000001668930054,-1.5301094055175781,3.000001907348633,-0.045867860317230225,-3.0000009536743164,0.0008691739640198648,0.0007954643806442618,0.0007095910259522498,0.0006100884056650102,0.11046674847602844,0.09703148901462555,0.08273502439260483,0.06752568483352661
0.03333333333333333,0.008888873271644115,0.006707946769893169,0.0,0.9998384118080139,0.0,0.0,-0.017976123839616776,0.4028696119785309,0.31351572275161743,0.0,0.0,0.0,0.8619053959846497,-0.3356727957725525,0.6996238827705383,0.4200000464916229,1.0,3.3908531804627273e-06,-2.132488134520827e-06,-3.710428941872124e-08,0.0002635785494931042,0.0002693783608265221,-0.00010509602725505829,-0.0017707846127450466,0.004130862653255463,-0.00013547409616876394,-0.02646581083536148,0.025721047073602676,1.3167829513549805,-1.4739477634429932,1.5844324827194214,-0.05606118589639664,0.3823581337928772,0.7351944446563721,0.42000001668930054,-1.4800900220870972,3.000001907348633,-0.09590763598680496,-3.0000007152557373,0.0029262416064739227,0.002582864137366414,0.0022017040755599737,0.0017800614004954696,0.15897299349308014,0.13430874049663544,0.1081579253077507,0.08040802925825119
0.05,0.017548562958836555,0.013500282540917397,0.0,0.9994533061981201,0.0,0.0,-0.03306099772453308,0.5820339322090149,0.4501691460609436,0.0,0.0,0.0,-2.641418218612671,-0.3356728255748749,0.6996239423751831,0.4200000464916229,1.0,3.7651284401363228e-06,-2.2118861124909017e-06,5.622759147172474e-09,0.00026530996547080576,0.00026691515813581645,-0.00010440382175147533,-0.00172425655182451,0.004177390597760677,-0.00012948956282343715,-0.05220278352499008,0.05766371265053749,1.3127410411834717,-1.5985193252563477,2.2036640644073486,-0.3965292274951935,0.3823581337928772,0.7351944446563721,0.42000001668930054,-1.4300717115402222,3.000000238418579,-0.14593225717544556,-3.0000011920928955,0.0051884218119084835,0.004252578131854534,0.003244825406000018,0.0021614539436995983,0.1433185338973999,0.09297094494104385,0.04075506329536438,-0.013437967747449875
0.06666666666666667,0.02973674051463604,0.02277008816599846,0.0,0.9972077012062073,0.0,0.0,-0.07467776536941528,0.7911770939826965,0.6011360883712769,0.0,0.0,0.0,-5.864695072174072,-0.3356728255748749,0.6996238827705383,0.4200000464916229,0.9999999403953552,3.406779342185473e-06,-2.285526988998754e-06,4.300881926155853e-07,0.00026702668401412666,0.00026791810523718596,-0.00010437914170324802,-0.0017406379338353872,0.004211799707263708,-0.00012850595521740615,-0.08020911365747452,0.09798631817102432,1.303514003753662,-1.741337776184082,2.596635341644287,-0.7080036401748657,0.3823581337928772,0.7351944446563721,0.42000001668930054,-1.380048155784607,2.999998092651367,-0.11242535710334778,3.0000014305114746,0.0072028785943984985,0.005383395589888096,0.003452949458733201,0.0014068876625970006,0.11699032783508301,0.0578879788517952,-0.0032777241431176662,-0.06656578183174133
0.08333333333333333,0.03609097748994827,0.03675084933638573,0.0,0.9950878620147705,0.0,0.0,-0.09899549186229706,0.24788492918014526,0.9297637343406677,0.0,0.0,0.0,-1.9091566801071167,-0.3356728255748749,0.6996238827705383,0.4200000464916229,0.9999999403953552,3.6260987599234795e-06,-2.3352677089860663e-06,3.032194797469856e-07,0.00026614003581926227,0.0002668494707904756,-0.00010405294597148895,-0.001728319562971592,0.004196429159492254,-0.00012790538312401623,-0.11220157146453857,0.13803350925445557,1.288743495941162,-1.895326852798462,2.464627981185913,-0.9740808010101318,0.3823581337928772,0.7351944446563721,0.42000001668930054,-1.3300484418869019,2.9999992847442627,-0.14441321790218353,-3.0000016689300537,0.002995839575305581,0.0005611833184957504,-0.002036861376836896,-0.004807276651263237,-0.3560136556625366,-0.3978496789932251,-0.4422912001609802,-0.48963358998298645
0.1,0.04733070358633995,0.04890436306595802,0.0,0.9907922148704529,0.0,0.0,-0.13539114594459534,0.7658117413520813,0.7077697515487671,0.0,0.0,0.0,-5.259786605834961,-0.3356728255748749,0.6996238827705383,0.4200000464916229,1.0,3.422146846787655e-06,-2.30855562222132e-06,1.7962889842237928e-07,0.0002668158267624676,0.00026800387422554195,-0.00010440708138048649,-0.001743036205880344,0.00420708442106843,-0.00012890443031210452,-0.14043383300304413,0.18235549330711365,1.2735249996185303,-1.5020086765289307,2.947073459625244,-0.9601026773452759,0.3823581337928772,0.7351944446563721,0.42000001668930054,-1.280037760734558,2.9999985694885254,-0.1944354623556137,-3.0000014305114746,0.003465206129476428,-0.0007015357841737568,-0.00501887034624815,-0.009494759142398834,0.016901766881346703,-0.09580881148576736,-0.20724764466285706,-0.31738269329071045
0.11666666666666667,0.055954936891794205,0.059111591428518295,0.0,0.9884850382804871,0.0,0.0,-0.15131855010986328,0.48544836044311523,0.5412885546684265,0.0,0.0,0.0,-0.8118477463722229,-0.3356728255748749,0.6996239423751831,0.4200000464916229,1.0,3.7115689792699413e-06,-2.332697931706207e-06,2.574186908077536e-07,0.0002648586523719132,0.0002663538616616279,-0.00010423408821225166,-0.001718218787573278,0.004170075990259647,-0.00012914866965729743,-0.17152217030525208,0.23176909983158112,1.2534520626068115,-1.9407660961151123,3.1363883018493652,-1.374657154083252,0.3823581337928772,0.7351944446563721,0.42000001668930054,-1.2309411764144897,2.864973783493042,-0.16062995791435242,3.0,0.0008367956033907831,-0.004853632766753435,-0.010674565099179745,-0.016633158549666405,-0.12185850739479065,-0.2157677412033081,-0.3072930574417114,-0.39636650681495667
0.13333333333333333,0.06194193288683891,0.06545408815145493,0.0,0.9839918613433838,0.0,0.0,-0.17821355164051056,0.309166818857193,0.31138208508491516,0.0,0.0,0.0,-4.0973801612854,-0.3356728255748749,0.6996238827705383,0.4200000464916229,0.9999999403953552,3.4248023439431563e-06,-2.3019676973490277e-06,1.55990974803899e-07,0.00026707074721343815,0.00026811487623490393,-0.0001044438686221838,-0.0017434153705835342,0.004212110303342342,-0.0001287730992771685,-0.20110031962394714,0.2876656651496887,1.2279599905014038,-1.6204822063446045,3.58087158203125,-1.6911786794662476,0.3823581337928772,0.7351944446563721,0.42000001668930054,-1.181021809577942,3.0000007152557373,-0.1923646330833435,-3.000000238418579,-0.0014386933762580156,-0.008800279349088669,-0.016234567388892174,-0.023747578263282776,-0.1848732978105545,-0.2808002233505249,-0.37303626537323,-0.4615379571914673
0.15,0.0693131610751152,0.0726981908082962,0.0,0.9729247093200684,0.0,0.0,-0.2311221808195114,0.49437734484672546,0.48629578948020935,0.0,0.0,0.0,-7.3286051750183105,-0.3356728255748749,0.6996238827705383,0.4200000464916229,1.0,3.7139620872039814e-06,-2.2077986159274587e-06,-1.6908892064293468e-07,0.0002635350974742323,0.0002653622650541365,-0.00010421848855912685,-0.0017012546304613352,0.004144175443798304,-0.00012960522144567221,-0.229201540350914,0.3511800169944763,1.1928832530975342,-1.6201214790344238,4.008099555969238,-2.476508140563965,0.3823581337928772,0.7351944446563721,0.42000001668930054,-1.1397250890731812,2.005479097366333,-0.1586175262928009,2.999999523162842,-0.007187297102063894,-0.01560915820300579,-0.024061113595962524,-0.032550107687711716,-0.4359135925769806,-0.4755017161369324,-0.5131325721740723,-0.5489689111709595
0.16666666666666666,0.07435448467731476,0.08290001004934311,0.0,0.9650498032569885,0.0,0.0,-0.2620666027069092,0.22736132144927979,0.6586156487464905,0.0,0.0,0.0,-2.6955645084381104,-0.3356728255748749,0.6996238827705383,0.4200000464916229,0.9999999403953552,3.63843651030038e-06,-2.278771944475011e-06,2.7007371272702585e-07,0.0002668274973984808,0.0002675004070624709,-0.00010410207323729992,-0.0017399153439328074,0.004210097715258598,-0.00012781354598701,-0.26180794835090637,0.4145660102367401,1.146653413772583,-1.7503128051757812,3.973318576812744,-3.08815860748291,0.3823581337928772,0.7351944446563721,0.42000001668930054,-1.0915031433105469,3.0000007152557373,-0.190322145819664,-3.000000476837158,-0.01611967943608761,-0.02501494064927101,-0.03389452025294304,-0.04276951402425766,-0.5951534509658813,-0.6133245825767517,-0.628738284111023,-0.6416962742805481
0.18333333333333332,0.08362782746553421,0.08965302258729935,0.0,0.9525702595710754,0.0,0.0,-0.3043188452720642,0.5855211615562439,0.3477354049682617,0.0,0.0,0.0,-5.890510082244873,-0.3356728255748749,0.6996238827705383,0.4200000464916229,1.0,3.3865092063933844e-06,-2.3002239686320536e-06,1.4393610570095916e-07,0.00026674469700083137,0.0002678720047697425,-0.00010436843149363995,-0.0017412101151421666,0.004205914679914713,-0.0001287828345084563,-0.28896743059158325,0.48343855142593384,1.0875754356384277,-1.3825578689575195,4.298248767852783,-4.005589485168457,0.3823581337928772,0.7351944446563721,0.42000001668930054,-1.0415000915527344,2.999999523162842,-0.24034951627254486,-2.9999990463256836,-0.02451060526072979,-0.03360303118824959,-0.04263993352651596,-0.0516386516392231,-0.6791508793830872,-0.6558303236961365,-0.6319685578346252,-0.608024001121521
0.2,0.08733317255973816,0.09986562281847,0.0,0.9449427127838135,0.0,0.0,-0.32723575830459595,0.21861405670642853,0.5842932462692261,0.0,0.0,0.0,-1.7130614519119263,-0.3356728255748749,0.6996239423751831,0.4200000464916229,1.0,3.675592324725585e-06,-2.326503590666107e-06,2.2113523812095082e-07,0.00026484555564820766,0.0002663125633262098,-0.00010421546176075935,-0.0017177078407257795,0.004169898107647896,-0.00012909245560877025,-0.31337985396385193,0.5459249019622803,1.0106240510940552,-1.2330104112625122,3.6405601501464844,-4.986067771911621,0.3823581337928772,0.7351944446563721,0.42000001668930054,-0.9914908409118652,2.999999761581421,-0.2903759479522705,-3.0000009536743164,-0.039525553584098816,-0.04867485538125038,-0.05742952972650528,-0.06591853499412537,-0.610164225101471,-0.6609559059143066,-0.7095749974250793,-0.7542492747306824
0.21666666666666667,0.09040147066116333,0.10522700846195221,0.0,0.9326102137565613,0.0,0.0,-0.3608853816986084,0.11594753712415695,0.24144892394542694,0.0,0.0,0.0,-5.155987739562988,-0.3356728255748749,0.6996238827705383,0.4200000464916229,1.0,3.322369366287603e-06,-2.2079589143686462e-06,2.742768288044317e-07,0.00026662732125259936,0.0002674952265806496,-0.00010426435619592667,-0.0017357958713546395,0.004204710014164448,-0.0001283393648918718,-0.33121877908706665,0.6048339605331421,0.921218752861023,-0.7638230323791504,3.3431625366210938,-5.681057929992676,0.3823581337928772,0.7351944446563721,0.42000001668930054,-0.9414812922477722,2.9999992847442627,-0.3404052257537842,-2.999997854232788,-0.049822431057691574,-0.05954645574092865,-0.06885584443807602,-0.0778532475233078,-0.6924005746841431,-0.7041149139404297,-0.7159679532051086,-0.7265316843986511
0.23333333333333334,0.09481489658355713,0.11271778494119644,0.0,0.9257816076278687,0.0,0.0,-0.37805870175361633,0.23352351784706116,0.48369893431663513,0.0,0.0,0.0,-1.1834427118301392,-0.3356728255748749,0.6996238827705383,0.4200000464916229,1.0,3.6565743357641622e-06,-2.3733584839646937e-06,-4.0767665154817223e-07,0.00026611756766214967,0.0002672596601769328,-0.00010423432104289532,-0.0017335788579657674,0.004194698762148619,-0.00012854607484769076,-0.34506934881210327,0.6503763198852539,0.8225897550582886,-0.6405733823776245,2.242164373397827,-6.128498077392578,0.3823581337928772,0.7351944446563721,0.42000001668930054,-0.8914706110954285,2.9999990463256836,-0.39043641090393066,-3.0000030994415283,-0.0650482326745987,-0.07444693148136139,-0.08326905965805054,-0.0916396826505661,-0.9885764122009277,-0.9907729625701904,-0.9920767545700073,-0.957687497138977
0.25,0.0964173898100853,0.11759107559919357,0.0,0.9160696864128113,0.0,0.0,-0.4010190963745117,0.05183260142803192,0.22043608129024506,0.0,0.0,0.0,-4.141566753387451,-0.3356728255748749,0.6996239423751831,0.4200000464916229,1.0,3.6305725643615006e-06,-2.2425567749451147e-06,1.1221782614256881e-08,0.0002667990338522941,0.0002670611720532179,-0.00010390859097242355,-0.0017342250794172287,0.004210473503917456,-0.00012702550156973302,-0.3527790904045105,0.6815091371536255,0.7153893113136292,-0.1535860151052475,1.4856934547424316,-6.6124372482299805,0.3823581337928772,0.7351944446563721,0.42000001668930054,-0.8414599299430847,2.999999523162842,-0.44046807289123535,-2.9999992847442627,-0.08123379945755005,-0.09060446172952652,-0.09943555295467377,-0.10783923417329788,-0.9937624335289001,-0.994784414768219,-0.9955584406852722,-0.9961680173873901
0.26666666666666666,0.09446784108877182,0.12303159385919571,0.0,0.9129934310913086,0.0,0.0,-0.4079742133617401,-0.16941602528095245,0.3787975013256073,0.0,0.0,0.0,0.04573029279708862,-0.3356727957725525,0.6996238827705383,0.4200000464916229,0.9999999403953552,3.740199190360727e-06,-2.2362416984833544e-06,4.4997000259172637e-07,0.0002647960209287703,0.0002667310182005167,-0.00010454165749251842,-0.0017190045909956098,0.004166723228991032,-0.00013016752200201154,-0.35768336057662964,0.6952228546142578,0.6086304187774658,-0.14328905940055847,0.22031453251838684,-6.234198570251465,0.3823581337928772,0.7351944446563721,0.42000001668930054,-0.791451096534729,3.0000030994415283,-0.49049925804138184,-2.999997138977051,-0.0984533354640007,-0.10768310725688934,-0.11640603840351105,-0.12471827119588852,-1.0027704238891602,-1.002084732055664,-1.0015619993209839,-1.0011461973190308
0.2833333333333333,0.09546823054552078,0.12474843114614487,0.0,0.9052820801734924,0.0,0.0,-0.4248110055923462,0.12609520554542542,0.041625309735536575,0.0,0.0,0.0,-2.970566511154175,-0.3356728255748749,0.6996238827705383,0.4200000464916229,1.0,3.3916567190317437e-06,-2.2910930965736043e-06,1.2460451159768127e-07,0.0002667719090823084,0.00026789281400851905,-0.00010437355376780033,-0.0017412637826055288,0.004206368234008551,-0.0001287830382352695,-0.35680264234542847,0.6980324387550354,0.5062187314033508,0.3575456440448761,-0.13248194754123688,-5.847809791564941,0.3823581337928772,0.7351944446563721,0.42000001668930054,-0.7414423227310181,2.9999992847442627,-0.5405284762382507,-3.000002145767212,-0.11457636952400208,-0.12387312948703766,-0.13269497454166412,-0.14102233946323395,-1.0106521844863892,-1.0080503225326538,-1.0060639381408691,-1.004479169845581
0.3,0.09403972327709198,0.12430825084447861,0.0,0.9056856632232666,0.0,0.0,-0.42394983768463135,-0.15855436027050018,-0.04677918925881386,0.0,0.0,0.0,0.9965996742248535,-0.3356728255748749,0.6996239423751831,0.4200000464916229,1.0,3.68071960110683e-06,-2.3190264073491562e-06,2.0110041987209115e-07,0.00026479086955077946,0.00026625796454027295,-0.00010421173647046089,-0.0017167659243568778,0.004168913699686527,-0.0001290974614676088,-0.34929531812667847,0.6963611245155334,0.41727638244628906,0.6738162040710449,-0.14270780980587006,-4.931981086730957,0.3823581337928772,0.7351944446563721,0.42000001668930054,-0.6914352774620056,3.0,-0.5905551910400391,-3.000002145767212,-0.1323840469121933,-0.1414238065481186,-0.15005460381507874,-0.15823274850845337,-1.0174283981323242,-1.0132454633712769,-1.0100443363189697,-1.0074673891067505
0.31666666666666665,0.08826189488172531,0.12227058410644531,0.0,0.9170605540275574,0.0,0.0,-0.398747980594635,-0.31233564019203186,-0.2202320098876953,0.0,0.0,0.0,4.204141616821289,-0.3359416723251343,0.6984738707542419,0.4200434386730194,0.9998932480812073,0.0009350116015411913,1.69966970133828e-05,-0.014579426497220993,0.013504909351468086,0.03409852460026741,-0.05726451426744461,-2.939509391784668,0.10038549453020096,0.542606770992279,-0.34844398498535156,0.7005336284637451,0.4274091124534607,-0.1181732565164566,0.16968435049057007,-0.22454789280891418,0.3823581337928772,0.7351944446563721,0.42000001668930054,-0.641426146030426,2.9996747970581055,-0.6409793496131897,-3.0000686645507812,-0.13552111387252808,-0.14516058564186096,-0.1541563868522644,-0.16237349808216095,-0.10536555200815201,-0.15578950941562653,-0.19357362389564514,-0.21363119781017303
0.3333333333333333,0.08126211911439896,0.11693017929792404,0.0,0.9206838607788086,0.0,0.0,-0.39030909538269043,-0.45857927203178406,-0.358832448720932,0.0,0.0,0.0,0.10947537422180176,-0.3359419107437134,0.698511004447937,0.4200000464916229,0.9998937249183655,2.549977580201812e-06,2.8081430514248495e-07,-0.014579777605831623,-7.745267794234678e-05,8.083600550889969e-05,-4.670466296374798e-05,0.003911752253770828,-0.0067457216791808605,-0.00029143335996195674,-0.3464985489845276,0.7017116546630859,0.42397499084472656,0.31233447790145874,0.0670946016907692,-0.20658300817012787,0.3823581337928772,0.7351944446563721,0.42000001668930054,-0.5914205312728882,2.9999897480010986,-0.6910220980644226,-2.9999959468841553,-0.13971343636512756,-0.149234339594841,-0.1578793227672577,-0.1654580533504486,-0.3500070571899414,-0.2959256172180176,-0.2284456044435501,-0.1456310898065567
0.35,0.07196012139320374,0.10936874896287918,0.0,0.9290783405303955,0.0,0.0,-0.3698830306529999,-0.6055302619934082,-0.4944985508918762,0.0,0.0,0.0,3.613468885421753,-0.33284279704093933,0.7020304203033447,0.4200006425380707,0.9989144206047058,-5.760767453466542e-05,4.1451534343650565e-05,-0.0465833842754364,0.27054551243782043,0.2566825747489929,-0.0022533326409757137,0.12574154138565063,-0.02136526070535183,-10.447439193725586,-0.3413909673690796,0.7053859829902649,0.42092758417129517,0.2384619116783142,0.30793219804763794,-0.12369747459888458,0.3823581337928772,0.7351944446563721,0.42000001668930054,-0.5414143204689026,2.9998369216918945,-0.7410545945167542,-2.9999804496765137,-0.1463267058134079,-0.15451502799987793,-0.16157692670822144,-0.16730736196041107,-0.3692336976528168,-0.2845635712146759,-0.18347139656543732,-0.06547047197818756
0.36666666666666664,0.06434603035449982,0.0992395207285881,0.0,0.9311444163322449,0.0,0.0,-0.3646506667137146,-0.45549461245536804,-0.6326282024383545,0.0,0.0,0.0,-0.28602391481399536,-0.32846683263778687,0.7052974104881287,0.42093902826309204,0.9862118363380432,-0.023691609501838684,0.0031196775380522013,-0.16375328600406647,0.26700448989868164,0.19605077803134918,0.05997602641582489,-3.0158746242523193,0.6108865737915039,-15.087075233459473,-0.3356388509273529,0.709317684173584,0.4217163026332855,0.4821648895740509,0.16274712979793549,0.07862043380737305,0.3823581337928772,0.7351944446563721,0.42000001668930054,-0.49138954281806946,2.999931573867798,-0.7910653948783875,-2.9999735355377197,-0.1530221551656723,-0.1591482311487198,-0.16384464502334595,-0.1669209897518158,-0.5205857753753662,-0.3499508500099182,-0.16215461492538452,0.04031449928879738
0.3833333333333333,0.05342869460582733,0.08779041469097137,0.0,0.9216727018356323,0.0,0.0,-0.3879683315753937,-0.6331926584243774,-0.7524415850639343,0.0,0.0,0.0,-3.915184259414673,-0.31960681080818176,0.7121025323867798,0.42180269956588745,0.9660516381263733,-0.04549923911690712,0.011404172517359257,-0.2540550231933594,0.9161893129348755,0.7075753808021545,0.08707399666309357,-4.258000373840332,2.358527898788452,-6.606932640075684,-0.323303759098053,0.7153267860412598,0.4234425127506256,0.948279619216919,0.5889634490013123,0.13554321229457855,0.3823581337928772,0.7351944446563721,0.42000001668930054,-0.44135546684265137,3.000016212463379,-0.8410773873329163,-2.999995231628418,-0.1636209338903427,-0.16629621386528015,-0.16722454130649567,-0.16628091037273407,-0.4517030417919159,-0.2681323289871216,-0.06131622940301895,0.16493912041187286
0.4,0.04609842970967293,0.07317866384983063,0.0,0.9001519083976746,0.0,0.0,-0.43557605147361755,-0.38624870777130127,-0.9249389171600342,0.0,0.0,0.0,-7.066343784332275,-0.2955930233001709,0.7280611395835876,0.4247441291809082,0.9513742923736572,-0.05885180085897446,-0.01623530313372612,-0.30192673206329346,1.978845238685608,1.365217924118042,0.048698555678129196,27.21860694885254,-16.013954162597656,6.5028977394104,-0.29922041296958923,0.7320082187652588,0.4258083999156952,1.8820103406906128,1.2836650609970093,0.32974910736083984,0.3823581337928772,0.7351944446563721,0.42000001668930054,-0.39631786942481995,1.8243013620376587,-0.8910980820655823,-3.000000476837158,-0.17118504643440247,-0.17080074548721313,-0.1682811975479126,-0.16357681155204773,-0.45158058404922485,-0.2705114185810089,-0.06912899017333984,0.14769293367862701
0.4166666666666667,0.041182953864336014,0.06232958659529686,0.0,0.8634539246559143,0.0,0.0,-0.5044276714324951,-0.20969906449317932,-0.6330341696739197,0.0,0.0,0.0,-10.037250518798828,-0.2399614304304123,0.7571601867675781,0.42694711685180664,0.9350783228874207,-0.009268604218959808,-0.06305941939353943,-0.3486631512641907,4.703886985778809,1.731429934501648,0.2554374933242798,12.062546730041504,-10.534895896911621,21.22838592529297,-0.24314352869987488,0.7608132362365723,0.4281582534313202,4.3787431716918945,2.299278736114502,0.1514630913734436,0.3823581337928772,0.7351944446563721,0.42000001668930054,-0.3773981034755707,0.8459430932998657,-0.8608760833740234,2.997819185256958,-0.18422171473503113,-0.18003785610198975,-0.1730082780122757,-0.16386032104492188,-0.6088362336158752,-0.47537359595298767,-0.2464667111635208,-0.02774524688720703
0.43333333333333335,0.040109675377607346,0.05428604781627655,0.0,0.8091922998428345,0.0,0.0,-0.5875439047813416,-0.012314783409237862,-0.42359569668769836,0.0,0.0,0.0,-12.706371307373047,-0.14569750428199768,0.7969542741775513,0.4297029376029968,0.905785858631134,0.018379060551524162,-0.09441268444061279,-0.41267454624176025,6.968400001525879,2.218247652053833,0.3453815281391144,8.502784729003906,-10.596385955810547,10.371562004089355,-0.14858977496623993,0.8013262748718262,0.4308652877807617,6.765649795532227,2.627725124359131,0.2840304970741272,0.3823581337928772,0.7351944446563721,0.42000001668930054,-0.3610626459121704,1.1547632217407227,-0.8871781229972839,-3.000000476837158,-0.19608743488788605,-0.18909546732902527,-0.17817333340644836,-0.16547870635986328,-0.7263898253440857,-0.5550144910812378,-0.3423672914505005,-0.15757571160793304
0.45,0.03569093346595764,0.051679082214832306,0.0,0.7619805335998535,0.0,0.0,-0.6475999355316162,-0.2335992306470871,-0.1358247548341751,0.0,0.0,0.0,-7.781898498535156,-0.03737552836537361,0.8287079334259033,0.43638864159584045,0.8508131504058838,0.07132866233587265,-0.11610440909862518,-0.50749272108078,6.374944686889648,0.6992899775505066,0.43850618600845337,-1.0939465761184692,-20.331993103027344,23.194129943847656,-0.04139363765716553,0.8354545831680298,0.4376363754272461,6.390289306640625,1.54722261428833,0.44599461555480957,0.3823581337928772,0.7351944446563721,0.42000001668930054,-0.34198635816574097,1.0309839248657227,-0.8672916889190674,2.9944145679473877,-0.21062441170215607,-0.20238567888736725,-0.18733353912830353,-0.17104472219944,-0.6569849848747253,-0.7124034762382507,-0.5143813490867615,-0.3364030420780182
0.4666666666666667,0.035745035856962204,0.04325689747929573,0.0,0.7356815934181213,0.0,0.0,-0.677327573299408,-0.029529018327593803,-0.5076631307601929,0.0,0.0,0.0,-3.458512306213379,0.0626324787735939,0.8453475832939148,0.4430100917816162,0.8155800700187683,0.07927210628986359,-0.11646667122840881,-0.5612311959266663,5.918410778045654,0.09425405412912369,0.39859142899513245,-2.294466018676758,-18.549739837646484,0.43447184562683105,0.059859633445739746,0.8529332876205444,0.4447133243083954,5.704468727111816,0.3190131187438965,0.5562732219696045,0.3823581337928772,0.7351944446563721,0.42000001668930054,-0.3265703320503235,0.7726181149482727,-0.8932417631149292,-3.0000030994415283,-0.2183496206998825,-0.21018142998218536,-0.1919584572315216,-0.17285041511058807,-0.6374466419219971,-0.550765335559845,-0.3217582404613495,-0.11852779239416122
0.48333333333333334,0.0331319198012352,0.040316708385944366,0.0,0.7317304611206055,0.0,0.0,-0.6815940737724304,-0.12082340568304062,-0.10892245173454285,0.0,0.0,0.0,0.11139363050460815,0.15060928463935852,0.8413159847259521,0.44879454374313354,0.7418071031570435,0.06507100909948349,-0.12150569260120392,-0.6562957763671875,4.4853196144104,-1.5094492435455322,0.4098450541496277,-12.476208686828613,11.719343185424805,9.598902702331543,0.14709390699863434,0.8505461812019348,0.45233654975891113,4.936808109283447,-0.527126669883728,0.34524625539779663,0.3823581337928772,0.7351944446563721,0.42000001668930054,-0.3165356516838074,0.36699193716049194,-0.9432657957077026,-2.9988324642181396,-0.23235011100769043,-0.22157809138298035,-0.19916844367980957,-0.17634817957878113,-0.6897978782653809,-0.556359589099884,-0.35886886715888977,-0.18013609945774078
0.5,0.033699482679367065,0.03411155939102173,0.0,0.7178795337677002,0.0,0.0,-0.6961673498153687,0.0902700200676918,-0.3746250867843628,0.0,0.0,0.0,-3.1584391593933105,0.22487835586071014,0.8258450031280518,0.4483816623687744,0.6720261573791504,0.011790434829890728,-0.1536153107881546,-0.7243232727050781,3.687972068786621,-1.5638530254364014,0.3366762697696686,23.40056037902832,-2.54079270362854,31.389440536499023,0.22073763608932495,0.8376717567443848,0.45509809255599976,4.225830554962158,-1.2561585903167725,-0.07133038341999054,0.3823581337928772,0.7351944446563721,0.42000001668930054,-0.3096868395805359,0.4218674600124359,-0.9932898283004761,-2.9998834133148193,-0.2397170513868332,-0.2269657701253891,-0.20200085639953613,-0.17681626975536346,-0.48351767659187317,-0.3267481327056885,-0.16694162786006927,-0.02003471553325653
0.5166666666666666,0.03700036182999611,0.032120928168296814,0.0,0.7163287401199341,0.0,0.0,-0.6977629661560059,0.22635535895824432,-0.11129472404718399,0.0,0.0,0.0,0.5859061479568481,0.2853166162967682,0.8001065850257874,0.4439431428909302,0.5908176898956299,-0.054756782948970795,-0.1762387901544571,-0.785414457321167,2.945800542831421,-2.0387704372406006,-0.45129045844078064,-17.401756286621094,14.423524856567383,-3.2826435565948486,0.2808449864387512,0.8138861656188965,0.45348411798477173,3.300476551055908,-1.540025234222412,-0.21510453522205353,0.3823581337928772,0.7351944446563721,0.42000001668930054,-0.3006809949874878,0.6510339975357056,-1.0433121919631958,-2.9977118968963623,-0.23969855904579163,-0.2339177280664444,-0.2067309468984604,-0.17959482967853546,0.08440569788217545,-0.18953093886375427,-0.14175885915756226,-0.10503900796175003
0.5333333333333333,0.042681559920310974,0.030306894332170486,0.0,0.7048717737197876,0.0,0.0,-0.7093347311019897,0.3891971707344055,-0.05675896257162094,0.0,0.0,0.0,-2.826937198638916,0.3326980173587799,0.7775695323944092,0.43262913823127747,0.5542277097702026,-0.08230049163103104,-0.16353484988212585,-0.8119819164276123,2.455561637878418,-1.3238922357559204,-0.793395459651947,0.983456552028656,7.105638027191162,-5.1863484382629395,0.3295692801475525,0.7912458181381226,0.4430077373981476,2.585310459136963,-1.3328862190246582,-0.8431196212768555,0.3823581337928772,0.7351944446563721,0.42000001668930054,-0.28533872961997986,1.0430543422698975,-1.0933343172073364,-2.999455690383911,-0.23419828712940216,-0.23315103352069855,-0.20691946148872375,-0.18076512217521667,0.43754392862319946,0.17638766765594482,0.05484220013022423,-0.06498036533594131
0.55,0.05061139166355133,0.027718324214220047,0.0,0.7052896022796631,0.0,0.0,-0.7089192867279053,0.5035394430160522,-0.2230869084596634,0.0,0.0,0.0,0.9776565432548523,0.3635440766811371,0.7595376372337341,0.4238729178905487,0.5390692949295044,-0.09098193794488907,-0.05502016469836235,-0.8355233073234558,1.1983078718185425,-1.1327800750732422,-0.030844606459140778,-6.602343559265137,-1.5318944454193115,10.229519844055176,0.36164590716362,0.7706447839736938,0.43381282687187195,1.1743347644805908,-0.9876453876495361,-0.0012361779808998108,0.3823581337928772,0.7351944446563721,0.42000001668930054,-0.2689495384693146,0.8519853949546814,-1.143356442451477,-2.9957897663116455,-0.22708472609519958,-0.229322150349617,-0.20539088547229767,-0.18153250217437744,0.42946165800094604,0.2800348401069641,0.12352176755666733,-0.03148569166660309
0.5666666666666667,0.055955223739147186,0.0270782969892025,0.0,0.6961789131164551,0.0,0.0,-0.7178683280944824,0.2631256580352783,0.019260216504335403,0.0,0.0,0.0,-2.3868815898895264,0.3783167600631714,0.7483094334602356,0.4234387278556824,0.5457990765571594,-0.07944968342781067,-0.05105678737163544,-0.8325768113136292,0.6306447982788086,-0.9229167699813843,0.14030392467975616,-9.872276306152344,3.634268045425415,9.192130088806152,0.375810444355011,0.7580533027648926,0.4341999292373657,0.5640578269958496,-0.601591169834137,-0.01753714494407177,0.3823581337928772,0.7351944446563721,0.42000001668930054,-0.2615893483161926,0.31332147121429443,-1.1346995830535889,3.0000059604644775,-0.21910783648490906,-0.22378693521022797,-0.2032279074192047,-0.1825699657201767,0.5313597917556763,0.40117719769477844,0.1695609986782074,-0.04917745664715767
0.5833333333333334,0.062011927366256714,0.023558693006634712,0.0,0.6985841393470764,0.0,0.0,-0.7155278921127319,0.3922188878059387,-0.2406708151102066,0.0,0.0,0.0,1.2309505939483643,0.3827551305294037,0.7398338317871094,0.4237534999847412,0.5606520175933838,-0.07575875520706177,-0.0213552787899971,-0.8243019580841064,-0.1013137474656105,-0.4389646351337433,0.14002203941345215,6.58362340927124,7.910549640655518,2.2097716331481934,0.38004884123802185,0.748726487159729,0.43423935770988464,-0.057206764817237854,-0.5122131705284119,-0.005189791321754456,0.3823581337928772,0.7351944446563721,0.42000001668930054,-0.26055246591567993,-0.03517360985279083,-1.1570466756820679,-2.998760461807251,-0.20873120427131653,-0.21513348817825317,-0.19863863289356232,-0.18184545636177063,0.5492473244667053,0.4894005060195923,0.25617241859436035,0.03155042231082916
0.6,0.06586635857820511,0.02334662526845932,0.0,0.6906015276908875,0.0,0.0,-0.7232354879379272,0.1645735204219818,0.015423400327563286,0.0,0.0,0.0,-2.146345853805542,0.3812275230884552,0.7354057431221008,0.42122283577919006,0.5848079919815063,-0.01819762960076332,0.013835062272846699,-0.8108495473861694,-0.11758839339017868,-0.1326591968536377,-0.12866321206092834,11.139918327331543,-0.5127350091934204,6.481157302856445,0.37711405754089355,0.7421658039093018,0.4291176199913025,-0.2355625033378601,-0.2817308306694031,-0.4574669599533081,0.3823581337928772,0.7351944446563721,0.42000001668930054,-0.2646499276161194,-0.42462438344955444,-1.132566213607788,3.0000009536743164,-0.20042333006858826,-0.20771799981594086,-0.19529898464679718,-0.18238256871700287,0.5908560156822205,0.5246663093566895,0.2552826404571533,3.7917791928521183e-07
0.6166666666666667,0.07035163044929504,0.019870128482580185,0.0,0.6941283345222473,0.0,0.0,-0.7198512554168701,0.30586931109428406,-0.24197505414485931,0.0,0.0,0.0,1.3462222814559937,0.3789704144001007,0.7341902852058411,0.4200001358985901,0.5950342416763306,-1.9790117221418768e-05,-6.039066647645086e-05,-0.8037002682685852,-0.14913056790828705,-0.04842771962285042,-0.0008775459718890488,0.1119641438126564,0.024200083687901497,1.0237982273101807,0.37317028641700745,0.7386078834533691,0.4262523055076599,-0.2784367501735687,-0.14048239588737488,0.1261686533689499,0.3823581337928772,0.7351944446563721,0.42000001668930054,-0.30193570256233215,-2.9999725818634033,-1.15472412109375,-2.9999840259552,-0.19051067531108856,-0.19844506680965424,-0.1901964396238327,-0.18123799562454224,0.4692452549934387,0.4722083806991577,0.25747406482696533,0.052398111671209335
0.6333333333333333,0.0771188735961914,0.019583839923143387,0.0,0.6867153644561768,0.0,0.0,-0.7269263863563538,0.4422811269760132,0.010296761989593506,0.0,0.0,0.0,-2.060391664505005,0.3774222731590271,0.7336728572845459,0.4199998378753662,0.6011632084846497,1.3796567372992286e-06,-4.071972398378421e-06,-0.7991262078285217,-0.071078360080719,-0.02422202005982399,-1.3067619875073433e-05,0.0013331073569133878,-3.541536716511473e-05,0.8526973724365234,0.37278032302856445,0.7394845485687256,0.42861083149909973,0.0786299780011177,0.17403081059455872,0.1735638976097107,0.3823581337928772,0.7351944446563721,0.42000001668930054,-0.35196056962013245,-2.9981844425201416,-1.204671859741211,-2.9987714290618896,-0.18318690359592438,-0.19120647013187408,-0.18653462827205658,-0.1808997392654419,0.5470585823059082,0.5201638340950012,0.2920558750629425,0.08312112092971802
0.65,0.08615744113922119,0.018789418041706085,0.0,0.6915543079376221,0.0,0.0,-0.7223244905471802,0.5846323370933533,-0.05393093451857567,0.0,0.0,0.0,1.7199208736419678,0.37711232900619507,0.7335529923439026,0.4200001060962677,0.603657066822052,5.5892196542117745e-06,-2.0113370737817604e-06,-0.7972439527511597,-0.0001652288920013234,-0.0003088282828684896,-0.00013860873878002167,-0.006201209966093302,0.0064055537804961205,0.041308045387268066,0.3725942075252533,0.7416177988052368,0.4317375123500824,-0.09247767925262451,0.08907383680343628,0.21335183084011078,0.3823581337928772,0.7351944446563721,0.42000001668930054,-0.40197059512138367,-2.9999098777770996,-1.2546888589859009,-2.9999470710754395,-0.17386311292648315,-0.182036891579628,-0.18070264160633087,-0.17808549106121063,0.521209180355072,0.5354287624359131,0.36786192655563354,0.21743208169937134
0.6666666666666666,0.09470538794994354,0.01589629054069519,0.0,0.6858302354812622,0.0,0.0,-0.7277615666389465,0.4980736970901489,-0.2466639280319214,0.0,0.0,0.0,-1.8797221183776855,0.3771122694015503,0.7335532903671265,0.4200000464916229,0.6036571860313416,7.904310450612684e-08,-3.205884240742307e-06,-0.7972439527511597,0.00013496563769876957,-0.00027896848041564226,-9.151594713330269e-05,0.006255103275179863,-0.0010484190424904227,-0.0006077995640225708,0.37221717834472656,0.7419614791870117,0.4358881711959839,0.018332162871956825,-0.05655501037836075,0.2868652939796448,0.3823581337928772,0.7351944446563721,0.42000001668930054,-0.4519692361354828,-2.999866008758545,-1.304681658744812,-2.9999349117279053,-0.16863679885864258,-0.17548306286334991,-0.17555689811706543,-0.1740414798259735,0.24473564326763153,0.362007737159729,0.3308747112751007,0.31857120990753174
0.6833333333333333,0.10470724105834961,0.009278113953769207,0.0,0.6603681445121765,0.0,0.0,-0.7509419918060303,0.6422967314720154,-0.48985517024993896,0.0,0.0,0.0,-4.967762470245361,0.3771122694015503,0.7335532307624817,0.4200000464916229,0.6036571860313416,3.6119394053457654e-07,-3.3174396776303183e-06,-0.7972440123558044,0.00014248499064706266,-0.00027538288850337267,-9.594764560461044e-05,0.006098177749663591,-0.0010234130313619971,-0.0006278560613282025,0.3760036826133728,0.7420806884765625,0.44848132133483887,0.48009976744651794,0.058761678636074066,1.3348997831344604,0.3823581337928772,0.7351944446563721,0.42000001668930054,-0.5019811391830444,-2.9999778270721436,-1.3546998500823975,-2.9999992847442627,-0.16722993552684784,-0.17186416685581207,-0.1719566136598587,-0.17018292844295502,0.00652346620336175,0.14504611492156982,0.16322439908981323,0.1958358883857727
0.7,0.11817090958356857,0.007162595633417368,0.0,0.6477035284042358,0.0,0.0,-0.7618924975395203,0.7666979432106018,-0.07441061735153198,0.0,0.0,0.0,-0.9753649234771729,0.3771122694015503,0.7335532307624817,0.4200000464916229,0.6036569476127625,3.5723252267416683e-07,-3.234776386307203e-06,-0.797244131565094,0.00014261029718909413,-0.00027528993086889386,-9.601842612028122e-05,0.006093956995755434,-0.0010234294459223747,-0.0006282139802351594,0.3846987783908844,0.7450242638587952,0.47751837968826294,0.5919684171676636,0.4142700433731079,2.078866958618164,0.3823581337928772,0.7351944446563721,0.42000001668930054,-0.5519677400588989,-2.9923110008239746,-1.4047181606292725,-3.0000007152557373,-0.17208606004714966,-0.1740143895149231,-0.17322124540805817,-0.17042642831802368,-0.16366691887378693,-0.06216723471879959,-0.05211064964532852,-0.03035777062177658
0.7166666666666667,0.12788699567317963,0.007304868195205927,0.0,0.6584388017654419,0.0,0.0,-0.7526342868804932,0.5215346813201904,0.030972838401794434,0.0,0.0,0.0,2.5303633213043213,0.3771122694015503,0.7335532903671265,0.4200000464916229,0.603657066822052,3.5971771694676136e-07,-3.1517397474090103e-06,-0.797244131565094,0.000142336095450446,-0.0002753367298282683,-9.594578295946121e-05,0.006096620578318834,-0.001026845769956708,-0.0006276338826864958,0.39769676327705383,0.7504909634590149,0.5060321688652039,0.8337696194648743,0.26654893159866333,1.4143712520599365,0.3823581337928772,0.7351944446563721,0.42000001668930054,-0.5725024342536926,0.2605597972869873,-1.4547364711761475,-3.0000009536743164,-0.17332251369953156,-0.17371301352977753,-0.17262738943099976,-0.16933932900428772,0.0066130803897976875,0.09458111971616745,0.12035010755062103,0.15602077543735504
0.7333333333333333,0.13311082124710083,0.0026120280381292105,0.0,0.6569604873657227,0.0,0.0,-0.7539250254631042,0.2818363606929779,-0.28930822014808655,0.0,0.0,0.0,-1.1301966905593872,0.3771122694015503,0.7335532903671265,0.4200000464916229,0.6036570072174072,3.528839727096056e-07,-3.260125140513992e-06,-0.7972440719604492,0.00014248539810068905,-0.00027558294823393226,-9.59362369030714e-05,0.006102781277149916,-0.00102438242174685,-0.0006280210800468922,0.4077680706977844,0.7538414001464844,0.5230501890182495,0.35411888360977173,-0.036086902022361755,0.7922345399856567,0.3823581337928772,0.7351944446563721,0.42000001668930054,-0.5897924900054932,-2.1129679679870605,-1.4161388874053955,2.9999992847442627,-0.16936464607715607,-0.16886493563652039,-0.16778676211833954,-0.1644231081008911,0.08634603023529053,0.17580638825893402,0.2140524834394455,0.24632133543491364
0.75,0.14058026671409607,0.0031128511764109135,0.0,0.6671357750892639,0.0,0.0,-0.7449361085891724,0.41112449765205383,0.05692022293806076,0.0,0.0,0.0,2.355272054672241,0.3771122694015503,0.7335532307624817,0.4200000464916229,0.6036571860313416,3.8343512187566375e-07,-3.1928314001561375e-06,-0.7972440123558044,0.00014198858116287738,-0.0002753834123723209,-9.583146311342716e-05,0.006100689526647329,-0.0010295840911567211,-0.0006267683929763734,0.41277357935905457,0.7527461051940918,0.5356094837188721,0.2706466019153595,0.07449916005134583,0.7315735816955566,0.3823581337928772,0.7351944446563721,0.42000001668930054,-0.6034159064292908,0.28014251589775085,-1.4339463710784912,-2.999999761581421,-0.17121289670467377,-0.16886909306049347,-0.16671106219291687,-0.16248719394207,0.046467311680316925,0.10544244199991226,0.1300773024559021,0.14356905221939087
0.7666666666666666,0.14453326165676117,-0.0007309056236408651,0.0,0.6647497415542603,0.0,0.0,-0.7470661401748657,0.201677605509758,-0.26889997720718384,0.0,0.0,0.0,-1.270954966545105,0.3771122694015503,0.7335532903671265,0.4200000464916229,0.6036572456359863,3.432488711041515e-07,-3.541891146596754e-06,-0.7972438931465149,0.00014029874000698328,-0.0002764021046459675,-9.543192572891712e-05,0.006133361719548702,-0.0010563479736447334,-0.0006240629008971155,0.41819673776626587,0.7517147660255432,0.5420307517051697,0.3185177445411682,-0.2884771227836609,0.22257676720619202,0.3823581337928772,0.7351944446563721,0.42000001668930054,-0.6288917660713196,-3.0000009536743164,-1.3954094648361206,3.0,-0.16836105287075043,-0.16532272100448608,-0.16287446022033691,-0.15853312611579895,0.0720926821231842,0.14112161099910736,0.1902456432580948,0.2245005965232849
0.7833333333333333,0.1494448035955429,-0.0010127092245966196,0.0,0.6726464629173279,0.0,0.0,-0.7399640083312988,0.329439640045166,0.0010666805319488049,0.0,0.0,0.0,2.075685977935791,0.3771122694015503,0.7335532903671265,0.4200000464916229,0.6036574244499207,3.480195402971731e-07,-3.190848474332597e-06,-0.7972437739372253,0.0001405989023623988,-0.0002764705859590322,-9.546452201902866e-05,0.006134739611297846,-0.001051110913977027,-0.0006246289703994989,0.4237660765647888,0.7476147413253784,0.5473825931549072,0.40171071887016296,-0.1349882036447525,0.4443100690841675,0.3823581337928772,0.7351944446563721,0.42000001668930054,-0.6491504907608032,0.30048084259033203,-1.4136099815368652,-3.0000007152557373,-0.1686362326145172,-0.16449348628520966,-0.16112418472766876,-0.1560840755701065,0.09859666228294373,0.12674136459827423,0.15391725301742554,0.17239119112491608
0.8,0.15185755491256714,-0.004244150128215551,0.0,0.6691066026687622,0.0,0.0,-0.743166446685791,0.08662097156047821,-0.24742662906646729,0.0,0.0,0.0,-1.3983055353164673,0.3771122694015503,0.7335532903671265,0.4200000464916229,0.6036571860313416,4.2663106114559923e-07,-3.120060455330531e-06,-0.7972438931465149,0.0001360271271551028,-0.00027870183112099767,-9.427056647837162e-05,0.006214058957993984,-0.0011149551719427109,-0.0006160630146041512,0.4315541386604309,0.7435429096221924,0.551863968372345,0.4925687313079834,-0.3726113736629486,0.2494581937789917,0.3823581337928772,0.7351944446563721,0.42000001668930054,-0.6691209673881531,-2.4428703784942627,-1.3861839771270752,2.999999523162842,-0.16711512207984924,-0.16247127950191498,-0.15853047370910645,-0.15306180715560913,0.05245757848024368,0.09197379648685455,0.13860373198986053,0.17543812096118927
0.8166666666666667,0.15542997419834137,-0.003996045794337988,0.0,0.6761707067489624,0.0,0.0,-0.7367449402809143,0.2525599002838135,0.03150021657347679,0.0,0.0,0.0,2.0004465579986572,0.3771122694015503,0.7335532903671265,0.4200000464916229,0.6036573052406311,4.5395552206173306e-07,-3.2247774015559116e-06,-0.7972438931465149,0.00013591947208624333,-0.0002786609693430364,-9.4233313575387e-05,0.006213654298335314,-0.0011157948756590486,-0.0006159339682199061,0.43954962491989136,0.737443745136261,0.5586094856262207,0.5241191983222961,-0.2658385634422302,0.575150728225708,0.3823581337928772,0.7351944446563721,0.42000001668930054,-0.6826714873313904,0.5673761367797852,-1.404557704925537,-3.000000238418579,-0.16814015805721283,-0.16270218789577484,-0.15777498483657837,-0.15146753191947937,0.05672965198755264,0.06942642480134964,0.10055766254663467,0.12817732989788055
0.8333333333333334,0.1567971259355545,-0.007313488982617855,0.0,0.6719961166381836,0.0,0.0,-0.740554690361023,0.027707595378160477,-0.23185111582279205,0.0,0.0,0.0,-1.4714726209640503,0.3771122395992279,0.7335532903671265,0.4200000464916229,0.6036572456359863,4.646286697607138e-07,-3.1560211937176064e-06,-0.7972438931465149,0.0001350751699646935,-0.0002783699019346386,-9.408127516508102e-05,0.006211168132722378,-0.0011254707351326942,-0.0006138170138001442,0.4494042694568634,0.7333072423934937,0.5664259195327759,0.572135329246521,-0.31999918818473816,0.48704421520233154,0.3823581337928772,0.7351944446563721,0.42000001668930054,-0.6870604753494263,-0.9583517909049988,-1.454560399055481,-2.9999992847442627,-0.16538633406162262,-0.16012689471244812,-0.15503540635108948,-0.14859987795352936,0.07604560256004333,0.08159840852022171,0.10601113736629486,0.1254374235868454
0.85,0.1593276411294937,-0.006987464614212513,0.0,0.6790814995765686,0.0,0.0,-0.734062910079956,0.19151701033115387,0.045176684856414795,0.0,0.0,0.0,1.888378620147705,0.3771122694015503,0.7335532903671265,0.4200000464916229,0.6036571860313416,4.333903120823379e-07,-3.0779140161030227e-06,-0.7972438931465149,0.00013538515486288816,-0.0002785133838187903,-9.411782957613468e-05,0.006213088054209948,-0.0011216213461011648,-0.0006145524093881249,0.4582449197769165,0.7278056144714355,0.5739163160324097,0.5577616691589355,-0.25206461548805237,0.45329707860946655,0.3823581337928772,0.7351944446563721,0.42000001668930054,-0.6743033528327942,2.204402208328247,-1.504578709602356,-2.999999761581421,-0.16543777287006378,-0.16000279784202576,-0.15441837906837463,-0.1475774198770523,0.11142919212579727,0.09120509028434753,0.0926285907626152,0.09214824438095093
0.8666666666666667,0.15969713032245636,-0.00923884753137827,0.0,0.673999547958374,0.0,0.0,-0.7387317419052124,0.0028447273653000593,-0.23813261091709137,0.0,0.0,0.0,-1.7028772830963135,0.3771122694015503,0.7335532903671265,0.4200000464916229,0.6036573648452759,3.658397815797798e-07,-3.184980414516758e-06,-0.7972438335418701,0.00013999467773828655,-0.000276579346973449,-9.529571980237961e-05,0.006141096819192171,-0.0010579597437754273,-0.0006234609172679484,0.46624666452407837,0.7259217500686646,0.5819299221038818,0.3812854290008545,-0.08860987424850464,0.6277223229408264,0.3823581337928772,0.7351944446563721,0.42000001668930054,-0.6571854948997498,0.025454716756939888,-1.465848684310913,3.0,-0.1617944985628128,-0.1572614163160324,-0.15221761167049408,-0.145921528339386,0.18800236284732819,0.13490886986255646,0.10009972006082535,0.062838613986969
0.8833333333333333,0.15776896476745605,-0.009228038601577282,0.0,0.6797053813934326,0.0,0.0,-0.733485221862793,-0.15982045233249664,0.048626698553562164,0.0,0.0,0.0,1.696364164352417,0.3771122694015503,0.7335532903671265,0.4200000464916229,0.6036574244499207,4.339268571129651e-07,-3.116900870736572e-06,-0.7972437143325806,0.0001363830961054191,-0.0002786300319712609,-9.434949606657028e-05,0.006210272200405598,-0.0011102878488600254,-0.0006169622647576034,0.471060574054718,0.72350013256073,0.5912076234817505,0.24817898869514465,-0.10250256955623627,0.5334367752075195,0.3823581337928772,0.7351944446563721,0.42000001668930054,-0.631897509098053,2.7515227794647217,-1.482680082321167,-3.000000476837158,-0.16004908084869385,-0.15614758431911469,-0.15145617723464966,-0.1455647200345993,0.1624806523323059,0.1127515584230423,0.07964039593935013,0.04488081485033035
