vladlanda/robotic-transformer/data/env_000_episode_0028.csv
sim_time_s,robot_box_x,robot_box_y,robot_box_z,robot_box_quat_w,robot_box_quat_x,robot_box_quat_y,robot_box_quat_z,robot_box_linvel_x,robot_box_linvel_y,robot_box_linvel_z,robot_box_angvel_x,robot_box_angvel_y,robot_box_angvel_z,cube_world_x,cube_world_y,cube_world_z,cube_quat_w,cube_quat_x,cube_quat_y,cube_quat_z,cube_linvel_x,cube_linvel_y,cube_linvel_z,cube_angvel_x,cube_angvel_y,cube_angvel_z,endpoint_world_x,endpoint_world_y,endpoint_world_z,endpoint_linvel_x,endpoint_linvel_y,endpoint_linvel_z,target_cube_world_x,target_cube_world_y,target_cube_world_z,gripper_actual_pos_rad_gp_leftgearjoint,gripper_actual_vel_rad_s_gp_leftgearjoint,gripper_actual_pos_rad_gp_rotatingjoint,gripper_actual_vel_rad_s_gp_rotatingjoint,motor_angle_rad_joint1,motor_angle_rad_joint2,motor_angle_rad_joint3,motor_angle_rad_joint4,motor_speed_rad_s_joint1,motor_speed_rad_s_joint2,motor_speed_rad_s_joint3,motor_speed_rad_s_joint4
0.0,0.0,0.0,0.0,1.0,0.0,0.0,0.0,0.0,0.0,0.0,0.0,0.0,0.0,-0.4616827964782715,0.7344446182250977,0.41999998688697815,1.0,0.0,0.0,0.0,0.0,0.0,0.0,0.0,0.0,0.0,3.42540442943573e-06,-0.005000244826078415,1.313499927520752,0.0,0.0,0.0,0.45016223192214966,0.7680561542510986,0.42000001668930054,-1.5707999467849731,0.0,0.0,0.0,0.0,0.0,0.0,0.0,0.0,0.0,0.0,0.0
0.016666666666666666,0.0028778850100934505,0.0021806680597364902,0.0,0.9998081922531128,0.0,0.0,0.019586581736803055,0.24087215960025787,0.18240931630134583,0.0,0.0,0.0,3.1418697834014893,-0.46168291568756104,0.7344443202018738,0.41999998688697815,1.0,3.2799832752061775e-06,-8.339598593920527e-07,8.465660528145236e-08,-1.9833856640616432e-05,0.00017983021098189056,-6.132945418357849e-05,0.0009432561928406358,-0.004689492750912905,-0.0003198107879143208,-0.007110234349966049,0.003379564033821225,1.3159373998641968,-0.8143353462219238,0.9868683815002441,0.18095196783542633,0.45016223192214966,0.7680561542510986,0.42000001668930054,-1.5301095247268677,3.0000011920928955,-0.04584788903594017,-2.9999992847442627,0.0008691533003002405,0.0007963840034790337,0.0007110277656465769,0.0006108740926720202,0.11094217747449875,0.09756709635257721,0.08334315568208694,0.06823883205652237
0.03333333333333333,0.008960993029177189,0.006802006624639034,0.0,0.9997960329055786,0.0,0.0,0.02019684761762619,0.4070221483707428,0.3153078556060791,0.0,0.0,0.0,-0.8691326379776001,-0.4616830348968506,0.734444260597229,0.4200000464916229,1.0,3.3908236218849197e-06,-2.1324740373529494e-06,-3.7087911408661967e-08,0.0002635786950122565,0.00026937879738397896,-0.00010509719140827656,-0.0017707741353660822,0.004130927845835686,-0.00013548358401749283,-0.027554655447602272,0.026257745921611786,1.3165870904922485,-1.5913454294204712,1.6161978244781494,-0.08624321222305298,0.45016223192214966,0.7680561542510986,0.42000001668930054,-1.4800904989242554,3.000002384185791,-0.09588771313428879,-3.0000007152557373,0.0029900968074798584,0.002652699127793312,0.0022772636730223894,0.0018607140518724918,0.16421331465244293,0.13975661993026733,0.11381524056196213,0.08629702776670456
0.05,0.01774532161653042,0.01377109531313181,0.0,0.999378502368927,0.0,0.0,0.03525027632713318,0.5937622785568237,0.4650733172893524,0.0,0.0,0.0,2.6492185592651367,-0.461683064699173,0.7344443202018738,0.4200000464916229,1.0,3.7651166167051997e-06,-2.2119024833955336e-06,5.637348365894468e-09,0.0002653102274052799,0.00026691530365496874,-0.0001044049859046936,-0.0017243424663320184,0.004177475813776255,-0.00012949523807037622,-0.059697315096855164,0.054826073348522186,1.3113789558410645,-2.187864303588867,1.8384671211242676,-0.5024681687355042,0.45016223192214966,0.7680561542510986,0.42000001668930054,-1.4300721883773804,2.9999990463256836,-0.1459263563156128,-3.0000016689300537,0.005704808980226517,0.004912757780402899,0.004048604518175125,0.0031079028267413378,0.19249150156974792,0.15558189153671265,0.11680074781179428,0.07605445384979248
0.06666666666666667,0.02906006947159767,0.023064643144607544,0.0,0.9994503259658813,0.0,0.0,0.03315208852291107,0.7203378081321716,0.5952118635177612,0.0,0.0,0.0,-1.2100621461868286,-0.461683064699173,0.734444260597229,0.4200000464916229,0.9999999403953552,3.4067338674503844e-06,-2.2856738723930903e-06,4.301002434203838e-07,0.0002670263347681612,0.0002679180761333555,-0.00010437914170324802,-0.001740648876875639,0.004211838357150555,-0.00012851078645326197,-0.09754391014575958,0.0904841423034668,1.298287034034729,-2.3745946884155273,2.325214385986328,-1.039005160331726,0.45016223192214966,0.7680561542510986,0.42000001668930054,-1.3800538778305054,2.999999761581421,-0.19596368074417114,-3.000000238418579,0.008216711692512035,0.006714596878737211,0.005101594142615795,0.0033720326609909534,0.14364510774612427,0.09055940061807632,0.03543834388256073,-0.021797416731715202
0.08333333333333333,0.04241306334733963,0.034557782113552094,0.0,0.9999975562095642,0.0,0.0,0.0022172965109348297,0.916294515132904,0.7289677858352661,0.0,0.0,0.0,-4.530516624450684,-0.461683064699173,0.734444260597229,0.4200000464916229,1.0,3.6972542147850618e-06,-2.189012548114988e-06,-2.632233417898533e-07,0.0002638970036059618,0.00026586418971419334,-0.00010433932766318321,-0.0017081733094528317,0.004150197375565767,-0.0001299117284361273,-0.1348729282617569,0.13347436487674713,1.2786052227020264,-2.173445224761963,2.708540916442871,-1.289125919342041,0.45016223192214966,0.7680561542510986,0.42000001668930054,-1.3300355672836304,3.0000016689300537,-0.24597133696079254,-3.000000238418579,0.009372131898999214,0.00687700929120183,0.004230377729982138,0.0014268846716731787,0.06805764883756638,-0.003453195560723543,-0.0770169049501419,-0.15261974930763245
0.1,0.05080760270357132,0.04990166425704956,0.0,0.9999368190765381,0.0,0.0,-0.011242819018661976,0.3664030432701111,0.9969543218612671,0.0,0.0,0.0,-0.5789473652839661,-0.461683064699173,0.734444260597229,0.4200000464916229,0.9999999403953552,3.620308916651993e-06,-2.2652425286651123e-06,1.7463578672050062e-07,0.00026676832931116223,0.0002674081770237535,-0.0001040799543261528,-0.0017385705141350627,0.004209125880151987,-0.0001277521369047463,-0.173524409532547,0.17496901750564575,1.2549622058868408,-2.2555785179138184,2.5237855911254883,-1.4675350189208984,0.45016223192214966,0.7680561542510986,0.42000001668930054,-1.2800092697143555,2.999992847442627,-0.21190468966960907,3.000000238418579,0.004057287238538265,0.0007653096690773964,-0.0027290829457342625,-0.0064342692494392395,-0.4419175982475281,-0.4931415617465973,-0.5468675494194031,-0.6033079028129578
0.11666666666666667,0.05468043312430382,0.06590645760297775,0.0,0.9993165731430054,0.0,0.0,-0.036963798105716705,0.23141266405582428,0.9357296228408813,0.0,0.0,0.0,-3.862976551055908,-0.461683064699173,0.734444260597229,0.4200000464916229,1.0,3.798331817961298e-06,-2.2628737497143447e-06,-1.5019459453924355e-07,0.0002637395809870213,0.00026566043379716575,-0.00010428996756672859,-0.0017054103082045913,0.0041475603356957436,-0.0001298010174650699,-0.206964373588562,0.22023102641105652,1.23386549949646,-1.786299228668213,2.954861640930176,-1.1368465423583984,0.45016223192214966,0.7680561542510986,0.42000001668930054,-1.230015754699707,3.000002384185791,-0.2432849407196045,-3.0000011920928955,-0.002950087422505021,-0.007676986511796713,-0.012608271092176437,-0.017753681167960167,-0.3746710419654846,-0.48710304498672485,-0.5978017449378967,-0.7067148685455322
0.13333333333333333,0.05781256780028343,0.08440680801868439,0.0,0.9973295331001282,0.0,0.0,-0.07303281128406525,0.1586729884147644,1.1667252779006958,0.0,0.0,0.0,-4.69240665435791,-0.461683064699173,0.7344443202018738,0.4200000464916229,0.9999999403953552,3.5504490369930863e-06,-2.2298452222457854e-06,2.929317872713e-07,0.0002670326502993703,0.00026779386098496616,-0.00010417005978524685,-0.0017441416857764125,0.004213591571897268,-0.00012799994146917015,-0.23952853679656982,0.2724815607070923,1.212331771850586,-1.9947413206100464,3.3663394451141357,-1.497238278388977,0.45016223192214966,0.7680561542510986,0.42000001668930054,-1.183066487312317,2.6272125244140625,-0.2284644991159439,3.000000476837158,-0.0073707145638763905,-0.01419342402368784,-0.021146778017282486,-0.02823776565492153,-0.2722614109516144,-0.3883943557739258,-0.4994458556175232,-0.6052792072296143
0.15,0.059190765023231506,0.10165823251008987,0.0,0.9954531788825989,0.0,0.0,-0.09525176882743835,-0.025747619569301605,0.9219959378242493,0.0,0.0,0.0,-1.642849326133728,-0.461683064699173,0.734444260597229,0.4200000464916229,0.9999999403953552,3.3379828892066143e-06,-2.2429737782658776e-06,-2.8000011198514585e-08,0.0002667461521923542,0.0002675800060387701,-0.00010427623055875301,-0.001736729289405048,0.004206979181617498,-0.00012831634376198053,-0.2763822674751282,0.3247711956501007,1.185111403465271,-2.226055145263672,3.175046443939209,-1.7808094024658203,0.45016223192214966,0.7680561542510986,0.42000001668930054,-1.1464227437973022,1.811612844467163,-0.259696900844574,-3.000000238418579,-0.012228704988956451,-0.020868316292762756,-0.029542436823248863,-0.038256704807281494,-0.3616270422935486,-0.4561189115047455,-0.5449327826499939,-0.6280378103256226
0.16666666666666666,0.06524113565683365,0.11945627629756927,0.0,0.9912180304527283,0.0,0.0,-0.13223755359649658,0.5030725002288818,1.1230958700180054,0.0,0.0,0.0,-5.425653457641602,-0.461683064699173,0.7344443202018738,0.4200000464916229,0.9999999403953552,3.6477658795774914e-06,-2.3074287582858233e-06,3.527969738570391e-08,0.00026727005024440587,0.0002680135949049145,-0.00010418915189802647,-0.0017472486943006516,0.004217661917209625,-0.00012798381794709712,-0.3121074438095093,0.38410627841949463,1.1508795022964478,-2.03053617477417,3.8479671478271484,-2.360496997833252,0.45016223192214966,0.7680561542510986,0.42000001668930054,-1.100418210029602,3.0,-0.3097058832645416,-3.0000011920928955,-0.015306820161640644,-0.025614241138100624,-0.03584900125861168,-0.04601652920246124,-0.18291258811950684,-0.2662031054496765,-0.3436606228351593,-0.4153452217578888
0.18333333333333332,0.06817297637462616,0.1338271051645279,0.0,0.9881907105445862,0.0,0.0,-0.15322908759117126,0.1992901861667633,0.7926967740058899,0.0,0.0,0.0,-1.3990095853805542,-0.461683064699173,0.734444260597229,0.4200000464916229,0.9999999403953552,3.290518861831515e-06,-2.1940602437098278e-06,-2.792300222154154e-07,0.0002667784283403307,0.0002677590528037399,-0.00010434072464704514,-0.001739021739922464,0.004206892568618059,-0.00012845716264564544,-0.34867411851882935,0.44314903020858765,1.1052314043045044,-2.012861728668213,3.7373368740081787,-3.0174646377563477,0.45016223192214966,0.7680561542510986,0.42000001668930054,-1.063032627105713,1.57952880859375,-0.3597336411476135,-3.0,-0.023775115609169006,-0.034455329179763794,-0.04501814395189285,-0.05548012629151344,-0.44909992814064026,-0.47415921092033386,-0.49559640884399414,-0.5139098167419434
0.2,0.06839368492364883,0.1484823375940323,0.0,0.9825729131698608,0.0,0.0,-0.18587742745876312,-0.061810459941625595,0.9208309650421143,0.0,0.0,0.0,-4.8404035568237305,-0.461683064699173,0.734444260597229,0.4200000464916229,1.0,3.2806988201627973e-06,-2.2193432869244134e-06,1.5948184284297895e-07,0.0002662798506207764,0.00026740229805000126,-0.0001042510848492384,-0.0017357115866616368,0.004197767470031977,-0.00012865093594882637,-0.3825984597206116,0.5077515840530396,1.0497305393218994,-1.8943262100219727,3.983064651489258,-3.6391730308532715,0.45016223192214966,0.7680561542510986,0.42000001668930054,-1.0173364877700806,3.0000011920928955,-0.409759521484375,-3.000000238418579,-0.033728647977113724,-0.0445309542119503,-0.05515596270561218,-0.06562934815883636,-0.6871894001960754,-0.6761623024940491,-0.6622622609138489,-0.6460394263267517
0.21666666666666667,0.0722934678196907,0.1600908488035202,0.0,0.9785926938056946,0.0,0.0,-0.2058066725730896,0.16399995982646942,0.5715820789337158,0.0,0.0,0.0,-0.752981424331665,-0.461683064699173,0.7344443202018738,0.4200000464916229,1.0,3.613101398514118e-06,-2.270231107104337e-06,2.210174301353618e-07,0.00026712517137639225,0.00026781667838804424,-0.00010414118878543377,-0.001744576497003436,0.0042152018286287785,-0.00012786168372258544,-0.41534459590911865,0.5696027278900146,0.9812368154525757,-1.7862792015075684,3.573030948638916,-4.604274272918701,0.45016223192214966,0.7680561542510986,0.42000001668930054,-0.9676129221916199,2.9361391067504883,-0.4597856104373932,-2.999999761581421,-0.04445139318704605,-0.05459372699260712,-0.0645110160112381,-0.07427975535392761,-0.9717035293579102,-0.8795172572135925,-0.7730012536048889,-0.6708872318267822
0.23333333333333334,0.06936029344797134,0.1727987378835678,0.0,0.9721598029136658,0.0,0.0,-0.23431886732578278,-0.17866475880146027,0.7643937468528748,0.0,0.0,0.0,-4.2898759841918945,-0.461683064699173,0.734444260597229,0.4200000464916229,1.0,3.3818532756413333e-06,-2.291060127390665e-06,2.727961714299454e-07,0.0002669147797860205,0.0002677999727893621,-0.00010433257557451725,-0.0017395797185599804,0.004209762904793024,-0.00012843632430303842,-0.44139719009399414,0.6256086826324463,0.8989020586013794,-1.34352707862854,3.28664493560791,-5.058724403381348,0.45016223192214966,0.7680561542510986,0.42000001668930054,-0.9176033139228821,3.0000007152557373,-0.5098137259483337,-3.0,-0.06083180010318756,-0.07098229229450226,-0.08091676980257034,-0.09063580632209778,-0.871690034866333,-0.8940226435661316,-0.9130100011825562,-0.9291747808456421
0.25,0.07181055843830109,0.18103881180286407,0.0,0.9694225192070007,0.0,0.0,-0.24539759755134583,0.16709758341312408,0.398615300655365,0.0,0.0,0.0,-0.28553110361099243,-0.4616830348968506,0.734444260597229,0.4200000464916229,0.9999999403953552,3.7065613014419796e-06,-2.22313519770978e-06,-2.2550631229023566e-07,0.0002642478502821177,0.0002665684442035854,-0.00010457867756485939,-0.0017169876955449581,0.004155559465289116,-0.00013063046208117157,-0.4649254083633423,0.6715802550315857,0.8096259832382202,-1.1800864934921265,2.3847060203552246,-5.683228969573975,0.45016223192214966,0.7680561542510986,0.42000001668930054,-0.8675945401191711,3.0000011920928955,-0.5598434805870056,-3.000001907348633,-0.07473427802324295,-0.08472660928964615,-0.09426242113113403,-0.10357719659805298,-0.988974928855896,-0.9859951138496399,-0.9150837659835815,-0.8407230973243713
0.26666666666666666,0.06854653358459473,0.19092826545238495,0.0,0.9626869559288025,0.0,0.0,-0.2706175446510315,-0.27813422679901123,0.5846344232559204,0.0,0.0,0.0,-3.9494597911834717,-0.461683064699173,0.734444260597229,0.4200000464916229,0.9999999403953552,3.7196393805061234e-06,-2.4035975911829155e-06,-1.830753433296195e-07,0.0002662325860001147,0.00026729193632490933,-0.00010425969958305359,-0.0017327084206044674,0.004196519032120705,-0.00012850586790591478,-0.4790809750556946,0.701764702796936,0.7106793522834778,-0.5353661775588989,1.3665270805358887,-5.9371466636657715,0.45016223192214966,0.7680561542510986,0.42000001668930054,-0.8175849318504333,2.9999935626983643,-0.6098731756210327,-2.99999737739563,-0.09232544898986816,-0.10204976797103882,-0.11139336228370667,-0.12056565284729004,-0.8198119401931763,-0.8561694025993347,-0.889148473739624,-0.9180552959442139
0.2833333333333333,0.0697743371129036,0.19662991166114807,0.0,0.9606929421424866,0.0,0.0,-0.27761310338974,0.1008400171995163,0.25771644711494446,0.0,0.0,0.0,0.10618507117033005,-0.461683064699173,0.7344443202018738,0.4200000464916229,0.9999999403953552,3.584038495318964e-06,-2.3155648705142085e-06,7.404717194958721e-08,0.0002652202092576772,0.00026455349870957434,-0.00010317075066268444,-0.0017022540559992194,0.004185175523161888,-0.00012499988952185959,-0.4869046211242676,0.71995609998703,0.6136816740036011,-0.1860264390707016,0.7884563207626343,-5.7594380378723145,0.45016223192214966,0.7680561542510986,0.42000001668930054,-0.7675760984420776,2.9999966621398926,-0.6599029302597046,-3.0000014305114746,-0.10596393793821335,-0.11601895093917847,-0.12555798888206482,-0.1346268653869629,-0.9943764805793762,-0.9959526658058167,-0.9972134828567505,-0.9553151726722717
0.3,0.06709179282188416,0.19891083240509033,0.0,0.9547966122627258,0.0,0.0,-0.29725998640060425,-0.16593493521213531,0.06841553002595901,0.0,0.0,0.0,-3.251246929168701,-0.461683064699173,0.734444260597229,0.4200000464916229,1.0,3.7242393773340154e-06,-2.272014398840838e-06,9.635331821300497e-08,0.000263127323705703,0.0002652598777785897,-0.00010438216850161552,-0.0016961408546194434,0.004134894348680973,-0.00013027827662881464,-0.4834599196910858,0.7295806407928467,0.5184800028800964,0.5772327184677124,0.502732515335083,-5.521695613861084,0.45016223192214966,0.7680561542510986,0.42000001668930054,-0.7175673842430115,2.999994993209839,-0.7099307179450989,-3.0,-0.12321162223815918,-0.13310322165489197,-0.14254100620746613,-0.1515452116727829,-0.8677630424499512,-0.8960363268852234,-0.9229974746704102,-0.9473101496696472
0.31666666666666665,0.062319133430719376,0.19831857085227966,0.0,0.9543917775154114,0.0,0.0,-0.29855719208717346,-0.3268046975135803,-0.0728798434138298,0.0,0.0,0.0,0.7358347177505493,-0.461683064699173,0.734444260597229,0.4200000464916229,1.0,3.6662170259660343e-06,-2.392615215285332e-06,1.6798600199763314e-07,0.0002660210302565247,0.00026706853532232344,-0.00010418705642223358,-0.0017310666153207421,0.004193499684333801,-0.00012849338236264884,-0.47200971841812134,0.7369495630264282,0.4289536476135254,0.9317955374717712,0.3071369528770447,-5.205076217651367,0.45016223192214966,0.7680561542510986,0.42000001668930054,-0.6675605177879333,3.0000014305114746,-0.7599567174911499,-3.0000009536743164,-0.13999155163764954,-0.1498577743768692,-0.15929022431373596,-0.16829003393650055,-1.0082547664642334,-1.0062588453292847,-1.0047353506088257,-1.0035104751586914
0.3333333333333333,0.05507281795144081,0.1953558325767517,0.0,0.949734091758728,0.0,0.0,-0.3130578100681305,-0.4864691197872162,-0.22334109246730804,0.0,0.0,0.0,-2.6945674419403076,-0.46125414967536926,0.7355250716209412,0.420000821352005,0.9998390078544617,-3.940840906579979e-05,1.9048142348765396e-05,-0.017943011596798897,0.06737194955348969,0.14900897443294525,-0.0013598892837762833,0.07208815962076187,-0.004755447153002024,-3.4872732162475586,-0.4734429717063904,0.7404968738555908,0.42656466364860535,0.06777530908584595,0.17796960473060608,-0.2008475512266159,0.45016223192214966,0.7680561542510986,0.42000001668930054,-0.6175558567047119,3.0000011920928955,-0.8103935718536377,-2.9997432231903076,-0.14779137074947357,-0.15776652097702026,-0.1669023633003235,-0.17512741684913635,-0.478508859872818,-0.4540635645389557,-0.4081093966960907,-0.3373384475708008
0.35,0.04550829902291298,0.1900111734867096,0.0,0.9502986073493958,0.0,0.0,-0.31133997440338135,-0.6131072640419006,-0.35996028780937195,0.0,0.0,0.0,1.138725757598877,-0.45946893095970154,0.738926887512207,0.41999948024749756,0.998377799987793,-3.7965110095683485e-05,4.839363828068599e-05,-0.056935545057058334,0.16547851264476776,0.3043763041496277,-0.0010297507978975773,0.06905043870210648,-0.023124122992157936,-8.323253631591797,-0.46986690163612366,0.7451672554016113,0.42318230867385864,0.32760173082351685,0.34552133083343506,-0.17886492609977722,0.45016223192214966,0.7680561542510986,0.42000001668930054,-0.567550778388977,3.0000014305114746,-0.8604421615600586,-3.0000083446502686,-0.1573832631111145,-0.1660471260547638,-0.17352698743343353,-0.17972564697265625,-0.5852674841880798,-0.47702494263648987,-0.349087119102478,-0.20088516175746918
0.36666666666666664,0.033720582723617554,0.18221332132816315,0.0,0.9461761116981506,0.0,0.0,-0.32365232706069946,-0.7530959248542786,-0.5116239786148071,0.0,0.0,0.0,-2.43735408782959,-0.4548563063144684,0.7465947270393372,0.42000675201416016,0.9926368594169617,7.615731010446325e-05,-1.4342546819534618e-05,-0.12112803757190704,0.41288456320762634,0.6406282186508179,0.004100386053323746,0.46761035919189453,-0.23678679764270782,-1.4002965688705444,-0.4634905159473419,0.7522293329238892,0.42064768075942993,0.4876452386379242,0.5678094625473022,-0.12775760889053345,0.45016223192214966,0.7680561542510986,0.42000001668930054,-0.5175459384918213,2.999990701675415,-0.9104941487312317,-2.999955177307129,-0.1670188009738922,-0.17374946177005768,-0.17892688512802124,-0.18245753645896912,-0.5405332446098328,-0.4173717498779297,-0.2727400064468384,-0.10737808793783188
0.3833333333333333,0.024412851780653,0.17136257886886597,0.0,0.9328579902648926,0.0,0.0,-0.3602443039417267,-0.4848301410675049,-0.7090967893600464,0.0,0.0,0.0,-5.472411632537842,-0.44530346989631653,0.7606272101402283,0.42016857862472534,0.9905179738998413,-0.004259229637682438,0.00057080271653831,-0.1373160481452942,0.7167491912841797,1.095983624458313,0.09103463590145111,-4.404266834259033,1.148936152458191,-3.8554439544677734,-0.4538089632987976,0.7649562358856201,0.4197051227092743,0.696698784828186,1.0025193691253662,0.08320482820272446,0.45016223192214966,0.7680561542510986,0.42000001668930054,-0.46750688552856445,2.997525691986084,-0.9605177640914917,-2.987318515777588,-0.17563512921333313,-0.18003374338150024,-0.18247848749160767,-0.1829053908586502,-0.4506646990776062,-0.30702921748161316,-0.1386575996875763,0.05225121229887009
0.4,0.012121045030653477,0.15847280621528625,0.0,0.9066788554191589,0.0,0.0,-0.4218215346336365,-0.8239278197288513,-0.8015422821044922,0.0,0.0,0.0,-8.920318603515625,-0.4233775734901428,0.7881391644477844,0.4225631356239319,0.9822948575019836,-0.01014131959527731,-0.013056653551757336,-0.18661034107208252,2.5090291500091553,1.9886059761047363,0.3042389452457428,-11.376002311706543,-15.780401229858398,2.438528060913086,-0.4323657751083374,0.7913446426391602,0.4218415915966034,2.052846670150757,2.2819440364837646,0.26242852210998535,0.45016223192214966,0.7680561542510986,0.42000001668930054,-0.41749221086502075,2.9487640857696533,-1.0105308294296265,-2.998307228088379,-0.18667909502983093,-0.18778450787067413,-0.1865827590227127,-0.1830815225839615,-0.7647332549095154,-0.5260119438171387,-0.27006128430366516,-0.0028105489909648895
0.4166666666666667,0.0032124421559274197,0.14270451664924622,0.0,0.8643332123756409,0.0,0.0,-0.5029195547103882,-0.49483126401901245,-0.9811718463897705,0.0,0.0,0.0,-11.584037780761719,-0.36656343936920166,0.8333213925361633,0.42873117327690125,0.9673951268196106,0.03581664711236954,-0.043766360729932785,-0.24687696993350983,4.648399829864502,3.200321674346924,0.37862515449523926,31.03312110900879,-13.505853652954102,1.8590242862701416,-0.374996155500412,0.8390641808509827,0.4275027811527252,4.471637725830078,3.2785301208496094,0.6371687054634094,0.45016223192214966,0.7680561542510986,0.42000001668930054,-0.3875022232532501,1.0145683288574219,-0.9731460809707642,2.9949357509613037,-0.20055653154850006,-0.19683238863945007,-0.19066110253334045,-0.18218691647052765,-0.9086427092552185,-0.5932586193084717,-0.27573463320732117,0.03445954993367195
0.43333333333333335,-0.0032370176631957293,0.1320967972278595,0.0,0.8029260635375977,0.0,0.0,-0.596078634262085,-0.3102010488510132,-0.6687961220741272,0.0,0.0,0.0,-14.076506614685059,-0.2665001451969147,0.8853606581687927,0.4401395320892334,0.9340862035751343,0.11083958297967911,-0.08431871980428696,-0.3287670910358429,7.020835876464844,2.6109397411346436,0.5054242014884949,5.777289390563965,-11.449572563171387,39.054927825927734,-0.27537065744400024,0.893581748008728,0.4389858841896057,7.226298809051514,3.505910873413086,0.8585828542709351,0.45016223192214966,0.7680561542510986,0.42000001668930054,-0.36966466903686523,1.039178490638733,-0.9231014251708984,2.996574878692627,-0.2159053087234497,-0.21192976832389832,-0.20165640115737915,-0.18689487874507904,-0.5727143287658691,-0.6451825499534607,-0.6151901483535767,-0.3033301532268524
0.45,-0.006188643164932728,0.12355659902095795,0.0,0.7469283938407898,0.0,0.0,-0.6649045348167419,-0.12872432172298431,-0.44538187980651855,0.0,0.0,0.0,-9.515509605407715,-0.14823061227798462,0.9249255061149597,0.4530062675476074,0.8949728608131409,0.13928991556167603,-0.09678018093109131,-0.4126202166080475,7.327417373657227,0.7574414610862732,0.6661257743835449,0.45956185460090637,-13.40711784362793,27.352121353149414,-0.15608705580234528,0.9374434947967529,0.4520089030265808,7.322666168212891,1.9398975372314453,0.8867132663726807,0.45016223192214966,0.7680561542510986,0.42000001668930054,-0.35395514965057373,0.7801216244697571,-0.9431632161140442,-3.00000262260437,-0.23057864606380463,-0.22518512606620789,-0.21246516704559326,-0.19184806942939758,-0.9288648366928101,-0.7869999408721924,-0.6069978475570679,-0.2790711224079132
0.4666666666666667,-0.011245610192418098,0.11984074115753174,0.0,0.7117460370063782,0.0,0.0,-0.7024368643760681,-0.2916099727153778,-0.20342092216014862,0.0,0.0,0.0,-4.85928201675415,-0.02842079848051071,0.940883994102478,0.4646475315093994,0.8182288408279419,0.14748084545135498,-0.10108022391796112,-0.5463823676109314,7.015430450439453,-0.8080469965934753,0.403156042098999,-24.153202056884766,1.8793946504592896,15.196015357971191,-0.036877673119306564,0.955682635307312,0.4633978009223938,7.264734745025635,0.37635093927383423,0.6754888296127319,0.45016223192214966,0.7680561542510986,0.42000001668930054,-0.3413573205471039,0.5371862053871155,-0.9931871891021729,-2.9996824264526367,-0.2400689572095871,-0.24002273380756378,-0.22486019134521484,-0.19797201454639435,0.009664870798587799,-0.04006536304950714,-0.8755018711090088,-0.5007558465003967
0.48333333333333334,-0.012872363440692425,0.11103139817714691,0.0,0.7002319097518921,0.0,0.0,-0.7139154672622681,-0.0916217714548111,-0.44716256856918335,0.0,0.0,0.0,-0.9332213401794434,0.08255023509263992,0.9362331628799438,0.4708811938762665,0.7427579760551453,0.12779326736927032,-0.09200948476791382,-0.6507793664932251,6.571898460388184,-1.4565367698669434,0.23199240863323212,-2.8367791175842285,-12.20297622680664,1.1106358766555786,0.07631964236497879,0.9544145464897156,0.4698909819126129,6.162269115447998,-0.8189964294433594,0.332655668258667,0.45016223192214966,0.7680561542510986,0.42000001668930054,-0.33599311113357544,0.04942035675048828,-1.0432103872299194,-3.0000011920928955,-0.23783554136753082,-0.23758052289485931,-0.23363599181175232,-0.20157235860824585,-0.10967714339494705,0.014372753910720348,-0.45800939202308655,-0.15718242526054382
0.5,-0.01233445294201374,0.1072307899594307,0.0,0.6797376871109009,0.0,0.0,-0.7334553003311157,0.09792380034923553,-0.15420381724834442,0.0,0.0,0.0,-4.198624610900879,0.17914563417434692,0.9151071310043335,0.47205328941345215,0.664257824420929,0.11047735810279846,-0.09001463651657104,-0.7337939143180847,5.6306023597717285,-2.372063159942627,0.2291315793991089,-3.7601869106292725,1.8383535146713257,1.4316366910934448,0.1747722029685974,0.9358853101730347,0.47158968448638916,5.5743303298950195,-1.494452714920044,-0.09959407150745392,0.45016223192214966,0.7680561542510986,0.42000001668930054,-0.33992916345596313,-0.49931928515434265,-1.09323251247406,-2.9998433589935303,-0.24002128839492798,-0.23828400671482086,-0.2399982213973999,-0.20443172752857208,-0.008524068631231785,-0.03988131135702133,-0.003380177542567253,-0.17512236535549164
0.5166666666666666,-0.008428755216300488,0.10249900072813034,0.0,0.6725616455078125,0.0,0.0,-0.7400410771369934,0.264342725276947,-0.2595480680465698,0.0,0.0,0.0,-0.20952826738357544,0.26354777812957764,0.8854401707649231,0.46827390789985657,0.5801398754119873,0.07309021055698395,-0.07202839106321335,-0.8080267906188965,4.639594554901123,-2.8480072021484375,-0.3003499507904053,-5.759037017822266,-5.415028095245361,10.492865562438965,0.2610752582550049,0.9062723517417908,0.4674004316329956,4.605323791503906,-2.1235389709472656,-0.37602734565734863,0.45016223192214966,0.7680561542510986,0.42000001668930054,-0.35084035992622375,-0.8132250308990479,-1.1432546377182007,-2.9999942779541016,-0.2382904589176178,-0.23661063611507416,-0.23730961978435516,-0.20508508384227753,-3.64948569142598e-08,0.06106067821383476,0.1774458885192871,-0.015418128110468388
0.5333333333333333,-0.0022536390461027622,0.10099703073501587,0.0,0.6570425033569336,0.0,0.0,-0.7538534998893738,0.42082858085632324,-0.022463450208306313,0.0,0.0,0.0,-3.366861581802368,0.33222365379333496,0.8521393537521362,0.4566294252872467,0.5298321843147278,0.04445059224963188,-0.061749186366796494,-0.8446828126907349,3.6031832695007324,-2.083198308944702,-0.8854992985725403,-2.133066177368164,5.001443862915039,-6.680435657501221,0.3305773437023163,0.8717807531356812,0.45596426725387573,3.701944351196289,-2.0964901447296143,-0.8679308891296387,0.45016223192214966,0.7680561542510986,0.42000001668930054,-0.3551853597164154,0.4576377272605896,-1.1932767629623413,-2.9999096393585205,-0.23657187819480896,-0.23440591990947723,-0.2336340993642807,-0.20537033677101135,0.19414958357810974,0.21031057834625244,0.28323814272880554,0.01579430140554905
0.55,0.006369109731167555,0.09684836119413376,0.0,0.6542227864265442,0.0,0.0,-0.7563018798828125,0.5536282658576965,-0.2694334089756012,0.0,0.0,0.0,0.48706701397895813,0.38489678502082825,0.8184430003166199,0.44000276923179626,0.48838189244270325,0.012230432592332363,-0.06039664149284363,-0.8704513907432556,2.5384955406188965,-2.687425374984741,-0.9131512641906738,-1.6846673488616943,-5.633682727813721,5.0497212409973145,0.38487768173217773,0.837437629699707,0.44001173973083496,2.708174228668213,-2.066943645477295,-0.9992173910140991,0.45016223192214966,0.7680561542510986,0.42000001668930054,-0.33719852566719055,1.2932994365692139,-1.243298888206482,-2.9999260902404785,-0.23175187408924103,-0.22924529016017914,-0.2273273468017578,-0.203743577003479,0.19009430706501007,0.2415207177400589,0.3312361240386963,0.06458477675914764
0.5666666666666667,0.014336913824081421,0.0954778864979744,0.0,0.6412870287895203,0.0,0.0,-0.767301082611084,0.4256141483783722,-0.044424645602703094,0.0,0.0,0.0,-2.918335199356079,0.42532336711883545,0.7878450155258179,0.42003190517425537,0.460097074508667,-0.024620849639177322,-0.0462799109518528,-0.8863197565078735,2.0089848041534424,-2.5070133209228516,-1.0423856973648071,-10.737442970275879,-0.8485841155052185,19.5635929107666,0.42606857419013977,0.8060286045074463,0.4199014902114868,2.1377711296081543,-1.6929337978363037,-1.2850799560546875,0.45016223192214966,0.7680561542510986,0.42000001668930054,-0.32237544655799866,0.3431532084941864,-1.2933192253112793,-3.0,-0.22760874032974243,-0.22506968677043915,-0.22247005999088287,-0.20387308299541473,0.30967050790786743,0.2817106246948242,0.2898464500904083,-0.027281053364276886
0.5833333333333334,0.02265423908829689,0.0973433181643486,0.0,0.641542911529541,0.0,0.0,-0.7670871615409851,0.5329045653343201,0.18204396963119507,0.0,0.0,0.0,0.9456158876419067,0.4470374584197998,0.7730514407157898,0.4235771596431732,0.4592040479183197,-0.04164095222949982,-0.027852782979607582,-0.8869171142578125,0.8250777721405029,-1.3735477924346924,0.15148288011550903,-0.5471259951591492,2.0300168991088867,10.059496879577637,0.44697970151901245,0.7904636859893799,0.42470335960388184,0.9043048620223999,-0.7962304949760437,0.10010036081075668,0.45016223192214966,0.7680561542510986,0.42000001668930054,-0.3162088394165039,0.22833217680454254,-1.3429926633834839,-3.000539779663086,-0.21994620561599731,-0.2190680205821991,-0.21730166673660278,-0.20431475341320038,0.4217986762523651,0.3248627781867981,0.2697528302669525,-0.05583136901259422
0.6,0.02827618457376957,0.09460560232400894,0.0,0.6307468414306641,0.0,0.0,-0.7759886384010315,0.3028024435043335,-0.23348404467105865,0.0,0.0,0.0,-2.5249571800231934,0.4600186049938202,0.763791561126709,0.4217725992202759,0.4870559275150299,-0.028572987765073776,-0.025630511343479156,-0.8725268840789795,0.45848172903060913,-0.375336617231369,-0.060066476464271545,1.7219452857971191,2.049345016479492,3.4515063762664795,0.4582032561302185,0.7813478708267212,0.4227520227432251,0.31035977602005005,-0.41922906041145325,-0.11531844735145569,0.45016223192214966,0.7680561542510986,0.42000001668930054,-0.33156657218933105,-1.557359218597412,-1.3046445846557617,2.9996438026428223,-0.20792508125305176,-0.20943273603916168,-0.209381103515625,-0.2021348923444748,0.6524686217308044,0.5379393100738525,0.45689481496810913,0.15400224924087524
0.6166666666666667,0.035218801349401474,0.09707628190517426,0.0,0.6329215168952942,0.0,0.0,-0.7742159366607666,0.4259345233440399,0.1346602588891983,0.0,0.0,0.0,1.160845160484314,0.46317747235298157,0.7585136890411377,0.4204469621181488,0.5115014910697937,-0.007739582564681768,-0.006191845517605543,-0.8592252135276794,0.07574587315320969,-0.28113609552383423,-0.0680447593331337,3.172337532043457,-2.1515932083129883,3.2120957374572754,0.45991042256355286,0.7755464911460876,0.42380356788635254,0.11451223492622375,-0.14994043111801147,0.12073167413473129,0.45016223192214966,0.7680561542510986,0.42000001668930054,-0.347735732793808,-0.472525954246521,-1.3239368200302124,-2.9965062141418457,-0.20313669741153717,-0.20538048446178436,-0.20564799010753632,-0.20210620760917664,0.40006983280181885,0.3209947645664215,0.26718828082084656,0.03977062925696373
0.6333333333333333,0.04346712306141853,0.0950118899345398,0.0,0.6228843331336975,0.0,0.0,-0.7823139429092407,0.5106762647628784,-0.14601363241672516,0.0,0.0,0.0,-2.523655652999878,0.4632295072078705,0.7561575174331665,0.42000001668930054,0.5411487221717834,-1.618192072783131e-05,-2.649776251928415e-05,-0.8409269452095032,-0.10310514271259308,0.01353091187775135,-0.0008784026140347123,0.07868797332048416,-0.006774940062314272,3.9761781692504883,0.4601743519306183,0.7773946523666382,0.4249613881111145,-0.20501543581485748,0.196852445602417,0.060733914375305176,0.45016223192214966,0.7680561542510986,0.42000001668930054,-0.3783431947231293,-2.9488730430603027,-1.3428038358688354,0.43305641412734985,-0.19271646440029144,-0.19694165885448456,-0.19878937304019928,-0.19922995567321777,0.5953109264373779,0.4949105978012085,0.4122089445590973,0.20520636439323425
0.65,0.05386561155319214,0.0960833951830864,0.0,0.625209629535675,0.0,0.0,-0.7804568409919739,0.6456252336502075,0.11145997792482376,0.0,0.0,0.0,1.2699111700057983,0.462276816368103,0.7561432719230652,0.4199999272823334,0.5520957112312317,-4.9154492444358766e-05,-9.331415071756055e-07,-0.8337807059288025,-0.05534869059920311,0.005591523367911577,-0.0008856673375703394,0.005056495778262615,-0.02929123118519783,2.3626861572265625,0.4581988453865051,0.780311107635498,0.42741960287094116,-0.08364741504192352,0.27533432841300964,0.1532343327999115,0.45016223192214966,0.7680561542510986,0.42000001668930054,-0.4283736050128937,-3.000000476837158,-1.3822599649429321,-2.999936580657959,-0.18549300730228424,-0.19120122492313385,-0.19430236518383026,-0.19770564138889313,0.42721033096313477,0.32741793990135193,0.23724743723869324,0.06446930021047592
0.6666666666666666,0.06597129255533218,0.09419490396976471,0.0,0.650208055973053,0.0,0.0,-0.7597561478614807,0.7653025984764099,-0.15789131820201874,0.0,0.0,0.0,4.7170233726501465,0.46125155687332153,0.7567147016525269,0.4200000464916229,0.5562660098075867,3.348404504777136e-07,-5.6955289373661344e-09,-0.8310043215751648,-0.06762456148862839,0.045119091868400574,-6.071641109883785e-06,-0.00028958392795175314,0.0002399055811110884,0.25428444147109985,0.45645207166671753,0.784231960773468,0.43034929037094116,-0.14749915897846222,0.2018389254808426,0.21658563613891602,0.45016223192214966,0.7680561542510986,0.42000001668930054,-0.4784162938594818,-2.9999992847442627,-1.4322201013565063,-2.9983468055725098,-0.1782691925764084,-0.18516916036605835,-0.1893361359834671,-0.19485482573509216,0.35673046112060547,0.323327898979187,0.2939867377281189,0.21695800125598907
0.6833333333333333,0.07977446168661118,0.08908411115407944,0.0,0.6607625484466553,0.0,0.0,-0.7505950331687927,0.8669883608818054,-0.355348140001297,0.0,0.0,0.0,0.6456989645957947,0.45913970470428467,0.7583980560302734,0.4201737344264984,0.553785502910614,0.002414724323898554,-0.003631562227383256,-0.8326478600502014,-0.0970698893070221,0.07542948424816132,-0.0020825909450650215,0.04008864611387253,0.09680456668138504,-0.30180880427360535,0.4556627869606018,0.7887270450592041,0.4352067708969116,-0.031017335131764412,0.2740156054496765,0.3419894278049469,0.45016223192214966,0.7680561542510986,0.42000001668930054,-0.5284244418144226,-2.999828815460205,-1.482200264930725,-2.9999570846557617,-0.17297051846981049,-0.17986048758029938,-0.18388187885284424,-0.18969552218914032,0.3084249794483185,0.3362444341182709,0.3737259805202484,0.4014430344104767
0.7,0.09538785368204117,0.08105568587779999,0.0,0.648128092288971,0.0,0.0,-0.7615313529968262,0.9682571887969971,-0.5405645370483398,0.0,0.0,0.0,-2.946606159210205,0.4582734704017639,0.7590911388397217,0.42000001668930054,0.5527986884117126,1.3570304879806372e-08,-5.09001665705e-07,-0.8333147764205933,-0.03154422715306282,0.025053197517991066,-2.7436763048171997e-06,0.00030765822157263756,7.407996690744767e-06,-0.07406505942344666,0.4580352306365967,0.7950891256332397,0.44760870933532715,0.3175579905509949,0.4134998917579651,1.2335633039474487,0.45016223192214966,0.7680561542510986,0.42000001668930054,-0.5784366130828857,-2.999967098236084,-1.5322184562683105,-2.9999990463256836,-0.17059598863124847,-0.17658372223377228,-0.17957128584384918,-0.1843225657939911,0.04255681112408638,0.11556431651115417,0.19428415596485138,0.2839844822883606
0.7166666666666667,0.11441437900066376,0.07797759771347046,0.0,0.6149889230728149,0.0,0.0,-0.7885357737541199,1.0889242887496948,-0.1719142198562622,0.0,0.0,0.0,-6.327740669250488,0.4582561254501343,0.7591050863265991,0.41999995708465576,0.5527881979942322,-2.192413148804917e-06,-4.9654881877359e-06,-0.8333216905593872,2.656007927726023e-05,-0.0003448050993029028,-6.904243491590023e-05,0.008844261057674885,-0.0025281067937612534,-0.0008266713703051209,0.4707881212234497,0.7960814833641052,0.4743388295173645,1.4372678995132446,-0.21323168277740479,2.0356903076171875,0.45016223192214966,0.7680561542510986,0.42000001668930054,-0.6284473538398743,-2.998211622238159,-1.582236647605896,-2.9998223781585693,-0.1774618774652481,-0.1807398498058319,-0.18101866543293,-0.18285512924194336,-0.39083659648895264,-0.23001672327518463,-0.0677446573972702,0.11633865535259247
0.7333333333333333,0.12901455163955688,0.07631818950176239,0.0,0.5952484011650085,0.0,0.0,-0.8035417199134827,0.802030086517334,-0.08886512368917465,0.0,0.0,0.0,-1.9038914442062378,0.4582560360431671,0.7591050863265991,0.41999995708465576,0.5527881979942322,-1.57601084538328e-06,-5.342913937056437e-06,-0.8333216905593872,6.51739610475488e-05,-0.0003817846009042114,-7.288693450391293e-05,0.009974217042326927,-0.0032707261852920055,-0.0010107312118634582,0.4947241544723511,0.7953899502754211,0.5072429776191711,1.4001898765563965,0.129547581076622,1.9933321475982666,0.45016223192214966,0.7680561542510986,0.42000001668930054,-0.6451781392097473,0.6146830320358276,-1.632251501083374,-2.9999985694885254,-0.18215112388134003,-0.1836114376783371,-0.18212775886058807,-0.18180400133132935,-0.1575341671705246,-0.09875496476888657,-0.04775591567158699,0.029068848118185997
0.75,0.13877151906490326,0.07665964215993881,0.0,0.6013578176498413,0.0,0.0,-0.7989798188209534,0.5083381533622742,0.06991661339998245,0.0,0.0,0.0,1.7954537868499756,0.4582560658454895,0.7591051459312439,0.41999995708465576,0.552788257598877,-1.7196637145389104e-06,-5.446841441880679e-06,-0.833321750164032,6.490959640359506e-05,-0.00038114143535494804,-7.285038009285927e-05,0.00995364598929882,-0.0032570597250014544,-0.0010085789253935218,0.5142084956169128,0.7984984517097473,0.5335584878921509,0.8791219592094421,0.2449340522289276,1.2556782960891724,0.45016223192214966,0.7680561542510986,0.42000001668930054,-0.6122706532478333,2.9999890327453613,-1.5931490659713745,3.000000476837158,-0.18323315680027008,-0.18386098742485046,-0.18170276284217834,-0.18025070428848267,0.015261522494256496,0.059270478785037994,0.0904855951666832,0.14821399748325348
0.7666666666666666,0.14427779614925385,0.07332422584295273,0.0,0.595188558101654,0.0,0.0,-0.8035860657691956,0.27662307024002075,-0.278212308883667,0.0,0.0,0.0,-1.8847180604934692,0.4582560360431671,0.7591050863265991,0.41999995708465576,0.5527883172035217,-1.4013547797731007e-06,-5.595045422523981e-06,-0.8333216905593872,6.88884174451232e-05,-0.0003818230179604143,-7.280008867383003e-05,0.009981073439121246,-0.0032726803328841925,-0.0010198747040703893,0.5218424797058105,0.8027881383895874,0.5480678081512451,0.03471537306904793,0.23488444089889526,0.6498475074768066,0.45016223192214966,0.7680561542510986,0.42000001668930054,-0.5809985995292664,0.9080095291137695,-1.5430926084518433,2.999999761581421,-0.18171018362045288,-0.18167221546173096,-0.17912311851978302,-0.1768820583820343,0.09297262132167816,0.14109571278095245,0.16809619963169098,0.21456661820411682
0.7833333333333333,0.14633619785308838,0.07513075321912766,0.0,0.6013824343681335,0.0,0.0,-0.798961341381073,0.07076245546340942,0.24212734401226044,0.0,0.0,0.0,1.807360053062439,0.4582560360431671,0.7591050863265991,0.41999995708465576,0.5527883768081665,-1.6059029803727753e-06,-5.339130893844413e-06,-0.8333216309547424,6.487805512733757e-05,-0.0003814702795352787,-7.282895967364311e-05,0.009965470060706139,-0.0032640735153108835,-0.0010095629841089249,0.5192632079124451,0.80519700050354,0.5569496154785156,-0.30000558495521545,0.1919194459915161,0.4553225636482239,0.45016223192214966,0.7680561542510986,0.42000001668930054,-0.54798823595047,2.856320381164551,-1.5583223104476929,-2.999999523162842,-0.1856827735900879,-0.18378230929374695,-0.17986810207366943,-0.17612315714359283,-0.27901491522789,-0.17031586170196533,-0.09399773925542831,-0.012823672965168953
0.8,0.1458149254322052,0.07347442209720612,0.0,0.5962203145027161,0.0,0.0,-0.8028208613395691,-0.07346919924020767,-0.20378495752811432,0.0,0.0,0.0,-1.644955039024353,0.4582560360431671,0.7591050863265991,0.41999995708465576,0.5527884364128113,-1.3982188420413877e-06,-5.573223006649641e-06,-0.8333215713500977,6.798291724408045e-05,-0.00038161806878633797,-7.280241698026657e-05,0.00997354555875063,-0.003267064690589905,-0.001016918569803238,0.5080633163452148,0.80717933177948,0.5569151043891907,-1.0243360996246338,0.021002821624279022,-0.263734370470047,0.45016223192214966,0.7680561542510986,0.42000001668930054,-0.542201817035675,-1.7656360864639282,-1.5194288492202759,3.0,-0.18714353442192078,-0.1839158684015274,-0.17915020883083344,-0.1744331568479538,-0.004992349073290825,0.06706272065639496,0.11175842583179474,0.16302400827407837
0.8166666666666667,0.14756172895431519,0.07582246512174606,0.0,0.6032418608665466,0.0,0.0,-0.7975583076477051,0.03958014026284218,0.1587860882282257,0.0,0.0,0.0,1.670853614807129,0.4582560360431671,0.7591050863265991,0.41999995708465576,0.5527881979942322,-1.589369389876083e-06,-5.342610620573396e-06,-0.8333218097686768,6.478586874436587e-05,-0.0003814277588389814,-7.283943705260754e-05,0.009963637217879295,-0.003263539168983698,-0.0010090144351124763,0.4954236149787903,0.8074823617935181,0.5538968443870544,-0.4544193744659424,0.26038119196891785,-0.05361597239971161,0.45016223192214966,0.7680561542510986,0.42000001668930054,-0.5460445284843445,1.0616397857666016,-1.535204529762268,-2.9999992847442627,-0.19093942642211914,-0.18614262342453003,-0.1802000105381012,-0.17419391870498657,0.016839858144521713,0.03281094506382942,0.03818465396761894,0.062014129012823105
0.8333333333333334,0.14974404871463776,0.07467972487211227,0.0,0.5984193086624146,0.0,0.0,-0.8011830449104309,0.1717492789030075,-0.10627665370702744,0.0,0.0,0.0,-1.8519835472106934,0.4582560360431671,0.7591050863265991,0.41999995708465576,0.552788257598877,-1.411848415955319e-06,-5.573479484155541e-06,-0.833321750164032,6.797966489102691e-05,-0.0003816107928287238,-7.280101999640465e-05,0.009973268024623394,-0.003266969695687294,-0.0010168931912630796,0.48908281326293945,0.810090184211731,0.5509376525878906,-0.3254845440387726,-0.00264609232544899,-0.15090873837471008,0.45016223192214966,0.7680561542510986,0.42000001668930054,-0.5693739652633667,-3.000000238418579,-1.4963771104812622,2.999999523162842,-0.189565971493721,-0.1847195327281952,-0.17877094447612762,-0.17237192392349243,0.009338023141026497,0.034071970731019974,0.058918483555316925,0.10605767369270325
0.85,0.15415528416633606,0.07124093919992447,0.0,0.6014192700386047,0.0,0.0,-0.7989335656166077,0.302899032831192,-0.26905620098114014,0.0,0.0,0.0,1.7688814401626587,0.4582560360431671,0.7591050863265991,0.41999995708465576,0.5527881979942322,-1.4238815992939635e-06,-5.424724349722965e-06,-0.833321750164032,6.754718197043985e-05,-0.00038154557114467025,-7.28194136172533e-05,0.009970059618353844,-0.0032657731790095568,-0.0010158102959394455,0.4871867895126343,0.8091834783554077,0.5531794428825378,0.0779273584485054,-0.06955255568027496,0.46925801038742065,0.45016223192214966,0.7680561542510986,0.42000001668930054,-0.6192664504051208,-2.9655370712280273,-1.512638807296753,-3.000000238418579,-0.19107361137866974,-0.1854659765958786,-0.17871131002902985,-0.17115570604801178,-0.0920453742146492,-0.046879079192876816,0.003961353562772274,0.07608677446842194
0.8666666666666667,0.1606982946395874,0.0650826245546341,0.0,0.5953102707862854,0.0,0.0,-0.8034958839416504,0.43386775255203247,-0.4223385751247406,0.0,0.0,0.0,-1.8302555084228516,0.4582560360431671,0.7591050863265991,0.41999995708465576,0.5527884364128113,-1.3840088968208875e-06,-5.6555954870418645e-06,-0.8333215713500977,6.842084985692054e-05,-0.00038175549707375467,-7.280195131897926e-05,0.009978481568396091,-0.0032700151205062866,-0.0010182498954236507,0.4933447241783142,0.8066307306289673,0.5568835735321045,0.6597117185592651,-0.25754794478416443,0.15350820124149323,0.45016223192214966,0.7680561542510986,0.42000001668930054,-0.6644386649131775,-2.460744619369507,-1.562657117843628,-2.999999761581421,-0.1929965764284134,-0.18638265132904053,-0.1784454882144928,-0.1693347841501236,-0.08716480433940887,-0.01612815633416176,0.0679783746600151,0.1741674691438675
0.8833333333333333,0.169901505112648,0.061159346252679825,0.0,0.5682949423789978,0.0,0.0,-0.8228248953819275,0.6049427390098572,-0.1639050394296646,0.0,0.0,0.0,-4.876594066619873,0.4582560658454895,0.7591050863265991,0.41999995708465576,0.5527881979942322,-1.4595689208363183e-06,-5.3846156333747786e-06,-0.8333218097686768,6.948690133867785e-05,-0.00038164996658451855,-7.278099656105042e-05,0.009976435452699661,-0.0032680383883416653,-0.0010206775041297078,0.5042489171028137,0.8015703558921814,0.5606858134269714,0.6659788489341736,-0.3541014790534973,0.4401910603046417,0.45016223192214966,0.7680561542510986,0.42000001668930054,-0.6876649260520935,-0.4786607325077057,-1.612675428390503,-2.999999523162842,-0.1944303959608078,-0.18729493021965027,-0.17860464751720428,-0.16838763654232025,-0.05634280666708946,-0.049627263098955154,-0.03177521750330925,0.0031114243902266026
0.9,0.17654070258140564,0.05990204960107803,0.0,0.5564913749694824,0.0,0.0,-0.8308534026145935,0.3121783435344696,-0.030291365459561348,0.0,0.0,0.0,-0.6948330998420715,0.4582560360431671,0.7591050863265991,0.41999995708465576,0.552788257598877,-1.5765771195219713e-06,-5.441957910079509e-06,-0.833321750164032,6.548295641550794e-05,-0.00038160590338520706,-7.288064807653427e-05,0.009968605823814869,-0.003265504725277424,-0.0010112886084243655,0.5124861001968384,0.7989054918289185,0.5676716566085815,0.2575855255126953,-0.027112822979688644,0.3957962393760681,0.45016223192214966,0.7680561542510986,0.42000001668930054,-0.6683169007301331,2.5224156379699707,-1.5930471420288086,3.0000009536743164,-0.19296041131019592,-0.186345636844635,-0.1780400425195694,-0.16798757016658783,0.17960092425346375,0.12280437350273132,0.0697164386510849,0.024628575891256332
