vladlanda/robotic-transformer/data/env_000_episode_0150.csv
sim_time_s,robot_box_x,robot_box_y,robot_box_z,robot_box_quat_w,robot_box_quat_x,robot_box_quat_y,robot_box_quat_z,robot_box_linvel_x,robot_box_linvel_y,robot_box_linvel_z,robot_box_angvel_x,robot_box_angvel_y,robot_box_angvel_z,cube_world_x,cube_world_y,cube_world_z,cube_quat_w,cube_quat_x,cube_quat_y,cube_quat_z,cube_linvel_x,cube_linvel_y,cube_linvel_z,cube_angvel_x,cube_angvel_y,cube_angvel_z,endpoint_world_x,endpoint_world_y,endpoint_world_z,endpoint_linvel_x,endpoint_linvel_y,endpoint_linvel_z,target_cube_world_x,target_cube_world_y,target_cube_world_z,gripper_actual_pos_rad_gp_leftgearjoint,gripper_actual_vel_rad_s_gp_leftgearjoint,gripper_actual_pos_rad_gp_rotatingjoint,gripper_actual_vel_rad_s_gp_rotatingjoint,motor_angle_rad_joint1,motor_angle_rad_joint2,motor_angle_rad_joint3,motor_angle_rad_joint4,motor_speed_rad_s_joint1,motor_speed_rad_s_joint2,motor_speed_rad_s_joint3,motor_speed_rad_s_joint4
0.0,0.0,0.0,0.0,1.0,0.0,0.0,0.0,0.0,0.0,0.0,0.0,0.0,0.0,-0.386619508266449,0.7027040719985962,0.41999998688697815,1.0,0.0,0.0,0.0,0.0,0.0,0.0,0.0,0.0,0.0,3.42540442943573e-06,-0.005000244826078415,1.313499927520752,0.0,0.0,0.0,0.3510906398296356,0.756003201007843,0.42000001668930054,-1.5707999467849731,0.0,0.0,0.0,0.0,0.0,0.0,0.0,0.0,0.0,0.0,0.0
0.016666666666666666,0.0028778850100934505,0.0021806680597364902,0.0,0.9998081922531128,0.0,0.0,0.019586581736803055,0.24087215960025787,0.18240931630134583,0.0,0.0,0.0,3.1418697834014893,-0.3866196274757385,0.7027037739753723,0.41999998688697815,1.0,3.279964630564791e-06,-8.339746386809566e-07,8.465587342243452e-08,-1.9833529222523794e-05,0.00017983045836444944,-6.132945418357849e-05,0.0009432713268324733,-0.004689474124461412,-0.00031981561915017664,-0.007110234349966049,0.003379564033821225,1.3159373998641968,-0.8143353462219238,0.9868683815002441,0.18095196783542633,0.3510906398296356,0.756003201007843,0.42000001668930054,-1.5301095247268677,3.0000011920928955,-0.04584788903594017,-2.9999992847442627,0.0008691533003002405,0.0007963840034790337,0.0007110277656465769,0.0006108740926720202,0.11094217747449875,0.09756709635257721,0.08334315568208694,0.06823883205652237
0.03333333333333333,0.008960990235209465,0.006801996845752001,0.0,0.9997960329055786,0.0,0.0,0.020196838304400444,0.40702205896377563,0.3153080344200134,0.0,0.0,0.0,-0.8691325187683105,-0.3866197466850281,0.7027037143707275,0.4200000464916229,1.0,3.3908354453160428e-06,-2.1324485715012997e-06,-3.710144014235084e-08,0.00026357831666246057,0.00026937946677207947,-0.00010509486310184002,-0.0017707672668620944,0.004130808170884848,-0.000135478752781637,-0.027553915977478027,0.02622852474451065,1.316591501235962,-1.5913790464401245,1.6160969734191895,-0.08568836748600006,0.3510906398296356,0.756003201007843,0.42000001668930054,-1.4800903797149658,3.000002384185791,-0.09588772058486938,-3.0000009536743164,0.002990098437294364,0.002652705879881978,0.002277273451909423,0.0018607268575578928,0.1642141342163086,0.13975779712200165,0.11381662636995316,0.08629868924617767
0.05,0.018453584983944893,0.01387481577694416,0.0,0.9999826550483704,0.0,0.0,-0.005886290688067675,0.6360782384872437,0.4715118408203125,0.0,0.0,0.0,-4.0782952308654785,-0.38661977648735046,0.7027037739753723,0.4200000464916229,1.0,3.7651125239790417e-06,-2.211879063906963e-06,5.622505128144439e-09,0.000265308452071622,0.0002669153327587992,-0.00010440615005791187,-0.001724260626360774,0.004177352879196405,-0.00012949221127200872,-0.05724821239709854,0.05743691325187683,1.3118693828582764,-1.9523310661315918,2.0620391368865967,-0.4618417024612427,0.3510906398296356,0.756003201007843,0.42000001668930054,-1.4300720691680908,3.0000035762786865,-0.14592641592025757,-3.000000238418579,0.006006645504385233,0.0051682074554264545,0.004257312975823879,0.0032697601709514856,0.20729155838489532,0.16690538823604584,0.12460488080978394,0.08030769973993301
0.06666666666666667,0.030759261921048164,0.023348156362771988,0.0,0.9998972415924072,0.0,0.0,-0.014334382489323616,0.7724549770355225,0.6152520775794983,0.0,0.0,0.0,-0.04359429329633713,-0.38661977648735046,0.7027037143707275,0.4200000464916229,0.9999999403953552,3.4066883927152958e-06,-2.285532218593289e-06,4.300976286231162e-07,0.0002670241810847074,0.00026791772688739,-0.00010438147000968456,-0.00174069800414145,0.00421178387477994,-0.00012850729399360716,-0.0937870442867279,0.09070288389921188,1.301164150238037,-2.2909626960754395,2.106255292892456,-0.8124101161956787,0.3510906398296356,0.756003201007843,0.42000001668930054,-1.3800500631332397,3.000002145767212,-0.1844933032989502,-1.7124948501586914,0.008654548786580563,0.007075302302837372,0.0053834388963878155,0.0035738481674343348,0.14209483563899994,0.08895440399646759,0.033672600984573364,-0.023817013949155807
0.08333333333333333,0.044852182269096375,0.03500932455062866,0.0,0.9993118643760681,0.0,0.0,-0.03709128499031067,0.9492937922477722,0.7330929636955261,0.0,0.0,0.0,-3.5517325401306152,-0.38661977648735046,0.7027037143707275,0.4200000464916229,1.0,3.6972253383282805e-06,-2.188838152505923e-06,-2.632317830375541e-07,0.00026389729464426637,0.00026586424792185426,-0.00010433932766318321,-0.0017081560799852014,0.004150177352130413,-0.0001299097202718258,-0.12772324681282043,0.13044820725917816,1.2868657112121582,-1.8043711185455322,2.656863212585449,-0.8801897764205933,0.3510906398296356,0.756003201007843,0.42000001668930054,-1.3300241231918335,2.9999992847442627,-0.17455974221229553,2.5321898460388184,0.009284855797886848,0.006574333645403385,0.0037085828371345997,0.0006825302261859179,0.005392270162701607,-0.0806928500533104,-0.16902971267700195,-0.25954145193099976
0.1,0.05378406494855881,0.05038762837648392,0.0,0.9959760308265686,0.0,0.0,-0.0896199643611908,0.39320555329322815,1.0161563158035278,0.0,0.0,0.0,-7.303045749664307,-0.38661977648735046,0.7027037143707275,0.4200000464916229,0.9999999403953552,3.620277084337431e-06,-2.2651142899121623e-06,1.7461523782458244e-07,0.0002667682128958404,0.0002674072457011789,-0.0001040794886648655,-0.0017386354738846421,0.004209177568554878,-0.00012775110371876508,-0.15666264295578003,0.17625239491462708,1.2703979015350342,-1.6723883152008057,2.864701509475708,-1.0431007146835327,0.3510906398296356,0.756003201007843,0.42000001668930054,-1.2800319194793701,3.000001907348633,-0.2089546173810959,-3.0000014305114746,0.002885006368160248,-0.0007779905572533607,-0.00464955298230052,-0.008737349882721901,-0.5190404057502747,-0.5722154378890991,-0.6280472278594971,-0.6867491602897644
0.11666666666666667,0.05748755857348442,0.06762731820344925,0.0,0.992489218711853,0.0,0.0,-0.12233202159404755,0.21602076292037964,0.9903551340103149,0.0,0.0,0.0,-2.715479850769043,-0.38661977648735046,0.7027037143707275,0.4200000464916229,1.0,3.798308171099052e-06,-2.262737325509079e-06,-1.5021218757738097e-07,0.0002637405996210873,0.000265660259174183,-0.00010428996756672859,-0.0017054072814062238,0.00414755754172802,-0.000129801788716577,-0.1922987401485443,0.21927911043167114,1.2504589557647705,-2.296064615249634,2.70224928855896,-1.3044013977050781,0.3510906398296356,0.756003201007843,0.42000001668930054,-1.2300288677215576,3.0000007152557373,-0.2589706778526306,-2.999999523162842,-0.005552300252020359,-0.010223228484392166,-0.01510947197675705,-0.020221710205078125,-0.39829301834106445,-0.47227612137794495,-0.544599175453186,-0.6153462529182434
0.13333333333333333,0.07036244124174118,0.08056042343378067,0.0,0.9863055348396301,0.0,0.0,-0.16492828726768494,0.8168561458587646,0.829229474067688,0.0,0.0,0.0,-5.8238139152526855,-0.38661977648735046,0.7027037739753723,0.4200000464916229,0.9999999403953552,3.55037650479062e-06,-2.229731535408064e-06,2.929058098288806e-07,0.0002670335816219449,0.0002677934826351702,-0.00010417238809168339,-0.0017440745141357183,0.004213663749396801,-0.0001280020660487935,-0.22495606541633606,0.2720889449119568,1.229217767715454,-1.6424658298492432,3.69331693649292,-1.3798329830169678,0.3510906398296356,0.756003201007843,0.42000001668930054,-1.1800090074539185,2.9999959468841553,-0.22486315667629242,3.0000009536743164,-0.004443263169378042,-0.011463787406682968,-0.01860712468624115,-0.025879403576254845,-0.14605550467967987,-0.26477858424186707,-0.37953588366508484,-0.49001699686050415
0.15,0.07917674630880356,0.09154018759727478,0.0,0.9822597503662109,0.0,0.0,-0.18752546608448029,0.4771641492843628,0.5839434266090393,0.0,0.0,0.0,-1.6425915956497192,-0.3866197466850281,0.7027037143707275,0.4200000464916229,1.0,3.3320845886919415e-06,-2.1018886400270276e-06,1.313070612241063e-07,0.00026730558602139354,0.0002685959043446928,-0.00010459567420184612,-0.0017497815424576402,0.004215646535158157,-0.00012928525393363088,-0.25865307450294495,0.32806798815727234,1.1984999179840088,-2.0793237686157227,3.4615859985351562,-2.2130126953125,0.3510906398296356,0.756003201007843,0.42000001668930054,-1.1498726606369019,0.7850480079650879,-0.2561170160770416,-3.000000238418579,-0.011348603293299675,-0.019492698833346367,-0.027715051546692848,-0.03602277487516403,-0.43973955512046814,-0.4897448420524597,-0.5367869138717651,-0.5810161828994751
0.16666666666666666,0.0832061916589737,0.10511993616819382,0.0,0.9750860929489136,0.0,0.0,-0.22182665765285492,0.23476135730743408,0.7507146000862122,0.0,0.0,0.0,-4.8367486000061035,-0.38661977648735046,0.7027037143707275,0.4200000464916229,1.0,3.7371814869402442e-06,-2.2329975308821304e-06,-1.8765943821108522e-07,0.0002643296611495316,0.0002662689657881856,-0.00010446016676723957,-0.0017119699623435736,0.004157591611146927,-0.00013001523620914668,-0.29241350293159485,0.39087724685668945,1.1535203456878662,-1.9543919563293457,4.0749192237854,-3.0065810680389404,0.3510906398296356,0.756003201007843,0.42000001668930054,-1.1071566343307495,3.0000016689300537,-0.24033544957637787,3.000000238418579,-0.02257387340068817,-0.030957959592342377,-0.03938297554850578,-0.047864269465208054,-0.5581262707710266,-0.5857453942298889,-0.6090573668479919,-0.6283146739006042
0.18333333333333332,0.08608997613191605,0.11388162523508072,0.0,0.9697030186653137,0.0,0.0,-0.24428682029247284,0.11261678487062454,0.43459346890449524,0.0,0.0,0.0,-1.751810908317566,-0.38661977648735046,0.7027037739753723,0.4200000464916229,0.9999999403953552,3.6601361443899805e-06,-2.3021373181109084e-06,2.5284839466621634e-07,0.00026690843515098095,0.00026760276523418725,-0.00010412652045488358,-0.0017413680907338858,0.004211578983813524,-0.00012787070591002703,-0.3257579207420349,0.4561627507209778,1.0975267887115479,-1.789438009262085,3.9755005836486816,-3.697232484817505,0.3510906398296356,0.756003201007843,0.42000001668930054,-1.0571612119674683,3.000000238418579,-0.271476686000824,-3.000000476837158,-0.0314495712518692,-0.04016340896487236,-0.04884412884712219,-0.057513535022735596,-0.563637912273407,-0.5700023770332336,-0.5725577473640442,-0.5717477202415466
0.2,0.09231669455766678,0.12393241375684738,0.0,0.9597231149673462,0.0,0.0,-0.28094759583473206,0.2833825945854187,0.6271412968635559,0.0,0.0,0.0,-5.31119966506958,-0.38661977648735046,0.7027037143707275,0.4200000464916229,1.0,3.5907003166357754e-06,-2.30029900194495e-06,1.38729205900745e-07,0.0002665481297299266,0.0002673238341230899,-0.00010424177162349224,-0.0017326157540082932,0.004203508608043194,-0.00012821020209230483,-0.352023184299469,0.5245828628540039,1.0278546810150146,-1.3600481748580933,4.0537428855896,-4.615817070007324,0.3510906398296356,0.756003201007843,0.42000001668930054,-1.0071581602096558,3.0000011920928955,-0.32150301337242126,-3.000000476837158,-0.04162323847413063,-0.050084277987480164,-0.058479417115449905,-0.06684157252311707,-0.9119734168052673,-0.8453275561332703,-0.7800272107124329,-0.7169667482376099
0.21666666666666667,0.09398377686738968,0.1331280618906021,0.0,0.9542762637138367,0.0,0.0,-0.29892608523368835,0.11262150853872299,0.5005391240119934,0.0,0.0,0.0,-1.1885240077972412,-0.38661977648735046,0.7027037739753723,0.4200000464916229,1.0,3.6067965538677527e-06,-2.26086558541283e-06,1.9618761726292178e-08,0.00026447168784216046,0.0002655836578924209,-0.00010396330617368221,-0.0017087386222556233,0.004164193756878376,-0.00012832140782848,-0.3755641579627991,0.5842798948287964,0.943933367729187,-1.1489641666412354,3.40008282661438,-5.347984790802002,0.3510906398296356,0.756003201007843,0.42000001668930054,-0.9571490287780762,3.000000238418579,-0.3715309500694275,-3.000000476837158,-0.05691975727677345,-0.06527422368526459,-0.0729585811495781,-0.07977095246315002,-0.8618020415306091,-0.847241222858429,-0.8061055541038513,-0.7195700407028198
0.23333333333333334,0.09262715280056,0.14319013059139252,0.0,0.9447743892669678,0.0,0.0,-0.32772138714790344,-0.1641792356967926,0.6629300117492676,0.0,0.0,0.0,-4.450194358825684,-0.3866197466850281,0.7027037143707275,0.4200000464916229,0.9999999403953552,3.742101398529485e-06,-2.227345248684287e-06,4.589114155351126e-07,0.0002647513756528497,0.0002667136723175645,-0.00010453537106513977,-0.0017189161153510213,0.0041657742112874985,-0.00013019364268984646,-0.39304304122924805,0.6378427743911743,0.848261833190918,-0.7975145578384399,2.926194667816162,-6.002882480621338,0.3510906398296356,0.756003201007843,0.42000001668930054,-0.907138466835022,2.9999983310699463,-0.42156118154525757,-3.0000011920928955,-0.07322520017623901,-0.08133096247911453,-0.08852697908878326,-0.0940675437450409,-0.9882745742797852,-0.9838864207267761,-0.9774327278137207,-0.925227165222168
0.25,0.09445934742689133,0.14926505088806152,0.0,0.9410668611526489,0.0,0.0,-0.33822059631347656,0.1491653323173523,0.27302563190460205,0.0,0.0,0.0,-0.21879996359348297,-0.38661977648735046,0.7027037143707275,0.4200000464916229,1.0,3.39423263540084e-06,-2.2818808247393463e-06,1.3363670348098822e-07,0.0002667944645509124,0.00026794031145982444,-0.00010439474135637283,-0.001741691492497921,0.00420658104121685,-0.0001288425555685535,-0.40732574462890625,0.6768449544906616,0.7462369203567505,-0.6367261409759521,1.8175101280212402,-6.239994049072266,0.3510906398296356,0.756003201007843,0.42000001668930054,-0.8571277856826782,2.99999737739563,-0.4715920686721802,-3.000000476837158,-0.08865126967430115,-0.0965939462184906,-0.10363662987947464,-0.10858821123838425,-0.9893133640289307,-0.9778628945350647,-0.965428352355957,-0.9434606432914734
0.26666666666666666,0.09226899594068527,0.15230238437652588,0.0,0.9328884482383728,0.0,0.0,-0.36016547679901123,-0.22609028220176697,0.13871529698371887,0.0,0.0,0.0,-3.6898353099823,-0.38661977648735046,0.7027037739753723,0.4200000464916229,1.0,3.683239356178092e-06,-2.309933051947155e-06,2.1011992146213743e-07,0.0002647916553542018,0.00026625811005942523,-0.00010421057231724262,-0.001716860686428845,0.004168972373008728,-0.00012909462384413928,-0.4121490716934204,0.6983896493911743,0.6383651494979858,0.1082300916314125,0.7189227938652039,-6.427553176879883,0.3510906398296356,0.756003201007843,0.42000001668930054,-0.8071185946464539,3.00000262260437,-0.5216224193572998,-3.0000033378601074,-0.10613416880369186,-0.11384112387895584,-0.12070858478546143,-0.1255262941122055,-1.003814458847046,-1.0028647184371948,-1.0021400451660156,-1.0015645027160645
0.2833333333333333,0.09078804403543472,0.1523885577917099,0.0,0.9309831261634827,0.0,0.0,-0.36506226658821106,-0.011999599635601044,-0.04331299662590027,0.0,0.0,0.0,0.2727509140968323,-0.38661977648735046,0.7027037143707275,0.4200000464916229,1.0,3.306690359750064e-06,-2.2123749658931047e-06,2.6260173058290093e-07,0.0002666071231942624,0.00026745113427750766,-0.00010424456559121609,-0.001735334168188274,0.004204478580504656,-0.0001282861630897969,-0.4103313684463501,0.7052078247070312,0.536427915096283,0.2852151393890381,0.06293325871229172,-5.839836597442627,0.3510906398296356,0.756003201007843,0.42000001668930054,-0.7571098208427429,3.0000014305114746,-0.5716521143913269,-3.000000476837158,-0.1230902150273323,-0.13072870671749115,-0.13754932582378387,-0.14233385026454926,-1.0059661865234375,-1.004501461982727,-1.003382682800293,-1.002489686012268
0.3,0.08680491894483566,0.15065117180347443,0.0,0.9268876314163208,0.0,0.0,-0.37533897161483765,-0.3297979235649109,-0.13554269075393677,0.0,0.0,0.0,-2.175015449523926,-0.38661977648735046,0.7027037143707275,0.4200000464916229,1.0,3.6410058328328887e-06,-2.377771352257696e-06,-4.1935263084269536e-07,0.0002661160542629659,0.00026725951465778053,-0.00010423478670418262,-0.0017336473101750016,0.004194711335003376,-0.00012854898523073643,-0.40028905868530273,0.7038768529891968,0.4438309669494629,0.9398465156555176,-0.23523834347724915,-5.183712005615234,0.3510906398296356,0.756003201007843,0.42000001668930054,-0.7071019411087036,3.000002861022949,-0.6216796636581421,-3.0000007152557373,-0.14118140935897827,-0.14849431812763214,-0.1550678014755249,-0.15965592861175537,-1.0161107778549194,-1.012210726737976,-1.0092219114303589,-1.0068199634552002
0.31666666666666665,0.07954759150743484,0.14704960584640503,0.0,0.929014265537262,0.0,0.0,-0.37004387378692627,-0.37871336936950684,-0.2945699989795685,0.0,0.0,0.0,1.518122911453247,-0.38662201166152954,0.7026504278182983,0.42005667090415955,0.9999991059303284,0.0013405379140749574,-6.540584581671283e-05,-1.92624452211021e-06,0.000501134607475251,-0.0072030192241072655,0.006308382377028465,0.3638732135295868,0.03385642543435097,0.009090675041079521,-0.3935717046260834,0.7023661732673645,0.41688060760498047,0.18972162902355194,0.227195605635643,-0.009185891598463058,0.3510906398296356,0.756003201007843,0.42000001668930054,-0.6572641730308533,2.9498095512390137,-0.6720820069313049,-2.8876562118530273,-0.14976726472377777,-0.15760135650634766,-0.1645270735025406,-0.16924826800823212,-0.0829874575138092,-0.1606113463640213,-0.212574765086174,-0.2349754422903061
0.3333333333333333,0.07156704366207123,0.14053350687026978,0.0,0.9253466725349426,0.0,0.0,-0.37912213802337646,-0.5320472121238708,-0.43465757369995117,0.0,0.0,0.0,-1.9952528476715088,-0.38544565439224243,0.7044918537139893,0.42023518681526184,0.9998738765716553,0.005707928910851479,0.00010286229371558875,-0.014818443916738033,0.24134398996829987,0.3657909631729126,0.049439940601587296,2.842172861099243,-0.20244303345680237,-5.965005874633789,-0.3916724920272827,0.7083767056465149,0.42347413301467896,0.19172130525112152,0.409641295671463,-0.11572863161563873,0.3510906398296356,0.756003201007843,0.42000001668930054,-0.6072549819946289,3.000001907348633,-0.722137987613678,-2.99993896484375,-0.15095943212509155,-0.15980388224124908,-0.16731755435466766,-0.17219842970371246,-0.17575721442699432,-0.2091069221496582,-0.22307007014751434,-0.22054807841777802
0.35,0.06120656058192253,0.13172228634357452,0.0,0.9280146360397339,0.0,0.0,-0.3725437521934509,-0.6623874306678772,-0.5666089057922363,0.0,0.0,0.0,1.7672526836395264,-0.38061514496803284,0.7118740677833557,0.4201679825782776,0.9963579177856445,0.004167929757386446,-0.0005229267408140004,-0.08516483008861542,0.35130342841148376,0.5368298292160034,-0.0202023983001709,-1.0244007110595703,0.09702585637569427,-11.68606185913086,-0.38676121830940247,0.7170477509498596,0.4214818477630615,0.4075726866722107,0.5946592092514038,-0.10844217240810394,0.3510906398296356,0.756003201007843,0.42000001668930054,-0.5572499632835388,2.999976873397827,-0.7721706628799438,-2.999999523162842,-0.15598076581954956,-0.1644030064344406,-0.1711890697479248,-0.17514395713806152,-0.3515535593032837,-0.2875007688999176,-0.20675669610500336,-0.11817771196365356
0.36666666666666664,0.048868417739868164,0.12066501379013062,0.0,0.9247506260871887,0.0,0.0,-0.380573570728302,-0.7980871796607971,-0.7031671404838562,0.0,0.0,0.0,-1.9842000007629395,-0.37413886189460754,0.7213703393936157,0.4200000762939453,0.9854063391685486,-3.9686761738266796e-05,3.430974538787268e-05,-0.1702180802822113,0.5437465310096741,0.73924320936203,-0.0009143908391706645,0.04666055366396904,-0.01738007925450802,-4.172555923461914,-0.37758615612983704,0.7263463735580444,0.420223593711853,0.692089319229126,0.6013541221618652,-0.06635619699954987,0.3510906398296356,0.756003201007843,0.42000001668930054,-0.5072451829910278,2.999998092651367,-0.8222174644470215,-2.9999985694885254,-0.1626129150390625,-0.1695006638765335,-0.17445826530456543,-0.1764715313911438,-0.3896746337413788,-0.28024545311927795,-0.1544196456670761,-0.02430414967238903
0.3833333333333333,0.038978252559900284,0.10689300298690796,0.0,0.9101928472518921,0.0,0.0,-0.41418468952178955,-0.5186467170715332,-0.8782645463943481,0.0,0.0,0.0,-5.231159210205078,-0.36189955472946167,0.7368257641792297,0.4201652705669403,0.9794014096260071,-0.004052209202200174,0.0007059852359816432,-0.2018810361623764,0.9585447311401367,1.163438081741333,0.051926139742136,-2.4238996505737305,1.012894868850708,-5.894407749176025,-0.3638620972633362,0.7391940355300903,0.42083126306533813,1.0238195657730103,1.0113396644592285,0.12407870590686798,0.3510906398296356,0.756003201007843,0.42000001668930054,-0.4572089910507202,3.000000238418579,-0.8722465634346008,-3.000000476837158,-0.16882003843784332,-0.17360740900039673,-0.17613175511360168,-0.17559905350208282,-0.3241383731365204,-0.18946518003940582,-0.034019336104393005,0.12851004302501678
0.4,0.03319171443581581,0.09003870189189911,0.0,0.8822468519210815,0.0,0.0,-0.47078707814216614,-0.277757465839386,-1.0674704313278198,0.0,0.0,0.0,-8.404979705810547,-0.333187997341156,0.7633890509605408,0.4223659336566925,0.9671756029129028,-0.014450518414378166,-0.02318715490400791,-0.25263580679893494,2.6285507678985596,1.6936935186386108,0.16219337284564972,30.073017120361328,-11.800318717956543,6.786032199859619,-0.33507436513900757,0.7647167444229126,0.42319968342781067,2.5458168983459473,2.094756603240967,0.36658304929733276,0.3510906398296356,0.756003201007843,0.42000001668930054,-0.4084286391735077,2.4046037197113037,-0.922267735004425,-3.000000238418579,-0.17565785348415375,-0.1776791512966156,-0.1771325320005417,-0.17347100377082825,-0.48156794905662537,-0.28352051973342896,-0.07176832109689713,0.13815456628799438
0.4166666666666667,0.029533112421631813,0.07805495709180832,0.0,0.8375383019447327,0.0,0.0,-0.5463786125183105,-0.18024590611457825,-0.589760422706604,0.0,0.0,0.0,-11.318787574768066,-0.2650236189365387,0.8028609752655029,0.42741644382476807,0.947102963924408,0.05274096876382828,-0.0643637627363205,-0.3099542260169983,5.578984260559082,2.3503997325897217,0.39502790570259094,4.62250280380249,-7.201605796813965,18.0742244720459,-0.2667321562767029,0.8044927716255188,0.42841827869415283,5.303655624389648,2.8539819717407227,0.42815667390823364,0.3510906398296356,0.756003201007843,0.42000001668930054,-0.3843161463737488,1.0933425426483154,-0.8851169943809509,2.9987595081329346,-0.19046738743782043,-0.18878737092018127,-0.18320868909358978,-0.17492341995239258,-0.9164932370185852,-0.7710310220718384,-0.4652412235736847,-0.1953638643026352
0.43333333333333335,0.02216157130897045,0.07347298413515091,0.0,0.7994222044944763,0.0,0.0,-0.6007696390151978,-0.5685856938362122,-0.27123722434043884,0.0,0.0,0.0,-6.736763000488281,-0.17726024985313416,0.8411643505096436,0.4374712407588959,0.9141178727149963,0.0880134105682373,-0.08672130852937698,-0.3861623704433441,5.610658645629883,1.517903208732605,0.6811469793319702,6.822272777557373,-10.940003395080566,10.332136154174805,-0.17775999009609222,0.8441057205200195,0.4383420944213867,5.394929885864258,2.043870210647583,0.6979444026947021,0.3510906398296356,0.756003201007843,0.42000001668930054,-0.3669670820236206,1.0415165424346924,-0.9112802743911743,-3.000001907348633,-0.20471401512622833,-0.20336657762527466,-0.1958790421485901,-0.1826472133398056,-0.6437017917633057,-0.6948774456977844,-0.7144986987113953,-0.4680790305137634
0.45,0.01897663064301014,0.06174213066697121,0.0,0.7805700898170471,0.0,0.0,-0.6250682473182678,-0.041236408054828644,-0.8678285479545593,0.0,0.0,0.0,-2.652184247970581,-0.0813346654176712,0.8681660294532776,0.44804641604423523,0.8518029451370239,0.09753801673650742,-0.09225180745124817,-0.5063670873641968,5.9176716804504395,0.37819936871528625,0.5171888470649719,-1.6037712097167969,-12.226179122924805,16.46539306640625,-0.08354438841342926,0.8714712262153625,0.4475736916065216,5.972653388977051,1.1536250114440918,0.626774787902832,0.3510906398296356,0.756003201007843,0.42000001668930054,-0.34766948223114014,1.078934669494629,-0.961304247379303,-3.00000262260437,-0.20964063704013824,-0.20862939953804016,-0.2011226862668991,-0.18428555130958557,-0.20358195900917053,-0.16574697196483612,-0.1170852854847908,0.09938302636146545
0.4666666666666667,0.01500253938138485,0.05205365642905235,0.0,0.7536709904670715,0.0,0.0,-0.6572518944740295,-0.2830626368522644,-0.5207327604293823,0.0,0.0,0.0,-5.73500394821167,0.015953421592712402,0.8777821660041809,0.4559474289417267,0.790768563747406,0.09653617441654205,-0.10790149122476578,-0.5947462320327759,5.7834930419921875,-0.052051763981580734,0.21293120086193085,11.560216903686523,-8.278712272644043,11.962467193603516,0.013343842700123787,0.8830153942108154,0.45619192719459534,5.833562850952148,0.3334031403064728,0.6093912124633789,0.3510906398296356,0.756003201007843,0.42000001668930054,-0.33048611879348755,0.9374810457229614,-1.011327862739563,-3.0000014305114746,-0.21582956612110138,-0.213566854596138,-0.2049294263124466,-0.18503747880458832,-0.29957592487335205,-0.23520991206169128,-0.18930700421333313,-0.06813676655292511
0.48333333333333334,0.012751283124089241,0.04695727303624153,0.0,0.7412236332893372,0.0,0.0,-0.6712582111358643,-0.06961456686258316,-0.21269917488098145,0.0,0.0,0.0,-1.0642503499984741,0.10747193545103073,0.8727371692657471,0.46126285195350647,0.7103016376495361,0.07591737061738968,-0.11101273447275162,-0.6909300088882446,4.801002025604248,-1.5362327098846436,0.10224870592355728,-16.300518035888672,-12.802358627319336,26.369667053222656,0.10408832132816315,0.8800027966499329,0.46190211176872253,5.327040672302246,-0.6987794637680054,0.3088054656982422,0.3510906398296356,0.756003201007843,0.42000001668930054,-0.3185085654258728,0.4344245493412018,-1.0613499879837036,-3.0000014305114746,-0.2230556458234787,-0.21877223253250122,-0.20861868560314178,-0.1866617649793625,-0.46148473024368286,-0.30707889795303345,-0.192710280418396,-0.08063200861215591
0.5,0.0139554338529706,0.0416705459356308,0.0,0.7212154269218445,0.0,0.0,-0.692710816860199,0.12752364575862885,-0.38314056396484375,0.0,0.0,0.0,-4.354886054992676,0.18546421825885773,0.8555265665054321,0.4584878385066986,0.6457098126411438,0.01695151999592781,-0.13767239451408386,-0.7508780360221863,4.155192852020264,-1.7490103244781494,-0.2089235484600067,14.16065502166748,2.1378726959228516,-3.169867515563965,0.18142575025558472,0.8644092679023743,0.4618263840675354,4.208356857299805,-1.2826755046844482,-0.16115199029445648,0.3510906398296356,0.756003201007843,0.42000001668930054,-0.31016045808792114,0.6400614976882935,-1.1113721132278442,-2.9999287128448486,-0.22938933968544006,-0.22242401540279388,-0.21031738817691803,-0.18687738478183746,-0.35618576407432556,-0.17696347832679749,-0.04624597728252411,0.03229333460330963
0.5166666666666666,0.014231766574084759,0.03941132500767708,0.0,0.7149791717529297,0.0,0.0,-0.6991457343101501,-0.01078892219811678,-0.03572500869631767,0.0,0.0,0.0,-0.043119676411151886,0.24780945479869843,0.8298816084861755,0.4518142640590668,0.5996924638748169,-0.01581048220396042,-0.11422890424728394,-0.7918779850006104,3.3066558837890625,-1.7292652130126953,-0.5081496238708496,-2.7868473529815674,1.5343633890151978,-6.385374069213867,0.24454918503761292,0.8386251926422119,0.45555251836776733,3.3452138900756836,-1.7407422065734863,-0.5333560705184937,0.3510906398296356,0.756003201007843,0.42000001668930054,-0.2964272201061249,1.004148006439209,-1.1613942384719849,-3.000001907348633,-0.2357058972120285,-0.22581453621387482,-0.2116461843252182,-0.1873408704996109,-0.2688162922859192,-0.12566892802715302,-0.03590226173400879,-0.03126854822039604
0.5333333333333333,0.016645481809973717,0.0333733856678009,0.0,0.6995622515678406,0.0,0.0,-0.7145716547966003,0.16204674541950226,-0.40529316663742065,0.0,0.0,0.0,-3.4436583518981934,0.29851874709129333,0.80455082654953,0.4374197721481323,0.5677388310432434,-0.05268781632184982,-0.0967484787106514,-0.8158040046691895,2.702827215194702,-1.6927869319915771,-0.8895139694213867,-6.191768646240234,5.578064918518066,1.039076328277588,0.2961788773536682,0.8127868175506592,0.4415438175201416,2.750641107559204,-1.5710358619689941,-1.0406817197799683,0.3510906398296356,0.756003201007843,0.42000001668930054,-0.27840691804885864,0.9976739287376404,-1.2114163637161255,-2.999803066253662,-0.2339065968990326,-0.22308939695358276,-0.20881973206996918,-0.1858837604522705,0.17616330087184906,0.20930473506450653,0.19127927720546722,0.07621166110038757
0.55,0.021381285041570663,0.03170709311962128,0.0,0.6962725520133972,0.0,0.0,-0.7177774906158447,0.31701356172561646,-0.10266831517219543,0.0,0.0,0.0,0.3159898817539215,0.335793673992157,0.7793600559234619,0.4227471947669983,0.5422065258026123,-0.06359094381332397,-0.02864275872707367,-0.8373457193374634,1.9636565446853638,-1.0140717029571533,-0.014603644609451294,-36.00497817993164,-13.216933250427246,19.52544403076172,0.33428990840911865,0.7863112092018127,0.4259985089302063,1.3848795890808105,-1.1160205602645874,-0.06372235715389252,0.3510906398296356,0.756003201007843,0.42000001668930054,-0.2629794776439667,0.7377332448959351,-1.2614381313323975,-3.0000030994415283,-0.23340243101119995,-0.22194336354732513,-0.2079075276851654,-0.18694595992565155,0.27978429198265076,0.23278996348381042,0.1478034406900406,-0.029223468154668808
0.5666666666666667,0.024230239912867546,0.032197751104831696,0.0,0.684018611907959,0.0,0.0,-0.7294645309448242,0.10663261264562607,0.1055513322353363,0.0,0.0,0.0,-2.8857319355010986,0.35580238699913025,0.7666347026824951,0.4220890700817108,0.5465770959854126,-0.04624286666512489,-0.028810318559408188,-0.8356345295906067,0.7187350988388062,-0.7811193466186523,0.07983259856700897,-7.016626358032227,2.2519609928131104,9.991559028625488,0.35272282361984253,0.7728232145309448,0.42550861835479736,0.7405761480331421,-0.5885133147239685,0.13409481942653656,0.3510906398296356,0.756003201007843,0.42000001668930054,-0.2557384669780731,0.3320007026195526,-1.2246239185333252,3.0000033378601074,-0.226888045668602,-0.21710970997810364,-0.20522086322307587,-0.18779118359088898,0.4554952085018158,0.3287246823310852,0.17878827452659607,-0.049644868820905685
0.5833333333333334,0.02771395817399025,0.028927410021424294,0.0,0.6838163137435913,0.0,0.0,-0.7296541929244995,0.23587243258953094,-0.17405760288238525,0.0,0.0,0.0,0.7619704008102417,0.3620755672454834,0.7592628002166748,0.42256179451942444,0.5557029843330383,-0.04876009374856949,-0.00690716877579689,-0.8299210071563721,-0.12449705600738525,-0.49771174788475037,0.177836611866951,3.8077921867370605,8.665345191955566,6.80410099029541,0.35859769582748413,0.7644333243370056,0.4263739287853241,-0.08005692064762115,-0.4515365660190582,0.1048874706029892,0.3510906398296356,0.756003201007843,0.42000001668930054,-0.2458244115114212,0.7718481421470642,-1.2456752061843872,-2.999847412109375,-0.21586044132709503,-0.2086304873228073,-0.19964081048965454,-0.1863516867160797,0.4984830319881439,0.38472622632980347,0.24791082739830017,0.03475107252597809
0.6,0.033558014780282974,0.0302957184612751,0.0,0.6727999448776245,0.0,0.0,-0.7398244142532349,0.3854452967643738,0.0789259672164917,0.0,0.0,0.0,-2.603395700454712,0.35962122678756714,0.7555014491081238,0.42150795459747314,0.5880329608917236,-0.02759985439479351,-0.002338223857805133,-0.8083624839782715,-0.10530529171228409,-0.03802154213190079,-0.04195839539170265,3.6530537605285645,-0.11817215383052826,8.428386688232422,0.35546964406967163,0.7602251768112183,0.424656480550766,-0.20925676822662354,-0.08120767772197723,-0.17057932913303375,0.3510906398296356,0.756003201007843,0.42000001668930054,-0.24830077588558197,-0.8801875114440918,-1.2076585292816162,2.999677896499634,-0.20810618996620178,-0.20313920080661774,-0.19669710099697113,-0.18707650899887085,0.6218012571334839,0.44054391980171204,0.24922986328601837,0.0019288291223347187
0.6166666666666667,0.03994613140821457,0.027786755934357643,0.0,0.6742468476295471,0.0,0.0,-0.738506019115448,0.39282089471817017,-0.18409663438796997,0.0,0.0,0.0,1.1360656023025513,0.357801616191864,0.7548305988311768,0.4200054109096527,0.6177996397018433,0.00020591467909980565,-0.00025544321397319436,-0.7863354682922363,-0.041591618210077286,-0.03232068568468094,0.0034773205406963825,0.41107702255249023,-0.4835623800754547,3.6654903888702393,0.3529270887374878,0.7581372261047363,0.42520514130592346,-0.22565892338752747,-0.12892232835292816,0.1454736739397049,0.3510906398296356,0.756003201007843,0.42000001668930054,-0.29281097650527954,-2.9999964237213135,-1.2286044359207153,-2.9995012283325195,-0.19819554686546326,-0.19569292664527893,-0.19188259541988373,-0.1857793778181076,0.4711710214614868,0.36237478256225586,0.24261848628520966,0.07150909304618835
0.6333333333333333,0.048085637390613556,0.028766101226210594,0.0,0.6700029969215393,0.0,0.0,-0.742358386516571,0.510059654712677,0.08766543120145798,0.0,0.0,0.0,-1.5914851427078247,0.35749927163124084,0.7546350955963135,0.41999998688697815,0.6229164600372314,1.0800379186548525e-06,1.2257781918378896e-06,-0.7822883725166321,-0.004595165140926838,-0.0027261425275355577,-2.0770414266735315e-05,-0.001490353257395327,0.0019241516711190343,0.1965218484401703,0.35231947898864746,0.7588335275650024,0.42788705229759216,0.051785364747047424,0.16773155331611633,0.19555164873600006,0.3510906398296356,0.756003201007843,0.42000001668930054,-0.34283554553985596,-2.999349594116211,-1.2785576581954956,-2.9986655712127686,-0.1911596655845642,-0.19053848087787628,-0.18866963684558868,-0.18517252802848816,0.5411202311515808,0.4024830758571625,0.26632755994796753,0.10128223150968552
0.65,0.0580599382519722,0.025932831689715385,0.0,0.677441418170929,0.0,0.0,-0.7355766892433167,0.6251336336135864,-0.18977120518684387,0.0,0.0,0.0,2.0508058071136475,0.35749897360801697,0.7546354532241821,0.4200000464916229,0.6229166388511658,4.0417816649096494e-08,-3.78645199816674e-06,-0.7822880744934082,0.0001592086919117719,-0.00033797434298321605,-9.315856732428074e-05,0.0074071516282856464,-0.0008726647938601673,-0.0005376093904487789,0.35101670026779175,0.7605133652687073,0.4314173460006714,-0.24678048491477966,-0.014499863609671593,0.25603827834129333,0.3510906398296356,0.756003201007843,0.42000001668930054,-0.3928495943546295,-2.9999923706054688,-1.3285765647888184,-3.0000007152557373,-0.1821354180574417,-0.18324309587478638,-0.183028906583786,-0.18157589435577393,0.3594195544719696,0.3160538971424103,0.2763904631137848,0.21509622037410736
0.6666666666666666,0.06684062629938126,0.02539186365902424,0.0,0.6732068061828613,0.0,0.0,-0.7394542098045349,0.42969655990600586,0.013375530950725079,0.0,0.0,0.0,-1.552679181098938,0.35749897360801697,0.7546353936195374,0.4200000464916229,0.6229165196418762,5.161086278349103e-07,-3.4608885925990762e-06,-0.7822881937026978,0.00017315025615971535,-0.0002817586937453598,-0.00010042847134172916,0.005867337342351675,-0.0006009916542097926,-0.0005625932826660573,0.34997743368148804,0.7599068880081177,0.43583494424819946,0.11090067774057388,-0.06671634316444397,0.29729989171028137,0.3510906398296356,0.756003201007843,0.42000001668930054,-0.44286197423934937,-2.999908924102783,-1.378586769104004,-2.999880313873291,-0.1782245934009552,-0.17949573695659637,-0.1792738288640976,-0.17801198363304138,0.2659533619880676,0.25878211855888367,0.2687603831291199,0.2772983908653259
0.6833333333333333,0.07553647458553314,0.022069839760661125,0.0,0.6489700078964233,0.0,0.0,-0.7608139514923096,0.5646867752075195,-0.2658996880054474,0.0,0.0,0.0,-4.737725734710693,0.35749897360801697,0.7546353936195374,0.4200000464916229,0.6229168176651001,6.010761239849671e-07,-3.5655448300531134e-06,-0.7822880744934082,0.00017036334611475468,-0.0002817986242007464,-9.968550875782967e-05,0.005880598444491625,-0.0006365346489474177,-0.0005566282197833061,0.3539125323295593,0.7605116367340088,0.44876378774642944,0.3975355625152588,0.08792291581630707,1.360335111618042,0.3510906398296356,0.756003201007843,0.42000001668930054,-0.4928739368915558,-2.99997878074646,-1.428605079650879,-3.0,-0.17524364590644836,-0.17646506428718567,-0.1759093850851059,-0.17427915334701538,0.08485531061887741,0.10418576747179031,0.13897138833999634,0.17742998898029327
0.7,0.08693873137235641,0.022091547027230263,0.0,0.6381054520606995,0.0,0.0,-0.7699489593505859,0.7000414133071899,0.026263434439897537,0.0,0.0,0.0,-0.6631672382354736,0.35749897360801697,0.7546353936195374,0.4200000464916229,0.6229166984558105,6.064711328690464e-07,-3.5940347515861504e-06,-0.7822880744934082,0.000170806422829628,-0.0002821429807227105,-9.971298277378082e-05,0.005887193139642477,-0.0006302704568952322,-0.0005575955146923661,0.36190006136894226,0.7641382217407227,0.4782860279083252,0.6036344170570374,0.3896278142929077,2.15200138092041,0.3510906398296356,0.756003201007843,0.42000001668930054,-0.5428808331489563,-2.999997138977051,-1.478623390197754,-3.000000476837158,-0.17667658627033234,-0.17735327780246735,-0.17596635222434998,-0.17340238392353058,0.006269682198762894,0.002183792646974325,0.02015456184744835,0.05124899372458458
0.7166666666666667,0.09534286707639694,0.024393271654844284,0.0,0.651120126247406,0.0,0.0,-0.7589746713638306,0.4332701563835144,0.18423017859458923,0.0,0.0,0.0,2.8961477279663086,0.35749897360801697,0.7546353936195374,0.4200000464916229,0.6229165196418762,4.73546833745786e-07,-3.4354654872004176e-06,-0.7822883129119873,0.00017291658150497824,-0.00028097766335122287,-0.00010040169581770897,0.00584776233881712,-0.0006023343303240836,-0.0005619831499643624,0.37515825033187866,0.7695318460464478,0.5085974931716919,0.8786230087280273,0.26764464378356934,1.5763170719146729,0.3510906398296356,0.756003201007843,0.42000001668930054,-0.5755541920661926,-1.0643821954727173,-1.528641700744629,-2.999999523162842,-0.1758221685886383,-0.17633795738220215,-0.17444151639938354,-0.17112763226032257,0.10253893584012985,0.12538759410381317,0.16592703759670258,0.22009743750095367
0.7333333333333333,0.09927831590175629,0.022445816546678543,0.0,0.6514959335327148,0.0,0.0,-0.7586520910263062,0.19455692172050476,-0.15912704169750214,0.0,0.0,0.0,-0.9443069696426392,0.35749897360801697,0.7546353936195374,0.4200000464916229,0.6229167580604553,5.794141202386527e-07,-3.5484567888488527e-06,-0.7822880744934082,0.00017107758321799338,-0.000281808985164389,-9.98710747808218e-05,0.0058768256567418575,-0.0006280419183894992,-0.0005582149606198072,0.38679996132850647,0.772150993347168,0.5281716585159302,0.504278302192688,-0.06408610939979553,0.9283559322357178,0.3510906398296356,0.756003201007843,0.42000001668930054,-0.6098892688751221,-2.86989426612854,-1.5061062574386597,3.000000476837158,-0.1714044064283371,-0.1716853827238083,-0.16939550638198853,-0.16554886102676392,0.17055246233940125,0.21972642838954926,0.2679078280925751,0.31530022621154785
0.75,0.10463599860668182,0.0256192646920681,0.0,0.6626921892166138,0.0,0.0,-0.7488918900489807,0.29572248458862305,0.23975740373134613,0.0,0.0,0.0,2.594385862350464,0.35749897360801697,0.7546353936195374,0.4200000464916229,0.6229168772697449,6.014850555402518e-07,-3.475522134976927e-06,-0.7822879552841187,0.00017082678095903248,-0.00028180083609186113,-9.981798939406872e-05,0.00587803777307272,-0.000631311850156635,-0.0005576775292865932,0.3947162926197052,0.7708103656768799,0.5447169542312622,0.4902114272117615,0.04463927075266838,1.0737226009368896,0.3510906398296356,0.756003201007843,0.42000001668930054,-0.6295974254608154,0.25015121698379517,-1.5221368074417114,-3.000000238418579,-0.17284652590751648,-0.171662375330925,-0.16805370151996613,-0.16301380097866058,0.017279304563999176,0.07019136846065521,0.11421821266412735,0.152545765042305
0.7666666666666666,0.10680854320526123,0.02411659248173237,0.0,0.6610652208328247,0.0,0.0,-0.7503284215927124,0.09548473358154297,-0.14631761610507965,0.0,0.0,0.0,-1.162839651107788,0.3574989438056946,0.7546353936195374,0.4200000464916229,0.6229166984558105,5.915039196224825e-07,-3.6862843444396276e-06,-0.7822881937026978,0.00016986316768452525,-0.0002817397762555629,-9.955721907317638e-05,0.00588233582675457,-0.0006417643162421882,-0.0005554840317927301,0.4034351706504822,0.7697235345840454,0.5572208166122437,0.4893881380558014,-0.2787262797355652,0.6034358739852905,0.3510906398296356,0.756003201007843,0.42000001668930054,-0.6528828740119934,-2.764045000076294,-1.483349323272705,2.999999761581421,-0.16987736523151398,-0.1681169718503952,-0.16407909989356995,-0.15867941081523895,0.10823529958724976,0.1698889583349228,0.21819134056568146,0.25819653272628784
0.7833333333333333,0.11007925122976303,0.025941412895917892,0.0,0.670016348361969,0.0,0.0,-0.7423463463783264,0.22602097690105438,0.11350515484809875,0.0,0.0,0.0,2.2230677604675293,0.35749897360801697,0.7546353936195374,0.4200000464916229,0.6229167580604553,6.056600909687404e-07,-3.608121687648236e-06,-0.7822880148887634,0.00017033705080393702,-0.0002817550557665527,-9.965058416128159e-05,0.005879964679479599,-0.0006357688689604402,-0.0005565013270825148,0.41277751326560974,0.7649292945861816,0.5678068399429321,0.6909563541412354,-0.20944465696811676,0.7009767889976501,0.3510906398296356,0.756003201007843,0.42000001668930054,-0.6665040850639343,0.8298772573471069,-1.499831199645996,-2.999999761581421,-0.16978967189788818,-0.1668231338262558,-0.16179069876670837,-0.15552222728729248,0.13991348445415497,0.17804689705371857,0.20746183395385742,0.23432493209838867
0.8,0.11078688502311707,0.024446936324238777,0.0,0.666481614112854,0.0,0.0,-0.7455214858055115,-0.012775433249771595,-0.1391039490699768,0.0,0.0,0.0,-1.438296914100647,0.35749897360801697,0.7546353936195374,0.4200000464916229,0.6229164600372314,6.996081651777786e-07,-3.467861461103894e-06,-0.7822883725166321,0.000173779611941427,-0.000281345855910331,-0.0001005539670586586,0.005852124188095331,-0.0005921221454627812,-0.0005638351431116462,0.4238015413284302,0.7609144449234009,0.5773533582687378,0.6102081537246704,-0.3022070527076721,0.5889307260513306,0.3510906398296356,0.756003201007843,0.42000001668930054,-0.673664391040802,-1.483129620552063,-1.4611140489578247,2.999999523162842,-0.1675228625535965,-0.16401124000549316,-0.1586012989282608,-0.15201522409915924,0.10657407343387604,0.14110994338989258,0.16320565342903137,0.17955003678798676
0.8166666666666667,0.11283229291439056,0.026573821902275085,0.0,0.6742350459098816,0.0,0.0,-0.7385168671607971,0.1564338058233261,0.12541228532791138,0.0,0.0,0.0,1.9852423667907715,0.35749897360801697,0.7546353936195374,0.4200000464916229,0.6229168176651001,5.710417099180631e-07,-3.3803451060521184e-06,-0.7822880744934082,0.00017379420751240104,-0.0002825494157150388,-0.00010040891356766224,0.005880287848412991,-0.0005951558705419302,-0.0005642338655889034,0.43355679512023926,0.7548896074295044,0.587162435054779,0.6420021057128906,-0.2969987988471985,0.6162986755371094,0.3510906398296356,0.756003201007843,0.42000001668930054,-0.6687066555023193,1.790313720703125,-1.47804594039917,-2.999999523162842,-0.16783404350280762,-0.16342167556285858,-0.15731997787952423,-0.15014998614788055,0.12273833155632019,0.14251360297203064,0.15445762872695923,0.16487613320350647
0.8333333333333334,0.11285608261823654,0.025063427165150642,0.0,0.6698774099349976,0.0,0.0,-0.7424716949462891,-0.0465555302798748,-0.1116228848695755,0.0,0.0,0.0,-1.5338960886001587,0.35749897360801697,0.7546353936195374,0.4200000464916229,0.6229166984558105,5.977606178930728e-07,-3.578734094844549e-06,-0.7822880744934082,0.0001707108604023233,-0.000282066612271592,-9.97059978544712e-05,0.00588570348918438,-0.0006316291401162744,-0.0005574029055424035,0.44288837909698486,0.7517082095146179,0.5964300632476807,0.42992281913757324,-0.1839982569217682,0.6148762106895447,0.3510906398296356,0.756003201007843,0.42000001668930054,-0.6546313166618347,0.03887892886996269,-1.4393901824951172,3.000000238418579,-0.1642695516347885,-0.16003552079200745,-0.1542406529188156,-0.147393137216568,0.13294461369514465,0.1274440586566925,0.11163841187953949,0.09202395379543304
0.85,0.11037948727607727,0.02696583978831768,0.0,0.6766977906227112,0.0,0.0,-0.7362608909606934,-0.1933721899986267,0.14891646802425385,0.0,0.0,0.0,1.8331286907196045,0.35749897360801697,0.7546353936195374,0.4200000464916229,0.6229165196418762,5.202236934565008e-07,-3.4339830108365277e-06,-0.7822883129119873,0.00017364473023917526,-0.00028104096418246627,-0.0001005867961794138,0.005845419596880674,-0.0005938657559454441,-0.0005636089481413364,0.4491574168205261,0.7469303607940674,0.6064019203186035,0.3769778907299042,-0.24408647418022156,0.6172851920127869,0.3510906398296356,0.756003201007843,0.42000001668930054,-0.6292271018028259,2.7520864009857178,-1.4567443132400513,-3.0,-0.16354838013648987,-0.15914754569530487,-0.15335267782211304,-0.14657947421073914,0.13606971502304077,0.12246007472276688,0.10221517831087112,0.08080682903528214
0.8666666666666667,0.1092551052570343,0.028774544596672058,0.0,0.6711147427558899,0.0,0.0,-0.7413535118103027,0.008489004336297512,0.14373904466629028,0.0,0.0,0.0,-1.8003946542739868,0.35749897360801697,0.7546353936195374,0.4200000464916229,0.6229167580604553,5.951491175437695e-07,-3.5355471936782124e-06,-0.7822880744934082,0.00017024387489072978,-0.0002817956265062094,-9.965314529836178e-05,0.005881038028746843,-0.0006379819824360311,-0.0005563725717365742,0.45193079113960266,0.7483848929405212,0.6151736974716187,-0.0598609633743763,0.27169832587242126,0.5748982429504395,0.3510906398296356,0.756003201007843,0.42000001668930054,-0.5868516564369202,2.3353281021118164,-1.4181474447250366,3.0,-0.15865039825439453,-0.1554879993200302,-0.15095986425876617,-0.1453803926706314,0.32373204827308655,0.22913239896297455,0.13334079086780548,0.04249624162912369
0.8833333333333333,0.1082172840833664,0.02833506092429161,0.0,0.6763370633125305,0.0,0.0,-0.7365922927856445,-0.09847336262464523,-0.10185414552688599,0.0,0.0,0.0,1.6108614206314087,0.35749897360801697,0.7546353936195374,0.4200000464916229,0.6229166984558105,6.111830543886754e-07,-3.381027227078448e-06,-0.782288134098053,0.00017133253277279437,-0.00028207575087435544,-9.985780343413353e-05,0.005882677622139454,-0.0006238482310436666,-0.000558753265067935,0.44869256019592285,0.7506041526794434,0.626375675201416,-0.273084431886673,0.10164787620306015,0.818124532699585,0.3510906398296356,0.756003201007843,0.42000001668930054,-0.5609771013259888,0.8742973208427429,-1.3681062459945679,3.000000238418579,-0.1553642898797989,-0.15314386785030365,-0.149612158536911,-0.1450030505657196,0.16563387215137482,0.1196598932147026,0.06987783312797546,0.020630795508623123
