vladlanda/robotic-transformer/data/env_000_episode_0188.csv
sim_time_s,robot_box_x,robot_box_y,robot_box_z,robot_box_quat_w,robot_box_quat_x,robot_box_quat_y,robot_box_quat_z,robot_box_linvel_x,robot_box_linvel_y,robot_box_linvel_z,robot_box_angvel_x,robot_box_angvel_y,robot_box_angvel_z,cube_world_x,cube_world_y,cube_world_z,cube_quat_w,cube_quat_x,cube_quat_y,cube_quat_z,cube_linvel_x,cube_linvel_y,cube_linvel_z,cube_angvel_x,cube_angvel_y,cube_angvel_z,endpoint_world_x,endpoint_world_y,endpoint_world_z,endpoint_linvel_x,endpoint_linvel_y,endpoint_linvel_z,target_cube_world_x,target_cube_world_y,target_cube_world_z,gripper_actual_pos_rad_gp_leftgearjoint,gripper_actual_vel_rad_s_gp_leftgearjoint,gripper_actual_pos_rad_gp_rotatingjoint,gripper_actual_vel_rad_s_gp_rotatingjoint,motor_angle_rad_joint1,motor_angle_rad_joint2,motor_angle_rad_joint3,motor_angle_rad_joint4,motor_speed_rad_s_joint1,motor_speed_rad_s_joint2,motor_speed_rad_s_joint3,motor_speed_rad_s_joint4
0.0,0.0,0.0,0.0,1.0,0.0,0.0,0.0,0.0,0.0,0.0,0.0,0.0,0.0,-0.3978871703147888,0.7555100321769714,0.41999998688697815,1.0,0.0,0.0,0.0,0.0,0.0,0.0,0.0,0.0,0.0,3.42540442943573e-06,-0.005000244826078415,1.313499927520752,0.0,0.0,0.0,0.46019238233566284,0.7468281984329224,0.42000001668930054,-1.5707999467849731,0.0,0.0,0.0,0.0,0.0,0.0,0.0,0.0,0.0,0.0,0.0
0.016666666666666666,0.002878319937735796,0.0021802016999572515,0.0,0.9998091459274292,0.0,0.0,0.019535038620233536,0.24088484048843384,0.18239115178585052,0.0,0.0,0.0,3.1418583393096924,-0.39788728952407837,0.7555097341537476,0.41999998688697815,1.0,3.279964630564791e-06,-8.339746386809566e-07,8.465587342243452e-08,-1.9833529222523794e-05,0.00017983045836444944,-6.132945418357849e-05,0.0009432713268324733,-0.004689474124461412,-0.00031981561915017664,-0.007110266014933586,0.003380916779860854,1.3159375190734863,-0.8142905235290527,0.9869190454483032,0.18095365166664124,0.46019238233566284,0.7468281984329224,0.42000001668930054,-1.5301095247268677,3.000002145767212,-0.045848023146390915,-2.999999761581421,0.0008698221063241363,0.0007963807438500226,0.0007110291626304388,0.0006108791567385197,0.11093144118785858,0.09757279604673386,0.08334814757108688,0.06824332475662231
0.03333333333333333,0.008961503393948078,0.0068012443371117115,0.0,0.9997970461845398,0.0,0.0,0.020145153626799583,0.4070311188697815,0.31529149413108826,0.0,0.0,0.0,-0.8691193461418152,-0.3978874087333679,0.7555096745491028,0.4200000464916229,1.0,3.3908477234945167e-06,-2.1324151475710096e-06,-3.7116176798690503e-08,0.00026357846218161285,0.0002693776914384216,-0.00010509602725505829,-0.0017706857761368155,0.004130810499191284,-0.0001354778796667233,-0.027393288910388947,0.02630893513560295,1.3166041374206543,-1.573028802871704,1.6174780130386353,-0.08416646718978882,0.46019238233566284,0.7468281984329224,0.42000001668930054,-1.4800903797149658,3.000000238418579,-0.09588785469532013,-3.0000007152557373,0.0029729302041232586,0.0026289287488907576,0.0022473004646599293,0.0018245694227516651,0.16210712492465973,0.1370220184326172,0.11043763905763626,0.08227735757827759
0.05,0.01847235858440399,0.01390391681343317,0.0,0.999977171421051,0.0,0.0,-0.0067556132562458515,0.6363213658332825,0.4724057912826538,0.0,0.0,0.0,-4.0737810134887695,-0.3978874385356903,0.7555097341537476,0.4200000464916229,1.0,3.765178917092271e-06,-2.2119245386420516e-06,5.606314079642516e-09,0.00026530868490226567,0.0002669158566277474,-0.0001044049859046936,-0.0017243095207959414,0.004177443217486143,-0.00012949752272106707,-0.05600729584693909,0.05831132084131241,1.311989188194275,-1.866161823272705,2.143411874771118,-0.45548132061958313,0.46019238233566284,0.7468281984329224,0.42000001668930054,-1.4300720691680908,3.000002861022949,-0.1459265500307083,-3.000000238418579,0.00586110632866621,0.004977955482900143,0.004022518638521433,0.0029904902912676334,0.19407254457473755,0.15087531507015228,0.10574996471405029,0.05863292142748833
0.06666666666666667,0.030798107385635376,0.023395419120788574,0.0,0.9998816847801208,0.0,0.0,-0.015380756929516792,0.7728386521339417,0.616276741027832,0.0,0.0,0.0,-0.03673765808343887,-0.3978874385356903,0.7555096745491028,0.4200000464916229,0.9999999403953552,3.4067807064275257e-06,-2.28562248594244e-06,4.3007767658309604e-07,0.0002670255198609084,0.00026791778509505093,-0.0001043803058564663,-0.001740767271257937,0.004211896099150181,-0.0001285076141357422,-0.09004084765911102,0.09320235252380371,1.3018712997436523,-2.086930751800537,2.2077600955963135,-0.7480602264404297,0.46019238233566284,0.7468281984329224,0.42000001668930054,-1.3800537586212158,3.000000238418579,-0.19593270123004913,-2.999999523162842,0.008179870434105396,0.006483110599219799,0.004674060735851526,0.002746069338172674,0.1148645356297493,0.05645337328314781,-0.0041375551372766495,-0.0669783353805542
0.08333333333333333,0.036862559616565704,0.0367627888917923,0.0,0.9992298483848572,0.0,0.0,-0.039239317178726196,0.22683870792388916,0.8759007453918457,0.0,0.0,0.0,-3.807985305786133,-0.3978874385356903,0.7555096745491028,0.4200000464916229,0.9999999403953552,3.6260485103412066e-06,-2.3353622964350507e-06,3.0320458677124407e-07,0.000266139191808179,0.00026685118791647255,-0.00010405224747955799,-0.0017284282948821783,0.004196343943476677,-0.00012790756591130048,-0.12066172808408737,0.1348603367805481,1.2864627838134766,-1.5854425430297852,2.7715654373168945,-1.01753568649292,0.46019238233566284,0.7468281984329224,0.42000001668930054,-1.3300272226333618,2.9999964237213135,-0.16340391337871552,3.0000007152557373,0.003879436757415533,0.001397761981934309,-0.0012505716877058148,-0.004076135344803333,-0.3827728033065796,-0.4412209987640381,-0.5024355053901672,-0.5666660070419312
0.1,0.046700481325387955,0.05172838643193245,0.0,0.9958795309066772,0.0,0.0,-0.09068619459867477,0.7370482087135315,0.9043229818344116,0.0,0.0,0.0,-6.965775966644287,-0.3978874385356903,0.7555096745491028,0.4200000464916229,1.0,3.4221538953715935e-06,-2.3086790861270856e-06,1.796007893517526e-07,0.00026681486633606255,0.00026800480554811656,-0.00010440591722726822,-0.001743124215863645,0.0042070867493748665,-0.00012891173537354916,-0.14578263461589813,0.18246865272521973,1.2711806297302246,-1.4634158611297607,2.977724552154541,-0.8887553811073303,0.46019238233566284,0.7468281984329224,0.42000001668930054,-1.280037760734558,2.999999761581421,-0.1951366662979126,-3.000000476837158,0.0017674238188192248,-0.002339997561648488,-0.006618157960474491,-0.011077583767473698,-0.04535011574625969,-0.1562459021806717,-0.2661359906196594,-0.37491899728775024
0.11666666666666667,0.05436473712325096,0.06849569827318192,0.0,0.9925362467765808,0.0,0.0,-0.1219499334692955,0.48225265741348267,1.060813307762146,0.0,0.0,0.0,-2.5363008975982666,-0.3978874385356903,0.7555097341537476,0.4200000464916229,1.0,3.711554882102064e-06,-2.3327841063292e-06,2.573941912942246e-07,0.0002648565568961203,0.00026635342510417104,-0.00010423525236546993,-0.0017182296141982079,0.00417008763179183,-0.00012915628030896187,-0.17660143971443176,0.22900135815143585,1.2548043727874756,-1.9016993045806885,2.9904072284698486,-0.990132212638855,0.46019238233566284,0.7468281984329224,0.42000001668930054,-1.2300214767456055,2.999988317489624,-0.16133591532707214,3.000000476837158,-0.0019930293783545494,-0.0076926471665501595,-0.013540282845497131,-0.01954595558345318,-0.12119987607002258,-0.23494434356689453,-0.3452610969543457,-0.45194199681282043
0.13333333333333333,0.06035107746720314,0.08343455195426941,0.0,0.9865356087684631,0.0,0.0,-0.16354665160179138,0.3096766173839569,0.8340521454811096,0.0,0.0,0.0,-5.892210483551025,-0.3978874385356903,0.7555096745491028,0.4200000464916229,0.9999999403953552,3.4247655094077345e-06,-2.3020579646981787e-06,1.5596411628848728e-07,0.0002670701942406595,0.00026811251882463694,-0.00010444270446896553,-0.0017433085013180971,0.004212042782455683,-0.00012877686822321266,-0.20479705929756165,0.28196948766708374,1.2380900382995605,-1.4657907485961914,3.459287166595459,-1.0501561164855957,0.46019238233566284,0.7468281984329224,0.42000001668930054,-1.1828992366790771,2.6448230743408203,-0.19306673109531403,-2.999999523162842,-0.0046018194407224655,-0.012330767698585987,-0.020134441554546356,-0.028018925338983536,-0.2231384515762329,-0.3411923050880432,-0.4547104835510254,-0.5634655356407166
0.15,0.062478575855493546,0.09870613366365433,0.0,0.9826249480247498,0.0,0.0,-0.1856023371219635,0.049363911151885986,0.9509598612785339,0.0,0.0,0.0,-1.6162669658660889,-0.3978874385356903,0.7555096745491028,0.4200000464916229,1.0,3.713871137733804e-06,-2.2079445898270933e-06,-1.6912541411784332e-07,0.0002635340497363359,0.00026535982033237815,-0.00010421895422041416,-0.0017012733733281493,0.004144171718508005,-0.0001296046539209783,-0.23727267980575562,0.33852913975715637,1.2136807441711426,-2.0791661739349365,3.5766215324401855,-1.8321397304534912,0.46019238233566284,0.7468281984329224,0.42000001668930054,-1.1549683809280396,0.8423402905464172,-0.15927787125110626,3.0000007152557373,-0.009609832428395748,-0.01887213997542858,-0.028123116120696068,-0.03736639395356178,-0.3622479736804962,-0.4278867542743683,-0.48861023783683777,-0.5443894267082214
0.16666666666666666,0.06942646950483322,0.11174610257148743,0.0,0.975017786026001,0.0,0.0,-0.22212688624858856,0.48708075284957886,0.7649099826812744,0.0,0.0,0.0,-5.18956995010376,-0.3978874385356903,0.7555096745491028,0.4200000464916229,0.9999999403953552,3.6383501083037117e-06,-2.2788779006077675e-06,2.700351728890382e-07,0.000266826682491228,0.0002674989518709481,-0.00010410090908408165,-0.001739898812957108,0.004210059531033039,-0.00012781438999809325,-0.2702348530292511,0.4021196961402893,1.1803615093231201,-1.8061624765396118,4.119199752807617,-2.2874481678009033,0.46019238233566284,0.7468281984329224,0.42000001668930054,-1.1123441457748413,2.9999852180480957,-0.19102653861045837,-2.9999570846557617,-0.012522665783762932,-0.023037638515233994,-0.03345261886715889,-0.04377173259854317,-0.3518417477607727,-0.3922542631626129,-0.429423987865448,-0.4634433090686798
0.18333333333333332,0.07141212373971939,0.12621857225894928,0.0,0.9701184630393982,0.0,0.0,-0.24263174831867218,0.08762592077255249,0.8710386157035828,0.0,0.0,0.0,-1.0371508598327637,-0.3978874385356903,0.7555096745491028,0.4200000464916229,1.0,3.386416665307479e-06,-2.300344249306363e-06,1.4389981117801653e-07,0.00026674463879317045,0.00026787197566591203,-0.00010436959564685822,-0.0017411770531907678,0.004205883946269751,-0.0001287875056732446,-0.30478984117507935,0.4674648642539978,1.1327372789382935,-2.0060343742370605,4.056581020355225,-3.2519912719726562,0.46019238233566284,0.7468281984329224,0.42000001668930054,-1.0730873346328735,1.783037781715393,-0.24105513095855713,-2.999999761581421,-0.024320269003510475,-0.03449070081114769,-0.04454516991972923,-0.054498422890901566,-0.6547611355781555,-0.6325383186340332,-0.608416736125946,-0.5829301476478577
0.2,0.07585024833679199,0.14157281816005707,0.0,0.9620251059532166,0.0,0.0,-0.2729611098766327,0.2807179391384125,0.9978234171867371,0.0,0.0,0.0,-4.681753635406494,-0.3978874385356903,0.7555097341537476,0.4200000464916229,1.0,3.6755700421053916e-06,-2.326621597603662e-06,2.210943819136446e-07,0.00026484535192139447,0.00026631279615685344,-0.00010421546176075935,-0.001717685256153345,0.004169867839664221,-0.00012909836368635297,-0.33712238073349,0.5366271734237671,1.0722472667694092,-1.7471928596496582,4.193856239318848,-4.006893157958984,0.46019238233566284,0.7468281984329224,0.42000001668930054,-1.0254483222961426,3.0000011920928955,-0.2910815477371216,-2.999999523162842,-0.03657064959406853,-0.046028152108192444,-0.055363770574331284,-0.06460396200418472,-0.8739286065101624,-0.806213915348053,-0.7397822737693787,-0.6754390597343445
0.21666666666666667,0.07815390080213547,0.15466046333312988,0.0,0.9582181572914124,0.0,0.0,-0.286038339138031,0.08060640096664429,0.7030511498451233,0.0,0.0,0.0,-0.6238630414009094,-0.3978874385356903,0.7555096745491028,0.4200000464916229,1.0,3.32230615640583e-06,-2.2080851067585172e-06,2.7423686788097257e-07,0.00026662915479391813,0.0002674964489415288,-0.00010426202788949013,-0.001735891797579825,0.004204796627163887,-0.00012833680375479162,-0.3666715621948242,0.6015405654907227,0.9966999292373657,-1.5492403507232666,3.7566640377044678,-4.952572822570801,0.46019238233566284,0.7468281984329224,0.42000001668930054,-0.9754414558410645,3.0000016689300537,-0.34110745787620544,-2.9999988079071045,-0.05182812735438347,-0.06058384105563164,-0.06831923872232437,-0.07602235674858093,-0.9495447278022766,-0.8855810761451721,-0.7785752415657043,-0.6760597825050354
0.23333333333333334,0.07638099044561386,0.16835714876651764,0.0,0.9501632452011108,0.0,0.0,-0.3117528557777405,-0.18167583644390106,0.862162709236145,0.0,0.0,0.0,-4.086336612701416,-0.3978874385356903,0.7555096745491028,0.4200000464916229,1.0,3.656507942650933e-06,-2.3735415197734255e-06,-4.077161577242805e-07,0.00026611736393533647,0.00026726111536845565,-0.00010423432104289532,-0.0017336637247353792,0.004194760229438543,-0.00012854966917075217,-0.39018768072128296,0.6614724397659302,0.9077732563018799,-1.1918458938598633,3.3757247924804688,-5.59384822845459,0.46019238233566284,0.7468281984329224,0.42000001668930054,-0.9254325032234192,3.000001907348633,-0.39113613963127136,-2.999999761581421,-0.06743261218070984,-0.07624771445989609,-0.08395485579967499,-0.0903787612915039,-0.9777643084526062,-0.9687196016311646,-0.9625852704048157,-0.8927447199821472
0.25,0.07875750213861465,0.17746756970882416,0.0,0.9471085071563721,0.0,0.0,-0.3209136128425598,0.16915450990200043,0.44469204545021057,0.0,0.0,0.0,-0.16383519768714905,-0.3978874385356903,0.7555097341537476,0.4200000464916229,1.0,3.6305289086158155e-06,-2.2427186650020303e-06,1.1176165770621083e-08,0.0002668008382897824,0.00026705957134254277,-0.00010390859097242355,-0.0017341489437967539,0.004210577346384525,-0.00012702932872343808,-0.4109693765640259,0.708971381187439,0.8108360767364502,-1.0357012748718262,2.386648654937744,-6.0620341300964355,0.46019238233566284,0.7468281984329224,0.42000001668930054,-0.8754226565361023,2.9999945163726807,-0.4411666989326477,-3.00000262260437,-0.08179689198732376,-0.09030519425868988,-0.09752675145864487,-0.10261428356170654,-0.9807044267654419,-0.9723036885261536,-0.9111053347587585,-0.8027577996253967
0.26666666666666666,0.07675622403621674,0.18297699093818665,0.0,0.9393606185913086,0.0,0.0,-0.3429308831691742,-0.2252069115638733,0.29343751072883606,0.0,0.0,0.0,-3.697777509689331,-0.3978874087333679,0.7555096745491028,0.4200000464916229,0.9999999403953552,3.7401650843094103e-06,-2.236364707641769e-06,4.4993353753852716e-07,0.00026479485677555203,0.0002667315420694649,-0.00010454095900058746,-0.001718999119475484,0.0041666049510240555,-0.00013017014134675264,-0.42308902740478516,0.7407048344612122,0.7036232948303223,-0.38443610072135925,1.4087696075439453,-6.567541122436523,0.46019238233566284,0.7468281984329224,0.42000001668930054,-0.8254130482673645,2.9999959468841553,-0.49119800329208374,-3.0,-0.09875211119651794,-0.10713424533605576,-0.11426383256912231,-0.11925038695335388,-0.9930700063705444,-0.9943795204162598,-0.9954111576080322,-0.9962512254714966
0.2833333333333333,0.07846300303936005,0.18465867638587952,0.0,0.9376271367073059,0.0,0.0,-0.34764257073402405,0.19473984837532043,0.03493005409836769,0.0,0.0,0.0,0.3308209776878357,-0.3978874385356903,0.7555096745491028,0.4200000464916229,1.0,3.3917208384082187e-06,-2.2912240638106596e-06,1.2455681996925705e-07,0.0002667710941750556,0.00026789287221617997,-0.0001043747179210186,-0.0017412371234968305,0.00420624203979969,-0.00012878615234512836,-0.4282318353652954,0.7558051347732544,0.5938961505889893,-0.0694308951497078,0.3895854353904724,-6.578100204467773,0.46019238233566284,0.7468281984329224,0.42000001668930054,-0.7754042148590088,2.9999964237213135,-0.5412285327911377,-3.000000476837158,-0.11475375294685364,-0.12290345877408981,-0.12991979718208313,-0.13492630422115326,-0.9921544790267944,-0.9632704854011536,-0.9474064707756042,-0.9425002336502075
0.3,0.07650559395551682,0.18398462235927582,0.0,0.9313046336174011,0.0,0.0,-0.36424127221107483,-0.21967045962810516,-0.06947795301675797,0.0,0.0,0.0,-2.997286796569824,-0.3978874385356903,0.7555097341537476,0.4200000464916229,1.0,3.6808594359172275e-06,-2.3191726086224662e-06,2.0103730946630094e-07,0.00026479081134311855,0.0002662576735019684,-0.00010421290062367916,-0.0017168502090498805,0.004169003572314978,-0.0001290987420361489,-0.4221622943878174,0.7584861516952515,0.48832887411117554,0.809881865978241,-0.038087569177150726,-5.874579429626465,0.46019238233566284,0.7468281984329224,0.42000001668930054,-0.7253954410552979,3.0000009536743164,-0.5912571549415588,-3.0000014305114746,-0.1329171359539032,-0.14071838557720184,-0.14747264981269836,-0.15227283537387848,-1.0208898782730103,-1.0157737731933594,-1.0118622779846191,-1.0087339878082275
0.31666666666666665,0.06996969878673553,0.18197715282440186,0.0,0.9314143061637878,0.0,0.0,-0.36396077275276184,-0.44424697756767273,-0.1502029150724411,0.0,0.0,0.0,0.9615470767021179,-0.3978874385356903,0.7555096745491028,0.4200000464916229,1.0,3.304333631604095e-06,-2.221553131676046e-06,2.5350340138174943e-07,0.00026660741423256695,0.0002674513671081513,-0.00010424340143799782,-0.0017353476723656058,0.0042044599540531635,-0.00012828414037358016,-0.4064040184020996,0.7538214325904846,0.3977566361427307,1.183072566986084,-0.5296710133552551,-5.142637252807617,0.46019238233566284,0.7468281984329224,0.42000001668930054,-0.675388514995575,3.000000238418579,-0.6412838697433472,-3.000001907348633,-0.15050916373729706,-0.15808075666427612,-0.16466355323791504,-0.16933007538318634,-1.0053054094314575,-1.0040297508239746,-1.0030502080917358,-1.0022597312927246
0.3333333333333333,0.06152426078915596,0.17784972488880157,0.0,0.9277822971343994,0.0,0.0,-0.3731219470500946,-0.46036332845687866,-0.30666154623031616,0.0,0.0,0.0,-2.459679365158081,-0.39803582429885864,0.7548354268074036,0.4201645255088806,0.9999790191650391,0.004106761887669563,-5.5111640904215164e-06,-0.005009614396840334,0.010219234973192215,0.014552788808941841,-0.010193252936005592,-0.4866085350513458,-0.020879438146948814,0.3877103626728058,-0.40888500213623047,0.7560070157051086,0.4274100065231323,0.1590142399072647,0.40609967708587646,-0.1015750989317894,0.46019238233566284,0.7468281984329224,0.42000001668930054,-0.6256083250045776,2.999523878097534,-0.6917867660522461,-2.9067904949188232,-0.152465358376503,-0.16076821088790894,-0.16764454543590546,-0.17211058735847473,-0.23126690089702606,-0.26143938302993774,-0.2699776291847229,-0.2561497390270233
0.35,0.05283290520310402,0.1701861023902893,0.0,0.9290869832038879,0.0,0.0,-0.36986133456230164,-0.569809079170227,-0.47862544655799866,0.0,0.0,0.0,1.3446345329284668,-0.39536240696907043,0.7594459056854248,0.4200001060962677,0.9984509944915771,3.7206700653769076e-06,-4.195015208097175e-05,-0.05563792586326599,0.24260051548480988,0.36971360445022583,-4.965381231158972e-05,-0.002317202975973487,0.0029977140948176384,-7.238745212554932,-0.4052641987800598,0.7629956007003784,0.4253498911857605,0.30768588185310364,0.3888220489025116,-0.1362370252609253,0.46019238233566284,0.7468281984329224,0.42000001668930054,-0.5756027698516846,2.99997878074646,-0.7418235540390015,-2.9999983310699463,-0.1562141478061676,-0.1644848883152008,-0.17102892696857452,-0.1748974323272705,-0.314572811126709,-0.2674037516117096,-0.20743149518966675,-0.13944202661514282
0.36666666666666664,0.041714105755090714,0.1605043113231659,0.0,0.9247151017189026,0.0,0.0,-0.38065996766090393,-0.7114134430885315,-0.6215134263038635,0.0,0.0,0.0,-2.317619562149048,-0.39099758863449097,0.7657491564750671,0.420000284910202,0.9932067394256592,-2.968399030578439e-06,5.9184044403082225e-06,-0.11636243015527725,0.3315153121948242,0.4480970799922943,-0.00041814337600953877,0.012617153115570545,-0.011764797382056713,-9.078840255737305,-0.3988207280635834,0.7691993713378906,0.42349278926849365,0.5138899087905884,0.45234811305999756,-0.09572108089923859,0.46019238233566284,0.7468281984329224,0.42000001668930054,-0.5255979299545288,2.999978542327881,-0.791877806186676,-2.999985933303833,-0.16218967735767365,-0.16937749087810516,-0.17459999024868011,-0.17702099680900574,-0.3642943799495697,-0.2815020680427551,-0.18644115328788757,-0.08724924176931381
0.3833333333333333,0.029411468654870987,0.14850054681301117,0.0,0.9087241888046265,0.0,0.0,-0.417397141456604,-0.7715765237808228,-0.762091875076294,0.0,0.0,0.0,-5.692654609680176,-0.38309282064437866,0.775777280330658,0.4201033115386963,0.9811864495277405,0.0025933203287422657,-0.00037379763671196997,-0.19304455816745758,0.7438746690750122,0.8807767033576965,0.04126045107841492,1.9669970273971558,-0.6558912992477417,-3.070115089416504,-0.3873063921928406,0.7790055274963379,0.4228404760360718,0.8875867128372192,0.7702845335006714,0.00891396775841713,0.46019238233566284,0.7468281984329224,0.42000001668930054,-0.47559356689453125,2.999957799911499,-0.8419288992881775,-3.000000476837158,-0.1690169721841812,-0.17431339621543884,-0.17739012837409973,-0.17757202684879303,-0.39077189564704895,-0.2602892816066742,-0.11370939761400223,0.0383976548910141
0.4,0.019626416265964508,0.13353906571865082,0.0,0.8790884017944336,0.0,0.0,-0.47665882110595703,-0.5160925984382629,-0.9545415043830872,0.0,0.0,0.0,-8.758813858032227,-0.3608459234237671,0.7990963459014893,0.42222902178764343,0.9736976623535156,0.03303832560777664,-0.02120966650545597,-0.22443552315235138,3.085782527923584,1.3792246580123901,0.08385112136602402,-17.523311614990234,-1.6320016384124756,-14.521584510803223,-0.362207293510437,0.7996963858604431,0.4244508743286133,2.26761531829834,1.8385272026062012,0.2788199186325073,0.46019238233566284,0.7468281984329224,0.42000001668930054,-0.4255898892879486,2.927517890930176,-0.8919673562049866,-2.9997105598449707,-0.176544189453125,-0.17911235988140106,-0.17919257283210754,-0.17630954086780548,-0.536278247833252,-0.3292528986930847,-0.1091129258275032,0.11081568896770477
0.4166666666666667,0.013058828189969063,0.12195427715778351,0.0,0.8335443139076233,0.0,0.0,-0.552452564239502,-0.35169005393981934,-0.527701199054718,0.0,0.0,0.0,-11.419434547424316,-0.2980800271034241,0.8351560831069946,0.4269619584083557,0.9562954306602478,0.07694339752197266,-0.057226136326789856,-0.276231586933136,5.2109150886535645,2.7217557430267334,0.24964946508407593,28.10979652404785,-21.785491943359375,4.574913024902344,-0.29956549406051636,0.8367844820022583,0.42910122871398926,4.886079788208008,2.626779556274414,0.51581209897995,0.46019238233566284,0.7468281984329224,0.42000001668930054,-0.3909209072589874,1.1467500925064087,-0.8558371067047119,2.9951581954956055,-0.19087323546409607,-0.18868693709373474,-0.18402183055877686,-0.17665596306324005,-0.9848518371582031,-0.6771577596664429,-0.37768837809562683,-0.10203967243432999
0.43333333333333335,0.009930100291967392,0.11453627049922943,0.0,0.7725737690925598,0.0,0.0,-0.6349250078201294,-0.12776963412761688,-0.39724165201187134,0.0,0.0,0.0,-12.881867408752441,-0.20135286450386047,0.8796468377113342,0.43564876914024353,0.928590714931488,0.11584212630987167,-0.08620963245630264,-0.34185901284217834,6.984906196594238,2.3924880027770996,0.6819477677345276,10.093907356262207,-13.032449722290039,9.561694145202637,-0.20278483629226685,0.8822603225708008,0.4380958676338196,6.658295631408691,2.7447245121002197,0.6566664576530457,0.46019238233566284,0.7468281984329224,0.42000001668930054,-0.37388089299201965,1.1063138246536255,-0.8823301792144775,-3.0,-0.20286403596401215,-0.20011545717716217,-0.1910267025232315,-0.17972923815250397,-0.6923092007637024,-0.6457176208496094,-0.41831105947494507,-0.2253621518611908
0.45,0.004961542785167694,0.11144376546144485,0.0,0.7222903370857239,0.0,0.0,-0.6915899515151978,-0.30018725991249084,-0.1273459643125534,0.0,0.0,0.0,-7.762814044952393,-0.09051471203565598,0.9139233231544495,0.4482559859752655,0.8728501200675964,0.13301095366477966,-0.0912901908159256,-0.4605504870414734,6.7794413566589355,0.9489587545394897,0.7027574181556702,3.2201595306396484,-9.9817533493042,17.10886573791504,-0.09326572716236115,0.9178218841552734,0.4496951103210449,6.709451198577881,1.6432172060012817,0.8094891309738159,0.46019238233566284,0.7468281984329224,0.42000001668930054,-0.3541235625743866,1.1680443286895752,-0.9323539137840271,-3.000001907348633,-0.21857433021068573,-0.2136143147945404,-0.19971299171447754,-0.1843385249376297,-0.8948788046836853,-0.7539966702461243,-0.48863252997398376,-0.2649840712547302
0.4666666666666667,0.003412203397601843,0.10292723029851913,0.0,0.6940416693687439,0.0,0.0,-0.7199348211288452,-0.10602068901062012,-0.48409995436668396,0.0,0.0,0.0,-3.4787726402282715,0.02069469541311264,0.9310330152511597,0.4584257900714874,0.8325795531272888,0.12904661893844604,-0.09072469919919968,-0.5309681296348572,6.639892101287842,-0.3757593631744385,0.5948533415794373,-4.355264186859131,-0.05820155516266823,5.823164939880371,0.018562542274594307,0.9359427690505981,0.46056312322616577,6.693539619445801,0.25626906752586365,0.7001751065254211,0.46019238233566284,0.7468281984329224,0.42000001668930054,-0.33508753776550293,1.025557041168213,-0.9823779463768005,-3.0,-0.23014359176158905,-0.22208471596240997,-0.2036188393831253,-0.18430116772651672,-0.9174728393554688,-0.6269257664680481,-0.2846444845199585,0.017451604828238487
0.48333333333333334,-0.0004842191992793232,0.09993038326501846,0.0,0.6896728873252869,0.0,0.0,-0.72412109375,-0.18802934885025024,-0.12428813427686691,0.0,0.0,0.0,0.1447477489709854,0.1219368577003479,0.9248952865600586,0.465621680021286,0.7701765894889832,0.09771968424320221,-0.09623327851295471,-0.6229107975959778,5.507259845733643,-0.8813489079475403,0.4738050103187561,11.897441864013672,-6.164752006530762,-1.3772668838500977,0.1204698383808136,0.9316644072532654,0.46943607926368713,5.446554183959961,-0.7187240123748779,0.27383530139923096,0.46019238233566284,0.7468281984329224,0.42000001668930054,-0.32128456234931946,0.6056297421455383,-1.0324009656906128,-3.000000476837158,-0.24002651870250702,-0.23526200652122498,-0.21081629395484924,-0.18622846901416779,-0.011551255360245705,-0.6594931483268738,-0.3787647783756256,-0.12755101919174194
0.5,-0.001070462167263031,0.09376578032970428,0.0,0.6751450896263123,0.0,0.0,-0.737684965133667,-0.0018996059661731124,-0.38558247685432434,0.0,0.0,0.0,-3.233177423477173,0.20827406644821167,0.9065245389938354,0.4648837149143219,0.673144519329071,0.00527449045330286,-0.17465177178382874,-0.7185717225074768,4.663430213928223,-2.194518804550171,-0.32996562123298645,-31.516998291015625,-9.066530227661133,9.979802131652832,0.2047370821237564,0.9154369831085205,0.47346052527427673,4.783323287963867,-1.4591753482818604,0.2335449606180191,0.46019238233566284,0.7468281984329224,0.42000001668930054,-0.3145306408405304,0.21416693925857544,-1.0824230909347534,-3.000002861022949,-0.23905861377716064,-0.24001620709896088,-0.2144237458705902,-0.18643805384635925,-0.06386572122573853,-0.023843109607696533,-0.19424565136432648,-0.006964040920138359
0.5166666666666666,0.0011394759640097618,0.09080490469932556,0.0,0.6732733249664307,0.0,0.0,-0.7393936514854431,0.1614164263010025,-0.10094425827264786,0.0,0.0,0.0,0.5265651345252991,0.2817714810371399,0.8750181794166565,0.46105846762657166,0.5926568508148193,-0.06416727602481842,-0.17934198677539825,-0.7826090455055237,3.770150661468506,-2.3355209827423096,-0.36559000611305237,-5.982457160949707,8.403738021850586,2.8464136123657227,0.27885574102401733,0.8858597278594971,0.4714382290840149,4.241236686706543,-2.0400969982147217,-0.3276432752609253,0.46019238233566284,0.7468281984329224,0.42000001668930054,-0.3061731457710266,0.7134976387023926,-1.132445216178894,-2.9992172718048096,-0.23957005143165588,-0.2395203709602356,-0.21768693625926971,-0.18733790516853333,0.06848825514316559,0.0891142264008522,-0.06811945885419846,-1.0469207154528704e-06
0.5333333333333333,0.005638953298330307,0.08552519977092743,0.0,0.6611738801002502,0.0,0.0,-0.7502326965332031,0.3181474804878235,-0.3601030707359314,0.0,0.0,0.0,-2.796069622039795,0.3417373299598694,0.8422141075134277,0.4504387378692627,0.5556479692459106,-0.09995210915803909,-0.16977113485336304,-0.8077391386032104,2.934354305267334,-2.13839054107666,-0.5912186503410339,-2.80210542678833,13.752041816711426,-0.41817378997802734,0.3410909175872803,0.8530707359313965,0.4617927074432373,3.336827039718628,-2.080132007598877,-0.7832354307174683,0.46019238233566284,0.7468281984329224,0.42000001668930054,-0.2911689281463623,0.9196971654891968,-1.1824673414230347,-2.9981625080108643,-0.23584334552288055,-0.23545622825622559,-0.21657665073871613,-0.1863744556903839,0.25402018427848816,0.2926998734474182,0.1168428510427475,0.055988721549510956
0.55,0.012722964398562908,0.08353512734174728,0.0,0.6617667078971863,0.0,0.0,-0.7497097849845886,0.4506377875804901,-0.07555750012397766,0.0,0.0,0.0,0.9657881855964661,0.3899844288825989,0.8094321489334106,0.4360080361366272,0.47043412923812866,-0.14369381964206696,-0.1422739028930664,-0.8589538931846619,2.6401565074920654,-1.8551080226898193,-0.8554381728172302,-2.0000758171081543,1.7462573051452637,-22.441287994384766,0.3881036639213562,0.8182337284088135,0.44726186990737915,2.394554615020752,-2.0462663173675537,-1.013944149017334,0.46019238233566284,0.7468281984329224,0.42000001668930054,-0.2731386423110962,1.4687609672546387,-1.2324894666671753,-2.999887704849243,-0.2325032651424408,-0.23124630749225616,-0.21517466008663177,-0.18663223087787628,0.3293265402317047,0.3527071177959442,0.1560330092906952,-0.006840655580163002
0.5666666666666667,0.021818049252033234,0.0779537633061409,0.0,0.6509655714035034,0.0,0.0,-0.7591072916984558,0.5631125569343567,-0.36394280195236206,0.0,0.0,0.0,-2.650806188583374,0.42240193486213684,0.7867218852043152,0.42509692907333374,0.47252383828163147,-0.12474088370800018,-0.06100452318787575,-0.8703099489212036,1.225228190422058,-1.4851471185684204,0.044548362493515015,-18.83674430847168,0.9466342926025391,9.577584266662598,0.42226964235305786,0.7929211854934692,0.4350889325141907,1.2386393547058105,-0.861515998840332,0.21281705796718597,0.46019238233566284,0.7468281984329224,0.42000001668930054,-0.2478262484073639,1.0593667030334473,-1.2587155103683472,-0.40332990884780884,-0.22272983193397522,-0.22204162180423737,-0.21003305912017822,-0.1854097843170166,0.6051636934280396,0.5688701272010803,0.33285093307495117,0.08091039955615997
0.5833333333333334,0.0283688735216856,0.07558465003967285,0.0,0.6523722410202026,0.0,0.0,-0.75789874792099,0.3285549581050873,-0.10632920265197754,0.0,0.0,0.0,1.070076823234558,0.4440104365348816,0.7733889818191528,0.42440739274024963,0.4795263707637787,-0.09554727375507355,-0.0433313250541687,-0.8712332844734192,1.0107263326644897,-0.9751580357551575,-0.10188775509595871,5.935174465179443,9.383907318115234,-4.172623157501221,0.44079360365867615,0.7747811675071716,0.4357004761695862,1.0706738233566284,-1.1552298069000244,-0.19555334746837616,0.46019238233566284,0.7468281984329224,0.42000001668930054,-0.22867943346500397,1.4331804513931274,-1.3031067848205566,-2.996677875518799,-0.21448199450969696,-0.2139812409877777,-0.20534855127334595,-0.18481111526489258,0.5348508954048157,0.516090452671051,0.3162808120250702,0.05422762408852577
0.6,0.035633161664009094,0.07093950361013412,0.0,0.6425477862358093,0.0,0.0,-0.7662456035614014,0.4602917730808258,-0.3259523808956146,0.0,0.0,0.0,-2.424957036972046,0.45622363686561584,0.76303631067276,0.42316481471061707,0.4915199279785156,-0.07271438091993332,-0.03745217248797417,-0.8670166730880737,0.4831205904483795,-0.9098975658416748,0.07306038588285446,-16.311065673828125,1.425844430923462,15.70291519165039,0.45307686924934387,0.7628662586212158,0.43474042415618896,0.4378368854522705,-0.4366973042488098,0.010896008461713791,0.46019238233566284,0.7468281984329224,0.42000001668930054,-0.2149786353111267,0.4558205008506775,-1.264906644821167,2.998265266418457,-0.2044181525707245,-0.2046733945608139,-0.1995348334312439,-0.1837138831615448,0.5725486874580383,0.5276537537574768,0.33116140961647034,0.048909299075603485
0.6166666666666667,0.04252675175666809,0.06914672255516052,0.0,0.6450403332710266,0.0,0.0,-0.7641485333442688,0.3664340078830719,-0.07153923064470291,0.0,0.0,0.0,1.2332955598831177,0.4623676538467407,0.754890501499176,0.4226737916469574,0.5153389573097229,-0.05913623794913292,-0.029457980766892433,-0.854435920715332,0.3333396315574646,-0.36611035466194153,-0.03934524953365326,2.2374188899993896,-1.1111557483673096,1.300305962562561,0.4572141170501709,0.752860426902771,0.43299242854118347,0.10399021208286285,-0.5979130268096924,-0.2656368017196655,0.46019238233566284,0.7468281984329224,0.42000001668930054,-0.24639011919498444,-2.9999969005584717,-1.2852988243103027,-3.0000014305114746,-0.19678378105163574,-0.19748163223266602,-0.19505618512630463,-0.18352219462394714,0.5010859370231628,0.4607783257961273,0.3001095950603485,0.0413256511092186
0.6333333333333333,0.049818940460681915,0.07071353495121002,0.0,0.6362295746803284,0.0,0.0,-0.771499752998352,0.4760435223579407,0.15341618657112122,0.0,0.0,0.0,-2.306523561477661,0.4651157855987549,0.7504042983055115,0.42016324400901794,0.529645562171936,-0.0012893814127892256,-0.0015291317831724882,-0.8482166528701782,-0.005300849210470915,-0.17549119889736176,-0.1413773000240326,6.897914409637451,-3.664029836654663,3.0354695320129395,0.4590526223182678,0.7496271133422852,0.4303184747695923,0.14762353897094727,0.0487503781914711,0.138962522149086,0.46019238233566284,0.7468281984329224,0.42000001668930054,-0.2783750295639038,-1.0091685056686401,-1.335245966911316,-2.9991347789764404,-0.18748855590820312,-0.18962061405181885,-0.19022193551063538,-0.18321344256401062,0.6068806648254395,0.5021963119506836,0.3196026086807251,0.05065594241023064
0.65,0.059444453567266464,0.06769196689128876,0.0,0.6398314237594604,0.0,0.0,-0.7685152888298035,0.5587608218193054,-0.18126055598258972,0.0,0.0,0.0,1.456521987915039,0.4646000266075134,0.7496157884597778,0.4200004041194916,0.5415666103363037,-2.529151606722735e-05,-7.262879807967693e-05,-0.8406577706336975,-0.049474142491817474,-0.02887806110084057,-0.0013877949677407742,0.10841336846351624,-0.012379400432109833,3.5646347999572754,0.45930224657058716,0.7498913407325745,0.43325093388557434,-0.14336009323596954,-0.003605397418141365,0.1931459605693817,0.46019238233566284,0.7468281984329224,0.42000001668930054,-0.32323282957077026,-2.999985694885254,-1.3852365016937256,-2.999606132507324,-0.1745511144399643,-0.1785750538110733,-0.18215513229370117,-0.17954792082309723,0.6133958101272583,0.5501360297203064,0.4286293387413025,0.2174549549818039
0.6666666666666666,0.07071973383426666,0.06918252259492874,0.0,0.6323072910308838,0.0,0.0,-0.7747176885604858,0.7100282311439514,0.09173358976840973,0.0,0.0,0.0,-2.195091724395752,0.46418723464012146,0.749459445476532,0.42000001668930054,0.5481094717979431,6.968597517698072e-06,2.476460281286563e-07,-0.8364065885543823,-0.006097290199249983,-0.0028290001209825277,-0.00012471736408770084,-0.0019271785859018564,0.008504879660904408,0.2556317448616028,0.4604821801185608,0.7507015466690063,0.43665820360183716,0.15444256365299225,0.09894990921020508,0.235596165060997,0.46019238233566284,0.7468281984329224,0.42000001668930054,-0.37323591113090515,-2.9969582557678223,-1.4352024793624878,-2.999711513519287,-0.16611582040786743,-0.17114350199699402,-0.17644834518432617,-0.17694075405597687,0.6224377155303955,0.531848132610321,0.4126548171043396,0.22055792808532715
0.6833333333333333,0.08379385620355606,0.06685284525156021,0.0,0.63660728931427,0.0,0.0,-0.7711881399154663,0.8146800994873047,-0.14295029640197754,0.0,0.0,0.0,1.5771934986114502,0.46418723464012146,0.7494598031044006,0.4200000464916229,0.5481098294258118,-8.04474211690831e-08,-3.3545973110449268e-06,-0.8364063501358032,6.932018732186407e-05,-0.0002895129728130996,-7.581361569464207e-05,0.0075040534138679504,-0.0017101623816415668,-0.000827122712507844,0.4611077904701233,0.7523283958435059,0.44334810972213745,-0.09884735941886902,0.05593951791524887,0.6092910766601562,0.46019238233566284,0.7468281984329224,0.42000001668930054,-0.42324942350387573,-3.0,-1.4852209091186523,-3.000000238418579,-0.15692104399204254,-0.16283740103244781,-0.16935600340366364,-0.17220282554626465,0.3197406530380249,0.32465434074401855,0.31618598103523254,0.24144615232944489
0.7,0.0937214121222496,0.06209983676671982,0.0,0.6295725107192993,0.0,0.0,-0.77694171667099,0.504214882850647,-0.39133763313293457,0.0,0.0,0.0,-2.037001371383667,0.46418723464012146,0.7494597434997559,0.4200000464916229,0.548109769821167,1.000398270889491e-07,-2.643475681907148e-06,-0.8364062905311584,4.037206235807389e-05,-0.0002523110597394407,-7.658498361706734e-05,0.006580968387424946,-0.0021027231123298407,-0.0007045327802188694,0.4642255902290344,0.7507672309875488,0.45016950368881226,0.42764365673065186,-0.21213752031326294,0.3748217225074768,0.46019238233566284,0.7468281984329224,0.42000001668930054,-0.4732627868652344,-3.000000476837158,-1.5352392196655273,-3.000000476837158,-0.1537572592496872,-0.15887175500392914,-0.1646215170621872,-0.16764424741268158,0.1493472158908844,0.22354425489902496,0.3049408197402954,0.33839520812034607
0.7166666666666667,0.10517509281635284,0.061285022646188736,0.0,0.599207878112793,0.0,0.0,-0.8005934953689575,0.669894278049469,0.004556700587272644,0.0,0.0,0.0,-5.4863786697387695,0.46418723464012146,0.7494597434997559,0.4200000464916229,0.5481099486351013,3.841231830392644e-07,-2.8569070309458766e-06,-0.8364062905311584,4.544314288068563e-05,-0.0002518479013815522,-7.763016037642956e-05,0.006540465168654919,-0.0020424292888492346,-0.0007147820433601737,0.47420161962509155,0.7471836805343628,0.4649081230163574,0.8765474557876587,-0.11041422188282013,1.453683614730835,0.46019238233566284,0.7468281984329224,0.42000001668930054,-0.5232753753662109,-2.9999825954437256,-1.5852545499801636,-2.9999992847442627,-0.1572359800338745,-0.16045984625816345,-0.16413797438144684,-0.1658184677362442,-0.17805330455303192,-0.09010303765535355,0.0161819439381361,0.08860171586275101
0.7333333333333333,0.11805041134357452,0.06342784315347672,0.0,0.5838196873664856,0.0,0.0,-0.8118833303451538,0.8121026158332825,0.1647401601076126,0.0,0.0,0.0,-1.2536057233810425,0.46418723464012146,0.7494598031044006,0.4200000464916229,0.548109769821167,3.9074748769962753e-07,-2.560737584644812e-06,-0.8364063501358032,4.4163760321680456e-05,-0.00025221428950317204,-7.735379040241241e-05,0.006556792184710503,-0.0020588187035173178,-0.0007127673015929759,0.49008214473724365,0.7493059635162354,0.4936736226081848,0.9948891401290894,0.3248715102672577,1.976373314857483,0.46019238233566284,0.7468281984329224,0.42000001668930054,-0.5597990155220032,-1.4845471382141113,-1.635269045829773,-2.999999761581421,-0.15965552628040314,-0.1621246337890625,-0.16467814147472382,-0.16567759215831757,-0.07954394817352295,-0.07330221682786942,-0.043357376009225845,-0.034643471240997314
0.75,0.1277100294828415,0.06697039306163788,0.0,0.5941376090049744,0.0,0.0,-0.8043633699417114,0.5013107061386108,0.28006333112716675,0.0,0.0,0.0,2.397589921951294,0.46418723464012146,0.7494597434997559,0.4200000464916229,0.5481096506118774,2.2393119536445738e-07,-2.6733205231721513e-06,-0.836406409740448,4.714432725450024e-05,-0.0002492179919499904,-7.786275818943977e-05,0.006464363541454077,-0.002006728434935212,-0.0007121265516616404,0.5073923468589783,0.7551365494728088,0.5197867751121521,0.9782067537307739,0.35817039012908936,1.2229281663894653,0.46019238233566284,0.7468281984329224,0.42000001668930054,-0.5591253042221069,1.320596694946289,-1.6689244508743286,-1.1703263521194458,-0.15874838829040527,-0.16134759783744812,-0.16363990306854248,-0.16467292606830597,0.09304531663656235,0.0872550755739212,0.10239731520414352,0.10075802356004715
0.7666666666666666,0.13214626908302307,0.06568686664104462,0.0,0.5920028686523438,0.0,0.0,-0.8059358596801758,0.28525224328041077,-0.08880626410245895,0.0,0.0,0.0,-1.0808498859405518,0.46418723464012146,0.7494597434997559,0.4200000464916229,0.5481095910072327,1.963215794376083e-07,-2.5630558866396314e-06,-0.8364065289497375,4.446652019396424e-05,-0.00025194836780428886,-7.745646871626377e-05,0.006548271048814058,-0.0020549180917441845,-0.0007127262651920319,0.5167815685272217,0.7629409432411194,0.5349004864692688,0.12432944774627686,0.3418600857257843,0.7230457067489624,0.46019238233566284,0.7468281984329224,0.42000001668930054,-0.5547993779182434,-0.6325975060462952,-1.623923420906067,3.000000238418579,-0.1525880992412567,-0.1558632105588913,-0.15851719677448273,-0.1601419746875763,0.1114702820777893,0.13374169170856476,0.166860431432724,0.18043404817581177
0.7833333333333333,0.13440456986427307,0.06945672631263733,0.0,0.6028642654418945,0.0,0.0,-0.7978437542915344,0.08135290443897247,0.24449454247951508,0.0,0.0,0.0,2.39597225189209,0.46418726444244385,0.7494597434997559,0.4200000464916229,0.5481096506118774,3.5556627153709996e-07,-2.669806917765527e-06,-0.836406409740448,4.5849701564293355e-05,-0.00025205890415236354,-7.773889228701591e-05,0.006543412338942289,-0.002039422281086445,-0.0007162351394072175,0.5183815956115723,0.7676616907119751,0.5442527532577515,0.15258459746837616,0.3638548254966736,0.4107891023159027,0.46019238233566284,0.7468281984329224,0.42000001668930054,-0.5444837212562561,1.6639389991760254,-1.637290358543396,-3.0,-0.15504124760627747,-0.15711276233196259,-0.15850113332271576,-0.15925757586956024,-0.035941965878009796,0.0048256139270961285,0.04924924299120903,0.07414206117391586
0.8,0.13406062126159668,0.06867291033267975,0.0,0.5992016196250916,0.0,0.0,-0.80059814453125,-0.06817181408405304,-0.1323440968990326,0.0,0.0,0.0,-1.5022040605545044,0.46418723464012146,0.7494597434997559,0.4200000464916229,0.548109769821167,2.3214514044411771e-07,-2.6337584131397307e-06,-0.836406409740448,4.171387990936637e-05,-0.0002519057015888393,-7.689092308282852e-05,0.006561851128935814,-0.002086789347231388,-0.0007066874532029033,0.5160860419273376,0.7730576395988464,0.5452240705490112,-0.43405088782310486,0.2795829772949219,-0.10046865791082382,0.46019238233566284,0.7468281984329224,0.42000001668930054,-0.5464910268783569,-1.6200228929519653,-1.5981751680374146,2.999999761581421,-0.15434148907661438,-0.1559351682662964,-0.15681049227714539,-0.15733833611011505,0.03947916254401207,0.07350221276283264,0.10638219118118286,0.12231450527906418
0.8166666666666667,0.13592727482318878,0.0735856220126152,0.0,0.6076062917709351,0.0,0.0,-0.7942383289337158,0.02141973190009594,0.33179980516433716,0.0,0.0,0.0,1.999312162399292,0.46418723464012146,0.7494597434997559,0.4200000464916229,0.5481098294258118,3.8401873325710767e-07,-2.5542206003592582e-06,-0.8364062905311584,4.520050060818903e-05,-0.000252237863605842,-7.758545689284801e-05,0.006551728118211031,-0.002047218382358551,-0.0007151521276682615,0.5107241868972778,0.775348424911499,0.5423189401626587,-0.11696048080921173,0.26577508449554443,-0.2237139344215393,0.46019238233566284,0.7468281984329224,0.42000001668930054,-0.5481897592544556,1.1744225025177002,-1.612178087234497,-2.999999523162842,-0.1609732061624527,-0.16065345704555511,-0.15969592332839966,-0.15871137380599976,-0.22120387852191925,-0.15478423237800598,-0.08579253405332565,-0.024945544078946114
0.8333333333333334,0.13797618448734283,0.07465711236000061,0.0,0.6030712723731995,0.0,0.0,-0.797687292098999,0.2032000869512558,0.033726081252098083,0.0,0.0,0.0,-1.4244424104690552,0.46418723464012146,0.7494597434997559,0.4200000464916229,0.5481099486351013,3.2253907988888386e-07,-2.857601202777005e-06,-0.8364061713218689,4.855694714933634e-05,-0.0002492887433618307,-7.817777805030346e-05,0.006457566283643246,-0.001991904340684414,-0.0007157594664022326,0.5086599588394165,0.7780531644821167,0.535746693611145,-0.1541307419538498,-0.03172577917575836,-0.40648454427719116,0.46019238233566284,0.7468281984329224,0.42000001668930054,-0.5700964331626892,-2.999976396560669,-1.5731333494186401,2.999999761581421,-0.16271713376045227,-0.16158656775951385,-0.15970642864704132,-0.1578136533498764,-0.2324473261833191,-0.15110698342323303,-0.06345269083976746,0.024326011538505554
0.85,0.14238832890987396,0.07262164354324341,0.0,0.6073356866836548,0.0,0.0,-0.7944453358650208,0.3009471595287323,-0.1846315860748291,0.0,0.0,0.0,1.7351713180541992,0.46418723464012146,0.7494597434997559,0.4200000464916229,0.5481098890304565,3.612472028180491e-07,-2.7497212613525335e-06,-0.8364062905311584,4.515976979746483e-05,-0.0002519673726055771,-7.758289575576782e-05,0.0065449816174805164,-0.0020466381683945656,-0.000714464986231178,0.5101158618927002,0.776799201965332,0.5328233242034912,0.29627567529678345,-0.09637638181447983,0.11256426572799683,0.46019238233566284,0.7468281984329224,0.42000001668930054,-0.6200582385063171,-2.979343891143799,-1.5877331495285034,-3.000000238418579,-0.16728736460208893,-0.16464495658874512,-0.16109509766101837,-0.15744997560977936,-0.26826804876327515,-0.1780637502670288,-0.07619313895702362,0.0346556156873703
0.8666666666666667,0.14884276688098907,0.06775916367769241,0.0,0.6010809540748596,0.0,0.0,-0.7991881370544434,0.42554718255996704,-0.3503921329975128,0.0,0.0,0.0,-1.8480958938598633,0.46418723464012146,0.7494597434997559,0.4200000464916229,0.5481098890304565,3.8708785154994985e-07,-2.78143761534011e-06,-0.8364062905311584,4.518549030763097e-05,-0.00025188049767166376,-7.758359424769878e-05,0.006542581599205732,-0.002045859582722187,-0.0007143141119740903,0.5184952616691589,0.7728173732757568,0.5309568047523499,0.692060112953186,-0.37847062945365906,-0.15021979808807373,0.46019238233566284,0.7468281984329224,0.42000001668930054,-0.6654267311096191,-2.471928596496582,-1.637749433517456,-3.0,-0.1725119650363922,-0.16811645030975342,-0.1625668704509735,-0.1567055583000183,-0.2887934744358063,-0.17610812187194824,-0.04696175083518028,0.09784923493862152
0.8833333333333333,0.15798410773277283,0.06509159505367279,0.0,0.5737078785896301,0.0,0.0,-0.8190599679946899,0.5979632139205933,-0.0918615385890007,0.0,0.0,0.0,-4.938512325286865,0.46418723464012146,0.7494597434997559,0.4200000464916229,0.548109769821167,3.946564390844287e-07,-2.8178685624880018e-06,-0.8364062905311584,4.444601290742867e-05,-0.0002520984271541238,-7.741781882941723e-05,0.00655218493193388,-0.002055157907307148,-0.000713154673576355,0.5310759544372559,0.7675672173500061,0.531460702419281,0.8178814649581909,-0.25564995408058167,0.3422542214393616,0.46019238233566284,0.7468281984329224,0.42000001668930054,-0.698112428188324,-1.507367730140686,-1.6877639293670654,-2.999999761581421,-0.17714954912662506,-0.17160679399967194,-0.16459986567497253,-0.15695899724960327,-0.2253316044807434,-0.18842104077339172,-0.13380008935928345,-0.05920850858092308
0.9,0.16447843611240387,0.06496225297451019,0.0,0.5614563822746277,0.0,0.0,-0.8275063633918762,0.30390089750289917,0.03434343263506889,0.0,0.0,0.0,-0.7673676609992981,0.46418726444244385,0.7494597434997559,0.4200000464916229,0.5481098890304565,2.2710464975261857e-07,-2.6622160476108547e-06,-0.8364062905311584,4.176671427558176e-05,-0.00025211257161572576,-7.685646414756775e-05,0.006567439064383507,-0.0020857658237218857,-0.000707141007296741,0.5414787530899048,0.7682403326034546,0.5386890172958374,0.39687949419021606,0.27676016092300415,0.495133638381958,0.46019238233566284,0.7468281984329224,0.42000001668930054,-0.6927416920661926,1.8558863401412964,-1.7377784252166748,-3.000000476837158,-0.17813490331172943,-0.17279213666915894,-0.16575604677200317,-0.15779049694538116,0.046103570610284805,-0.0015215568710118532,-0.04060283675789833,-0.06553049385547638
