vladlanda/robotic-transformer/data/env_000_episode_0042.csv
sim_time_s,robot_box_x,robot_box_y,robot_box_z,robot_box_quat_w,robot_box_quat_x,robot_box_quat_y,robot_box_quat_z,robot_box_linvel_x,robot_box_linvel_y,robot_box_linvel_z,robot_box_angvel_x,robot_box_angvel_y,robot_box_angvel_z,cube_world_x,cube_world_y,cube_world_z,cube_quat_w,cube_quat_x,cube_quat_y,cube_quat_z,cube_linvel_x,cube_linvel_y,cube_linvel_z,cube_angvel_x,cube_angvel_y,cube_angvel_z,endpoint_world_x,endpoint_world_y,endpoint_world_z,endpoint_linvel_x,endpoint_linvel_y,endpoint_linvel_z,target_cube_world_x,target_cube_world_y,target_cube_world_z,gripper_actual_pos_rad_gp_leftgearjoint,gripper_actual_vel_rad_s_gp_leftgearjoint,gripper_actual_pos_rad_gp_rotatingjoint,gripper_actual_vel_rad_s_gp_rotatingjoint,motor_angle_rad_joint1,motor_angle_rad_joint2,motor_angle_rad_joint3,motor_angle_rad_joint4,motor_speed_rad_s_joint1,motor_speed_rad_s_joint2,motor_speed_rad_s_joint3,motor_speed_rad_s_joint4
0.0,0.0,0.0,0.0,1.0,0.0,0.0,0.0,0.0,0.0,0.0,0.0,0.0,0.0,-0.35671693086624146,0.6708654761314392,0.41999998688697815,1.0,0.0,0.0,0.0,0.0,0.0,0.0,0.0,0.0,0.0,3.42540442943573e-06,-0.005000244826078415,1.313499927520752,0.0,0.0,0.0,0.32440251111984253,0.6730549335479736,0.42000001668930054,-1.5707999467849731,0.0,0.0,0.0,0.0,0.0,0.0,0.0,0.0,0.0,0.0,0.0
0.016666666666666666,0.0028828135691583157,0.0021746798884123564,0.0,0.9998199343681335,0.0,0.0,0.018977750092744827,0.24101200699806213,0.18219658732414246,0.0,0.0,0.0,3.141784191131592,-0.356717050075531,0.6708651781082153,0.41999998688697815,1.0,3.2799905511637917e-06,-8.339794135281409e-07,8.465515577427141e-08,-1.9833774786093272e-05,0.00017983047291636467,-6.132945418357849e-05,0.0009432245860807598,-0.004689525347203016,-0.00031981084612198174,-0.0071079544723033905,0.0033943061716854572,1.3159385919570923,-0.8138495087623596,0.987413763999939,0.18096685409545898,0.32440251111984253,0.6730549335479736,0.42000001668930054,-1.5301094055175781,3.00000262260437,-0.045849286019802094,-2.999999523162842,0.0008704052306711674,0.0007970576407387853,0.0007116136257536709,0.0006114684510976076,0.11096104979515076,0.09759839624166489,0.08337483555078506,0.06826843321323395
0.03333333333333333,0.008966946974396706,0.0067926994524896145,0.0,0.999808132648468,0.0,0.0,0.019587920978665352,0.4070816934108734,0.315116822719574,0.0,0.0,0.0,-0.8690311908721924,-0.35671716928482056,0.6708651185035706,0.4200000464916229,1.0,3.3908531804627273e-06,-2.132488134520827e-06,-3.710428941872124e-08,0.0002635785494931042,0.0002693783608265221,-0.00010509602725505829,-0.0017707846127450466,0.004130862653255463,-0.00013547409616876394,-0.027524327859282494,0.026141025125980377,1.316611886024475,-1.5897133350372314,1.617757797241211,-0.08321397006511688,0.32440251111984253,0.6730549335479736,0.42000001668930054,-1.4800900220870972,3.000002861022949,-0.0958891361951828,-3.0000011920928955,0.002990424633026123,0.0026527445297688246,0.0022773307282477617,0.0018608554964885116,0.1641497164964676,0.13971014320850372,0.11377575248479843,0.08626189827919006
0.05,0.018477842211723328,0.013895113952457905,0.0,0.9999725222587585,0.0,0.0,-0.0074142939411103725,0.6361883282661438,0.47223061323165894,0.0,0.0,0.0,-4.0735650062561035,-0.35671719908714294,0.6708651781082153,0.4200000464916229,1.0,3.7651284401363228e-06,-2.2118861124909017e-06,5.622759147172474e-09,0.00026530996547080576,0.00026691515813581645,-0.00010440382175147533,-0.00172425655182451,0.004177390597760677,-0.00012948956282343715,-0.05716465786099434,0.05699528753757477,1.312049388885498,-1.953418254852295,2.0149612426757812,-0.44468197226524353,0.32440251111984253,0.6730549335479736,0.42000001668930054,-1.4300717115402222,2.9999983310699463,-0.14590208232402802,-3.000000476837158,0.0060118455439805984,0.005172898527234793,0.004261626861989498,0.003273694310337305,0.20699442923069,0.16669049859046936,0.12446163594722748,0.0802316963672638
0.06666666666666667,0.030791888013482094,0.023382864892482758,0.0,0.9998727440834045,0.0,0.0,-0.015951557084918022,0.7724817991256714,0.6161003708839417,0.0,0.0,0.0,-0.03750946372747421,-0.35671719908714294,0.6708651185035706,0.4200000464916229,0.9999999403953552,3.406727046240121e-06,-2.285541313540307e-06,4.300959517422598e-07,0.0002670243557076901,0.00026791688287630677,-0.00010437681339681149,-0.0017406673869118094,0.004211694002151489,-0.00012850009079556912,-0.09395687282085419,0.08956111967563629,1.3017140626907349,-2.3089287281036377,2.0567374229431152,-0.7849034070968628,0.32440251111984253,0.6730549335479736,0.42000001668930054,-1.3800442218780518,2.9999983310699463,-0.1132294237613678,3.0000014305114746,0.00864220131188631,0.007063454482704401,0.005371994338929653,0.003562701866030693,0.14041680097579956,0.08724946528673172,0.03192722052335739,-0.025609027594327927
0.08333333333333333,0.03714457154273987,0.030251851305365562,0.0,0.9992087483406067,0.0,0.0,-0.03977252170443535,0.22939516603946686,0.3343551754951477,0.0,0.0,0.0,-3.804875135421753,-0.35671719908714294,0.6708651185035706,0.4200000464916229,0.9999999403953552,3.626046236604452e-06,-2.3352185962721705e-06,3.032309905393049e-07,0.0002661395992618054,0.00026685046032071114,-0.00010405178181827068,-0.001728326897136867,0.004196362104266882,-0.0001279068528674543,-0.1272951066493988,0.12792479991912842,1.2868515253067017,-1.733184814453125,2.5534729957580566,-0.9357266426086426,0.32440251111984253,0.6730549335479736,0.42000001668930054,-1.3300397396087646,2.999999761581421,-0.14525561034679413,-3.0000007152557373,0.005013088695704937,0.0026594200171530247,0.0001392254198435694,-0.0025561016518622637,-0.3520086705684662,-0.41150790452957153,-0.47382697463035583,-0.5391950607299805
0.1,0.04665094614028931,0.040333520621061325,0.0,0.9955714344978333,0.0,0.0,-0.09400828182697296,0.5914193391799927,0.6167078018188477,0.0,0.0,0.0,-7.254771709442139,-0.35671719908714294,0.6708651185035706,0.4200000464916229,1.0,3.4220856832689606e-06,-2.308508555870503e-06,1.796387323338422e-07,0.0002668147790245712,0.0002680039615370333,-0.00010440708138048649,-0.001743073109537363,0.0042070988565683365,-0.00012890923244412988,-0.15691760182380676,0.17666763067245483,1.2655558586120605,-1.884161114692688,3.1703057289123535,-1.5064959526062012,0.32440251111984253,0.6730549335479736,0.42000001668930054,-1.2800205945968628,2.997873067855835,-0.11174684762954712,2.9999983310699463,0.002544742776080966,-0.0011414564214646816,-0.0050047216936945915,-0.00905612949281931,-0.2379913032054901,-0.3022175431251526,-0.3673620820045471,-0.43353578448295593
0.11666666666666667,0.05493692681193352,0.05182439088821411,0.0,0.9923235177993774,0.0,0.0,-0.12366879731416702,0.4462481439113617,0.7258567214012146,0.0,0.0,0.0,-2.3689253330230713,-0.35671719908714294,0.6708651781082153,0.4200000464916229,1.0,3.7115089526196243e-06,-2.3326181235461263e-06,2.574328163973405e-07,0.00026485760463401675,0.0002663538616616279,-0.00010423408821225166,-0.001718149520456791,0.0041700140573084354,-0.00012915405386593193,-0.19483831524848938,0.22421082854270935,1.2403285503387451,-2.324881076812744,2.9068431854248047,-1.5904600620269775,0.32440251111984253,0.6730549335479736,0.42000001668930054,-1.2300294637680054,2.9999992847442627,-0.1437373161315918,-3.0000007152557373,0.0005514161312021315,-0.004674662835896015,-0.010046410374343395,-0.015573740936815739,-0.11295247077941895,-0.2109605222940445,-0.3060853183269501,-0.3982180953025818
0.13333333333333333,0.06033870577812195,0.061339642852544785,0.0,0.9865579009056091,0.0,0.0,-0.16341213881969452,0.27012667059898376,0.513953685760498,0.0,0.0,0.0,-5.655945301055908,-0.35671719908714294,0.6708651185035706,0.4200000464916229,0.9999999403953552,3.4247336770931724e-06,-2.301910399182816e-06,1.5600640779211972e-07,0.0002670715330168605,0.00026811304269358516,-0.0001044438686221838,-0.0017433013999834657,0.004212083760648966,-0.00012877254630438983,-0.22986145317554474,0.2778451442718506,1.2114834785461426,-1.816082239151001,3.574166774749756,-1.8606529235839844,0.32440251111984253,0.6730549335479736,0.42000001668930054,-1.1800106763839722,2.999993085861206,-0.11022442579269409,2.999999761581421,-0.001990202348679304,-0.009032521396875381,-0.016155419871211052,-0.023366747424006462,-0.2155909240245819,-0.3243883550167084,-0.4290755093097687,-0.5295328497886658
0.15,0.0694970041513443,0.06682804971933365,0.0,0.9739763140678406,0.0,0.0,-0.22664982080459595,0.5779480934143066,0.2733301520347595,0.0,0.0,0.0,-8.756058692932129,-0.35671719908714294,0.6708651185035706,0.4200000464916229,1.0,3.7139102460059803e-06,-2.207734723924659e-06,-1.690771540552305e-07,0.0002635330893099308,0.0002653599367477,-0.00010421965271234512,-0.0017012956086546183,0.004144070204347372,-0.00012960158346686512,-0.26057887077331543,0.3401520550251007,1.1743546724319458,-1.6914076805114746,4.072375297546387,-2.6198670864105225,0.32440251111984253,0.6730549335479736,0.42000001668930054,-1.140709400177002,1.7868173122406006,-0.14226840436458588,-3.0000007152557373,-0.005415568593889475,-0.01402404997497797,-0.02264898456633091,-0.031296875327825546,-0.3893904387950897,-0.4473564326763153,-0.5030106902122498,-0.5563132762908936
0.16666666666666666,0.07355188578367233,0.0748296007514,0.0,0.962377667427063,0.0,0.0,-0.27171534299850464,0.2309211641550064,0.5037670731544495,0.0,0.0,0.0,-4.2494072914123535,-0.35671719908714294,0.6708651185035706,0.4200000464916229,0.9999999403953552,3.638394900917774e-06,-2.2786573481425876e-06,2.7008260872207757e-07,0.00026682819589041173,0.00026750031975097954,-0.00010410277172923088,-0.0017399706412106752,0.004210254643112421,-0.0001278170384466648,-0.29382508993148804,0.40335366129875183,1.1207067966461182,-1.7869945764541626,4.043274879455566,-3.6370930671691895,0.32440251111984253,0.6730549335479736,0.42000001668930054,-1.0936391353607178,3.0000014305114746,-0.1922914683818817,-3.0000014305114746,-0.017989810556173325,-0.026604322716593742,-0.03522278741002083,-0.04386065527796745,-0.6966131329536438,-0.6997511982917786,-0.7007268667221069,-0.699977457523346
0.18333333333333332,0.07558033615350723,0.08251374959945679,0.0,0.9466428160667419,0.0,0.0,-0.32228463888168335,0.07940635830163956,0.4184006154537201,0.0,0.0,0.0,-7.611786842346191,-0.35671719908714294,0.6708651185035706,0.4200000464916229,1.0,3.3864457691379357e-06,-2.30015280067164e-06,1.4395375558251544e-07,0.00026674618129618466,0.0002678719174582511,-0.00010436843149363995,-0.0017412154702469707,0.004206051118671894,-0.0001287856139242649,-0.3213207423686981,0.4712415337562561,1.052856206893921,-1.2230600118637085,4.263943195343018,-4.472689151763916,0.32440251111984253,0.6730549335479736,0.42000001668930054,-1.0436322689056396,3.000002145767212,-0.2423180490732193,-2.9999992847442627,-0.03087291680276394,-0.039345018565654755,-0.0477837398648262,-0.05621454119682312,-0.8173182010650635,-0.7982219457626343,-0.7772959470748901,-0.7551701664924622
0.2,0.08131617307662964,0.09034179151058197,0.0,0.9338657855987549,0.0,0.0,-0.3576236665248871,0.4313204288482666,0.493968665599823,0.0,0.0,0.0,-3.4730169773101807,-0.35671719908714294,0.6708651781082153,0.4200000464916229,1.0,3.675527068480733e-06,-2.326378989891964e-06,2.2116010711670242e-07,0.00026484543923288584,0.0002663143095560372,-0.00010421895422041416,-0.0017176928231492639,0.004169886466115713,-0.0001290956570301205,-0.3445277810096741,0.5349845886230469,0.9724735617637634,-1.0577259063720703,3.716439962387085,-5.17772912979126,0.32440251111984253,0.6730549335479736,0.42000001668930054,-0.9936254024505615,3.0000014305114746,-0.2923465371131897,-3.0000011920928955,-0.04356823116540909,-0.05155564844608307,-0.05948703736066818,-0.06740060448646545,-0.7661534547805786,-0.727297842502594,-0.6877549290657043,-0.6482710242271423
0.21666666666666667,0.08420182764530182,0.09549989551305771,0.0,0.9320338368415833,0.0,0.0,-0.3623713254928589,0.08714929968118668,0.2765178978443146,0.0,0.0,0.0,0.3089834749698639,-0.35671719908714294,0.6708651185035706,0.4200000464916229,1.0,3.322290922369575e-06,-2.2078170331951696e-06,2.74303062042236e-07,0.00026662991149351,0.0002674962452147156,-0.0001042631920427084,-0.0017357823671773076,0.0042047821916639805,-0.00012833590153604746,-0.36656972765922546,0.5843701958656311,0.8823856711387634,-1.1068382263183594,2.593991756439209,-5.662093162536621,0.32440251111984253,0.6730549335479736,0.42000001668930054,-0.9436147212982178,3.000000238418579,-0.34237757325172424,-2.99999737739563,-0.05925055965781212,-0.06661120802164078,-0.07365918159484863,-0.08039187639951706,-0.9866377115249634,-0.9864624738693237,-0.9800989031791687,-0.9178773164749146
0.23333333333333334,0.0824761837720871,0.10193238407373428,0.0,0.9253475666046143,0.0,0.0,-0.3791199028491974,-0.18284980952739716,0.43926140666007996,0.0,0.0,0.0,-2.9323482513427734,-0.35671719908714294,0.6708651185035706,0.4200000464916229,1.0,3.656512717498117e-06,-2.373275947320508e-06,-4.0765530684439e-07,0.00026611698558554053,0.0002672603295650333,-0.00010423362255096436,-0.001733599347062409,0.004194695968180895,-0.0001285477919736877,-0.38078752160072327,0.6247609853744507,0.7823723554611206,-0.6200357675552368,2.0832409858703613,-6.178914546966553,0.32440251111984253,0.6730549335479736,0.42000001668930054,-0.893604040145874,2.999999761581421,-0.3924092948436737,-2.9999983310699463,-0.07526534795761108,-0.08266149461269379,-0.08976063132286072,-0.09655331820249557,-0.990263044834137,-0.9922502040863037,-0.9937742948532104,-0.9947083592414856
0.25,0.08387621492147446,0.10418640822172165,0.0,0.9243918657302856,0.0,0.0,-0.38144418597221375,0.10290364176034927,0.07198549062013626,0.0,0.0,0.0,0.38635510206222534,-0.35671719908714294,0.6708651781082153,0.4200000464916229,1.0,3.6305416415416403e-06,-2.2424751477956306e-06,1.123084913956518e-08,0.00026680060545913875,0.00026705965865403414,-0.00010390975512564182,-0.0017341973725706339,0.004210582468658686,-0.0001270233915420249,-0.39256346225738525,0.6514257192611694,0.6792282462120056,-0.5257600545883179,1.0808247327804565,-6.235309600830078,0.32440251111984253,0.6730549335479736,0.42000001668930054,-0.8435933589935303,2.9999964237213135,-0.4424409568309784,-3.0000011920928955,-0.09055761992931366,-0.09793440252542496,-0.10501038283109665,-0.1117725595831871,-0.9937599301338196,-0.9945456981658936,-0.9951804280281067,-0.9957181215286255
0.26666666666666666,0.08157287538051605,0.10413704067468643,0.0,0.9173718094825745,0.0,0.0,-0.39803141355514526,-0.2233186811208725,-0.037426598370075226,0.0,0.0,0.0,-3.040914297103882,-0.35671716928482056,0.6708651185035706,0.4200000464916229,0.9999999403953552,3.7401789541036123e-06,-2.23619849748502e-06,4.499796375512233e-07,0.00026479712687432766,0.00026673119282349944,-0.00010454165749251842,-0.0017189347418025136,0.004166691564023495,-0.0001301629818044603,-0.39279064536094666,0.6633564829826355,0.5766624212265015,0.41415756940841675,0.3130057156085968,-5.874370574951172,0.32440251111984253,0.6730549335479736,0.42000001668930054,-0.7935843467712402,3.00000262260437,-0.49247145652770996,-2.999999523162842,-0.10865126550197601,-0.11567924916744232,-0.12249036878347397,-0.12904368340969086,-1.0128382444381714,-1.0096632242202759,-1.007242202758789,-1.005318522453308
0.2833333333333333,0.07544180750846863,0.1023520678281784,0.0,0.9173761010169983,0.0,0.0,-0.39802148938179016,-0.3145983815193176,-0.19222791492938995,0.0,0.0,0.0,0.8826864361763,-0.35671719908714294,0.6708651185035706,0.4200000464916229,1.0,3.3917049222509377e-06,-2.291024657097296e-06,1.2460675691272627e-07,0.00026677080313675106,0.0002678929013200104,-0.0001043747179210186,-0.0017412520246580243,0.004206160549074411,-0.00012877813423983753,-0.38524842262268066,0.6670190095901489,0.488770067691803,0.5749080181121826,0.18389765918254852,-4.8437299728393555,0.32440251111984253,0.6730549335479736,0.42000001668930054,-0.7435755729675293,2.9999725818634033,-0.5425000190734863,-3.0000014305114746,-0.12598970532417297,-0.13287021219730377,-0.13958612084388733,-0.14607392251491547,-0.8245042562484741,-0.8672924041748047,-0.9070745706558228,-0.9428727626800537
0.3,0.06845572590827942,0.09764716774225235,0.0,0.9114288687705994,0.0,0.0,-0.4114576280117035,-0.46747082471847534,-0.3223574459552765,0.0,0.0,0.0,-2.638143301010132,-0.35671719908714294,0.6708651781082153,0.4200000464916229,1.0,3.6808205550187267e-06,-2.3189752482721815e-06,2.0109349918584485e-07,0.0002647904329933226,0.0002662576735019684,-0.00010421290062367916,-0.001716798054985702,0.004168906714767218,-0.00012909369252156466,-0.3702509105205536,0.6716235876083374,0.4065343737602234,1.2219505310058594,0.22276531159877777,-4.7609453201293945,0.32440251111984253,0.6730549335479736,0.42000001668930054,-0.6935686469078064,3.0000014305114746,-0.5925268530845642,-3.000000238418579,-0.14309899508953094,-0.14988453686237335,-0.15652872622013092,-0.16295966506004333,-1.0110644102096558,-1.008406639099121,-1.0063668489456177,-1.0047258138656616
0.31666666666666665,0.05938369035720825,0.09070472419261932,0.0,0.9124987721443176,0.0,0.0,-0.4090794622898102,-0.5824705958366394,-0.4560337960720062,0.0,0.0,0.0,1.2419482469558716,-0.35671713948249817,0.6708651185035706,0.4200000464916229,1.0,3.4988549941772362e-06,-2.0168481569271535e-06,-1.4164004369376926e-07,0.00023801173665560782,0.0002578072890173644,-9.896885603666306e-05,-0.0017970857443287969,0.0036455155350267887,-0.00014450386515818536,-0.37019607424736023,0.6763198971748352,0.4262197017669678,0.2087724506855011,0.3588407337665558,-0.1723657250404358,0.32440251111984253,0.6730549335479736,0.42000001668930054,-0.6438081860542297,3.0000011920928955,-0.6431592106819153,-2.999833345413208,-0.1455594152212143,-0.15260443091392517,-0.15910737216472626,-0.1649276465177536,-0.33035966753959656,-0.2941671907901764,-0.24296408891677856,-0.17449915409088135
0.3333333333333333,0.04811660945415497,0.08152420818805695,0.0,0.9071835279464722,0.0,0.0,-0.42073509097099304,-0.7192013263702393,-0.590644896030426,0.0,0.0,0.0,-2.4763870239257812,-0.35424715280532837,0.6740735769271851,0.4200001060962677,0.9998423457145691,-2.451212594678509e-06,2.152994966309052e-06,-0.017752904444932938,0.15824951231479645,0.19975601136684418,-9.513007535133511e-05,0.004697897471487522,-0.00050763925537467,-1.957844614982605,-0.36521685123443604,0.6786608695983887,0.4232843816280365,0.4248133897781372,0.09558050334453583,-0.177932471036911,0.32440251111984253,0.6730549335479736,0.42000001668930054,-0.5938026905059814,2.9999845027923584,-0.6932044625282288,-2.999997615814209,-0.15249976515769958,-0.15842297673225403,-0.16356901824474335,-0.16778282821178436,-0.4553806483745575,-0.3653113842010498,-0.2634168863296509,-0.14983892440795898
0.35,0.034631069749593735,0.07002615928649902,0.0,0.9087016582489014,0.0,0.0,-0.41744622588157654,-0.8481962084770203,-0.7295108437538147,0.0,0.0,0.0,1.3736876249313354,-0.34995126724243164,0.679549515247345,0.420002281665802,0.9980888366699219,3.7697082007071e-05,-5.139954009791836e-05,-0.06179516762495041,0.34328341484069824,0.4328211843967438,-0.002348650014027953,-0.05612614378333092,-0.01708958111703396,-7.38663911819458,-0.3580859899520874,0.6829586029052734,0.4204513728618622,0.48700159788131714,0.38966691493988037,-0.12610049545764923,0.32440251111984253,0.6730549335479736,0.42000001668930054,-0.5437977313995361,2.9999825954437256,-0.7432456612586975,-3.000000238418579,-0.16091389954090118,-0.16503296792507172,-0.16813728213310242,-0.1700948178768158,-0.48002609610557556,-0.36513960361480713,-0.23565901815891266,-0.09347952157258987
0.36666666666666664,0.024465955793857574,0.05575495585799217,0.0,0.9038399457931519,0.0,0.0,-0.4278707206249237,-0.526365339756012,-0.9056656956672668,0.0,0.0,0.0,-2.300708532333374,-0.34445029497146606,0.6855630278587341,0.41999995708465576,0.9893446564674377,1.1008177352778148e-05,-3.996630766778253e-06,-0.14559249579906464,0.4057478606700897,0.41607987880706787,-0.0002691013505682349,-0.012281280010938644,0.0201879795640707,-12.351513862609863,-0.348410427570343,0.6879380941390991,0.4205341041088104,0.7153054475784302,0.32677799463272095,0.0909644216299057,0.32440251111984253,0.6730549335479736,0.42000001668930054,-0.4937672019004822,3.0000007152557373,-0.7932734489440918,-2.999972105026245,-0.16887180507183075,-0.17067590355873108,-0.17115271091461182,-0.17022249102592468,-0.44105100631713867,-0.2884597182273865,-0.1159607544541359,0.07257521897554398
0.3833333333333333,0.012398670427501202,0.039942242205142975,0.0,0.8852189779281616,0.0,0.0,-0.4651745855808258,-0.7936641573905945,-0.9812356233596802,0.0,0.0,0.0,-5.948122501373291,-0.33223962783813477,0.6977010369300842,0.42055264115333557,0.9709333181381226,0.005089574493467808,-0.008304429240524769,-0.2391517609357834,1.1815533638000488,1.125788688659668,0.1345570683479309,2.1452205181121826,-4.355740070343018,-4.8168206214904785,-0.3317664861679077,0.6988534927368164,0.4223131835460663,1.272695541381836,0.9732070565223694,0.126298725605011,0.32440251111984253,0.6730549335479736,0.42000001668930054,-0.4437170624732971,3.0,-0.8432818651199341,-2.9999680519104004,-0.17744575440883636,-0.1765279620885849,-0.17392629384994507,-0.16963790357112885,-0.45576661825180054,-0.3049202561378479,-0.13196571171283722,0.058514710515737534
0.4,0.003099666675552726,0.021051082760095596,0.0,0.8508142232894897,0.0,0.0,-0.5254666209220886,-0.5045747756958008,-1.182644248008728,0.0,0.0,0.0,-9.129657745361328,-0.29353803396224976,0.721085250377655,0.4248787760734558,0.9551635980606079,0.005141652654856443,-0.042258817702531815,-0.29300186038017273,3.3787386417388916,1.480690836906433,0.21660956740379333,32.128780364990234,-17.503841400146484,11.74075698852539,-0.29346930980682373,0.7220027446746826,0.4261096715927124,3.3322834968566895,1.8699336051940918,0.5546382665634155,0.32440251111984253,0.6730549335479736,0.42000001668930054,-0.39973175525665283,1.7324684858322144,-0.8933044075965881,-2.9999992847442627,-0.1862558275461197,-0.18219107389450073,-0.17613132297992706,-0.1681760996580124,-0.6051208972930908,-0.38269343972206116,-0.1456318497657776,0.0987124815583229
0.4166666666666667,-0.003592295106500387,0.0076995245181024075,0.0,0.7978951930999756,0.0,0.0,-0.6027961373329163,-0.3481588065624237,-0.6696001887321472,0.0,0.0,0.0,-12.068135261535645,-0.21130922436714172,0.753298819065094,0.4321161210536957,0.9298858642578125,0.0762329250574112,-0.09129217267036438,-0.3480898439884186,6.42605447769165,1.7783088684082031,0.4878028333187103,12.565526962280273,-14.702286720275879,10.251199722290039,-0.21139124035835266,0.7544097304344177,0.43394166231155396,6.171250343322754,2.1975960731506348,0.6039564609527588,0.32440251111984253,0.6730549335479736,0.42000001668930054,-0.3810809850692749,0.8267934918403625,-0.8562074303627014,2.9987664222717285,-0.20187604427337646,-0.1949337124824524,-0.18364016711711884,-0.17071184515953064,-0.874055027961731,-0.847489595413208,-0.5446651577949524,-0.2677430212497711
0.43333333333333335,-0.007141266018152237,-0.002251876052469015,0.0,0.7547752857208252,0.0,0.0,-0.6559833884239197,-0.15612661838531494,-0.5488183498382568,0.0,0.0,0.0,-7.077594757080078,-0.1128242164850235,0.7820580005645752,0.4446202218532562,0.8868989944458008,0.09915250539779663,-0.11606831848621368,-0.4360126256942749,5.7580437660217285,1.0948872566223145,0.9705836772918701,-0.4766806364059448,0.3858538269996643,-5.621002197265625,-0.11362698674201965,0.784136176109314,0.4459133744239807,5.806254863739014,1.2578959465026855,0.8054903149604797,0.32440251111984253,0.6730549335479736,0.42000001668930054,-0.3646327257156372,1.193177580833435,-0.8826510906219482,-3.000000476837158,-0.21386297047138214,-0.2075776904821396,-0.1921442151069641,-0.17546232044696808,-0.663677453994751,-0.676864504814148,-0.4669131934642792,-0.2837134599685669
0.45,-0.011891629546880722,-0.00782086607068777,0.0,0.7342165112495422,0.0,0.0,-0.6789153814315796,-0.281857430934906,-0.3054402768611908,0.0,0.0,0.0,-2.4153265953063965,-0.019785739481449127,0.7931190133094788,0.45672807097435,0.8620147705078125,0.08513130247592926,-0.10164707899093628,-0.4892352521419525,5.609336853027344,-0.426498681306839,0.7856365442276001,18.45735740661621,-7.531343460083008,19.625484466552734,-0.01931154727935791,0.7965896129608154,0.45791947841644287,5.55057954788208,0.21877825260162354,0.6930076479911804,0.32440251111984253,0.6730549335479736,0.42000001668930054,-0.33981117606163025,1.4556952714920044,-0.9326751232147217,-3.0000035762786865,-0.22730185091495514,-0.2198140174150467,-0.20041674375534058,-0.1802508533000946,-0.7104088664054871,-0.6204686164855957,-0.41113540530204773,-0.22643175721168518
0.4666666666666667,-0.012899772264063358,-0.019437352195382118,0.0,0.704804539680481,0.0,0.0,-0.709401547908783,0.038696516305208206,-0.8679357767105103,0.0,0.0,0.0,-6.197975158691406,0.07052507996559143,0.7885249853134155,0.4638272225856781,0.8089134097099304,0.07197388261556625,-0.10180088877677917,-0.5745565891265869,5.374141216278076,-0.9302680492401123,0.4021276533603668,-6.562163352966309,8.042698860168457,-14.543770790100098,0.07021936774253845,0.7935359477996826,0.4655553102493286,5.216309070587158,-0.6777260303497314,0.3507445454597473,0.32440251111984253,0.6730549335479736,0.42000001668930054,-0.3192588984966278,0.9893075823783875,-0.9826991558074951,-2.9990622997283936,-0.23282656073570251,-0.2241201549768448,-0.20212189853191376,-0.17958495020866394,-0.14097799360752106,-0.05748759210109711,0.07418011128902435,0.19744566082954407
0.48333333333333334,-0.017252154648303986,-0.028067003935575485,0.0,0.6857758164405823,0.0,0.0,-0.7278128266334534,-0.3059658408164978,-0.4285956621170044,0.0,0.0,0.0,-2.044315814971924,0.150978684425354,0.7731706500053406,0.46964654326438904,0.7549782991409302,0.04717934504151344,-0.09531328827142715,-0.6470680832862854,4.11603307723999,-2.0186550617218018,0.4813959002494812,-12.513787269592285,14.290761947631836,22.546894073486328,0.1500146985054016,0.7783178091049194,0.4721429646015167,4.595269203186035,-1.1134066581726074,0.41946089267730713,0.32440251111984253,0.6730549335479736,0.42000001668930054,-0.30834412574768066,0.2892029285430908,-1.032721996307373,-2.999497890472412,-0.23873847723007202,-0.22773826122283936,-0.2034599334001541,-0.17899973690509796,-0.2895888388156891,-0.1708468347787857,-0.08598501980304718,-0.023614078760147095
0.5,-0.01826082542538643,-0.030449574813246727,0.0,0.6897887587547302,0.0,0.0,-0.7240106463432312,-0.0001791125541785732,-0.06950706988573074,0.0,0.0,0.0,1.4182603359222412,0.21623238921165466,0.7519757747650146,0.4706919491291046,0.6925227046012878,0.01747695729136467,-0.08806785941123962,-0.715786874294281,3.0639071464538574,-1.7469013929367065,-0.06794970482587814,-5.869768142700195,9.488224029541016,4.323873519897461,0.21429842710494995,0.7579091787338257,0.4744008481502533,3.3637800216674805,-1.40064537525177,-0.027992863208055496,0.32440251111984253,0.6730549335479736,0.42000001668930054,-0.3048758804798126,0.24113498628139496,-1.0827441215515137,-2.999385356903076,-0.23960690200328827,-0.2299956977367401,-0.2055262178182602,-0.18105930089950562,0.0892854630947113,-0.04952353611588478,-0.08701539784669876,-0.13316459953784943
0.5166666666666666,-0.01564953662455082,-0.036301471292972565,0.0,0.6816059947013855,0.0,0.0,-0.7317193746566772,0.14184939861297607,-0.3661010265350342,0.0,0.0,0.0,-2.0775961875915527,0.2658032774925232,0.7305935621261597,0.46251165866851807,0.6543605327606201,-0.02843288891017437,-0.09297295659780502,-0.7499065399169922,2.394674301147461,-1.5506552457809448,-0.5831412076950073,1.3103362321853638,0.7528451681137085,7.7332282066345215,0.26400163769721985,0.7373292446136475,0.4680963158607483,2.628243923187256,-1.3698111772537231,-0.6046980023384094,0.32440251111984253,0.6730549335479736,0.42000001668930054,-0.29494258761405945,0.8510293364524841,-1.1327662467956543,-2.999993085861206,-0.23191188275814056,-0.2254185676574707,-0.20311051607131958,-0.18079248070716858,0.3497430384159088,0.22390875220298767,0.10643484443426132,-0.016687262803316116
0.5333333333333333,-0.011554527096450329,-0.037892092019319534,0.0,0.6856321096420288,0.0,0.0,-0.7279481887817383,0.31864064931869507,-0.08389528095722198,0.0,0.0,0.0,1.3404052257537842,0.3027849793434143,0.7072514891624451,0.44847264885902405,0.6247089505195618,-0.057750146836042404,-0.06829363107681274,-0.7757186889648438,1.6031872034072876,-1.940237045288086,-0.9981279373168945,-2.760031223297119,2.908770799636841,19.2962589263916,0.30179858207702637,0.7129379510879517,0.4540770649909973,2.096613883972168,-1.4953535795211792,-1.0172374248504639,0.32440251111984253,0.6730549335479736,0.42000001668930054,-0.27862274646759033,0.9112451076507568,-1.182788372039795,-2.999974489212036,-0.2277640849351883,-0.22275704145431519,-0.2024216502904892,-0.18218636512756348,0.3418964147567749,0.24546074867248535,0.09265533089637756,-0.062243469059467316
0.55,-0.004983157385140657,-0.036865297704935074,0.0,0.6778550148010254,0.0,0.0,-0.7351956367492676,0.4336353838443756,0.13252265751361847,0.0,0.0,0.0,-2.1743602752685547,0.3302589952945709,0.6866996884346008,0.42545410990715027,0.6040780544281006,-0.07396279275417328,-0.08636345714330673,-0.7887715697288513,0.8993068933486938,-1.5124082565307617,-1.412318468093872,-0.7197520136833191,-1.916795253753662,22.070430755615234,0.32874584197998047,0.691769540309906,0.4313429594039917,1.3442671298980713,-1.1680262088775635,-1.531601905822754,0.32440251111984253,0.6730549335479736,0.42000001668930054,-0.2638830244541168,0.7616302967071533,-1.1449542045593262,2.999779462814331,-0.22000718116760254,-0.2173781543970108,-0.20063361525535583,-0.18385648727416992,0.49374133348464966,0.34793272614479065,0.11019019037485123,-0.11774758994579315
0.5666666666666667,0.001754158060066402,-0.04020329564809799,0.0,0.6819499135017395,0.0,0.0,-0.73139888048172,0.3559589684009552,-0.15933503210544586,0.0,0.0,0.0,1.3808221817016602,0.3402358591556549,0.6785465478897095,0.42241933941841125,0.6027352809906006,-0.0452217161655426,-0.013104608282446861,-0.7965509295463562,0.08137567341327667,-0.452641099691391,0.07511414587497711,0.046936601400375366,3.137648105621338,2.41273832321167,0.33745554089546204,0.6803098320960999,0.42447611689567566,0.09901994466781616,-0.4528602659702301,0.12551400065422058,0.32440251111984253,0.6730549335479736,0.42000001668930054,-0.2569897472858429,0.27166059613227844,-1.1676807403564453,-3.0001049041748047,-0.20779815316200256,-0.20664925873279572,-0.19452355802059174,-0.18205416202545166,0.361881822347641,0.46006596088409424,0.24156780540943146,0.03582705929875374
0.5833333333333334,0.004932885989546776,-0.03918807581067085,0.0,0.6744507551193237,0.0,0.0,-0.7383198738098145,0.14500640332698822,0.0968901738524437,0.0,0.0,0.0,-2.1141111850738525,0.3410968780517578,0.6716874241828918,0.4220424294471741,0.6118770241737366,-0.03762742504477501,-0.002475925488397479,-0.7900534868240356,0.049390681087970734,-0.4036961793899536,-0.05137064307928085,2.397894859313965,-0.911111056804657,1.233629584312439,0.3379620611667633,0.6752508282661438,0.423418790102005,0.005260288715362549,-0.17089538276195526,-0.07887592166662216,0.32440251111984253,0.6730549335479736,0.42000001668930054,-0.2752360999584198,-2.232271909713745,-1.13117516040802,2.9996836185455322,-0.20231345295906067,-0.20003734529018402,-0.19149087369441986,-0.18233396112918854,0.41005080938339233,0.438607394695282,0.2167603224515915,0.013711896724998951
0.6,0.008632438257336617,-0.03579825162887573,0.0,0.6786271333694458,0.0,0.0,-0.734483003616333,0.2535257935523987,0.25567203760147095,0.0,0.0,0.0,1.5191376209259033,0.3413076102733612,0.6657718420028687,0.4200146794319153,0.6117684841156006,0.0001420860062353313,0.00021267820557113737,-0.7910367846488953,-0.02904895506799221,-0.25545185804367065,-0.007052611093968153,-0.30140864849090576,-0.04172303155064583,-1.0758167505264282,0.336703896522522,0.6743865013122559,0.4250115156173706,-0.11656168103218079,0.03553636744618416,0.1462121307849884,0.32440251111984253,0.6730549335479736,0.42000001668930054,-0.32243460416793823,-2.9999890327453613,-1.1532446146011353,-2.9994049072265625,-0.1951656937599182,-0.19291070103645325,-0.1879807561635971,-0.1820860356092453,0.4534664750099182,0.43057936429977417,0.22042492032051086,0.03038761578500271
0.6166666666666667,0.014389393851161003,-0.036446332931518555,0.0,0.6713845729827881,0.0,0.0,-0.7411091327667236,0.37256282567977905,-0.039360690861940384,0.0,0.0,0.0,-2.018228769302368,0.3406209945678711,0.6628847718238831,0.41999998688697815,0.6063375473022461,-1.0898133950831834e-05,-3.3746986446203664e-05,-0.7952073216438293,-0.11393081396818161,-0.08522138744592667,-0.0008179537253454328,0.08746512234210968,0.019196948036551476,1.362589716911316,0.33560502529144287,0.6787975430488586,0.42787230014801025,-0.12227354198694229,0.26585716009140015,0.18303903937339783,0.32440251111984253,0.6730549335479736,0.42000001668930054,-0.3724689483642578,-2.9997551441192627,-1.2032092809677124,-3.000004291534424,-0.1832798719406128,-0.18242746591567993,-0.18148507177829742,-0.17919102311134338,0.574284017086029,0.5137273073196411,0.32056283950805664,0.14423029124736786
0.6333333333333333,0.02241530455648899,-0.033132292330265045,0.0,0.6763278841972351,0.0,0.0,-0.7366006970405579,0.49996402859687805,0.20519031584262848,0.0,0.0,0.0,1.6748379468917847,0.33854976296424866,0.6624994277954102,0.42016878724098206,0.6024982333183289,0.0025710579939186573,-0.0033431481570005417,-0.7981089949607849,-0.15173636376857758,0.00720123341307044,0.022690309211611748,-0.2905694544315338,-1.0949337482452393,-2.239997625350952,0.33176445960998535,0.6820410490036011,0.4306946396827698,-0.25998979806900024,0.23618145287036896,0.1859622597694397,0.32440251111984253,0.6730549335479736,0.42000001668930054,-0.4224854111671448,-2.999591827392578,-1.253226399421692,-2.9999895095825195,-0.17697025835514069,-0.17674344778060913,-0.17822317779064178,-0.17813363671302795,0.417777955532074,0.35936352610588074,0.21807698905467987,0.09043549746274948
0.65,0.03213813155889511,-0.033934179693460464,0.0,0.6924230456352234,0.0,0.0,-0.7214917540550232,0.6113588213920593,-0.09187950193881989,0.0,0.0,0.0,3.0926196575164795,0.33481451869010925,0.6633991003036499,0.4205169677734375,0.6036664843559265,0.007935088127851486,-0.010409507900476456,-0.7971293926239014,-0.20809020102024078,0.0557621493935585,0.0532882995903492,-0.6873952746391296,-2.6193461418151855,-3.49735689163208,0.32812950015068054,0.6848312616348267,0.4346804618835449,-0.32475489377975464,0.05588585138320923,0.2744957208633423,0.32440251111984253,0.6730549335479736,0.42000001668930054,-0.47251537442207336,-2.9996299743652344,-1.303214430809021,-2.9999759197235107,-0.16973744332790375,-0.17002633213996887,-0.17297275364398956,-0.1740981787443161,0.2948012351989746,0.3152531385421753,0.2982594072818756,0.29391956329345703
0.6666666666666666,0.04343443363904953,-0.03789634630084038,0.0,0.6936139464378357,0.0,0.0,-0.7203469276428223,0.7071144580841064,-0.29293161630630493,0.0,0.0,0.0,-0.7932420372962952,0.33133989572525024,0.6641451120376587,0.42063289880752563,0.5918493866920471,0.009492458775639534,-0.012974809855222702,-0.8058881163597107,-0.16328230500221252,0.04305588826537132,-0.011493505910038948,0.16531404852867126,0.5738959908485413,-2.81484317779541,0.3262544572353363,0.6862213015556335,0.43994176387786865,0.016127336770296097,0.06664523482322693,0.44046175479888916,0.32440251111984253,0.6730549335479736,0.42000001668930054,-0.5225287079811096,-3.0,-1.353232979774475,-2.999999523162842,-0.16642293334007263,-0.16604773700237274,-0.1686190664768219,-0.1691465824842453,0.1616697758436203,0.2132350206375122,0.2635767161846161,0.32703015208244324
0.6833333333333333,0.05646241828799248,-0.04541992396116257,0.0,0.6741436123847961,0.0,0.0,-0.7386002540588379,0.8186813592910767,-0.5244843363761902,0.0,0.0,0.0,-4.068561553955078,0.3293572962284088,0.6646212935447693,0.4200011193752289,0.5789015293121338,-7.266008651640732e-06,-4.451110726222396e-05,-0.8153973817825317,-0.08286742866039276,0.01745513826608658,-0.0006091936957091093,0.048238664865493774,0.020689835771918297,-1.184693694114685,0.33162543177604675,0.6892516613006592,0.454500675201416,0.6159976124763489,0.2668083906173706,1.419879674911499,0.32440251111984253,0.6730549335479736,0.42000001668930054,-0.5725407004356384,-2.9999642372131348,-1.40325129032135,-2.9999988079071045,-0.16583530604839325,-0.16449840366840363,-0.1659230887889862,-0.16511912643909454,-0.02481848932802677,0.034539882093667984,0.11455695331096649,0.20338886976242065
0.7,0.07366842776536942,-0.047395188361406326,0.0,0.6668684482574463,0.0,0.0,-0.7451754212379456,1.1170287132263184,0.01641346514225006,0.0,0.0,0.0,-0.17781470715999603,0.3289148211479187,0.6647006869316101,0.4200000464916229,0.5768877863883972,-1.7642389593675034e-06,3.676528422147385e-06,-0.8168233633041382,-0.004610093310475349,0.0007192800985649228,-0.0001492793671786785,-0.002853987505659461,-0.0071120248176157475,-0.0439651720225811,0.34232643246650696,0.6945350170135498,0.4856295585632324,0.6919575929641724,0.42664504051208496,2.2465062141418457,0.32440251111984253,0.6730549335479736,0.42000001668930054,-0.6213324666023254,-2.8311519622802734,-1.453269600868225,-3.0,-0.17242397367954254,-0.16942451894283295,-0.1688171625137329,-0.16598860919475555,-0.4451349973678589,-0.3635515570640564,-0.2544722855091095,-0.1480245441198349
0.7166666666666667,0.08690498024225235,-0.04555657133460045,0.0,0.6817415356636047,0.0,0.0,-0.7315930724143982,0.7283529043197632,-0.010277027264237404,0.0,0.0,0.0,3.041024923324585,0.3289144039154053,0.664700984954834,0.4200000464916229,0.5768882632255554,4.658883199226693e-07,-2.9684042601729743e-06,-0.8168229460716248,0.0001278165727853775,-0.0002575392136350274,-9.15199052542448e-05,0.00601707398891449,-0.001065941876731813,-0.0007437136955559254,0.35367459058761597,0.7008374929428101,0.516255259513855,0.7426835298538208,0.3674805462360382,1.4576165676116943,0.32440251111984253,0.6730549335479736,0.42000001668930054,-0.6370866298675537,0.655571699142456,-1.5032879114151,-3.000000476837158,-0.17664578557014465,-0.1728675216436386,-0.17092891037464142,-0.16681507229804993,0.04387791454792023,0.029002131894230843,0.05415773019194603,0.0796055942773819
0.7333333333333333,0.09559576213359833,-0.050949689000844955,0.0,0.6830388903617859,0.0,0.0,-0.730381965637207,0.4869074821472168,-0.28093454241752625,0.0,0.0,0.0,-0.7731120586395264,0.32891443371772766,0.664700984954834,0.4200000464916229,0.5768880248069763,3.327319859636191e-07,-2.982874548251857e-06,-0.8168232440948486,9.371784835821018e-05,-0.0002679176104720682,-8.723116479814053e-05,0.0064542400650680065,-0.001600351999513805,-0.0006892342353239655,0.3625712990760803,0.7066295146942139,0.5335336923599243,0.28610190749168396,0.08361537754535675,0.7856322526931763,0.32440251111984253,0.6730549335479736,0.42000001668930054,-0.646808385848999,-1.61420476436615,-1.464551568031311,3.000000476837158,-0.1720217764377594,-0.16894501447677612,-0.16705507040023804,-0.16303609311580658,0.052952270954847336,0.06847196072340012,0.11571686714887619,0.14937859773635864
0.75,0.1010136604309082,-0.051704417914152145,0.0,0.6941769123077393,0.0,0.0,-0.7198044061660767,0.27827444672584534,0.002792501589283347,0.0,0.0,0.0,2.6390440464019775,0.32891443371772766,0.664700984954834,0.4200000464916229,0.5768882036209106,4.5348335220296576e-07,-3.0102391974651255e-06,-0.8168230056762695,9.806740854401141e-05,-0.00026519689708948135,-8.82255844771862e-05,0.006361741106957197,-0.0015364943537861109,-0.0006949036032892764,0.3674313426017761,0.7063137292861938,0.5434377193450928,0.29955387115478516,-0.017995819449424744,0.4510928690433502,0.32440251111984253,0.6730549335479736,0.42000001668930054,-0.6446559429168701,1.5916188955307007,-1.4813987016677856,-3.000000238418579,-0.17278380692005157,-0.1691492795944214,-0.16622208058834076,-0.1614595651626587,0.017142493277788162,0.0356372632086277,0.08177097886800766,0.10956532508134842
0.7666666666666666,0.10307520627975464,-0.05556201562285423,0.0,0.6930891275405884,0.0,0.0,-0.7208518981933594,0.0908241868019104,-0.29889294505119324,0.0,0.0,0.0,-1.0733704566955566,0.3289144039154053,0.664700984954834,0.4200000464916229,0.5768882632255554,5.063697585683258e-07,-2.868459660021472e-06,-0.8168230056762695,9.369293547933921e-05,-0.0002646281209308654,-8.731428533792496e-05,0.006371753755956888,-0.0015858334954828024,-0.0006841570138931274,0.36856651306152344,0.7050960063934326,0.5457842350006104,-0.15791450440883636,-0.17637088894844055,-0.00401652604341507,0.32440251111984253,0.6730549335479736,0.42000001668930054,-0.6456827521324158,-1.4497606754302979,-1.4427284002304077,2.999999761581421,-0.17130133509635925,-0.1675332933664322,-0.16405287384986877,-0.1590576171875,0.08317546546459198,0.09677764773368835,0.13134053349494934,0.1441386342048645
0.7833333333333333,0.10614873468875885,-0.05531793460249901,0.0,0.7021837830543518,0.0,0.0,-0.7119957804679871,0.20114876329898834,0.013857109472155571,0.0,0.0,0.0,2.0959525108337402,0.32891443371772766,0.664700984954834,0.4200000464916229,0.5768879652023315,3.3384793596269446e-07,-3.023915724043036e-06,-0.8168231844902039,9.297595534007996e-05,-0.0002681423502508551,-8.702301420271397e-05,0.006464432924985886,-0.0016087944386526942,-0.0006878032581880689,0.36795467138290405,0.7013211250305176,0.5455416440963745,0.16504670679569244,-0.11138831079006195,-0.006441742181777954,0.32440251111984253,0.6730549335479736,0.42000001668930054,-0.6412578821182251,1.7038612365722656,-1.4600307941436768,-3.000000476837158,-0.1731303334236145,-0.16871720552444458,-0.1642455905675888,-0.1585991233587265,0.040403805673122406,0.033787764608860016,0.05374923348426819,0.06239812448620796
0.8,0.1069694459438324,-0.058973342180252075,0.0,0.6985800862312317,0.0,0.0,-0.7155318856239319,0.01956310123205185,-0.24779750406742096,0.0,0.0,0.0,-1.4750474691390991,0.32891443371772766,0.664700984954834,0.4200000464916229,0.5768882036209106,4.3403591121204954e-07,-3.0508933832607e-06,-0.8168230652809143,9.818183025345206e-05,-0.0002651620889082551,-8.824956603348255e-05,0.006360354367643595,-0.0015347638400271535,-0.0006950884126126766,0.3707091808319092,0.698776364326477,0.5436503887176514,0.12870076298713684,-0.2997858226299286,-0.0764312595129013,0.32440251111984253,0.6730549335479736,0.42000001668930054,-0.6511118412017822,-2.511490821838379,-1.4214210510253906,2.999999761581421,-0.1709761917591095,-0.1668797880411148,-0.16229039430618286,-0.1566646695137024,0.0378991961479187,0.042481616139411926,0.06920107454061508,0.0863809585571289
0.8166666666666667,0.10875056684017181,-0.05932037904858589,0.0,0.7048452496528625,0.0,0.0,-0.7093610763549805,0.14726896584033966,0.005594342947006226,0.0,0.0,0.0,1.8688039779663086,0.3289144039154053,0.664700984954834,0.4200000464916229,0.5768882632255554,4.99633415529388e-07,-2.910149987656041e-06,-0.8168230652809143,9.381437121191993e-05,-0.0002645934000611305,-8.734175935387611e-05,0.0063701895996928215,-0.0015842719003558159,-0.0006843802984803915,0.375598281621933,0.6940659284591675,0.5446880459785461,0.48408815264701843,-0.19721701741218567,0.23701028525829315,0.32440251111984253,0.6730549335479736,0.42000001668930054,-0.661253809928894,0.9989448189735413,-1.4391344785690308,-3.0,-0.17144662141799927,-0.16723310947418213,-0.1621212661266327,-0.15604613721370697,0.05659318342804909,0.04162454977631569,0.053622663021087646,0.06746678054332733
0.8333333333333334,0.10871923714876175,-0.061715688556432724,0.0,0.7000823020935059,0.0,0.0,-0.7140622138977051,-0.048044074326753616,-0.18204179406166077,0.0,0.0,0.0,-1.6591874361038208,0.32891443371772766,0.664700984954834,0.4200000464916229,0.5768879652023315,3.4602092569002707e-07,-3.0674725621793186e-06,-0.8168232440948486,9.308714652433991e-05,-0.0002681128971744329,-8.704769425094128e-05,0.006463115569204092,-0.0016073158476501703,-0.0006880014552734792,0.3839486539363861,0.6899663805961609,0.5475795269012451,0.493753045797348,-0.3254343867301941,0.2461066097021103,0.32440251111984253,0.6730549335479736,0.42000001668930054,-0.6721606850624084,-2.0362205505371094,-1.4005855321884155,2.999999761581421,-0.17093703150749207,-0.16686242818832397,-0.16148902475833893,-0.15511508285999298,-0.017250077798962593,-0.011590286158025265,0.01415400579571724,0.04111967980861664
0.85,0.10961797833442688,-0.06142701208591461,0.0,0.7052170634269714,0.0,0.0,-0.7089914679527283,0.09649650007486343,0.06469911336898804,0.0,0.0,0.0,1.7055652141571045,0.32891443371772766,0.664700984954834,0.4200000464916229,0.5768882036209106,4.249593246186123e-07,-3.0950657219364075e-06,-0.8168231248855591,9.837475954554975e-05,-0.0002651731192599982,-8.829450234770775e-05,0.006359452847391367,-0.001532691065222025,-0.0006955474382266402,0.39299851655960083,0.6850826144218445,0.5538759231567383,0.601253092288971,-0.21798455715179443,0.5544384717941284,0.32440251111984253,0.6730549335479736,0.42000001668930054,-0.6749487519264221,1.405653715133667,-1.4186898469924927,-3.0000007152557373,-0.17154891788959503,-0.16749323904514313,-0.16179002821445465,-0.15500415861606598,0.016925357282161713,0.002400773111730814,0.0083504943177104,0.021946435794234276
0.8666666666666667,0.10911858081817627,-0.0637606531381607,0.0,0.6996943354606628,0.0,0.0,-0.7144423127174377,-0.07334255427122116,-0.1553030014038086,0.0,0.0,0.0,-1.7706599235534668,0.3289144039154053,0.664700984954834,0.4200000464916229,0.5768882036209106,5.096929385217663e-07,-2.9557791094703134e-06,-0.8168230056762695,9.407094330526888e-05,-0.00026452314341440797,-8.740369230508804e-05,0.006367051508277655,-0.0015810226323083043,-0.0006848486373201013,0.4022755026817322,0.6828851699829102,0.5619316101074219,0.4620278477668762,-0.15170033276081085,0.5392933487892151,0.32440251111984253,0.6730549335479736,0.42000001668930054,-0.6675335168838501,-0.36825698614120483,-1.3801982402801514,3.000000238418579,-0.16985180974006653,-0.16634567081928253,-0.16090871393680573,-0.15425914525985718,0.017210694029927254,9.778887033462524e-09,-0.0038859297055751085,-0.004876602906733751
0.8833333333333333,0.10976400226354599,-0.0632198378443718,0.0,0.7041817903518677,0.0,0.0,-0.7100197076797485,0.09279000014066696,0.06675581634044647,0.0,0.0,0.0,1.500065565109253,0.32891443371772766,0.664700984954834,0.4200000464916229,0.5768881440162659,3.2390340720667155e-07,-2.9505943075491814e-06,-0.8168231844902039,9.018128184834495e-05,-0.00026771382545121014,-8.641742169857025e-05,0.0064694928005337715,-0.0016393163241446018,-0.0006808515172451735,0.4085965156555176,0.6808048486709595,0.5709102153778076,0.3353063464164734,-0.032889753580093384,0.5860465168952942,0.32440251111984253,0.6730549335479736,0.42000001668930054,-0.6473519206047058,2.5227770805358887,-1.3986822366714478,-2.999999761581421,-0.16977442800998688,-0.16663284599781036,-0.16136467456817627,-0.15481822192668915,0.07958953082561493,0.04002987593412399,0.010824228636920452,-0.012892050668597221
