vladlanda/robotic-transformer/data/env_000_episode_0283.csv
sim_time_s,robot_box_x,robot_box_y,robot_box_z,robot_box_quat_w,robot_box_quat_x,robot_box_quat_y,robot_box_quat_z,robot_box_linvel_x,robot_box_linvel_y,robot_box_linvel_z,robot_box_angvel_x,robot_box_angvel_y,robot_box_angvel_z,cube_world_x,cube_world_y,cube_world_z,cube_quat_w,cube_quat_x,cube_quat_y,cube_quat_z,cube_linvel_x,cube_linvel_y,cube_linvel_z,cube_angvel_x,cube_angvel_y,cube_angvel_z,endpoint_world_x,endpoint_world_y,endpoint_world_z,endpoint_linvel_x,endpoint_linvel_y,endpoint_linvel_z,target_cube_world_x,target_cube_world_y,target_cube_world_z,gripper_actual_pos_rad_gp_leftgearjoint,gripper_actual_vel_rad_s_gp_leftgearjoint,gripper_actual_pos_rad_gp_rotatingjoint,gripper_actual_vel_rad_s_gp_rotatingjoint,motor_angle_rad_joint1,motor_angle_rad_joint2,motor_angle_rad_joint3,motor_angle_rad_joint4,motor_speed_rad_s_joint1,motor_speed_rad_s_joint2,motor_speed_rad_s_joint3,motor_speed_rad_s_joint4
0.0,0.0,0.0,0.0,1.0,0.0,0.0,0.0,0.0,0.0,0.0,0.0,0.0,0.0,-0.34487125277519226,0.777976930141449,0.41999998688697815,1.0,0.0,0.0,0.0,0.0,0.0,0.0,0.0,0.0,0.0,3.42540442943573e-06,-0.005000244826078415,1.313499927520752,0.0,0.0,0.0,0.3357674479484558,0.7710449695587158,0.42000001668930054,-1.5707999467849731,0.0,0.0,0.0,0.0,0.0,0.0,0.0,0.0,0.0,0.0,0.0
0.016666666666666666,0.002785059390589595,0.0017201986629515886,0.0,0.9999866485595703,0.0,0.0,-0.0051646106876432896,0.24266895651817322,0.15704886615276337,0.0,0.0,0.0,-1.044628620147705,-0.3448713719844818,0.7779766321182251,0.41999998688697815,1.0,3.2799914606584935e-06,-8.339814598912199e-07,8.465387679734704e-08,-1.9833554688375443e-05,0.00017983050202019513,-6.133061833679676e-05,0.0009432226070202887,-0.004689437802881002,-0.0003198152990080416,-0.0070314351469278336,0.003960144706070423,1.3158998489379883,-0.7997684478759766,1.0324409008026123,0.18068692088127136,0.3357674479484558,0.7710449695587158,0.42000001668930054,-1.5301086902618408,3.000002384185791,-0.04586189612746239,-3.0000007152557373,0.0008392128511331975,0.000767399265896529,0.0006825081072747707,0.0005852203466929495,0.11237513273954391,0.09876447170972824,0.08432387560606003,0.06895377486944199
0.03333333333333333,0.009502801112830639,0.0063490960747003555,0.0,0.9994430541992188,0.0,0.0,-0.03337046504020691,0.46757349371910095,0.32623425126075745,0.0,0.0,0.0,-4.223079681396484,-0.34487149119377136,0.7779765725135803,0.4200000464916229,1.0,3.3908515888469992e-06,-2.13249495573109e-06,-3.7115494677664174e-08,0.000263578025624156,0.00026937643997371197,-0.00010509369894862175,-0.0017706367652863264,0.004130816552788019,-0.00013547707931138575,-0.0231032557785511,0.027717959135770798,1.3172004222869873,-1.1049351692199707,1.753132939338684,-0.010965004563331604,0.3357674479484558,0.7710449695587158,0.42000001668930054,-1.4800893068313599,3.000002861022949,-0.09590171277523041,-3.000000476837158,0.002903272630646825,0.002429647371172905,0.0019177307840436697,0.0013669615145772696,0.14850349724292755,0.11060543358325958,0.0712222084403038,0.03022860549390316
0.05,0.0192270427942276,0.013478349894285202,0.0,0.999111533164978,0.0,0.0,-0.04214445874094963,0.6171979904174805,0.4734027087688446,0.0,0.0,0.0,-0.08010502904653549,-0.34487152099609375,0.7779766321182251,0.4200000464916229,1.0,3.765189603655017e-06,-2.2119716049928684e-06,5.599928076804872e-09,0.00026530888862907887,0.00026691562379710376,-0.00010440615005791187,-0.0017244024202227592,0.004177452065050602,-0.00012949395750183612,-0.04694368317723274,0.05774868279695511,1.3146553039550781,-1.6471729278564453,1.9636516571044922,-0.28446775674819946,0.3357674479484558,0.7710449695587158,0.42000001668930054,-1.4300709962844849,3.0000007152557373,-0.14592117071151733,-3.0,0.005049984902143478,0.003942502662539482,0.0027621218468993902,0.0015063511673361063,0.13292574882507324,0.08948822319507599,0.0441354364156723,-0.0032717431895434856
0.06666666666666667,0.031530797481536865,0.022825783118605614,0.0,0.9979190230369568,0.0,0.0,-0.0644797831773758,0.7955148816108704,0.6024218797683716,0.0,0.0,0.0,-3.5287890434265137,-0.34487152099609375,0.7779765725135803,0.4200000464916229,0.9999999403953552,3.4067852539010346e-06,-2.285639766341774e-06,4.30075232316085e-07,0.0002670250250957906,0.00026791656273417175,-0.0001043803058564663,-0.001740635372698307,0.004211715888231993,-0.00012850323400925845,-0.07128540426492691,0.09534870088100433,1.308211088180542,-1.276465654373169,2.544038772583008,-0.47834134101867676,0.3357674479484558,0.7710449695587158,0.42000001668930054,-1.3800488710403442,3.000002145767212,-0.16614900529384613,0.3069172203540802,0.006158546544611454,0.004081857856363058,0.0018902923911809921,-0.0004169131861999631,0.02866833098232746,-0.045618686825037,-0.12199873477220535,-0.20055526494979858
0.08333333333333333,0.03791835531592369,0.0365481860935688,0.0,0.9931322932243347,0.0,0.0,-0.11699675023555756,0.2479085922241211,0.9110122919082642,0.0,0.0,0.0,-7.301235198974609,-0.34487152099609375,0.7779765725135803,0.4200000464916229,0.9999999403953552,3.6261167224438395e-06,-2.3353582037088927e-06,3.0319867505568254e-07,0.0002661397447809577,0.00026685098418965936,-0.00010405061766505241,-0.0017283124616369605,0.004196389112621546,-0.00012790902110282332,-0.09194229543209076,0.13890914618968964,1.2977120876312256,-1.1991727352142334,2.7193045616149902,-0.7042848467826843,0.3357674479484558,0.7710449695587158,0.42000001668930054,-1.3300485610961914,3.0000009536743164,-0.20775815844535828,-3.000000476837158,0.0006061375606805086,-0.00225416524335742,-0.005282563157379627,-0.008484726771712303,-0.4380861818790436,-0.4840562343597412,-0.5326816439628601,-0.5843017101287842
0.1,0.04844941198825836,0.05140452831983566,0.0,0.9887912273406982,0.0,0.0,-0.14930468797683716,0.7309145927429199,0.8951590657234192,0.0,0.0,0.0,-2.8134264945983887,-0.34487152099609375,0.7779765725135803,0.4200000464916229,1.0,3.4221743590023834e-06,-2.3086338387656724e-06,1.7961099274543812e-07,0.00026681629242375493,0.00026800515479408205,-0.00010440824553370476,-0.0017429791623726487,0.004207039251923561,-0.00012891215737909079,-0.11841750890016556,0.18157067894935608,1.2865233421325684,-1.7094104290008545,2.7049875259399414,-0.7156530618667603,0.3357674479484558,0.7710449695587158,0.42000001668930054,-1.2800278663635254,2.9999990463256836,-0.1995735913515091,3.000000238418579,-0.0011727255769073963,-0.005500466097146273,-0.009986169636249542,-0.014636524021625519,-0.07432408630847931,-0.16501237452030182,-0.25435447692871094,-0.3423510193824768
0.11666666666666667,0.0577135868370533,0.0637342631816864,0.0,0.9811726808547974,0.0,0.0,-0.193132683634758,0.5396156907081604,0.7245362401008606,0.0,0.0,0.0,-6.012253761291504,-0.34487152099609375,0.7779766321182251,0.4200000464916229,1.0,3.7115494251338532e-06,-2.3327434064412955e-06,2.5741127274159226e-07,0.00026485565467737615,0.0002663536579348147,-0.00010423408821225166,-0.0017182460287585855,0.004170051775872707,-0.00012915929255541414,-0.14040133357048035,0.2295956015586853,1.2747981548309326,-0.9290352463722229,3.210399627685547,-0.6531118154525757,0.3357674479484558,0.7710449695587158,0.42000001668930054,-1.2300386428833008,2.9999992847442627,-0.23103977739810944,-2.999999523162842,-0.0039039263501763344,-0.009992419742047787,-0.016202863305807114,-0.02254149690270424,-0.20403225719928741,-0.3226180672645569,-0.4382963478565216,-0.5509229302406311
0.13333333333333333,0.06351257115602493,0.07715573161840439,0.0,0.976638674736023,0.0,0.0,-0.21488822996616364,0.26466697454452515,0.837016761302948,0.0,0.0,0.0,-1.5750454664230347,-0.34487152099609375,0.7779765725135803,0.4200000464916229,1.0,3.3357478059770074e-06,-2.231917051176424e-06,3.1129582112043863e-07,0.00026669760700315237,0.0002675955183804035,-0.00010428694076836109,-0.0017371423309668899,0.004205842036753893,-0.00012839908595196903,-0.16533419489860535,0.2829892635345459,1.2589097023010254,-1.7132940292358398,3.425222396850586,-1.234824538230896,0.3357674479484558,0.7710449695587158,0.42000001668930054,-1.1980236768722534,0.9920244812965393,-0.19705531001091003,2.9999992847442627,-0.008018005639314651,-0.015772366896271706,-0.023579446598887444,-0.031442925333976746,-0.2869266867637634,-0.36481767892837524,-0.4383631646633148,-0.5074676275253296
0.15,0.0725870430469513,0.08878280222415924,0.0,0.968515932559967,0.0,0.0,-0.24895161390304565,0.590060830116272,0.6242728233337402,0.0,0.0,0.0,-4.869885444641113,-0.34487152099609375,0.7779765725135803,0.4200000464916229,1.0,3.518990752127138e-06,-2.2831172827864066e-06,-3.6256801649869885e-07,0.00026618465199135244,0.00026735785650089383,-0.0001042571384459734,-0.0017350201960653067,0.004195850808173418,-0.0001286099577555433,-0.1912095844745636,0.34549540281295776,1.2354035377502441,-1.3647305965423584,4.133903503417969,-1.613523006439209,0.3357674479484558,0.7710449695587158,0.42000001668930054,-1.153802752494812,3.0,-0.2285415232181549,-3.0000007152557373,-0.011720368638634682,-0.020755814388394356,-0.02977430261671543,-0.03877769410610199,-0.35894325375556946,-0.412148654460907,-0.4624793827533722,-0.5098068714141846
0.16666666666666666,0.07703892141580582,0.10234095901250839,0.0,0.9637665748596191,0.0,0.0,-0.26674699783325195,0.22490790486335754,0.8165103197097778,0.0,0.0,0.0,-0.7661325335502625,-0.34487152099609375,0.7779765725135803,0.4200000464916229,1.0,3.6666649521066574e-06,-2.339138518436812e-06,-3.1501363650932035e-07,0.0002659583406057209,0.00026667420752346516,-0.0001040350180119276,-0.0017253097612410784,0.00419278210029006,-0.0001277868141187355,-0.22088921070098877,0.41250091791152954,1.1988084316253662,-1.908055067062378,4.133532524108887,-2.5567939281463623,0.3357674479484558,0.7710449695587158,0.42000001668930054,-1.1207703351974487,1.0992132425308228,-0.20368340611457825,2.9999992847442627,-0.02247805707156658,-0.03151250630617142,-0.04050762578845024,-0.04947131499648094,-0.5876676440238953,-0.5849528908729553,-0.5797352194786072,-0.5722907781600952
0.18333333333333332,0.08205824345350266,0.11693456768989563,0.0,0.9555487632751465,0.0,0.0,-0.29483306407928467,0.33783048391342163,0.927166759967804,0.0,0.0,0.0,-4.454343795776367,-0.34487152099609375,0.7779765725135803,0.4200000464916229,1.0,3.814403271462652e-06,-2.3994771254365332e-06,-2.7028366389458824e-07,0.00026548991445451975,0.0002661106991581619,-0.00010391208343207836,-0.0017177541740238667,0.004184815101325512,-0.00012754372437484562,-0.24986997246742249,0.48348429799079895,1.1534755229949951,-1.4841206073760986,4.391621112823486,-2.9263291358947754,0.3357674479484558,0.7710449695587158,0.42000001668930054,-1.0763154029846191,3.0000014305114746,-0.23512160778045654,-3.0,-0.03213632106781006,-0.04121425002813339,-0.050209302455186844,-0.0591350756585598,-0.6081256866455078,-0.6088783740997314,-0.6073724627494812,-0.6039481163024902
0.2,0.08618735522031784,0.1277773082256317,0.0,0.9519147276878357,0.0,0.0,-0.3063631057739258,0.11742669343948364,0.6316838264465332,0.0,0.0,0.0,-0.41438814997673035,-0.34487152099609375,0.7779765725135803,0.4200000464916229,1.0,3.600100171752274e-06,-2.291180180691299e-06,-2.2019816015017568e-07,0.00026572911883704364,0.0002664491184987128,-0.00010398216545581818,-0.0017227096250280738,0.004188808612525463,-0.00012773361231666058,-0.2777152955532074,0.5550421476364136,1.096271276473999,-1.481835126876831,4.348415374755859,-3.979898452758789,0.3357674479484558,0.7710449695587158,0.42000001668930054,-1.026440978050232,2.9638445377349854,-0.2851504385471344,-2.9999938011169434,-0.04107724502682686,-0.049945082515478134,-0.058692727237939835,-0.06734231114387512,-0.7529746294021606,-0.6915550827980042,-0.6308740973472595,-0.5717721581459045
0.21666666666666667,0.08691444247961044,0.1413232982158661,0.0,0.9435725808143616,0.0,0.0,-0.33116579055786133,-0.0012506380444392562,0.7897070646286011,0.0,0.0,0.0,-3.957354784011841,-0.34487152099609375,0.7779765725135803,0.4200000464916229,0.9999999403953552,3.63963158633851e-06,-2.2618542061536573e-06,2.2247830600008456e-07,0.0002668750239536166,0.0002675459545571357,-0.00010411837138235569,-0.0017403949750587344,0.004211075138300657,-0.00012783941929228604,-0.3007798492908478,0.6256985664367676,1.020851731300354,-1.26332688331604,4.138772010803223,-4.89705228805542,0.3357674479484558,0.7710449695587158,0.42000001668930054,-0.9764341115951538,2.999998092651367,-0.33517780900001526,-2.9999992847442627,-0.05559561774134636,-0.06387894600629807,-0.07133521884679794,-0.0785994604229927,-0.7652039527893066,-0.7924174666404724,-0.7354949712753296,-0.6608530879020691
0.23333333333333334,0.09104225039482117,0.15043532848358154,0.0,0.9406659603118896,0.0,0.0,-0.33933401107788086,0.28046634793281555,0.40029701590538025,0.0,0.0,0.0,-0.06697113066911697,-0.34487149119377136,0.7779765725135803,0.4200000464916229,1.0,3.4206832424388267e-06,-2.316702875759802e-06,2.955990794362151e-07,0.00026680328301154077,0.000268039497314021,-0.0001044231466948986,-0.0017437469214200974,0.0042069340124726295,-0.00012899030116386712,-0.3229671120643616,0.6868911981582642,0.9321317672729492,-1.1549162864685059,3.3202896118164062,-5.697760581970215,0.3357674479484558,0.7710449695587158,0.42000001668930054,-0.9264252781867981,2.999999523162842,-0.38520514965057373,-3.000000476837158,-0.06818491220474243,-0.07620623707771301,-0.08230754733085632,-0.08803034573793411,-0.8823637366294861,-0.826468825340271,-0.7208789587020874,-0.6091142892837524
0.25,0.08972880244255066,0.16208243370056152,0.0,0.9322484731674194,0.0,0.0,-0.3618186414241791,-0.08618253469467163,0.6749247312545776,0.0,0.0,0.0,-3.650261163711548,-0.34487152099609375,0.7779765725135803,0.4200000464916229,0.9999999403953552,3.3475635063950904e-06,-2.25901885642088e-06,1.8085036401771504e-07,0.00026687642093747854,0.0002679110039025545,-0.00010439194738864899,-0.0017404319951310754,0.004208163358271122,-0.0001287051709368825,-0.3385722041130066,0.7334012985229492,0.8300436735153198,-0.7272508144378662,2.4141149520874023,-6.242858409881592,0.3357674479484558,0.7710449695587158,0.42000001668930054,-0.8764163255691528,2.9999947547912598,-0.43523526191711426,-2.999998092651367,-0.084078349173069,-0.0921507328748703,-0.09831392019987106,-0.10397651791572571,-0.6579742431640625,-0.7200990915298462,-0.7791908979415894,-0.832207441329956
0.26666666666666666,0.09330057352781296,0.1678626835346222,0.0,0.929896891117096,0.0,0.0,-0.3678203523159027,0.21457470953464508,0.26181453466415405,0.0,0.0,0.0,0.14084453880786896,-0.34487152099609375,0.7779765725135803,0.4200000464916229,0.9999999403953552,3.535622909112135e-06,-2.300120968357078e-06,-1.2684515127148188e-07,0.00026601762510836124,0.00026712229009717703,-0.00010419590398669243,-0.0017317035235464573,0.0041929371654987335,-0.00012849301856476814,-0.3523866534233093,0.7641938328742981,0.7242681980133057,-0.6705016493797302,1.2583787441253662,-6.469332695007324,0.3357674479484558,0.7710449695587158,0.42000001668930054,-0.8264073133468628,2.9999964237213135,-0.4852660894393921,-2.999997615814209,-0.09432268142700195,-0.10274729132652283,-0.10934148728847504,-0.11542350053787231,-0.8629993796348572,-0.8254234790802002,-0.7991803288459778,-0.7772231101989746
0.2833333333333333,0.09149613231420517,0.17490355670452118,0.0,0.9214451313018799,0.0,0.0,-0.38850852847099304,-0.10834396630525589,0.4660113453865051,0.0,0.0,0.0,-3.483856201171875,-0.34487152099609375,0.7779766321182251,0.4200000464916229,1.0,3.5933812796429265e-06,-2.2624792563874507e-06,-5.652345791418156e-08,0.0002670473186299205,0.00026774994330480695,-0.00010416517034173012,-0.0017431509913876653,0.004214108921587467,-0.00012789087486453354,-0.35942015051841736,0.7773181200027466,0.6163524389266968,-0.08623137325048447,0.347076952457428,-6.184167861938477,0.3357674479484558,0.7710449695587158,0.42000001668930054,-0.7763985395431519,2.9999961853027344,-0.5352964401245117,-3.0000035762786865,-0.11183026432991028,-0.12004821002483368,-0.12648355960845947,-0.1324222832918167,-0.8653528094291687,-0.895770251750946,-0.9246014356613159,-0.9503500461578369
0.3,0.08816689252853394,0.17890125513076782,0.0,0.9201407432556152,0.0,0.0,-0.39158788323402405,-0.240150585770607,0.17712241411209106,0.0,0.0,0.0,0.5496546626091003,-0.34487149119377136,0.7779765725135803,0.4200000464916229,0.9999999403953552,3.7249433262331877e-06,-2.2358831301971804e-06,3.829069044058997e-07,0.00026479671942070127,0.00026673165848478675,-0.00010453932918608189,-0.0017189139034599066,0.004166595172137022,-0.00013016266166232526,-0.3616170883178711,0.7797815203666687,0.5170130729675293,0.049181923270225525,-0.16525152325630188,-5.721680641174316,0.3357674479484558,0.7710449695587158,0.42000001668930054,-0.7263897657394409,3.0000009536743164,-0.5853258967399597,-3.000000476837158,-0.12792649865150452,-0.13616172969341278,-0.14264346659183502,-0.14863231778144836,-1.0077165365219116,-1.0058255195617676,-1.0043823719024658,-1.0032297372817993
0.31666666666666665,0.08218574523925781,0.17992931604385376,0.0,0.913868248462677,0.0,0.0,-0.4060108959674835,-0.40830308198928833,0.017323864623904228,0.0,0.0,0.0,-2.793450117111206,-0.34487152099609375,0.7779765725135803,0.4200000464916229,0.9999999403953552,3.557635409379145e-06,-2.2786798581364565e-06,2.283793776314269e-07,0.0002659858437255025,0.0002665850333869457,-0.00010399171151220798,-0.0017241572495549917,0.004193597007542849,-0.00012769611203111708,-0.35593727231025696,0.7752264738082886,0.422281950712204,0.663184642791748,-0.4304356575012207,-5.4962158203125,0.3357674479484558,0.7710449695587158,0.42000001668930054,-0.676382839679718,3.00000262260437,-0.6353530883789062,-3.0000016689300537,-0.14533565938472748,-0.15339702367782593,-0.15974800288677216,-0.16563348472118378,-1.008396029472351,-1.0063693523406982,-1.0048174858093262,-1.0035669803619385
0.3333333333333333,0.07401731610298157,0.17826397716999054,0.0,0.9145395159721375,0.0,0.0,-0.40449655055999756,-0.529507040977478,-0.14559920132160187,0.0,0.0,0.0,1.0999064445495605,-0.34512123465538025,0.7756385803222656,0.4212700426578522,0.9989027380943298,0.03269953653216362,-0.0010322259040549397,-0.033508311957120895,0.0461285263299942,-0.023115234449505806,0.03012886457145214,1.5844143629074097,-0.0900333896279335,-1.3133442401885986,-0.3575892448425293,0.7789491415023804,0.4270670413970947,-0.12763473391532898,0.18964329361915588,-0.1852652132511139,0.3357674479484558,0.7710449695587158,0.42000001668930054,-0.626433253288269,2.999988079071045,-0.6858264207839966,-2.999851703643799,-0.1486494392156601,-0.1572258174419403,-0.1637597233057022,-0.1693696677684784,-0.2688404619693756,-0.2673991024494171,-0.2541252672672272,-0.22032292187213898
0.35,0.06361556053161621,0.1739741563796997,0.0,0.9091941118240356,0.0,0.0,-0.4163725674152374,-0.6716351509094238,-0.3003532886505127,0.0,0.0,0.0,-2.438002824783325,-0.3446613848209381,0.7756215929985046,0.42081302404403687,0.9989420175552368,0.020640674978494644,-0.0008823190000839531,-0.04108354076743126,0.02416246384382248,0.010908721014857292,-0.043484706431627274,-2.312060594558716,0.1748022437095642,-0.839127242565155,-0.35752177238464355,0.7801603674888611,0.42392778396606445,0.09691566228866577,0.06016135588288307,-0.1856505423784256,0.3357674479484558,0.7710449695587158,0.42000001668930054,-0.576428234577179,2.9999871253967285,-0.7358807325363159,-2.999936819076538,-0.15423481166362762,-0.16234475374221802,-0.1682884246110916,-0.17302919924259186,-0.3740851581096649,-0.3218936622142792,-0.2677694261074066,-0.2018955796957016
0.36666666666666664,0.05107481777667999,0.16721691191196442,0.0,0.9107391238212585,0.0,0.0,-0.41298213601112366,-0.7910886406898499,-0.44643905758857727,0.0,0.0,0.0,1.3715150356292725,-0.3424597978591919,0.7788193225860596,0.4200032651424408,0.9971427917480469,-1.7895279597723857e-05,-0.0001307417987845838,-0.07553869485855103,0.21845285594463348,0.28926005959510803,-0.0004971531452611089,0.02549733594059944,-0.003897804534062743,-6.083165645599365,-0.35420674085617065,0.7832455635070801,0.4208570122718811,0.30275586247444153,0.28849634528160095,-0.15796193480491638,0.3357674479484558,0.7710449695587158,0.42000001668930054,-0.5264233350753784,2.999983787536621,-0.7859236598014832,-3.0000007152557373,-0.1619030386209488,-0.16840818524360657,-0.17273294925689697,-0.17568688094615936,-0.4597710371017456,-0.3426799476146698,-0.2256569117307663,-0.09951475262641907
0.3833333333333333,0.04205058515071869,0.15744177997112274,0.0,0.9061363935470581,0.0,0.0,-0.42298567295074463,-0.4605148434638977,-0.6361161470413208,0.0,0.0,0.0,-2.194091320037842,-0.3385821580886841,0.7837294340133667,0.420000284910202,0.9921851754188538,1.7026735804392956e-05,-1.4744066902494524e-05,-0.12477366626262665,0.31049373745918274,0.3488842248916626,-0.00046642907545901835,-0.02062171697616577,0.028707923367619514,-9.634735107421875,-0.3478342294692993,0.7874890565872192,0.4192778766155243,0.4518783986568451,0.32146039605140686,0.06578560173511505,0.3357674479484558,0.7710449695587158,0.42000001668930054,-0.4763945937156677,3.0000014305114746,-0.8359511494636536,-2.99963116645813,-0.16941653192043304,-0.17365474998950958,-0.17567595839500427,-0.17614823579788208,-0.4170484244823456,-0.2707046568393707,-0.1217651218175888,0.03791055828332901
0.4,0.030998557806015015,0.1459755152463913,0.0,0.888660192489624,0.0,0.0,-0.45856624841690063,-0.7409428954124451,-0.7127574682235718,0.0,0.0,0.0,-5.778738975524902,-0.3289147913455963,0.7938574552536011,0.42049455642700195,0.9787632822990417,-0.011905084364116192,0.0018273245077580214,-0.20463959872722626,1.120714783668518,0.7535869479179382,0.2850002348423004,-8.147242546081543,-6.73198127746582,-5.908480167388916,-0.33626681566238403,0.797205924987793,0.4208551049232483,0.9186480641365051,0.8846977949142456,0.11752425134181976,0.3357674479484558,0.7710449695587158,0.42000001668930054,-0.42633792757987976,2.981019973754883,-0.8859577775001526,-2.9976253509521484,-0.17802365124225616,-0.17939342558383942,-0.17846396565437317,-0.17578855156898499,-0.4927317202091217,-0.3181952238082886,-0.13691601157188416,0.05740194022655487
0.4166666666666667,0.02264011651277542,0.13149163126945496,0.0,0.855772078037262,0.0,0.0,-0.5173530578613281,-0.45137694478034973,-0.9124515652656555,0.0,0.0,0.0,-8.827606201171875,-0.2981773316860199,0.8156355023384094,0.42334526777267456,0.96625816822052,-0.0177280455827713,-0.026806123554706573,-0.2555627226829529,3.251392364501953,1.679957628250122,0.148485004901886,24.402379989624023,-14.70738697052002,9.774208068847656,-0.30488061904907227,0.8202517032623291,0.4229464530944824,2.8169095516204834,1.8302897214889526,0.26419222354888916,0.3357674479484558,0.7710449695587158,0.42000001668930054,-0.3897986114025116,1.4109594821929932,-0.9359778165817261,-2.9999990463256836,-0.1863115429878235,-0.1843707263469696,-0.18002209067344666,-0.17374542355537415,-0.5783324837684631,-0.34415459632873535,-0.10669933259487152,0.13662967085838318
0.43333333333333335,0.016835125163197517,0.12259843200445175,0.0,0.8056390285491943,0.0,0.0,-0.5924067497253418,-0.2972795367240906,-0.40258869528770447,0.0,0.0,0.0,-11.630757331848145,-0.22557200491428375,0.8499475717544556,0.4275691509246826,0.9478476643562317,0.042445212602615356,-0.06956496834754944,-0.3081296384334564,5.91715145111084,1.9983452558517456,0.3360235393047333,6.687695503234863,-8.58109188079834,15.600818634033203,-0.231796994805336,0.8556362390518188,0.42695820331573486,5.60374641418457,2.5275557041168213,0.3649052083492279,0.3357674479484558,0.7710449695587158,0.42000001668930054,-0.3710327446460724,0.8987082839012146,-0.8985841870307922,3.000718832015991,-0.20145884156227112,-0.19591903686523438,-0.18653951585292816,-0.17548759281635284,-0.8837254047393799,-0.7730764746665955,-0.4838053286075592,-0.21971242129802704
0.45,0.014917746186256409,0.11423512548208237,0.0,0.764835000038147,0.0,0.0,-0.6442261934280396,-0.060697317123413086,-0.4947962462902069,0.0,0.0,0.0,-6.764097690582275,-0.13498732447624207,0.8865036964416504,0.43594294786453247,0.906926155090332,0.07328427582979202,-0.0924471840262413,-0.4044351875782013,5.7210798263549805,1.2490880489349365,0.7235514521598816,20.68368148803711,-5.349699020385742,23.839969635009766,-0.14055678248405457,0.8935680985450745,0.43520525097846985,5.555467128753662,1.9927736520767212,0.6276434659957886,0.3357674479484558,0.7710449695587158,0.42000001668930054,-0.3563374876976013,0.8468033075332642,-0.9247019290924072,-3.0000030994415283,-0.21175892651081085,-0.2059735506772995,-0.19284307956695557,-0.17848484218120575,-0.537112295627594,-0.521691083908081,-0.33990561962127686,-0.18653787672519684
0.4666666666666667,0.0103616276755929,0.10822425782680511,0.0,0.7447125911712646,0.0,0.0,-0.6673853397369385,-0.2227567434310913,-0.33822113275527954,0.0,0.0,0.0,-2.276200294494629,-0.04308515042066574,0.9084821343421936,0.4468468129634857,0.8523496985435486,0.08680518716573715,-0.0893745869398117,-0.5079142451286316,5.440042972564697,-0.08965740352869034,0.7702910304069519,-5.482922077178955,7.9110565185546875,16.95005989074707,-0.048759520053863525,0.9163402318954468,0.44570252299308777,5.699366092681885,0.9137586355209351,0.6424040794372559,0.3357674479484558,0.7710449695587158,0.42000001668930054,-0.34262028336524963,0.694127082824707,-0.974725604057312,-3.000001907348633,-0.22361253201961517,-0.21593734622001648,-0.19890880584716797,-0.18118026852607727,-0.6191075444221497,-0.49418410658836365,-0.2782036066055298,-0.08513954281806946
0.48333333333333334,0.005096352659165859,0.0987720787525177,0.0,0.7176541090011597,0.0,0.0,-0.6963996887207031,-0.37744462490081787,-0.5362827777862549,0.0,0.0,0.0,-5.503643035888672,0.049019839614629745,0.9105752110481262,0.4530731737613678,0.7806926369667053,0.05709991976618767,-0.10933396220207214,-0.6126211881637573,5.339192867279053,-1.0828125476837158,0.23119845986366272,-22.753219604492188,-2.1691434383392334,-0.6483359932899475,0.041952405124902725,0.9206564426422119,0.4535628855228424,5.426438331604004,-0.40412572026252747,0.48078805208206177,0.3357674479484558,0.7710449695587158,0.42000001668930054,-0.3318985402584076,0.5454466342926025,-1.024748682975769,-3.0000009536743164,-0.23290683329105377,-0.22241802513599396,-0.2015894502401352,-0.18039573729038239,-0.7210055589675903,-0.4766521453857422,-0.2042892724275589,0.045699380338191986
0.5,0.001457769307307899,0.09389349818229675,0.0,0.7045384645462036,0.0,0.0,-0.709665834903717,-0.1421852707862854,-0.23768250644207,0.0,0.0,0.0,-1.040413737297058,0.1314246505498886,0.8960081338882446,0.45694148540496826,0.7249062061309814,0.027475038543343544,-0.09526064991950989,-0.681675374507904,4.721872329711914,-1.6019432544708252,0.28669503331184387,-3.568706512451172,-1.2521191835403442,2.996285915374756,0.12563633918762207,0.9075345993041992,0.4581637978553772,4.6481733322143555,-1.1420071125030518,0.13962747156620026,0.3357674479484558,0.7710449695587158,0.42000001668930054,-0.3230038583278656,0.48927605152130127,-1.0747708082199097,-2.9999990463256836,-0.23994578421115875,-0.2314494401216507,-0.20652058720588684,-0.1816648244857788,-0.012770913541316986,-0.4385124742984772,-0.2589462995529175,-0.1027817577123642
0.5166666666666666,0.0015232994919642806,0.08553030341863632,0.0,0.683174729347229,0.0,0.0,-0.7302549481391907,0.035757698118686676,-0.5383855700492859,0.0,0.0,0.0,-4.441718101501465,0.20172365009784698,0.8750947117805481,0.4545309543609619,0.6852530837059021,0.0016776485135778785,-0.08047398179769516,-0.7238433957099915,3.806771993637085,-1.503023386001587,-0.17889954149723053,-4.125024318695068,3.1486434936523438,-4.447458744049072,0.19718877971172333,0.8862631320953369,0.4564518928527832,3.9111318588256836,-1.5561699867248535,-0.2824515700340271,0.3357674479484558,0.7710449695587158,0.42000001668930054,-0.3120102286338806,0.7844699025154114,-1.1247929334640503,-3.0000011920928955,-0.2369670569896698,-0.2345530241727829,-0.2078855335712433,-0.1815979778766632,0.19164875149726868,-0.09088624268770218,-0.027951477095484734,0.016903148964047432
0.5333333333333333,0.004304226487874985,0.08115885406732559,0.0,0.6748250722885132,0.0,0.0,-0.7379776835441589,0.1922309696674347,-0.21630451083183289,0.0,0.0,0.0,-0.3147854208946228,0.25961485505104065,0.8488051295280457,0.4477822184562683,0.6374068856239319,-0.030246704816818237,-0.05865885689854622,-0.7676956057548523,3.0975170135498047,-1.7827537059783936,-0.4627472460269928,-2.1332526206970215,2.8883371353149414,-5.212325572967529,0.2556930184364319,0.8585464954376221,0.44997531175613403,3.148270606994629,-1.735174536705017,-0.511586606502533,0.3357674479484558,0.7710449695587158,0.42000001668930054,-0.2945684790611267,1.151929497718811,-1.174815058708191,-3.000002145767212,-0.23587428033351898,-0.23668813705444336,-0.209408238530159,-0.18282397091388702,0.1917504370212555,0.020975060760974884,-0.01344393752515316,-0.06003860756754875
0.55,0.009419843554496765,0.07377070933580399,0.0,0.6570705771446228,0.0,0.0,-0.7538290619850159,0.34809941053390503,-0.4923783838748932,0.0,0.0,0.0,-3.6993649005889893,0.30460578203201294,0.8226001262664795,0.43502599000930786,0.610345184803009,-0.06505321711301804,-0.03816218301653862,-0.7885369062423706,2.315593719482422,-2.1308491230010986,-0.7319280505180359,-9.310235023498535,-4.287898540496826,14.459824562072754,0.30134668946266174,0.831641674041748,0.43760693073272705,2.2695717811584473,-1.603257656097412,-0.8541374206542969,0.3357674479484558,0.7710449695587158,0.42000001668930054,-0.27748748660087585,0.6886286735534668,-1.2248371839523315,-3.0000009536743164,-0.2296367734670639,-0.2331535518169403,-0.20770666003227234,-0.18305005133152008,0.3411704897880554,0.22878976166248322,0.09244522452354431,-0.04989653080701828
0.5666666666666667,0.012790031731128693,0.069491446018219,0.0,0.6530256867408752,0.0,0.0,-0.7573357820510864,0.14300242066383362,-0.1905139833688736,0.0,0.0,0.0,0.28927457332611084,0.3362334668636322,0.7942748665809631,0.42220211029052734,0.6614746451377869,-0.032531753182411194,0.005398467183113098,-0.7492421865463257,1.402402639389038,-1.9348119497299194,-0.3752634525299072,25.21005630493164,-4.923073768615723,27.05223846435547,0.3313503563404083,0.8060158491134644,0.42803722620010376,1.175685167312622,-1.2036142349243164,0.07298076152801514,0.3357674479484558,0.7710449695587158,0.42000001668930054,-0.2657802402973175,1.128274917602539,-1.2747933864593506,-3.000000238418579,-0.22567814588546753,-0.23025968670845032,-0.20727577805519104,-0.18513093888759613,0.2904852330684662,0.2360800802707672,0.053458765149116516,-0.12343831360340118
0.5833333333333334,0.016950365155935287,0.06599123775959015,0.0,0.638931930065155,0.0,0.0,-0.7692632675170898,0.2948630750179291,-0.1895308941602707,0.0,0.0,0.0,-3.125213384628296,0.34604644775390625,0.7793949246406555,0.42122986912727356,0.6892470717430115,-0.021778082475066185,0.021958881989121437,-0.7238660454750061,-0.042856231331825256,-2.060577392578125,0.11807475984096527,-0.24168750643730164,-0.7596203684806824,57.13606262207031,0.34666022658348083,0.7890210151672363,0.42666685581207275,0.6166847348213196,-0.7968966960906982,-0.0989098772406578,0.3357674479484558,0.7710449695587158,0.42000001668930054,-0.26312166452407837,-0.5516738295555115,-1.2365124225616455,2.9994451999664307,-0.21747204661369324,-0.2235528528690338,-0.20472274720668793,-0.18643566966056824,0.5082680583000183,0.4364739656448364,0.1752450317144394,-0.0654221624135971
0.6,0.019219323992729187,0.0650486871600151,0.0,0.638211727142334,0.0,0.0,-0.7698609232902527,0.079593725502491,0.001975617604330182,0.0,0.0,0.0,0.6820002794265747,0.3523600101470947,0.7696676850318909,0.42184701561927795,0.6721982955932617,-0.03226962313055992,0.037033405154943466,-0.7387398481369019,-0.007545911241322756,-0.5974677205085754,0.09275791794061661,1.0913310050964355,6.901958465576172,3.4171335697174072,0.34948983788490295,0.7769821286201477,0.4281734228134155,0.007561944425106049,-0.587590217590332,0.14863447844982147,0.3357674479484558,0.7710449695587158,0.42000001668930054,-0.2812890112400055,-1.213184118270874,-1.257242202758789,-2.9928340911865234,-0.20824392139911652,-0.2153792828321457,-0.20106036961078644,-0.18686728179454803,0.5472607016563416,0.506600022315979,0.2423107922077179,0.002948722569271922
0.6166666666666667,0.022279806435108185,0.06364687532186508,0.0,0.6267791390419006,0.0,0.0,-0.7791969180107117,0.23511144518852234,-0.12976838648319244,0.0,0.0,0.0,-2.6687862873077393,0.3504881262779236,0.7632361054420471,0.42204779386520386,0.6776443123817444,-0.03673570975661278,0.03978465870022774,-0.7333933115005493,-0.23147541284561157,-0.15437455475330353,-0.027029819786548615,-0.20206095278263092,-1.3217521905899048,1.6557836532592773,0.3465500473976135,0.7715755701065063,0.4284415543079376,-0.29473382234573364,-0.1912851184606552,-0.08259820193052292,0.3357674479484558,0.7710449695587158,0.42000001668930054,-0.2876506447792053,0.2997523248195648,-1.2556837797164917,2.670121431350708,-0.19870011508464813,-0.2064918577671051,-0.19664841890335083,-0.1864769160747528,0.5353285670280457,0.518500804901123,0.26640546321868896,0.03860810399055481
0.6333333333333333,0.027646981179714203,0.05979616940021515,0.0,0.6283079981803894,0.0,0.0,-0.77796471118927,0.3613382875919342,-0.3032021224498749,0.0,0.0,0.0,1.1012672185897827,0.34682708978652954,0.761056125164032,0.4204205572605133,0.6873612999916077,-0.006854975130409002,0.007026564795523882,-0.7262491583824158,-0.21955439448356628,-0.12318900972604752,-0.12256209552288055,-0.435334175825119,-6.627277374267578,1.258564829826355,0.3430419862270355,0.7690808176994324,0.42973965406417847,-0.22435830533504486,-0.09097131341695786,0.13575191795825958,0.3357674479484558,0.7710449695587158,0.42000001668930054,-0.3238784968852997,-3.0000007152557373,-1.2788876295089722,-2.9998879432678223,-0.19199982285499573,-0.19938716292381287,-0.19306054711341858,-0.1860816329717636,0.34498468041419983,0.39010554552078247,0.2018582969903946,0.02854147180914879
0.65,0.03566458821296692,0.05768253281712532,0.0,0.6500211358070374,0.0,0.0,-0.7599161267280579,0.5313661694526672,-0.060102224349975586,0.0,0.0,0.0,4.187468528747559,0.3446480631828308,0.7600530385971069,0.4199999272823334,0.6933736801147461,-9.236634468834382e-06,-3.10027644445654e-07,-0.7205780744552612,-0.09658177942037582,-0.0518154576420784,-0.00024434307124465704,0.0017483318224549294,-0.009698200970888138,0.876564085483551,0.34046828746795654,0.7700309157371521,0.43247079849243164,-0.18340548872947693,0.15192672610282898,0.2109820693731308,0.3357674479484558,0.7710449695587158,0.42000001668930054,-0.3738710582256317,-2.9996373653411865,-1.3288477659225464,-2.99865460395813,-0.1869850754737854,-0.1935279816389084,-0.18992888927459717,-0.18532276153564453,0.3238315284252167,0.3767264783382416,0.23077884316444397,0.1086689904332161
0.6666666666666666,0.04263688623905182,0.052413247525691986,0.0,0.6580707430839539,0.0,0.0,-0.7529560923576355,0.33953407406806946,-0.31650424003601074,0.0,0.0,0.0,0.18743611872196198,0.3436543643474579,0.7596375346183777,0.42011529207229614,0.6917978525161743,0.001922973315231502,-0.0021220683120191097,-0.7220854759216309,-0.12996108829975128,-0.020491836592555046,0.0489252507686615,0.1248648390173912,-2.6689343452453613,-3.945221424102783,0.33773940801620483,0.7725043892860413,0.43704739212989807,-0.22754722833633423,0.03700936958193779,0.3053814768791199,0.3357674479484558,0.7710449695587158,0.42000001668930054,-0.4238756597042084,-2.9993302822113037,-1.3788214921951294,-2.999988555908203,-0.17945607006549835,-0.18503642082214355,-0.18345606327056885,-0.18041682243347168,0.30700182914733887,0.4172392785549164,0.3633350729942322,0.3331616520881653
0.6833333333333333,0.04983179271221161,0.044821206480264664,0.0,0.6439446806907654,0.0,0.0,-0.7650720477104187,0.47380533814430237,-0.519944965839386,0.0,0.0,0.0,-3.101306676864624,0.34195318818092346,0.7592602372169495,0.4200175106525421,0.6767142415046692,0.0002455365611240268,-0.0003342593845445663,-0.7362456321716309,-0.09164202958345413,-0.022487767040729523,-0.02390637993812561,0.08036749064922333,1.2055338621139526,-2.1594960689544678,0.33578187227249146,0.7733451724052429,0.4477923512458801,0.019559163600206375,0.04818703606724739,1.091835379600525,0.3357674479484558,0.7710449695587158,0.42000001668930054,-0.4738892912864685,-2.9999821186065674,-1.4288396835327148,-2.9999992847442627,-0.17656533420085907,-0.1800965815782547,-0.17891156673431396,-0.1759004294872284,0.10858162492513657,0.23662178218364716,0.23385180532932281,0.2510742247104645
0.7,0.0603238046169281,0.04170740395784378,0.0,0.6078336834907532,0.0,0.0,-0.7940643429756165,0.6204264163970947,-0.13962183892726898,0.0,0.0,0.0,-6.39774227142334,0.34148773550987244,0.7590850591659546,0.42000001668930054,0.6728399395942688,-1.2044060895277653e-06,3.497668785712449e-06,-0.7397879958152771,-0.008397720754146576,-0.004681808408349752,-0.0001134152989834547,-0.0016639024252071977,-0.00625072093680501,-0.251758873462677,0.34596288204193115,0.7680491209030151,0.47202810645103455,1.2141869068145752,-0.48033416271209717,1.8923109769821167,0.3357674479484558,0.7710449695587158,0.42000001668930054,-0.5239018797874451,-2.9997646808624268,-1.4788579940795898,-2.9999752044677734,-0.18107159435749054,-0.18144723773002625,-0.17905500531196594,-0.17462266981601715,-0.25940611958503723,-0.08583471924066544,-0.01115510705858469,0.07679673284292221
0.7166666666666667,0.06844853609800339,0.039972782135009766,0.0,0.5878661274909973,0.0,0.0,-0.8089582324028015,0.40584343671798706,-0.06804870069026947,0.0,0.0,0.0,-1.8984462022781372,0.3414872884750366,0.7590854167938232,0.4200000464916229,0.6728400588035583,3.346316361785284e-07,-4.098228600923903e-06,-0.7397879362106323,0.00021387725428212434,-0.00031303384457714856,-9.178509935736656e-05,0.005872153677046299,0.00046782640856690705,-0.00024655036395415664,0.3678152561187744,0.7651597261428833,0.5035749673843384,1.2382946014404297,0.041759055107831955,1.8960270881652832,0.3357674479484558,0.7710449695587158,0.42000001668930054,-0.5455771684646606,0.13085463643074036,-1.5288761854171753,-3.000000238418579,-0.18271629512310028,-0.18134893476963043,-0.17862790822982788,-0.1736954003572464,0.011151295155286789,0.0645107626914978,0.042867470532655716,0.02686338871717453
0.7333333333333333,0.07174141705036163,0.040672510862350464,0.0,0.5936793684959412,0.0,0.0,-0.8047016859054565,0.13028289377689362,0.09054120630025864,0.0,0.0,0.0,1.6840025186538696,0.34148725867271423,0.7590854167938232,0.4200000464916229,0.6728401780128479,1.00161832961021e-06,-4.338691724115051e-06,-0.7397878170013428,0.00023635716934222728,-0.00027989744557999074,-0.00010518007911741734,0.004925547633320093,0.0006806020392104983,-0.00032802080386318266,0.38604819774627686,0.7678341269493103,0.5294032096862793,0.8482707142829895,0.21849116683006287,1.2582597732543945,0.3357674479484558,0.7710449695587158,0.42000001668930054,-0.5231180191040039,2.3510918617248535,-1.4906871318817139,2.9999990463256836,-0.1809009313583374,-0.17898856103420258,-0.17675821483135223,-0.17227056622505188,0.1725257933139801,0.19460219144821167,0.163925439119339,0.13148747384548187
0.75,0.0716840922832489,0.03787519410252571,0.0,0.5870648622512817,0.0,0.0,-0.8095399141311646,0.0023218640126287937,-0.21616144478321075,0.0,0.0,0.0,-1.91190505027771,0.34148725867271423,0.7590854167938232,0.4200000464916229,0.6728402972221375,6.899313120811712e-07,-3.946512606489705e-06,-0.7397876977920532,0.00024160309112630785,-0.00028019631281495094,-0.00010685436427593231,0.004909335169941187,0.0007472280994988978,-0.00033844506833702326,0.39342164993286133,0.7707711458206177,0.5442930459976196,0.040830761194229126,0.07396732270717621,0.6861432790756226,0.3357674479484558,0.7710449695587158,0.42000001668930054,-0.4899417757987976,1.6627343893051147,-1.4406344890594482,2.9999983310699463,-0.17609953880310059,-0.1740928441286087,-0.172503262758255,-0.16875572502613068,0.2112473100423813,0.235343798995018,0.22039441764354706,0.19243495166301727
0.7666666666666666,0.07003114372491837,0.040329452604055405,0.0,0.5931819081306458,0.0,0.0,-0.8050684332847595,-0.13808442652225494,0.12307920306921005,0.0,0.0,0.0,1.6614359617233276,0.34148725867271423,0.7590854167938232,0.4200000464916229,0.6728401780128479,7.007961926319695e-07,-3.924034899682738e-06,-0.7397878170013428,0.00024086602206807584,-0.00028003082843497396,-0.0001066040713340044,0.004909259732812643,0.0007392647094093263,-0.00033702183282002807,0.39386212825775146,0.771307647228241,0.5553195476531982,0.10543572157621384,0.16379289329051971,0.625726580619812,0.3357674479484558,0.7710449695587158,0.42000001668930054,-0.45981237292289734,1.9093652963638306,-1.4579826593399048,-2.9999563694000244,-0.177830308675766,-0.1744273155927658,-0.17200902104377747,-0.16777373850345612,0.09405520558357239,0.12044744193553925,0.12775248289108276,0.12135320156812668
0.7833333333333333,0.07028710842132568,0.040086835622787476,0.0,0.5879445672035217,0.0,0.0,-0.8089012503623962,0.05178101733326912,-0.06998550891876221,0.0,0.0,0.0,-1.5292688608169556,0.34148725867271423,0.7590854167938232,0.4200000464916229,0.6728400588035583,7.094311627042771e-07,-3.900041519955266e-06,-0.7397879362106323,0.00024087006750050932,-0.00028003324405290186,-0.0001066070981323719,0.004909334238618612,0.0007392804836854339,-0.0003370313497725874,0.3907080292701721,0.7731093764305115,0.5602868795394897,-0.41723304986953735,0.07509858161211014,0.15781238675117493,0.3357674479484558,0.7710449695587158,0.42000001668930054,-0.4466434419155121,-0.15955711901187897,-1.4193755388259888,3.000000238418579,-0.17663444578647614,-0.17286522686481476,-0.1702706664800644,-0.16609053313732147,0.06332015991210938,0.08136148005723953,0.09442545473575592,0.0934504047036171
0.8,0.06925347447395325,0.040415503084659576,0.0,0.5942307710647583,0.0,0.0,-0.8042945861816406,-0.11113958805799484,0.09082575142383575,0.0,0.0,0.0,1.753584861755371,0.34148725867271423,0.7590854167938232,0.4200000464916229,0.6728401184082031,8.446288575214567e-07,-4.006572453363333e-06,-0.7397878766059875,0.00024027895415201783,-0.0002795770997181535,-0.00010653724893927574,0.004901405889540911,0.000730821571778506,-0.0003363981668371707,0.3872964382171631,0.7732000946998596,0.5629479885101318,-0.05421511083841324,-0.028147026896476746,0.21357698738574982,0.3357674479484558,0.7710449695587158,0.42000001668930054,-0.47831207513809204,-2.9999616146087646,-1.4371274709701538,-3.000000476837158,-0.17566931247711182,-0.17149369418621063,-0.1683846265077591,-0.1638323962688446,0.10906108468770981,0.1279752552509308,0.1624549925327301,0.193201944231987
0.8166666666666667,0.06988345086574554,0.03961100056767464,0.0,0.5892146229743958,0.0,0.0,-0.8079766035079956,0.08216378092765808,-0.10315027087926865,0.0,0.0,0.0,-1.5967520475387573,0.34148725867271423,0.7590853571891785,0.4200000464916229,0.6728399395942688,7.656233265151968e-07,-3.879248197335983e-06,-0.7397880554199219,0.0002434760972391814,-0.0002806187840178609,-0.00010736659169197083,0.004911367781460285,0.0007721274741925299,-0.0003417097614146769,0.3877466320991516,0.7704513072967529,0.5615774393081665,0.14030203223228455,-0.28959769010543823,-0.18169395625591278,0.3357674479484558,0.7710449695587158,0.42000001668930054,-0.5271602272987366,-2.8343303203582764,-1.4871457815170288,-3.000000238418579,-0.17494475841522217,-0.17010879516601562,-0.16599173843860626,-0.1604706048965454,0.03610054403543472,0.0903121754527092,0.16827993094921112,0.24412181973457336
0.8333333333333334,0.07332486659288406,0.03582334890961647,0.0,0.5629505515098572,0.0,0.0,-0.826490581035614,0.2554837465286255,-0.29139435291290283,0.0,0.0,0.0,-4.787509918212891,0.34148725867271423,0.7590854167938232,0.4200000464916229,0.6728401780128479,7.20529783393431e-07,-4.270229055691743e-06,-0.7397878170013428,0.00024180530454032123,-0.0002803739334922284,-0.00010693422518670559,0.004911127034574747,0.0007474599406123161,-0.0003387580218259245,0.3925195634365082,0.762263298034668,0.5607008934020996,0.46315038204193115,-0.6450761556625366,0.2241934835910797,0.3357674479484558,0.7710449695587158,0.42000001668930054,-0.5766305923461914,-2.999907970428467,-1.5371640920639038,-2.999999761581421,-0.17592845857143402,-0.17002055048942566,-0.16440653800964355,-0.1574234962463379,-0.07854699343442917,-0.014058840461075306,0.07668674737215042,0.16536156833171844
0.85,0.07953045517206192,0.03431686758995056,0.0,0.5529695153236389,0.0,0.0,-0.8332014679908752,0.40865203738212585,-0.012091542594134808,0.0,0.0,0.0,-0.41945964097976685,0.34148725867271423,0.7590854167938232,0.4200000464916229,0.6728401184082031,1.0909669754255447e-06,-4.254253326507751e-06,-0.7397878766059875,0.00023638956190552562,-0.00027924380265176296,-0.00010526622645556927,0.0049096764996647835,0.0006814795196987689,-0.0003286762221250683,0.3980344831943512,0.7559976577758789,0.5666787624359131,0.18830659985542297,-0.20381560921669006,0.45965349674224854,0.3357674479484558,0.7710449695587158,0.42000001668930054,-0.5965717434883118,0.3342224955558777,-1.5871824026107788,-3.000000238418579,-0.17656202614307404,-0.17036227881908417,-0.16403520107269287,-0.1563730388879776,0.03443493694067001,0.011536327190697193,0.011111662723124027,0.0068533653393387794
0.8666666666666667,0.08286391943693161,0.03551965951919556,0.0,0.5678905844688416,0.0,0.0,-0.8231040835380554,0.13254790008068085,0.11750967055559158,0.0,0.0,0.0,2.971977710723877,0.34148725867271423,0.7590854167938232,0.4200000464916229,0.6728402376174927,8.54076233736123e-07,-4.1565972423995845e-06,-0.739787757396698,0.00024198756727855653,-0.000280464329989627,-0.0001068837009370327,0.004914025776088238,0.0007534681935794652,-0.0003388375334907323,0.4021868407726288,0.7570363879203796,0.5721251368522644,0.24260172247886658,0.229679137468338,0.21944284439086914,0.3357674479484558,0.7710449695587158,0.42000001668930054,-0.5692779421806335,2.7112321853637695,-1.5482041835784912,2.999999761581421,-0.1729813516139984,-0.16798222064971924,-0.16247950494289398,-0.15567126870155334,0.29017534852027893,0.19667766988277435,0.12255258113145828,0.04532390832901001
0.8833333333333333,0.08232660591602325,0.032181184738874435,0.0,0.5687611699104309,0.0,0.0,-0.8225027322769165,-0.01690954715013504,-0.27079054713249207,0.0,0.0,0.0,-0.9275845885276794,0.34148725867271423,0.7590854167938232,0.4200000464916229,0.6728402376174927,8.844498324833694e-07,-4.171158252574969e-06,-0.739787757396698,0.00023985352891031653,-0.00027920634602196515,-0.00010649207979440689,0.004894603975117207,0.0007247292087413371,-0.0003359441179782152,0.4027772545814514,0.7607296705245972,0.5743457078933716,-0.16577687859535217,0.15117999911308289,0.17892470955848694,0.3357674479484558,0.7710449695587158,0.42000001668930054,-0.55229252576828,-0.41576433181762695,-1.49814772605896,3.000000476837158,-0.16544665396213531,-0.16244104504585266,-0.15862220525741577,-0.15352275967597961,0.3497178852558136,0.2524835765361786,0.16921372711658478,0.08120276033878326
