vladlanda/robotic-transformer/data/env_000_episode_0293.csv
sim_time_s,robot_box_x,robot_box_y,robot_box_z,robot_box_quat_w,robot_box_quat_x,robot_box_quat_y,robot_box_quat_z,robot_box_linvel_x,robot_box_linvel_y,robot_box_linvel_z,robot_box_angvel_x,robot_box_angvel_y,robot_box_angvel_z,cube_world_x,cube_world_y,cube_world_z,cube_quat_w,cube_quat_x,cube_quat_y,cube_quat_z,cube_linvel_x,cube_linvel_y,cube_linvel_z,cube_angvel_x,cube_angvel_y,cube_angvel_z,endpoint_world_x,endpoint_world_y,endpoint_world_z,endpoint_linvel_x,endpoint_linvel_y,endpoint_linvel_z,target_cube_world_x,target_cube_world_y,target_cube_world_z,gripper_actual_pos_rad_gp_leftgearjoint,gripper_actual_vel_rad_s_gp_leftgearjoint,gripper_actual_pos_rad_gp_rotatingjoint,gripper_actual_vel_rad_s_gp_rotatingjoint,motor_angle_rad_joint1,motor_angle_rad_joint2,motor_angle_rad_joint3,motor_angle_rad_joint4,motor_speed_rad_s_joint1,motor_speed_rad_s_joint2,motor_speed_rad_s_joint3,motor_speed_rad_s_joint4
0.0,0.0,0.0,0.0,1.0,0.0,0.0,0.0,0.0,0.0,0.0,0.0,0.0,0.0,-0.4471997916698456,0.6926538348197937,0.41999998688697815,1.0,0.0,0.0,0.0,0.0,0.0,0.0,0.0,0.0,0.0,3.42540442943573e-06,-0.005000244826078415,1.313499927520752,0.0,0.0,0.0,0.4472881257534027,0.7569820880889893,0.42000001668930054,-1.5707999467849731,0.0,0.0,0.0,0.0,0.0,0.0,0.0,0.0,0.0,0.0,0.0
0.016666666666666666,0.0028778850100934505,0.0021806680597364902,0.0,0.9998081922531128,0.0,0.0,0.019586581736803055,0.24087215960025787,0.18240931630134583,0.0,0.0,0.0,3.1418697834014893,-0.44719991087913513,0.6926535367965698,0.41999998688697815,1.0,3.2799914606584935e-06,-8.339814598912199e-07,8.465387679734704e-08,-1.9833554688375443e-05,0.00017983050202019513,-6.133061833679676e-05,0.0009432226070202887,-0.004689437802881002,-0.0003198152990080416,-0.007110234349966049,0.003379564033821225,1.3159373998641968,-0.8143353462219238,0.9868683815002441,0.18095196783542633,0.4472881257534027,0.7569820880889893,0.42000001668930054,-1.5301095247268677,3.0000011920928955,-0.04584788903594017,-2.9999992847442627,0.0008691533003002405,0.0007963840034790337,0.0007110277656465769,0.0006108740926720202,0.11094217747449875,0.09756709635257721,0.08334315568208694,0.06823883205652237
0.03333333333333333,0.008960986509919167,0.006801964715123177,0.0,0.9997960329055786,0.0,0.0,0.020196842029690742,0.40702179074287415,0.3153081238269806,0.0,0.0,0.0,-0.8691315054893494,-0.4472000300884247,0.692653477191925,0.4200000464916229,1.0,3.390885240150965e-06,-2.1324319732229924e-06,-3.711133800265998e-08,0.00026357753085903823,0.00026937859365716577,-0.00010509602725505829,-0.0017706351354718208,0.004130707122385502,-0.00013548039714805782,-0.027551982551813126,0.02615790069103241,1.3166024684906006,-1.5914454460144043,1.6158421039581299,-0.08420778810977936,0.4472881257534027,0.7569820880889893,0.42000001668930054,-1.4800903797149658,3.000002145767212,-0.09588771313428879,-3.0000009536743164,0.002990121254697442,0.002652735449373722,0.002277310471981764,0.0018607699312269688,0.1642177850008011,0.1397617906332016,0.11382108926773071,0.08630353957414627
0.05,0.017737533897161484,0.013769813813269138,0.0,0.9993806481361389,0.0,0.0,0.03518969565629959,0.5936049818992615,0.464999258518219,0.0,0.0,0.0,2.650197982788086,-0.44720005989074707,0.6926535367965698,0.4200000464916229,1.0,3.7651666389137972e-06,-2.2119106688478496e-06,5.6201381326559385e-09,0.00026530789909884334,0.00026691396487876773,-0.0001044049859046936,-0.0017242879839614034,0.004177392926067114,-0.00012949586380273104,-0.059684425592422485,0.054374344646930695,1.3115124702453613,-2.1876468658447266,1.7992808818817139,-0.4888695776462555,0.4472881257534027,0.7569820880889893,0.42000001668930054,-1.4300720691680908,3.000002384185791,-0.1459263563156128,-3.000002384185791,0.005702972877770662,0.004911105614155531,0.004047132097184658,0.003106598975136876,0.19257999956607819,0.15567196905612946,0.11689170449972153,0.07614561170339584
0.06666666666666667,0.029049601405858994,0.023062122985720634,0.0,0.9994520545005798,0.0,0.0,0.03309876471757889,0.7201718091964722,0.5951393842697144,0.0,0.0,0.0,-1.2092229127883911,-0.44720005989074707,0.692653477191925,0.4200000464916229,0.9999999403953552,3.406765927138622e-06,-2.285584969285992e-06,4.3010237504859106e-07,0.0002670253161340952,0.00026791723212227225,-0.00010437797755002975,-0.0017405577236786485,0.004211726598441601,-0.0001285084872506559,-0.09810291975736618,0.08916563540697098,1.298585295677185,-2.4384713172912598,2.261235237121582,-1.0347312688827515,0.4472881257534027,0.7569820880889893,0.42000001668930054,-1.3800537586212158,2.999997615814209,-0.19596366584300995,-3.000002145767212,0.00829329714179039,0.006815122440457344,0.00522644491866231,0.0035205248277634382,0.15269625186920166,0.10205236077308655,0.04937272518873215,-0.005405030678957701
0.08333333333333333,0.04357152059674263,0.03447578102350235,0.0,0.9999958276748657,0.0,0.0,0.0028812820091843605,0.9375689029693604,0.7269935607910156,0.0,0.0,0.0,-4.531824111938477,-0.44720005989074707,0.692653477191925,0.4200000464916229,0.9999999403953552,3.626100578912883e-06,-2.3352724838332506e-06,3.032271251868224e-07,0.00026613989030011,0.00026685124612413347,-0.00010405294597148895,-0.0017283570487052202,0.004196339752525091,-0.0001279040880035609,-0.13725179433822632,0.1311734914779663,1.2788105010986328,-2.3050389289855957,2.6501173973083496,-1.3353726863861084,0.4472881257534027,0.7569820880889893,0.42000001668930054,-1.3300316333770752,2.999998092651367,-0.23027999699115753,-1.2392398118972778,0.010093889199197292,0.0076441653072834015,0.005044391844421625,0.002285048831254244,0.08495493978261948,0.017310859635472298,-0.05247389152646065,-0.12428043782711029
0.1,0.05228711664676666,0.04980286955833435,0.0,0.9999446272850037,0.0,0.0,-0.010524268262088299,0.3843070864677429,0.996764600276947,0.0,0.0,0.0,-0.5803104043006897,-0.44720005989074707,0.692653477191925,0.4200000464916229,1.0,3.4221923215227434e-06,-2.308566536157741e-06,1.7962463516596472e-07,0.00026681568124331534,0.0002680055040400475,-0.00010440591722726822,-0.0017430472653359175,0.004207062069326639,-0.0001289081701543182,-0.17755576968193054,0.1712435483932495,1.2545961141586304,-2.3429012298583984,2.427304267883301,-1.4955480098724365,0.4472881257534027,0.7569820880889893,0.42000001668930054,-1.2800171375274658,3.0,-0.2444080114364624,-0.5118981599807739,0.005025654099881649,0.0018178606405854225,-0.0015923794126138091,-0.0052159931510686874,-0.42851537466049194,-0.47871631383895874,-0.531520664691925,-0.5870497226715088
0.11666666666666667,0.05613816902041435,0.06618848443031311,0.0,0.9993324875831604,0.0,0.0,-0.03653104603290558,0.2520044445991516,0.9373872876167297,0.0,0.0,0.0,-3.8723506927490234,-0.44720005989074707,0.6926535367965698,0.4200000464916229,1.0,3.7115428312972654e-06,-2.3326213067775825e-06,2.5742912157511455e-07,0.0002648582449182868,0.00026635496760718524,-0.00010423525236546993,-0.0017181994626298547,0.004170082975178957,-0.00012915662955492735,-0.21403837203979492,0.21452492475509644,1.2312248945236206,-2.056581974029541,2.800290584564209,-1.3202364444732666,0.4472881257534027,0.7569820880889893,0.42000001668930054,-1.2300126552581787,3.000002145767212,-0.29136067628860474,-2.999999523162842,-0.00209365994669497,-0.006590466480702162,-0.01129699032753706,-0.016224883496761322,-0.3295563757419586,-0.4354250729084015,-0.5395971536636353,-0.6419814229011536
0.13333333333333333,0.05955585092306137,0.08378534764051437,0.0,0.998975932598114,0.0,0.0,-0.04524506628513336,0.11348317563533783,1.1004366874694824,0.0,0.0,0.0,0.3385401666164398,-0.44720005989074707,0.692653477191925,0.4200000464916229,1.0,3.3357002848788397e-06,-2.231846792710712e-06,3.113198374649073e-07,0.00026669702492654324,0.00026759246247820556,-0.00010428694076836109,-0.0017370906425639987,0.004205901175737381,-0.00012840105046052486,-0.2529412508010864,0.26016613841056824,1.2064392566680908,-2.4262890815734863,2.8420023918151855,-1.6457700729370117,0.4472881257534027,0.7569820880889893,0.42000001668930054,-1.1799966096878052,2.999990940093994,-0.25706881284713745,3.0000007152557373,-0.00598820811137557,-0.01243695430457592,-0.019027983769774437,-0.025770241394639015,-0.22926340997219086,-0.3448573052883148,-0.4552968144416809,-0.5603914856910706
0.15,0.06830770522356033,0.09834986925125122,0.0,0.9978106021881104,0.0,0.0,-0.06613599509000778,0.668083906173706,0.7929602265357971,0.0,0.0,0.0,-3.468015670776367,-0.44720005989074707,0.692653477191925,0.4200000464916229,1.0,3.518902531141066e-06,-2.2830295165476855e-06,-3.6254127167012484e-07,0.00026618444826453924,0.0002673573326319456,-0.00010425667278468609,-0.0017350013367831707,0.004195848014205694,-0.00012861085997428745,-0.2908649742603302,0.3108729124069214,1.1789238452911377,-2.178051471710205,3.1825485229492188,-1.7358529567718506,0.4472881257534027,0.7569820880889893,0.42000001668930054,-1.1336315870285034,2.560075521469116,-0.2881338894367218,-3.000000238418579,-0.0058067962527275085,-0.014592763036489487,-0.0234097708016634,-0.03226252645254135,0.014155302196741104,-0.11938084661960602,-0.24651260673999786,-0.3669957220554352
0.16666666666666666,0.07562724500894547,0.10968700051307678,0.0,0.9933650493621826,0.0,0.0,-0.11500388383865356,0.2573317885398865,0.6838558316230774,0.0,0.0,0.0,-6.61630392074585,-0.44720005989074707,0.692653477191925,0.4200000464916229,1.0,3.666584689199226e-06,-2.339098045922583e-06,-3.1500240993409534e-07,0.0002659575256984681,0.0002666731015779078,-0.0001040350180119276,-0.0017252173274755478,0.004192683845758438,-0.0001277871197089553,-0.3252140283584595,0.37080466747283936,1.143927812576294,-1.8909194469451904,3.9101922512054443,-2.448580741882324,0.4472881257534027,0.7569820880889893,0.42000001668930054,-1.093125343322754,2.2878684997558594,-0.2538849413394928,3.0000011920928955,-0.01002831757068634,-0.02040689066052437,-0.030730359256267548,-0.04100392013788223,-0.5713316202163696,-0.6163585782051086,-0.6585728526115417,-0.6982628703117371
0.18333333333333332,0.07532202452421188,0.12537004053592682,0.0,0.9886035919189453,0.0,0.0,-0.1505422443151474,0.03370640426874161,0.8094149827957153,0.0,0.0,0.0,-2.689523935317993,-0.44720005989074707,0.692653477191925,0.4200000464916229,1.0,3.8142836729093688e-06,-2.399496452198946e-06,-2.702646497709793e-07,0.00026548950700089335,0.0002661104954313487,-0.00010391208343207836,-0.001717735081911087,0.004184732213616371,-0.00012753855844493955,-0.358174204826355,0.4325563311576843,1.0933712720870972,-1.994443655014038,3.820542335510254,-3.305903911590576,0.4472881257534027,0.7569820880889893,0.42000001668930054,-1.0527441501617432,2.5000381469726562,-0.2849363386631012,-2.9999988079071045,-0.024523599073290825,-0.034943368285894394,-0.045283954590559006,-0.05555284023284912,-0.6034637689590454,-0.65385502576828,-0.6997275352478027,-0.7404143810272217
0.2,0.08181186765432358,0.13848920166492462,0.0,0.9806113243103027,0.0,0.0,-0.1959627866744995,0.46788710355758667,0.7774363160133362,0.0,0.0,0.0,-6.47826623916626,-0.44720005989074707,0.692653477191925,0.4200000464916229,1.0,3.5999546525999904e-06,-2.29117563321779e-06,-2.201807944857137e-07,0.00026573013747110963,0.0002664492931216955,-0.00010398216545581818,-0.0017227286007255316,0.004188793711364269,-0.00012772979971487075,-0.390669584274292,0.49884510040283203,1.0308767557144165,-1.742746353149414,4.08947229385376,-4.165953159332275,0.4472881257534027,0.7569820880889893,0.42000001668930054,-1.0042425394058228,2.999879837036133,-0.3349633514881134,-3.0000009536743164,-0.033105093985795975,-0.04414403438568115,-0.05503997206687927,-0.06579440832138062,-0.6093798279762268,-0.6119715571403503,-0.6125723123550415,-0.611134946346283
0.21666666666666667,0.08401987701654434,0.1482507437467575,0.0,0.9752522110939026,0.0,0.0,-0.2210952341556549,0.08451414853334427,0.5278950929641724,0.0,0.0,0.0,-1.89785635471344,-0.44720005989074707,0.692653477191925,0.4200000464916229,0.9999999403953552,3.639532678789692e-06,-2.2619306037086062e-06,2.2248445930017624e-07,0.0002668747038114816,0.00026754592545330524,-0.00010411953553557396,-0.0017404153477400541,0.004211057908833027,-0.00012783646525349468,-0.42055636644363403,0.5582966804504395,0.9519498348236084,-1.499559760093689,3.4652915000915527,-5.157881736755371,0.4472881257534027,0.7569820880889893,0.42000001668930054,-0.9542374610900879,2.9999992847442627,-0.3849909007549286,-2.999999523162842,-0.04846712201833725,-0.05927281454205513,-0.0699416846036911,-0.07989431172609329,-0.9378262162208557,-0.9240505695343018,-0.9138685464859009,-0.8651363849639893
0.23333333333333334,0.08241499960422516,0.1586725264787674,0.0,0.9665994644165039,0.0,0.0,-0.2562916874885559,-0.1700557917356491,0.6724148988723755,0.0,0.0,0.0,-5.189477443695068,-0.4472000300884247,0.692653477191925,0.4200000464916229,1.0,3.420603889026097e-06,-2.316783593414584e-06,2.955996194486943e-07,0.0002668003144208342,0.00026803926448337734,-0.00010442547500133514,-0.0017437470378354192,0.004206856247037649,-0.00012899252760689706,-0.44463467597961426,0.6122335195541382,0.8591636419296265,-1.1688249111175537,3.0166592597961426,-5.86789083480835,0.4472881257534027,0.7569820880889893,0.42000001668930054,-0.9042271375656128,3.000001907348633,-0.4350208342075348,-2.999999523162842,-0.06497789919376373,-0.07574082911014557,-0.08633731305599213,-0.09617430716753006,-0.9891712665557861,-0.9912183880805969,-0.9885833859443665,-0.9774271845817566
0.25,0.08471264690160751,0.16536684334278107,0.0,0.9619749784469604,0.0,0.0,-0.27313756942749023,0.16889050602912903,0.3135206401348114,0.0,0.0,0.0,-0.9334774017333984,-0.44720005989074707,0.692653477191925,0.4200000464916229,0.9999999403953552,3.3474857445980888e-06,-2.259099801449338e-06,1.8085007980062073e-07,0.0002668778761290014,0.0002679106255527586,-0.00010439264588057995,-0.0017403945093974471,0.004208182916045189,-0.00012870083446614444,-0.4642172157764435,0.652420163154602,0.7582736015319824,-0.858974814414978,1.969612717628479,-6.271884441375732,0.4472881257534027,0.7569820880889893,0.42000001668930054,-0.8542165160179138,2.9999983310699463,-0.48505160212516785,-3.000000476837158,-0.08029752969741821,-0.0909559428691864,-0.10144128650426865,-0.11076004058122635,-0.9903654456138611,-0.9918003082275391,-0.9905838966369629,-0.9558548927307129
0.26666666666666666,0.08235197514295578,0.1693621575832367,0.0,0.9533529877662659,0.0,0.0,-0.30185776948928833,-0.23787204921245575,0.15886130928993225,0.0,0.0,0.0,-4.4464287757873535,-0.44720005989074707,0.692653477191925,0.4200000464916229,0.9999999403953552,3.5355067211639835e-06,-2.300224196005729e-06,-1.268352605166001e-07,0.00026601649005897343,0.00026712138787843287,-0.00010419590398669243,-0.0017317088786512613,0.004192848689854145,-0.00012849301856476814,-0.47216594219207764,0.6756103038787842,0.6506657004356384,0.006496608257293701,0.8806759119033813,-6.420240879058838,0.4472881257534027,0.7569820880889893,0.42000001668930054,-0.8042071461677551,2.9999985694885254,-0.5350826978683472,-3.000000476837158,-0.09799438714981079,-0.10836982727050781,-0.11864262819290161,-0.12779748439788818,-1.0025806427001953,-1.0019361972808838,-1.0014463663101196,-1.0010576248168945
0.2833333333333333,0.08258727192878723,0.16962170600891113,0.0,0.9501661062240601,0.0,0.0,-0.31174418330192566,0.17756476998329163,-0.04597824439406395,0.0,0.0,0.0,-0.3088570535182953,-0.44720005989074707,0.6926535367965698,0.4200000464916229,1.0,3.5932616810896434e-06,-2.262525640617241e-06,-5.6512288182375414e-08,0.0002670471731107682,0.0002677500306162983,-0.00010416633449494839,-0.0017431105952709913,0.004214080516248941,-0.00012789359607268125,-0.4715351462364197,0.686242938041687,0.5486491918563843,0.25002366304397583,0.4268583059310913,-5.893449783325195,0.4472881257534027,0.7569820880889893,0.42000001668930054,-0.7541983723640442,2.999999523162842,-0.585112452507019,-3.0000014305114746,-0.11425360292196274,-0.12471087276935577,-0.13507069647312164,-0.14432024955749512,-0.9570893049240112,-0.9676993489265442,-0.9773722887039185,-0.9873310327529907
0.3,0.08069444447755814,0.16787895560264587,0.0,0.9430825710296631,0.0,0.0,-0.3325587213039398,-0.2143232524394989,-0.1500142514705658,0.0,0.0,0.0,-3.76108980178833,-0.4472000300884247,0.692653477191925,0.4200000464916229,0.9999999403953552,3.724804400917492e-06,-2.235953161289217e-06,3.8291349824248755e-07,0.0002647969813551754,0.000266731163719669,-0.00010454165749251842,-0.0017189544159919024,0.0041666291654109955,-0.0001301672455156222,-0.4612014889717102,0.6898595094680786,0.4543696641921997,1.0297967195510864,0.07172495871782303,-5.319080829620361,0.4472881257534027,0.7569820880889893,0.42000001668930054,-0.7041904926300049,3.000002145767212,-0.6351401805877686,-3.000000238418579,-0.13245268166065216,-0.1425567865371704,-0.1526484191417694,-0.16168439388275146,-1.0153453350067139,-1.0116263628005981,-1.0087850093841553,-1.0065056085586548
0.31666666666666665,0.07521859556436539,0.16404376924037933,0.0,0.9411698579788208,0.0,0.0,-0.33793380856513977,-0.2852204740047455,-0.2943113148212433,0.0,0.0,0.0,0.2531641721725464,-0.4471607208251953,0.6925304532051086,0.42000123858451843,0.9999963641166687,5.27464144397527e-05,1.6899774664125289e-06,-0.002681477228179574,0.009064805693924427,0.022530071437358856,-0.002872311510145664,-0.15911582112312317,0.030812658369541168,1.9992047548294067,-0.4536343216896057,0.6908280849456787,0.424641877412796,0.44829362630844116,0.40223103761672974,-0.13100722432136536,0.4472881257534027,0.7569820880889893,0.42000001668930054,-0.6543104648590088,2.981205940246582,-0.6857393980026245,-2.7961432933807373,-0.14118629693984985,-0.15200576186180115,-0.1625697910785675,-0.17176410555839539,-0.1046682596206665,-0.18259049952030182,-0.23509858548641205,-0.2572147846221924
0.3333333333333333,0.06858164072036743,0.15757063031196594,0.0,0.934703528881073,0.0,0.0,-0.35542839765548706,-0.4522269666194916,-0.43160223960876465,0.0,0.0,0.0,-3.1885409355163574,-0.4465320408344269,0.693829357624054,0.4199998080730438,0.9997922778129578,1.5094752598088235e-05,-4.177849859843263e-06,-0.020376719534397125,0.16614586114883423,0.33848807215690613,-0.00013367453357204795,-0.008725187741219997,0.014566830359399319,-9.34945297241211,-0.4483989179134369,0.6985146999359131,0.4272376000881195,0.42758721113204956,0.43307730555534363,-0.14663177728652954,0.4472881257534027,0.7569820880889893,0.42000001668930054,-0.6043040752410889,2.999971628189087,-0.7358025312423706,-2.9999470710754395,-0.14347584545612335,-0.15503932535648346,-0.16590699553489685,-0.17493821680545807,-0.2531364858150482,-0.2508271336555481,-0.22707687318325043,-0.18361981213092804
0.35,0.05948057770729065,0.1488647609949112,0.0,0.9340199828147888,0.0,0.0,-0.3572208285331726,-0.5850780606269836,-0.5603110194206238,0.0,0.0,0.0,0.7147741913795471,-0.4409927725791931,0.7039047479629517,0.42006465792655945,0.9938445091247559,0.0014975136145949364,-9.600117482477799e-05,-0.11077386140823364,0.42191261053085327,0.7244483232498169,-0.0031142011284828186,0.09159711003303528,-0.1611321121454239,-3.1306350231170654,-0.4413226544857025,0.7075042724609375,0.4248232841491699,0.4703288674354553,0.6476104259490967,-0.12497790902853012,0.4472881257534027,0.7569820880889893,0.42000001668930054,-0.5542989373207092,2.999985694885254,-0.7858379483222961,-2.999951124191284,-0.14937560260295868,-0.16016265749931335,-0.16991156339645386,-0.17755915224552155,-0.38653960824012756,-0.312295138835907,-0.21912354230880737,-0.11362722516059875
0.36666666666666664,0.04807007312774658,0.13795050978660583,0.0,0.9279125928878784,0.0,0.0,-0.37279778718948364,-0.7300775647163391,-0.693772554397583,0.0,0.0,0.0,-2.924349546432495,-0.4326869249343872,0.7172879576683044,0.4200005531311035,0.9909201860427856,-1.7924630810739473e-05,2.277150997542776e-05,-0.13445067405700684,0.6236020922660828,0.9467873573303223,-0.0012749263551086187,0.05388149246573448,-0.03269529342651367,-3.475986957550049,-0.4318166971206665,0.7192188501358032,0.42348313331604004,0.6915432214736938,0.8353614807128906,-0.053117536008358,0.4472881257534027,0.7569820880889893,0.42000001668930054,-0.5042941570281982,2.999995708465576,-0.8358870148658752,-2.999978542327881,-0.15619251132011414,-0.16546271741390228,-0.1733378916978836,-0.1788896918296814,-0.403562068939209,-0.29695481061935425,-0.1694474071264267,-0.030231602489948273
0.3833333333333333,0.039079997688531876,0.12428849190473557,0.0,0.9106378555297852,0.0,0.0,-0.4132053852081299,-0.46316391229629517,-0.8732514977455139,0.0,0.0,0.0,-6.099402904510498,-0.41926467418670654,0.7368603348731995,0.42009881138801575,0.9860600829124451,0.0007697123219259083,-0.0015855173114687204,-0.1663798987865448,1.0410045385360718,1.4621647596359253,0.05620143190026283,0.7222113609313965,-1.9134448766708374,-4.975394248962402,-0.4178488254547119,0.7366891503334045,0.42392271757125854,1.0378754138946533,1.3332650661468506,0.09405265748500824,0.4472881257534027,0.7569820880889893,0.42000001668930054,-0.4542902112007141,2.999981164932251,-0.8859391808509827,-2.9999871253967285,-0.16300904750823975,-0.17015427350997925,-0.1755063384771347,-0.17830853164196014,-0.37623903155326843,-0.23733940720558167,-0.07403954863548279,0.10281039774417877
0.4,0.03402283787727356,0.10771401226520538,0.0,0.8799363970756531,0.0,0.0,-0.47509148716926575,-0.21206159889698029,-1.0420812368392944,0.0,0.0,0.0,-8.973885536193848,-0.3881534934043884,0.7694672346115112,0.4227099120616913,0.9762633442878723,0.0216504093259573,-0.02221684157848358,-0.21435382962226868,2.7510011196136475,2.5014231204986572,0.5136095881462097,-11.23115062713623,0.4188642203807831,-8.951069831848145,-0.38637202978134155,0.7688559293746948,0.4275270700454712,2.773076295852661,2.5555403232574463,0.38215869665145874,0.4472881257534027,0.7569820880889893,0.42000001668930054,-0.4088263511657715,1.8873074054718018,-0.9112878441810608,-0.2435910850763321,-0.17154403030872345,-0.17558960616588593,-0.17750972509384155,-0.17675453424453735,-0.5622566342353821,-0.3525078594684601,-0.12770061194896698,0.09912972897291183
0.4166666666666667,0.026973465457558632,0.09679290652275085,0.0,0.8312637209892273,0.0,0.0,-0.555878221988678,-0.5409149527549744,-0.5014941096305847,0.0,0.0,0.0,-12.20345687866211,-0.3162428140640259,0.819503903388977,0.43165040016174316,0.9560937881469727,0.08946032077074051,-0.052013181149959564,-0.2741827070713043,5.623783588409424,3.0355911254882812,0.693705677986145,6.8738932609558105,-7.101090431213379,7.481242656707764,-0.3154422342777252,0.8174612522125244,0.43637600541114807,5.420040130615234,3.384981155395508,0.6994275450706482,0.4472881257534027,0.7569820880889893,0.42000001668930054,-0.38737693428993225,1.3531475067138672,-0.8648602962493896,2.9993720054626465,-0.1872740387916565,-0.1884952336549759,-0.18520356714725494,-0.17958654463291168,-0.9413541555404663,-0.9138422608375549,-0.5976430773735046,-0.31349581480026245
0.43333333333333335,0.021442627534270287,0.09019516408443451,0.0,0.7895387411117554,0.0,0.0,-0.6137006878852844,-0.2747541069984436,-0.40185850858688354,0.0,0.0,0.0,-7.311779975891113,-0.2220291644334793,0.86870938539505,0.44466930627822876,0.9236034750938416,0.1293243020772934,-0.06832686066627502,-0.3543488383293152,5.991183280944824,2.3484466075897217,1.0083526372909546,-6.738600254058838,2.51727032661438,-0.8842287659645081,-0.2212703675031662,0.8687121868133545,0.4493355453014374,5.98457670211792,2.8293023109436035,0.9243208169937134,0.4472881257534027,0.7569820880889893,0.42000001668930054,-0.3648064434528351,1.4549694061279297,-0.8911758661270142,-2.9990956783294678,-0.20029427111148834,-0.2018134742975235,-0.19540321826934814,-0.18500687181949615,-0.6875572800636292,-0.6859344840049744,-0.5251913070678711,-0.28057485818862915
0.45,0.020700430497527122,0.07895848900079727,0.0,0.7675957083702087,0.0,0.0,-0.6409343481063843,0.020755570381879807,-0.6295831203460693,0.0,0.0,0.0,-2.747811794281006,-0.11508937925100327,0.9072533845901489,0.4603942930698395,0.8635610342025757,0.15123847126960754,-0.06160527840256691,-0.4770682454109192,6.7903900146484375,1.049874186515808,0.9137043952941895,-9.435745239257812,-0.7659554481506348,-3.687595844268799,-0.11682723462581635,0.9075867533683777,0.463016152381897,6.736126899719238,1.664873719215393,0.8995490670204163,0.4472881257534027,0.7569820880889893,0.42000001668930054,-0.3387136459350586,1.4295532703399658,-0.9411998987197876,-2.999999523162842,-0.21135175228118896,-0.21128280460834503,-0.20134089887142181,-0.18642568588256836,-0.9484533071517944,-0.7274202108383179,-0.42867210507392883,-0.09589894860982895
0.4666666666666667,0.018471118062734604,0.0723632425069809,0.0,0.7398751974105835,0.0,0.0,-0.67274409532547,-0.1789228767156601,-0.34174156188964844,0.0,0.0,0.0,-5.848327159881592,-0.0037917234003543854,0.9208391308784485,0.47293585538864136,0.795332670211792,0.16093848645687103,-0.06766777485609055,-0.5804874897003174,6.652604103088379,-0.6505023241043091,0.553475022315979,-9.816080093383789,-17.851045608520508,25.168746948242188,-0.005251195281744003,0.9233457446098328,0.4758533239364624,6.84212589263916,0.3512130677700043,0.8447290658950806,0.4472881257534027,0.7569820880889893,0.42000001668930054,-0.3217034637928009,0.5899785757064819,-0.991223931312561,-3.0000016689300537,-0.22492073476314545,-0.2247014343738556,-0.20995718240737915,-0.18960951268672943,-0.765539824962616,-0.7125549912452698,-0.4456818401813507,-0.15610116720199585
0.48333333333333334,0.018018245697021484,0.06918463110923767,0.0,0.7259922623634338,0.0,0.0,-0.6877028346061707,0.027576452121138573,-0.1171625629067421,0.0,0.0,0.0,-1.2990853786468506,0.10448801517486572,0.9159934520721436,0.48080557584762573,0.720535933971405,0.1504771113395691,-0.0750507041811943,-0.6727197766304016,5.942728042602539,-1.395719289779663,0.2690514028072357,-8.39673137664795,9.036149978637695,6.531425476074219,0.10207459330558777,0.9191025495529175,0.4837094843387604,6.313509941101074,-0.8742985129356384,0.32197660207748413,0.4472881257534027,0.7569820880889893,0.42000001668930054,-0.3150847852230072,0.3209201395511627,-1.041249394416809,-2.9994056224823,-0.2373376041650772,-0.23532557487487793,-0.2163822501897812,-0.1918056607246399,-0.6811330318450928,-0.5351927280426025,-0.30591487884521484,-0.09255119413137436
0.5,0.015971845015883446,0.06115127354860306,0.0,0.7028552889823914,0.0,0.0,-0.7113328576087952,-0.11627472192049026,-0.4607774317264557,0.0,0.0,0.0,-4.746152877807617,0.201874777674675,0.8950387835502625,0.4800098240375519,0.6472432613372803,0.13139913976192474,-0.07014424353837967,-0.7475894689559937,5.0856404304504395,-2.17466402053833,-0.2708386182785034,-7.159206867218018,6.633319854736328,12.351454734802246,0.199052631855011,0.9009126424789429,0.4834822416305542,5.607377529144287,-1.6839594841003418,-0.19364182651042938,0.4472881257534027,0.7569820880889893,0.42000001668930054,-0.30594968795776367,0.6733514666557312,-1.0912715196609497,-2.999898672103882,-0.23909680545330048,-0.23878318071365356,-0.21709100902080536,-0.19015854597091675,-0.1568889319896698,-0.2731318771839142,-0.08055155724287033,0.06918899714946747
0.5166666666666666,0.016671981662511826,0.05816948413848877,0.0,0.6930105686187744,0.0,0.0,-0.7209274172782898,0.05739995092153549,-0.16599196195602417,0.0,0.0,0.0,-0.34339234232902527,0.28285688161849976,0.8604124784469604,0.47262394428253174,0.6059880256652832,0.10169573873281479,-0.06815191358327866,-0.7859973311424255,4.018690586090088,-2.6819140911102295,-0.6731024384498596,-11.599876403808594,0.45891517400741577,11.884644508361816,0.2813034653663635,0.866043210029602,0.4766172170639038,4.467394828796387,-2.269056797027588,-0.5525222420692444,0.4472881257534027,0.7569820880889893,0.42000001668930054,-0.29315808415412903,0.7401587963104248,-1.1412936449050903,-2.999999523162842,-0.2392411082983017,-0.23931702971458435,-0.22150391340255737,-0.19218780100345612,0.16346511244773865,0.1526142954826355,-0.12181796133518219,-0.0629114881157875
0.5333333333333333,0.019658315926790237,0.057751819491386414,0.0,0.6769701242446899,0.0,0.0,-0.7360104918479919,0.22916913032531738,0.056675806641578674,0.0,0.0,0.0,-3.5011284351348877,0.34923428297042847,0.82490074634552,0.4566510319709778,0.5495116710662842,0.03810272738337517,-0.0772579163312912,-0.8310331702232361,3.241128921508789,-2.381444215774536,-0.9835201501846313,-7.7562055587768555,0.6667246222496033,19.04201316833496,0.3477008640766144,0.8314772844314575,0.46286702156066895,3.6779544353485107,-2.1146364212036133,-0.9790377616882324,0.4472881257534027,0.7569820880889893,0.42000001668930054,-0.28077489137649536,0.6692045331001282,-1.191315770149231,-3.0000014305114746,-0.2347460240125656,-0.23540951311588287,-0.2223837971687317,-0.19357697665691376,0.32378482818603516,0.28832778334617615,0.0073470668867230415,-0.08768529444932938
0.55,0.025715436786413193,0.05339036509394646,0.0,0.6733940243721008,0.0,0.0,-0.7392838001251221,0.3346410095691681,-0.24959616363048553,0.0,0.0,0.0,0.34478408098220825,0.40250641107559204,0.7899685502052307,0.4368431270122528,0.4722099006175995,-0.01624256558716297,-0.08814093470573425,-0.8769178986549377,2.4928226470947266,-2.1833555698394775,-1.1028674840927124,0.8890419006347656,7.286935806274414,-3.1811983585357666,0.3999563157558441,0.7974874973297119,0.44481751322746277,2.6188907623291016,-2.067202091217041,-1.1724263429641724,0.4472881257534027,0.7569820880889893,0.42000001668930054,-0.2670131027698517,1.0211586952209473,-1.2413378953933716,-2.9999306201934814,-0.22550305724143982,-0.2269841730594635,-0.21869170665740967,-0.19260543584823608,0.444155216217041,0.43834859132766724,0.2042667418718338,0.027356304228305817
0.5666666666666667,0.03333735466003418,0.05333096906542778,0.0,0.6598413586616516,0.0,0.0,-0.751404881477356,0.5188401341438293,-0.0017662930767983198,0.0,0.0,0.0,-2.972513437271118,0.44033515453338623,0.7645544409751892,0.42028191685676575,0.4577978253364563,-0.001795188756659627,0.003452547825872898,-0.8890478014945984,1.7681883573532104,-1.0379393100738525,-0.050061918795108795,-1.4572179317474365,-1.9296963214874268,6.923938274383545,0.43814393877983093,0.7697374820709229,0.4251350164413452,1.7261966466903687,-1.1198407411575317,-0.5449545383453369,0.4472881257534027,0.7569820880889893,0.42000001668930054,-0.24822066724300385,1.112785816192627,-1.2912678718566895,-2.9734690189361572,-0.21842333674430847,-0.22048045694828033,-0.2162065953016281,-0.19390921294689178,0.6066858768463135,0.5116808414459229,0.23707127571105957,-0.05306604877114296
0.5833333333333334,0.04348624870181084,0.05255192518234253,0.0,0.6593683958053589,0.0,0.0,-0.7518200278282166,0.6362772583961487,-0.010403366759419441,0.0,0.0,0.0,0.8311246037483215,0.4583856165409088,0.7538300156593323,0.4209994673728943,0.46555763483047485,0.015482710674405098,-0.009012245573103428,-0.8848361968994141,0.5191094875335693,-1.016717553138733,0.22988831996917725,13.160625457763672,-9.942155838012695,6.4811601638793945,0.45538121461868286,0.757938802242279,0.4264809191226959,0.5698439478874207,-0.5508326292037964,0.17224834859371185,0.4472881257534027,0.7569820880889893,0.42000001668930054,-0.23821915686130524,0.24318820238113403,-1.253051996231079,3.0000243186950684,-0.20734049379825592,-0.2109176218509674,-0.2107723504304886,-0.19337910413742065,0.5594907402992249,0.5036931037902832,0.30647116899490356,0.030132507905364037
0.6,0.05085378885269165,0.05459405854344368,0.0,0.6479634046554565,0.0,0.0,-0.7616714239120483,0.37516459822654724,0.17294324934482574,0.0,0.0,0.0,-2.751647710800171,0.46643054485321045,0.7465606331825256,0.4200066030025482,0.49581342935562134,-0.0002725212834775448,0.0006481963209807873,-0.8684287667274475,0.12643598020076752,-0.18270663917064667,-0.01905033178627491,-0.5818775296211243,-0.8034878969192505,6.011353015899658,0.46174994111061096,0.7510095834732056,0.4245038628578186,-0.0019098743796348572,-0.09991095215082169,0.18681032955646515,0.4472881257534027,0.7569820880889893,0.42000001668930054,-0.26940566301345825,-2.995941162109375,-1.2736279964447021,-2.999281406402588,-0.19718116521835327,-0.20209141075611115,-0.20525582134723663,-0.19278337061405182,0.6469529271125793,0.5593332648277283,0.37277817726135254,0.07491084188222885
0.6166666666666667,0.05848507955670357,0.059425514191389084,0.0,0.6489596962928772,0.0,0.0,-0.7608227729797363,0.49513280391693115,0.34969228506088257,0.0,0.0,0.0,1.0569998025894165,0.4669365882873535,0.7445873022079468,0.420000284910202,0.5254548788070679,-7.5060206654598005e-06,-2.3295601749850903e-06,-0.8508213758468628,-0.03357776626944542,-0.08303046971559525,-0.0005340155912563205,0.022542458027601242,-0.013860706239938736,3.137885808944702,0.461811363697052,0.7497581243515015,0.4273008704185486,0.05870465934276581,-0.018211208283901215,0.17296931147575378,0.4472881257534027,0.7569820880889893,0.42000001668930054,-0.3017474412918091,-1.0474046468734741,-1.3235993385314941,-2.998629570007324,-0.1872272491455078,-0.19348692893981934,-0.19932886958122253,-0.19156306982040405,0.5902149677276611,0.5124295353889465,0.37005579471588135,0.09716659039258957
0.6333333333333333,0.06796669960021973,0.061050895601511,0.0,0.638706624507904,0.0,0.0,-0.769450306892395,0.5992099046707153,0.06146352365612984,0.0,0.0,0.0,-2.5390594005584717,0.4658002257347107,0.7444689273834229,0.42000049352645874,0.5539473295211792,3.472554453765042e-05,-1.5478181012440473e-05,-0.8325515985488892,-0.17311112582683563,0.11858160048723221,-0.0010400502942502499,0.011125161312520504,0.053180545568466187,4.309558391571045,0.4602079391479492,0.7529632449150085,0.42746037244796753,-0.2776934802532196,0.24399495124816895,-0.008432500064373016,0.4472881257534027,0.7569820880889893,0.42000001668930054,-0.34504640102386475,-2.9998981952667236,-1.2921265363693237,2.9998693466186523,-0.17555388808250427,-0.1833629608154297,-0.19159114360809326,-0.18844428658485413,0.6083803772926331,0.5429959893226624,0.43676483631134033,0.19066300988197327
0.65,0.07984279096126556,0.06590583920478821,0.0,0.6407560706138611,0.0,0.0,-0.7677445411682129,0.729997992515564,0.3070876896381378,0.0,0.0,0.0,1.233482003211975,0.4631289839744568,0.7463760375976562,0.4200000464916229,0.5735266804695129,2.2059136881580343e-06,2.7305048888592864e-07,-0.819186806678772,-0.16724340617656708,0.12671630084514618,-1.22939877655881e-06,-5.0771985115716234e-05,7.337522401940078e-05,2.4150595664978027,0.4568217992782593,0.7570831775665283,0.429321825504303,-0.14125390350818634,0.3596441447734833,0.1622219681739807,0.4472881257534027,0.7569820880889893,0.42000001668930054,-0.3950897753238678,-2.999927520751953,-1.311944842338562,-2.9999399185180664,-0.16862307488918304,-0.1772080808877945,-0.1867295652627945,-0.1872192621231079,0.4377181828022003,0.37109506130218506,0.2836534380912781,0.05971137806773186
0.6666666666666666,0.08871357142925262,0.06630084663629532,0.0,0.6645379066467285,0.0,0.0,-0.7472545504570007,0.45840007066726685,-0.022143760696053505,0.0,0.0,0.0,4.507382869720459,0.4611341953277588,0.7478675246238708,0.4200000464916229,0.5835174918174744,6.862647978778114e-07,2.8217479552949953e-07,-0.8121004700660706,-0.10365135967731476,0.07701794058084488,-6.061512976884842e-06,-8.071574120549485e-05,-0.0002739465853665024,1.1843855381011963,0.454900324344635,0.761368989944458,0.4323135316371918,-0.14275196194648743,0.171676903963089,0.20706099271774292,0.4472881257534027,0.7569820880889893,0.42000001668930054,-0.44513314962387085,-2.9999923706054688,-1.3619203567504883,-2.998953104019165,-0.1612873524427414,-0.170362651348114,-0.18054939806461334,-0.18387168645858765,0.306944876909256,0.32679352164268494,0.34337112307548523,0.23493225872516632
0.6833333333333333,0.09756988286972046,0.06321770697832108,0.0,0.6734578609466553,0.0,0.0,-0.7392255663871765,0.5621424913406372,-0.23558060824871063,0.0,0.0,0.0,0.4129873812198639,0.46018463373184204,0.7485654950141907,0.42000147700309753,0.5866491794586182,4.402080594445579e-05,0.0001017492832033895,-0.8098411560058594,-0.06395532935857773,0.04221554100513458,-0.004787615966051817,-0.23813031613826752,-0.09715189784765244,-0.8064760565757751,0.45452460646629333,0.7644786834716797,0.43698543310165405,-0.036232806742191315,0.17354419827461243,0.3153756558895111,0.4472881257534027,0.7569820880889893,0.42000001668930054,-0.49513283371925354,-2.9958462715148926,-1.4119073152542114,-2.9996674060821533,-0.15726439654827118,-0.16533802449703217,-0.17434392869472504,-0.17830967903137207,0.18934328854084015,0.28742486238479614,0.405706524848938,0.4267590343952179
0.7,0.10809969156980515,0.05695105716586113,0.0,0.660112738609314,0.0,0.0,-0.751166582107544,0.6663274168968201,-0.43755990266799927,0.0,0.0,0.0,-3.0412325859069824,0.45993849635124207,0.7487297058105469,0.4200000464916229,0.5857130885124207,5.888980012969114e-06,-1.5902574887149967e-05,-0.8105184435844421,0.0009290608577430248,-0.000623414758592844,-0.000563539972063154,0.0035155657678842545,0.013217536732554436,0.0011040293611586094,0.4586147665977478,0.7695755958557129,0.44953209161758423,0.4988729953765869,0.38053184747695923,1.2764228582382202,0.4472881257534027,0.7569820880889893,0.42000001668930054,-0.545145571231842,-2.9999802112579346,-1.4619256258010864,-2.999999523162842,-0.15657731890678406,-0.16278766095638275,-0.16951872408390045,-0.17266082763671875,-0.04452776908874512,0.07628075778484344,0.22457341849803925,0.29490405321121216
0.7166666666666667,0.12264915555715561,0.05648396164178848,0.0,0.6239254474639893,0.0,0.0,-0.7814838290214539,0.9553079605102539,0.11189020425081253,0.0,0.0,0.0,-6.7107439041137695,0.459939181804657,0.7487289309501648,0.4200000464916229,0.5857137441635132,4.3106706471007783e-07,-3.2136279060068773e-06,-0.8105180263519287,0.00010420801118016243,-0.00027422382845543325,-8.854526095092297e-05,0.006481344811618328,-0.0014867630088701844,-0.0006618579500354826,0.47535741329193115,0.7702645063400269,0.47636374831199646,1.6212031841278076,-0.28016048669815063,2.0652530193328857,0.4472881257534027,0.7569820880889893,0.42000001668930054,-0.5951571464538574,-2.999685764312744,-1.5119439363479614,-2.999958038330078,-0.16615703701972961,-0.16872814297676086,-0.17142094671726227,-0.17179062962532043,-0.7740999460220337,-0.5153992772102356,-0.23346568644046783,-0.02129349671304226
0.7333333333333333,0.13432298600673676,0.06138359010219574,0.0,0.5996713042259216,0.0,0.0,-0.8002464175224304,0.580824077129364,0.06045922264456749,0.0,0.0,0.0,-2.3773038387298584,0.459939181804657,0.74872887134552,0.4200000464916229,0.5857141613960266,3.5065957604274445e-07,-3.1683800898463232e-06,-0.8105176687240601,0.00010948182170977816,-0.0002709057880565524,-9.008008055388927e-05,0.006357910577207804,-0.0014247200451791286,-0.0006716747884638608,0.49797341227531433,0.7678446769714355,0.5109051465988159,1.289743185043335,0.07956953346729279,1.982987642288208,0.4472881257534027,0.7569820880889893,0.42000001668930054,-0.6141986846923828,0.4244556128978729,-1.5619621276855469,-2.9999959468841553,-0.1777063012123108,-0.1765710711479187,-0.1752457469701767,-0.17266938090324402,-0.19146586954593658,-0.1077934205532074,0.0018162904307246208,0.0656077116727829
0.75,0.14036498963832855,0.06372679769992828,0.0,0.6028168797492981,0.0,0.0,-0.7978795766830444,0.2858206629753113,0.1893066167831421,0.0,0.0,0.0,1.3400663137435913,0.45993921160697937,0.74872887134552,0.4200000464916229,0.5857137441635132,4.804173272532353e-07,-3.2536552225792548e-06,-0.8105179071426392,0.00011268774687778205,-0.0002694266731850803,-9.083282202482224e-05,0.0063024586997926235,-0.001380808069370687,-0.0006768101593479514,0.5172641277313232,0.7703590989112854,0.5382086038589478,0.8746978044509888,0.2156098484992981,1.3413374423980713,0.4472881257534027,0.7569820880889893,0.42000001668930054,-0.5850531458854675,2.8374788761138916,-1.604653000831604,-2.1611649990081787,-0.1785552054643631,-0.1764722317457199,-0.17378666996955872,-0.17048142850399017,0.04183996096253395,0.08256153017282486,0.14437539875507355,0.17331437766551971
0.7666666666666666,0.14238665997982025,0.06200115755200386,0.0,0.5949335098266602,0.0,0.0,-0.803774893283844,0.11571749299764633,-0.15079350769519806,0.0,0.0,0.0,-2.0033018589019775,0.45993921160697937,0.74872887134552,0.4200000464916229,0.5857136845588684,3.5699144973477814e-07,-3.1216657134791603e-06,-0.8105180263519287,0.00011112226638942957,-0.0002703728969208896,-9.050569497048855e-05,0.006334199104458094,-0.0014050131430849433,-0.0006744079291820526,0.5239583253860474,0.7755396366119385,0.5544000267982483,-0.08212689310312271,0.28898561000823975,0.7542561292648315,0.4472881257534027,0.7569820880889893,0.42000001668930054,-0.550993800163269,1.350635290145874,-1.5626410245895386,3.000000238418579,-0.1751287430524826,-0.17282623052597046,-0.16963326930999756,-0.16627979278564453,0.1276095062494278,0.15779784321784973,0.1985439658164978,0.21224790811538696
0.7833333333333333,0.14192502200603485,0.06522423028945923,0.0,0.6005058884620667,0.0,0.0,-0.7996203303337097,-0.07287420332431793,0.3309103846549988,0.0,0.0,0.0,1.7120795249938965,0.459939181804657,0.7487289309501648,0.4200000464916229,0.5857138633728027,3.266374619670387e-07,-3.2320679110853234e-06,-0.8105178475379944,0.00010834521526703611,-0.000271640601567924,-8.988659828901291e-05,0.006380987353622913,-0.0014445337001234293,-0.0006701184902340174,0.51839280128479,0.7793685793876648,0.5652064085006714,-0.5339100360870361,0.2811741828918457,0.5672417283058167,0.4472881257534027,0.7569820880889893,0.42000001668930054,-0.5158666372299194,2.7170703411102295,-1.5149149894714355,2.712164878845215,-0.17783589661121368,-0.17416153848171234,-0.1695871502161026,-0.16536477208137512,-0.20379331707954407,-0.12636885046958923,-0.05280327796936035,-0.007536612916737795
0.8,0.14242815971374512,0.06643129885196686,0.0,0.594361424446106,0.0,0.0,-0.8041980266571045,0.07606731355190277,0.01634173095226288,0.0,0.0,0.0,-1.8137730360031128,0.45993921160697937,0.7487289309501648,0.4200000464916229,0.585713803768158,3.489920175070438e-07,-2.9740492664132034e-06,-0.8105178475379944,0.00010915584425674751,-0.0002719170006457716,-8.996552787721157e-05,0.006384829059243202,-0.0014328749384731054,-0.0006718985387124121,0.5028737783432007,0.783166766166687,0.56730055809021,-1.2913004159927368,0.14155003428459167,-0.11830969154834747,0.4472881257534027,0.7569820880889893,0.42000001668930054,-0.508426308631897,-1.4664710760116577,-1.4648593664169312,2.999999523162842,-0.17997264862060547,-0.17532037198543549,-0.1698233187198639,-0.16503362357616425,-0.10933463275432587,-0.053871527314186096,-0.0032807430252432823,0.029918834567070007
0.8166666666666667,0.144788458943367,0.06528279185295105,0.0,0.6002159714698792,0.0,0.0,-0.7998380064964294,0.1929374635219574,-0.12103204429149628,0.0,0.0,0.0,1.6947060823440552,0.459939181804657,0.7487289309501648,0.4200000464916229,0.5857139825820923,3.9298615206462273e-07,-3.087403911194997e-06,-0.8105178475379944,0.00010806723003042862,-0.00027173670241609216,-8.979975245893002e-05,0.00638585863634944,-0.0014469065936282277,-0.000669493805617094,0.48852112889289856,0.786194920539856,0.5644387006759644,-0.5435686707496643,0.20490019023418427,-0.1648949831724167,0.4472881257534027,0.7569820880889893,0.42000001668930054,-0.5158867835998535,0.41233551502227783,-1.4817333221435547,-2.9999983310699463,-0.1805720329284668,-0.1752985119819641,-0.16913512349128723,-0.16376501321792603,-0.018107395619153976,0.018934734165668488,0.06133316457271576,0.10539741069078445
0.8333333333333334,0.1493978500366211,0.061327021569013596,0.0,0.5938988327980042,0.0,0.0,-0.8045397400856018,0.32076510787010193,-0.29318001866340637,0.0,0.0,0.0,-1.8293507099151611,0.45993921160697937,0.74872887134552,0.4200000464916229,0.5857136845588684,4.1321499111290905e-07,-3.446746859481209e-06,-0.8105180263519287,0.00011115705274278298,-0.0002705497026909143,-9.04332846403122e-05,0.006339778658002615,-0.0014026029966771603,-0.0006744655547663569,0.4829040467739105,0.7869521379470825,0.5588782429695129,-0.10286794602870941,-0.09763740748167038,-0.3077998161315918,0.4472881257534027,0.7569820880889893,0.42000001668930054,-0.5471777319908142,-3.0000009536743164,-1.4430588483810425,3.0000011920928955,-0.18163801729679108,-0.17560076713562012,-0.16851091384887695,-0.16206255555152893,-0.06720694899559021,-0.012761866673827171,0.05344800651073456,0.1335415542125702
0.85,0.15683580935001373,0.059574324637651443,0.0,0.5668416023254395,0.0,0.0,-0.823826789855957,0.498184472322464,-0.03748350590467453,0.0,0.0,0.0,-4.877302169799805,0.459939181804657,0.74872887134552,0.4200000464916229,0.5857136249542236,3.1710843018117885e-07,-3.3718902159307618e-06,-0.8105180263519287,0.00011425974662415683,-0.0002677015436347574,-9.130663238465786e-05,0.006250195205211639,-0.0013566152192652225,-0.0006780651747249067,0.48535752296447754,0.7828559875488281,0.5553679466247559,0.38802051544189453,-0.3817664384841919,0.03189162164926529,0.4472881257534027,0.7569820880889893,0.42000001668930054,-0.5948922634124756,-2.711120843887329,-1.460389256477356,-2.9999990463256836,-0.18334513902664185,-0.17679809033870697,-0.16892056167125702,-0.1613316684961319,-0.0963604748249054,-0.07765685766935349,-0.04159580171108246,0.018565887585282326
0.8666666666666667,0.16664019227027893,0.0615851953625679,0.0,0.5550917983055115,0.0,0.0,-0.8317890763282776,0.6245113015174866,0.18672572076320648,0.0,0.0,0.0,-0.708330512046814,0.459939181804657,0.74872887134552,0.4200000464916229,0.5857137441635132,2.768003923847573e-07,-3.119980419796775e-06,-0.8105179071426392,0.00011442221875768155,-0.00026762549532577395,-9.129219688475132e-05,0.006247740238904953,-0.001352807623334229,-0.0006782057462260127,0.4918175935745239,0.7797616124153137,0.5566293001174927,0.3425089120864868,-0.07165826857089996,0.09700052440166473,0.4472881257534027,0.7569820880889893,0.42000001668930054,-0.6100232005119324,0.6179993748664856,-1.510407567024231,-3.000000238418579,-0.184006005525589,-0.17776241898536682,-0.1699484884738922,-0.16203269362449646,0.02564970590174198,-0.021667493507266045,-0.05939839035272598,-0.07625576108694077
0.8833333333333333,0.17215324938297272,0.05821302533149719,0.0,0.569870114326477,0.0,0.0,-0.8217347860336304,0.3447607457637787,-0.2582678496837616,0.0,0.0,0.0,2.7921371459960938,0.459939181804657,0.7487289309501648,0.4200000464916229,0.5857139825820923,3.1970495228961227e-07,-3.232390326957102e-06,-0.8105178475379944,0.0001080950751202181,-0.00027157465228810906,-8.979300037026405e-05,0.006381003186106682,-0.0014459544327110052,-0.0006693860050290823,0.497639000415802,0.7825573086738586,0.5565474629402161,0.3158928155899048,0.1345278024673462,-0.15969246625900269,0.4472881257534027,0.7569820880889893,0.42000001668930054,-0.5991000533103943,0.680539071559906,-1.4716496467590332,3.000000238418579,-0.17640967667102814,-0.17201757431030273,-0.16593340039253235,-0.15938910841941833,0.3055121898651123,0.23311302065849304,0.1595359444618225,0.09882736206054688
0.9,0.17539389431476593,0.0586257129907608,0.0,0.5696790218353271,0.0,0.0,-0.8218672871589661,0.11827531456947327,0.07289240509271622,0.0,0.0,0.0,-0.9376065731048584,0.45993921160697937,0.74872887134552,0.4200000464916229,0.5857136249542236,4.162579045896564e-07,-3.2505911349289818e-06,-0.8105180859565735,0.00011172262748004869,-0.0002704797952901572,-9.05690249055624e-05,0.006335047539323568,-0.0013956665061414242,-0.0006756440852768719,0.50221848487854,0.7816320061683655,0.5504995584487915,0.3409495949745178,-0.0801236554980278,-0.4167323112487793,0.4472881257534027,0.7569820880889893,0.42000001668930054,-0.6146867275238037,-2.280287742614746,-1.4215970039367676,2.9999985694885254,-0.17589299380779266,-0.17194919288158417,-0.1664251834154129,-0.16033178567886353,0.10689689218997955,0.05427267402410507,-0.0037534930743277073,-0.05339096859097481
