vladlanda/robotic-transformer/data/env_000_episode_0007.csv
sim_time_s,robot_box_x,robot_box_y,robot_box_z,robot_box_quat_w,robot_box_quat_x,robot_box_quat_y,robot_box_quat_z,robot_box_linvel_x,robot_box_linvel_y,robot_box_linvel_z,robot_box_angvel_x,robot_box_angvel_y,robot_box_angvel_z,cube_world_x,cube_world_y,cube_world_z,cube_quat_w,cube_quat_x,cube_quat_y,cube_quat_z,cube_linvel_x,cube_linvel_y,cube_linvel_z,cube_angvel_x,cube_angvel_y,cube_angvel_z,endpoint_world_x,endpoint_world_y,endpoint_world_z,endpoint_linvel_x,endpoint_linvel_y,endpoint_linvel_z,target_cube_world_x,target_cube_world_y,target_cube_world_z,gripper_actual_pos_rad_gp_leftgearjoint,gripper_actual_vel_rad_s_gp_leftgearjoint,gripper_actual_pos_rad_gp_rotatingjoint,gripper_actual_vel_rad_s_gp_rotatingjoint,motor_angle_rad_joint1,motor_angle_rad_joint2,motor_angle_rad_joint3,motor_angle_rad_joint4,motor_speed_rad_s_joint1,motor_speed_rad_s_joint2,motor_speed_rad_s_joint3,motor_speed_rad_s_joint4
0.0,0.0,0.0,0.0,1.0,0.0,0.0,0.0,0.0,0.0,0.0,0.0,0.0,0.0,-0.3759461045265198,0.7329438924789429,0.41999998688697815,1.0,0.0,0.0,0.0,0.0,0.0,0.0,0.0,0.0,0.0,3.42540442943573e-06,-0.005000244826078415,1.313499927520752,0.0,0.0,0.0,0.3930407464504242,0.7384500503540039,0.42000001668930054,-1.5707999467849731,0.0,0.0,0.0,0.0,0.0,0.0,0.0,0.0,0.0,0.0,0.0
0.016666666666666666,0.0028806638438254595,0.0021774787455797195,0.0,0.9998145699501038,0.0,0.0,0.019258035346865654,0.24095270037651062,0.1822935938835144,0.0,0.0,0.0,3.141805648803711,-0.3759462237358093,0.732943594455719,0.41999998688697815,1.0,3.279964630564791e-06,-8.339746386809566e-07,8.465587342243452e-08,-1.9833529222523794e-05,0.00017983045836444944,-6.132945418357849e-05,0.0009432713268324733,-0.004689474124461412,-0.00031981561915017664,-0.0071090757846832275,0.0033879708498716354,1.3159382343292236,-0.8140489459037781,0.9871877431869507,0.18096019327640533,0.3930407464504242,0.7384500503540039,0.42000001668930054,-1.5301094055175781,2.9999990463256836,-0.04584870859980583,-2.999999761581421,0.0008700889302417636,0.0007967399433255196,0.0007113089086487889,0.0006111612310633063,0.11094819754362106,0.09758605808019638,0.08336307853460312,0.06825760006904602
0.03333333333333333,0.008964483626186848,0.006797109264880419,0.0,0.9998025894165039,0.0,0.0,0.01986842229962349,0.40707165002822876,0.3152078092098236,0.0,0.0,0.0,-0.869062066078186,-0.3759463429450989,0.7329435348510742,0.4200000464916229,1.0,3.3908354453160428e-06,-2.1324485715012997e-06,-3.710144014235084e-08,0.00026357831666246057,0.00026937946677207947,-0.00010509486310184002,-0.0017707672668620944,0.004130808170884848,-0.000135478752781637,-0.02719530090689659,0.026335880160331726,1.3166310787200928,-1.5513763427734375,1.6195182800292969,-0.0808836966753006,0.3930407464504242,0.7384500503540039,0.42000001668930054,-1.4800902605056763,3.000000476837158,-0.09588853269815445,-3.0000007152557373,0.0029530527535825968,0.0026020118966698647,0.0022132485173642635,0.0017834340687841177,0.15967310965061188,0.13384875655174255,0.1065291315317154,0.07763251662254333
0.05,0.018477780744433403,0.013904795050621033,0.0,0.9999739527702332,0.0,0.0,-0.007215825840830803,0.6363192200660706,0.4724765419960022,0.0,0.0,0.0,-4.072812080383301,-0.37594637274742126,0.732943594455719,0.4200000464916229,1.0,3.7651125239790417e-06,-2.211879063906963e-06,5.622505128144439e-09,0.000265308452071622,0.0002669153327587992,-0.00010440615005791187,-0.001724260626360774,0.004177352879196405,-0.00012949221127200872,-0.055781543254852295,0.058033596724271774,1.3121490478515625,-1.8795219659805298,2.107271194458008,-0.4435173571109772,0.3930407464504242,0.7384500503540039,0.42000001668930054,-1.4300719499588013,2.999999523162842,-0.14592722058296204,-3.0,0.005829612724483013,0.00494260573759675,0.003983292728662491,0.0029474194161593914,0.19490021467208862,0.15250033140182495,0.10817742347717285,0.06186068430542946
0.06666666666666667,0.03080744296312332,0.023398498073220253,0.0,0.9998738765716553,0.0,0.0,-0.01588207483291626,0.7728682160377502,0.6163943409919739,0.0,0.0,0.0,-0.03486432135105133,-0.37594637274742126,0.7329435348510742,0.4200000464916229,0.9999999403953552,3.4066883927152958e-06,-2.285532218593289e-06,4.300976286231162e-07,0.0002670241810847074,0.00026791772688739,-0.00010438147000968456,-0.00174069800414145,0.00421178387477994,-0.00012850729399360716,-0.09020012617111206,0.09235204756259918,1.3022576570510864,-2.1195316314697266,2.1739330291748047,-0.7333856225013733,0.3930407464504242,0.7384500503540039,0.42000001668930054,-1.380046010017395,3.0000007152557373,-0.15380844473838806,1.653235673904419,0.008159960620105267,0.006470418535172939,0.004667685832828283,0.002748394152149558,0.11538723111152649,0.057514578104019165,-0.0025153367314487696,-0.06478185951709747
0.08333333333333333,0.036844611167907715,0.03677903860807419,0.0,0.9992103576660156,0.0,0.0,-0.039732541888952255,0.2271193414926529,0.8762894868850708,0.0,0.0,0.0,-3.8065335750579834,-0.37594637274742126,0.7329435348510742,0.4200000464916229,1.0,3.6972253383282805e-06,-2.188838152505923e-06,-2.632317830375541e-07,0.00026389729464426637,0.00026586424792185426,-0.00010433932766318321,-0.0017081560799852014,0.004150177352130413,-0.0001299097202718258,-0.12031803280115128,0.1325647383928299,1.2880680561065674,-1.524597406387329,2.656226634979248,-0.8965930342674255,0.3930407464504242,0.7384500503540039,0.42000001668930054,-1.3300410509109497,2.9999990463256836,-0.19287754595279694,-3.0,0.003792797913774848,0.0012920200824737549,-0.0013761903392150998,-0.004219296853989363,-0.3895902633666992,-0.4513351619243622,-0.5158418416976929,-0.583369255065918
0.1,0.04670652747154236,0.05173835530877113,0.0,0.9958367347717285,0.0,0.0,-0.09115501493215561,0.7374559044837952,0.9043042659759521,0.0,0.0,0.0,-6.963962554931641,-0.37594637274742126,0.7329435348510742,0.4200000464916229,0.9999999403953552,3.620277084337431e-06,-2.2651142899121623e-06,1.7461523782458244e-07,0.0002667682128958404,0.0002674072457011789,-0.0001040794886648655,-0.0017386354738846421,0.004209177568554878,-0.00012775110371876508,-0.14687985181808472,0.17896896600723267,1.2731783390045166,-1.6617441177368164,2.937091112136841,-0.9489603042602539,0.3930407464504242,0.7384500503540039,0.42000001668930054,-1.2800263166427612,3.000002861022949,-0.19980394840240479,1.7658780813217163,0.0017318067839369178,-0.0023494334891438484,-0.006601718254387379,-0.01103295385837555,-0.03485919535160065,-0.13809314370155334,-0.240308940410614,-0.34145551919937134
0.11666666666666667,0.05523272603750229,0.06379710882902145,0.0,0.9924196600914001,0.0,0.0,-0.12289499491453171,0.5394887924194336,0.6854093670845032,0.0,0.0,0.0,-2.576663017272949,-0.37594637274742126,0.7329435348510742,0.4200000464916229,1.0,3.798308171099052e-06,-2.262737325509079e-06,-1.5021218757738097e-07,0.0002637405996210873,0.000265660259174183,-0.00010428996756672859,-0.0017054072814062238,0.00414755754172802,-0.000129801788716577,-0.17831426858901978,0.22524720430374146,1.2559154033660889,-1.845080852508545,2.982140064239502,-1.039046287536621,0.3930407464504242,0.7384500503540039,0.42000001668930054,-1.2300384044647217,3.0000030994415283,-0.23808588087558746,-3.000000476837158,-0.0010579242371022701,-0.00676422193646431,-0.012615466490387917,-0.018619485199451447,-0.08190976828336716,-0.19812771677970886,-0.3110114634037018,-0.42039912939071655
0.13333333333333333,0.06115464121103287,0.07649577409029007,0.0,0.9864923357963562,0.0,0.0,-0.1638074666261673,0.2901960611343384,0.8067250847816467,0.0,0.0,0.0,-5.703543186187744,-0.37594637274742126,0.732943594455719,0.4200000464916229,0.9999999403953552,3.55037650479062e-06,-2.229731535408064e-06,2.929058098288806e-07,0.0002670335816219449,0.0002677934826351702,-0.00010417238809168339,-0.0017440745141357183,0.004213663749396801,-0.0001280020660487935,-0.2079755663871765,0.27971598505973816,1.2357189655303955,-1.6437320709228516,3.6260275840759277,-1.366076946258545,0.3930407464504242,0.7384500503540039,0.42000001668930054,-1.180024266242981,2.999485492706299,-0.20409704744815826,3.0000007152557373,-0.004050141200423241,-0.011606630869209766,-0.019240209832787514,-0.026956353336572647,-0.2347269505262375,-0.3389274477958679,-0.4387047290802002,-0.5339128971099854
0.15,0.0645754337310791,0.08735213428735733,0.0,0.97694993019104,0.0,0.0,-0.21346871554851532,0.13692785799503326,0.5781363248825073,0.0,0.0,0.0,-6.150640964508057,-0.3759463429450989,0.7329435348510742,0.4200000464916229,1.0,3.332105279696407e-06,-2.1019018277002033e-06,1.3129569254033413e-07,0.0002673073613550514,0.00026859616627916694,-0.00010459683835506439,-0.0017497853841632605,0.004215648397803307,-0.00012928245996590704,-0.2383175790309906,0.33970966935157776,1.2080848217010498,-1.793544054031372,3.773610830307007,-1.949890375137329,0.3930407464504242,0.7384500503540039,0.42000001668930054,-1.1521955728530884,0.5310567021369934,-0.23551931977272034,-3.0000009536743164,-0.00836673378944397,-0.01745014451444149,-0.02652859129011631,-0.03560667857527733,-0.3196115791797638,-0.3919655382633209,-0.45966869592666626,-0.5227597951889038
0.16666666666666666,0.0694471150636673,0.09848557412624359,0.0,0.9711764454841614,0.0,0.0,-0.23836173117160797,0.31494662165641785,0.7046210169792175,0.0,0.0,0.0,-1.9700770378112793,-0.37594637274742126,0.7329435348510742,0.4200000464916229,1.0,3.737186489161104e-06,-2.233031182186096e-06,-1.876633604069866e-07,0.0002643294574227184,0.00026626838371157646,-0.00010445830412209034,-0.0017118845134973526,0.004157516174018383,-0.00013001053594052792,-0.2749677896499634,0.40139487385749817,1.167508840560913,-2.1612708568573,3.943465232849121,-2.883175849914551,0.3930407464504242,0.7384500503540039,0.42000001668930054,-1.1112550497055054,3.000000238418579,-0.2456929087638855,1.4025360345840454,-0.01567809097468853,-0.025288043543696404,-0.034841131418943405,-0.044346753507852554,-0.557258665561676,-0.5563703179359436,-0.5536518692970276,-0.5495118498802185
0.18333333333333332,0.07242283225059509,0.10806091874837875,0.0,0.9616110920906067,0.0,0.0,-0.2744160592556,0.127437025308609,0.48316946625709534,0.0,0.0,0.0,-5.3438639640808105,-0.37594637274742126,0.732943594455719,0.4200000464916229,0.9999999403953552,3.660124548332533e-06,-2.302147322552628e-06,2.52845069326213e-07,0.0002669083187356591,0.0002676025324035436,-0.00010412652045488358,-0.0017412957968190312,0.004211513791233301,-0.0001278699201066047,-0.30705761909484863,0.46916627883911133,1.1159074306488037,-1.5726404190063477,4.241323471069336,-3.306682586669922,0.3930407464504242,0.7384500503540039,0.42000001668930054,-1.061256766319275,3.000000476837158,-0.28558972477912903,-2.9999990463256836,-0.026562506332993507,-0.03610989451408386,-0.045571066439151764,-0.0549636036157608,-0.7311659455299377,-0.7202121019363403,-0.7081488966941833,-0.6954894065856934
0.2,0.07343246042728424,0.11756200343370438,0.0,0.9555056095123291,0.0,0.0,-0.29497286677360535,-0.00952147413045168,0.6102508902549744,0.0,0.0,0.0,-1.1036109924316406,-0.37594637274742126,0.7329435348510742,0.4200000464916229,1.0,3.5906891753256787e-06,-2.300306277902564e-06,1.3872099202671961e-07,0.0002665471110958606,0.00026732077822089195,-0.00010423827916383743,-0.0017326769884675741,0.004203524440526962,-0.00012820553092751652,-0.33600813150405884,0.5365366339683533,1.0525003671646118,-1.557833194732666,4.013185977935791,-4.246880531311035,0.3930407464504242,0.7384500503540039,0.42000001668930054,-1.0123158693313599,2.8451733589172363,-0.3356151878833771,-3.0,-0.04004267603158951,-0.04895985871553421,-0.057780150324106216,-0.06653425842523575,-0.856006920337677,-0.7995902299880981,-0.7430704236030579,-0.6873190999031067
0.21666666666666667,0.0758092924952507,0.12903563678264618,0.0,0.9458521604537964,0.0,0.0,-0.3245978057384491,0.18852059543132782,0.7305572628974915,0.0,0.0,0.0,-4.632655143737793,-0.37594637274742126,0.732943594455719,0.4200000464916229,1.0,3.6067892779101385e-06,-2.2609169718634803e-06,1.961327633637211e-08,0.00026447148411534727,0.0002655840653460473,-0.00010396447032690048,-0.0017088138265535235,0.0041642808355391026,-0.00012832574429921806,-0.3609713315963745,0.6020358800888062,0.9735743999481201,-1.2828859090805054,3.797917127609253,-5.137118816375732,0.3930407464504242,0.7384500503540039,0.42000001668930054,-0.9623334407806396,2.999999761581421,-0.38564160466194153,-2.9999990463256836,-0.05557910352945328,-0.0638488158583641,-0.07148046046495438,-0.07892167568206787,-0.9591101408004761,-0.9476922750473022,-0.8715978264808655,-0.7790625095367432
0.23333333333333334,0.07640066742897034,0.13781633973121643,0.0,0.9416365623474121,0.0,0.0,-0.33663123846054077,-0.02284076251089573,0.4464309513568878,0.0,0.0,0.0,-0.5297850966453552,-0.3759463429450989,0.7329435348510742,0.4200000464916229,0.9999999403953552,3.742087073987932e-06,-2.227409822808113e-06,4.589062712057057e-07,0.00026475198683328927,0.00026671282830648124,-0.0001045342069119215,-0.0017188993515446782,0.0041658165864646435,-0.00013019447214901447,-0.38225746154785156,0.6564978361129761,0.8813437223434448,-1.0316171646118164,2.9063854217529297,-5.84479284286499,0.3930407464504242,0.7384500503540039,0.42000001668930054,-0.9123243093490601,2.9999988079071045,-0.4356708228588104,-2.999999523162842,-0.07194755971431732,-0.08012016862630844,-0.08752375841140747,-0.09328076988458633,-0.9875128269195557,-0.9762691855430603,-0.9637020230293274,-0.88205486536026
0.25,0.07812345027923584,0.14553190767765045,0.0,0.9325206279754639,0.0,0.0,-0.36111676692962646,0.16765940189361572,0.4687400460243225,0.0,0.0,0.0,-3.971022367477417,-0.37594637274742126,0.7329435348510742,0.4200000464916229,1.0,3.394239683984779e-06,-2.282012019350077e-06,1.3362385686832567e-07,0.0002667936496436596,0.0002679401950445026,-0.00010439474135637283,-0.0017418229253962636,0.00420664856210351,-0.00012884348689112812,-0.3965369462966919,0.6991106271743774,0.7766441106796265,-0.6077269315719604,2.1344056129455566,-6.538919448852539,0.3930407464504242,0.7384500503540039,0.42000001668930054,-0.862313985824585,3.0000016689300537,-0.485701322555542,-3.000000476837158,-0.08835972845554352,-0.09647539258003235,-0.10382240265607834,-0.10949847847223282,-0.9820505976676941,-0.9733513593673706,-0.9660773873329163,-0.9588844180107117
0.26666666666666666,0.07797083258628845,0.15029646456241608,0.0,0.9297792911529541,0.0,0.0,-0.36811742186546326,-0.052820660173892975,0.1989586502313614,0.0,0.0,0.0,0.06310375779867172,-0.37594637274742126,0.732943594455719,0.4200000464916229,1.0,3.6832336718362058e-06,-2.31005606110557e-06,2.1009948625305697e-07,0.0002647906949277967,0.00026625851751305163,-0.00010421290062367916,-0.0017168435733765364,0.004168881103396416,-0.00012909741781186312,-0.405120849609375,0.7224410772323608,0.6660946607589722,-0.28193601965904236,0.836772084236145,-6.681158065795898,0.3930407464504242,0.7384500503540039,0.42000001668930054,-0.812304675579071,2.9999945163726807,-0.5357317924499512,-2.9999992847442627,-0.10475065559148788,-0.1128527894616127,-0.12020523101091385,-0.1258848011493683,-0.9936671853065491,-0.9947632551193237,-0.995608389377594,-0.9914993047714233
0.2833333333333333,0.07479850202798843,0.15134967863559723,0.0,0.9223484396934509,0.0,0.0,-0.38635915517807007,-0.2437882125377655,0.013560216873884201,0.0,0.0,0.0,-3.2137057781219482,-0.37594637274742126,0.7329435348510742,0.4200000464916229,1.0,3.3067506137740565e-06,-2.2124868337414227e-06,2.625712340886821e-07,0.0002666061627678573,0.0002674513962119818,-0.00010424340143799782,-0.0017352820141240954,0.004204321652650833,-0.00012828712351620197,-0.4042167067527771,0.7317324876785278,0.5555431842803955,0.43003135919570923,0.19272185862064362,-6.3949079513549805,0.3930407464504242,0.7384500503540039,0.42000001668930054,-0.7622959017753601,3.0000016689300537,-0.5857614874839783,-2.999999523162842,-0.12224636226892471,-0.1301521360874176,-0.13735605776309967,-0.1429186463356018,-1.011111855506897,-1.0083775520324707,-1.0062917470932007,-1.0046277046203613
0.3,0.069130077958107,0.1498466581106186,0.0,0.9218867421150208,0.0,0.0,-0.38745951652526855,-0.37573811411857605,-0.13083384931087494,0.0,0.0,0.0,0.7608546614646912,-0.37594637274742126,0.7329435348510742,0.4200000464916229,1.0,3.6407882362254895e-06,-2.3779157345416024e-06,-4.194236282728525e-07,0.0002660918398760259,0.00026721289032138884,-0.00010421476326882839,-0.0017330169212073088,0.004194211680442095,-0.00012849405175074935,-0.395668625831604,0.733629047870636,0.45679765939712524,0.718652606010437,-0.06047571450471878,-5.511488914489746,0.3930407464504242,0.7384500503540039,0.42000001668930054,-0.7122879028320312,3.0000007152557373,-0.635789155960083,-3.0000014305114746,-0.13961687684059143,-0.14737045764923096,-0.15446282923221588,-0.1599394530057907,-1.0165343284606934,-1.0125290155410767,-1.009465217590332,-1.0070046186447144
0.31666666666666665,0.06125057861208916,0.1459890753030777,0.0,0.9159550666809082,0.0,0.0,-0.4012809097766876,-0.5220773816108704,-0.27595946192741394,0.0,0.0,0.0,-2.692009687423706,-0.3760647475719452,0.7324630618095398,0.4204842150211334,0.999951183795929,0.009323740378022194,-0.002701718593016267,-0.0018413462676107883,0.008016165345907211,0.005972297862172127,0.05985536053776741,2.195565700531006,-0.8682820200920105,1.3117032051086426,-0.3904479146003723,0.7341612577438354,0.42322880029678345,0.4036604166030884,0.2462967187166214,-0.09937909990549088,0.3930407464504242,0.7384500503540039,0.42000001668930054,-0.6623932123184204,2.9872777462005615,-0.6864588260650635,-2.789011240005493,-0.1490217000246048,-0.15715990960597992,-0.16437634825706482,-0.16966687142848969,-0.222547248005867,-0.24863150715827942,-0.2506202161312103,-0.2254285216331482
0.3333333333333333,0.05114096775650978,0.13968592882156372,0.0,0.9167137742042542,0.0,0.0,-0.39954450726509094,-0.6455501914024353,-0.42115744948387146,0.0,0.0,0.0,1.168952226638794,-0.37438496947288513,0.7348169088363647,0.4205590486526489,0.9997239708900452,0.014179585501551628,-0.00021424487931653857,-0.018728628754615784,0.20298656821250916,0.2727316915988922,0.011155271902680397,0.5711220502853394,0.0003707503783516586,-3.6182456016540527,-0.3868175745010376,0.7400364875793457,0.4255896210670471,0.32588058710098267,0.27010875940322876,-0.19131770730018616,0.3930407464504242,0.7384500503540039,0.42000001668930054,-0.6123862862586975,2.999983549118042,-0.7364973425865173,-3.000006675720215,-0.15423527359962463,-0.1618223488330841,-0.168132483959198,-0.17217685282230377,-0.4105674624443054,-0.3317186236381531,-0.23678581416606903,-0.12983104586601257
0.35,0.039165571331977844,0.13098089396953583,0.0,0.9114046096801758,0.0,0.0,-0.41151148080825806,-0.7821393609046936,-0.5627673864364624,0.0,0.0,0.0,-2.492182493209839,-0.37071776390075684,0.739611029624939,0.4200015366077423,0.9988760352134705,-9.901290241032257e-07,-3.5291061067255214e-05,-0.0473974235355854,0.21739451587200165,0.28108924627304077,-5.0005270168185234e-05,0.0013532597804442048,0.0011320633348077536,-3.1778016090393066,-0.3798236846923828,0.744068443775177,0.42298275232315063,0.5457463264465332,0.31652140617370605,-0.1458791047334671,0.3930407464504242,0.7384500503540039,0.42000001668930054,-0.5623813271522522,2.9999759197235107,-0.7865453958511353,-2.9999947547912598,-0.16185599565505981,-0.16781890392303467,-0.17225700616836548,-0.17428608238697052,-0.4442614018917084,-0.339514821767807,-0.22247867286205292,-0.10089584439992905
0.36666666666666664,0.0303291454911232,0.11945506930351257,0.0,0.9126802086830139,0.0,0.0,-0.4086744487285614,-0.4416988790035248,-0.7390680313110352,0.0,0.0,0.0,1.3238111734390259,-0.36421990394592285,0.7480656504631042,0.4200061857700348,0.990207314491272,0.00010674323129933327,8.989231901068706e-06,-0.13960467278957367,0.48699507117271423,0.6041467785835266,0.004847109317779541,0.3239378035068512,-0.15793941915035248,-13.45191764831543,-0.3699032664299011,0.7515079975128174,0.4210931062698364,0.7161954641342163,0.6073530912399292,-0.07041814923286438,0.3930407464504242,0.7384500503540039,0.42000001668930054,-0.5123764276504517,2.999990940093994,-0.8365856409072876,-2.9999983310699463,-0.1695096790790558,-0.17323166131973267,-0.17521364986896515,-0.17473343014717102,-0.42263931035995483,-0.2772805690765381,-0.11896371841430664,0.04160391166806221
0.3833333333333333,0.019715458154678345,0.10637234896421432,0.0,0.9075280427932739,0.0,0.0,-0.4199914336204529,-0.7127178311347961,-0.8089466691017151,0.0,0.0,0.0,-2.4584720134735107,-0.35330867767333984,0.7604621052742004,0.42033472657203674,0.9694103002548218,-0.008220716379582882,0.0013111208099871874,-0.24530461430549622,0.9970069527626038,1.0268677473068237,0.0375802144408226,-1.7317949533462524,0.7510595321655273,-6.839961528778076,-0.3548733592033386,0.7630256414413452,0.42188066244125366,1.0941745042800903,0.8503594398498535,0.09273840487003326,0.3930407464504242,0.7384500503540039,0.42000001668930054,-0.4623245894908905,3.0000295639038086,-0.8865914940834045,-2.999990463256836,-0.178253635764122,-0.17912621796131134,-0.17804387211799622,-0.17448531091213226,-0.4934769868850708,-0.32424256205558777,-0.1424364596605301,0.03967716544866562
0.4,0.012032807804644108,0.09051962196826935,0.0,0.8892586827278137,0.0,0.0,-0.4574046730995178,-0.40803417563438416,-0.9937009215354919,0.0,0.0,0.0,-5.836925029754639,-0.3297470211982727,0.7795454859733582,0.4218995273113251,0.9542978405952454,-0.015603876672685146,-0.015804750844836235,-0.2980307340621948,1.8716639280319214,1.0767444372177124,0.1489500105381012,19.727418899536133,-13.303969383239746,3.4689955711364746,-0.3309843838214874,0.7812479138374329,0.4236728250980377,1.751224160194397,1.1891812086105347,0.26030513644218445,0.3930407464504242,0.7384500503540039,0.42000001668930054,-0.4131082594394684,2.5887937545776367,-0.9366093873977661,-3.000000476837158,-0.18490436673164368,-0.18311457335948944,-0.17910349369049072,-0.17255817353725433,-0.41443932056427,-0.2428312748670578,-0.05664202570915222,0.1311764419078827
0.4166666666666667,0.008104540407657623,0.07166983187198639,0.0,0.8564141392707825,0.0,0.0,-0.516289472579956,-0.16651232540607452,-1.1986854076385498,0.0,0.0,0.0,-8.865131378173828,-0.2860095798969269,0.8050441145896912,0.4273121654987335,0.932348906993866,-0.000844343681819737,-0.04427026957273483,-0.35883811116218567,3.860546350479126,1.7587989568710327,0.5986965894699097,7.307627201080322,-5.613104343414307,4.218919277191162,-0.28697383403778076,0.8063010573387146,0.4291171729564667,3.5247368812561035,1.869586706161499,0.5925039052963257,0.3930407464504242,0.7384500503540039,0.42000001668930054,-0.3877284526824951,0.9974058866500854,-0.9866223335266113,-2.9999122619628906,-0.19344472885131836,-0.18829958140850067,-0.18078504502773285,-0.17081867158412933,-0.5498927235603333,-0.3297920525074005,-0.1061599999666214,0.10695470124483109
0.43333333333333335,0.006234660279005766,0.058206841349601746,0.0,0.8061736822128296,0.0,0.0,-0.5916789770126343,-0.06169678643345833,-0.6709043383598328,0.0,0.0,0.0,-11.67392349243164,-0.202515110373497,0.8375613689422607,0.4371146261692047,0.9062592387199402,0.06258101016283035,-0.08246900141239166,-0.40984946489334106,6.427736282348633,1.6610080003738403,0.7408115267753601,14.294219017028809,-16.004745483398438,18.044687271118164,-0.20358605682849884,0.8389750719070435,0.43904951214790344,6.209743499755859,2.183549404144287,0.732425332069397,0.3930407464504242,0.7384500503540039,0.42000001668930054,-0.3699001371860504,1.1599239110946655,-0.9490840435028076,2.997159719467163,-0.2085641771554947,-0.19999223947525024,-0.18756729364395142,-0.17322564125061035,-0.9047430157661438,-0.7984405159950256,-0.5107315182685852,-0.26477962732315063
0.45,0.0012015693355351686,0.05282510071992874,0.0,0.7628931999206543,0.0,0.0,-0.6465245485305786,-0.4465283155441284,-0.35297054052352905,0.0,0.0,0.0,-7.065532207489014,-0.10053669661283493,0.8592632412910461,0.45035800337791443,0.8478524684906006,0.09333989024162292,-0.11070708185434341,-0.510076105594635,5.940864086151123,0.24942396581172943,0.9549532532691956,-8.479615211486816,3.81697678565979,7.468989372253418,-0.10274508595466614,0.8624626994132996,0.4527047574520111,6.039486408233643,0.999358057975769,0.8830126523971558,0.3930407464504242,0.7384500503540039,0.42000001668930054,-0.3483187258243561,1.2515379190444946,-0.9744935035705566,-2.9995744228363037,-0.22340914607048035,-0.21498942375183105,-0.20090913772583008,-0.1816248893737793,-0.5857778787612915,-0.6593018770217896,-0.7189734578132629,-0.4904692769050598
0.4666666666666667,-0.00039599178126081824,0.039726752787828445,0.0,0.7409579157829285,0.0,0.0,-0.6715514659881592,0.05218564346432686,-0.9737600088119507,0.0,0.0,0.0,-2.921322822570801,0.002770468592643738,0.8674183487892151,0.4625322222709656,0.7808740735054016,0.0944327861070633,-0.10221941024065018,-0.6089903712272644,6.038696765899658,-0.62650066614151,0.5673956871032715,-6.115746974945068,3.4771320819854736,12.268478393554688,-0.000546235591173172,0.8719087243080139,0.4642126262187958,6.374676704406738,0.02986951172351837,0.6710519790649414,0.3930407464504242,0.7384500503540039,0.42000001668930054,-0.32817381620407104,1.096497654914856,-1.0245165824890137,-2.999999523162842,-0.2273435890674591,-0.21971450746059418,-0.2063031941652298,-0.1837904006242752,-0.09434667229652405,-0.10016877204179764,-0.10511136054992676,0.07449277490377426
0.48333333333333334,-0.0028112411964684725,0.027938036248087883,0.0,0.7109286785125732,0.0,0.0,-0.7032641172409058,-0.18725551664829254,-0.558138370513916,0.0,0.0,0.0,-5.80795431137085,0.10212878882884979,0.8608300685882568,0.47069424390792847,0.7421135306358337,0.0917247012257576,-0.09586399048566818,-0.6570115089416504,5.591440677642822,-1.7291580438613892,0.43006378412246704,-12.34810733795166,-11.220695495605469,30.96221923828125,0.10060267895460129,0.8665599226951599,0.47334229946136475,6.056140899658203,-0.6928573846817017,0.6010485291481018,0.3930407464504242,0.7384500503540039,0.42000001668930054,-0.3130148947238922,0.5503132939338684,-1.0745387077331543,-3.000004291534424,-0.2308104783296585,-0.22292166948318481,-0.209489107131958,-0.18480204045772552,-0.3363909125328064,-0.29215991497039795,-0.275490403175354,-0.17892400920391083
0.5,-0.003472689539194107,0.021830381825566292,0.0,0.6969172358512878,0.0,0.0,-0.7171515822410583,0.02378794550895691,-0.2888910472393036,0.0,0.0,0.0,-1.2232435941696167,0.19284094870090485,0.8408548831939697,0.4752739369869232,0.6594844460487366,0.07949493080377579,-0.09164778888225555,-0.741863489151001,4.563325881958008,-2.1720638275146484,0.04955363646149635,-10.049821853637695,11.106611251831055,8.030854225158691,0.19036318361759186,0.8479087948799133,0.47822105884552,5.045222282409668,-1.5439460277557373,0.1768900752067566,0.3930407464504242,0.7384500503540039,0.42000001668930054,-0.306084543466568,0.2825748920440674,-1.124560832977295,-2.999361753463745,-0.23678618669509888,-0.22776594758033752,-0.21379685401916504,-0.18794192373752594,-0.3309083878993988,-0.2481086254119873,-0.20875924825668335,-0.16791851818561554
0.5166666666666666,-0.0008550662314519286,0.01969946175813675,0.0,0.6756892800331116,0.0,0.0,-0.7371865510940552,0.2066073715686798,-0.06523044407367706,0.0,0.0,0.0,-4.399343013763428,0.26630276441574097,0.8136334419250488,0.46944379806518555,0.6108735203742981,0.034553881734609604,-0.10309426486492157,-0.7842264771461487,3.5624849796295166,-2.0888028144836426,-0.5057916641235352,-3.695950746536255,5.006705284118652,13.043630599975586,0.26384681463241577,0.822323203086853,0.47435909509658813,4.054376602172852,-1.716268539428711,-0.46910959482192993,0.3930407464504242,0.7384500503540039,0.42000001668930054,-0.2987484037876129,0.5695065259933472,-1.1745829582214355,-2.999931573867798,-0.2399773746728897,-0.230665922164917,-0.2166033238172531,-0.1910015046596527,-0.01674787327647209,-0.11147654801607132,-0.1205611601471901,-0.1736840307712555
0.5333333333333333,0.004370355047285557,0.021182944998145103,0.0,0.6685572266578674,0.0,0.0,-0.7436606884002686,0.34522509574890137,0.14603589475154877,0.0,0.0,0.0,-0.18647924065589905,0.32355597615242004,0.7835791110992432,0.4557705521583557,0.5695410370826721,-0.01701921783387661,-0.10068127512931824,-0.815595805644989,2.70082688331604,-1.9170348644256592,-0.9333351850509644,-3.0632858276367188,4.7617387771606445,17.31071662902832,0.321627676486969,0.792559027671814,0.46215561032295227,3.055704116821289,-1.9038422107696533,-0.9292683601379395,0.3930407464504242,0.7384500503540039,0.42000001668930054,-0.28641632199287415,0.8282505869865417,-1.2246050834655762,-2.99967360496521,-0.2397439330816269,-0.23199088871479034,-0.21822024881839752,-0.193938747048378,0.0746474340558052,7.361397365457378e-06,-0.03388618305325508,-0.14563807845115662
0.55,0.012891155667603016,0.016905250027775764,0.0,0.6502240896224976,0.0,0.0,-0.7597424387931824,0.5749343633651733,-0.3971540629863739,0.0,0.0,0.0,-3.9604218006134033,0.36911967396736145,0.757896900177002,0.43440768122673035,0.5272958278656006,-0.053837984800338745,-0.0868234634399414,-0.8435177206993103,2.3346447944641113,-1.6513949632644653,-1.4780375957489014,-2.207200765609741,2.6799850463867188,0.7440879940986633,0.3666974902153015,0.7660601735115051,0.44085657596588135,2.3705341815948486,-1.4859353303909302,-1.439308524131775,0.3930407464504242,0.7384500503540039,0.42000001668930054,-0.2704552412033081,1.115807056427002,-1.2746272087097168,-3.0000009536743164,-0.23112885653972626,-0.2259114533662796,-0.21420587599277496,-0.19329804182052612,0.6732871532440186,0.5071894526481628,0.3530426323413849,0.11369859427213669
0.5666666666666667,0.018049372360110283,0.01591561548411846,0.0,0.6436315774917603,0.0,0.0,-0.7653354406356812,0.2558828592300415,-0.08018855005502701,0.0,0.0,0.0,-0.06442811340093613,0.39689984917640686,0.7377930879592896,0.4215255677700043,0.5658846497535706,0.016105541959404945,-0.0139604602009058,-0.8242087960243225,0.8239914774894714,-0.9146113395690918,0.3218573033809662,-16.45107650756836,-22.90894317626953,29.670631408691406,0.39564961194992065,0.7433204650878906,0.4234779477119446,1.0292370319366455,-0.8626071810722351,-0.020561616867780685,0.3930407464504242,0.7384500503540039,0.42000001668930054,-0.25320249795913696,0.9287970662117004,-1.2365658283233643,3.0054290294647217,-0.22399654984474182,-0.22052781283855438,-0.2107100784778595,-0.19331799447536469,0.5592750310897827,0.41841477155685425,0.26773592829704285,0.027762267738580704
0.5833333333333334,0.023729056119918823,0.017252011224627495,0.0,0.6276738047599792,0.0,0.0,-0.7784764766693115,0.3810243606567383,0.15448032319545746,0.0,0.0,0.0,-3.3818137645721436,0.4115559458732605,0.7313891053199768,0.42009177803993225,0.5448300242424011,0.0015278226928785443,-0.003106918418779969,-0.8385393619537354,0.4714531898498535,-0.5670201778411865,-0.05019599199295044,-6.397133827209473,-4.46592378616333,9.099919319152832,0.4078928232192993,0.7353345155715942,0.4226822555065155,0.3715703785419464,-0.21326488256454468,0.12928830087184906,0.3930407464504242,0.7384500503540039,0.42000001668930054,-0.2413555532693863,0.7313233017921448,-1.2576043605804443,-2.96335506439209,-0.21330608427524567,-0.2128007858991623,-0.20612704753875732,-0.19320093095302582,0.668978750705719,0.48616674542427063,0.28654247522354126,0.01161603070795536
0.6,0.031200192868709564,0.016940200701355934,0.0,0.6254572868347168,0.0,0.0,-0.7802584171295166,0.47845447063446045,-0.04965057596564293,0.0,0.0,0.0,0.6208508610725403,0.4134572744369507,0.7265328168869019,0.4200004041194916,0.5766535997390747,7.852918497519568e-05,5.438998050522059e-05,-0.8169886469841003,-0.11874866485595703,-0.3220067620277405,-0.0030320303048938513,-0.1365915834903717,0.012558850459754467,3.8951704502105713,0.40911099314689636,0.7304865121841431,0.4215133488178253,-0.16009202599525452,-0.2677692174911499,-0.0814351886510849,0.3930407464504242,0.7384500503540039,0.42000001668930054,-0.2525100111961365,-1.6005581617355347,-1.2193869352340698,2.999760627746582,-0.20425593852996826,-0.20581230521202087,-0.20167098939418793,-0.19259017705917358,0.4329027533531189,0.35260963439941406,0.23565556108951569,0.03918704763054848
0.6166666666666667,0.036087021231651306,0.019224371761083603,0.0,0.6167801022529602,0.0,0.0,-0.7871354818344116,0.22380474209785461,0.15943388640880585,0.0,0.0,0.0,-2.4109017848968506,0.4116511642932892,0.7221908569335938,0.4200000464916229,0.5978156328201294,-1.077032038665493e-06,1.4307496485344018e-06,-0.8016335964202881,-0.0916566550731659,-0.24545441567897797,-6.152433343231678e-06,-0.00028621734236367047,6.379032129189e-05,2.5440211296081543,0.40755948424339294,0.7286787033081055,0.42310845851898193,-0.06646429002285004,-0.024300726130604744,0.1782815158367157,0.3930407464504242,0.7384500503540039,0.42000001668930054,-0.2967309355735779,-2.998202323913574,-1.2399808168411255,-2.999424457550049,-0.19774985313415527,-0.20052704215049744,-0.19820579886436462,-0.19211967289447784,0.5207048654556274,0.4224252998828888,0.2890833020210266,0.09504485130310059
0.6333333333333333,0.0419015996158123,0.02416406013071537,0.0,0.6195419430732727,0.0,0.0,-0.7849635481834412,0.3658868074417114,0.3454172611236572,0.0,0.0,0.0,1.2800735235214233,0.4104516804218292,0.7190496921539307,0.4200000464916229,0.6094316244125366,-4.1162365960190073e-07,9.475309070694493e-07,-0.7928385138511658,-0.06541295349597931,-0.16945414245128632,-9.336392395198345e-06,-0.00044898377382196486,0.0001496507175033912,1.4939625263214111,0.40619736909866333,0.7298072576522827,0.4256874620914459,-0.14248120784759521,0.20008111000061035,0.17215396463871002,0.3930407464504242,0.7384500503540039,0.42000001668930054,-0.34329500794410706,-2.576491594314575,-1.2899701595306396,-2.999969482421875,-0.1902369111776352,-0.19455105066299438,-0.19436493515968323,-0.19131989777088165,0.4859214127063751,0.3835560083389282,0.24465960264205933,0.05784588307142258
0.65,0.04955293983221054,0.025895804166793823,0.0,0.6398062109947205,0.0,0.0,-0.7685362696647644,0.48931190371513367,0.08127743750810623,0.0,0.0,0.0,4.18317985534668,0.4093714654445648,0.7174389362335205,0.42001083493232727,0.6095577478408813,0.00017343203944619745,-0.000266132818069309,-0.792741596698761,-0.15232226252555847,-0.002857059706002474,0.008002967573702335,-0.09413107484579086,-0.3882061243057251,-4.463067531585693,0.4033164083957672,0.7339943647384644,0.428926944732666,-0.236190527677536,0.239268496632576,0.20559723675251007,0.3930407464504242,0.7384500503540039,0.42000001668930054,-0.393157035112381,-3.0000007152557373,-1.3399420976638794,-2.999082565307617,-0.18072877824306488,-0.18662956357002258,-0.18864326179027557,-0.18850097060203552,0.4790278971195221,0.42372000217437744,0.3284720778465271,0.1920439600944519
0.6666666666666666,0.05900439992547035,0.02470790036022663,0.0,0.647029459476471,0.0,0.0,-0.7624650001525879,0.5973116159439087,-0.1299062967300415,0.0,0.0,0.0,0.09775035083293915,0.4067537188529968,0.7179059386253357,0.42000001668930054,0.6069159507751465,5.132699698151555e-06,-3.214420303265797e-06,-0.7947658896446228,-0.13366848230361938,0.021205313503742218,-0.00011228314542677253,-0.0021207118406891823,0.005871131084859371,-0.3990198075771332,0.40072154998779297,0.7381694912910461,0.43297725915908813,-0.1323549598455429,0.24007222056388855,0.27478596568107605,0.3930407464504242,0.7384500503540039,0.42000001668930054,-0.4431975781917572,-2.9998745918273926,-1.3899110555648804,-2.9998300075531006,-0.17413802444934845,-0.18035955727100372,-0.18327710032463074,-0.1845884472131729,0.38223862648010254,0.3853651285171509,0.3565787672996521,0.3011365532875061
0.6833333333333333,0.07008600980043411,0.02004733867943287,0.0,0.6313722133636475,0.0,0.0,-0.7754799127578735,0.6986903548240662,-0.34629344940185547,0.0,0.0,0.0,-3.3503270149230957,0.40545183420181274,0.7181313037872314,0.4199998676776886,0.6070750951766968,2.5107719920924865e-06,-4.966948836226948e-06,-0.7946444153785706,-0.055725421756505966,0.008688206784427166,-1.9430764950811863e-05,0.0016353650717064738,0.0003826595493592322,-0.12786857783794403,0.39981698989868164,0.7423818111419678,0.4417654871940613,0.050751570612192154,0.23669883608818054,0.8927772045135498,0.3930407464504242,0.7384500503540039,0.42000001668930054,-0.49321091175079346,-2.9999749660491943,-1.4399292469024658,-3.0,-0.1703202724456787,-0.17593234777450562,-0.17869378626346588,-0.18017861247062683,0.13666124641895294,0.19884473085403442,0.2373151034116745,0.26147395372390747
0.7,0.08480870723724365,0.02021866664290428,0.0,0.6120404005050659,0.0,0.0,-0.7908264994621277,0.8273500204086304,0.04436231777071953,0.0,0.0,0.0,-2.6110618114471436,0.40530192852020264,0.7181552648544312,0.42000001668930054,0.6069730520248413,1.1910519788216334e-05,-1.6691485143383034e-05,-0.7947223782539368,0.0018585427897050977,-0.0008704097708687186,-0.0007075753528624773,0.0016646146541461349,0.015375923365354538,-0.004019685555249453,0.40085461735725403,0.7467185258865356,0.4643406867980957,0.15879768133163452,0.4514946937561035,1.8345918655395508,0.3930407464504242,0.7384500503540039,0.42000001668930054,-0.54322350025177,-2.9999990463256836,-1.4899475574493408,-2.9999992847442627,-0.1738777905702591,-0.17772477865219116,-0.17909453809261322,-0.17939172685146332,-0.10699453949928284,-0.046479854732751846,4.7558344817844045e-08,0.044338807463645935
0.7166666666666667,0.09865391999483109,0.016153980046510696,0.0,0.6137080192565918,0.0,0.0,-0.7895330786705017,0.8309202790260315,-0.27408841252326965,0.0,0.0,0.0,1.1575706005096436,0.40530362725257874,0.7181545495986938,0.4200000464916229,0.6069722175598145,5.485650262926356e-07,-3.3178598641825374e-06,-0.7947229743003845,0.00013434863649308681,-0.00028161032241769135,-9.323842823505402e-05,0.006267061922699213,-0.0011273280251771212,-0.0005902171833440661,0.40737390518188477,0.7537714242935181,0.49554911255836487,0.48695123195648193,0.3038175702095032,1.9405983686447144,0.3930407464504242,0.7384500503540039,0.42000001668930054,-0.5932341814041138,-2.9999983310699463,-1.5399658679962158,-2.9999992847442627,-0.1736607402563095,-0.1763995736837387,-0.1768091470003128,-0.17608335614204407,-0.1148284524679184,-0.005310419015586376,0.09753412008285522,0.20561723411083221
0.7333333333333333,0.10921584069728851,0.01436370424926281,0.0,0.6056615710258484,0.0,0.0,-0.7957223653793335,0.5610091686248779,-0.05774983763694763,0.0,0.0,0.0,-2.500060558319092,0.40530359745025635,0.7181545495986938,0.4200000464916229,0.6069720983505249,4.318443416195805e-07,-3.525145530147711e-06,-0.7947230935096741,0.00014152444782666862,-0.0002805157273542136,-9.502982720732689e-05,0.006190755404531956,-0.0010459363693371415,-0.0006062134634703398,0.4205377697944641,0.7572888135910034,0.5238129496574402,1.032140851020813,0.11060099303722382,1.602665901184082,0.3930407464504242,0.7384500503540039,0.42000001668930054,-0.6432353258132935,-2.9999969005584717,-1.5899841785430908,-3.000000238418579,-0.1753517985343933,-0.17630217969417572,-0.1749500036239624,-0.172293022274971,-0.04316389933228493,0.062329381704330444,0.168601393699646,0.28730928897857666
0.75,0.120231032371521,0.010682422667741776,0.0,0.5730080604553223,0.0,0.0,-0.8195497393608093,0.6914033889770508,-0.2869916558265686,0.0,0.0,0.0,-5.774749279022217,0.40530359745025635,0.7181545495986938,0.4200000464916229,0.606971800327301,5.737438186770305e-07,-3.042277739950805e-06,-0.7947233319282532,0.0001493191666668281,-0.00027713776216842234,-9.708967991173267e-05,0.006066571921110153,-0.0009389098850078881,-0.0006211270811036229,0.43933337926864624,0.7554410099983215,0.551059365272522,1.2778191566467285,-0.3260071873664856,1.8210082054138184,0.3930407464504242,0.7384500503540039,0.42000001668930054,-0.6819291114807129,-1.720656394958496,-1.6400007009506226,-2.9999992847442627,-0.17761363089084625,-0.1764761507511139,-0.1731335073709488,-0.1684037297964096,-0.1708555519580841,-0.03822089731693268,0.08322355896234512,0.2037486881017685
0.7666666666666666,0.1289147287607193,0.009079540148377419,0.0,0.5551072955131531,0.0,0.0,-0.8317787647247314,0.4418582618236542,-0.06562384217977524,0.0,0.0,0.0,-1.531623363494873,0.40530359745025635,0.7181545495986938,0.4200000464916229,0.6069722771644592,5.615771669909009e-07,-3.3548155897733523e-06,-0.7947229743003845,0.0001472766016377136,-0.0002779238566290587,-9.656068868935108e-05,0.00609621312469244,-0.0009671181906014681,-0.0006174041191115975,0.45644962787628174,0.7508156299591064,0.5781581401824951,0.7868354320526123,-0.20336470007896423,1.4485511779785156,0.3930407464504242,0.7384500503540039,0.42000001668930054,-0.6800411939620972,1.6511322259902954,-1.60775887966156,2.999999523162842,-0.1811659336090088,-0.1776905655860901,-0.1722823828458786,-0.1656065136194229,-0.08279983699321747,0.024379774928092957,0.1137985810637474,0.1946502923965454
0.7833333333333333,0.13302506506443024,0.010296124033629894,0.0,0.5632085800170898,0.0,0.0,-0.8263147473335266,0.17997147142887115,0.1263509839773178,0.0,0.0,0.0,1.9833542108535767,0.40530359745025635,0.7181545495986938,0.4200000464916229,0.6069720983505249,4.599284579853702e-07,-3.21626089316851e-06,-0.7947230935096741,0.00014145699969958514,-0.00028033385751768947,-9.499001316726208e-05,0.006186791229993105,-0.0010451885173097253,-0.0006058878498151898,0.4651191532611847,0.7500963807106018,0.6011396050453186,0.1749051809310913,0.04105197265744209,1.330058217048645,0.3930407464504242,0.7384500503540039,0.42000001668930054,-0.6354723572731018,2.9999849796295166,-1.5577024221420288,3.0000007152557373,-0.18130697309970856,-0.1766008883714676,-0.17025834321975708,-0.16279566287994385,0.07203055918216705,0.11703671514987946,0.143142431974411,0.15906167030334473
0.8,0.1332799792289734,0.00813622958958149,0.0,0.5581046342849731,0.0,0.0,-0.8297706246376038,-0.05894935131072998,-0.14436735212802887,0.0,0.0,0.0,-1.4656649827957153,0.40530362725257874,0.7181545495986938,0.4200000464916229,0.6069719195365906,6.181506932989578e-07,-2.8982392450416228e-06,-0.7947232127189636,0.00014753825962543488,-0.00027668444090522826,-9.668152779340744e-05,0.00606541195884347,-0.0009582467027939856,-0.000616933626588434,0.4619144797325134,0.7492406368255615,0.6162476539611816,-0.5923391580581665,-0.15507696568965912,0.6676769852638245,0.3930407464504242,0.7384500503540039,0.42000001668930054,-0.6123411655426025,0.013268773443996906,-1.5076459646224976,3.000000238418579,-0.17845764756202698,-0.1732265204191208,-0.1666787564754486,-0.15919728577136993,0.11075987666845322,0.1571914553642273,0.181601881980896,0.1907786875963211
0.8166666666666667,0.13091941177845,0.011422351934015751,0.0,0.5670246481895447,0.0,0.0,-0.8237008452415466,-0.17976383864879608,0.31863078474998474,0.0,0.0,0.0,2.182813882827759,0.40530359745025635,0.7181545495986938,0.4200000464916229,0.6069720983505249,5.49587468867685e-07,-3.3143592190754134e-06,-0.7947230935096741,0.00014718403690494597,-0.000278277148026973,-9.654113091528416e-05,0.006105402950197458,-0.000969983811955899,-0.0006174424779601395,0.454390287399292,0.7463164925575256,0.6263666152954102,-0.3390173316001892,-0.12138036638498306,0.5818608999252319,0.3930407464504242,0.7384500503540039,0.42000001668930054,-0.5888227224349976,2.566976308822632,-1.4575895071029663,2.999999761581421,-0.180882528424263,-0.1741669923067093,-0.16655142605304718,-0.1583375632762909,-0.1634993851184845,-0.08253757655620575,-0.024859977886080742,0.013790610246360302
0.8333333333333334,0.13113752007484436,0.011359475553035736,0.0,0.5630137324333191,0.0,0.0,-0.8264475464820862,-0.01291738636791706,-0.05151018500328064,0.0,0.0,0.0,-1.3017208576202393,0.40530359745025635,0.7181545495986938,0.4200000464916229,0.6069722175598145,5.42881423371e-07,-3.2629848192300415e-06,-0.7947229743003845,0.00014686668873764575,-0.00027808992308564484,-9.643961675465107e-05,0.006102671381086111,-0.0009722085087560117,-0.0006165613885968924,0.445274293422699,0.7427820563316345,0.6306337118148804,-0.8105324506759644,-0.3126688599586487,0.139120951294899,0.3930407464504242,0.7384500503540039,0.42000001668930054,-0.5839995741844177,-1.6303366422653198,-1.4075366258621216,2.9999992847442627,-0.17965002357959747,-0.17251040041446686,-0.16475804150104523,-0.15661850571632385,0.11780120432376862,0.12600454688072205,0.12037617713212967,0.10478711873292923
0.85,0.13273584842681885,0.009839584119617939,0.0,0.5710852146148682,0.0,0.0,-0.8208907842636108,0.14828993380069733,-0.12702271342277527,0.0,0.0,0.0,1.9852430820465088,0.40530359745025635,0.7181545495986938,0.4200000464916229,0.6069720387458801,4.924526706417964e-07,-3.308409304736415e-06,-0.7947230935096741,0.00014531865599565208,-0.0002783802920021117,-9.601842612028122e-05,0.0061187539249658585,-0.000990589032880962,-0.0006132139242254198,0.4404372572898865,0.7403807044029236,0.6328189969062805,0.1267041563987732,-0.024880889803171158,0.17663098871707916,0.3930407464504242,0.7384500503540039,0.42000001668930054,-0.584236741065979,1.3425580263137817,-1.357503056526184,2.9999969005584717,-0.17732685804367065,-0.1702823042869568,-0.1627141833305359,-0.1548023372888565,0.1548037976026535,0.1443009227514267,0.13326862454414368,0.12375461310148239
0.8666666666666667,0.13265791535377502,0.005776934325695038,0.0,0.5672500729560852,0.0,0.0,-0.8235455751419067,-0.053308840841054916,-0.3185049295425415,0.0,0.0,0.0,-1.4836382865905762,0.40530359745025635,0.7181545495986938,0.4200000464916229,0.6069718599319458,5.795638458039321e-07,-3.003681968039018e-06,-0.7947232127189636,0.00014911808830220252,-0.00027705857064574957,-9.702960960566998e-05,0.006065692286938429,-0.0009407175821252167,-0.0006206100224517286,0.44413667917251587,0.7371032238006592,0.6352731585502625,0.3220524489879608,-0.3214343190193176,0.2795322835445404,0.3930407464504242,0.7384500503540039,0.42000001668930054,-0.5972980856895447,-2.5598440170288086,-1.3074504137039185,3.0000007152557373,-0.1759573519229889,-0.16899877786636353,-0.16148647665977478,-0.15358170866966248,0.07909678667783737,0.06937438249588013,0.06321576982736588,0.061365965753793716
0.8833333333333333,0.13432030379772186,0.004988627973943949,0.0,0.5749849677085876,0.0,0.0,-0.8181639313697815,0.13095638155937195,0.001856824615970254,0.0,0.0,0.0,1.867616057395935,0.40530362725257874,0.7181545495986938,0.4200000464916229,0.6069722175598145,5.27990209775453e-07,-3.2314733289240394e-06,-0.7947230935096741,0.00014644132170360535,-0.0002786192635539919,-9.62431076914072e-05,0.006118270568549633,-0.0009775494690984488,-0.0006159006734378636,0.4539453387260437,0.7317943572998047,0.6388564705848694,0.8317821025848389,-0.27463382482528687,0.18664418160915375,0.3930407464504242,0.7384500503540039,0.42000001668930054,-0.6100749969482422,0.7500301599502563,-1.3271878957748413,-2.999999523162842,-0.1764094978570938,-0.16935177147388458,-0.16162583231925964,-0.1534004658460617,0.058240778744220734,0.046776264905929565,0.047026053071022034,0.05813039466738701
