vladlanda/robotic-transformer/data/env_000_episode_0139.csv
sim_time_s,robot_box_x,robot_box_y,robot_box_z,robot_box_quat_w,robot_box_quat_x,robot_box_quat_y,robot_box_quat_z,robot_box_linvel_x,robot_box_linvel_y,robot_box_linvel_z,robot_box_angvel_x,robot_box_angvel_y,robot_box_angvel_z,cube_world_x,cube_world_y,cube_world_z,cube_quat_w,cube_quat_x,cube_quat_y,cube_quat_z,cube_linvel_x,cube_linvel_y,cube_linvel_z,cube_angvel_x,cube_angvel_y,cube_angvel_z,endpoint_world_x,endpoint_world_y,endpoint_world_z,endpoint_linvel_x,endpoint_linvel_y,endpoint_linvel_z,target_cube_world_x,target_cube_world_y,target_cube_world_z,gripper_actual_pos_rad_gp_leftgearjoint,gripper_actual_vel_rad_s_gp_leftgearjoint,gripper_actual_pos_rad_gp_rotatingjoint,gripper_actual_vel_rad_s_gp_rotatingjoint,motor_angle_rad_joint1,motor_angle_rad_joint2,motor_angle_rad_joint3,motor_angle_rad_joint4,motor_speed_rad_s_joint1,motor_speed_rad_s_joint2,motor_speed_rad_s_joint3,motor_speed_rad_s_joint4
0.0,0.0,0.0,0.0,1.0,0.0,0.0,0.0,0.0,0.0,0.0,0.0,0.0,0.0,-0.3966771364212036,0.6695777177810669,0.41999998688697815,1.0,0.0,0.0,0.0,0.0,0.0,0.0,0.0,0.0,0.0,3.42540442943573e-06,-0.005000244826078415,1.313499927520752,0.0,0.0,0.0,0.4747885465621948,0.7525450587272644,0.42000001668930054,-1.5707999467849731,0.0,0.0,0.0,0.0,0.0,0.0,0.0,0.0,0.0,0.0,0.0
0.016666666666666666,0.0028778850100934505,0.0021806680597364902,0.0,0.9998081922531128,0.0,0.0,0.019586581736803055,0.24087215960025787,0.18240931630134583,0.0,0.0,0.0,3.1418697834014893,-0.39667725563049316,0.669577419757843,0.41999998688697815,1.0,3.279964630564791e-06,-8.339746386809566e-07,8.465587342243452e-08,-1.9833529222523794e-05,0.00017983045836444944,-6.132945418357849e-05,0.0009432713268324733,-0.004689474124461412,-0.00031981561915017664,-0.007110234349966049,0.003379564033821225,1.3159373998641968,-0.8143353462219238,0.9868683815002441,0.18095196783542633,0.4747885465621948,0.7525450587272644,0.42000001668930054,-1.5301095247268677,3.0000011920928955,-0.04584788903594017,-2.9999992847442627,0.0008691533003002405,0.0007963840034790337,0.0007110277656465769,0.0006108740926720202,0.11094217747449875,0.09756709635257721,0.08334315568208694,0.06823883205652237
0.03333333333333333,0.008960986509919167,0.006801987998187542,0.0,0.9997960329055786,0.0,0.0,0.020196838304400444,0.40702202916145325,0.3153083324432373,0.0,0.0,0.0,-0.8691319823265076,-0.3966773748397827,0.6695773601531982,0.4200000464916229,1.0,3.3908354453160428e-06,-2.1324485715012997e-06,-3.710144014235084e-08,0.00026357831666246057,0.00026937946677207947,-0.00010509486310184002,-0.0017707672668620944,0.004130808170884848,-0.000135478752781637,-0.02755289524793625,0.026197373867034912,1.316596508026123,-1.5914100408554077,1.615983486175537,-0.08501016348600388,0.4747885465621948,0.7525450587272644,0.42000001668930054,-1.4800904989242554,3.0000016689300537,-0.09588772803544998,-3.0000011920928955,0.002990108449012041,0.00265271938405931,0.002277288818731904,0.0018607458332553506,0.16421596705913544,0.13975967466831207,0.1138187050819397,0.08630087971687317
0.05,0.018416304141283035,0.013833608478307724,0.0,0.99998939037323,0.0,0.0,-0.0046050697565078735,0.6357060670852661,0.470005065202713,0.0,0.0,0.0,-4.085873603820801,-0.3966774046421051,0.669577419757843,0.4200000464916229,1.0,3.765139354072744e-06,-2.2119161258160602e-06,5.630195420991413e-09,0.0002653095289133489,0.00026691411039792,-0.00010440382175147533,-0.0017242460744455457,0.004177400842308998,-0.00012949357915204018,-0.05733291059732437,0.05724865943193436,1.3118759393692017,-1.9539506435394287,2.0538430213928223,-0.45983317494392395,0.4747885465621948,0.7525450587272644,0.42000001668930054,-1.4300721883773804,3.0000035762786865,-0.14592641592025757,-3.0000014305114746,0.005991993937641382,0.005155111663043499,0.004245791584253311,0.003259825287386775,0.20747381448745728,0.16704469919204712,0.12470309436321259,0.0803670734167099
0.06666666666666667,0.030721180140972137,0.023281119763851166,0.0,0.9999141097068787,0.0,0.0,-0.013108265586197376,0.7724257707595825,0.6136804223060608,0.0,0.0,0.0,-0.0502612330019474,-0.3966774046421051,0.6695773601531982,0.4200000464916229,0.9999999403953552,3.4067325032083318e-06,-2.285616346853203e-06,4.301086846680846e-07,0.0002670263056643307,0.0002679172612261027,-0.00010437914170324802,-0.0017406872939318419,0.004211808554828167,-0.0001285045873373747,-0.09478740394115448,0.09021744132041931,1.3008004426956177,-2.385754108428955,2.0860867500305176,-0.8563001155853271,0.4747885465621948,0.7525450587272644,0.42000001668930054,-1.3800538778305054,2.9999992847442627,-0.19593098759651184,-3.0000007152557373,0.008773593232035637,0.007234624121338129,0.005583241581916809,0.0038143955171108246,0.15698225796222687,0.10764889419078827,0.0561935231089592,0.0025366756599396467
0.08333333333333333,0.04548034816980362,0.034847840666770935,0.0,0.9993581175804138,0.0,0.0,-0.03582315146923065,0.9425731897354126,0.7328749895095825,0.0,0.0,0.0,-3.5821595191955566,-0.3966774046421051,0.6695773601531982,0.4200000464916229,1.0,3.6972751331632026e-06,-2.188954113080399e-06,-2.6322550183977e-07,0.0002638972655404359,0.00026586506282910705,-0.00010434049181640148,-0.0017082244157791138,0.004150220658630133,-0.00012991207768209279,-0.13074345886707306,0.12996676564216614,1.2852942943572998,-1.9317631721496582,2.663825511932373,-0.9955329298973083,0.4747885465621948,0.7525450587272644,0.42000001668930054,-1.3300246000289917,3.0000014305114746,-0.1698022335767746,3.000000238418579,0.009952180087566376,0.007329721935093403,0.004551759455353022,0.0016133487224578857,0.01918017491698265,-0.06238391995429993,-0.146197110414505,-0.2322153002023697
0.1,0.054274123162031174,0.05035379156470299,0.0,0.9964577555656433,0.0,0.0,-0.08409446477890015,0.38775399327278137,1.0135353803634644,0.0,0.0,0.0,-7.1341166496276855,-0.3966774046421051,0.6695773601531982,0.4200000464916229,0.9999999403953552,3.620343704824336e-06,-2.265245484522893e-06,1.7462637913467915e-07,0.00026676931884139776,0.000267408206127584,-0.00010407879017293453,-0.001738669816404581,0.004209199454635382,-0.00012775094364769757,-0.162788987159729,0.1745472103357315,1.26687490940094,-1.868554711341858,2.770463466644287,-1.1593070030212402,0.4747885465621948,0.7525450587272644,0.42000001668930054,-1.2800300121307373,3.0000009536743164,-0.20148411393165588,-3.0000011920928955,0.003806501626968384,0.00030644863727502525,-0.0034025218337774277,-0.007328393869102001,-0.4946623146533966,-0.5449840426445007,-0.5979276895523071,-0.6537281274795532
0.11666666666666667,0.05784980580210686,0.06771612912416458,0.0,0.9933028817176819,0.0,0.0,-0.11553957313299179,0.21575342118740082,0.9848447442054749,0.0,0.0,0.0,-2.5586764812469482,-0.3966774046421051,0.6695773601531982,0.4200000464916229,1.0,3.798347734118579e-06,-2.2628460101259407e-06,-1.5019826093976008e-07,0.0002637401921674609,0.00026566156884655356,-0.00010429113171994686,-0.0017054638592526317,0.004147501662373543,-0.00012979934399481863,-0.200856551527977,0.21532416343688965,1.245276927947998,-2.395775079727173,2.5537805557250977,-1.3836867809295654,0.4747885465621948,0.7525450587272644,0.42000001668930054,-1.2300240993499756,2.9999983310699463,-0.2515178918838501,-2.999999761581421,-0.004327484872192144,-0.008841628208756447,-0.013571766205132008,-0.018529139459133148,-0.3718344569206238,-0.4508298635482788,-0.5281147360801697,-0.6037697196006775
0.13333333333333333,0.07056383043527603,0.0805085226893425,0.0,0.9883165955543518,0.0,0.0,-0.15241499245166779,0.8084285855293274,0.819109320640564,0.0,0.0,0.0,-5.332801342010498,-0.3966774046421051,0.669577419757843,0.4200000464916229,0.9999999403953552,3.550474502844736e-06,-2.229893652838655e-06,2.9291419423316256e-07,0.0002670332323759794,0.0002677943557500839,-0.00010417005978524685,-0.0017440859228372574,0.004213657695800066,-0.00012800388503819704,-0.23718906939029694,0.26428794860839844,1.2218883037567139,-1.9387726783752441,3.4433441162109375,-1.5489890575408936,0.4747885465621948,0.7525450587272644,0.42000001668930054,-1.180002212524414,3.0000011920928955,-0.21744583547115326,2.9999988079071045,-0.0028602394741028547,-0.009723235853016376,-0.016710534691810608,-0.023829184472560883,-0.11514776200056076,-0.23221255838871002,-0.34534168243408203,-0.4542434811592102
0.15,0.07921197265386581,0.09127771854400635,0.0,0.9852107167243958,0.0,0.0,-0.17134703695774078,0.4626806378364563,0.5719125270843506,0.0,0.0,0.0,-1.1955279111862183,-0.3966773748397827,0.6695773601531982,0.4200000464916229,1.0,3.332175083414768e-06,-2.1020707663410576e-06,1.3131682408129564e-07,0.0002673084964044392,0.00026859689387492836,-0.00010459520854055882,-0.0017496650107204914,0.0042156632989645,-0.00012928851356264204,-0.27356040477752686,0.3167916536331177,1.1897132396697998,-2.124403953552246,3.317430019378662,-2.238009452819824,0.4747885465621948,0.7525450587272644,0.42000001668930054,-1.1404205560684204,1.8206623792648315,-0.2487487941980362,-3.0,-0.009276426397264004,-0.01735655777156353,-0.02551421895623207,-0.03375708684325218,-0.41779839992523193,-0.47825920581817627,-0.5355715155601501,-0.5898435711860657
0.16666666666666666,0.08294637501239777,0.10455552488565445,0.0,0.979324996471405,0.0,0.0,-0.2022932916879654,0.2218489646911621,0.7358455061912537,0.0,0.0,0.0,-4.406274795532227,-0.3966774046421051,0.6695773601531982,0.4200000464916229,1.0,3.737257202374167e-06,-2.2331987565848976e-06,-1.8764458786790783e-07,0.00026433030143380165,0.000266268034465611,-0.00010445783846080303,-0.0017118732212111354,0.004157560411840677,-0.00013001071056351066,-0.30841293931007385,0.37630632519721985,1.1437771320343018,-2.0642247200012207,3.780160903930664,-3.07238507270813,0.4747885465621948,0.7525450587272644,0.42000001668930054,-1.0929336547851562,3.0000007152557373,-0.21470454335212708,2.999999523162842,-0.02031971700489521,-0.028759002685546875,-0.037236474454402924,-0.04576772451400757,-0.5472190976142883,-0.5805496573448181,-0.6094982028007507,-0.6343032717704773
0.18333333333333332,0.0925649106502533,0.11265067756175995,0.0,0.9656335711479187,0.0,0.0,-0.25990724563598633,0.6706516146659851,0.510139524936676,0.0,0.0,0.0,-7.8307037353515625,-0.3966774046421051,0.669577419757843,0.4200000464916229,0.9999999403953552,3.6601879855879815e-06,-2.302341272297781e-06,2.528711604554701e-07,0.000266908056801185,0.00026760302716866136,-0.000104124890640378,-0.0017413176828995347,0.004211504012346268,-0.00012786878505721688,-0.33945563435554504,0.4451856017112732,1.085282325744629,-1.515763521194458,4.442844867706299,-3.9517502784729004,0.4747885465621948,0.7525450587272644,0.42000001668930054,-1.0429322719573975,3.000002861022949,-0.24605999886989594,-3.000000476837158,-0.027059214189648628,-0.036072973161935806,-0.04505409672856331,-0.05402273312211037,-0.5779974460601807,-0.575692355632782,-0.5712947249412537,-0.5652112364768982
0.2,0.09700100123882294,0.12371765077114105,0.0,0.9548845887184143,0.0,0.0,-0.2969772219657898,0.23071430623531342,0.6684426069259644,0.0,0.0,0.0,-3.31217360496521,-0.3966774046421051,0.6695773601531982,0.4200000464916229,1.0,3.5907578421756625e-06,-2.3004690774541814e-06,1.3875796867068857e-07,0.00026654661633074284,0.00026732246624305844,-0.0001042394433170557,-0.0017325595254078507,0.00420342106372118,-0.00012821020209230483,-0.36639589071273804,0.5097405910491943,1.009552240371704,-1.3512266874313354,3.85978102684021,-4.924552917480469,0.4747885465621948,0.7525450587272644,0.42000001668930054,-0.9929279685020447,3.0,-0.2960869371891022,-3.0000007152557373,-0.041871413588523865,-0.05071274936199188,-0.05942969024181366,-0.06801188737154007,-0.7191107273101807,-0.7487105131149292,-0.7799382209777832,-0.8088310956954956
0.21666666666666667,0.09952462464570999,0.13026189804077148,0.0,0.9537983536720276,0.0,0.0,-0.3004474639892578,0.050328873097896576,0.34187445044517517,0.0,0.0,0.0,0.5847606658935547,-0.3966774046421051,0.669577419757843,0.4200000464916229,1.0,3.606865902838763e-06,-2.261095914946054e-06,1.9646103410764226e-08,0.0002644704363774508,0.0002655842690728605,-0.00010396563448011875,-0.0017088704043999314,0.004164243582636118,-0.00012832065112888813,-0.3922131061553955,0.5630190372467041,0.9241470098495483,-1.318589687347412,2.8339037895202637,-5.404508113861084,0.4747885465621948,0.7525450587272644,0.42000001668930054,-0.9429188966751099,3.000000238418579,-0.34611615538597107,-3.0000011920928955,-0.053468573838472366,-0.06247337535023689,-0.07138104736804962,-0.08013182878494263,-0.8744825720787048,-0.8416730761528015,-0.8124585151672363,-0.7848312258720398
0.23333333333333334,0.09698515385389328,0.13986892998218536,0.0,0.9483119249343872,0.0,0.0,-0.3173397183418274,-0.21075235307216644,0.5495601296424866,0.0,0.0,0.0,-2.9031662940979004,-0.3966773748397827,0.6695773601531982,0.4200000464916229,0.9999999403953552,3.742164153663907e-06,-2.227621735073626e-06,4.589477669014741e-07,0.0002647507353685796,0.00026671186788007617,-0.00010453304275870323,-0.0017189144855365157,0.004165781196206808,-0.00013019215839449316,-0.40897631645202637,0.6070745587348938,0.8270045518875122,-0.7784792184829712,2.276510238647461,-6.027740478515625,0.4747885465621948,0.7525450587272644,0.42000001668930054,-0.89290851354599,3.0000007152557373,-0.3961469829082489,-3.0000011920928955,-0.06961167603731155,-0.07862594723701477,-0.08749420940876007,-0.09617598354816437,-0.7871474623680115,-0.8209136724472046,-0.8523076772689819,-0.880374550819397
0.25,0.09958476573228836,0.14350758492946625,0.0,0.9480835199356079,0.0,0.0,-0.31802141666412354,0.21888825297355652,0.22325576841831207,0.0,0.0,0.0,0.6991745233535767,-0.3966774046421051,0.6695773601531982,0.4200000464916229,1.0,3.394281748114736e-06,-2.2822139271738706e-06,1.3366967266392749e-07,0.0002667936496436596,0.00026793917641043663,-0.0001043959055095911,-0.0017416636692360044,0.004206570331007242,-0.0001288379280595109,-0.42349132895469666,0.6370114684104919,0.727035641670227,-0.6565271019935608,1.298457384109497,-6.03745174407959,0.4747885465621948,0.7525450587272644,0.42000001668930054,-0.8428985476493835,2.999976396560669,-0.4461786150932312,-2.9999985694885254,-0.0800672248005867,-0.08938552439212799,-0.09855566918849945,-0.10752777010202408,-0.8676585555076599,-0.8312433362007141,-0.7980824112892151,-0.7683408260345459
0.26666666666666666,0.09776845574378967,0.14532187581062317,0.0,0.9430676698684692,0.0,0.0,-0.3326008915901184,-0.2240557223558426,0.06803632527589798,0.0,0.0,0.0,-2.697779893875122,-0.3966774046421051,0.669577419757843,0.4200000464916229,1.0,3.683290287881391e-06,-2.3102563773136353e-06,2.1014641049532656e-07,0.0002647915680427104,0.0002662589540705085,-0.00010421173647046089,-0.00171689223498106,0.004168987274169922,-0.0001290979707846418,-0.4284902513027191,0.6543645262718201,0.6250272989273071,0.12940865755081177,0.6143652200698853,-5.8560686111450195,0.4747885465621948,0.7525450587272644,0.42000001668930054,-0.7928897142410278,3.000000476837158,-0.4962092936038971,-3.000000476837158,-0.09768534451723099,-0.10676440596580505,-0.11574065685272217,-0.12453588843345642,-1.0156384706497192,-1.0117419958114624,-1.0087791681289673,-1.0064303874969482
0.2833333333333333,0.09651661664247513,0.1443762332201004,0.0,0.9436447620391846,0.0,0.0,-0.3309600055217743,-0.012353437952697277,-0.11551475524902344,0.0,0.0,0.0,0.9155488014221191,-0.3966774046421051,0.6695773601531982,0.4200000464916229,1.0,3.3067699405364692e-06,-2.212680783486576e-06,2.626196646815515e-07,0.00026660721050575376,0.0002674503193702549,-0.00010424340143799782,-0.0017352817812934518,0.004204391967505217,-0.00012828312173951417,-0.4261389970779419,0.6629815697669983,0.5325722694396973,0.3763834834098816,0.31727078557014465,-5.282843589782715,0.4747885465621948,0.7525450587272644,0.42000001668930054,-0.7428809404373169,3.0000009536743164,-0.5462389588356018,-2.9999992847442627,-0.1147477775812149,-0.12374662607908249,-0.13267691433429718,-0.14143912494182587,-1.01055908203125,-1.0079666376113892,-1.0059889554977417,-1.0044132471084595
0.3,0.09241349250078201,0.1415138691663742,0.0,0.9386674165725708,0.0,0.0,-0.3448238670825958,-0.20821192860603333,-0.25681304931640625,0.0,0.0,0.0,-2.586120128631592,-0.3966774046421051,0.6695773601531982,0.4200000464916229,1.0,3.6408114283403847e-06,-2.3781321942806244e-06,-4.193823031073407e-07,0.000266095477854833,0.00026721254107542336,-0.00010421359911561012,-0.0017330015543848276,0.004194345790892839,-0.00012849061749875546,-0.4128391146659851,0.6667615175247192,0.4468613266944885,1.1424142122268677,0.2891123294830322,-4.934041976928711,0.4747885465621948,0.7525450587272644,0.42000001668930054,-0.6928734183311462,2.999988317489624,-0.5962666273117065,-2.999999761581421,-0.13249218463897705,-0.14123305678367615,-0.1499769687652588,-0.15859636664390564,-0.7787731289863586,-0.8268035054206848,-0.8713869452476501,-0.9112392067909241
0.31666666666666665,0.08720243722200394,0.1360265612602234,0.0,0.9395855069160461,0.0,0.0,-0.34231433272361755,-0.3536348342895508,-0.3655926287174225,0.0,0.0,0.0,1.2389857769012451,-0.3966774046421051,0.669577419757843,0.4200000464916229,1.0,3.621546738941106e-06,-2.289162011948065e-06,1.969109604260666e-07,0.00026733949198387563,0.0002680270408745855,-0.00010420684702694416,-0.0017466406570747495,0.004218932241201401,-0.00012793944915756583,-0.40473324060440063,0.6709417700767517,0.4198448657989502,0.31850162148475647,0.26653948426246643,-0.12250423431396484,0.4747885465621948,0.7525450587272644,0.42000001668930054,-0.6430171728134155,2.988990545272827,-0.646837055683136,-2.80440092086792,-0.14114125072956085,-0.15020817518234253,-0.1590871810913086,-0.16760696470737457,-0.28359174728393555,-0.2974226474761963,-0.2909016013145447,-0.2592933773994446
0.3333333333333333,0.07957594096660614,0.12832869589328766,0.0,0.9353364109992981,0.0,0.0,-0.3537594676017761,-0.5048372745513916,-0.5011407732963562,0.0,0.0,0.0,-2.363769292831421,-0.3947925567626953,0.6722685694694519,0.4205024838447571,0.9996019601821899,0.01255939994007349,8.207220162148587e-06,-0.025258434936404228,0.23612754046916962,0.32899296283721924,0.06198820471763611,3.1115663051605225,-0.011343244463205338,-5.825372219085693,-0.4020485281944275,0.6765475273132324,0.42301642894744873,0.2665167450904846,0.3788379430770874,-0.1225174218416214,0.4747885465621948,0.7525450587272644,0.42000001668930054,-0.5930111408233643,2.9999780654907227,-0.6969038248062134,-2.9999992847442627,-0.1458457112312317,-0.1548738032579422,-0.16331873834133148,-0.17095082998275757,-0.3637334108352661,-0.33087077736854553,-0.277851939201355,-0.20252303779125214
0.35,0.06961782276630402,0.11847096681594849,0.0,0.9368525743484497,0.0,0.0,-0.34972456097602844,-0.6379771828651428,-0.6290143728256226,0.0,0.0,0.0,1.4458742141723633,-0.38942527770996094,0.6798169612884521,0.420896977186203,0.9941732883453369,0.022832656279206276,-0.002303616376593709,-0.10532180219888687,0.4028610587120056,0.5753127336502075,0.015741299837827682,0.8250309824943542,-0.10131364315748215,-14.173822402954102,-0.3964521288871765,0.6857718229293823,0.42119771242141724,0.41875389218330383,0.6906641721725464,-0.08228779584169388,0.4747885465621948,0.7525450587272644,0.42000001668930054,-0.543006181716919,2.999979257583618,-0.7469415068626404,-3.000000476837158,-0.15322768688201904,-0.1610792726278305,-0.1680004596710205,-0.173752099275589,-0.45554789900779724,-0.36314690113067627,-0.2502348721027374,-0.1171763613820076
0.36666666666666664,0.06281307339668274,0.10606782883405685,0.0,0.9330258369445801,0.0,0.0,-0.3598094582557678,-0.3158567249774933,-0.7904275059700012,0.0,0.0,0.0,-2.187549352645874,-0.3812510669231415,0.6911885738372803,0.4203885793685913,0.9881682395935059,0.009598118253052235,-0.0015923798782750964,-0.1530645489692688,0.5762624144554138,0.781946063041687,-0.018681401386857033,-0.9084548354148865,0.24664635956287384,-3.8778388500213623,-0.38751721382141113,0.6959677338600159,0.4203779697418213,0.6939547061920166,0.668780505657196,-0.03336463123559952,0.4747885465621948,0.7525450587272644,0.42000001668930054,-0.4930016100406647,2.999981641769409,-0.7969939112663269,-2.999993324279785,-0.16110782325267792,-0.16690005362033844,-0.17138826847076416,-0.1743621826171875,-0.458999365568161,-0.3133186101913452,-0.1458641141653061,0.04064609855413437
0.3833333333333333,0.05347727984189987,0.09211669117212296,0.0,0.9176046252250671,0.0,0.0,-0.39749428629875183,-0.6463788747787476,-0.8625874519348145,0.0,0.0,0.0,-5.824462890625,-0.3673504590988159,0.708977460861206,0.42027682065963745,0.9818048477172852,0.0011128797195851803,-0.005167977884411812,-0.18981920182704926,1.099029541015625,1.3746055364608765,0.09125743061304092,0.9206416606903076,-3.1547493934631348,-5.1940484046936035,-0.37278175354003906,0.7116159200668335,0.4214266538619995,1.1070516109466553,1.2822920083999634,0.14023861289024353,0.4747885465621948,0.7525450587272644,0.42000001668930054,-0.44299793243408203,2.999985694885254,-0.8470479846000671,-2.9999969005584717,-0.1707858145236969,-0.17376676201820374,-0.17509441077709198,-0.17462147772312164,-0.5499604344367981,-0.38653764128685,-0.20301978290081024,-0.0033939466811716557
0.4,0.0474238358438015,0.07519477605819702,0.0,0.8881298303604126,0.0,0.0,-0.45959264039993286,-0.3261066675186157,-1.061282992362976,0.0,0.0,0.0,-9.00083065032959,-0.3342329263687134,0.7374098300933838,0.4241779148578644,0.9695160984992981,0.004550577607005835,-0.03504132479429245,-0.2424662858247757,2.9956483840942383,2.240973472595215,0.2951880395412445,24.02349853515625,-9.847963333129883,4.658140659332275,-0.33953171968460083,0.741186261177063,0.42479386925697327,2.898090362548828,2.199944019317627,0.40527427196502686,0.4747885465621948,0.7525450587272644,0.42000001668930054,-0.3974210023880005,1.9908385276794434,-0.8970707058906555,-3.0,-0.18038907647132874,-0.18003691732883453,-0.17772601544857025,-0.173402801156044,-0.6948145031929016,-0.44658154249191284,-0.18407192826271057,0.08528979122638702
0.4166666666666667,0.04340873658657074,0.06304267048835754,0.0,0.8420235514640808,0.0,0.0,-0.5394408106803894,-0.1512267291545868,-0.766907811164856,0.0,0.0,0.0,-11.690224647521973,-0.25992992520332336,0.7800096273422241,0.4306803345680237,0.9412853121757507,0.21040813624858856,0.006142112426459789,-0.2639555335044861,5.366535663604736,3.131343126296997,0.34836462140083313,36.69969940185547,0.10993295162916183,5.605877876281738,-0.2653810977935791,0.7838789224624634,0.43115949630737305,5.501206398010254,3.082318067550659,0.46294498443603516,0.4747885465621948,0.7525450587272644,0.42000001668930054,-0.3771784007549286,1.3918620347976685,-0.8599532842636108,3.0000007152557373,-0.19608311355113983,-0.19346259534358978,-0.18550823628902435,-0.17578725516796112,-0.551069974899292,-0.63154137134552,-0.3751317262649536,-0.13430841267108917
0.43333333333333335,0.04326280578970909,0.05254656448960304,0.0,0.8021193742752075,0.0,0.0,-0.597163736820221,0.044615812599658966,-0.569625198841095,0.0,0.0,0.0,-7.236275672912598,-0.1662541627883911,0.8255226016044617,0.44040119647979736,0.9029994606971741,0.24635939300060272,-0.03162767365574837,-0.35056909918785095,6.071682453155518,2.0366499423980713,0.32014188170433044,16.983734130859375,-6.346547603607178,6.460428237915039,-0.17054754495620728,0.8325221538543701,0.4408821165561676,5.9031171798706055,2.5172600746154785,0.7023046612739563,0.4747885465621948,0.7525450587272644,0.42000001668930054,-0.36157527565956116,0.8275770545005798,-0.8857477903366089,-3.000000238418579,-0.20732636749744415,-0.2048681229352951,-0.1926947832107544,-0.17917031049728394,-0.6653746962547302,-0.6320584416389465,-0.3982561230659485,-0.1931881159543991
0.45,0.04080250859260559,0.047354619950056076,0.0,0.781887948513031,0.0,0.0,-0.6234189867973328,-0.13286066055297852,-0.2770712077617645,0.0,0.0,0.0,-2.5567901134490967,-0.06627620756626129,0.856304943561554,0.4523078501224518,0.8567171096801758,0.07374397665262222,-0.12590612471103668,-0.49471715092658997,6.046403884887695,1.4908268451690674,0.7380077838897705,-54.27781295776367,1.7204116582870483,-31.78310775756836,-0.07061135768890381,0.8650041818618774,0.4509758949279785,6.213813781738281,1.5047574043273926,0.6526161432266235,0.4747885465621948,0.7525450587272644,0.42000001668930054,-0.34675702452659607,1.0376136302947998,-0.9357717037200928,-3.0000040531158447,-0.22194387018680573,-0.21785461902618408,-0.2013045847415924,-0.18399903178215027,-0.6940566897392273,-0.6440020799636841,-0.44176220893859863,-0.2678356170654297
0.4666666666666667,0.04242505505681038,0.03689968213438988,0.0,0.7538907527923584,0.0,0.0,-0.6569998264312744,0.06692079454660416,-0.665740430355072,0.0,0.0,0.0,-5.978847026824951,0.03663488104939461,0.8701412081718445,0.46050700545310974,0.7773407101631165,0.08932092785835266,-0.12457349896430969,-0.6101185083389282,6.084532260894775,-0.7056745886802673,0.46357235312461853,-12.07974910736084,12.297444343566895,7.215524196624756,0.03327007591724396,0.8818223476409912,0.45897334814071655,6.361371994018555,0.32304325699806213,0.539452075958252,0.4747885465621948,0.7525450587272644,0.42000001668930054,-0.33361661434173584,0.5387208461761475,-0.9857957363128662,-2.9986658096313477,-0.22960174083709717,-0.22420483827590942,-0.20456010103225708,-0.18448497354984283,-0.6074895262718201,-0.43608149886131287,-0.2023821473121643,0.01116133201867342
0.48333333333333334,0.04556865990161896,0.03109101392328739,0.0,0.7381855249404907,0.0,0.0,-0.6745977401733398,0.2216520458459854,-0.2985934913158417,0.0,0.0,0.0,-1.6966838836669922,0.1370459794998169,0.8652865290641785,0.468203067779541,0.6830716729164124,0.08519163727760315,-0.12597711384296417,-0.714342474937439,5.289658546447754,-1.7503817081451416,0.3580883741378784,-13.621728897094727,-9.219261169433594,35.654014587402344,0.13374267518520355,0.8786524534225464,0.4669608473777771,6.065273761749268,-0.5965338945388794,0.6218514442443848,0.4747885465621948,0.7525450587272644,0.42000001668930054,-0.32836219668388367,-0.03279484063386917,-1.0358202457427979,-3.000002384185791,-0.23997865617275238,-0.23451296985149384,-0.21090127527713776,-0.187372088432312,-0.040922861546278,-0.6441879272460938,-0.4480915665626526,-0.2833349108695984
0.5,0.047700170427560806,0.028410620987415314,0.0,0.7161995768547058,0.0,0.0,-0.6978955268859863,0.06971251219511032,-0.09989696741104126,0.0,0.0,0.0,-4.671890735626221,0.22660356760025024,0.8494971394538879,0.47054141759872437,0.6184988617897034,0.08152801543474197,-0.12044926732778549,-0.7722073793411255,4.650423049926758,-1.6330243349075317,-0.09176450967788696,-5.943013668060303,4.9560747146606445,10.948322296142578,0.22405338287353516,0.863917350769043,0.46986135840415955,5.112659454345703,-1.2671113014221191,0.012298551388084888,0.4747885465621948,0.7525450587272644,0.42000001668930054,-0.3292006850242615,0.05911247432231903,-1.0858423709869385,-2.998223304748535,-0.24000069499015808,-0.2399994432926178,-0.21752481162548065,-0.19222387671470642,-0.026672711595892906,-0.0010143357794731855,-0.34900298714637756,-0.27847665548324585
0.5166666666666666,0.050677016377449036,0.029035188257694244,0.0,0.7081117033958435,0.0,0.0,-0.7061004042625427,0.21533353626728058,0.0895993709564209,0.0,0.0,0.0,-0.35258927941322327,0.3018742501735687,0.8252077102661133,0.4628179669380188,0.5428935885429382,0.048440370708703995,-0.15582282841205597,-0.8237956166267395,4.010380268096924,-1.5711925029754639,-0.6789292097091675,-3.761030435562134,-5.284631729125977,-6.031622886657715,0.2987937331199646,0.839677095413208,0.4649758040904999,3.992007255554199,-1.6634631156921387,-0.5184401273727417,0.4747885465621948,0.7525450587272644,0.42000001668930054,-0.32040444016456604,1.0721173286437988,-1.135864496231079,-3.0000009536743164,-0.23989002406597137,-0.23942430317401886,-0.22228845953941345,-0.19641271233558655,0.04631522297859192,0.11200471967458725,-0.17145857214927673,-0.18545928597450256
0.5333333333333333,0.05707241967320442,0.024376405403017998,0.0,0.6901293992996216,0.0,0.0,-0.7236859798431396,0.3606807589530945,-0.2805600166320801,0.0,0.0,0.0,-3.77508544921875,0.36383169889450073,0.801295280456543,0.44867143034935,0.5052533745765686,0.018374860286712646,-0.14481449127197266,-0.8505351543426514,3.352879285812378,-1.766074299812317,-0.8083894848823547,-8.145148277282715,6.289236068725586,2.277092933654785,0.36275744438171387,0.8159497380256653,0.4510263204574585,3.496028423309326,-1.4792380332946777,-1.0138463973999023,0.4747885465621948,0.7525450587272644,0.42000001668930054,-0.2988778352737427,1.1704888343811035,-1.1858866214752197,-2.999011993408203,-0.2331448346376419,-0.23263028264045715,-0.22084400057792664,-0.19679012894630432,0.31141120195388794,0.34714189171791077,0.07609456032514572,-0.04590804874897003
0.55,0.06499525904655457,0.024756748229265213,0.0,0.6852290034294128,0.0,0.0,-0.7283276319503784,0.522537887096405,0.017692286521196365,0.0,0.0,0.0,0.13966526091098785,0.41492462158203125,0.7748943567276001,0.4305843710899353,0.46626731753349304,-0.014785347506403923,-0.12346269935369492,-0.8758613467216492,2.632103204727173,-2.0339677333831787,-1.1378706693649292,-12.966620445251465,-10.628348350524902,4.82462215423584,0.4142266809940338,0.7885372638702393,0.43288755416870117,2.8011116981506348,-1.6276532411575317,-1.1549339294433594,0.4747885465621948,0.7525450587272644,0.42000001668930054,-0.2852737307548523,0.5380098819732666,-1.2359087467193604,-3.0000016689300537,-0.23160789906978607,-0.22981488704681396,-0.22150066494941711,-0.19940711557865143,0.20404431223869324,0.24013881385326385,0.02161608263850212,-0.14536578953266144
0.5666666666666667,0.0746995359659195,0.02740209363400936,0.0,0.6703804135322571,0.0,0.0,-0.7420176267623901,0.6354320645332336,0.21734361350536346,0.0,0.0,0.0,-3.371127128601074,0.44716235995292664,0.7617883682250977,0.42461198568344116,0.462800532579422,-0.028521837666630745,-0.08152463287115097,-0.8822447061538696,1.2712554931640625,-0.8844866156578064,0.19105994701385498,-8.958708763122559,2.7621138095855713,17.12833023071289,0.44644927978515625,0.7747699022293091,0.42682594060897827,1.3027267456054688,-0.3134712278842926,0.2144584357738495,0.4747885465621948,0.7525450587272644,0.42000001668930054,-0.28061503171920776,0.03871534764766693,-1.2860454320907593,-3.0000112056732178,-0.22538422048091888,-0.2242768406867981,-0.22013375163078308,-0.20169968903064728,0.4623892903327942,0.3895578682422638,0.14013715088367462,-0.1053815484046936
0.5833333333333334,0.08190980553627014,0.026111377403140068,0.0,0.6673727631568909,0.0,0.0,-0.7447237968444824,0.3804294168949127,-0.11284677684307098,0.0,0.0,0.0,0.4426065683364868,0.4665718972682953,0.7551596760749817,0.42330729961395264,0.4739036560058594,-0.04587924852967262,-0.049770452082157135,-0.8779711127281189,0.9225504398345947,-0.4206559658050537,-0.1858050376176834,6.718655586242676,4.840054988861084,0.10529792308807373,0.4638414978981018,0.7658631205558777,0.42578789591789246,0.7823905348777771,-0.7256697416305542,-0.37987014651298523,0.4747885465621948,0.7525450587272644,0.42000001668930054,-0.28346750140190125,-0.12186376005411148,-1.3360599279403687,-2.9999985694885254,-0.21632683277130127,-0.21610569953918457,-0.2154017984867096,-0.20089386403560638,0.40407469868659973,0.3988819420337677,0.25888243317604065,0.057860054075717926
0.6,0.09015960991382599,0.029157809913158417,0.0,0.6533594727516174,0.0,0.0,-0.7570478320121765,0.5024976134300232,0.17197611927986145,0.0,0.0,0.0,-3.1181156635284424,0.47403693199157715,0.7512194514274597,0.4211733341217041,0.5039147734642029,-0.010593038983643055,-0.01904159225523472,-0.8634783625602722,0.14683879911899567,-0.0016820522723719478,-0.030821751803159714,2.3721368312835693,-4.493425369262695,6.2977399826049805,0.4710964560508728,0.7615108489990234,0.42332834005355835,0.2155333161354065,0.11044750362634659,0.05180434510111809,0.4747885465621948,0.7525450587272644,0.42000001668930054,-0.28298458456993103,0.16827215254306793,-1.301160454750061,2.996234178543091,-0.21104149520397186,-0.2110324651002884,-0.21230866014957428,-0.2010350078344345,0.4951035976409912,0.42884907126426697,0.28538671135902405,0.060802675783634186
0.6166666666666667,0.09882602095603943,0.028235340490937233,0.0,0.6520951390266418,0.0,0.0,-0.7581371665000916,0.5621364116668701,-0.08659739792346954,0.0,0.0,0.0,0.7530588507652283,0.47589221596717834,0.7509151697158813,0.4200055003166199,0.528498113155365,0.00026684175827540457,1.4859430848446209e-05,-0.8489344120025635,0.06616965681314468,-0.0004668782348744571,-0.0069105192087590694,-0.2973615527153015,0.426207959651947,1.8708906173706055,0.47052472829818726,0.7606601119041443,0.4218643605709076,-0.17106901109218597,-0.0370856411755085,0.1848108023405075,0.4747885465621948,0.7525450587272644,0.42000001668930054,-0.3201009929180145,-2.9998176097869873,-1.3210963010787964,-2.996392250061035,-0.20351998507976532,-0.20410169661045074,-0.20699147880077362,-0.19895391166210175,0.33581510186195374,0.3310226798057556,0.28035303950309753,0.12122413516044617
0.6333333333333333,0.11004335433244705,0.03063938580453396,0.0,0.6679754853248596,0.0,0.0,-0.7441833019256592,0.6991164684295654,0.16650378704071045,0.0,0.0,0.0,3.4442925453186035,0.4760681986808777,0.7509416937828064,0.4199999272823334,0.5304206609725952,9.569909707352053e-06,-6.35942569715553e-06,-0.8477346301078796,0.0016070471610873938,0.00023038328799884766,-0.00031093298457562923,-0.00938236340880394,0.018445206806063652,-0.028387563303112984,0.4689484238624573,0.7605041265487671,0.4250558018684387,-0.09394675493240356,0.08647637069225311,0.21075314283370972,0.4747885465621948,0.7525450587272644,0.42000001668930054,-0.37012195587158203,-3.0000054836273193,-1.3710548877716064,-2.998504400253296,-0.19918370246887207,-0.19983035326004028,-0.2032298743724823,-0.1975303292274475,0.3875819146633148,0.3483911454677582,0.300336629152298,0.1458030343055725
0.65,0.12003277242183685,0.02914561703801155,0.0,0.6715151071548462,0.0,0.0,-0.7409908771514893,0.5292945504188538,-0.12516531348228455,0.0,0.0,0.0,-0.47077035903930664,0.47606930136680603,0.7509419918060303,0.41999998688697815,0.5304144024848938,-3.2985099096549675e-06,-3.860826836898923e-06,-0.8477383852005005,-6.90722226863727e-05,-0.00031740483245812356,-9.33667179197073e-05,0.008509336039423943,-0.0037135721649974585,-0.0007636307855136693,0.46855083107948303,0.7640902996063232,0.42903265357017517,-0.04272188991308212,0.16919870674610138,0.26234006881713867,0.4747885465621948,0.7525450587272644,0.42000001668930054,-0.4201737642288208,-2.999876022338867,-1.4210155010223389,-2.99896502494812,-0.19016283750534058,-0.1917572021484375,-0.19602882862091064,-0.19292256236076355,0.47492364048957825,0.4434521794319153,0.42424172163009644,0.3008575737476349
0.6666666666666666,0.13074612617492676,0.030039776116609573,0.0,0.6693848371505737,0.0,0.0,-0.7429158091545105,0.65732342004776,0.08546388149261475,0.0,0.0,0.0,-0.2686749994754791,0.4756064713001251,0.7510405778884888,0.41999971866607666,0.5376254916191101,1.3126807971275412e-05,-5.849376066180412e-06,-0.843183696269989,-0.03260275349020958,0.004085470922291279,-0.0002806069969665259,-0.012947955168783665,0.017955366522073746,0.8326345086097717,0.46733880043029785,0.7664886116981506,0.43690940737724304,-0.026047097519040108,0.1839400976896286,0.7170189619064331,0.4747885465621948,0.7525450587272644,0.42000001668930054,-0.47018805146217346,-2.9999630451202393,-1.4710338115692139,-3.000000238418579,-0.185682013630867,-0.1871568113565445,-0.1909041404724121,-0.18889082968235016,0.29451504349708557,0.29032230377197266,0.3241206407546997,0.27334028482437134
0.6833333333333333,0.14287805557250977,0.02781357243657112,0.0,0.6516568064689636,0.0,0.0,-0.7585139870643616,0.7578303813934326,-0.19156749546527863,0.0,0.0,0.0,-3.731335401535034,0.4756069481372833,0.7510409355163574,0.4200000464916229,0.5376257300376892,-1.933807652676478e-06,-4.175569756625919e-06,-0.8431836366653442,4.087422712473199e-05,-0.00019236537627875805,-8.030375465750694e-05,0.0024825979489833117,-0.002346085151657462,-0.000829248339869082,0.4714004397392273,0.7714877128601074,0.4523683786392212,0.4779263138771057,0.291498064994812,1.263425350189209,0.4747885465621948,0.7525450587272644,0.42000001668930054,-0.5202009677886963,-2.9999682903289795,-1.5210521221160889,-2.999999523162842,-0.1811656802892685,-0.18263395130634308,-0.18562160432338715,-0.18410862982273102,0.168312206864357,0.19368058443069458,0.2676067352294922,0.27177560329437256
0.7,0.15732693672180176,0.028921009972691536,0.0,0.6454049944877625,0.0,0.0,-0.7638405561447144,0.8833429217338562,0.09404877573251724,0.0,0.0,0.0,0.2055290788412094,0.4756069779396057,0.7510409951210022,0.41999998688697815,0.5376256704330444,-2.989519771290361e-06,-3.6039016322320094e-06,-0.8431835770606995,-4.821079346584156e-05,-0.0003194047894794494,-9.041465818881989e-05,0.008493437431752682,-0.0035700856242328882,-0.0007656582165509462,0.47982072830200195,0.7766258716583252,0.4812493324279785,0.5950011610984802,0.41118621826171875,2.211970806121826,0.4747885465621948,0.7525450587272644,0.42000001668930054,-0.5702135562896729,-2.9999990463256836,-1.5710704326629639,-2.999999761581421,-0.18177783489227295,-0.18250511586666107,-0.18390455842018127,-0.18184588849544525,0.010166587308049202,0.02705411985516548,0.09904400259256363,0.1196516826748848
0.7166666666666667,0.16871459782123566,0.025778302922844887,0.0,0.6634488105773926,0.0,0.0,-0.7482216954231262,0.6017535924911499,-0.24492064118385315,0.0,0.0,0.0,3.6059927940368652,0.4756069779396057,0.7510409355163574,0.41999998688697815,0.5376258492469788,-2.992185727634933e-06,-3.7142006021895213e-06,-0.8431835174560547,-4.772728061652742e-05,-0.0003194280725438148,-9.02530737221241e-05,0.008495423011481762,-0.003567452309653163,-0.0007665073499083519,0.49380409717559814,0.7790676355361938,0.5137226581573486,0.9679014682769775,-0.09158948063850403,1.7890663146972656,0.4747885465621948,0.7525450587272644,0.42000001668930054,-0.6202151775360107,-2.99999737739563,-1.6210887432098389,-2.999999523162842,-0.18021075427532196,-0.18013215065002441,-0.17982067167758942,-0.17680589854717255,0.012094330973923206,0.10881403833627701,0.25670504570007324,0.3625752925872803
0.7333333333333333,0.18103362619876862,0.027035735547542572,0.0,0.668159544467926,0.0,0.0,-0.744018018245697,0.7146728038787842,0.15887264907360077,0.0,0.0,0.0,-0.25084879994392395,0.4756069779396057,0.7510409355163574,0.41999998688697815,0.5376257300376892,-3.016001301148208e-06,-3.6708652260131203e-06,-0.8431835174560547,-4.6445256884908304e-05,-0.00031950068660080433,-8.985050953924656e-05,0.008500082418322563,-0.003560784738510847,-0.0007690860657021403,0.5092697739601135,0.7762502431869507,0.5395146608352661,0.9590732455253601,-0.19033457338809967,1.39937162399292,0.4747885465621948,0.7525450587272644,0.42000001668930054,-0.6702163219451904,-2.9999940395355225,-1.6711043119430542,-3.0000009536743164,-0.1829570084810257,-0.18087254464626312,-0.1778462827205658,-0.17282266914844513,-0.05316240340471268,0.03731068968772888,0.16648001968860626,0.2589127719402313
0.75,0.19494865834712982,0.024273332208395004,0.0,0.650132417678833,0.0,0.0,-0.7598209381103516,0.8640716671943665,-0.19008000195026398,0.0,0.0,0.0,-3.714960813522339,0.4756069779396057,0.7510409355163574,0.41999998688697815,0.537625789642334,-3.1664123980590375e-06,-3.858743639284512e-06,-0.8431834578514099,-4.791962419403717e-05,-0.00031953080906532705,-9.029777720570564e-05,0.008498764596879482,-0.003571451874449849,-0.0007664231234230101,0.5273375511169434,0.7748725414276123,0.5622763633728027,1.1045403480529785,-0.223148912191391,1.4437463283538818,0.4747885465621948,0.7525450587272644,0.42000001668930054,-0.7190816402435303,-2.8347597122192383,-1.7211188077926636,-2.999999761581421,-0.18028229475021362,-0.17732273042201996,-0.17281658947467804,-0.1667947918176651,0.03387831896543503,0.12004843354225159,0.23433716595172882,0.3192349374294281
0.7666666666666666,0.20610247552394867,0.024045422673225403,0.0,0.645508348941803,0.0,0.0,-0.7637531757354736,0.5928691029548645,0.030589252710342407,0.0,0.0,0.0,0.2299557477235794,0.4756069779396057,0.7510409355163574,0.41999998688697815,0.537625789642334,-3.013082960023894e-06,-3.6999276744609233e-06,-0.8431835770606995,-4.611067197402008e-05,-0.00031959646730683744,-8.971546776592731e-05,0.008504677563905716,-0.0035621621645987034,-0.0007696026586927474,0.5440601110458374,0.7714714407920837,0.5862363576889038,0.9155532121658325,-0.1016954854130745,1.4896814823150635,0.4747885465621948,0.7525450587272644,0.42000001668930054,-0.7312301397323608,1.0471062660217285,-1.771133303642273,-2.999999761581421,-0.17982973158359528,-0.17569555342197418,-0.1696980595588684,-0.16267624497413635,0.12266162782907486,0.1565738469362259,0.20253537595272064,0.22111128270626068
0.7833333333333333,0.2132459282875061,0.023588117212057114,0.0,0.6635744571685791,0.0,0.0,-0.7481102347373962,0.37681546807289124,-0.07791654765605927,0.0,0.0,0.0,3.696014642715454,0.4756069779396057,0.7510409355163574,0.41999998688697815,0.5376257300376892,-3.0112216791167157e-06,-3.821311565843644e-06,-0.8431836366653442,-4.590761454892345e-05,-0.00031954783480614424,-8.965167216956615e-05,0.008503291755914688,-0.003559982869774103,-0.0007701382273808122,0.553764820098877,0.7682580947875977,0.6078218221664429,0.29514604806900024,-0.17650499939918518,1.1953672170639038,0.4747885465621948,0.7525450587272644,0.42000001668930054,-0.7083101272583008,1.6304184198379517,-1.731685757637024,3.000000476837158,-0.1782977283000946,-0.17338041961193085,-0.16656288504600525,-0.15921443700790405,0.12943828105926514,0.167236328125,0.20024237036705017,0.20406462252140045
0.8,0.2167346477508545,0.02429935894906521,0.0,0.6676612496376038,0.0,0.0,-0.744465172290802,0.11936278641223907,0.10963752865791321,0.0,0.0,0.0,-0.31713640689849854,0.4756069779396057,0.7510409355163574,0.41999998688697815,0.537625789642334,-3.055077968383557e-06,-3.535410996846622e-06,-0.8431835770606995,-4.6717424993403256e-05,-0.0003196208563167602,-8.995039388537407e-05,0.008503125049173832,-0.003565050195902586,-0.0007686809403821826,0.5547273755073547,0.7673871517181396,0.623176097869873,-0.16145363450050354,0.014921382069587708,0.7553346157073975,0.4747885465621948,0.7525450587272644,0.42000001668930054,-0.699265718460083,-0.37823623418807983,-1.681625485420227,3.000000476837158,-0.17550259828567505,-0.1704743653535843,-0.16362453997135162,-0.15661409497261047,0.24604442715644836,0.22451597452163696,0.19756953418254852,0.15397128462791443
0.8166666666666667,0.21640819311141968,0.023084526881575584,0.0,0.6799905300140381,0.0,0.0,-0.7332208752632141,-0.06555645167827606,-0.14316344261169434,0.0,0.0,0.0,2.7469160556793213,0.4756069779396057,0.7510409355163574,0.41999998688697815,0.5376256704330444,-3.033998154933215e-06,-3.5125181057082955e-06,-0.8431835770606995,-4.638026439351961e-05,-0.0003195408498868346,-8.982629515230656e-05,0.008501523174345493,-0.0035616355016827583,-0.0007693114457651973,0.5526956915855408,0.7652872204780579,0.6340330839157104,-0.07370081543922424,-0.16095338761806488,0.6272754669189453,0.4747885465621948,0.7525450587272644,0.42000001668930054,-0.6778793334960938,2.6605911254882812,-1.6315652132034302,3.000000238418579,-0.17230568826198578,-0.16727545857429504,-0.1605728417634964,-0.1539696305990219,0.18829797208309174,0.1900331974029541,0.18082761764526367,0.1585434526205063
0.8333333333333334,0.2132769376039505,0.023038946092128754,0.0,0.678957998752594,0.0,0.0,-0.7341771125793457,-0.21148811280727386,-0.024549290537834167,0.0,0.0,0.0,-1.1127166748046875,0.4756069779396057,0.7510409355163574,0.41999998688697815,0.5376257300376892,-3.0326298201543977e-06,-3.5598577596829273e-06,-0.8431835770606995,-4.633374555851333e-05,-0.0003195866593159735,-8.982536382973194e-05,0.00850271712988615,-0.0035622501745820045,-0.0007692729122936726,0.5494757890701294,0.7624293565750122,0.6433160305023193,-0.22466687858104706,-0.1646084487438202,0.5970453023910522,0.4747885465621948,0.7525450587272644,0.42000001668930054,-0.6628884077072144,-0.5909631252288818,-1.5815049409866333,2.9999992847442627,-0.17188863456249237,-0.16658161580562592,-0.15979427099227905,-0.15327131748199463,0.14037825167179108,0.12301899492740631,0.098310187458992,0.07133980840444565
0.85,0.21245156228542328,0.0231161005795002,0.0,0.6874417066574097,0.0,0.0,-0.7262395620346069,0.0032782219350337982,0.018219217658042908,0.0,0.0,0.0,2.167587995529175,0.4756069779396057,0.7510409355163574,0.41999998688697815,0.5376256108283997,-3.021966904270812e-06,-3.7220172544039087e-06,-0.8431835770606995,-4.797185101779178e-05,-0.0003194187884218991,-9.031500667333603e-05,0.00849494244903326,-0.0035681133158504963,-0.0007659855182282627,0.5490509271621704,0.7587394714355469,0.6525075435638428,0.1656145304441452,-0.2289404571056366,0.5862778425216675,0.4747885465621948,0.7525450587272644,0.42000001668930054,-0.6458260416984558,2.3669521808624268,-1.531459927558899,2.999999523162842,-0.1693815141916275,-0.16445617377758026,-0.15811893343925476,-0.15199072659015656,0.17128589749336243,0.1423761546611786,0.11107669770717621,0.08699619024991989
0.8666666666666667,0.21087244153022766,0.021266834810376167,0.0,0.6834263205528259,0.0,0.0,-0.7300194501876831,-0.13503557443618774,-0.18033894896507263,0.0,0.0,0.0,-1.4867509603500366,0.4756069779396057,0.7510409355163574,0.41999998688697815,0.537625789642334,-3.2136438221641583e-06,-3.7271204291755566e-06,-0.8431835770606995,-4.817699664272368e-05,-0.0003195054305251688,-9.038206189870834e-05,0.008497366681694984,-0.0035713990218937397,-0.000765576318372041,0.5513878464698792,0.7550945281982422,0.6615186929702759,0.09987206757068634,-0.28239706158638,0.6148989796638489,0.4747885465621948,0.7525450587272644,0.42000001668930054,-0.6411776542663574,-1.4784013032913208,-1.4814034700393677,2.999999523162842,-0.16795729100704193,-0.16342854499816895,-0.1575242280960083,-0.15168386697769165,0.06062003970146179,0.04092210903763771,0.01816621422767639,0.00465393764898181
0.8833333333333333,0.21108542382717133,0.02209286205470562,0.0,0.6894572973251343,0.0,0.0,-0.7243263125419617,0.06821653991937637,0.09613552689552307,0.0,0.0,0.0,1.7175647020339966,0.4756069779396057,0.7510409355163574,0.41999998688697815,0.5376256704330444,-3.0512467219523387e-06,-3.6045412343810312e-06,-0.8431836366653442,-4.647950117941946e-05,-0.0003196001925971359,-8.986005559563637e-05,0.008503296412527561,-0.003563612001016736,-0.0007690161000937223,0.5568490028381348,0.7486518025398254,0.6685355305671692,0.5699731111526489,-0.3938208818435669,0.3281557261943817,0.4747885465621948,0.7525450587272644,0.42000001668930054,-0.6372473835945129,1.6727925539016724,-1.4979170560836792,-2.999999523162842,-0.16782277822494507,-0.16344958543777466,-0.1577073335647583,-0.15183058381080627,0.07682645320892334,0.05707448720932007,0.039620790630578995,0.03744810074567795
