vladlanda/robotic-transformer/data/env_000_episode_0166.csv
sim_time_s,robot_box_x,robot_box_y,robot_box_z,robot_box_quat_w,robot_box_quat_x,robot_box_quat_y,robot_box_quat_z,robot_box_linvel_x,robot_box_linvel_y,robot_box_linvel_z,robot_box_angvel_x,robot_box_angvel_y,robot_box_angvel_z,cube_world_x,cube_world_y,cube_world_z,cube_quat_w,cube_quat_x,cube_quat_y,cube_quat_z,cube_linvel_x,cube_linvel_y,cube_linvel_z,cube_angvel_x,cube_angvel_y,cube_angvel_z,endpoint_world_x,endpoint_world_y,endpoint_world_z,endpoint_linvel_x,endpoint_linvel_y,endpoint_linvel_z,target_cube_world_x,target_cube_world_y,target_cube_world_z,gripper_actual_pos_rad_gp_leftgearjoint,gripper_actual_vel_rad_s_gp_leftgearjoint,gripper_actual_pos_rad_gp_rotatingjoint,gripper_actual_vel_rad_s_gp_rotatingjoint,motor_angle_rad_joint1,motor_angle_rad_joint2,motor_angle_rad_joint3,motor_angle_rad_joint4,motor_speed_rad_s_joint1,motor_speed_rad_s_joint2,motor_speed_rad_s_joint3,motor_speed_rad_s_joint4
0.0,0.0,0.0,0.0,1.0,0.0,0.0,0.0,0.0,0.0,0.0,0.0,0.0,0.0,-0.356236070394516,0.7783302664756775,0.41999998688697815,1.0,0.0,0.0,0.0,0.0,0.0,0.0,0.0,0.0,0.0,3.42540442943573e-06,-0.005000244826078415,1.313499927520752,0.0,0.0,0.0,0.39405596256256104,0.6574943661689758,0.42000001668930054,-1.5707999467849731,0.0,0.0,0.0,0.0,0.0,0.0,0.0,0.0,0.0,0.0,0.0
0.016666666666666666,0.0029061734676361084,0.0020945866126567125,0.0,0.9999061226844788,0.0,0.0,0.013701256364583969,0.2416379153728485,0.17996804416179657,0.0,0.0,0.0,2.8177342414855957,-0.35623618960380554,0.7783299684524536,0.41999998688697815,1.0,3.279964630564791e-06,-8.339746386809566e-07,8.465587342243452e-08,-1.9833529222523794e-05,0.00017983045836444944,-6.132945418357849e-05,0.0009432713268324733,-0.004689474124461412,-0.00031981561915017664,-0.007085999473929405,0.0035298510920256376,1.3159465789794922,-0.8118647336959839,0.9919637441635132,0.1808903068304062,0.39405596256256104,0.6574943661689758,0.42000001668930054,-1.5301096439361572,3.0000009536743164,-0.04585646837949753,-3.0000009536743164,0.0008793791639618576,0.0008055204525589943,0.0007199787069112062,0.0006195588503032923,0.1109175756573677,0.0975588709115982,0.08332808315753937,0.0682181864976883
0.03333333333333333,0.008805162273347378,0.0066358232870697975,0.0,0.9999200105667114,0.0,0.0,0.012647340074181557,0.4017564654350281,0.3099556863307953,0.0,0.0,0.0,-1.044883131980896,-0.3562363088130951,0.7783299088478088,0.4200000464916229,1.0,3.3908495424839202e-06,-2.13246403291123e-06,-3.7113540685140833e-08,0.00026357793831266463,0.00026937888469547033,-0.00010509486310184002,-0.0017707492224872112,0.004130844492465258,-0.00013548089191317558,-0.024534452706575394,0.0268365778028965,1.316880226135254,-1.2611488103866577,1.6562256813049316,-0.04418855905532837,0.39405596256256104,0.6574943661689758,0.42000001668930054,-1.4800903797149658,3.000000238418579,-0.09589628875255585,-3.000000238418579,0.0026303203776478767,0.002191468607634306,0.0017151280771940947,0.0011978690745308995,0.12697575986385345,0.09164953976869583,0.054825324565172195,0.016452811658382416
0.05,0.01821412891149521,0.013673141598701477,0.0,0.9998726844787598,0.0,0.0,-0.015954842790961266,0.6297092437744141,0.4683292508125305,0.0,0.0,0.0,-4.242407321929932,-0.3562363386154175,0.7783299684524536,0.4200000464916229,1.0,3.765192104765447e-06,-2.211900209658779e-06,5.597691199454857e-09,0.00026530851027928293,0.0002669154782779515,-0.00010440615005791187,-0.0017244016053155065,0.004177400376647711,-0.00012949206575285643,-0.047518424689769745,0.05882588028907776,1.3140130043029785,-1.514161467552185,2.1199183464050293,-0.299855500459671,0.39405596256256104,0.6574943661689758,0.42000001668930054,-1.4300720691680908,2.999999523162842,-0.14592434465885162,-2.999999523162842,0.004763440694659948,0.0036359510850161314,0.0024365319404751062,0.0011614166432991624,0.1401730477809906,0.08963054418563843,0.037179652601480484,-0.017214082181453705
0.06666666666666667,0.024848556146025658,0.024118829518556595,0.0,0.9996223449707031,0.0,0.0,-0.02747953124344349,0.2613503932952881,0.7048458456993103,0.0,0.0,0.0,-0.25908422470092773,-0.3562363386154175,0.7783299088478088,0.4200000464916229,0.9999999403953552,3.406822997931158e-06,-2.285597702211817e-06,4.3007378280890407e-07,0.0002670248504728079,0.0002679188910406083,-0.0001043803058564663,-0.0017407664563506842,0.004211778752505779,-0.00012850675557274371,-0.07649333029985428,0.09362351894378662,1.305793285369873,-1.8211052417755127,2.1878662109375,-0.632014811038971,0.39405596256256104,0.6574943661689758,0.42000001668930054,-1.3800485134124756,2.9999918937683105,-0.11237158626317978,3.0000011920928955,0.0032995932269841433,0.0015360070392489433,-0.00034562384826131165,-0.0023516512010246515,-0.18840856850147247,-0.22793634235858917,-0.270027756690979,-0.3149060904979706
0.08333333333333333,0.03299841657280922,0.03660695254802704,0.0,0.9986805319786072,0.0,0.0,-0.0513533353805542,0.626037061214447,0.756310224533081,0.0,0.0,0.0,-3.679391860961914,-0.3562363386154175,0.7783299088478088,0.4200000464916229,0.9999999403953552,3.626143552537542e-06,-2.3353795768343844e-06,3.0320177302201046e-07,0.00026613884256221354,0.0002668504021130502,-0.00010405178181827068,-0.0017283395864069462,0.004196345806121826,-0.00012790612527169287,-0.1013689935207367,0.1335608959197998,1.2952892780303955,-1.2074211835861206,2.6323838233947754,-0.6215987801551819,0.39405596256256104,0.6574943661689758,0.42000001668930054,-1.330047369003296,3.000000476837158,-0.1444055140018463,-3.000000238418579,0.0009588640532456338,-0.0019895106088370085,-0.0050852312706410885,-0.008335858583450317,-0.07826738059520721,-0.17903544008731842,-0.28022387623786926,-0.38180068135261536
0.1,0.04039468616247177,0.05104995146393776,0.0,0.9948460459709167,0.0,0.0,-0.10139694809913635,0.4214051067829132,0.9413096904754639,0.0,0.0,0.0,-6.706173896789551,-0.3562363386154175,0.7783299088478088,0.4200000464916229,1.0,3.4221898204123136e-06,-2.308617240487365e-06,1.7961028220270236e-07,0.0002668149827513844,0.0002680047182366252,-0.00010440824553370476,-0.0017431126907467842,0.004207078833132982,-0.00012891080405097455,-0.12284304201602936,0.17944148182868958,1.2851691246032715,-1.3361475467681885,2.92012357711792,-0.6267914175987244,0.39405596256256104,0.6574943661689758,0.42000001668930054,-1.2801274061203003,2.9709081649780273,-0.11091167479753494,3.0000009536743164,-0.0007437371532432735,-0.005452542565762997,-0.010290892794728279,-0.01526542380452156,-0.06608959287405014,-0.17689532041549683,-0.28535696864128113,-0.3913685381412506
0.11666666666666667,0.04523782059550285,0.06408101320266724,0.0,0.9914894104003906,0.0,0.0,-0.13018730282783508,0.2370726615190506,0.7006866335868835,0.0,0.0,0.0,-2.337305784225464,-0.3562363386154175,0.7783299684524536,0.4200000464916229,1.0,3.7115171380719403e-06,-2.3327377220994094e-06,2.5742639309100923e-07,0.00026485745911486447,0.00026635476388037205,-0.00010423408821225166,-0.0017183205345645547,0.004170126281678677,-0.00012915924889966846,-0.149927020072937,0.22679242491722107,1.2729642391204834,-1.653714895248413,3.0030341148376465,-0.8290130496025085,0.39405596256256104,0.6574943661689758,0.42000001668930054,-1.238230586051941,2.100576400756836,-0.1429087072610855,-3.000000476837158,-0.0020931349135935307,-0.008665652014315128,-0.015310170128941536,-0.022030996158719063,-0.11940798163414001,-0.22473929822444916,-0.3263504207134247,-0.42411908507347107
0.13333333333333333,0.0536317341029644,0.07715308666229248,0.0,0.9852924346923828,0.0,0.0,-0.1708766520023346,0.5108932256698608,0.8146263360977173,0.0,0.0,0.0,-5.666904926300049,-0.3562363386154175,0.7783299088478088,0.4200000464916229,1.0,3.3356991480104625e-06,-2.2319643449009163e-06,3.113098898666067e-07,0.0002666966465767473,0.00026759441243484616,-0.00010428344830870628,-0.00173711939714849,0.0042058308608829975,-0.0001283991296077147,-0.1770717203617096,0.2825562059879303,1.255643606185913,-1.5538115501403809,3.7443971633911133,-1.2638744115829468,0.39405596256256104,0.6574943661689758,0.42000001668930054,-1.1904900074005127,2.9999678134918213,-0.10941245406866074,3.0000011920928955,-0.0030727882403880358,-0.01139095239341259,-0.01971420645713806,-0.028043948113918304,-0.22616900503635406,-0.30175116658210754,-0.3746977150440216,-0.4448689818382263
0.15,0.05828922614455223,0.08892346918582916,0.0,0.9715823531150818,0.0,0.0,-0.2367018312215805,0.27003607153892517,0.6287809610366821,0.0,0.0,0.0,-8.993048667907715,-0.3562363386154175,0.7783299088478088,0.4200000464916229,1.0,3.518883659126004e-06,-2.2831864043837413e-06,-3.6254408541935845e-07,0.0002661842736415565,0.0002673580020200461,-0.00010425597429275513,-0.0017349525587633252,0.004195696674287319,-0.00012860969582106918,-0.204138845205307,0.3457888662815094,1.2305221557617188,-1.5413203239440918,3.98146653175354,-1.6699615716934204,0.39405596256256104,0.6574943661689758,0.42000001668930054,-1.1589884757995605,0.932084858417511,-0.1414685994386673,-3.0000009536743164,-0.010337268933653831,-0.01946641132235527,-0.02856934443116188,-0.03764835000038147,-0.42556095123291016,-0.4717928469181061,-0.5155776739120483,-0.5569438934326172
0.16666666666666666,0.059663377702236176,0.10165750235319138,0.0,0.9594358801841736,0.0,0.0,-0.2819270193576813,0.017031816765666008,0.7897718548774719,0.0,0.0,0.0,-4.473205089569092,-0.3562363386154175,0.7783299088478088,0.4200000464916229,1.0,3.6664860090240836e-06,-2.339219236091594e-06,-3.1498129260398855e-07,0.000265957583906129,0.00026667368365451694,-0.0001040350180119276,-0.00172534235753119,0.0041928584687411785,-0.0001277906121686101,-0.2389112412929535,0.4122655689716339,1.1953555345535278,-2.048926591873169,4.347386360168457,-2.5254921913146973,0.39405596256256104,0.6574943661689758,0.42000001668930054,-1.1162352561950684,3.0000030994415283,-0.1915007084608078,-3.0000009536743164,-0.019335903227329254,-0.028798382729291916,-0.038187284022569656,-0.04750802367925644,-0.5647901296615601,-0.569286584854126,-0.570866048336029,-0.5697704553604126
0.18333333333333332,0.06444606184959412,0.11533917486667633,0.0,0.9417112469673157,0.0,0.0,-0.33642226457595825,0.25752872228622437,0.93400639295578,0.0,0.0,0.0,-8.01053524017334,-0.3562363386154175,0.7783299088478088,0.4200000464916229,1.0,3.8142322864587186e-06,-2.3995798983378336e-06,-2.702603580928553e-07,0.0002654909039847553,0.0002661114267539233,-0.00010391208343207836,-0.001717755920253694,0.004184814170002937,-0.0001275418180739507,-0.2717593312263489,0.4857579469680786,1.1483075618743896,-1.6403529644012451,4.636727333068848,-3.1550474166870117,0.39405596256256104,0.6574943661689758,0.42000001668930054,-1.0662322044372559,2.999999523162842,-0.24153095483779907,-3.000000476837158,-0.027690373361110687,-0.03729959949851036,-0.04678788036108017,-0.056165896356105804,-0.723395824432373,-0.7003170251846313,-0.6766151189804077,-0.6527831554412842
0.2,0.06606645882129669,0.12717585265636444,0.0,0.927269458770752,0.0,0.0,-0.3743946850299835,0.05571233481168747,0.653211772441864,0.0,0.0,0.0,-3.6996538639068604,-0.3562363386154175,0.7783299088478088,0.4200000464916229,1.0,3.599930778364069e-06,-2.291256123498897e-06,-2.2017269429852604e-07,0.00026572923525236547,0.0002664503117557615,-0.00010398100130259991,-0.001722716842778027,0.004188799764961004,-0.0001277321280213073,-0.3017188310623169,0.5604449510574341,1.085559606552124,-1.4569034576416016,4.678910255432129,-4.3021345138549805,0.39405596256256104,0.6574943661689758,0.42000001668930054,-1.018171787261963,2.7482638359069824,-0.29155927896499634,-2.9999992847442627,-0.04120245203375816,-0.04984711855649948,-0.05838562175631523,-0.06684302538633347,-0.8640748262405396,-0.7880403995513916,-0.7136016488075256,-0.641666829586029
0.21666666666666667,0.06825970858335495,0.13977375626564026,0.0,0.9234024286270142,0.0,0.0,-0.38383325934410095,0.19060726463794708,0.7793540954589844,0.0,0.0,0.0,0.30312398076057434,-0.3562363386154175,0.7783299088478088,0.4200000464916229,0.9999999403953552,3.63946242032398e-06,-2.2619665287493262e-06,2.2250399922540964e-07,0.00026687447098083794,0.0002675448777154088,-0.00010411837138235569,-0.0017403843812644482,0.00421105744317174,-0.00012783669808413833,-0.3296979069709778,0.6297887563705444,1.005929946899414,-1.5227129459381104,3.9118924140930176,-5.211729049682617,0.39405596256256104,0.6574943661689758,0.42000001668930054,-0.9682730436325073,2.999995470046997,-0.3415856957435608,-2.9999985694885254,-0.056513477116823196,-0.06447260081768036,-0.07127811014652252,-0.07808402180671692,-0.9601755738258362,-0.9056928753852844,-0.7896302342414856,-0.6794067621231079
0.23333333333333334,0.06882265955209732,0.14960038661956787,0.0,0.9157471656799316,0.0,0.0,-0.40175503492355347,-0.028478939086198807,0.5141406655311584,0.0,0.0,0.0,-3.200263500213623,-0.3562363088130951,0.7783299088478088,0.4200000464916229,1.0,3.4205174870294286e-06,-2.316806103408453e-06,2.9562716008513235e-07,0.0002668004890438169,0.00026803973014466465,-0.00010442547500133514,-0.0017438001232221723,0.004206894896924496,-0.00012899792636744678,-0.35052379965782166,0.6920341849327087,0.9127042293548584,-1.0059958696365356,3.4254631996154785,-5.872920036315918,0.39405596256256104,0.6574943661689758,0.42000001668930054,-0.9182642102241516,3.0000009536743164,-0.39161401987075806,-2.9999990463256836,-0.07280826568603516,-0.0807209461927414,-0.08676460385322571,-0.09154023230075836,-0.9755597114562988,-0.9721067547798157,-0.9709377884864807,-0.8593541383743286
0.25,0.06589750945568085,0.16016674041748047,0.0,0.9149188995361328,0.0,0.0,-0.40363770723342896,-0.2379963994026184,0.6695501804351807,0.0,0.0,0.0,0.7169192433357239,-0.3562363386154175,0.7783299088478088,0.4200000464916229,0.9999999403953552,3.347446863699588e-06,-2.259109578517382e-06,1.8086505804149056e-07,0.00026687653735280037,0.0002679114695638418,-0.0001043954398483038,-0.0017404556274414062,0.0042081899009644985,-0.00012870357022620738,-0.3682250380516052,0.7392368912696838,0.8102420568466187,-0.9521806240081787,2.2998881340026855,-6.357461452484131,0.39405596256256104,0.6574943661689758,0.42000001668930054,-0.8682551383972168,2.9999945163726807,-0.4416443705558777,-2.999999761581421,-0.08871044218540192,-0.09664849936962128,-0.10269241034984589,-0.1074519231915474,-0.9678704738616943,-0.9612300395965576,-0.9575141668319702,-0.956621527671814
0.26666666666666666,0.0662631019949913,0.16618379950523376,0.0,0.9088118076324463,0.0,0.0,-0.417206346988678,0.05983566492795944,0.29563701152801514,0.0,0.0,0.0,-2.4442474842071533,-0.3562363386154175,0.7783299088478088,0.4200000464916229,0.9999999403953552,3.5355112686374923e-06,-2.3001468889560783e-06,-1.2682981775924418e-07,0.00026601721765473485,0.0002671225811354816,-0.0001041970681399107,-0.0017317159799858928,0.004192830994725227,-0.0001284919708268717,-0.38083720207214355,0.7730652093887329,0.6989147067070007,-0.49662554264068604,1.5199977159500122,-6.876222610473633,0.39405596256256104,0.6574943661689758,0.42000001668930054,-0.8182460069656372,2.9999969005584717,-0.4916757643222809,-2.99999737739563,-0.10382402688264847,-0.11160961538553238,-0.11759345978498459,-0.12235844135284424,-0.9920480251312256,-0.9759005308151245,-0.9618731141090393,-0.9519662857055664
0.2833333333333333,0.06388715654611588,0.16897395253181458,0.0,0.9103202819824219,0.0,0.0,-0.4139045178890228,-0.22702477872371674,0.13724565505981445,0.0,0.0,0.0,1.2629985809326172,-0.3562363386154175,0.7783299684524536,0.4200000464916229,1.0,3.5932494029111695e-06,-2.262480848003179e-06,-5.650359113928971e-08,0.0002670456888154149,0.00026774840080179274,-0.00010416633449494839,-0.0017430947627872229,0.0042140730656683445,-0.00012789174797944725,-0.3868985176086426,0.7874339818954468,0.5859911441802979,-0.12989628314971924,0.2021482139825821,-6.594873428344727,0.39405596256256104,0.6574943661689758,0.42000001668930054,-0.7682371735572815,3.000000238418579,-0.5417063236236572,-3.0000030994415283,-0.1210353896021843,-0.1286550909280777,-0.1345205456018448,-0.1391981989145279,-1.0060665607452393,-1.0045729875564575,-1.0034332275390625,-1.00252366065979
0.3,0.05760973319411278,0.16981720924377441,0.0,0.9051607251167297,0.0,0.0,-0.4250694513320923,-0.4437958896160126,0.017191583290696144,0.0,0.0,0.0,-2.3682198524475098,-0.3562363088130951,0.7783299088478088,0.4200000464916229,0.9999999403953552,3.724779389813193e-06,-2.2358647129294695e-06,3.829072738881223e-07,0.0002647978253662586,0.00026673043612390757,-0.00010453932918608189,-0.001718905521556735,0.004166657570749521,-0.000130163854919374,-0.3819259703159332,0.7861760854721069,0.47994324564933777,0.6917839050292969,-0.4105892777442932,-5.991385459899902,0.39405596256256104,0.6574943661689758,0.42000001668930054,-0.7182286381721497,3.0000014305114746,-0.5917350053787231,-3.0000014305114746,-0.13900192081928253,-0.14631645381450653,-0.15195034444332123,-0.1564442217350006,-1.0128635168075562,-1.0097339153289795,-1.0073399543762207,-1.005419373512268
0.31666666666666665,0.04846760630607605,0.16866534948349,0.0,0.9070037603378296,0.0,0.0,-0.4211224913597107,-0.49008065462112427,-0.18491709232330322,0.0,0.0,0.0,1.3802520036697388,-0.3562363386154175,0.7783299088478088,0.4200000464916229,0.9999999403953552,3.5574832963902736e-06,-2.2786507543059997e-06,2.2837429014543886e-07,0.00026598601834848523,0.0002665851206984371,-0.00010399217717349529,-0.001724150264635682,0.004193671513348818,-0.00012769829481840134,-0.37523049116134644,0.7843375205993652,0.4298642873764038,0.1685933619737625,-0.06947745382785797,-0.30877816677093506,0.39405596256256104,0.6574943661689758,0.42000001668930054,-0.66822350025177,3.000001907348633,-0.6421382427215576,-2.9983561038970947,-0.15260697901248932,-0.15978072583675385,-0.165168896317482,-0.16925695538520813,-0.2853155732154846,-0.3397228717803955,-0.3769254982471466,-0.38974469900131226
0.3333333333333333,0.038808345794677734,0.16414345800876617,0.0,0.9022262096405029,0.0,0.0,-0.4312630891799927,-0.6256994009017944,-0.31095102429389954,0.0,0.0,0.0,-2.243436098098755,-0.3550853133201599,0.7807956337928772,0.4199998378753662,0.9994088411331177,1.6052264982135966e-05,-4.014056685264222e-06,-0.03437693417072296,0.08738865703344345,0.18688589334487915,-0.00016586924903094769,-0.008826995268464088,0.010230679996311665,-4.895220756530762,-0.3721993565559387,0.7888717651367188,0.42733708024024963,0.3139342963695526,0.33807986974716187,-0.18829134106636047,0.39405596256256104,0.6574943661689758,0.42000001668930054,-0.6182176470756531,2.999973773956299,-0.6922416090965271,-2.999964952468872,-0.1574954092502594,-0.16508851945400238,-0.17061500251293182,-0.17444708943367004,-0.33447203040122986,-0.3303723931312561,-0.31413888931274414,-0.27939823269844055
0.35,0.027065925300121307,0.1572270393371582,0.0,0.904476523399353,0.0,0.0,-0.4265234172344208,-0.7422081828117371,-0.45591723918914795,0.0,0.0,0.0,1.5549602508544922,-0.35177063941955566,0.7866466045379639,0.4200000464916229,0.9929394125938416,3.17830995300028e-06,-3.4605291148182005e-05,-0.11862266063690186,0.18601754307746887,0.3110324740409851,-4.5801101805409417e-05,0.0018008810002356768,0.00019076565513387322,-7.917936325073242,-0.36549168825149536,0.7937822341918945,0.4238984286785126,0.5299760699272156,0.28762200474739075,-0.19641126692295074,0.39405596256256104,0.6574943661689758,0.42000001668930054,-0.5682125687599182,2.9999735355377197,-0.7422857880592346,-2.999988317489624,-0.1649644523859024,-0.1714557260274887,-0.17574188113212585,-0.17811672389507294,-0.47804534435272217,-0.37596091628074646,-0.26845255494117737,-0.15173950791358948
0.36666666666666664,0.013210378587245941,0.14798443019390106,0.0,0.8999921083450317,0.0,0.0,-0.43590623140335083,-0.8728361129760742,-0.5948399901390076,0.0,0.0,0.0,-2.197737216949463,-0.3483404815196991,0.7919303774833679,0.41999876499176025,0.9835494756698608,0.00010918801126535982,-3.7110832636244595e-05,-0.18063852190971375,0.2685433626174927,0.3784068524837494,-0.002049057511612773,-0.09343501180410385,0.02734670788049698,-10.112420082092285,-0.35481971502304077,0.7982757091522217,0.4213241636753082,0.7724670171737671,0.3241049647331238,-0.12910853326320648,0.39405596256256104,0.6574943661689758,0.42000001668930054,-0.5182077288627625,2.999371290206909,-0.7923423647880554,-2.9995927810668945,-0.17337611317634583,-0.17782706022262573,-0.17998477816581726,-0.18009494245052338,-0.4745405614376068,-0.34413209557533264,-0.2098582237958908,-0.06925196200609207
0.3833333333333333,-0.0010934709571301937,0.1363590806722641,0.0,0.8990158438682556,0.0,0.0,-0.4379160702228546,-0.8739429712295532,-0.7374981641769409,0.0,0.0,0.0,0.6840693950653076,-0.3390309810638428,0.8024002313613892,0.42031171917915344,0.9691379070281982,0.007560512982308865,-0.0017943482380360365,-0.24639657139778137,0.722423791885376,0.7490905523300171,0.04684622585773468,2.242851734161377,-1.181621789932251,-5.755612373352051,-0.3408621549606323,0.8054192066192627,0.41999369859695435,0.9785652160644531,0.5771305561065674,-0.03922611474990845,0.39405596256256104,0.6574943661689758,0.42000001668930054,-0.4682035744190216,2.999971866607666,-0.8423869013786316,-2.9999871253967285,-0.18211832642555237,-0.1839231550693512,-0.1833340972661972,-0.18058323860168457,-0.48223328590393066,-0.31821393966674805,-0.14688172936439514,0.0319625660777092
0.4,-0.011784694157540798,0.12191909551620483,0.0,0.8915445804595947,0.0,0.0,-0.4529329240322113,-0.5605878233909607,-0.916016161441803,0.0,0.0,0.0,-2.922701358795166,-0.3217504024505615,0.8147131204605103,0.4209076166152954,0.9573051929473877,-0.0013196084182709455,-0.009932063519954681,-0.28890523314476013,0.9800828099250793,1.0282715559005737,0.04832162708044052,1.0356239080429077,1.718106985092163,-17.229429244995117,-0.322268009185791,0.8158373236656189,0.420623779296875,1.3462368249893188,0.7112683057785034,0.13717710971832275,0.39405596256256104,0.6574943661689758,0.42000001668930054,-0.4182048738002777,2.928654432296753,-0.8924139142036438,-2.9995367527008057,-0.18903173506259918,-0.18802928924560547,-0.18443244695663452,-0.178487166762352,-0.31580352783203125,-0.15165802836418152,0.02639448456466198,0.21689054369926453
0.4166666666666667,-0.022265085950493813,0.10533718764781952,0.0,0.8696185350418091,0.0,0.0,-0.4937242567539215,-0.6906232833862305,-1.0246340036392212,0.0,0.0,0.0,-6.51223611831665,-0.29380983114242554,0.8301990032196045,0.42470887303352356,0.9341968894004822,-0.016256406903266907,-0.03210878744721413,-0.35493770241737366,2.371278762817383,0.9107218384742737,0.33400461077690125,21.620803833007812,-18.27975845336914,10.613635063171387,-0.29357004165649414,0.8309724926948547,0.4241696298122406,1.9883919954299927,1.0193670988082886,0.5317957997322083,0.39405596256256104,0.6574943661689758,0.42000001668930054,-0.3865925073623657,1.036249041557312,-0.9424363970756531,-3.0000014305114746,-0.1955832839012146,-0.1917179375886917,-0.18506039679050446,-0.17589591443538666,-0.39105546474456787,-0.22376635670661926,-0.0468742735683918,0.13700492680072784
0.43333333333333335,-0.030729852616786957,0.08602437376976013,0.0,0.8313711285591125,0.0,0.0,-0.5557175874710083,-0.4356074929237366,-1.2135668992996216,0.0,0.0,0.0,-9.516579627990723,-0.24323473870754242,0.8495928645133972,0.43222561478614807,0.9114646315574646,-0.01068086363375187,-0.05699620023369789,-0.40727072954177856,4.179609298706055,0.8651958107948303,0.5303054451942444,7.7244181632995605,-10.217991828918457,14.672693252563477,-0.2428726851940155,0.8500571250915527,0.431537389755249,4.042450904846191,1.3540358543395996,0.6103224158287048,0.39405596256256104,0.6574943661689758,0.42000001668930054,-0.37077003717422485,1.0234712362289429,-0.9924584031105042,-3.000002145767212,-0.20419061183929443,-0.1966959685087204,-0.18639957904815674,-0.173666313290596,-0.5646136999130249,-0.3172239363193512,-0.0766487792134285,0.1511225551366806
0.45,-0.03626294434070587,0.07250029593706131,0.0,0.7740914821624756,0.0,0.0,-0.6330737471580505,-0.2785554826259613,-0.6723881363868713,0.0,0.0,0.0,-12.414209365844727,-0.15315328538417816,0.8681920170783997,0.4426766633987427,0.8829901218414307,0.04440420866012573,-0.09278565645217896,-0.45798182487487793,6.664304256439209,0.609510064125061,0.6967431902885437,8.20533561706543,-25.66756820678711,17.213106155395508,-0.15310528874397278,0.8694976568222046,0.44202786684036255,6.562985897064209,1.2093250751495361,0.8297003507614136,0.39405596256256104,0.6574943661689758,0.42000001668930054,-0.350188285112381,1.3183972835540771,-0.95497727394104,2.9958934783935547,-0.21955180168151855,-0.2085026204586029,-0.19298751652240753,-0.175644189119339,-0.8949525952339172,-0.8044928312301636,-0.5038434863090515,-0.24964921176433563
0.4666666666666667,-0.0447172150015831,0.06513071805238724,0.0,0.7253310680389404,0.0,0.0,-0.6884002089500427,-0.44981640577316284,-0.5256383419036865,0.0,0.0,0.0,-7.272988796234131,-0.050019655376672745,0.8762269020080566,0.4580652415752411,0.8373847603797913,0.06513924896717072,-0.09635263681411743,-0.5340970754623413,6.016988754272461,-0.24782435595989227,1.0443183183670044,6.771003723144531,-7.6640167236328125,1.1002907752990723,-0.049936119467020035,0.8789799809455872,0.45734071731567383,6.0886454582214355,0.15156978368759155,0.9297460317611694,0.39405596256256104,0.6574943661689758,0.42000001668930054,-0.3281099498271942,1.3560764789581299,-0.9802888035774231,-2.999528646469116,-0.2330399751663208,-0.2221493124961853,-0.20406268537044525,-0.18238086998462677,-0.5123767256736755,-0.5651659369468689,-0.4942857027053833,-0.32631030678749084
0.48333333333333334,-0.048394475132226944,0.05013427883386612,0.0,0.6998733282089233,0.0,0.0,-0.7142669558525085,-0.14580470323562622,-1.0683695077896118,0.0,0.0,0.0,-3.371636390686035,0.04946887865662575,0.8697152733802795,0.4721869230270386,0.7677361965179443,0.06844014674425125,-0.0900174081325531,-0.6307089328765869,5.563930511474609,-1.8763301372528076,0.8928283452987671,-9.514659881591797,7.459505558013916,13.060503005981445,0.048010360449552536,0.873643696308136,0.4716678857803345,5.766536712646484,-0.90860915184021,0.8678765296936035,0.39405596256256104,0.6574943661689758,0.42000001668930054,-0.3109002113342285,0.6722192168235779,-1.0303118228912354,-3.000000238418579,-0.23837308585643768,-0.22739821672439575,-0.20770080387592316,-0.1831766963005066,-0.22350437939167023,-0.16918566823005676,-0.05060979351401329,0.12206440418958664
0.5,-0.05516212061047554,0.03842027857899666,0.0,0.6967262625694275,0.0,0.0,-0.7173371315002441,-0.36197516322135925,-0.6065007448196411,0.0,0.0,0.0,0.36194053292274475,0.1353251039981842,0.8464704751968384,0.48215949535369873,0.6972721815109253,0.034667007625103,-0.09246612340211868,-0.7099716067314148,4.296077251434326,-1.992352843284607,0.5236549973487854,6.479920387268066,-5.7903151512146,14.196023941040039,0.13312622904777527,0.8517926931381226,0.4833451807498932,4.671215057373047,-1.573256254196167,0.47045987844467163,0.39405596256256104,0.6574943661689758,0.42000001668930054,-0.30209338665008545,0.41361838579177856,-1.080333948135376,-3.0000014305114746,-0.2398938536643982,-0.23317615687847137,-0.21110102534294128,-0.18379785120487213,0.05591253936290741,-0.2005026638507843,-0.13028547167778015,-0.04525931924581528
0.5166666666666666,-0.058090660721063614,0.03242719918489456,0.0,0.6846960783004761,0.0,0.0,-0.7288286685943604,-0.11532476544380188,-0.27828681468963623,0.0,0.0,0.0,-2.819103717803955,0.20364834368228912,0.8183254599571228,0.4838472008705139,0.6492704749107361,0.01756341941654682,-0.07951603084802628,-0.7561855316162109,3.5412046909332275,-2.2840678691864014,-0.14718161523342133,-9.103120803833008,-3.1411197185516357,9.472658157348633,0.20204737782478333,0.8245223164558411,0.4856698513031006,3.8887929916381836,-1.9159777164459229,-0.03317726030945778,0.39405596256256104,0.6574943661689758,0.42000001668930054,-0.2941022217273712,0.5292195677757263,-1.1303558349609375,-3.0000016689300537,-0.23841610550880432,-0.23520243167877197,-0.2126345932483673,-0.18471300601959229,0.13380274176597595,-0.023961752653121948,-0.015822146087884903,-0.011311889626085758
0.5333333333333333,-0.05759573355317116,0.02391309291124344,0.0,0.6849197149276733,0.0,0.0,-0.7286185622215271,0.059110525995492935,-0.506712019443512,0.0,0.0,0.0,0.9398396015167236,0.26145023107528687,0.7842627763748169,0.4778464138507843,0.5930856466293335,-0.03365910425782204,-0.07976965606212616,-0.8004706501960754,2.8808159828186035,-2.5329995155334473,-0.6742954850196838,-15.597758293151855,9.673161506652832,-1.7062993049621582,0.2601591646671295,0.7903875112533569,0.4809524118900299,3.1399335861206055,-2.2611825466156006,-0.389325886964798,0.39405596256256104,0.6574943661689758,0.42000001668930054,-0.2818462550640106,0.8392167687416077,-1.1803779602050781,-2.999922275543213,-0.23333267867565155,-0.23212777078151703,-0.2100236713886261,-0.18286091089248657,0.2738422155380249,0.2135220468044281,0.1807277500629425,0.11531734466552734
0.55,-0.05467798933386803,0.019477814435958862,0.0,0.6751646399497986,0.0,0.0,-0.7376670837402344,0.21643510460853577,-0.23003894090652466,0.0,0.0,0.0,-2.4263298511505127,0.30869901180267334,0.7481628656387329,0.4619751572608948,0.5160202980041504,-0.11601310223340988,-0.09448351711034775,-0.8434078693389893,2.6253108978271484,-1.99842369556427,-1.0796270370483398,-4.01056432723999,2.600227117538452,-10.8265380859375,0.3069379925727844,0.755112886428833,0.46817678213119507,2.517155885696411,-2.0849337577819824,-1.0294408798217773,0.39405596256256104,0.6574943661689758,0.42000001668930054,-0.265746146440506,1.0319335460662842,-1.2304000854492188,-3.000000476837158,-0.22819705307483673,-0.22808417677879333,-0.20738878846168518,-0.18219929933547974,0.4577871561050415,0.3745918869972229,0.2330881655216217,0.057528287172317505
0.5666666666666667,-0.049229856580495834,0.013850272633135319,0.0,0.6776444315910339,0.0,0.0,-0.7353897094726562,0.3659350872039795,-0.3457242548465729,0.0,0.0,0.0,1.187156319618225,0.34473007917404175,0.7137957215309143,0.4429883062839508,0.4748184382915497,-0.13194392621517181,-0.09721075743436813,-0.8646896481513977,1.672893762588501,-2.6518943309783936,-1.0718774795532227,-6.1678385734558105,-0.05235609412193298,10.110615730285645,0.34345167875289917,0.7202968001365662,0.4489978551864624,1.7612526416778564,-2.0555672645568848,-1.2158219814300537,0.39405596256256104,0.6574943661689758,0.42000001668930054,-0.24843424558639526,0.6940913200378418,-1.2010034322738647,2.9998040199279785,-0.21918846666812897,-0.22028487920761108,-0.202400803565979,-0.1806771606206894,0.4625629484653473,0.4221823215484619,0.25291872024536133,0.03766784444451332
0.5833333333333334,-0.041885074228048325,0.011344878934323788,0.0,0.6694176197052002,0.0,0.0,-0.7428863048553467,0.484180212020874,-0.08929333835840225,0.0,0.0,0.0,-2.197218894958496,0.371289998292923,0.6869834065437317,0.4239567220211029,0.4698350727558136,-0.09184624999761581,-0.048209305852651596,-0.8766384720802307,1.0754398107528687,-0.9250878691673279,-0.42433151602745056,29.581382751464844,-20.160011291503906,13.334577560424805,0.3690784275531769,0.6914608478546143,0.42647820711135864,1.0606584548950195,-1.3098044395446777,-0.9304772615432739,0.39405596256256104,0.6574943661689758,0.42000001668930054,-0.24232318997383118,0.501807689666748,-1.2224478721618652,-2.9897592067718506,-0.21006596088409424,-0.21266767382621765,-0.198630228638649,-0.18135829269886017,0.6362042427062988,0.521605372428894,0.25569307804107666,-0.040681857615709305
0.6,-0.03223274648189545,0.005380971357226372,0.0,0.6732642650604248,0.0,0.0,-0.7394019365310669,0.6062127351760864,-0.3621715307235718,0.0,0.0,0.0,1.4601290225982666,0.38083314895629883,0.6761801838874817,0.4230435788631439,0.48313358426094055,-0.07187435775995255,-0.040185585618019104,-0.8716656565666199,0.29920366406440735,-0.7573739290237427,-0.2945729196071625,17.048564910888672,-20.247539520263672,6.784192085266113,0.3780495524406433,0.6795299053192139,0.426109254360199,0.34608110785484314,-0.6950142979621887,-0.09778377413749695,0.39405596256256104,0.6574943661689758,0.42000001668930054,-0.2267775684595108,1.09714674949646,-1.183964729309082,2.9932103157043457,-0.1967434585094452,-0.20142266154289246,-0.19206275045871735,-0.1798732727766037,0.6389889717102051,0.5612866282463074,0.31596213579177856,0.04103115200996399
0.6166666666666667,-0.02501954697072506,0.0033979592844843864,0.0,0.6658239960670471,0.0,0.0,-0.7461088299751282,0.38015347719192505,-0.08786329627037048,0.0,0.0,0.0,-2.0982778072357178,0.3849611282348633,0.6676387190818787,0.4220201075077057,0.5122489929199219,-0.04522416368126869,-0.027914654463529587,-0.8571910858154297,0.01233680360019207,-0.7553755044937134,-0.05354699864983559,2.98576283454895,-2.437150478363037,5.86246395111084,0.3813531696796417,0.6714574098587036,0.42465341091156006,0.141518235206604,-0.3577079474925995,-0.08753059804439545,0.39405596256256104,0.6574943661689758,0.42000001668930054,-0.2501625120639801,-2.9823412895202637,-1.133933663368225,3.000002145767212,-0.1879781037569046,-0.19382615387439728,-0.18840639293193817,-0.18058820068836212,0.542397141456604,0.46692121028900146,0.22733695805072784,-0.03501119837164879
0.6333333333333333,-0.01745779439806938,0.004696498159319162,0.0,0.6702843904495239,0.0,0.0,-0.7421043515205383,0.47552305459976196,0.12942907214164734,0.0,0.0,0.0,1.5791189670562744,0.38485726714134216,0.6572116613388062,0.42012929916381836,0.5256245732307434,-0.0023035500198602676,-0.00146647565998137,-0.850712239742279,-0.02260328270494938,-0.42117825150489807,-0.08000646531581879,3.8763480186462402,-1.8560662269592285,0.8040095567703247,0.38249480724334717,0.6674691438674927,0.42573609948158264,0.03738192468881607,-0.10184035450220108,0.12367872148752213,0.39405596256256104,0.6574943661689758,0.42000001668930054,-0.29305779933929443,-2.2121918201446533,-1.1559563875198364,-2.9978182315826416,-0.17983177304267883,-0.18685618042945862,-0.18518702685832977,-0.18139804899692535,0.4963136911392212,0.427450031042099,0.21129381656646729,-0.018549242988228798
0.65,-0.007664754055440426,0.0012092185206711292,0.0,0.6629098653793335,0.0,0.0,-0.7486991882324219,0.5606102347373962,-0.22406429052352905,0.0,0.0,0.0,-2.121004581451416,0.3854975998401642,0.6556366682052612,0.42048394680023193,0.5401963591575623,-0.008810380473732948,0.0003178744518663734,-0.8414928317070007,-0.13989685475826263,-0.20758764445781708,-0.05693727731704712,-1.5960665941238403,-2.6384055614471436,3.2924368381500244,0.3836093842983246,0.6706139445304871,0.42850711941719055,0.0003728307783603668,0.31979691982269287,0.1947813183069229,0.39405596256256104,0.6574943661689758,0.42000001668930054,-0.3401029109954834,-3.0,-1.205923080444336,-2.999342918395996,-0.16649796068668365,-0.1751575469970703,-0.1778119057416916,-0.1784389168024063,0.6868551969528198,0.6530545353889465,0.43196675181388855,0.20325864851474762
0.6666666666666666,0.0038074899930506945,0.0022200148086994886,0.0,0.6673368811607361,0.0,0.0,-0.7447559833526611,0.7207443118095398,0.06114785000681877,0.0,0.0,0.0,1.5724971294403076,0.3838396370410919,0.6533945202827454,0.4200000464916229,0.5509531497955322,-1.0244495030065082e-08,7.169232958403882e-07,-0.8345361351966858,-0.08871231228113174,-0.11325249820947647,-3.2552634365856647e-06,-0.00011104941222583875,-0.0001663485454628244,1.15568208694458,0.3828948140144348,0.6740568280220032,0.4313686192035675,0.04144755378365517,0.210595041513443,0.18544059991836548,0.39405596256256104,0.6574943661689758,0.42000001668930054,-0.3901156783103943,-2.9998672008514404,-1.2559311389923096,-2.9999687671661377,-0.15953953564167023,-0.16804513335227966,-0.17334222793579102,-0.17677411437034607,0.44271528720855713,0.4362858831882477,0.28448712825775146,0.12667624652385712
0.6833333333333333,0.012851299718022346,-0.0009869157802313566,0.0,0.690315842628479,0.0,0.0,-0.7235081791877747,0.47692641615867615,-0.23942261934280396,0.0,0.0,0.0,4.756048202514648,0.3824707269668579,0.6523178815841675,0.42011985182762146,0.5423901081085205,0.001633340260013938,-0.002480496885254979,-0.8401214480400085,-0.1340327113866806,-0.0468456968665123,0.02156032621860504,-0.4107378125190735,-1.0527297258377075,-4.703907012939453,0.3814511299133301,0.675166130065918,0.434835284948349,-0.20637503266334534,-0.04858654737472534,0.2258686125278473,0.39405596256256104,0.6574943661689758,0.42000001668930054,-0.44010987877845764,-2.999992609024048,-1.3059170246124268,-2.999732732772827,-0.1532357782125473,-0.16107109189033508,-0.16777706146240234,-0.17272432148456573,0.22690171003341675,0.31691959500312805,0.2997317612171173,0.2743549048900604
0.7,0.022408101707696915,-0.007330760359764099,0.0,0.699742317199707,0.0,0.0,-0.7143953442573547,0.6056671738624573,-0.4353223741054535,0.0,0.0,0.0,0.5408989787101746,0.38083335757255554,0.6516901254653931,0.41999998688697815,0.5164757966995239,-3.274519258411601e-06,6.704070528940065e-06,-0.8563017845153809,-0.08275424689054489,-0.02773933671414852,-0.00021146431390661746,0.010872826911509037,5.6388191296719015e-05,-3.0389208793640137,0.38077664375305176,0.6755630373954773,0.4394166171550751,0.00425348524004221,-0.026694297790527344,0.29620668292045593,0.39405596256256104,0.6574943661689758,0.42000001668930054,-0.4901139438152313,-2.999952554702759,-1.3559082746505737,-2.9999310970306396,-0.15115287899971008,-0.1569320410490036,-0.16297346353530884,-0.16730886697769165,0.08874525874853134,0.23429922759532928,0.31576260924339294,0.3970057964324951
0.7166666666666667,0.033843766897916794,-0.016484124585986137,0.0,0.6874136328697205,0.0,0.0,-0.7262661457061768,0.7194142937660217,-0.6244409680366516,0.0,0.0,0.0,-2.932140827178955,0.38017141819000244,0.6514892578125,0.4200000762939453,0.505954921245575,-2.606380462566449e-07,2.8708831223411835e-07,-0.8625599145889282,-0.02455317974090576,-0.007629884406924248,-7.905904203653336e-05,0.0030187552329152822,0.003089367877691984,-0.888795018196106,0.3858695328235626,0.677251935005188,0.45119160413742065,0.5527082681655884,0.16455645859241486,1.2052165269851685,0.39405596256256104,0.6574943661689758,0.42000001668930054,-0.5401265025138855,-2.9999947547912598,-1.4059265851974487,-2.9999988079071045,-0.15211115777492523,-0.15530414879322052,-0.1595458835363388,-0.1620630919933319,-0.12111546844244003,0.03754812106490135,0.1632639467716217,0.2907656133174896
0.7333333333333333,0.048987116664648056,-0.02009131759405136,0.0,0.6530581116676331,0.0,0.0,-0.757307767868042,0.9834880232810974,-0.08132737129926682,0.0,0.0,0.0,-6.578477382659912,0.3801710307598114,0.6514894962310791,0.4200000464916229,0.5059555768966675,8.095339012470504e-07,-3.91185267289984e-06,-0.86255943775177,0.00027199694886803627,-0.00016871222760528326,-0.00011235475540161133,0.001785909291356802,0.0003799515252467245,-0.0013217399828135967,0.4036593735218048,0.67558753490448,0.4774929881095886,1.6311662197113037,-0.34431666135787964,2.078531265258789,0.39405596256256104,0.6574943661689758,0.42000001668930054,-0.5901379585266113,-2.9998955726623535,-1.4559448957443237,-2.9999842643737793,-0.16277605295181274,-0.16186772286891937,-0.1624334454536438,-0.16136397421360016,-0.8141501545906067,-0.538782000541687,-0.27973589301109314,-0.028430411592125893
0.75,0.060755036771297455,-0.019214024767279625,0.0,0.6315256953239441,0.0,0.0,-0.7753549218177795,0.6154872179031372,-0.1246616467833519,0.0,0.0,0.0,-1.9747971296310425,0.3801712393760681,0.6514893770217896,0.4200000464916229,0.505954921245575,-1.5542535436452454e-07,-2.536177134970785e-06,-0.8625598549842834,-2.7088641218142584e-05,-0.000231136626098305,-6.127008236944675e-05,0.0065801432356238365,-0.0026138946413993835,-0.0006402541766874492,0.42946678400039673,0.6741945743560791,0.5150856971740723,1.615757942199707,0.13273896276950836,2.3607044219970703,0.39405596256256104,0.6574943661689758,0.42000001668930054,-0.6095139980316162,0.39700251817703247,-1.5059632062911987,-3.000000238418579,-0.1730499416589737,-0.16903020441532135,-0.1665666103363037,-0.16260471940040588,-0.1789681762456894,-0.1309133619070053,-0.07472750544548035,-0.018747776746749878
0.7666666666666666,0.06770869344472885,-0.019069859758019447,0.0,0.6368328928947449,0.0,0.0,-0.7710018754005432,0.3455337584018707,0.05777101218700409,0.0,0.0,0.0,1.6726881265640259,0.3801712393760681,0.6514893770217896,0.4200000464916229,0.5059549808502197,-1.7671329999302543e-07,-2.5274755444115726e-06,-0.8625597953796387,-1.9590690499171615e-05,-0.00022662153060082346,-6.251572631299496e-05,0.006421852391213179,-0.002503884956240654,-0.0006420445861294866,0.45142829418182373,0.6761109828948975,0.5481976270675659,0.9771669507026672,0.13737623393535614,1.6963664293289185,0.39405596256256104,0.6574943661689758,0.42000001668930054,-0.5809248089790344,2.799204111099243,-1.46721613407135,2.9999990463256836,-0.17465369403362274,-0.17013338208198547,-0.166953444480896,-0.16230203211307526,-1.682201400399208e-08,0.01042795181274414,0.035823557525873184,0.057569719851017
0.7833333333333333,0.07036948949098587,-0.023568959906697273,0.0,0.6305246949195862,0.0,0.0,-0.7761691808700562,0.18836729228496552,-0.31714314222335815,0.0,0.0,0.0,-1.6946645975112915,0.3801712393760681,0.6514893770217896,0.4200000464916229,0.5059548020362854,-1.454685616408824e-07,-2.192620968344272e-06,-0.862559974193573,-2.030341602221597e-05,-0.00022772233933210373,-6.249267607927322e-05,0.006454315036535263,-0.0025195146445184946,-0.0006441971054300666,0.46060943603515625,0.6815903186798096,0.5701512098312378,0.03669275715947151,0.2738308012485504,1.0795745849609375,0.39405596256256104,0.6574943661689758,0.42000001668930054,-0.5392143726348877,2.2238941192626953,-1.4171596765518188,2.999999523162842,-0.17002712190151215,-0.16615229845046997,-0.16331402957439423,-0.15905360877513885,0.13242119550704956,0.1261807531118393,0.13477464020252228,0.13331976532936096
0.8,0.07087575644254684,-0.022833550348877907,0.0,0.6371114253997803,0.0,0.0,-0.7707717418670654,-0.006263770163059235,0.05985066667199135,0.0,0.0,0.0,1.7558566331863403,0.3801712393760681,0.6514894366264343,0.4200000464916229,0.5059550404548645,4.9344887287361416e-08,-2.7596395284490427e-06,-0.8625597357749939,-2.4904293240979314e-05,-0.00023261051683221012,-6.199697963893414e-05,0.006606951355934143,-0.002602309687063098,-0.000650032190605998,0.4547674059867859,0.6842502355575562,0.5849120020866394,-0.5664406418800354,0.20232893526554108,0.7178652286529541,0.39405596256256104,0.6574943661689758,0.42000001668930054,-0.49224957823753357,2.99999737739563,-1.3671261072158813,2.999999523162842,-0.1721297949552536,-0.16748666763305664,-0.16370467841625214,-0.15879406034946442,0.009690364822745323,0.019600966945290565,0.04357672855257988,0.05317055433988571
0.8166666666666667,0.06926056742668152,-0.025472380220890045,0.0,0.6310203671455383,0.0,0.0,-0.7757662534713745,-0.12090150266885757,-0.2659684419631958,0.0,0.0,0.0,-1.8764872550964355,0.3801712393760681,0.6514894366264343,0.4200000464916229,0.5059552788734436,-2.1292305518727517e-07,-2.571179493315867e-06,-0.8625597357749939,-2.143649908248335e-05,-0.00022929678380023688,-6.236648187041283e-05,0.006502245087176561,-0.002541016321629286,-0.000646610336843878,0.4391685128211975,0.6880470514297485,0.5907604694366455,-1.3128108978271484,0.20422081649303436,0.15357747673988342,0.39405596256256104,0.6574943661689758,0.42000001668930054,-0.4685709774494171,0.07532378286123276,-1.3170734643936157,3.000000238418579,-0.17031531035900116,-0.16578398644924164,-0.16184379160404205,-0.15697893500328064,0.15233585238456726,0.1442996859550476,0.15227971971035004,0.14805381000041962
0.8333333333333334,0.0691816508769989,-0.023836567997932434,0.0,0.6363402009010315,0.0,0.0,-0.7714085578918457,0.003700264496728778,0.06986688077449799,0.0,0.0,0.0,1.3342039585113525,0.3801712393760681,0.6514894366264343,0.4200000464916229,0.5059552192687988,-2.1369694991335564e-07,-2.605778490760713e-06,-0.8625596165657043,-2.1168159946682863e-05,-0.000229244731599465,-6.242701783776283e-05,0.006499434355646372,-0.002537896391004324,-0.0006470437510870397,0.4201095700263977,0.6904908418655396,0.5922897458076477,-0.8232739567756653,0.3027154207229614,0.045094575732946396,0.39405596256256104,0.6574943661689758,0.42000001668930054,-0.4496316611766815,2.016432762145996,-1.2670704126358032,2.999999523162842,-0.1722187101840973,-0.16726724803447723,-0.16266068816184998,-0.1573564112186432,0.0965961366891861,0.05230805650353432,0.03174326568841934,0.008447915315628052
0.85,0.0708787813782692,-0.02658570185303688,0.0,0.628229558467865,0.0,0.0,-0.7780280113220215,0.13675270974636078,-0.18638163805007935,0.0,0.0,0.0,-2.1213738918304443,0.3801712393760681,0.6514893770217896,0.4200000464916229,0.5059548020362854,-1.3896341855001992e-08,-2.3042184693622403e-06,-0.8625599145889282,-2.3363118089037016e-05,-0.00023102821432985365,-6.212876178324223e-05,0.006557913962751627,-0.0025735911913216114,-0.000648109067697078,0.40728333592414856,0.6949009895324707,0.5910437107086182,-0.7777848839759827,0.12385100871324539,-0.042447879910469055,0.39405596256256104,0.6574943661689758,0.42000001668930054,-0.46390703320503235,-3.0000016689300537,-1.2170177698135376,2.999999761581421,-0.16915597021579742,-0.16519683599472046,-0.1611415594816208,-0.15635687112808228,0.08340886235237122,0.05230574309825897,0.04547886177897453,0.039501212537288666
0.8666666666666667,0.075019970536232,-0.026476174592971802,0.0,0.6326642632484436,0.0,0.0,-0.7744262218475342,0.28527185320854187,0.05534442886710167,0.0,0.0,0.0,1.5053833723068237,0.3801712393760681,0.6514894366264343,0.4200000464916229,0.505955159664154,1.2969391605111014e-07,-2.48486526288616e-06,-0.8625597953796387,-2.4535387638024986e-05,-0.00023248176148626953,-6.205425597727299e-05,0.006601760163903236,-0.002596976701170206,-0.0006503683398477733,0.40165621042251587,0.6960268020629883,0.5899497866630554,0.06137866526842117,0.06761345267295837,-0.04822163283824921,0.39405596256256104,0.6574943661689758,0.42000001668930054,-0.4884019196033478,-0.16546796262264252,-1.2382181882858276,-3.0000009536743164,-0.16871705651283264,-0.16496054828166962,-0.1606343388557434,-0.15547850728034973,0.0727619081735611,0.06034881994128227,0.07961033284664154,0.10997667908668518
0.8833333333333333,0.08101220428943634,-0.029159249737858772,0.0,0.6252447962760925,0.0,0.0,-0.7804287075996399,0.39418622851371765,-0.19850999116897583,0.0,0.0,0.0,-2.0264790058135986,0.3801712393760681,0.6514893770217896,0.4200000464916229,0.5059550404548645,-5.635318700569769e-08,-2.647850351422676e-06,-0.8625597357749939,-2.085696905851364e-05,-0.0002298912004334852,-6.250105798244476e-05,0.006515076383948326,-0.002537202788516879,-0.0006497186259366572,0.40490978956222534,0.6952928304672241,0.5865767002105713,0.31229448318481445,-0.204928457736969,-0.18523482978343964,0.39405596256256104,0.6574943661689758,0.42000001668930054,-0.5255923867225647,-3.0000011920928955,-1.2002300024032593,2.9999992847442627,-0.16677427291870117,-0.16322863101959229,-0.15860305726528168,-0.1529429405927658,0.027896124869585037,0.04511173814535141,0.08847145736217499,0.14125186204910278
0.9,0.08923708647489548,-0.028550878167152405,0.0,0.6277554035186768,0.0,0.0,-0.7784106135368347,0.5155543088912964,0.07978624105453491,0.0,0.0,0.0,1.7593680620193481,0.3801712393760681,0.6514893770217896,0.4200000464916229,0.505954921245575,-1.8387791556051525e-07,-2.0969032448192593e-06,-0.8625599145889282,-1.9931096176151186e-05,-0.00022759247804060578,-6.255321204662323e-05,0.006449168082326651,-0.0025142685044556856,-0.0006445332546718419,0.4126022458076477,0.6924558877944946,0.5870988368988037,0.6014459133148193,-0.10192588716745377,0.28209593892097473,0.39405596256256104,0.6574943661689758,0.42000001668930054,-0.5472840070724487,0.142735093832016,-1.2217062711715698,-2.999999761581421,-0.1673595905303955,-0.1636483073234558,-0.1584661900997162,-0.152101069688797,0.03344567492604256,0.0200247373431921,0.02781224623322487,0.044816091656684875
0.9166666666666666,0.09465089440345764,-0.032343171536922455,0.0,0.6498908996582031,0.0,0.0,-0.7600275278091431,0.26744696497917175,-0.262959748506546,0.0,0.0,0.0,4.269115924835205,0.3801712393760681,0.6514894366264343,0.4200000464916229,0.505955159664154,1.1766591967443674e-07,-2.4940541152318474e-06,-0.8625596761703491,-2.4391909391852096e-05,-0.00023243360919877887,-6.210384890437126e-05,0.006599606014788151,-0.002595824422314763,-0.0006505922647193074,0.42197859287261963,0.6887109279632568,0.5897287726402283,0.4636346399784088,-0.3998176157474518,0.07800261676311493,0.39405596256256104,0.6574943661689758,0.42000001668930054,-0.5685768723487854,-2.4567818641662598,-1.1837633848190308,3.000000476837158,-0.16437484323978424,-0.16077634692192078,-0.15542790293693542,-0.14878307282924652,0.07269734889268875,0.10584820806980133,0.14920078217983246,0.1939340978860855
