vladlanda/robotic-transformer/data/env_000_episode_0020.csv
sim_time_s,robot_box_x,robot_box_y,robot_box_z,robot_box_quat_w,robot_box_quat_x,robot_box_quat_y,robot_box_quat_z,robot_box_linvel_x,robot_box_linvel_y,robot_box_linvel_z,robot_box_angvel_x,robot_box_angvel_y,robot_box_angvel_z,cube_world_x,cube_world_y,cube_world_z,cube_quat_w,cube_quat_x,cube_quat_y,cube_quat_z,cube_linvel_x,cube_linvel_y,cube_linvel_z,cube_angvel_x,cube_angvel_y,cube_angvel_z,endpoint_world_x,endpoint_world_y,endpoint_world_z,endpoint_linvel_x,endpoint_linvel_y,endpoint_linvel_z,target_cube_world_x,target_cube_world_y,target_cube_world_z,gripper_actual_pos_rad_gp_leftgearjoint,gripper_actual_vel_rad_s_gp_leftgearjoint,gripper_actual_pos_rad_gp_rotatingjoint,gripper_actual_vel_rad_s_gp_rotatingjoint,motor_angle_rad_joint1,motor_angle_rad_joint2,motor_angle_rad_joint3,motor_angle_rad_joint4,motor_speed_rad_s_joint1,motor_speed_rad_s_joint2,motor_speed_rad_s_joint3,motor_speed_rad_s_joint4
0.0,0.0,0.0,0.0,1.0,0.0,0.0,0.0,0.0,0.0,0.0,0.0,0.0,0.0,-0.4765862822532654,0.747994601726532,0.41999998688697815,1.0,0.0,0.0,0.0,0.0,0.0,0.0,0.0,0.0,0.0,3.42540442943573e-06,-0.005000244826078415,1.313499927520752,0.0,0.0,0.0,0.4236901104450226,0.7199190258979797,0.42000001668930054,-1.5707999467849731,0.0,0.0,0.0,0.0,0.0,0.0,0.0,0.0,0.0,0.0,0.0
0.016666666666666666,0.0028778850100934505,0.0021806680597364902,0.0,0.9998081922531128,0.0,0.0,0.019586581736803055,0.24087215960025787,0.18240931630134583,0.0,0.0,0.0,3.1418697834014893,-0.47658640146255493,0.7479943037033081,0.41999998688697815,1.0,3.2799832752061775e-06,-8.339598593920527e-07,8.465660528145236e-08,-1.9833856640616432e-05,0.00017983021098189056,-6.132945418357849e-05,0.0009432561928406358,-0.004689492750912905,-0.0003198107879143208,-0.007110234349966049,0.003379564033821225,1.3159373998641968,-0.8143353462219238,0.9868683815002441,0.18095196783542633,0.4236901104450226,0.7199190258979797,0.42000001668930054,-1.5301095247268677,3.0000011920928955,-0.04584788903594017,-2.9999992847442627,0.0008691533003002405,0.0007963840034790337,0.0007110277656465769,0.0006108740926720202,0.11094217747449875,0.09756709635257721,0.08334315568208694,0.06823883205652237
0.03333333333333333,0.008958722464740276,0.006802083924412727,0.0,0.9997958540916443,0.0,0.0,0.020204391330480576,0.4070062041282654,0.31530439853668213,0.0,0.0,0.0,-0.8692372441291809,-0.4765865206718445,0.7479942440986633,0.4200000464916229,1.0,3.3908784189407015e-06,-2.132447662006598e-06,-3.7113029094371086e-08,0.0002635781711433083,0.0002693779533728957,-0.00010509602725505829,-0.001770740025676787,0.004130825400352478,-0.00013548026618082076,-0.02755376324057579,0.026193633675575256,1.3165961503982544,-1.5914093255996704,1.615976095199585,-0.0849447250366211,0.4236901104450226,0.7199190258979797,0.42000001668930054,-1.4800903797149658,3.000000476837158,-0.09588771313428879,-3.0000007152557373,0.002989287255331874,0.0026519536040723324,0.002276580547913909,0.0018600932089611888,0.16422316431999207,0.13976524770259857,0.11382269859313965,0.08630359172821045
0.05,0.017757277935743332,0.013773355633020401,0.0,0.9993744492530823,0.0,0.0,0.035365622490644455,0.5939755439758301,0.4651794135570526,0.0,0.0,0.0,2.647390365600586,-0.47658655047416687,0.7479943037033081,0.4200000464916229,1.0,3.7651825550710782e-06,-2.211884293501498e-06,5.609665620909254e-09,0.0002653094124980271,0.0002669155364856124,-0.0001044049859046936,-0.001724360859952867,0.00417743343859911,-0.00012949237134307623,-0.05969797819852829,0.05444301292300224,1.3114943504333496,-2.187898635864258,1.8041162490844727,-0.49076324701309204,0.4236901104450226,0.7199190258979797,0.42000001668930054,-1.4300720691680908,3.00000262260437,-0.1459263563156128,-3.000002145767212,0.005709794349968433,0.004917564336210489,0.004053217824548483,0.0031123170629143715,0.19260366261005402,0.15570110082626343,0.11692523956298828,0.07618237286806107
0.06666666666666667,0.029075445607304573,0.02306857518851757,0.0,0.9994469881057739,0.0,0.0,0.033252883702516556,0.7205438613891602,0.5953065752983093,0.0,0.0,0.0,-1.2117934226989746,-0.47658655047416687,0.7479942440986633,0.4200000464916229,0.9999999403953552,3.4068248169205617e-06,-2.2856320356368087e-06,4.300777334265149e-07,0.00026702528703026474,0.00026791737764142454,-0.00010437797755002975,-0.0017406486440449953,0.004211665131151676,-0.00012849978520534933,-0.09758100658655167,0.08962267637252808,1.298668622970581,-2.378474473953247,2.3018603324890137,-1.0202608108520508,0.4236901104450226,0.7199190258979797,0.42000001668930054,-1.3800537586212158,3.0000009536743164,-0.19596368074417114,-3.000000238418579,0.008222752250730991,0.006720195058733225,0.005106696393340826,0.0033765938133001328,0.14357048273086548,0.09044741094112396,0.03528702259063721,-0.021990513429045677
0.08333333333333333,0.03445025905966759,0.03570305183529854,0.0,0.999998927116394,0.0,0.0,0.0014779850607737899,0.19049765169620514,0.8240504860877991,0.0,0.0,0.0,-4.937286853790283,-0.47658655047416687,0.7479942440986633,0.4200000464916229,0.9999999403953552,3.626150828495156e-06,-2.3353632059297524e-06,3.0320998689603584e-07,0.00026613965746946633,0.00026685226475819945,-0.00010405294597148895,-0.0017284216592088342,0.004196350462734699,-0.0001279056741623208,-0.13478371500968933,0.13208535313606262,1.2773244380950928,-2.1308021545410156,2.685917615890503,-1.443984031677246,0.4236901104450226,0.7199190258979797,0.42000001668930054,-1.330035924911499,3.0000038146972656,-0.2459726631641388,-3.0000007152557373,0.005024783778935671,0.0029078065417706966,0.0006291118334047496,-0.0018212252762168646,-0.28722885251045227,-0.33122944831848145,-0.3777850568294525,-0.42718130350112915
0.1,0.0440598726272583,0.04966048151254654,0.0,0.9999176859855652,0.0,0.0,-0.012828369624912739,0.6751364469528198,0.8509633541107178,0.0,0.0,0.0,-0.7081091403961182,-0.47658655047416687,0.7479942440986633,0.4200000464916229,1.0,3.422215741011314e-06,-2.3086440705810674e-06,1.7961383491638117e-07,0.0002668150991667062,0.00026800442719832063,-0.00010440708138048649,-0.001743118860758841,0.004207138903439045,-0.0001289104257011786,-0.1733473837375641,0.17335447669029236,1.2539469003677368,-2.3069286346435547,2.54982590675354,-1.444456934928894,0.4236901104450226,0.7199190258979797,0.42000001668930054,-1.2800214290618896,3.000000238418579,-0.2959892451763153,-3.000000238418579,0.005214704666286707,0.0015847334871068597,-0.002204159740358591,-0.006162366364151239,0.04037827253341675,-0.061731740832328796,-0.16294841468334198,-0.2632327079772949
0.11666666666666667,0.05163663253188133,0.06571725755929947,0.0,0.9992000460624695,0.0,0.0,-0.039990637451410294,0.4584416449069977,1.0250192880630493,0.0,0.0,0.0,-3.9396932125091553,-0.47658655047416687,0.7479943037033081,0.4200000464916229,1.0,3.711592853505863e-06,-2.332753865630366e-06,2.574192592419422e-07,0.0002648566442076117,0.0002663531631696969,-0.0001042329240590334,-0.0017181416042149067,0.004169980529695749,-0.00012915612023789436,-0.20688821375370026,0.22158846259117126,1.231284499168396,-1.7349286079406738,3.2419190406799316,-1.2604143619537354,0.4236901104450226,0.7199190258979797,0.42000001668930054,-1.2299946546554565,2.9999940395355225,-0.2617022693157196,3.000000476837158,0.0037025518249720335,-0.0018795676296576858,-0.007593028247356415,-0.013446678407490253,-0.04994941130280495,-0.19268164038658142,-0.3323068618774414,-0.4685654640197754
0.13333333333333333,0.05660425126552582,0.08457481861114502,0.0,0.9957649111747742,0.0,0.0,-0.09193617850542068,0.2331639975309372,1.1781762838363647,0.0,0.0,0.0,-7.107752799987793,-0.47658655047416687,0.7479942440986633,0.4200000464916229,1.0,3.3358085147483507e-06,-2.2319140953186434e-06,3.1129312105804274e-07,0.0002666973159648478,0.00026759272441267967,-0.00010428577661514282,-0.001737017184495926,0.004205896519124508,-0.00012840180716011673,-0.2360868901014328,0.2766753137111664,1.2112553119659424,-1.7278165817260742,3.412428379058838,-1.225940465927124,0.4236901104450226,0.7199190258979797,0.42000001668930054,-1.1948055028915405,1.3364448547363281,-0.29274195432662964,-3.0000016689300537,0.0016480677295476198,-0.0062744454480707645,-0.014261140488088131,-0.022315749898552895,-0.20093302428722382,-0.3292097747325897,-0.453294038772583,-0.5729002952575684
0.15,0.05845183879137039,0.1013258546590805,0.0,0.9922611117362976,0.0,0.0,-0.12416855990886688,0.06151744723320007,0.9215744733810425,0.0,0.0,0.0,-2.8373942375183105,-0.47658655047416687,0.7479942440986633,0.4200000464916229,1.0,3.5190378184779547e-06,-2.283064759467379e-06,-3.625691817887855e-07,0.00026618439005687833,0.0002673580020200461,-0.00010425783693790436,-0.001735009253025055,0.004195804707705975,-0.00012860787683166564,-0.2728634774684906,0.3309074640274048,1.1854581832885742,-2.3018336296081543,3.444854736328125,-1.836489200592041,0.4236901104450226,0.7199190258979797,0.42000001668930054,-1.1534576416015625,2.9999911785125732,-0.2584385871887207,3.0000009536743164,-0.0024236952885985374,-0.012130157090723515,-0.021820638328790665,-0.031495869159698486,-0.29992833733558655,-0.38395994901657104,-0.4633554518222809,-0.5380628108978271
0.16666666666666666,0.05676693096756935,0.11836809664964676,0.0,0.9857101440429688,0.0,0.0,-0.1684504896402359,-0.1632985770702362,1.0615177154541016,0.0,0.0,0.0,-6.238763332366943,-0.47658655047416687,0.7479942440986633,0.4200000464916229,1.0,3.6667033782578073e-06,-2.339081675017951e-06,-3.150136080876109e-07,0.00026595877716317773,0.0002666739164851606,-0.00010403385385870934,-0.001725254813209176,0.00419270945712924,-0.00012778321979567409,-0.30864042043685913,0.3915524184703827,1.1534383296966553,-1.911341667175293,3.9069526195526123,-2.0306644439697266,0.4236901104450226,0.7199190258979797,0.42000001668930054,-1.1092936992645264,2.319790840148926,-0.28948888182640076,-3.0000007152557373,-0.009424814954400063,-0.02046152763068676,-0.03139835596084595,-0.04223494604229927,-0.5080806016921997,-0.5777823328971863,-0.6427229046821594,-0.7028490304946899
0.18333333333333332,0.059916406869888306,0.13717599213123322,0.0,0.9807521104812622,0.0,0.0,-0.1952570229768753,0.3073231875896454,1.1850377321243286,0.0,0.0,0.0,-2.27229905128479,-0.47658655047416687,0.7479942440986633,0.4200000464916229,1.0,3.8144380596349947e-06,-2.3994705315999454e-06,-2.702848291846749e-07,0.00026549192261882126,0.000266112299868837,-0.00010391208343207836,-0.001717865583486855,0.004184891004115343,-0.000127535909996368,-0.3451266884803772,0.4543660581111908,1.1118625402450562,-2.126396417617798,3.9298691749572754,-2.9171242713928223,0.4236901104450226,0.7199190258979797,0.42000001668930054,-1.0772669315338135,1.5631811618804932,-0.3395164906978607,-3.0,-0.015536990016698837,-0.02746778540313244,-0.039217106997966766,-0.05078772455453873,-0.37067052721977234,-0.39950573444366455,-0.4242267906665802,-0.44517233967781067
0.2,0.059949327260255814,0.15339277684688568,0.0,0.9717803001403809,0.0,0.0,-0.23588789999485016,-0.07499969750642776,0.9229001402854919,0.0,0.0,0.0,-5.673290729522705,-0.47658655047416687,0.7479942440986633,0.4200000464916229,1.0,3.6001295029564062e-06,-2.291185865033185e-06,-2.2020017809154524e-07,0.0002657297591213137,0.0002664490893948823,-0.00010398216545581818,-0.0017226807540282607,0.004188799764961004,-0.00012773256457876414,-0.3797537088394165,0.5211692452430725,1.056308388710022,-1.8810606002807617,4.218714714050293,-3.7010111808776855,0.4236901104450226,0.7199190258979797,0.42000001668930054,-1.0316743850708008,2.999999761581421,-0.38954198360443115,-3.0000009536743164,-0.027195347473025322,-0.03869134187698364,-0.04998796433210373,-0.06110258772969246,-0.8527551293373108,-0.8024989366531372,-0.7519511580467224,-0.7018827795982361
0.21666666666666667,0.05685219541192055,0.17007289826869965,0.0,0.9665720462799072,0.0,0.0,-0.25639522075653076,-0.2956986427307129,1.0454274415969849,0.0,0.0,0.0,-1.5036263465881348,-0.47658655047416687,0.7479942440986633,0.4200000464916229,0.9999999403953552,3.639737315097591e-06,-2.261905365230632e-06,2.224729200861475e-07,0.00026687447098083794,0.00026754679856821895,-0.00010411837138235569,-0.0017404091777279973,0.004210993647575378,-0.00012784003047272563,-0.4140608310699463,0.5848182439804077,0.9871814250946045,-1.883523941040039,3.7235379219055176,-4.537057876586914,0.4236901104450226,0.7199190258979797,0.42000001668930054,-0.981673002243042,3.0000011920928955,-0.43956804275512695,-2.999999761581421,-0.0428592748939991,-0.05310281366109848,-0.06313081830739975,-0.0729970633983612,-0.9854084849357605,-0.9097746014595032,-0.8191261291503906,-0.7301339507102966
0.23333333333333334,0.05628737062215805,0.18376687169075012,0.0,0.9574136734008789,0.0,0.0,-0.28871965408325195,0.03859768807888031,0.6940997838973999,0.0,0.0,0.0,-4.7579731941223145,-0.4765865206718445,0.7479942440986633,0.4200000464916229,1.0,3.42076441484096e-06,-2.3167292511061532e-06,2.956030868972448e-07,0.0002668006345629692,0.00026803917717188597,-0.00010442500934004784,-0.0017438046634197235,0.00420692004263401,-0.0001289931678911671,-0.4438985586166382,0.6451959609985352,0.9043377637863159,-1.5501947402954102,3.460836410522461,-5.328022003173828,0.4236901104450226,0.7199190258979797,0.42000001668930054,-0.9316660165786743,3.0000014305114746,-0.4895963668823242,-2.999999761581421,-0.05849994719028473,-0.06810172647237778,-0.07692946493625641,-0.08509156852960587,-0.9538396596908569,-0.9413217306137085,-0.8819068074226379,-0.7651433944702148
0.25,0.0508953258395195,0.19971363246440887,0.0,0.9528725743293762,0.0,0.0,-0.30337077379226685,-0.2998596429824829,0.9470728635787964,0.0,0.0,0.0,-0.8333830237388611,-0.47658655047416687,0.7479942440986633,0.4200000464916229,0.9999999403953552,3.347640813444741e-06,-2.259107077406952e-06,1.8085022190916789e-07,0.00026687653735280037,0.0002679111494217068,-0.00010439427569508553,-0.0017405003309249878,0.004208215046674013,-0.00012870266800746322,-0.4679883122444153,0.6886641979217529,0.8096003532409668,-1.2154502868652344,2.1967270374298096,-5.889894008636475,0.4236901104450226,0.7199190258979797,0.42000001668930054,-0.8816553354263306,2.99990177154541,-0.5396261215209961,-2.999985933303833,-0.07462581247091293,-0.0842062309384346,-0.09305127710103989,-0.10120955109596252,-0.6727755665779114,-0.7238516211509705,-0.7723840475082397,-0.8165913224220276
0.26666666666666666,0.05085347592830658,0.21079252660274506,0.0,0.943916380405426,0.0,0.0,-0.330184668302536,0.011045346036553383,0.6062173843383789,0.0,0.0,0.0,-4.007625579833984,-0.47658655047416687,0.7479942440986633,0.4200000464916229,0.9999999403953552,3.5357268188818125e-06,-2.3001737190497806e-06,-1.2685268302448094e-07,0.00026601794525049627,0.00026712287217378616,-0.0001041970681399107,-0.0017317483434453607,0.004192880354821682,-0.00012849216000176966,-0.48575276136398315,0.7219598889350891,0.70646733045578,-0.7481508255004883,1.6385126113891602,-6.38449239730835,0.4236901104450226,0.7199190258979797,0.42000001668930054,-0.8316448926925659,3.000000238418579,-0.589655876159668,-2.9999988079071045,-0.08632014691829681,-0.09618659317493439,-0.10533276200294495,-0.11378440260887146,-0.9559500217437744,-0.9157993793487549,-0.8804979920387268,-0.8493484854698181
0.2833333333333333,0.04697412624955177,0.21863241493701935,0.0,0.9412235021591187,0.0,0.0,-0.3377844989299774,-0.30267754197120667,0.41593122482299805,0.0,0.0,0.0,-0.007001130376011133,-0.47658655047416687,0.7479943037033081,0.4200000464916229,1.0,3.5934988318331307e-06,-2.2624899429501966e-06,-5.653167178820695e-08,0.0002670465619303286,0.0002677509910427034,-0.00010416633449494839,-0.0017431797459721565,0.004214051645249128,-0.0001278916170122102,-0.4960747957229614,0.7376717329025269,0.6015704870223999,-0.3158103823661804,0.38453975319862366,-6.1681365966796875,0.4236901104450226,0.7199190258979797,0.42000001668930054,-0.7816359996795654,2.9999992847442627,-0.6396856307983398,-3.00000262260437,-0.10334903746843338,-0.11309334635734558,-0.12215667963027954,-0.1305200308561325,-1.0015686750411987,-1.0011804103851318,-1.0008858442306519,-1.0006521940231323
0.3,0.0396512970328331,0.2232513129711151,0.0,0.934013307094574,0.0,0.0,-0.357238233089447,-0.4539823830127716,0.19285160303115845,0.0,0.0,0.0,-3.295321464538574,-0.4765865206718445,0.7479942440986633,0.4200000464916229,0.9999999403953552,3.7250752029649448e-06,-2.235918827864225e-06,3.828830017482687e-07,0.0002647972432896495,0.00026673058164305985,-0.00010453932918608189,-0.0017189180944114923,0.004166692495346069,-0.0001301649317611009,-0.49431151151657104,0.7393888235092163,0.5010288953781128,0.4510034918785095,-0.12131128460168839,-5.812159061431885,0.4236901104450226,0.7199190258979797,0.42000001668930054,-0.7316272854804993,2.9999988079071045,-0.6897133588790894,-2.999997615814209,-0.12036705762147903,-0.1299990564584732,-0.13900043070316315,-0.14732755720615387,-0.8597331643104553,-0.8880828022956848,-0.9142802953720093,-0.9375577569007874
0.31666666666666665,0.03075183369219303,0.22466212511062622,0.0,0.9330306649208069,0.0,0.0,-0.35979679226875305,-0.5650681257247925,0.04097143933176994,0.0,0.0,0.0,0.6210505962371826,-0.47658655047416687,0.7479942440986633,0.4200000464916229,0.9999999403953552,3.5577868402469903e-06,-2.278708961966913e-06,2.2836172774987062e-07,0.00026598546537570655,0.0002665847132448107,-0.00010398868471384048,-0.0017240389715880156,0.0041935034096241,-0.0001276976545341313,-0.48610812425613403,0.7403552532196045,0.4086936116218567,0.6795729398727417,0.04492322355508804,-5.1877851486206055,0.4236901104450226,0.7199190258979797,0.42000001668930054,-0.6816203594207764,3.0000007152557373,-0.7397390604019165,-3.0000007152557373,-0.13733705878257751,-0.1469210684299469,-0.1558925360441208,-0.16419753432273865,-1.0149966478347778,-1.0114048719406128,-1.0086588859558105,-1.0064465999603271
0.3333333333333333,0.019843263551592827,0.2234489768743515,0.0,0.9410250186920166,0.0,0.0,-0.3383370041847229,-0.7037248611450195,-0.11961346119642258,0.0,0.0,0.0,3.9684276580810547,-0.4770037829875946,0.7468647956848145,0.42000094056129456,0.9998272061347961,4.886595706921071e-05,6.555209984071553e-05,-0.01858486421406269,-0.0022237622179090977,0.004829325247555971,-0.0028863840270787477,-0.04320129007101059,0.008327354677021503,0.015494062565267086,-0.48948800563812256,0.7470035552978516,0.4243428111076355,-0.31504741311073303,0.2934975028038025,-0.1997455358505249,0.4236901104450226,0.7199190258979797,0.42000001668930054,-0.6315900087356567,2.9999170303344727,-0.7902005314826965,-3.0000288486480713,-0.1328480988740921,-0.14483685791492462,-0.15579728782176971,-0.16554734110832214,0.1306089460849762,0.02765021100640297,-0.05857783555984497,-0.12190786004066467
0.35,0.014086050912737846,0.21896205842494965,0.0,0.9435734152793884,0.0,0.0,-0.3311634659767151,-0.3964845836162567,-0.27943891286849976,0.0,0.0,0.0,-0.03857026621699333,-0.4770112633705139,0.7468710541725159,0.41999998688697815,0.9998274445533752,4.4751323002856225e-06,-3.962866230722284e-06,-0.018576955422759056,0.00043495435966178775,0.0003171555290464312,-0.00010672025382518768,-0.0009776020888239145,0.008434339426457882,-0.00020178464183118194,-0.49197059869766235,0.7511308193206787,0.4228334426879883,-0.030362993478775024,0.07731932401657104,0.029945872724056244,0.4236901104450226,0.7199190258979797,0.42000001668930054,-0.581580638885498,2.998772621154785,-0.8402191996574402,-2.9997313022613525,-0.13054275512695312,-0.1436091661453247,-0.15538181364536285,-0.16559503972530365,-0.21062833070755005,-0.17944224178791046,-0.13706406950950623,-0.08110392838716507
0.36666666666666664,0.003995806444436312,0.21337230503559113,0.0,0.9459306597709656,0.0,0.0,-0.324368953704834,-0.6890016198158264,-0.3614251911640167,0.0,0.0,0.0,1.3028414249420166,-0.47457659244537354,0.7511029243469238,0.4210752844810486,0.9977606534957886,-0.027205169200897217,0.001252578804269433,-0.061090245842933655,0.3559602200984955,0.5370151996612549,0.06057668849825859,-3.078310489654541,0.17905652523040771,-9.964147567749023,-0.48944276571273804,0.7571008205413818,0.42317384481430054,0.28713303804397583,0.5953683853149414,0.030809830874204636,0.4236901104450226,0.7199190258979797,0.42000001668930054,-0.5315732955932617,2.9999778270721436,-0.8902425169944763,-3.000000238418579,-0.1387695074081421,-0.1499948501586914,-0.15975725650787354,-0.16778360307216644,-0.5877998471260071,-0.4396286606788635,-0.2810768783092499,-0.11265085637569427
0.3833333333333333,-0.006480224896222353,0.20547516644001007,0.0,0.9418697357177734,0.0,0.0,-0.33597829937934875,-0.6331924200057983,-0.5138223767280579,0.0,0.0,0.0,-2.3980236053466797,-0.46839195489883423,0.7603161931037903,0.4213995933532715,0.9890559911727905,-0.036224737763404846,0.005039552226662636,-0.1429356187582016,0.4800134003162384,0.6903614401817322,0.07696166634559631,-4.045230388641357,0.8305382132530212,-5.21123743057251,-0.4809452295303345,0.7669472694396973,0.4241980314254761,0.6964851021766663,0.610686182975769,0.07577409595251083,0.4236901104450226,0.7199190258979797,0.42000001668930054,-0.4815410077571869,2.9999656677246094,-0.9402576088905334,-2.9999263286590576,-0.14901858568191528,-0.15716630220413208,-0.16364064812660217,-0.1681956797838211,-0.6269118189811707,-0.41269955039024353,-0.18551136553287506,0.05201737582683563
0.4,-0.014719069004058838,0.1947704255580902,0.0,0.9279832243919373,0.0,0.0,-0.372622013092041,-0.39581385254859924,-0.7041984796524048,0.0,0.0,0.0,-5.414073467254639,-0.45577719807624817,0.7765178084373474,0.42307811975479126,0.9790981411933899,-0.08218904584646225,0.01496855542063713,-0.18543939292430878,1.1302196979522705,1.1236181259155273,0.14101023972034454,-7.569614887237549,2.482853651046753,-10.833685874938965,-0.4659830331802368,0.7815627455711365,0.4256215989589691,1.111643671989441,1.1914033889770508,0.09735529124736786,0.4236901104450226,0.7199190258979797,0.42000001668930054,-0.4314950108528137,2.990633964538574,-0.9902708530426025,-2.9992761611938477,-0.15929783880710602,-0.16379471123218536,-0.16637581586837769,-0.16685232520103455,-0.5612412691116333,-0.34622856974601746,-0.11659973114728928,0.1237967312335968
0.4166666666666667,-0.02520604059100151,0.18207694590091705,0.0,0.901146650314331,0.0,0.0,-0.43351438641548157,-0.7082825303077698,-0.7903805375099182,0.0,0.0,0.0,-8.892278671264648,-0.4242841601371765,0.8032581210136414,0.4250655770301819,0.9718664288520813,-0.04908733442425728,-0.02222554385662079,-0.22928616404533386,2.8675966262817383,1.9009259939193726,0.21320943534374237,33.720428466796875,-13.273341178894043,10.148704528808594,-0.4341999292373657,0.8094335198402405,0.42671072483062744,2.6609089374542236,2.196362018585205,0.24277016520500183,0.4236901104450226,0.7199190258979797,0.42000001668930054,-0.3923313617706299,1.3606528043746948,-0.9580962061882019,2.9940402507781982,-0.17234820127487183,-0.17239554226398468,-0.17035090923309326,-0.1661224365234375,-0.8417991995811462,-0.5550409555435181,-0.2611027956008911,0.03321491926908493
0.43333333333333335,-0.03231166675686836,0.16654063761234283,0.0,0.8578763604164124,0.0,0.0,-0.5138561129570007,-0.3806142508983612,-0.9779739379882812,0.0,0.0,0.0,-11.627753257751465,-0.35729458928108215,0.8471247553825378,0.42766207456588745,0.9526007771492004,-0.006254344247281551,-0.04218701273202896,-0.30121901631355286,5.3250298500061035,2.7496118545532227,0.3362899124622345,5.895996570587158,-1.5605024099349976,23.40587615966797,-0.3666221499443054,0.8549209833145142,0.42847126722335815,5.168939113616943,3.190676689147949,0.14424574375152588,0.4236901104450226,0.7199190258979797,0.42000001668930054,-0.3696075677871704,0.9955425262451172,-0.9080626964569092,3.0000009536743164,-0.18703825771808624,-0.1820840835571289,-0.1748516857624054,-0.16566644608974457,-0.9082357883453369,-0.6198784112930298,-0.31495797634124756,-0.03403829038143158
0.45,-0.03675169125199318,0.15526391565799713,0.0,0.7950119376182556,0.0,0.0,-0.6065937876701355,-0.19948628544807434,-0.7004119753837585,0.0,0.0,0.0,-14.143773078918457,-0.26179009675979614,0.8906567692756653,0.44709596037864685,0.9284597039222717,0.07949336618185043,-0.0589153878390789,-0.3580114543437958,6.5722198486328125,1.9665089845657349,1.2342839241027832,-1.2823646068572998,-8.528998374938965,39.38311767578125,-0.2710641622543335,0.9000183939933777,0.4484638571739197,6.647346019744873,2.7197861671447754,1.468793511390686,0.4236901104450226,0.7199190258979797,0.42000001668930054,-0.35330331325531006,0.9751802086830139,-0.8581339716911316,2.998328447341919,-0.20155079662799835,-0.19667555391788483,-0.1857256144285202,-0.17027518153190613,-0.5207977294921875,-0.6052358150482178,-0.6188252568244934,-0.2894085943698883
0.4666666666666667,-0.042891960591077805,0.147451713681221,0.0,0.738132119178772,0.0,0.0,-0.6746562123298645,-0.37957313656806946,-0.42035794258117676,0.0,0.0,0.0,-9.36552619934082,-0.15004999935626984,0.923140823841095,0.4688660502433777,0.8713131546974182,0.12879210710525513,-0.05362165719270706,-0.47047922015190125,6.751681327819824,0.4784480631351471,1.4385966062545776,-6.152191638946533,9.34781265258789,15.989882469177246,-0.16067606210708618,0.9341568350791931,0.4705525040626526,6.907696723937988,1.622497797012329,1.2693215608596802,0.4236901104450226,0.7199190258979797,0.42000001668930054,-0.3372209072113037,0.8157153129577637,-0.8841738700866699,-2.9986183643341064,-0.21651434898376465,-0.2102619707584381,-0.19734340906143188,-0.175617054104805,-0.8770451545715332,-0.7574470639228821,-0.6232486963272095,-0.29076647758483887
0.48333333333333334,-0.04602371156215668,0.13470345735549927,0.0,0.7018009424209595,0.0,0.0,-0.7123730778694153,-0.18569397926330566,-0.7798525094985962,0.0,0.0,0.0,-5.03147029876709,-0.038934752345085144,0.9352511167526245,0.48960116505622864,0.8220681548118591,0.13975150883197784,-0.04140688106417656,-0.5504170656204224,6.968784809112549,-0.36381810903549194,1.3887211084365845,-3.206312894821167,-5.009688854217529,5.624788284301758,-0.049263108521699905,0.9507671594619751,0.49145612120628357,6.443748474121094,0.13032439351081848,1.26267409324646,0.4236901104450226,0.7199190258979797,0.42000001668930054,-0.32570916414260864,0.4625197649002075,-0.9341979026794434,-3.0000009536743164,-0.22937506437301636,-0.21987567842006683,-0.20378077030181885,-0.17655698955059052,-0.8830378651618958,-0.6093587875366211,-0.3558708429336548,-0.015144404023885727
0.5,-0.050901468843221664,0.12748925387859344,0.0,0.6901739835739136,0.0,0.0,-0.7236434817314148,-0.28594809770584106,-0.3616008162498474,0.0,0.0,0.0,-0.7289167642593384,0.06089330464601517,0.9278881549835205,0.5067747831344604,0.7479082345962524,0.14054100215435028,-0.022493712604045868,-0.6483635902404785,5.906149387359619,-1.5829848051071167,1.0681679248809814,-2.1188483238220215,-12.541158676147461,4.563663482666016,0.05269461125135422,0.9453049898147583,0.5100343227386475,5.496803283691406,-0.7688998579978943,0.8838980197906494,0.4236901104450226,0.7199190258979797,0.42000001668930054,-0.3224544823169708,-0.06586714833974838,-0.9842219352722168,-3.00000262260437,-0.2400161474943161,-0.233703151345253,-0.21254166960716248,-0.1796693652868271,-0.0408049039542675,-0.7384560108184814,-0.48169904947280884,-0.21891286969184875
0.5166666666666666,-0.05310215801000595,0.11662978678941727,0.0,0.6702488660812378,0.0,0.0,-0.7421364188194275,-0.10452397167682648,-0.6828023791313171,0.0,0.0,0.0,-4.113275527954102,0.14811310172080994,0.9091149568557739,0.5162368416786194,0.6853306293487549,0.1505211442708969,-0.037816617637872696,-0.7115020155906677,4.842679977416992,-1.7668319940567017,0.5296217203140259,8.733691215515137,17.225004196166992,-6.3237786293029785,0.14106157422065735,0.9261521100997925,0.5206995010375977,5.030547618865967,-1.6980719566345215,0.4202130436897278,0.4236901104450226,0.7199190258979797,0.42000001668930054,-0.3261497914791107,-0.3140207827091217,-1.0342447757720947,-2.9973301887512207,-0.23772689700126648,-0.2400105595588684,-0.2162598818540573,-0.18034261465072632,0.05209934711456299,-0.004367150831967592,-0.16175435483455658,-0.02018793299794197
0.5333333333333333,-0.052384596318006516,0.1109483540058136,0.0,0.6634163856506348,0.0,0.0,-0.748250424861908,0.08222168684005737,-0.2581593990325928,0.0,0.0,0.0,-0.10812385380268097,0.22352716326713562,0.8765414953231812,0.5197610855102539,0.6110606789588928,0.1282409429550171,-0.020012186840176582,-0.7808704376220703,4.092183589935303,-2.527240514755249,0.15815645456314087,0.5554975271224976,8.177700996398926,0.02263082005083561,0.21798467636108398,0.8933280110359192,0.5244247913360596,4.305523872375488,-2.1755521297454834,-0.002797842025756836,0.4236901104450226,0.7199190258979797,0.42000001668930054,-0.3311038017272949,-0.18905110657215118,-1.0842669010162354,-2.9999992847442627,-0.23991569876670837,-0.2398412823677063,-0.2197205275297165,-0.18213428556919098,0.03032238408923149,0.0571126826107502,-0.06418401002883911,-0.05383046716451645
0.55,-0.04911421984434128,0.10920647531747818,0.0,0.6482163667678833,0.0,0.0,-0.7614561915397644,0.2453421801328659,-0.0358213447034359,0.0,0.0,0.0,-3.3100857734680176,0.2853121757507324,0.8420742750167847,0.5143225789070129,0.5614368915557861,0.10015161335468292,-0.00969568733125925,-0.8213794827461243,3.181137800216675,-2.1470870971679688,-0.39586251974105835,2.0908725261688232,7.411952972412109,-4.4328107833862305,0.28113242983818054,0.8581784963607788,0.519717276096344,3.307966470718384,-2.1452085971832275,-0.5082432627677917,0.4236901104450226,0.7199190258979797,0.42000001668930054,-0.32656392455101013,0.6821011304855347,-1.134289026260376,-3.0000009536743164,-0.2371899038553238,-0.23704609274864197,-0.21954616904258728,-0.18330161273479462,0.2796919643878937,0.27674952149391174,0.09802708774805069,-0.05560583248734474
0.5666666666666667,-0.04262148588895798,0.10233033448457718,0.0,0.6457804441452026,0.0,0.0,-0.7635231614112854,0.44085386395454407,-0.5317825675010681,0.0,0.0,0.0,0.5549051761627197,0.33180251717567444,0.8093177080154419,0.5037641525268555,0.5209434032440186,0.060738641768693924,0.014280587434768677,-0.85130774974823,2.2541773319244385,-2.473498821258545,-0.7235000133514404,3.2273192405700684,-0.5917307138442993,6.1681904792785645,0.3294808864593506,0.8244088888168335,0.5091320276260376,2.39553165435791,-1.934561848640442,-0.7262689471244812,0.4236901104450226,0.7199190258979797,0.42000001668930054,-0.30966630578041077,1.0400049686431885,-1.1843111515045166,-3.000000238418579,-0.22672416269779205,-0.22714416682720184,-0.2132711559534073,-0.18096135556697845,0.7593200206756592,0.7219129204750061,0.49397245049476624,0.2081504911184311
0.5833333333333334,-0.03440706059336662,0.09852797538042068,0.0,0.6329450607299805,0.0,0.0,-0.7741967439651489,0.5253873467445374,-0.12367123365402222,0.0,0.0,0.0,-2.9295668601989746,0.36536112427711487,0.7810892462730408,0.48627960681915283,0.5017008781433105,0.03280911222100258,0.017771825194358826,-0.864236056804657,1.5104564428329468,-2.2158873081207275,-0.9304066896438599,1.4402660131454468,6.4509501457214355,14.608256340026855,0.3634811043739319,0.7955876588821411,0.4918517470359802,1.6485788822174072,-1.55604887008667,-1.2399663925170898,0.4236901104450226,0.7199190258979797,0.42000001668930054,-0.2990994453430176,0.1620909869670868,-1.195617437362671,1.2812633514404297,-0.2149357795715332,-0.21617785096168518,-0.20623508095741272,-0.17928071320056915,0.6913859844207764,0.6420087814331055,0.4081007242202759,0.06300260126590729
0.6,-0.024086104705929756,0.09430604428052902,0.0,0.6327335834503174,0.0,0.0,-0.7743695378303528,0.6394873857498169,-0.24328772723674774,0.0,0.0,0.0,0.8846383690834045,0.38825786113739014,0.756327211856842,0.4639832079410553,0.484366774559021,-0.013047442771494389,0.03526227921247482,-0.8740566968917847,0.8832269906997681,-1.8286315202713013,-1.32087242603302,5.672502517700195,10.99423599243164,1.9120692014694214,0.3866732120513916,0.7702699899673462,0.46958643198013306,1.053853988647461,-1.4391372203826904,-1.4321568012237549,0.4236901104450226,0.7199190258979797,0.42000001668930054,-0.2990879416465759,0.012482662685215473,-1.2308036088943481,-2.9991323947906494,-0.2015313059091568,-0.20375008881092072,-0.19774799048900604,-0.17689330875873566,0.679501473903656,0.6544535160064697,0.4547157287597656,0.10580708831548691
0.6166666666666667,-0.014453696087002754,0.09282289445400238,0.0,0.6218302845954895,0.0,0.0,-0.7831520438194275,0.5500357747077942,-0.035771723836660385,0.0,0.0,0.0,-2.5976903438568115,0.4031602442264557,0.7351625561714172,0.43497034907341003,0.48689380288124084,-0.03829698637127876,0.02322177216410637,-0.872312068939209,0.6362940669059753,-1.3861452341079712,-1.7519416809082031,-1.4268606901168823,1.3561804294586182,2.5753517150878906,0.4014222025871277,0.7486857175827026,0.4403877258300781,0.6793652772903442,-1.1414909362792969,-1.9122754335403442,0.4236901104450226,0.7199190258979797,0.42000001668930054,-0.2944047152996063,0.5779585838317871,-1.1928409337997437,2.999849796295166,-0.19031022489070892,-0.1936214119195938,-0.19130939245224,-0.17663106322288513,0.6510713696479797,0.5724536180496216,0.3503994047641754,-0.024256950244307518
0.6333333333333333,-0.004018060397356749,0.08964073657989502,0.0,0.6236924529075623,0.0,0.0,-0.7816698551177979,0.6612333059310913,-0.23725257813930511,0.0,0.0,0.0,1.1988162994384766,0.4097077250480652,0.7239990234375,0.4262193739414215,0.4951739013195038,-0.07053482532501221,0.02011532336473465,-0.865692138671875,0.2710471749305725,-0.3545745611190796,0.6170200109481812,30.82184600830078,-4.520071983337402,2.181086778640747,0.40850526094436646,0.7374106645584106,0.4325968623161316,0.20680998265743256,-0.035754263401031494,-0.04460880160331726,0.4236901104450226,0.7199190258979797,0.42000001668930054,-0.28179070353507996,0.7906374931335449,-1.213310718536377,-2.9925472736358643,-0.1788131147623062,-0.18360508978366852,-0.18502826988697052,-0.1765110194683075,0.4211415946483612,0.39428478479385376,0.22160843014717102,-0.09841655939817429
0.65,0.0038841061759740114,0.08823440968990326,0.0,0.6141707897186279,0.0,0.0,-0.7891731262207031,0.40719664096832275,-0.03234733268618584,0.0,0.0,0.0,-2.384394645690918,0.4150427281856537,0.7250412106513977,0.4231647253036499,0.5315516591072083,-0.05620039254426956,0.016355574131011963,-0.8450009822845459,0.22060485184192657,-0.11780193448066711,-0.0063901920802891254,2.32281494140625,0.32950034737586975,1.001703143119812,0.4119856357574463,0.7374206781387329,0.4302225112915039,0.17177703976631165,0.05485444888472557,-0.1460258960723877,0.4236901104450226,0.7199190258979797,0.42000001668930054,-0.2969198226928711,-1.9977065324783325,-1.175313949584961,2.999908208847046,-0.17162911593914032,-0.17714083194732666,-0.1813090592622757,-0.1778271347284317,0.4627377986907959,0.41052091121673584,0.2562367022037506,-0.027694368734955788
0.6666666666666666,0.012092257849872112,0.09000504016876221,0.0,0.617401123046875,0.0,0.0,-0.7866485118865967,0.5187409520149231,0.20312891900539398,0.0,0.0,0.0,1.3834730386734009,0.4170273244380951,0.7248556017875671,0.42186179757118225,0.5417707562446594,-0.03231312334537506,0.009394715540111065,-0.8398522734642029,0.03438177704811096,0.08570534735918045,-0.08624149858951569,-1.0891703367233276,-3.8479926586151123,1.6143592596054077,0.41290605068206787,0.7393796443939209,0.4313482940196991,-0.013769365847110748,0.17796668410301208,0.16192626953125,0.4236901104450226,0.7199190258979797,0.42000001668930054,-0.34395623207092285,-2.9999959468841553,-1.196700096130371,-2.9986212253570557,-0.1640600711107254,-0.1705506443977356,-0.17704416811466217,-0.17785333096981049,0.4444142282009125,0.3841360807418823,0.25960883498191833,0.0262710340321064
0.6833333333333333,0.02204608917236328,0.08915045857429504,0.0,0.6335690021514893,0.0,0.0,-0.7736861705780029,0.6182140707969666,-0.08737511932849884,0.0,0.0,0.0,2.9922289848327637,0.4169115126132965,0.7260385155677795,0.4200080633163452,0.5472545027732849,0.00017908141307998449,6.37207631370984e-05,-0.8369661569595337,-0.05268249660730362,0.055996209383010864,-0.006357037462294102,-0.27842894196510315,0.14562684297561646,-1.0410473346710205,0.4127069115638733,0.7440701127052307,0.43431615829467773,-0.025848982855677605,0.30221399664878845,0.19746926426887512,0.4236901104450226,0.7199190258979797,0.42000001668930054,-0.39395269751548767,-2.9998650550842285,-1.2466641664505005,-2.9987547397613525,-0.15471495687961578,-0.16235867142677307,-0.17083027958869934,-0.17526397109031677,0.5003026127815247,0.4543476998806,0.3691041171550751,0.19112786650657654
0.7,0.033667564392089844,0.08564715087413788,0.0,0.634292721748352,0.0,0.0,-0.7730929851531982,0.7304382920265198,-0.2600485384464264,0.0,0.0,0.0,-0.8983283042907715,0.4166877269744873,0.7262858152389526,0.4200000762939453,0.5459059476852417,2.152655952158966e-06,-1.565536149428226e-05,-0.8378463983535767,0.0009226929396390915,-0.0008521965355612338,-0.0005521110724657774,0.013791989535093307,0.016784440726041794,0.003894886001944542,0.41313889622688293,0.7482801675796509,0.4382491707801819,0.02840965986251831,0.20128145813941956,0.2791110873222351,0.4236901104450226,0.7199190258979797,0.42000001668930054,-0.44395092129707336,-2.9996418952941895,-1.2966301441192627,-2.9997291564941406,-0.14848344027996063,-0.15622393786907196,-0.16519996523857117,-0.17148077487945557,0.3264103829860687,0.34844040870666504,0.3572971224784851,0.29563888907432556
0.7166666666666667,0.04705735296010971,0.07884715497493744,0.0,0.6125193238258362,0.0,0.0,-0.7904556393623352,0.8393833637237549,-0.4720902144908905,0.0,0.0,0.0,-4.251957893371582,0.4166881740093231,0.726284921169281,0.4200000464916229,0.5459074974060059,2.043887263880606e-07,-2.6930588319373783e-06,-0.8378454446792603,3.371915954630822e-05,-0.0002556615509092808,-7.521803490817547e-05,0.006728540640324354,-0.0021831151098012924,-0.0007067248807288706,0.41685378551483154,0.7500489950180054,0.44645819067955017,0.44900208711624146,-0.005246815271675587,0.8415160179138184,0.4236901104450226,0.7199190258979797,0.42000001668930054,-0.4939633905887604,-2.9999587535858154,-1.3466485738754272,-2.999997615814209,-0.14638906717300415,-0.1530444175004959,-0.16097308695316315,-0.1672004759311676,-0.0013832964468747377,0.09843477606773376,0.20426471531391144,0.2595573663711548
0.7333333333333333,0.06386014074087143,0.07679875940084457,0.0,0.6029485464096069,0.0,0.0,-0.7977800965309143,0.9958495497703552,-0.14513681828975677,0.0,0.0,0.0,-0.3276137709617615,0.41668814420700073,0.726284921169281,0.4200000464916229,0.5459074974060059,3.299225568298425e-07,-2.4161749934137333e-06,-0.8378453850746155,4.1034421883523464e-05,-0.00025056570302695036,-7.671583443880081e-05,0.0065461122430861,-0.0020815078169107437,-0.0007127960561774671,0.42548155784606934,0.7525488138198853,0.4693567156791687,0.7264621257781982,0.38507896661758423,1.8310816287994385,0.4236901104450226,0.7199190258979797,0.42000001668930054,-0.5439721941947937,-2.99979305267334,-1.3966668844223022,-2.999990701675415,-0.15144170820713043,-0.15600955486297607,-0.16168123483657837,-0.16639159619808197,-0.12670285999774933,-0.07336998730897903,0.0015347786247730255,0.047803834080696106
0.75,0.07691629230976105,0.07611841708421707,0.0,0.6187514066696167,0.0,0.0,-0.7855868339538574,0.7045817971229553,0.0030197936575859785,0.0,0.0,0.0,3.257495164871216,0.41668814420700073,0.726284921169281,0.4200000464916229,0.5459073185920715,3.471804745913687e-07,-2.786099685181398e-06,-0.8378454446792603,4.438064934220165e-05,-0.0002489130711182952,-7.729348726570606e-05,0.006485740188509226,-0.00203198310919106,-0.000715810339897871,0.44138193130493164,0.7576491832733154,0.49509841203689575,1.0754332542419434,0.24937404692173004,1.331318736076355,0.4236901104450226,0.7199190258979797,0.42000001668930054,-0.5755133032798767,-0.9399858713150024,-1.4466851949691772,-2.999999761581421,-0.15259267389774323,-0.15620224177837372,-0.1604587435722351,-0.16408026218414307,-0.027446096763014793,0.03824317455291748,0.13384509086608887,0.21577399969100952
0.7666666666666666,0.08513975888490677,0.07129077613353729,0.0,0.6216916441917419,0.0,0.0,-0.7832620739936829,0.45526471734046936,-0.31094786524772644,0.0,0.0,0.0,-0.5602604150772095,0.41668814420700073,0.726284921169281,0.4200000464916229,0.5459076166152954,4.149574408529588e-07,-2.6874540708377026e-06,-0.8378453850746155,4.1299685108242556e-05,-0.0002503118885215372,-7.674028165638447e-05,0.006538373418152332,-0.002076380653306842,-0.0007127148564904928,0.45660310983657837,0.7597953081130981,0.511219322681427,0.7008250951766968,-0.08091211318969727,0.7418255805969238,0.4236901104450226,0.7199190258979797,0.42000001668930054,-0.6130589842796326,-2.9999964237213135,-1.4967035055160522,-3.000000238418579,-0.15057723224163055,-0.15329457819461823,-0.15621483325958252,-0.15870921313762665,-0.018643781542778015,0.07114272564649582,0.18122577667236328,0.2754560708999634
0.7833333333333333,0.09518314898014069,0.07199160754680634,0.0,0.6334148049354553,0.0,0.0,-0.7738124132156372,0.5974583029747009,0.035493411123752594,0.0,0.0,0.0,2.916895627975464,0.41668814420700073,0.726284921169281,0.4200000464916229,0.5459076166152954,2.1616261847157148e-07,-2.601376991151483e-06,-0.8378453254699707,3.8774505810579285e-05,-0.0002502615097910166,-7.621827535331249e-05,0.00655094999819994,-0.0021051899529993534,-0.0007069297134876251,0.46740099787712097,0.7580903768539429,0.5238168835639954,0.7032968997955322,-0.02021455019712448,0.7814053297042847,0.4236901104450226,0.7199190258979797,0.42000001668930054,-0.6356000304222107,0.05016691982746124,-1.5467218160629272,-2.999992609024048,-0.15509946644306183,-0.15567642450332642,-0.156174898147583,-0.15651293098926544,-0.10946325957775116,-0.025606313720345497,0.0789584219455719,0.17598430812358856
0.8,0.10150633007287979,0.06815426051616669,0.0,0.6339974403381348,0.0,0.0,-0.7733351588249207,0.29278552532196045,-0.23870064318180084,0.0,0.0,0.0,-0.8959065079689026,0.41668814420700073,0.726284921169281,0.4200000464916229,0.5459076762199402,3.9115778349696484e-07,-2.7611424684437225e-06,-0.8378452658653259,4.196065492578782e-05,-0.00025048560928553343,-7.688906043767929e-05,0.006539199501276016,-0.0020698553416877985,-0.0007146128336898983,0.4771902561187744,0.7568767070770264,0.5325448513031006,0.41025686264038086,-0.22483967244625092,0.41733840107917786,0.4236901104450226,0.7199190258979797,0.42000001668930054,-0.6608787775039673,-2.81400203704834,-1.5078673362731934,3.0,-0.15499329566955566,-0.15442931652069092,-0.15347255766391754,-0.15243908762931824,-0.10768494755029678,-0.014725268818438053,0.09236860275268555,0.1928638070821762
0.8166666666666667,0.10880374163389206,0.06884138286113739,0.0,0.6450803279876709,0.0,0.0,-0.7641147971153259,0.46104171872138977,0.04415876790881157,0.0,0.0,0.0,2.523327350616455,0.41668814420700073,0.726284921169281,0.4200000464916229,0.5459070801734924,2.6739840564005135e-07,-2.926400384239969e-06,-0.8378456234931946,4.0337545215152204e-05,-0.00024872165522538126,-7.646880112588406e-05,0.006502780131995678,-0.0020779757760465145,-0.0007061859942041337,0.484130322933197,0.7534908056259155,0.5420341491699219,0.5036258697509766,-0.09450889378786087,0.7258913516998291,0.4236901104450226,0.7199190258979797,0.42000001668930054,-0.6763411164283752,0.669909656047821,-1.5238559246063232,-2.9999990463256836,-0.15895117819309235,-0.15662649273872375,-0.15366493165493011,-0.150676891207695,-0.09026819467544556,-0.024839475750923157,0.05963466316461563,0.14939555525779724
0.8333333333333334,0.11307283490896225,0.06519397348165512,0.0,0.6446201205253601,0.0,0.0,-0.7645030617713928,0.1715066283941269,-0.24500179290771484,0.0,0.0,0.0,-1.1775493621826172,0.4166881740093231,0.726284921169281,0.4200000464916229,0.5459073185920715,2.624899195780017e-07,-3.0090905056567863e-06,-0.837845504283905,4.1363506170455366e-05,-0.00024892931105569005,-7.6682073995471e-05,0.006502237170934677,-0.0020674378611147404,-0.0007091844454407692,0.49140334129333496,0.7522600293159485,0.5520046353340149,0.31420591473579407,-0.1384618580341339,0.5959791541099548,0.4236901104450226,0.7199190258979797,0.42000001668930054,-0.6867383122444153,-1.7027512788772583,-1.485069751739502,2.999999523162842,-0.15835487842559814,-0.15534906089305878,-0.15141652524471283,-0.14733672142028809,-0.05216260999441147,0.002174565102905035,0.06955491751432419,0.14226457476615906
0.85,0.11838926374912262,0.06593135744333267,0.0,0.6542028784751892,0.0,0.0,-0.7563191056251526,0.3488121032714844,0.04623799026012421,0.0,0.0,0.0,2.208563804626465,0.41668814420700073,0.7262848615646362,0.4200000464916229,0.5459074378013611,2.2622303674779687e-07,-2.912238869612338e-06,-0.8378453850746155,4.438640098669566e-05,-0.0002479401882737875,-7.729930803179741e-05,0.006459719035774469,-0.002027937676757574,-0.0007139240624383092,0.49617382884025574,0.7500344514846802,0.5637455582618713,0.3639832139015198,-0.024787219241261482,0.8203635215759277,0.4236901104450226,0.7199190258979797,0.42000001668930054,-0.6843728423118591,1.6910102367401123,-1.5015195608139038,-2.999999761581421,-0.1613600254058838,-0.15721219778060913,-0.15194252133369446,-0.14642561972141266,-0.021861661225557327,0.004582691937685013,0.04644143208861351,0.10066479444503784
0.8666666666666667,0.1209867000579834,0.062317609786987305,0.0,0.6529852151870728,0.0,0.0,-0.75737065076828,0.09558001905679703,-0.25434088706970215,0.0,0.0,0.0,-1.2910730838775635,0.4166881740093231,0.726284921169281,0.4200000464916229,0.5459074378013611,2.5406140480299655e-07,-2.9549435112130595e-06,-0.8378453850746155,4.132295725867152e-05,-0.00024857805692590773,-7.66669400036335e-05,0.006492954678833485,-0.002066225279122591,-0.000708606094121933,0.5004124045372009,0.7509031295776367,0.5761029720306396,0.09601247310638428,0.05202663689851761,0.7721712589263916,0.4236901104450226,0.7199190258979797,0.42000001668930054,-0.6794998645782471,-0.8868902921676636,-1.462796688079834,3.0000007152557373,-0.15952074527740479,-0.15542493760585785,-0.14998851716518402,-0.14409418404102325,0.027794094756245613,0.0334632582962513,0.04753842204809189,0.07102545350790024
0.8833333333333333,0.12063397467136383,0.06248932331800461,0.0,0.6613267660140991,0.0,0.0,-0.750097930431366,-0.06996743381023407,0.027788380160927773,0.0,0.0,0.0,2.086658477783203,0.4166881740093231,0.726284921169281,0.4200000464916229,0.5459075570106506,1.7545781361150148e-07,-2.2842118596599903e-06,-0.8378454446792603,3.9231272239703685e-05,-0.00025043997447937727,-7.632304914295673e-05,0.0065528033301234245,-0.002101115183904767,-0.0007085805991664529,0.5015976428985596,0.7498581409454346,0.5893244743347168,0.14133429527282715,-0.049130089581012726,0.8434659242630005,0.4236901104450226,0.7199190258979797,0.42000001668930054,-0.6660019755363464,2.2254090309143066,-1.4796949625015259,-3.0,-0.16117414832115173,-0.15655739605426788,-0.1505085974931717,-0.14388005435466766,0.018081963062286377,0.023977171629667282,0.036940544843673706,0.060083791613578796
0.9,0.11812169849872589,0.05970809608697891,0.0,0.6573439836502075,0.0,0.0,-0.7535906434059143,-0.20879638195037842,-0.1920677274465561,0.0,0.0,0.0,-1.50943124294281,0.4166881740093231,0.726284921169281,0.4200000464916229,0.5459074974060059,1.6000427649487392e-07,-2.3412364953401266e-06,-0.8378454446792603,3.999396722065285e-05,-0.00025032542180269957,-7.651140913367271e-05,0.006545759737491608,-0.002092372626066208,-0.0007097414927557111,0.49959519505500793,0.7514170408248901,0.6008285284042358,-0.4083240032196045,0.16590064764022827,0.6775782704353333,0.4236901104450226,0.7199190258979797,0.42000001668930054,-0.6422547698020935,0.7333245873451233,-1.4410343170166016,3.0,-0.1600460410118103,-0.15567077696323395,-0.14978492259979248,-0.1431695520877838,0.022107556462287903,0.010519799776375294,-1.5599653124809265e-08,-0.005678500048816204
0.9166666666666666,0.11744333058595657,0.06069086119532585,0.0,0.6638398766517639,0.0,0.0,-0.7478747367858887,0.014292068779468536,0.09072674065828323,0.0,0.0,0.0,1.7126199007034302,0.41668814420700073,0.726284921169281,0.4200000464916229,0.5459071397781372,2.3376658475626755e-07,-3.0151772989484016e-06,-0.8378456234931946,4.3536834709811956e-05,-0.0002488414174877107,-7.719849236309528e-05,0.0064879716373980045,-0.0020435366313904524,-0.000713776855263859,0.49328699707984924,0.7538577318191528,0.6141494512557983,-0.2731621563434601,0.20528626441955566,0.9512574672698975,0.4236901104450226,0.7199190258979797,0.42000001668930054,-0.6078565716743469,3.0,-1.4571729898452759,-3.000000238418579,-0.1609693169593811,-0.15674765408039093,-0.15096688270568848,-0.144339919090271,0.0422653965651989,0.004649858456104994,-0.02627408690750599,-0.04570315033197403
