vladlanda/robotic-transformer/data/env_000_episode_0081.csv
sim_time_s,robot_box_x,robot_box_y,robot_box_z,robot_box_quat_w,robot_box_quat_x,robot_box_quat_y,robot_box_quat_z,robot_box_linvel_x,robot_box_linvel_y,robot_box_linvel_z,robot_box_angvel_x,robot_box_angvel_y,robot_box_angvel_z,cube_world_x,cube_world_y,cube_world_z,cube_quat_w,cube_quat_x,cube_quat_y,cube_quat_z,cube_linvel_x,cube_linvel_y,cube_linvel_z,cube_angvel_x,cube_angvel_y,cube_angvel_z,endpoint_world_x,endpoint_world_y,endpoint_world_z,endpoint_linvel_x,endpoint_linvel_y,endpoint_linvel_z,target_cube_world_x,target_cube_world_y,target_cube_world_z,gripper_actual_pos_rad_gp_leftgearjoint,gripper_actual_vel_rad_s_gp_leftgearjoint,gripper_actual_pos_rad_gp_rotatingjoint,gripper_actual_vel_rad_s_gp_rotatingjoint,motor_angle_rad_joint1,motor_angle_rad_joint2,motor_angle_rad_joint3,motor_angle_rad_joint4,motor_speed_rad_s_joint1,motor_speed_rad_s_joint2,motor_speed_rad_s_joint3,motor_speed_rad_s_joint4
0.0,0.0,0.0,0.0,1.0,0.0,0.0,0.0,0.0,0.0,0.0,0.0,0.0,0.0,-0.41988977789878845,0.7344284057617188,0.41999998688697815,1.0,0.0,0.0,0.0,0.0,0.0,0.0,0.0,0.0,0.0,3.42540442943573e-06,-0.005000244826078415,1.313499927520752,0.0,0.0,0.0,0.38471394777297974,0.6369338035583496,0.42000001668930054,-1.5707999467849731,0.0,0.0,0.0,0.0,0.0,0.0,0.0,0.0,0.0,0.0,0.0
0.016666666666666666,0.0028778850100934505,0.0021806680597364902,0.0,0.9998081922531128,0.0,0.0,0.019586581736803055,0.24087215960025787,0.18240931630134583,0.0,0.0,0.0,3.1418697834014893,-0.419889897108078,0.7344281077384949,0.41999998688697815,1.0,3.2799914606584935e-06,-8.339814598912199e-07,8.465387679734704e-08,-1.9833554688375443e-05,0.00017983050202019513,-6.133061833679676e-05,0.0009432226070202887,-0.004689437802881002,-0.0003198152990080416,-0.007110234349966049,0.003379564033821225,1.3159373998641968,-0.8143353462219238,0.9868683815002441,0.18095196783542633,0.38471394777297974,0.6369338035583496,0.42000001668930054,-1.5301095247268677,3.0000011920928955,-0.04584788903594017,-2.9999992847442627,0.0008691533003002405,0.0007963840034790337,0.0007110277656465769,0.0006108740926720202,0.11094217747449875,0.09756709635257721,0.08334315568208694,0.06823883205652237
0.03333333333333333,0.008960990235209465,0.006801975425332785,0.0,0.9997960329055786,0.0,0.0,0.02019684389233589,0.40702196955680847,0.3153080940246582,0.0,0.0,0.0,-0.869131326675415,-0.41989001631736755,0.7344280481338501,0.4200000464916229,1.0,3.390914116607746e-06,-2.132455392711563e-06,-3.71076644967161e-08,0.0002635782293509692,0.00026937935035675764,-0.00010509486310184002,-0.001770757487975061,0.0041308156214654446,-0.00013547815615311265,-0.027552735060453415,0.02618362009525299,1.3165984153747559,-1.5914227962493896,1.6159318685531616,-0.08471421152353287,0.38471394777297974,0.6369338035583496,0.42000001668930054,-1.4800903797149658,3.0000030994415283,-0.09588772058486938,-3.000000238418579,0.002990114036947489,0.0026527256704866886,0.002277298364788294,0.0018607554957270622,0.1642165631055832,0.139760360121727,0.11381953209638596,0.08630187809467316
0.05,0.01728064939379692,0.01369540300220251,0.0,0.9996107220649719,0.0,0.0,0.02789888344705105,0.5553933382034302,0.45354509353637695,0.0,0.0,0.0,1.778588056564331,-0.41989004611968994,0.7344281077384949,0.4200000464916229,1.0,3.7652293940482195e-06,-2.2118967990536476e-06,5.613899567435965e-09,0.000265309150563553,0.0002669153909664601,-0.0001044049859046936,-0.00172426737844944,0.004177379421889782,-0.0001294983085244894,-0.059214331209659576,0.05470086634159088,1.3114588260650635,-2.1623921394348145,1.7908580303192139,-0.48877471685409546,0.38471394777297974,0.6369338035583496,0.42000001668930054,-1.4300720691680908,3.0000052452087402,-0.145926371216774,-2.999999761581421,0.005529678892344236,0.004746049176901579,0.003890366293489933,0.0029579857364296913,0.17876671254634857,0.14243224263191223,0.10423886775970459,0.06407897919416428
0.06666666666666667,0.028140084818005562,0.022763052955269814,0.0,0.9998170137405396,0.0,0.0,0.019128235056996346,0.7044652104377747,0.5800303220748901,0.0,0.0,0.0,-1.9626113176345825,-0.41989004611968994,0.7344280481338501,0.4200000464916229,0.9999999403953552,3.4068445984303253e-06,-2.2855729184811935e-06,4.300823945868615e-07,0.000267024093773216,0.0002679175231605768,-0.0001043803058564663,-0.0017406325787305832,0.004211729858070612,-0.00012850853090640157,-0.09424720704555511,0.09033172577619553,1.2999558448791504,-2.0882620811462402,2.3611674308776855,-0.8672633171081543,0.38471394777297974,0.6369338035583496,0.42000001668930054,-1.3800537586212158,2.9999985694885254,-0.19594398140907288,-3.000000238418579,0.007685717195272446,0.006105693057179451,0.0044143288396298885,0.0026075916830450296,0.11438868194818497,0.051922060549259186,-0.012568866834044456,-0.0791843831539154
0.08333333333333333,0.03322380781173706,0.035319045186042786,0.0,0.9997945427894592,0.0,0.0,-0.02026987262070179,0.3018438220024109,0.7609096765518188,0.0,0.0,0.0,-5.539061546325684,-0.41989004611968994,0.7344280481338501,0.4200000464916229,1.0,3.697329248097958e-06,-2.1889204617764335e-06,-2.632361599808064e-07,0.00026389621780253947,0.00026586378226056695,-0.00010433816350996494,-0.0017081365222111344,0.004150137305259705,-0.00012991174298804253,-0.1271672546863556,0.13347801566123962,1.2819545269012451,-1.875138521194458,2.7063469886779785,-1.126291036605835,0.38471394777297974,0.6369338035583496,0.42000001668930054,-1.3300302028656006,2.999765157699585,-0.16217947006225586,2.999967098236084,0.0038798018358647823,0.001566004939377308,-0.0009100707829929888,-0.003557004267349839,-0.1266702562570572,-0.20163904130458832,-0.27754154801368713,-0.3545706272125244
0.1,0.04120401665568352,0.04907617345452309,0.0,0.9991962313652039,0.0,0.0,-0.04008565470576286,0.49928396940231323,0.8577935099601746,0.0,0.0,0.0,-1.3349058628082275,-0.41989004611968994,0.7344280481338501,0.4200000464916229,0.9999999403953552,3.620433972173487e-06,-2.265166358483839e-06,1.7460881451825117e-07,0.00026676940615288913,0.00026740849716588855,-0.0001040794886648655,-0.0017386502586305141,0.0042092143557965755,-0.00012775196228176355,-0.16106171905994415,0.17512336373329163,1.264153003692627,-2.015049934387207,2.5831198692321777,-1.0831403732299805,0.38471394777297974,0.6369338035583496,0.42000001668930054,-1.2800370454788208,2.999998092651367,-0.19386403262615204,-3.000000238418579,0.004724517464637756,0.0005999912973493338,-0.0036657436285167933,-0.008081919513642788,0.0018379529938101768,-0.10827808827161789,-0.2169497311115265,-0.32418379187583923
0.11666666666666667,0.04707998409867287,0.061601169407367706,0.0,0.9974547028541565,0.0,0.0,-0.07130320370197296,0.33290180563926697,0.693463146686554,0.0,0.0,0.0,-4.478795051574707,-0.41989004611968994,0.7344280481338501,0.4200000464916229,1.0,3.7984186747053172e-06,-2.262772341055097e-06,-1.5020653165720432e-07,0.00026373984292149544,0.00026565982261672616,-0.00010428996756672859,-0.0017054551281034946,0.004147582221776247,-0.000129800770082511,-0.1918632984161377,0.22375623881816864,1.2454500198364258,-1.6650779247283936,3.2620816230773926,-1.1778013706207275,0.38471394777297974,0.6369338035583496,0.42000001668930054,-1.2300151586532593,2.9999914169311523,-0.1601044088602066,3.000000238418579,0.0042660110630095005,-0.0019460809417068958,-0.008254632353782654,-0.014666743576526642,-0.033918347209692,-0.16761919856071472,-0.29777902364730835,-0.4242478609085083
0.13333333333333333,0.049844034016132355,0.0751040130853653,0.0,0.9918339252471924,0.0,0.0,-0.12753616273403168,0.09765230119228363,0.8610967993736267,0.0,0.0,0.0,-7.586294651031494,-0.41989004611968994,0.7344281077384949,0.4200000464916229,0.9999999403953552,3.5505179312167456e-06,-2.2298092972050654e-06,2.9291240366546845e-07,0.0002670329704415053,0.0002677935699466616,-0.00010416889563202858,-0.0017439755611121655,0.004213570151478052,-0.00012800609692931175,-0.22084873914718628,0.27952033281326294,1.224114179611206,-1.742756962776184,3.485323190689087,-1.4335370063781738,0.38471394777297974,0.6369338035583496,0.42000001668930054,-1.1967500448226929,1.1258026361465454,-0.19185525178909302,-3.000000238418579,0.002452382817864418,-0.005859673023223877,-0.014196336269378662,-0.02256150171160698,-0.18320471048355103,-0.292774498462677,-0.39802467823028564,-0.49880653619766235
0.15,0.056320350617170334,0.08635582774877548,0.0,0.9865004420280457,0.0,0.0,-0.16375847160816193,0.43312138319015503,0.5684976577758789,0.0,0.0,0.0,-3.135319232940674,-0.41989004611968994,0.7344280481338501,0.4200000464916229,0.9999999403953552,3.3381122648279415e-06,-2.2428905595006654e-06,-2.803136034401632e-08,0.0002667456865310669,0.0002675803261809051,-0.00010427623055875301,-0.0017366986721754074,0.004206871148198843,-0.00012831554340664297,-0.25789618492126465,0.3364264965057373,1.1937587261199951,-2.3072123527526855,3.6637463569641113,-2.1764607429504395,0.38471394777297974,0.6369338035583496,0.42000001668930054,-1.1544221639633179,2.9999961853027344,-0.1669871062040329,2.9999992847442627,-1.7874559489428066e-05,-0.009796961210668087,-0.019534410908818245,-0.02923213317990303,-0.28572529554367065,-0.33821016550064087,-0.3881627321243286,-0.43549707531929016
0.16666666666666666,0.05781083181500435,0.09890972822904587,0.0,0.9773977398872375,0.0,0.0,-0.211408793926239,0.09403066337108612,0.7750463485717773,0.0,0.0,0.0,-6.505507469177246,-0.41989004611968994,0.7344281077384949,0.4200000464916229,0.9999999403953552,3.647830908448668e-06,-2.307289605596452e-06,3.526602299075421e-08,0.0002672695554792881,0.0002680134493857622,-0.0001041879877448082,-0.0017471626633778214,0.004217641893774271,-0.00012799118121620268,-0.29247480630874634,0.3985570967197418,1.1549805402755737,-1.7584116458892822,4.008828639984131,-2.335900068283081,0.38471394777297974,0.6369338035583496,0.42000001668930054,-1.104431390762329,2.9999990463256836,-0.1986791342496872,-2.999999523162842,-0.011305167339742184,-0.021435648202896118,-0.031507086008787155,-0.041526660323143005,-0.6324877142906189,-0.6746833324432373,-0.7142865657806396,-0.7513375282287598
0.18333333333333332,0.05669853463768959,0.11323294788599014,0.0,0.9712570309638977,0.0,0.0,-0.23803307116031647,-0.13865287601947784,0.9052534699440002,0.0,0.0,0.0,-2.2382054328918457,-0.41989004611968994,0.7344280481338501,0.4200000464916229,0.9999999403953552,3.290551603640779e-06,-2.1939342786936322e-06,-2.7924167511628184e-07,0.0002667796507012099,0.00026776036247611046,-0.00010434072464704514,-0.001739065395668149,0.004206969402730465,-0.00012845818127971143,-0.3268595337867737,0.4621109664440155,1.1074581146240234,-1.928563117980957,3.9430160522460938,-3.3277955055236816,0.38471394777297974,0.6369338035583496,0.42000001668930054,-1.0705739259719849,1.192622423171997,-0.2487068623304367,-3.0,-0.023357758298516273,-0.033696938306093216,-0.04393010586500168,-0.05406962335109711,-0.7846051454544067,-0.7728497982025146,-0.7587113976478577,-0.7426532506942749
0.2,0.06053285300731659,0.12582744657993317,0.0,0.9602727293968201,0.0,0.0,-0.27906322479248047,0.3669174313545227,0.6536151766777039,0.0,0.0,0.0,-6.101025104522705,-0.41989004611968994,0.7344280481338501,0.4200000464916229,1.0,3.2807351999508683e-06,-2.219225052613183e-06,1.594732026433121e-07,0.00026627970510162413,0.00026740136672742665,-0.0001042510848492384,-0.001735763973556459,0.004197762347757816,-0.0001286511542275548,-0.3577502369880676,0.5305981636047363,1.0454308986663818,-1.6240074634552002,4.220403671264648,-4.1136932373046875,0.38471394777297974,0.6369338035583496,0.42000001668930054,-1.0258824825286865,3.000000476837158,-0.2987324893474579,-2.999997854232788,-0.03367263078689575,-0.04383654519915581,-0.05385802313685417,-0.06375864893198013,-0.5833866596221924,-0.5611879229545593,-0.5376142263412476,-0.5132489800453186
0.21666666666666667,0.06137969344854355,0.13477587699890137,0.0,0.9531070590019226,0.0,0.0,-0.3026334345340729,-0.025261348113417625,0.4972512722015381,0.0,0.0,0.0,-1.7826025485992432,-0.41989004611968994,0.7344281077384949,0.4200000464916229,1.0,3.613135277191759e-06,-2.2701503894495545e-06,2.2101289687270764e-07,0.0002671263355296105,0.0002678169112186879,-0.00010414118878543377,-0.0017444867407903075,0.0042151641100645065,-0.00012786478328052908,-0.3853362202644348,0.5931962728500366,0.9676610827445984,-1.343214988708496,3.632561206817627,-5.097437858581543,0.38471394777297974,0.6369338035583496,0.42000001668930054,-0.9758793711662292,2.9999983310699463,-0.3487599194049835,-3.0000011920928955,-0.048142146319150925,-0.05786585807800293,-0.06732340902090073,-0.07642418146133423,-0.8636654615402222,-0.8723871111869812,-0.8807007074356079,-0.8782342076301575
0.23333333333333334,0.05773237720131874,0.14503934979438782,0.0,0.9421785473823547,0.0,0.0,-0.3351113498210907,-0.2943554222583771,0.6538826823234558,0.0,0.0,0.0,-4.857873439788818,-0.41989004611968994,0.7344280481338501,0.4200000464916229,1.0,3.3818234896898502e-06,-2.290981683472637e-06,2.728025378928578e-07,0.0002669123059604317,0.0002677978773135692,-0.00010433210991322994,-0.0017395822796970606,0.004209768958389759,-0.00012843773583881557,-0.4067070484161377,0.6499515771865845,0.8756983280181885,-1.0558185577392578,3.1742680072784424,-5.8141679763793945,0.38471394777297974,0.6369338035583496,0.42000001668930054,-0.9258689880371094,3.000001907348633,-0.3987900912761688,-2.9999988079071045,-0.06326763331890106,-0.07312728464603424,-0.08270836621522903,-0.09191140532493591,-0.9650728106498718,-0.9566144347190857,-0.9477680921554565,-0.938322126865387
0.25,0.05778520926833153,0.15094774961471558,0.0,0.937222421169281,0.0,0.0,-0.3487321138381958,0.04160552844405174,0.24746523797512054,0.0,0.0,0.0,-0.5150843858718872,-0.41989001631736755,0.7344280481338501,0.4200000464916229,0.9999999403953552,3.706510142365005e-06,-2.2230249214771902e-06,-2.254949436064635e-07,0.00026424831594340503,0.00026656725094653666,-0.00010457634925842285,-0.001716952072456479,0.004155570175498724,-0.00013063338701613247,-0.4260044991970062,0.6931561827659607,0.775844931602478,-0.9277939796447754,2.125528335571289,-6.200485706329346,0.38471394777297974,0.6369338035583496,0.42000001668930054,-0.8758583068847656,2.999999761581421,-0.4488213062286377,-3.000000238418579,-0.07822801917791367,-0.08782751858234406,-0.09715372323989868,-0.10562125593423843,-0.9891016483306885,-0.9880179166793823,-0.9749405980110168,-0.8902077674865723
0.26666666666666666,0.05235682800412178,0.1605278104543686,0.0,0.9271431565284729,0.0,0.0,-0.37470731139183044,-0.43307700753211975,0.5707778334617615,0.0,0.0,0.0,-4.141937255859375,-0.41989004611968994,0.7344280481338501,0.4200000464916229,0.9999999403953552,3.7196562061581062e-06,-2.4035145997913787e-06,-1.8307397908756684e-07,0.00026623206213116646,0.00026729085948318243,-0.00010425853542983532,-0.0017326372908428311,0.004196509253233671,-0.0001285135222133249,-0.4347124993801117,0.7171663045883179,0.6709244847297668,-0.17807668447494507,0.8662653565406799,-6.117149353027344,0.38471394777297974,0.6369338035583496,0.42000001668930054,-0.8258479237556458,2.999995708465576,-0.49885275959968567,-2.999999761581421,-0.09621520340442657,-0.10545860975980759,-0.11452526599168777,-0.12279980629682541,-0.8443913459777832,-0.8767745494842529,-0.9072806239128113,-0.9349188208580017
0.2833333333333333,0.05153767019510269,0.16456347703933716,0.0,0.9237125515937805,0.0,0.0,-0.38308629393577576,-0.014972873032093048,0.133339986205101,0.0,0.0,0.0,-0.03985697776079178,-0.41989004611968994,0.7344281077384949,0.4200000464916229,0.9999999403953552,3.584109208532027e-06,-2.315508709216374e-06,7.404404556154986e-08,0.0002652198018040508,0.0002645530621521175,-0.00010317005217075348,-0.001702171633951366,0.004185137338936329,-0.0001249976339749992,-0.4391365051269531,0.7283085584640503,0.5720421671867371,-0.06493796408176422,0.3027559816837311,-5.804416179656982,0.38471394777297974,0.6369338035583496,0.42000001668930054,-0.77583909034729,2.9999802112579346,-0.5488829016685486,-2.9999985694885254,-0.10859532654285431,-0.11808935552835464,-0.12736718356609344,-0.13586357235908508,-0.9841777086257935,-0.952332615852356,-0.9117735624313354,-0.8769064545631409
0.3,0.04870929196476936,0.16509701311588287,0.0,0.9244034290313721,0.0,0.0,-0.3814162611961365,-0.2398514300584793,0.008752497844398022,0.0,0.0,0.0,0.3409406244754791,-0.41989004611968994,0.7344280481338501,0.4200000464916229,1.0,3.724297130247578e-06,-2.271929133712547e-06,9.635297004706445e-08,0.0002631272072903812,0.00026525818975642323,-0.00010438100434839725,-0.0016960492357611656,0.004134910646826029,-0.00013027878594584763,-0.4364275336265564,0.7352657318115234,0.47841784358024597,0.48051854968070984,0.3747156858444214,-5.235457420349121,0.38471394777297974,0.6369338035583496,0.42000001668930054,-0.7258304357528687,3.0000009536743164,-0.5989115834236145,-3.0000009536743164,-0.12599927186965942,-0.13532786071300507,-0.14448924362659454,-0.15289749205112457,-1.0225837230682373,-1.0170917510986328,-1.0129011869430542,-1.0095434188842773
0.31666666666666665,0.04124262183904648,0.1642114818096161,0.0,0.9329094886779785,0.0,0.0,-0.36011090874671936,-0.5337029099464417,-0.08177438378334045,0.0,0.0,0.0,3.71688175201416,-0.41989004611968994,0.7344280481338501,0.4200000464916229,1.0,3.6662925140262814e-06,-2.392535634498927e-06,1.6798198032574874e-07,0.0002660211466718465,0.0002670691173989326,-0.00010418705642223358,-0.0017310786060988903,0.004193502478301525,-0.0001284959726035595,-0.43208110332489014,0.7377408146858215,0.4297756552696228,0.15105123817920685,-0.09441988170146942,-0.2757899761199951,0.38471394777297974,0.6369338035583496,0.42000001668930054,-0.6758248805999756,2.99969744682312,-0.6492470502853394,-2.9995665550231934,-0.13856065273284912,-0.14831030368804932,-0.15798306465148926,-0.16692103445529938,-0.20158100128173828,-0.3148045241832733,-0.43255719542503357,-0.5469887256622314
0.3333333333333333,0.032331712543964386,0.16044221818447113,0.0,0.9345231652259827,0.0,0.0,-0.35590237379074097,-0.5399853587150574,-0.28326600790023804,0.0,0.0,0.0,-0.4566632807254791,-0.41989004611968994,0.7344281077384949,0.4200000464916229,1.0,3.533830067681265e-06,-2.2182916836754885e-06,-1.3103371543365938e-07,0.0002669842797331512,0.0002675909490790218,-0.00010410137474536896,-0.0017410519067198038,0.004212980158627033,-0.00012772573973052204,-0.4297787547111511,0.7378751635551453,0.4257996678352356,0.3458290100097656,-0.0011191554367542267,-0.2640938460826874,0.38471394777297974,0.6369338035583496,0.42000001668930054,-0.6258195638656616,2.9999914169311523,-0.699313759803772,-2.9991657733917236,-0.14240923523902893,-0.15314984321594238,-0.16373120248317719,-0.1734176129102707,-0.31036576628685,-0.31099578738212585,-0.3027474284172058,-0.283821165561676
0.35,0.021730653941631317,0.1541147530078888,0.0,0.9409136772155762,0.0,0.0,-0.3386465907096863,-0.682923436164856,-0.42126333713531494,0.0,0.0,0.0,3.0501868724823,-0.41667208075523376,0.7385321855545044,0.4200093448162079,0.9997223019599915,0.00018522764730732888,2.637520810822025e-05,-0.023560242727398872,0.29889601469039917,0.3907007873058319,0.006919865496456623,0.5243135094642639,-0.1447984278202057,-5.554417610168457,-0.42400112748146057,0.7413110733032227,0.4219304323196411,0.3483589291572571,0.3729934096336365,-0.16757191717624664,0.38471394777297974,0.6369338035583496,0.42000001668930054,-0.575814425945282,2.999988079071045,-0.7493588328361511,-2.9999775886535645,-0.14879092574119568,-0.15900185704231262,-0.16885241866111755,-0.17761345207691193,-0.3775913417339325,-0.33275628089904785,-0.27332669496536255,-0.2010347992181778
0.36666666666666664,0.00880604237318039,0.14549119770526886,0.0,0.9413056373596191,0.0,0.0,-0.3375554382801056,-0.8154029846191406,-0.5578452348709106,0.0,0.0,0.0,-0.8289036750793457,-0.41224977374076843,0.7442819476127625,0.4200001060962677,0.9979369044303894,1.3274755474412814e-05,-7.001610356383026e-06,-0.06420226395130157,0.29200154542922974,0.38728150725364685,-0.00046898596337996423,-0.025538934394717216,0.03041398897767067,-7.583568096160889,-0.4165898263454437,0.7466393709182739,0.4210045039653778,0.5406781435012817,0.3548106551170349,0.10472013056278229,0.38471394777297974,0.6369338035583496,0.42000001668930054,-0.5258095264434814,2.9992856979370117,-0.7993959784507751,-2.9999749660491943,-0.15639455616474152,-0.16507446765899658,-0.17308475077152252,-0.1797616183757782,-0.4741125702857971,-0.3466305136680603,-0.19909754395484924,-0.03709087520837784
0.3833333333333333,-0.006629645824432373,0.1344396471977234,0.0,0.9316257238388062,0.0,0.0,-0.36341914534568787,-0.9785040020942688,-0.7063376903533936,0.0,0.0,0.0,-4.170461177825928,-0.40282362699508667,0.7549232244491577,0.42000317573547363,0.9839651584625244,-8.202153549063951e-05,-3.902894150087377e-06,-0.17836040258407593,0.7243167161941528,0.7721865773200989,-0.00414857966825366,0.18867547810077667,-0.03157765790820122,-15.50372314453125,-0.4045505225658417,0.7564381957054138,0.4199099838733673,0.9183177947998047,0.7589600086212158,-0.1003185510635376,0.38471394777297974,0.6369338035583496,0.42000001668930054,-0.47580522298812866,3.000030755996704,-0.8494200110435486,-2.99357271194458,-0.1643940657377243,-0.17076262831687927,-0.1760430485010147,-0.1796848326921463,-0.4520746171474457,-0.3016560971736908,-0.12458962202072144,0.07151875644922256
0.4,-0.019735213369131088,0.12033281475305557,0.0,0.9108525514602661,0.0,0.0,-0.4127318859100342,-0.7151565551757812,-0.9048022627830505,0.0,0.0,0.0,-7.221875190734863,-0.3852371871471405,0.7731677889823914,0.4210045635700226,0.9668983221054077,-0.017837656661868095,-0.005030100699514151,-0.25448769330978394,1.336444616317749,1.484573245048523,0.050440579652786255,-2.850825786590576,1.8976081609725952,-9.469894409179688,-0.38612109422683716,0.7741292119026184,0.42192018032073975,1.488342523574829,1.4436910152435303,0.14261355996131897,0.38471394777297974,0.6369338035583496,0.42000001668930054,-0.425748735666275,2.929750919342041,-0.8994288444519043,-3.000371217727661,-0.1713486760854721,-0.17511533200740814,-0.17727568745613098,-0.17741753160953522,-0.3656730651855469,-0.2071663737297058,-0.017412491142749786,0.1949433535337448
0.4166666666666667,-0.02889963425695896,0.10293756425380707,0.0,0.8757461905479431,0.0,0.0,-0.4827718436717987,-0.48423463106155396,-1.094984769821167,0.0,0.0,0.0,-10.187956809997559,-0.3415341079235077,0.8032961487770081,0.42373141646385193,0.9500845670700073,0.003627495374530554,-0.04395449906587601,-0.3088594079017639,4.042843341827393,1.8798482418060303,0.06771188229322433,31.520845413208008,-23.222497940063477,22.079021453857422,-0.34237268567085266,0.8047760128974915,0.42426013946533203,3.693105697631836,2.3009824752807617,0.37363192439079285,0.38471394777297974,0.6369338035583496,0.42000001668930054,-0.38967740535736084,1.1993613243103027,-0.8801971673965454,2.990877628326416,-0.18114382028579712,-0.1808970868587494,-0.17868921160697937,-0.17429786920547485,-0.6901453137397766,-0.4036230742931366,-0.10392788797616959,0.19617050886154175
0.43333333333333335,-0.035776324570178986,0.09101802110671997,0.0,0.8227027654647827,0.0,0.0,-0.5684717297554016,-0.3677672743797302,-0.5814195871353149,0.0,0.0,0.0,-12.87763786315918,-0.2541808784008026,0.8410163521766663,0.4282344877719879,0.9271534085273743,0.06293494254350662,-0.09126964956521988,-0.3579043745994568,6.722963809967041,2.0715689659118652,0.4552539587020874,-6.755965709686279,1.1578232049942017,4.66731595993042,-0.25532668828964233,0.8430982828140259,0.4292084276676178,6.48583459854126,2.4872097969055176,0.39817747473716736,0.38471394777297974,0.6369338035583496,0.42000001668930054,-0.37410134077072144,1.0063680410385132,-0.8542079329490662,0.39341169595718384,-0.19733993709087372,-0.1947181522846222,-0.1863606572151184,-0.17569564282894135,-0.9257175922393799,-0.9150392413139343,-0.5827771425247192,-0.21512219309806824
0.45,-0.04526456817984581,0.08510120958089828,0.0,0.7751177549362183,0.0,0.0,-0.6318168044090271,-0.7308619022369385,-0.2773364782333374,0.0,0.0,0.0,-8.256166458129883,-0.14921683073043823,0.8687927722930908,0.43793588876724243,0.8922340869903564,0.08612997084856033,-0.11105436831712723,-0.42914673686027527,6.277053356170654,0.6868944764137268,0.6417508125305176,2.5777790546417236,-10.417999267578125,8.232043266296387,-0.1496790051460266,0.873826265335083,0.438904345035553,6.314754486083984,1.3083219528198242,0.6951629519462585,0.38471394777297974,0.6369338035583496,0.42000001668930054,-0.355894535779953,1.104547381401062,-0.8965212106704712,-3.000002145767212,-0.2129053771495819,-0.21041443943977356,-0.19994820654392242,-0.18279096484184265,-0.7624419927597046,-0.8015443086624146,-0.8027673363685608,-0.4659861624240875
0.4666666666666667,-0.0520206019282341,0.07356178760528564,0.0,0.7466194033622742,0.0,0.0,-0.6652514338493347,-0.2703399360179901,-0.8550997972488403,0.0,0.0,0.0,-4.2554144859313965,-0.04452682286500931,0.8796558380126953,0.45004943013191223,0.8516602516174316,0.06321157515048981,-0.10525647550821304,-0.5095095634460449,6.309473514556885,-0.7506946921348572,0.8860812783241272,18.09897804260254,-7.2956109046936035,22.216707229614258,-0.04490726813673973,0.8864349722862244,0.45057520270347595,6.296542167663574,0.07110880315303802,0.7920981645584106,0.38471394777297974,0.6369338035583496,0.42000001668930054,-0.33608153462409973,1.0787506103515625,-0.9465451836585999,-3.0000035762786865,-0.2216002196073532,-0.2185487002134323,-0.207228422164917,-0.18478001654148102,-0.4388027489185333,-0.33872514963150024,-0.23697718977928162,0.06947039812803268
0.48333333333333334,-0.058018386363983154,0.06443648040294647,0.0,0.7402507662773132,0.0,0.0,-0.6723308563232422,-0.4036923348903656,-0.42985203862190247,0.0,0.0,0.0,-0.09348707646131516,0.049940649420022964,0.871871292591095,0.46107274293899536,0.7893036603927612,0.06139947474002838,-0.08493286371231079,-0.6049926280975342,4.858880996704102,-1.789087176322937,0.4759838283061981,-8.101035118103027,-2.6580734252929688,20.345027923583984,0.05016288161277771,0.8793792724609375,0.4619019627571106,5.148262977600098,-0.8507513403892517,0.6525647640228271,0.38471394777297974,0.6369338035583496,0.42000001668930054,-0.32161304354667664,0.5254109501838684,-0.9965692162513733,-3.00000262260437,-0.2305900901556015,-0.22518014907836914,-0.21171057224273682,-0.18467825651168823,-0.4487125277519226,-0.31226155161857605,-0.19741542637348175,0.016907013952732086
0.5,-0.061765797436237335,0.05593155696988106,0.0,0.7259505987167358,0.0,0.0,-0.6877468824386597,-0.16037163138389587,-0.5725609660148621,0.0,0.0,0.0,-3.36169171333313,0.12673811614513397,0.8507061004638672,0.4676855206489563,0.7328931093215942,0.03732279688119888,-0.06674357503652573,-0.676032543182373,4.152778625488281,-2.494352340698242,0.46711233258247375,14.782421112060547,-9.59737777709961,23.93963623046875,0.12727731466293335,0.8583190441131592,0.46908730268478394,4.310967922210693,-1.7142486572265625,0.34647664427757263,0.38471394777297974,0.6369338035583496,0.42000001668930054,-0.3143679201602936,0.30467191338539124,-1.0465914011001587,-3.000002384185791,-0.23871919512748718,-0.23017746210098267,-0.21410492062568665,-0.1836155354976654,-0.43646374344825745,-0.21718618273735046,-0.03830887749791145,0.15133067965507507
0.5166666666666666,-0.06192435324192047,0.04544440284371376,0.0,0.7240572571754456,0.0,0.0,-0.6897398829460144,0.04531274363398552,-0.6948580741882324,0.0,0.0,0.0,0.62132328748703,0.19108708202838898,0.8177179098129272,0.47048628330230713,0.6921783685684204,0.009481515735387802,-0.04332760348916054,-0.7203623056411743,3.356670618057251,-2.639394760131836,0.039851900190114975,0.9293653964996338,-1.8839943408966064,7.1114935874938965,0.19218632578849792,0.8241844773292542,0.4722389578819275,3.5489635467529297,-2.29779052734375,0.05774755775928497,0.38471394777297974,0.6369338035583496,0.42000001668930054,-0.30710890889167786,0.5895967483520508,-1.0966135263442993,-3.0000011920928955,-0.23988863825798035,-0.2338525503873825,-0.21478870511054993,-0.18187233805656433,0.02526020258665085,-0.08505509048700333,0.05899733304977417,0.1366606205701828
0.5333333333333333,-0.05917553976178169,0.038463205099105835,0.0,0.7128387093544006,0.0,0.0,-0.7013280391693115,0.23145847022533417,-0.3979741334915161,0.0,0.0,0.0,-2.721865653991699,0.2448650449514389,0.7812837958335876,0.4653865098953247,0.6593957543373108,-0.023661896586418152,-0.020291171967983246,-0.7511494755744934,2.769469738006592,-2.684342622756958,-0.4377899169921875,1.3085671663284302,-1.869408369064331,14.601046562194824,0.24676069617271423,0.7869858741760254,0.4676480293273926,3.072390079498291,-2.212956428527832,-0.5165266990661621,0.38471394777297974,0.6369338035583496,0.42000001668930054,-0.2936249077320099,0.8880177736282349,-1.14663565158844,-3.0000009536743164,-0.23798523843288422,-0.23435890674591064,-0.2139393389225006,-0.1810711771249771,0.27058738470077515,0.16617818176746368,0.17301394045352936,0.08365344256162643
0.55,-0.05526315048336983,0.032068002969026566,0.0,0.7136648893356323,0.0,0.0,-0.7004873156547546,0.24846011400222778,-0.3567391335964203,0.0,0.0,0.0,1.0381991863250732,0.28981637954711914,0.7429682612419128,0.4539966285228729,0.6110365390777588,-0.06416386365890503,0.0005624779150821269,-0.78899747133255,1.8514971733093262,-3.1070046424865723,-0.6921353340148926,2.568406581878662,2.5794782638549805,23.441190719604492,0.2919539213180542,0.7476592063903809,0.45645028352737427,2.4692163467407227,-2.420374870300293,-0.7865840196609497,0.38471394777297974,0.6369338035583496,0.42000001668930054,-0.27911797165870667,0.6494218707084656,-1.1966577768325806,-3.0000007152557373,-0.23115743696689606,-0.22912241518497467,-0.20936763286590576,-0.17896705865859985,0.4724348783493042,0.39290347695350647,0.31970030069351196,0.12803302705287933
0.5666666666666667,-0.04929168149828911,0.025760162621736526,0.0,0.7039434909820557,0.0,0.0,-0.7102559804916382,0.40226566791534424,-0.36439841985702515,0.0,0.0,0.0,-2.591813325881958,0.32712259888648987,0.707291841506958,0.4347066879272461,0.582970380783081,-0.08805185556411743,-0.005036265589296818,-0.8076923489570618,1.7509018182754517,-2.373832941055298,-0.9421255588531494,19.234289169311523,-15.036829948425293,15.66724681854248,0.32902806997299194,0.7115013599395752,0.43780314922332764,2.0208497047424316,-2.0825390815734863,-1.3903179168701172,0.38471394777297974,0.6369338035583496,0.42000001668930054,-0.2697618901729584,0.5056647062301636,-1.171684741973877,2.9978039264678955,-0.21941521763801575,-0.21949610114097595,-0.20232321321964264,-0.17641721665859222,0.7662445902824402,0.6383100152015686,0.4475380480289459,0.13956107199192047
0.5833333333333334,-0.041418686509132385,0.022965406998991966,0.0,0.7057448625564575,0.0,0.0,-0.7084660530090332,0.5057358145713806,-0.09581779688596725,0.0,0.0,0.0,1.1472748517990112,0.3522142767906189,0.6810101866722107,0.4264582693576813,0.5582365989685059,-0.12661130726337433,0.0023199717979878187,-0.8199610114097595,0.7676230072975159,-1.5100926160812378,0.06133245676755905,4.185827255249023,4.476138591766357,26.16448974609375,0.3539913296699524,0.6845841407775879,0.43044358491897583,1.2327635288238525,-1.2691154479980469,0.1138075590133667,0.38471394777297974,0.6369338035583496,0.42000001668930054,-0.25744879245758057,0.8214402198791504,-1.1930450201034546,-2.9999630451202393,-0.2062489539384842,-0.20873776078224182,-0.19530661404132843,-0.1749168187379837,0.79084712266922,0.6467165946960449,0.4033476412296295,0.05873410776257515
0.6,-0.03590727970004082,0.018278367817401886,0.0,0.6971435546875,0.0,0.0,-0.7169315814971924,0.2695232033729553,-0.33719438314437866,0.0,0.0,0.0,-2.2755322456359863,0.3701556324958801,0.6643751859664917,0.42557504773139954,0.551291823387146,-0.10901889950037003,0.0031660939566791058,-0.8271529674530029,0.4934860169887543,-1.2988072633743286,-0.03653132542967796,-1.2901833057403564,-2.1125271320343018,20.57720184326172,0.37065041065216064,0.6674736738204956,0.4295175075531006,0.8811073303222656,-0.9258193969726562,-0.09115055948495865,0.38471394777297974,0.6369338035583496,0.42000001668930054,-0.24896496534347534,0.1517498642206192,-1.155126690864563,2.9978086948394775,-0.19433467090129852,-0.19752883911132812,-0.188174307346344,-0.17348997294902802,0.6396626234054565,0.6208600997924805,0.39422348141670227,0.07155902683734894
0.6166666666666667,-0.029678624123334885,0.016613105311989784,0.0,0.700032651424408,0.0,0.0,-0.7141108512878418,0.40536797046661377,-0.06634560227394104,0.0,0.0,0.0,1.2723422050476074,0.3779696524143219,0.6505393981933594,0.42558595538139343,0.5728714466094971,-0.10900048911571503,0.00243399478495121,-0.8123615384101868,0.2118362933397293,-0.6664731502532959,0.02805725857615471,-0.7367334365844727,1.0067322254180908,5.801206111907959,0.37986016273498535,0.6544357538223267,0.4302979111671448,0.41073745489120483,-0.6007639765739441,0.09734756499528885,0.38471394777297974,0.6369338035583496,0.42000001668930054,-0.24945613741874695,-0.0486888661980629,-1.176965355873108,-2.9995694160461426,-0.18500304222106934,-0.18854758143424988,-0.18282672762870789,-0.17323759198188782,0.6214497685432434,0.5757434368133545,0.3452572226524353,0.036724742501974106
0.6333333333333333,-0.02124645560979843,0.01141072902828455,0.0,0.6916630864143372,0.0,0.0,-0.7222203016281128,0.539284884929657,-0.33502310514450073,0.0,0.0,0.0,-2.242191791534424,0.38380709290504456,0.6468409299850464,0.4248991906642914,0.5745264291763306,-0.09449771046638489,0.0010352728422731161,-0.813011884689331,-0.02962672896683216,-0.24984332919120789,-0.05241961032152176,-0.6146090030670166,-2.810323715209961,12.669394493103027,0.3838714063167572,0.6504498720169067,0.42939895391464233,0.12818372249603271,-0.09477993845939636,-0.07132066786289215,0.38471394777297974,0.6369338035583496,0.42000001668930054,-0.26163846254348755,-1.100671410560608,-1.1390920877456665,2.9998395442962646,-0.172112375497818,-0.17703579366207123,-0.17553384602069855,-0.17129448056221008,0.6685763001441956,0.6018583178520203,0.3751968741416931,0.08510304242372513
0.65,-0.013773895800113678,0.009752866812050343,0.0,0.6948268413543701,0.0,0.0,-0.7191770672798157,0.36892327666282654,-0.06942648440599442,0.0,0.0,0.0,1.3295060396194458,0.38260626792907715,0.6431053280830383,0.42316925525665283,0.614789605140686,-0.06366793066263199,-0.031050696969032288,-0.7855035662651062,-0.12398955225944519,-0.19149141013622284,-0.12629292905330658,-3.0537655353546143,-7.247990131378174,4.738116264343262,0.3831641376018524,0.648131251335144,0.43066972494125366,-0.08005306869745255,-0.07551439851522446,0.1348215937614441,0.38471394777297974,0.6369338035583496,0.42000001668930054,-0.3054797053337097,-3.0000007152557373,-1.1611745357513428,-2.9997544288635254,-0.1638960987329483,-0.16954462230205536,-0.1711822897195816,-0.17102424800395966,0.49361279606819153,0.44190114736557007,0.26082250475883484,0.031691983342170715
0.6666666666666666,-0.006439278367906809,0.011177058331668377,0.0,0.6870858669281006,0.0,0.0,-0.7265762090682983,0.4797864556312561,0.1389736384153366,0.0,0.0,0.0,-2.189246892929077,0.38199228048324585,0.6410641074180603,0.4217657446861267,0.6275303959846497,-0.03310338780283928,-0.011382545344531536,-0.7778047323226929,0.0370350107550621,0.031588852405548096,0.05386502668261528,-2.941638231277466,1.1840804815292358,-0.29051727056503296,0.38432449102401733,0.6506940126419067,0.4331057071685791,0.1330110877752304,0.26400476694107056,0.15748846530914307,0.38471394777297974,0.6369338035583496,0.42000001668930054,-0.3426935076713562,-1.5680533647537231,-1.211138129234314,-2.995222806930542,-0.15475523471832275,-0.16187016665935516,-0.1667744517326355,-0.1704530119895935,0.5739240646362305,0.47668734192848206,0.28600403666496277,0.06822583079338074
0.6833333333333333,0.0036114708054810762,0.007828308269381523,0.0,0.6911408305168152,0.0,0.0,-0.7227200865745544,0.5687779188156128,-0.21965914964675903,0.0,0.0,0.0,1.5586187839508057,0.38221994042396545,0.6415613889694214,0.421417772769928,0.6250143647193909,-0.02840328961610794,-0.02120431326329708,-0.7798080444335938,0.00628536706790328,0.02709064446389675,-0.046234130859375,0.028855768963694572,-1.9835611581802368,-0.3705199658870697,0.38405364751815796,0.6542181968688965,0.436174601316452,-0.18568632006645203,0.21411776542663574,0.20274358987808228,0.38471394777297974,0.6369338035583496,0.42000001668930054,-0.3898847699165344,-3.000000476837158,-1.2611404657363892,-2.9999232292175293,-0.14295095205307007,-0.15168234705924988,-0.15956534445285797,-0.16661310195922852,0.5536828637123108,0.5020042061805725,0.37662583589553833,0.22720208764076233
0.7,0.01556707639247179,0.007993009872734547,0.0,0.7131859660148621,0.0,0.0,-0.7009748816490173,0.7708547711372375,0.0488257110118866,0.0,0.0,0.0,4.894763469696045,0.3811577558517456,0.6420180797576904,0.42112189531326294,0.6123234629631042,-0.008636047132313251,-0.0190384853631258,-0.7903308272361755,-0.07929231226444244,0.030121246352791786,-0.018994398415088654,2.064925193786621,-1.9175662994384766,-2.3862712383270264,0.3816109597682953,0.6555367708206177,0.43990379571914673,-0.1066855788230896,0.046466805040836334,0.260908305644989,0.38471394777297974,0.6369338035583496,0.42000001668930054,-0.4398980140686035,-2.9983949661254883,-1.3111164569854736,-2.999767303466797,-0.137771338224411,-0.1462947279214859,-0.1549413502216339,-0.16304779052734375,0.33727601170539856,0.3552500307559967,0.3324418067932129,0.3023395538330078
0.7166666666666667,0.025157349184155464,0.0055795516818761826,0.0,0.7234492897987366,0.0,0.0,-0.6903775334358215,0.4943866729736328,-0.1954619437456131,0.0,0.0,0.0,0.7090491056442261,0.37991631031036377,0.6422464847564697,0.4202001094818115,0.5982304215431213,0.002937896642833948,-0.004011535085737705,-0.8013086915016174,-0.07740664482116699,0.0077070919796824455,-0.02093135192990303,0.2821037769317627,1.0307241678237915,-2.9281837940216064,0.38041776418685913,0.6565120220184326,0.44477570056915283,-0.11745570600032806,-0.0017713233828544617,0.28656312823295593,0.38471394777297974,0.6369338035583496,0.42000001668930054,-0.4898943603038788,-2.9999895095825195,-1.3610913753509521,-2.9999783039093018,-0.13471539318561554,-0.14212603867053986,-0.1501842737197876,-0.15780015289783478,0.08670437335968018,0.1861647665500641,0.26139649748802185,0.3312956392765045
0.7333333333333333,0.03468845412135124,-0.00021224809461273253,0.0,0.7127697467803955,0.0,0.0,-0.7013980746269226,0.6113144755363464,-0.4219971001148224,0.0,0.0,0.0,-2.6853394508361816,0.3795180022716522,0.6422068476676941,0.4200000762939453,0.5927644968032837,1.0588237273623236e-06,9.105060030378809e-07,-0.8053757548332214,-0.0015998909948393703,-0.0011550263734534383,-7.246655877679586e-05,-0.005318339914083481,-0.000430215586675331,-0.07754303514957428,0.38435280323028564,0.6565174460411072,0.4529654085636139,0.4975423812866211,-0.040680427104234695,0.8038310408592224,0.38471394777297974,0.6369338035583496,0.42000001668930054,-0.539906919002533,-2.9999990463256836,-1.4111096858978271,-3.0,-0.13592499494552612,-0.14114664494991302,-0.14722107350826263,-0.15284571051597595,-0.1456555426120758,0.008017591200768948,0.1587219387292862,0.314035564661026
0.75,0.04740530624985695,-0.0018646615790203214,0.0,0.6813721060752869,0.0,0.0,-0.7319372296333313,0.7457196116447449,-0.07441575825214386,0.0,0.0,0.0,-6.051355838775635,0.37951773405075073,0.642207145690918,0.4200000464916229,0.5927649140357971,3.02080138681049e-07,-3.6320741401141277e-06,-0.8053755760192871,0.00011787292896769941,-0.00029882401577197015,-9.019393473863602e-05,0.006990218535065651,-0.00138649414293468,-0.0006669720751233399,0.40093207359313965,0.6543413400650024,0.4734134078025818,1.5199352502822876,-0.0898505225777626,1.7518064975738525,0.38471394777297974,0.6369338035583496,0.42000001668930054,-0.589917778968811,-2.9999983310699463,-1.4611279964447021,-3.000000238418579,-0.14519453048706055,-0.1468820422887802,-0.14938993752002716,-0.15138287842273712,-0.4665338397026062,-0.2829627990722656,-0.08759445697069168,0.11810746788978577
0.7666666666666666,0.06135023012757301,-0.00031273384229280055,0.0,0.6635475158691406,0.0,0.0,-0.7481341361999512,0.888978123664856,0.10484293848276138,0.0,0.0,0.0,-1.8020598888397217,0.37951773405075073,0.6422070860862732,0.4200000464916229,0.5927645564079285,3.505351173771487e-07,-3.12993483930768e-06,-0.8053757548332214,0.000125095306430012,-0.0002712173154577613,-9.311409667134285e-05,0.0062081278301775455,-0.001234750496223569,-0.0006595520535483956,0.4288889169692993,0.6580661535263062,0.5075328350067139,1.8455495834350586,0.43577340245246887,2.2953009605407715,0.38471394777297974,0.6369338035583496,0.42000001668930054,-0.6093393564224243,0.3932591676712036,-1.5111463069915771,-2.9999990463256836,-0.1516251116991043,-0.15153750777244568,-0.15204721689224243,-0.15188036859035492,-0.24000820517539978,-0.2125595062971115,-0.16978438198566437,-0.11673083901405334
0.7833333333333333,0.07284851372241974,0.0031069396063685417,0.0,0.669935941696167,0.0,0.0,-0.7424188852310181,0.6161710619926453,0.2745611369609833,0.0,0.0,0.0,1.9227627515792847,0.37951773405075073,0.6422070860862732,0.4200000464916229,0.5927650332450867,3.215301660475234e-07,-3.095077772741206e-06,-0.8053754568099976,0.00012057281855959445,-0.0002734074951149523,-9.201397188007832e-05,0.006285849027335644,-0.0012992395786568522,-0.0006523635820485651,0.4552287459373474,0.6639180183410645,0.5392715930938721,1.329463005065918,0.3392208516597748,1.5916740894317627,0.38471394777297974,0.6369338035583496,0.42000001668930054,-0.5807269215583801,2.8060882091522217,-1.4723856449127197,3.000000238418579,-0.15415959060192108,-0.15379929542541504,-0.15376070141792297,-0.15289472043514252,-0.08560916036367416,-0.08083703368902206,-0.05991619452834129,-0.03198530897498131
0.8,0.07929128408432007,0.0010019121691584587,0.0,0.6645093560218811,0.0,0.0,-0.747279942035675,0.3868089020252228,-0.10061579942703247,0.0,0.0,0.0,-1.647293210029602,0.37951773405075073,0.642207145690918,0.4200000464916229,0.5927648544311523,4.441606904492801e-07,-3.155213562422432e-06,-0.8053755760192871,0.00011956695379922166,-0.00027428846806287766,-9.176414459943771e-05,0.006313006859272718,-0.0013155356282368302,-0.0006508935475721955,0.4720199406147003,0.6735906600952148,0.5607784986495972,0.48321497440338135,0.4922734797000885,1.1229596138000488,0.38471394777297974,0.6369338035583496,0.42000001668930054,-0.5424488186836243,1.842834234237671,-1.422333002090454,3.0000007152557373,-0.14939148724079132,-0.15000103414058685,-0.15063872933387756,-0.1503056287765503,-0.011562760919332504,-0.010930894874036312,-1.0011717677116394e-08,0.011601122096180916
0.8166666666666667,0.08267632126808167,0.003349702339619398,0.0,0.6712650656700134,0.0,0.0,-0.7412173748016357,0.1422429382801056,0.1933179348707199,0.0,0.0,0.0,1.9089162349700928,0.37951773405075073,0.6422070860862732,0.4200000464916229,0.5927647948265076,3.347691119870433e-07,-2.8510626179922838e-06,-0.8053755164146423,0.00012309344310779124,-0.0002727684914134443,-9.253015741705894e-05,0.006257332395762205,-0.0012637677136808634,-0.000656855059787631,0.47178491950035095,0.6811186075210571,0.575697660446167,-0.4129502773284912,0.5203606486320496,0.7042201161384583,0.38471394777297974,0.6369338035583496,0.42000001668930054,-0.5005056262016296,3.000000238418579,-1.372329592704773,2.999999523162842,-0.15125559270381927,-0.15146636962890625,-0.1515805870294571,-0.15078455209732056,-0.04895447567105293,-0.03809872269630432,-0.020225567743182182,-0.006753052119165659
0.8333333333333334,0.08252692967653275,0.0022130850702524185,0.0,0.6662460565567017,0.0,0.0,-0.7457320094108582,-0.04929354786872864,-0.1436302810907364,0.0,0.0,0.0,-1.6987906694412231,0.37951773405075073,0.6422070860862732,0.4200000464916229,0.5927646160125732,3.1293473057303345e-07,-3.0966000394982984e-06,-0.8053756952285767,0.00012119051825720817,-0.00027334969490766525,-9.215972386300564e-05,0.006281248293817043,-0.0012915265979245305,-0.0006531415274366736,0.4587770104408264,0.6903559565544128,0.5818043947219849,-1.1874935626983643,0.563823938369751,0.20707657933235168,0.38471394777297974,0.6369338035583496,0.42000001668930054,-0.47879883646965027,-0.14235049486160278,-1.3222769498825073,3.0,-0.15134048461914062,-0.15150384604930878,-0.15144188702106476,-0.15053269267082214,-0.001917604124173522,0.004700221121311188,0.017911432310938835,0.026256585493683815
0.85,0.07938522845506668,0.005888857413083315,0.0,0.672926664352417,0.0,0.0,-0.739709198474884,-0.1911121904850006,0.22677475214004517,0.0,0.0,0.0,1.780484914779663,0.37951773405075073,0.6422070860862732,0.4200000464916229,0.5927647948265076,3.501491505630838e-07,-2.97988799502491e-06,-0.8053755164146423,0.00012287343270145357,-0.00027214878355152905,-9.256950579583645e-05,0.006242260802537203,-0.0012659920612350106,-0.0006559938774444163,0.43650007247924805,0.6975327730178833,0.5818462371826172,-1.3087847232818604,0.4581162631511688,-0.18848346173763275,0.38471394777297974,0.6369338035583496,0.42000001668930054,-0.4626334011554718,1.8963812589645386,-1.3417731523513794,-3.0,-0.15565216541290283,-0.15485964715480804,-0.1538156419992447,-0.15210209786891937,-0.12210320681333542,-0.10281265527009964,-0.07871752232313156,-0.06104603782296181
0.8666666666666667,0.07874683290719986,0.005972874816507101,0.0,0.6678192019462585,0.0,0.0,-0.7443235516548157,-0.013427430763840675,-0.019791191443800926,0.0,0.0,0.0,-1.6622830629348755,0.37951773405075073,0.6422070860862732,0.4200000464916229,0.5927643775939941,3.082817841004726e-07,-3.1493170808971627e-06,-0.805375874042511,0.00012139930913690478,-0.00027323595713824034,-9.221257641911507e-05,0.006277026608586311,-0.001288868486881256,-0.0006535170832648873,0.4099887013435364,0.7060999274253845,0.5726053714752197,-1.8971691131591797,0.4808531403541565,-0.7350497245788574,0.38471394777297974,0.6369338035583496,0.42000001668930054,-0.47014904022216797,-2.418304204940796,-1.3034913539886475,3.000000238418579,-0.15656450390815735,-0.1557687222957611,-0.15462768077850342,-0.15289440751075745,-0.11083831638097763,-0.10021950304508209,-0.08562872558832169,-0.07694102078676224
0.8833333333333333,0.08021706342697144,0.0036147127393633127,0.0,0.6741510629653931,0.0,0.0,-0.7385934591293335,0.13914257287979126,-0.20116403698921204,0.0,0.0,0.0,1.7982745170593262,0.37951773405075073,0.6422070860862732,0.4200000464916229,0.592764675617218,3.078087047470035e-07,-3.288658717792714e-06,-0.8053756952285767,0.0001223449653480202,-0.0002735118323471397,-9.239418432116508e-05,0.006278599612414837,-0.0012783142738044262,-0.0006557924789376557,0.3847411274909973,0.7125055193901062,0.5614619255065918,-1.1430131196975708,0.34008070826530457,-0.5788745880126953,0.38471394777297974,0.6369338035583496,0.42000001668930054,-0.48743537068367004,0.13716496527194977,-1.3233263492584229,-2.999999761581421,-0.15964670479297638,-0.15806066989898682,-0.15599165856838226,-0.15335988998413086,-0.21051858365535736,-0.1461842954158783,-0.06943048536777496,0.0100381625816226
0.9,0.084134541451931,-0.0015083036851137877,0.0,0.6688069701194763,0.0,0.0,-0.7434360980987549,0.2771512567996979,-0.37324777245521545,0.0,0.0,0.0,-1.719524621963501,0.37951773405075073,0.642207145690918,0.4200000464916229,0.5927647352218628,2.274709203220482e-07,-3.3753333354979986e-06,-0.8053756952285767,0.00011816054029623047,-0.0002742507786024362,-9.146262891590595e-05,0.006319913547486067,-0.0013323507737368345,-0.0006476230337284505,0.3707635998725891,0.7155328989028931,0.5490805506706238,-0.5345509648323059,0.025415223091840744,-0.6988650560379028,0.38471394777297974,0.6369338035583496,0.42000001668930054,-0.5219334959983826,-2.999998092651367,-1.2850972414016724,3.000000238418579,-0.16468875110149384,-0.1616274118423462,-0.15781451761722565,-0.15332986414432526,-0.3131382167339325,-0.20766262710094452,-0.08411262929439545,0.048308663070201874
0.9166666666666666,0.09059008955955505,-0.010208433493971825,0.0,0.643833339214325,0.0,0.0,-0.7651657462120056,0.4324895143508911,-0.5934598445892334,0.0,0.0,0.0,-4.84036922454834,0.37951773405075073,0.6422070860862732,0.4200000464916229,0.5927648544311523,3.66243398275401e-07,-3.0931116725696484e-06,-0.8053755164146423,0.00012295259512029588,-0.0002724137739278376,-9.254598990082741e-05,0.006249668542295694,-0.0012644545640796423,-0.0006562943453900516,0.36881762742996216,0.712410569190979,0.5406439900398254,0.27379530668258667,-0.35897472500801086,-0.1540496051311493,0.38471394777297974,0.6369338035583496,0.42000001668930054,-0.5703043341636658,-2.7835564613342285,-1.305250644683838,-2.9999966621398926,-0.1717301309108734,-0.16659554839134216,-0.1604122668504715,-0.15340928733348846,-0.4466119706630707,-0.3162133991718292,-0.16881366074085236,-0.012670661322772503
0.9333333333333333,0.1001952663064003,-0.014960655011236668,0.0,0.6067373156547546,0.0,0.0,-0.7949023842811584,0.6080866456031799,-0.2822472155094147,0.0,0.0,0.0,-5.908539772033691,0.37951773405075073,0.6422070860862732,0.4200000464916229,0.5927644371986389,3.1255808607966173e-07,-3.077504743487225e-06,-0.805375874042511,0.00012103559129172936,-0.000273254350759089,-9.211828000843525e-05,0.006279537454247475,-0.0012929411605000496,-0.0006527011282742023,0.38120409846305847,0.7047417163848877,0.5384384393692017,1.2102043628692627,-0.3962644338607788,-0.05279858782887459,0.38471394777297974,0.6369338035583496,0.42000001668930054,-0.5869842767715454,0.5070554614067078,-1.355268955230713,-3.0,-0.18176771700382233,-0.1745913177728653,-0.1662236899137497,-0.1570131927728653,-0.4070064425468445,-0.36164456605911255,-0.30865478515625,-0.25283271074295044
