vladlanda/robotic-transformer/data/env_000_episode_0236.csv
sim_time_s,robot_box_x,robot_box_y,robot_box_z,robot_box_quat_w,robot_box_quat_x,robot_box_quat_y,robot_box_quat_z,robot_box_linvel_x,robot_box_linvel_y,robot_box_linvel_z,robot_box_angvel_x,robot_box_angvel_y,robot_box_angvel_z,cube_world_x,cube_world_y,cube_world_z,cube_quat_w,cube_quat_x,cube_quat_y,cube_quat_z,cube_linvel_x,cube_linvel_y,cube_linvel_z,cube_angvel_x,cube_angvel_y,cube_angvel_z,endpoint_world_x,endpoint_world_y,endpoint_world_z,endpoint_linvel_x,endpoint_linvel_y,endpoint_linvel_z,target_cube_world_x,target_cube_world_y,target_cube_world_z,gripper_actual_pos_rad_gp_leftgearjoint,gripper_actual_vel_rad_s_gp_leftgearjoint,gripper_actual_pos_rad_gp_rotatingjoint,gripper_actual_vel_rad_s_gp_rotatingjoint,motor_angle_rad_joint1,motor_angle_rad_joint2,motor_angle_rad_joint3,motor_angle_rad_joint4,motor_speed_rad_s_joint1,motor_speed_rad_s_joint2,motor_speed_rad_s_joint3,motor_speed_rad_s_joint4
0.0,0.0,0.0,0.0,1.0,0.0,0.0,0.0,0.0,0.0,0.0,0.0,0.0,0.0,-0.3871043026447296,0.7031263709068298,0.41999998688697815,1.0,0.0,0.0,0.0,0.0,0.0,0.0,0.0,0.0,0.0,3.42540442943573e-06,-0.005000244826078415,1.313499927520752,0.0,0.0,0.0,0.4591929018497467,0.6501922607421875,0.42000001668930054,-1.5707999467849731,0.0,0.0,0.0,0.0,0.0,0.0,0.0,0.0,0.0,0.0,0.0
0.016666666666666666,0.002879122272133827,0.0021792773623019457,0.0,0.999811053276062,0.0,0.0,0.01943749561905861,0.24090878665447235,0.1823563426733017,0.0,0.0,0.0,3.1418421268463135,-0.38710442185401917,0.703126072883606,0.41999998688697815,1.0,3.279964630564791e-06,-8.339746386809566e-07,8.465587342243452e-08,-1.9833529222523794e-05,0.00017983045836444944,-6.132945418357849e-05,0.0009432713268324733,-0.004689474124461412,-0.00031981561915017664,-0.007109653204679489,0.0033835519570857286,1.3159376382827759,-0.8142046332359314,0.9870145916938782,0.18095673620700836,0.4591929018497467,0.6501922607421875,0.42000001668930054,-1.5301095247268677,3.000002145767212,-0.04584825783967972,-3.0,0.0008698738529346883,0.0007965262047946453,0.0007110669976100326,0.0006109169917181134,0.1109388992190361,0.09757746011018753,0.0833553820848465,0.0682501345872879
0.03333333333333333,0.008962497115135193,0.006799760740250349,0.0,0.9997990131378174,0.0,0.0,0.020047824829816818,0.4070377051830292,0.315258651971817,0.0,0.0,0.0,-0.8691012859344482,-0.3871045410633087,0.7031260132789612,0.4200000464916229,1.0,3.3908179375430336e-06,-2.132458348569344e-06,-3.7097745320124886e-08,0.00026357852038927376,0.00026937833172269166,-0.00010509369894862175,-0.0017707126680761576,0.004130884539335966,-0.0001354814594378695,-0.027547944337129593,0.026258673518896103,1.3165886402130127,-1.590920090675354,1.6166801452636719,-0.086067333817482,0.4591929018497467,0.6501922607421875,0.42000001668930054,-1.4800903797149658,3.000005006790161,-0.09588810056447983,-3.0000016689300537,0.0029904234688729048,0.0026526888832449913,0.002277204068377614,0.0018606672529131174,0.16418936848640442,0.13974587619304657,0.11380741745233536,0.08628946542739868
0.05,0.018472110852599144,0.013899706304073334,0.0,0.9999768733978271,0.0,0.0,-0.0068009900860488415,0.6362572908401489,0.47228386998176575,0.0,0.0,0.0,-4.074116230010986,-0.3871045708656311,0.703126072883606,0.4200000464916229,1.0,3.7651902857760433e-06,-2.2119197637948673e-06,5.609367637049445e-09,0.00026530938339419663,0.00026691678795032203,-0.00010440615005791187,-0.0017243892652913928,0.004177466034889221,-0.00012949809024576098,-0.05718400329351425,0.05753723904490471,1.3118724822998047,-1.9508589506149292,2.0641300678253174,-0.46190160512924194,0.4591929018497467,0.6501922607421875,0.42000001668930054,-1.4300720691680908,3.0000011920928955,-0.14592677354812622,-2.999999523162842,0.006013303995132446,0.0051739453338086605,0.004262255504727364,0.003273927140980959,0.20716126263141632,0.16680908203125,0.1245337501168251,0.08025871217250824
0.06666666666666667,0.030789609998464584,0.02338816225528717,0.0,0.9998821020126343,0.0,0.0,-0.015356319956481457,0.7726362347602844,0.6161285638809204,0.0,0.0,0.0,-0.03797978535294533,-0.3871045708656311,0.7031260132789612,0.4200000464916229,0.9999999403953552,3.406832092878176e-06,-2.28558906201215e-06,4.300801492718165e-07,0.0002670248504728079,0.0002679176686797291,-0.0001043803058564663,-0.00174071139190346,0.00421183044090867,-0.00012850876373704523,-0.09318239241838455,0.09111517667770386,1.301384687423706,-2.2316319942474365,2.133024215698242,-0.7861536741256714,0.4591929018497467,0.6501922607421875,0.42000001668930054,-1.3800432682037354,3.0,-0.13873130083084106,3.000000476837158,0.008588057942688465,0.006983206141740084,0.005265206564217806,0.0034301786217838526,0.13309644162654877,0.07738777995109558,0.019532764330506325,-0.040571458637714386
0.08333333333333333,0.036823440343141556,0.0367593877017498,0.0,0.999230146408081,0.0,0.0,-0.039231620728969574,0.22690044343471527,0.8756629824638367,0.0,0.0,0.0,-3.809391975402832,-0.3871045708656311,0.7031260132789612,0.4200000464916229,0.9999999403953552,3.626166289905086e-06,-2.3353043161478126e-06,3.032100153177453e-07,0.00026614085072651505,0.0002668516826815903,-0.00010405341163277626,-0.001728349830955267,0.004196455702185631,-0.0001279077841900289,-0.1249571293592453,0.1306523084640503,1.2864305973052979,-1.6149318218231201,2.6165614128112793,-0.9337152242660522,0.4591929018497467,0.6501922607421875,0.42000001668930054,-1.3300395011901855,2.9999990463256836,-0.17060352861881256,-3.000000476837158,0.004509456921368837,0.0021065599285066128,-0.0004635828663595021,-0.0032092260662466288,-0.37212517857551575,-0.4342731535434723,-0.49918660521507263,-0.5671345591545105
0.1,0.04667970538139343,0.051713090389966965,0.0,0.9958885908126831,0.0,0.0,-0.09058643877506256,0.7372682094573975,0.9040507078170776,0.0,0.0,0.0,-6.967801570892334,-0.3871045708656311,0.7031260132789612,0.4200000464916229,1.0,3.4222334761579987e-06,-2.3086047349352157e-06,1.796183539681806e-07,0.0002668157103471458,0.00026800340856425464,-0.00010440708138048649,-0.0017429988365620375,0.004207124002277851,-0.00012891183723695576,-0.15394890308380127,0.1764531433582306,1.270198106765747,-1.8511807918548584,2.8990371227264404,-1.0696487426757812,0.4591929018497467,0.6501922607421875,0.42000001668930054,-1.2800264358520508,2.999997854232788,-0.18194076418876648,1.2819898128509521,0.0028042520862072706,-0.001153110177256167,-0.00528170308098197,-0.00959048606455326,-0.008659575134515762,-0.10904841125011444,-0.20844493806362152,-0.30681902170181274
0.11666666666666667,0.05519658327102661,0.06376882642507553,0.0,0.9924870133399963,0.0,0.0,-0.1223500594496727,0.538922905921936,0.6855190992355347,0.0,0.0,0.0,-2.579676866531372,-0.3871045708656311,0.703126072883606,0.4200000464916229,1.0,3.7116215025889687e-06,-2.3326904283749172e-06,2.5741752551766695e-07,0.00026485833222977817,0.0002663549967110157,-0.00010423408821225166,-0.0017181988805532455,0.004170059692114592,-0.00012915713887196034,-0.18801316618919373,0.22194284200668335,1.2508419752120972,-1.980024814605713,2.936372995376587,-1.164595365524292,0.4591929018497467,0.6501922607421875,0.42000001668930054,-1.2300333976745605,3.0000014305114746,-0.2225760668516159,-2.999999523162842,0.00043928861850872636,-0.00513464817777276,-0.010854247957468033,-0.01672857627272606,-0.055891308933496475,-0.17356087267398834,-0.28795966506004333,-0.39893144369125366
0.13333333333333333,0.06158267334103584,0.07315627485513687,0.0,0.9864841103553772,0.0,0.0,-0.1638568490743637,0.3146139085292816,0.48362722992897034,0.0,0.0,0.0,-5.755537509918213,-0.3871045708656311,0.7031260132789612,0.4200000464916229,1.0,3.3357862321281573e-06,-2.231929329354898e-06,3.1130659294831275e-07,0.00026669795624911785,0.00026759557658806443,-0.00010428577661514282,-0.0017371183494105935,0.004205892328172922,-0.00012840361159760505,-0.21927383542060852,0.27623260021209717,1.2277615070343018,-1.7286632061004639,3.634532928466797,-1.5760236978530884,0.4591929018497467,0.6501922607421875,0.42000001668930054,-1.180018663406372,2.9999947547912598,-0.18866358697414398,2.999999761581421,-0.0019075170857831836,-0.009344025515019894,-0.016862312331795692,-0.024469662457704544,-0.21934927999973297,-0.32066065073013306,-0.41811227798461914,-0.5115879774093628
0.15,0.06384593993425369,0.08316297829151154,0.0,0.980813205242157,0.0,0.0,-0.1949499398469925,0.06667375564575195,0.6432905197143555,0.0,0.0,0.0,-2.9155139923095703,-0.3871045708656311,0.7031260132789612,0.4200000464916229,1.0,3.5189802929380676e-06,-2.2830829493614146e-06,-3.625531803663762e-07,0.00026618537958711386,0.0002673575363587588,-0.00010425481013953686,-0.0017349323024973273,0.004195748828351498,-0.0001286051847273484,-0.2534787952899933,0.3336386978626251,1.1964068412780762,-2.077894926071167,3.5183558464050293,-2.194917917251587,0.4591929018497467,0.6501922607421875,0.42000001668930054,-1.1465399265289307,1.1518491506576538,-0.22017934918403625,-3.0000007152557373,-0.007035564631223679,-0.015882818028330803,-0.024736041203141212,-0.033601514995098114,-0.371683806180954,-0.4370759129524231,-0.49804359674453735,-0.5546226501464844
0.16666666666666666,0.06952798366546631,0.09505313634872437,0.0,0.9707143306732178,0.0,0.0,-0.2402368187904358,0.3581966757774353,0.7540162205696106,0.0,0.0,0.0,-6.392827033996582,-0.3871045708656311,0.7031260132789612,0.4200000464916229,1.0,3.666678594527184e-06,-2.3391096419800306e-06,-3.150171608012897e-07,0.00026595700182951987,0.0002666723739821464,-0.00010403268970549107,-0.0017252295510843396,0.0041927071288228035,-0.00012778618838638067,-0.28791794180870056,0.3976123034954071,1.153602957725525,-1.9315910339355469,4.107048034667969,-2.9562056064605713,0.4591929018497467,0.6501922607421875,0.42000001668930054,-1.101635456085205,2.999997854232788,-0.23283235728740692,1.1363468170166016,-0.01254408247768879,-0.022333327680826187,-0.03205550089478493,-0.04171894118189812,-0.48232653737068176,-0.5061172842979431,-0.5270849466323853,-0.5454781651496887
0.18333333333333332,0.07212640345096588,0.1045965626835823,0.0,0.9638605713844299,0.0,0.0,-0.2664072811603546,0.12690721452236176,0.5061241388320923,0.0,0.0,0.0,-2.10097336769104,-0.3871045708656311,0.7031260132789612,0.4200000464916229,1.0,3.814429419435328e-06,-2.399473942205077e-06,-2.702885524286103e-07,0.0002654908748809248,0.00026611171779222786,-0.00010391091927886009,-0.0017177866538986564,0.00418477039784193,-0.00012754213821608573,-0.3215068578720093,0.4622936248779297,1.0969817638397217,-1.7368332147598267,4.025544166564941,-3.7290196418762207,0.4591929018497467,0.6501922607421875,0.42000001668930054,-1.0516395568847656,3.0000007152557373,-0.273932546377182,-2.999997854232788,-0.023658493533730507,-0.03324143588542938,-0.042734839022159576,-0.05215732008218765,-0.6965876817703247,-0.6751542091369629,-0.6525678038597107,-0.6294397711753845
0.2,0.07086867094039917,0.11570639908313751,0.0,0.9529293179512024,0.0,0.0,-0.30319249629974365,-0.13998572528362274,0.6822802424430847,0.0,0.0,0.0,-5.400279521942139,-0.3871045708656311,0.7031260132789612,0.4200000464916229,1.0,3.600096079026116e-06,-2.2911845007911325e-06,-2.2019764855940593e-07,0.00026572897331789136,0.0002664489147718996,-0.00010398100130259991,-0.0017226696945726871,0.004188799764961004,-0.00012773496564477682,-0.3484712839126587,0.5297384262084961,1.0273044109344482,-1.3829631805419922,4.060580730438232,-4.5136566162109375,0.4591929018497467,0.6501922607421875,0.42000001668930054,-1.0016355514526367,3.0000007152557373,-0.32395848631858826,-3.0000009536743164,-0.03847019001841545,-0.047334808856248856,-0.056097373366355896,-0.06479017436504364,-0.9057398438453674,-0.8609942197799683,-0.8151524662971497,-0.768929660320282
0.21666666666666667,0.07358194142580032,0.1251651495695114,0.0,0.9465484023094177,0.0,0.0,-0.32256174087524414,0.16487009823322296,0.48307162523269653,0.0,0.0,0.0,-1.3900632858276367,-0.3871045708656311,0.7031260132789612,0.4200000464916229,0.9999999403953552,3.6396977520780638e-06,-2.2619728952122387e-06,2.224548865115139e-07,0.000266873772488907,0.0002675457508303225,-0.00010411953553557396,-0.0017404764657840133,0.004211100284010172,-0.00012783778947778046,-0.3732845187187195,0.5901055335998535,0.9465864896774292,-1.2862634658813477,3.3619961738586426,-5.167708396911621,0.4591929018497467,0.6501922607421875,0.42000001668930054,-0.9516286849975586,2.999997854232788,-0.37398678064346313,-3.0,-0.05183304101228714,-0.05974644050002098,-0.06756582856178284,-0.07533784210681915,-0.8952000141143799,-0.813813328742981,-0.7347548007965088,-0.6589438915252686
0.23333333333333334,0.07246807962656021,0.1364743709564209,0.0,0.9353945255279541,0.0,0.0,-0.35360580682754517,-0.11760803312063217,0.7284145355224609,0.0,0.0,0.0,-4.715301990509033,-0.3871045410633087,0.7031260132789612,0.4200000464916229,1.0,3.42080284099211e-06,-2.3168156531028217e-06,2.9557230618593167e-07,0.0002668006927706301,0.0002680390316527337,-0.00010442431084811687,-0.0017437431961297989,0.004206867888569832,-0.0001289910142077133,-0.3918913006782532,0.6425131559371948,0.8527061343193054,-0.8868669271469116,2.9126100540161133,-5.8836750984191895,0.4591929018497467,0.6501922607421875,0.42000001668930054,-0.901618242263794,2.9999992847442627,-0.4240170121192932,-3.0000009536743164,-0.06677836924791336,-0.07494702935218811,-0.08294685184955597,-0.0907706618309021,-0.9101572036743164,-0.9207101464271545,-0.9286870360374451,-0.9339703917503357
0.25,0.07431440055370331,0.1437445431947708,0.0,0.931049108505249,0.0,0.0,-0.3648938536643982,0.17458945512771606,0.329712450504303,0.0,0.0,0.0,-0.3846811354160309,-0.3871045708656311,0.7031260132789612,0.4200000464916229,0.9999999403953552,3.3476630960649345e-06,-2.259201437482261e-06,1.8082572239563888e-07,0.00026687735226005316,0.00026791065465658903,-0.00010439311154186726,-0.0017403911333531141,0.004208162892609835,-0.00012870095088146627,-0.4084048867225647,0.6809749007225037,0.7525121569633484,-0.7927591800689697,1.8233258724212646,-6.13086462020874,0.4591929018497467,0.6501922607421875,0.42000001668930054,-0.8516076803207397,3.000000476837158,-0.4740477204322815,-2.9999966621398926,-0.08272331953048706,-0.09071726351976395,-0.09853650629520416,-0.10591516643762589,-0.9891688227653503,-0.9872468113899231,-0.9744631052017212,-0.9331081509590149
0.26666666666666666,0.07276472449302673,0.14756141602993011,0.0,0.9217687845230103,0.0,0.0,-0.38773998618125916,-0.18861865997314453,0.19512997567653656,0.0,0.0,0.0,-3.850792646408081,-0.3871045708656311,0.7031260132789612,0.4200000464916229,0.9999999403953552,3.535753194228164e-06,-2.3002676243777387e-06,-1.2687392825228017e-07,0.00026601721765473485,0.0002671221154741943,-0.00010419590398669243,-0.0017316217999905348,0.00419279420748353,-0.0001284939207835123,-0.41599419713020325,0.7023338079452515,0.6454743146896362,-0.0737999826669693,0.6947463154792786,-6.456060886383057,0.4591929018497467,0.6501922607421875,0.42000001668930054,-0.8015987277030945,3.000000238418579,-0.5240779519081116,-3.0000014305114746,-0.10008662939071655,-0.10786639153957367,-0.11552715301513672,-0.12278676778078079,-1.000823736190796,-1.0006192922592163,-1.000463843345642,-1.0003389120101929
0.2833333333333333,0.0666346475481987,0.14944283664226532,0.0,0.9194129109382629,0.0,0.0,-0.3932936489582062,-0.41107434034347534,0.0757233053445816,0.0,0.0,0.0,0.24241138994693756,-0.3871045708656311,0.703126072883606,0.4200000464916229,1.0,3.593504743548692e-06,-2.2625924884778215e-06,-5.655554602412849e-08,0.00026704728952609,0.0002677498559933156,-0.00010416866280138493,-0.0017431487794965506,0.0042141578160226345,-0.00012789281026925892,-0.41579633951187134,0.70408695936203,0.5453586578369141,0.225610613822937,-0.3954365849494934,-5.632820129394531,0.4591929018497467,0.6501922607421875,0.42000001668930054,-0.7515899538993835,2.9999992847442627,-0.5741074085235596,-3.0000009536743164,-0.11779699474573135,-0.12531904876232147,-0.1327866166830063,-0.13989552855491638,-1.006129264831543,-1.004626989364624,-1.0034795999526978,-1.0025653839111328
0.3,0.06597559154033661,0.1473187655210495,0.0,0.9116748571395874,0.0,0.0,-0.4109123647212982,0.09513375908136368,-0.20651353895664215,0.0,0.0,0.0,-3.198869228363037,-0.3871045410633087,0.7031260132789612,0.4200000464916229,0.9999999403953552,3.7250931654853048e-06,-2.235988176835235e-06,3.8285057257780863e-07,0.0002647978253662586,0.0002667302906047553,-0.00010453863069415092,-0.0017188735073432326,0.00416669063270092,-0.00013016900629736483,-0.4073064923286438,0.7036636471748352,0.4504093527793884,0.7904800176620483,0.09264808893203735,-5.540907859802246,0.4591929018497467,0.6501922607421875,0.42000001668930054,-0.701582133769989,3.0,-0.6241346597671509,-3.000000476837158,-0.13364537060260773,-0.14137513935565948,-0.1490633636713028,-0.15636403858661652,-1.0030194520950317,-1.0022786855697632,-1.001719355583191,-1.001273274421692
0.31666666666666665,0.0633435994386673,0.14349284768104553,0.0,0.9109974503517151,0.0,0.0,-0.41241204738616943,-0.2756611406803131,-0.2258778065443039,0.0,0.0,0.0,0.7298129796981812,-0.3871045708656311,0.7031260132789612,0.4200000464916229,0.9999999403953552,3.557828677003272e-06,-2.2787926354794763e-06,2.2831554247204622e-07,0.0002659866586327553,0.0002665854699444026,-0.00010399054735898972,-0.0017240922898054123,0.004193658474832773,-0.00012769893510267138,-0.401994526386261,0.7058961987495422,0.41801899671554565,0.144016295671463,0.17564058303833008,-0.02982814610004425,0.4591929018497467,0.6501922607421875,0.42000001668930054,-0.6516925692558289,2.973144054412842,-0.6747159361839294,-2.873757839202881,-0.1440800279378891,-0.15197816491127014,-0.15964801609516144,-0.166698157787323,-0.3793882429599762,-0.3815227150917053,-0.3617360293865204,-0.3174869120121002
0.3333333333333333,0.05558329448103905,0.13891306519508362,0.0,0.9208593368530273,0.0,0.0,-0.3898949921131134,-0.5386337637901306,-0.3018684387207031,0.0,0.0,0.0,4.241352558135986,-0.38703906536102295,0.7034550905227661,0.4200036823749542,0.9999858736991882,1.6824212707433617e-06,-0.00010442594066262245,-0.005295849405229092,0.019598092883825302,0.121381975710392,-0.005198485683649778,-0.07217760384082794,0.3496949076652527,-4.1899285316467285,-0.40147337317466736,0.7099196910858154,0.42308881878852844,0.02458227425813675,0.12435853481292725,-0.16835056245326996,0.4591929018497467,0.6501922607421875,0.42000001668930054,-0.6016839146614075,2.9999325275421143,-0.7247555255889893,-3.000096559524536,-0.15344010293483734,-0.16013380885124207,-0.16628888249397278,-0.17151811718940735,-0.6528903841972351,-0.5466082692146301,-0.4257727861404419,-0.29227131605148315
0.35,0.04703186824917793,0.13113674521446228,0.0,0.9245797991752625,0.0,0.0,-0.3809884786605835,-0.5298592448234558,-0.5186289548873901,0.0,0.0,0.0,0.14679524302482605,-0.38646796345710754,0.705455482006073,0.42000022530555725,0.9996106028556824,-9.538140147924423e-06,-1.3614931049232837e-06,-0.0279026310890913,0.014438483864068985,0.08911854028701782,-0.0003927437064703554,0.02059258706867695,-0.0017296670703217387,-1.839835524559021,-0.3985767960548401,0.7101239562034607,0.42025548219680786,0.3722343146800995,-0.028697341680526733,-0.18019762635231018,0.4591929018497467,0.6501922607421875,0.42000001668930054,-0.5516788959503174,2.9999916553497314,-0.7747970819473267,-2.9999160766601562,-0.16171297430992126,-0.16676883399486542,-0.17089784145355225,-0.1737571805715561,-0.49227389693260193,-0.36844223737716675,-0.21878482401371002,-0.047315195202827454
0.36666666666666664,0.03646935895085335,0.12093772739171982,0.0,0.9164093136787415,0.0,0.0,-0.400242418050766,-0.6806076765060425,-0.6515864729881287,0.0,0.0,0.0,-3.421746253967285,-0.3829396367073059,0.7106871604919434,0.4200013279914856,0.9970704913139343,2.4424331058980897e-05,4.324343171902001e-05,-0.0764879658818245,0.32609909772872925,0.4907150864601135,-0.0021400442346930504,-0.01738140918314457,-0.0788542777299881,-11.994049072265625,-0.39043712615966797,0.7146658897399902,0.4204411804676056,0.6667952537536621,0.5753298997879028,0.08804033696651459,0.4591929018497467,0.6501922607421875,0.42000001668930054,-0.5016682147979736,2.9999990463256836,-0.8248006701469421,-2.9999635219573975,-0.1697978377342224,-0.17277051508426666,-0.17432764172554016,-0.17420542240142822,-0.43756258487701416,-0.3140736520290375,-0.16139402985572815,0.015397433191537857
0.3833333333333333,0.023174116387963295,0.10841776430606842,0.0,0.8956419229507446,0.0,0.0,-0.44477590918540955,-0.8531926274299622,-0.7933812737464905,0.0,0.0,0.0,-6.7798285484313965,-0.3713560998439789,0.7254593968391418,0.4203193187713623,0.9839544892311096,-0.000714419933501631,-0.007615098264068365,-0.17825505137443542,1.0668556690216064,1.301569938659668,0.09047932177782059,-0.3692355453968048,-3.7910141944885254,-4.845034599304199,-0.3750867545604706,0.7288636565208435,0.4223000407218933,1.1941354274749756,1.1709754467010498,0.11994911730289459,0.4591929018497467,0.6501922607421875,0.42000001668930054,-0.4516296684741974,2.999887228012085,-0.8748138546943665,-2.9999704360961914,-0.17662829160690308,-0.17760957777500153,-0.17663849890232086,-0.1735454648733139,-0.3505765199661255,-0.23534147441387177,-0.08830384910106659,0.08472001552581787
0.4,0.012174438685178757,0.09309074282646179,0.0,0.8602798581123352,0.0,0.0,-0.5098220705986023,-0.5798687934875488,-0.9658167958259583,0.0,0.0,0.0,-9.58872127532959,-0.33607712388038635,0.7553554177284241,0.42291831970214844,0.9737114906311035,0.027653848752379417,-0.0453336201608181,-0.2215082347393036,3.159515619277954,2.221724271774292,0.28728097677230835,12.012542724609375,-7.387729167938232,-3.902346611022949,-0.33849865198135376,0.7573384642601013,0.42456620931625366,3.1635096073150635,2.2883195877075195,0.2842240631580353,0.4591929018497467,0.6501922607421875,0.42000001668930054,-0.40375369787216187,2.274773597717285,-0.8822208046913147,1.7057863473892212,-0.18444867432117462,-0.18266776204109192,-0.17849357426166534,-0.17188476026058197,-0.4961579740047455,-0.3074996769428253,-0.09807116538286209,0.12371344864368439
0.4166666666666667,0.004415965639054775,0.08201445639133453,0.0,0.8067955374717712,0.0,0.0,-0.5908307433128357,-0.39080458879470825,-0.65483158826828,0.0,0.0,0.0,-12.387505531311035,-0.2572212815284729,0.798059344291687,0.42794084548950195,0.94880211353302,0.09371481835842133,-0.09315428882837296,-0.2869044542312622,6.252956867218018,2.8121426105499268,0.2797401249408722,16.63069725036621,-16.102025985717773,7.340912342071533,-0.2590772807598114,0.8010101318359375,0.4296480715274811,5.883666515350342,3.0414724349975586,0.4233068823814392,0.4591929018497467,0.6501922607421875,0.42000001668930054,-0.3806586265563965,1.0433491468429565,-0.8326132297515869,2.9980201721191406,-0.19729407131671906,-0.19263750314712524,-0.18399052321910858,-0.17305688560009003,-0.5208134651184082,-0.5041756629943848,-0.29193568229675293,-0.09384448826313019
0.43333333333333335,0.0003489999508019537,0.07393015176057816,0.0,0.7616176009178162,0.0,0.0,-0.6480267643928528,-0.1934133619070053,-0.4196149408817291,0.0,0.0,0.0,-7.615931510925293,-0.15655744075775146,0.8422757983207703,0.43669554591178894,0.9105277061462402,0.10924391448497772,-0.1300749033689499,-0.37694230675697327,6.190488338470459,2.1146371364593506,0.6108290553092957,36.180057525634766,-1.688616156578064,2.742058038711548,-0.15955333411693573,0.847093939781189,0.43789055943489075,6.243808746337891,2.3518714904785156,0.5544520616531372,0.4591929018497467,0.6501922607421875,0.42000001668930054,-0.3661978244781494,0.7780075669288635,-0.8593264818191528,-3.000002861022949,-0.20809297263622284,-0.2022138386964798,-0.18995603919029236,-0.1758355349302292,-0.6318137049674988,-0.5405886769294739,-0.3443199396133423,-0.17882393300533295
0.45,-0.005562792997807264,0.06254936009645462,0.0,0.7364951968193054,0.0,0.0,-0.6764427423477173,-0.3453048765659332,-0.6225020289421082,0.0,0.0,0.0,-3.2590014934539795,-0.05066117271780968,0.8691370487213135,0.448544979095459,0.8500334024429321,0.1039554551243782,-0.1312521994113922,-0.4994088113307953,6.4254655838012695,0.1477910578250885,0.6099247336387634,-1.7882647514343262,-17.69745445251465,9.327448844909668,-0.05504179000854492,0.875968337059021,0.44813865423202515,6.528923511505127,0.9775011539459229,0.8130546808242798,0.4591929018497467,0.6501922607421875,0.42000001668930054,-0.3521989583969116,0.802578330039978,-0.9093504548072815,-3.0000035762786865,-0.21914920210838318,-0.21035455167293549,-0.19399206340312958,-0.17635482549667358,-0.9344924688339233,-0.6579260230064392,-0.3395215570926666,-0.061801761388778687
0.4666666666666667,-0.008956534788012505,0.050002507865428925,0.0,0.7047203183174133,0.0,0.0,-0.7094852328300476,-0.14293760061264038,-0.8465322256088257,0.0,0.0,0.0,-6.332427501678467,0.05483480915427208,0.8690383434295654,0.45684051513671875,0.7866341471672058,0.0692388191819191,-0.15720738470554352,-0.5930415987968445,6.09505033493042,-1.2384010553359985,0.5096307992935181,-5.237829685211182,-22.68487548828125,4.585036754608154,0.05022401735186577,0.878317654132843,0.4587112367153168,6.367469787597656,-0.6172433495521545,0.6196919679641724,0.4591929018497467,0.6501922607421875,0.42000001668930054,-0.3377529978752136,0.8077297210693359,-0.9593744874000549,-3.0000040531158447,-0.2349826693534851,-0.2221948802471161,-0.19980353116989136,-0.17682301998138428,-0.8959090113639832,-0.6362711787223816,-0.27202513813972473,0.05457393452525139
0.48333333333333334,-0.00984102301299572,0.041818078607320786,0.0,0.6844897270202637,0.0,0.0,-0.7290225028991699,-0.05561043322086334,-0.46596601605415344,0.0,0.0,0.0,-2.114621162414551,0.1522735208272934,0.8481646776199341,0.4670649766921997,0.7276523113250732,0.08673903346061707,-0.10590536147356033,-0.6721476316452026,5.435821056365967,-2.4161386489868164,0.3728085160255432,1.7099322080612183,-17.451635360717773,29.54046058654785,0.14973695576190948,0.858607828617096,0.46743538975715637,5.715934753417969,-1.5711885690689087,0.5626837015151978,0.4591929018497467,0.6501922607421875,0.42000001668930054,-0.32578688859939575,0.4994397759437561,-1.009398102760315,-3.000001907348633,-0.23995982110500336,-0.23665842413902283,-0.20955123007297516,-0.18100276589393616,-0.03500112518668175,-0.586128830909729,-0.4898701608181,-0.24482561647891998
0.5,-0.0078887315467,0.03637700900435448,0.0,0.6579983234405518,0.0,0.0,-0.753019392490387,0.19112659990787506,-0.2893894612789154,0.0,0.0,0.0,-5.128903865814209,0.2388932853937149,0.8178855776786804,0.4681140184402466,0.6837194561958313,0.02738240733742714,-0.1370149701833725,-0.7162434458732605,4.332017421722412,-2.4245011806488037,0.20656892657279968,-0.9008663892745972,11.184558868408203,22.375659942626953,0.2366926372051239,0.8285471796989441,0.471746563911438,4.996429443359375,-2.1700682640075684,0.04091663286089897,0.4591929018497467,0.6501922607421875,0.42000001668930054,-0.31809476017951965,0.4758848249912262,-1.0594202280044556,-2.999403476715088,-0.23996569216251373,-0.23989664018154144,-0.2165851891040802,-0.18507738411426544,0.011258328333497047,0.04254947602748871,-0.3034099042415619,-0.18382854759693146
0.5166666666666666,-0.006849621422588825,0.03390510007739067,0.0,0.6468122005462646,0.0,0.0,-0.7626492977142334,0.013583622872829437,-0.09000357985496521,0.0,0.0,0.0,-0.6583901643753052,0.31142476201057434,0.7786648869514465,0.46503373980522156,0.609045684337616,-0.044045206159353256,-0.14530853927135468,-0.7784656882286072,3.611060857772827,-2.835176944732666,-0.44553545117378235,-22.213346481323242,11.310392379760742,-4.03072452545166,0.3093288540840149,0.790744423866272,0.47110259532928467,3.8817853927612305,-2.399397850036621,-0.08264448493719101,0.4591929018497467,0.6501922607421875,0.42000001668930054,-0.3082014322280884,0.6688235998153687,-1.1094423532485962,-2.999265432357788,-0.23943431675434113,-0.2384680211544037,-0.2202676385641098,-0.18775881826877594,0.09859911352396011,0.16985344886779785,-0.11744022369384766,-0.12421207875013351
0.5333333333333333,-0.003946245182305574,0.02591562084853649,0.0,0.6255016922950745,0.0,0.0,-0.7802227735519409,0.23266708850860596,-0.6113555431365967,0.0,0.0,0.0,-4.344364166259766,0.3706321716308594,0.7399575114250183,0.45420587062835693,0.5366572141647339,-0.12950049340724945,-0.14903518557548523,-0.8203761577606201,3.3041934967041016,-2.1667027473449707,-0.6724928021430969,-2.658588171005249,5.318661212921143,-14.682631492614746,0.36894625425338745,0.7530248165130615,0.4633498787879944,3.2022595405578613,-2.2953014373779297,-0.7102494835853577,0.4591929018497467,0.6501922607421875,0.42000001668930054,-0.2945708632469177,0.9823024272918701,-1.1594644784927368,-3.0000007152557373,-0.23100760579109192,-0.2299652099609375,-0.21721933782100677,-0.18668505549430847,0.6731670498847961,0.6576864123344421,0.3319729268550873,0.14650782942771912
0.55,0.0007123658433556557,0.021272707730531693,0.0,0.6176269054412842,0.0,0.0,-0.7864712476730347,0.3028748035430908,-0.1435515284538269,0.0,0.0,0.0,-0.2225286364555359,0.4158061444759369,0.7026207447052002,0.4403630793094635,0.5012527108192444,-0.16498318314552307,-0.11928242444992065,-0.8410100936889648,2.1555733680725098,-2.540010690689087,-0.7903039455413818,-5.468983173370361,7.617831707000732,0.7693818211555481,0.41549065709114075,0.7153972387313843,0.44964903593063354,2.3639590740203857,-2.21307373046875,-0.9156097769737244,0.4591929018497467,0.6501922607421875,0.42000001668930054,-0.27847227454185486,0.7479106783866882,-1.1982011795043945,-1.7263096570968628,-0.2233106940984726,-0.22181165218353271,-0.2134084403514862,-0.18602484464645386,0.41889822483062744,0.4513241648674011,0.21969819068908691,0.004072419833391905
0.5666666666666667,0.0074032871052622795,0.021597156301140785,0.0,0.600716769695282,0.0,0.0,-0.7994619607925415,0.47356876730918884,0.01652218960225582,0.0,0.0,0.0,-3.3339359760284424,0.4479758143424988,0.6731336712837219,0.424972265958786,0.5021588802337646,-0.11981616914272308,-0.06744340807199478,-0.8537750840187073,1.4617010354995728,-1.3062291145324707,-0.32741886377334595,18.525625228881836,-16.413206100463867,4.590936660766602,0.44712182879447937,0.6836883425712585,0.4321761727333069,1.216749668121338,-1.4566289186477661,-0.5582971572875977,0.4591929018497467,0.6501922607421875,0.42000001668930054,-0.269074022769928,0.5752114653587341,-1.1625895500183105,2.997979164123535,-0.21510227024555206,-0.21389652788639069,-0.20957331359386444,-0.18661552667617798,0.6345473527908325,0.5695286989212036,0.31343311071395874,0.008445949293673038
0.5833333333333334,0.016455966979265213,0.01757785864174366,0.0,0.597781777381897,0.0,0.0,-0.8016588687896729,0.536654531955719,-0.24295128881931305,0.0,0.0,0.0,0.4892462193965912,0.46311047673225403,0.6574590802192688,0.42336195707321167,0.5091808438301086,-0.06217128410935402,0.007226555608212948,-0.8583805561065674,0.2520824074745178,-1.0391650199890137,0.35191717743873596,-1.5873510837554932,14.027148246765137,9.197771072387695,0.4611119031906128,0.6653729677200317,0.42797401547431946,0.320148229598999,-0.7014948129653931,0.19767871499061584,0.4591929018497467,0.6501922607421875,0.42000001668930054,-0.2566021978855133,0.7066554427146912,-1.184465765953064,-2.9979591369628906,-0.20211762189865112,-0.20232820510864258,-0.20212620496749878,-0.18459737300872803,0.6946790814399719,0.6294711828231812,0.426075279712677,0.1169765293598175
0.6,0.02309761382639408,0.017393561080098152,0.0,0.5841973423957825,0.0,0.0,-0.8116116523742676,0.3287242352962494,0.005214339587837458,0.0,0.0,0.0,-2.94411563873291,0.4676341712474823,0.6466665863990784,0.42252299189567566,0.5403070449829102,-0.04248207062482834,0.01966037228703499,-0.8401648998260498,0.0721760243177414,-0.8215660452842712,-0.09531103074550629,-2.1778523921966553,-4.525273323059082,5.766401767730713,0.46416616439819336,0.6540515422821045,0.426688551902771,0.11116902530193329,-0.48778122663497925,-0.07679899781942368,0.4591929018497467,0.6501922607421875,0.42000001668930054,-0.2659219205379486,-1.297004222869873,-1.1466052532196045,2.998368740081787,-0.19323624670505524,-0.19434277713298798,-0.19690272212028503,-0.18420524895191193,0.5858310461044312,0.5134721398353577,0.3540136218070984,0.05916641652584076
0.6166666666666667,0.030630312860012054,0.02033938467502594,0.0,0.5839893817901611,0.0,0.0,-0.8117612600326538,0.45889776945114136,0.22606411576271057,0.0,0.0,0.0,0.8898948431015015,0.46733057498931885,0.6391459107398987,0.421785444021225,0.5669772028923035,-0.03041451796889305,0.01325293630361557,-0.8230650424957275,-0.1256237030029297,-0.3075597286224365,-0.06790534406900406,0.07062090188264847,-2.5755980014801025,3.5516579151153564,0.46422117948532104,0.6487050652503967,0.4279857277870178,-0.07164230942726135,-0.14729884266853333,0.14461153745651245,0.4591929018497467,0.6501922607421875,0.42000001668930054,-0.29513099789619446,-2.1122100353240967,-1.1684218645095825,-2.9997007846832275,-0.18517528474330902,-0.1873791217803955,-0.19209186732769012,-0.1839168220758438,0.5075601935386658,0.4299088716506958,0.30881789326667786,0.04171280935406685
0.6333333333333333,0.03950546309351921,0.019391672685742378,0.0,0.6064520478248596,0.0,0.0,-0.7951200604438782,0.5466223359107971,-0.07551685720682144,0.0,0.0,0.0,4.360480308532715,0.46660301089286804,0.6369046568870544,0.42093655467033386,0.5775479078292847,-0.013938281685113907,0.01852542534470558,-0.8160275220870972,-0.14106734097003937,-0.09734265506267548,-0.11234050989151001,-0.5210124254226685,-4.854741096496582,4.389305591583252,0.4629659056663513,0.6499768495559692,0.43022555112838745,-0.17733131349086761,0.2074466347694397,0.14349445700645447,0.4591929018497467,0.6501922607421875,0.42000001668930054,-0.3320452868938446,-2.262794017791748,-1.218394160270691,-2.998504400253296,-0.17365941405296326,-0.17767435312271118,-0.18461818993091583,-0.18108229339122772,0.6285439729690552,0.5370228886604309,0.43200668692588806,0.1804148107767105
0.65,0.05012311786413193,0.01601228304207325,0.0,0.6153087019920349,0.0,0.0,-0.7882862687110901,0.6776902079582214,-0.2440718412399292,0.0,0.0,0.0,0.2868988513946533,0.463263601064682,0.6376100182533264,0.4200412631034851,0.584350049495697,0.00015798149979673326,-0.00018295322661288083,-0.8115015625953674,-0.14924782514572144,0.03514257073402405,-0.008565576747059822,-0.21863192319869995,0.31010931730270386,-0.6120054721832275,0.46132364869117737,0.6529743671417236,0.4324411153793335,-0.07671920210123062,0.1843816488981247,0.1018894761800766,0.4591929018497467,0.6501922607421875,0.42000001668930054,-0.38151147961616516,-3.0000011920928955,-1.23318612575531,0.8688005805015564,-0.16479629278182983,-0.16983036696910858,-0.17776446044445038,-0.17755582928657532,0.47862493991851807,0.44162389636039734,0.41727113723754883,0.25817760825157166
0.6666666666666666,0.06404337286949158,0.016206860542297363,0.0,0.634651780128479,0.0,0.0,-0.7727982401847839,0.8318430781364441,0.016051050275564194,0.0,0.0,0.0,3.7417008876800537,0.46180814504623413,0.637951672077179,0.4199998676776886,0.5823364853858948,2.596761760287336e-06,-5.250316462479532e-06,-0.8129478693008423,-0.06579098105430603,0.015147943049669266,-3.0885799787938595e-05,0.0018038467969745398,0.0008873436017893255,-0.21517139673233032,0.4600801169872284,0.6551156640052795,0.43789228796958923,0.05552545189857483,0.17300041019916534,0.5401197671890259,0.4591929018497467,0.6501922607421875,0.42000001668930054,-0.4315207004547119,-2.999999523162842,-1.270811915397644,-2.999999523162842,-0.1614876687526703,-0.16613377630710602,-0.17328141629695892,-0.17437629401683807,0.2914058268070221,0.29248541593551636,0.3332417905330658,0.26644501090049744
0.6833333333333333,0.07899858057498932,0.012635349296033382,0.0,0.6402592062950134,0.0,0.0,-0.7681589722633362,0.9288278818130493,-0.22539515793323517,0.0,0.0,0.0,-0.157165065407753,0.4615744352340698,0.6380059719085693,0.4200001358985901,0.582098126411438,1.4028244549990632e-05,-1.493314812250901e-05,-0.813118577003479,0.002156587317585945,-1.2416245226631872e-05,-0.0007305255858227611,-0.03244160860776901,0.020235463976860046,-0.005092006642371416,0.464661568403244,0.6576330065727234,0.4446282386779785,0.3841395974159241,0.018262706696987152,0.4203792214393616,0.4591929018497467,0.6501922607421875,0.42000001668930054,-0.4815337359905243,-3.000000238418579,-1.320830225944519,-2.9999988079071045,-0.15585702657699585,-0.16021664440631866,-0.1662774235010147,-0.16785813868045807,0.18817898631095886,0.25641554594039917,0.3760813772678375,0.40966910123825073
0.7,0.09556742012500763,0.006546841934323311,0.0,0.6225392818450928,0.0,0.0,-0.782588541507721,1.0247902870178223,-0.42971301078796387,0.0,0.0,0.0,-3.683781623840332,0.46157628297805786,0.638005256652832,0.4200000464916229,0.5820969939231873,2.4990310976136243e-07,-3.1949377898854436e-06,-0.8131192922592163,9.975962893804535e-05,-0.0002638944424688816,-8.743279613554478e-05,0.00627262843772769,-0.0014881975948810577,-0.0006625056266784668,0.47732067108154297,0.6577693223953247,0.45874202251434326,1.108062505722046,-0.009219445288181305,1.3827623128890991,0.4591929018497467,0.6501922607421875,0.42000001668930054,-0.5315462946891785,-2.99997878074646,-1.370848536491394,-2.9999990463256836,-0.15534865856170654,-0.15828543901443481,-0.16205130517482758,-0.16261957585811615,-0.04122781381011009,0.05271589383482933,0.1985163688659668,0.2756969630718231
0.7166666666666667,0.11454010009765625,0.004215607885271311,0.0,0.6172593235969543,0.0,0.0,-0.7867597341537476,1.1540253162384033,-0.1177743524312973,0.0,0.0,0.0,0.2162170261144638,0.46157628297805786,0.6380053162574768,0.4200000464916229,0.5820971131324768,2.5088775146286935e-07,-3.1914948976918822e-06,-0.8131191730499268,0.00010594270133879036,-0.00026724173221737146,-8.962862193584442e-05,0.006320076994597912,-0.0014528909232467413,-0.0006823320291005075,0.49850496649742126,0.6606521606445312,0.48853033781051636,1.4808430671691895,0.3674602508544922,2.157524347305298,0.4591929018497467,0.6501922607421875,0.42000001668930054,-0.5815505981445312,-2.999997854232788,-1.420866847038269,-2.999999761581421,-0.15831050276756287,-0.15990105271339417,-0.16150961816310883,-0.16094009578227997,-0.03832298517227173,-0.01954602636396885,0.04903610795736313,0.06902677565813065
0.7333333333333333,0.13033974170684814,0.004151924047619104,0.0,0.6362683176994324,0.0,0.0,-0.7714678049087524,0.8726738095283508,0.04221188649535179,0.0,0.0,0.0,3.7898523807525635,0.46157628297805786,0.6380053162574768,0.4200000464916229,0.5820969939231873,2.459442782765109e-07,-3.267867214162834e-06,-0.8131192922592163,0.00010520741489017382,-0.0002671180118340999,-8.950592018663883e-05,0.006321778520941734,-0.0014613261446356773,-0.0006803910946473479,0.5227072834968567,0.6658967733383179,0.5173473358154297,1.3718452453613281,0.31031396985054016,1.4068607091903687,0.4591929018497467,0.6501922607421875,0.42000001668930054,-0.6011337041854858,0.372574120759964,-1.470885157585144,-3.0,-0.15767182409763336,-0.15903745591640472,-0.15968862175941467,-0.1588851362466812,0.1059926301240921,0.1152203157544136,0.1615189164876938,0.16797567903995514
0.75,0.14135494828224182,-0.00010769965592771769,0.0,0.6422868967056274,0.0,0.0,-0.7664642930030823,0.6192768216133118,-0.2829242944717407,0.0,0.0,0.0,-0.09678798168897629,0.46157628297805786,0.6380053162574768,0.4200000464916229,0.582097053527832,2.9282816171871673e-07,-3.165385123793385e-06,-0.8131192922592163,0.00010537338675931096,-0.00026698142755776644,-8.952128700911999e-05,0.0063178278505802155,-0.0014577836263924837,-0.000680501398164779,0.5384121537208557,0.6724362373352051,0.5357367992401123,0.4781377613544464,0.33242952823638916,0.9561803340911865,0.4591929018497467,0.6501922607421875,0.42000001668930054,-0.6131848692893982,-1.6338268518447876,-1.4322422742843628,2.9999983310699463,-0.15331709384918213,-0.15485820174217224,-0.15518637001514435,-0.1546524614095688,0.12831789255142212,0.14798763394355774,0.187773197889328,0.19157423079013824
0.7666666666666666,0.14901241660118103,0.0003151155251543969,0.0,0.6585316061973572,0.0,0.0,-0.7525530457496643,0.4110819697380066,0.0344078503549099,0.0,0.0,0.0,3.3289732933044434,0.46157628297805786,0.638005256652832,0.4200000464916229,0.5820969343185425,3.0956999808040564e-07,-3.24757138514542e-06,-0.8131193518638611,0.00010594633931759745,-0.00026698297006078064,-8.968985639512539e-05,0.006314294412732124,-0.0014522918500006199,-0.0006818798137828708,0.5414047837257385,0.6766994595527649,0.5471913814544678,0.015831194818019867,0.2960813045501709,0.4536591172218323,0.4591929018497467,0.6501922607421875,0.42000001668930054,-0.6126911640167236,1.4283545017242432,-1.4497158527374268,-2.999999523162842,-0.15481440722942352,-0.15521128475666046,-0.15422192215919495,-0.15298517048358917,0.023319261148571968,0.0687914565205574,0.12159806489944458,0.14376017451286316
0.7833333333333333,0.1528908610343933,-0.003090605838224292,0.0,0.6608010530471802,0.0,0.0,-0.7505611181259155,0.17048640549182892,-0.25780606269836426,0.0,0.0,0.0,-0.6560145616531372,0.46157628297805786,0.6380053162574768,0.4200000464916229,0.582097053527832,2.6119769813703897e-07,-3.2437965273857117e-06,-0.8131192326545715,0.00010534834291320294,-0.000267347670160234,-8.948636241257191e-05,0.006326127797365189,-0.0014600418508052826,-0.000681126955896616,0.5343829393386841,0.6832852959632874,0.5497609972953796,-0.8605218529701233,0.4428497552871704,0.034074537456035614,0.4591929018497467,0.6501922607421875,0.42000001668930054,-0.6132618188858032,-1.2633681297302246,-1.4111374616622925,3.000000238418579,-0.15354545414447784,-0.1534455418586731,-0.1519089639186859,-0.15055905282497406,0.058071114122867584,0.08802904188632965,0.11570112407207489,0.11970233917236328
0.8,0.15521931648254395,-0.002240570727735758,0.0,0.6736171245574951,0.0,0.0,-0.7390804290771484,0.07472077012062073,0.019214462488889694,0.0,0.0,0.0,2.596043825149536,0.46157628297805786,0.6380053162574768,0.4200000464916229,0.5820971131324768,2.5261937253162614e-07,-3.3211065328941913e-06,-0.8131192326545715,0.00010525030666030943,-0.00026701539172790945,-8.949171751737595e-05,0.006319265812635422,-0.0014594894601032138,-0.0006802709540352225,0.520563542842865,0.6888973116874695,0.5497152209281921,-0.6569873094558716,0.4284915328025818,-0.05403071641921997,0.4591929018497467,0.6501922607421875,0.42000001668930054,-0.6074984669685364,1.6941825151443481,-1.4290378093719482,-3.0,-0.1556975394487381,-0.15457969903945923,-0.15211212635040283,-0.15016819536685944,0.07010528445243835,0.07664155215024948,0.08387573808431625,0.08338090032339096
0.8166666666666667,0.15768581628799438,-0.0047960649244487286,0.0,0.6720044016838074,0.0,0.0,-0.7405471801757812,0.19872574508190155,-0.20723958313465118,0.0,0.0,0.0,-1.1189690828323364,0.46157628297805786,0.6380053162574768,0.4200000464916229,0.5820969939231873,2.508334659978573e-07,-3.2133957574842498e-06,-0.8131193518638611,0.00010495262540644035,-0.0002671198162715882,-8.94374679774046e-05,0.006323284935206175,-0.0014639635337516665,-0.0006797933019697666,0.5068973898887634,0.6962974071502686,0.5454441905021667,-0.9899033308029175,0.3886447250843048,-0.2669464349746704,0.4591929018497467,0.6501922607421875,0.42000001668930054,-0.6205875873565674,-2.8583083152770996,-1.3905185461044312,3.000000238418579,-0.1554592400789261,-0.15420331060886383,-0.15159887075424194,-0.1495715230703354,-0.032837990671396255,-0.015449066646397114,1.418811734765768e-08,0.014059638604521751
0.8333333333333334,0.16304583847522736,-0.006478298455476761,0.0,0.6813209056854248,0.0,0.0,-0.7319848537445068,0.3640314042568207,-0.09228963404893875,0.0,0.0,0.0,2.3106603622436523,0.46157628297805786,0.6380053162574768,0.4200000464916229,0.5820969939231873,2.6357415094935277e-07,-3.2895741242100485e-06,-0.8131192326545715,0.00010512844164622948,-0.00026704726042225957,-8.946540765464306e-05,0.006320717744529247,-0.001461030449718237,-0.000680049299262464,0.4952004849910736,0.7012701034545898,0.5435164570808411,-0.37787461280822754,0.30397331714630127,0.0543636754155159,0.4591929018497467,0.6501922607421875,0.42000001668930054,-0.6366402506828308,0.6421930193901062,-1.4088214635849,-2.999999761581421,-0.15748484432697296,-0.15552528202533722,-0.15219396352767944,-0.14935337007045746,-0.05252254754304886,-0.022655120119452477,0.014250412583351135,0.0652812048792839
0.85,0.17009109258651733,-0.010292976163327694,0.0,0.6784411668777466,0.0,0.0,-0.7346547245979309,0.46535706520080566,-0.29158127307891846,0.0,0.0,0.0,-1.382248044013977,0.46157628297805786,0.6380053162574768,0.4200000464916229,0.582097053527832,3.104743768744811e-07,-3.187125230397214e-06,-0.8131192326545715,0.00010537228808971122,-0.00026697959401644766,-8.951895870268345e-05,0.006317640654742718,-0.0014578573172912002,-0.0006804979057051241,0.4892294406890869,0.7042243480682373,0.5428794622421265,-0.33293813467025757,0.03740315139293671,0.04705318808555603,0.4591929018497467,0.6501922607421875,0.42000001668930054,-0.6625402569770813,-3.0000007152557373,-1.3703598976135254,2.999999761581421,-0.15998917818069458,-0.15710705518722534,-0.15272104740142822,-0.14854611456394196,-0.17608773708343506,-0.10148375481367111,-0.019386205822229385,0.08087034523487091
0.8666666666666667,0.17977996170520782,-0.012525616213679314,0.0,0.6548494100570679,0.0,0.0,-0.7557594180107117,0.6260210871696472,-0.03767296299338341,0.0,0.0,0.0,-4.574456691741943,0.46157628297805786,0.6380053162574768,0.4200000464916229,0.5820971131324768,2.423857665689866e-07,-3.261429810663685e-06,-0.8131192326545715,0.00010499857307877392,-0.0002670739486347884,-8.943071588873863e-05,0.006322131026536226,-0.0014625921612605453,-0.000679782300721854,0.49164313077926636,0.7059875726699829,0.5468063354492188,0.5576827526092529,0.15430164337158203,0.5677893161773682,0.4591929018497467,0.6501922607421875,0.42000001668930054,-0.6822645664215088,0.3584323227405548,-1.3890581130981445,-3.0,-0.16380038857460022,-0.15994837880134583,-0.154403954744339,-0.14868097007274628,-0.20432914793491364,-0.16670987010002136,-0.11465668678283691,-0.034913815557956696
0.8833333333333333,0.1872861534357071,-0.01222460437566042,0.0,0.6455748081207275,0.0,0.0,-0.7636970281600952,0.37629589438438416,0.14094963669776917,0.0,0.0,0.0,-0.4452724754810333,0.46157628297805786,0.6380053162574768,0.4200000464916229,0.5820969939231873,2.556467677550245e-07,-3.151710416204878e-06,-0.8131193518638611,0.00010470012784935534,-0.00026719082961790264,-8.937879465520382e-05,0.006326544564217329,-0.0014671457465738058,-0.0006793200736865401,0.49839121103286743,0.7122081518173218,0.5599825382232666,0.255637526512146,0.5494105815887451,0.9582697153091431,0.4591929018497467,0.6501922607421875,0.42000001668930054,-0.6515352725982666,2.999985933303833,-1.3523579835891724,3.000000238418579,-0.16508491337299347,-0.16134731471538544,-0.15576398372650146,-0.14960289001464844,-0.053788650780916214,-0.09122886508703232,-0.12482423335313797,-0.13873633742332458
