vladlanda/robotic-transformer/data/env_000_episode_0071.csv
sim_time_s,robot_box_x,robot_box_y,robot_box_z,robot_box_quat_w,robot_box_quat_x,robot_box_quat_y,robot_box_quat_z,robot_box_linvel_x,robot_box_linvel_y,robot_box_linvel_z,robot_box_angvel_x,robot_box_angvel_y,robot_box_angvel_z,cube_world_x,cube_world_y,cube_world_z,cube_quat_w,cube_quat_x,cube_quat_y,cube_quat_z,cube_linvel_x,cube_linvel_y,cube_linvel_z,cube_angvel_x,cube_angvel_y,cube_angvel_z,endpoint_world_x,endpoint_world_y,endpoint_world_z,endpoint_linvel_x,endpoint_linvel_y,endpoint_linvel_z,target_cube_world_x,target_cube_world_y,target_cube_world_z,gripper_actual_pos_rad_gp_leftgearjoint,gripper_actual_vel_rad_s_gp_leftgearjoint,gripper_actual_pos_rad_gp_rotatingjoint,gripper_actual_vel_rad_s_gp_rotatingjoint,motor_angle_rad_joint1,motor_angle_rad_joint2,motor_angle_rad_joint3,motor_angle_rad_joint4,motor_speed_rad_s_joint1,motor_speed_rad_s_joint2,motor_speed_rad_s_joint3,motor_speed_rad_s_joint4
0.0,0.0,0.0,0.0,1.0,0.0,0.0,0.0,0.0,0.0,0.0,0.0,0.0,0.0,-0.4366875886917114,0.7446122765541077,0.41999998688697815,1.0,0.0,0.0,0.0,0.0,0.0,0.0,0.0,0.0,0.0,3.42540442943573e-06,-0.005000244826078415,1.313499927520752,0.0,0.0,0.0,0.4180528223514557,0.7279468774795532,0.42000001668930054,-1.5707999467849731,0.0,0.0,0.0,0.0,0.0,0.0,0.0,0.0,0.0,0.0,0.0
0.016666666666666666,0.0028778850100934505,0.0021806680597364902,0.0,0.9998081922531128,0.0,0.0,0.019586581736803055,0.24087215960025787,0.18240931630134583,0.0,0.0,0.0,3.1418697834014893,-0.436687707901001,0.7446119785308838,0.41999998688697815,1.0,3.279964630564791e-06,-8.339746386809566e-07,8.465587342243452e-08,-1.9833529222523794e-05,0.00017983045836444944,-6.132945418357849e-05,0.0009432713268324733,-0.004689474124461412,-0.00031981561915017664,-0.007110234349966049,0.003379564033821225,1.3159373998641968,-0.8143353462219238,0.9868683815002441,0.18095196783542633,0.4180528223514557,0.7279468774795532,0.42000001668930054,-1.5301095247268677,3.0000011920928955,-0.04584788903594017,-2.9999992847442627,0.0008691533003002405,0.0007963840034790337,0.0007110277656465769,0.0006108740926720202,0.11094217747449875,0.09756709635257721,0.08334315568208694,0.06823883205652237
0.03333333333333333,0.008960995823144913,0.006802013143897057,0.0,0.9997960329055786,0.0,0.0,0.02019684761762619,0.4070223867893219,0.31530794501304626,0.0,0.0,0.0,-0.8691326379776001,-0.4366878271102905,0.744611918926239,0.4200000464916229,1.0,3.3908477234945167e-06,-2.1324151475710096e-06,-3.7116176798690503e-08,0.00026357846218161285,0.0002693776914384216,-0.00010509602725505829,-0.0017706857761368155,0.004130810499191284,-0.0001354778796667233,-0.02755577117204666,0.026272039860486984,1.3165847063064575,-1.591330647468567,1.616246223449707,-0.0865079015493393,0.4180528223514557,0.7279468774795532,0.42000001668930054,-1.4800904989242554,3.0000009536743164,-0.09588772058486938,-3.0000009536743164,0.0029900965746492147,0.0026526986621320248,0.0022772608790546656,0.0018607088131830096,0.16421307623386383,0.13975635170936584,0.1138148084282875,0.08629640191793442
0.05,0.017663821578025818,0.013754032552242279,0.0,0.9994040131568909,0.0,0.0,0.03452049568295479,0.5916414260864258,0.464467853307724,0.0,0.0,0.0,2.6625373363494873,-0.4366878569126129,0.7446119785308838,0.4200000464916229,1.0,3.765178917092271e-06,-2.2119245386420516e-06,5.606314079642516e-09,0.00026530868490226567,0.0002669158566277474,-0.0001044049859046936,-0.0017243095207959414,0.004177443217486143,-0.00012949752272106707,-0.05964667350053787,0.05472923815250397,1.311401605606079,-2.1869564056396484,1.8200092315673828,-0.49661239981651306,0.4180528223514557,0.7279468774795532,0.42000001668930054,-1.4300721883773804,2.999999523162842,-0.14592638611793518,-3.0000016689300537,0.005675232969224453,0.004884778987616301,0.004022244364023209,0.003083063755184412,0.19209805130958557,0.1551898717880249,0.11641343683004379,0.07567723095417023
0.06666666666666667,0.028944889083504677,0.023037543520331383,0.0,0.9994708299636841,0.0,0.0,0.03252803534269333,0.7183213233947754,0.5946521162986755,0.0,0.0,0.0,-1.197261929512024,-0.4366878569126129,0.744611918926239,0.4200000464916229,0.9999999403953552,3.406791165616596e-06,-2.2856313535157824e-06,4.300777334265149e-07,0.00026702677132561803,0.00026791825075633824,-0.0001043803058564663,-0.0017406195402145386,0.00421179411932826,-0.00012850826897192746,-0.09597088396549225,0.0904993787407875,1.2991104125976562,-2.2058544158935547,2.3540780544281006,-0.9497846364974976,0.4180528223514557,0.7279468774795532,0.42000001668930054,-1.3800538778305054,3.0000009536743164,-0.19596369564533234,-2.999999523162842,0.008016593754291534,0.006453591398894787,0.004779806826263666,0.002988753840327263,0.1234360784292221,0.06380988657474518,0.0021189574617892504,-0.06168046593666077
0.08333333333333333,0.034462571144104004,0.03564700111746788,0.0,0.9999997615814209,0.0,0.0,-0.0006689098663628101,0.1864364892244339,0.8252682089805603,0.0,0.0,0.0,-4.921411037445068,-0.4366878569126129,0.744611918926239,0.4200000464916229,0.9999999403953552,3.6260698834666982e-06,-2.335327053515357e-06,3.032084521237266e-07,0.00026613925001583993,0.00026685016928240657,-0.00010405108332633972,-0.001728382776491344,0.004196322523057461,-0.00012790641630999744,-0.13040445744991302,0.13392457365989685,1.2794997692108154,-1.9822381734848022,2.728882312774658,-1.321935772895813,0.4180528223514557,0.7279468774795532,0.42000001668930054,-1.3300267457962036,3.000000238418579,-0.17511086165905,3.0000014305114746,0.004523112438619137,0.0022516250610351562,-0.00018190333503298461,-0.0027875304222106934,-0.31716981530189514,-0.3643999993801117,-0.41425034403800964,-0.4669736325740814
0.1,0.044167183339595795,0.049660276621580124,0.0,0.9997985363006592,0.0,0.0,-0.020073043182492256,0.6826338171958923,0.852389931678772,0.0,0.0,0.0,-0.9020891189575195,-0.4366878569126129,0.744611918926239,0.4200000464916229,1.0,3.4221220630570315e-06,-2.308592684130417e-06,1.7961252751774737e-07,0.0002668163215275854,0.00026800521300174296,-0.00010440708138048649,-0.0017430817242711782,0.0042070625349879265,-0.00012890611833427101,-0.16509798169136047,0.17645055055618286,1.259541392326355,-2.0776164531707764,2.5828311443328857,-1.1814205646514893,0.4180528223514557,0.7279468774795532,0.42000001668930054,-1.2800310850143433,2.9999985694885254,-0.20671191811561584,-3.000000476837158,0.004216779954731464,0.00034422523458488286,-0.003687172196805477,-0.007887817919254303,0.005045754835009575,-0.10210161656141281,-0.20836403965950012,-0.3136429488658905
0.11666666666666667,0.05179065465927124,0.0658206045627594,0.0,0.998807966709137,0.0,0.0,-0.04881185293197632,0.46331852674484253,1.0296663045883179,0.0,0.0,0.0,-4.122714519500732,-0.4366878569126129,0.7446119785308838,0.4200000464916229,1.0,3.7114953101990977e-06,-2.3327368126047077e-06,2.574126938270638e-07,0.0002648562949616462,0.0002663532504811883,-0.00010423408821225166,-0.0017183172749355435,0.004170157015323639,-0.0001291559310629964,-0.19671612977981567,0.22465237975120544,1.2397217750549316,-1.728333592414856,3.19840407371521,-1.1718881130218506,0.4180528223514557,0.7279468774795532,0.42000001668930054,-1.2300074100494385,2.9999916553497314,-0.17288650572299957,2.9999992847442627,0.0021119031589478254,-0.003639232600107789,-0.009521962143480778,-0.015544895082712173,-0.07578478008508682,-0.20770969986915588,-0.3364780843257904,-0.46184608340263367
0.13333333333333333,0.05706227943301201,0.08135342597961426,0.0,0.9946953058242798,0.0,0.0,-0.10286527127027512,0.26030513644218445,0.8534759879112244,0.0,0.0,0.0,-7.332674026489258,-0.4366878569126129,0.744611918926239,0.4200000464916229,0.9999999403953552,3.4247075291204965e-06,-2.30203545470431e-06,1.5598085667534178e-07,0.0002670704561751336,0.00026811397401615977,-0.00010444503277540207,-0.001743327477015555,0.004212008323520422,-0.00012877430708613247,-0.22546285390853882,0.27947813272476196,1.2198560237884521,-1.692873477935791,3.4178717136383057,-1.273701548576355,0.4180528223514557,0.7279468774795532,0.42000001668930054,-1.195778250694275,1.2311609983444214,-0.20454682409763336,-3.0,-0.00014438155631069094,-0.008052210323512554,-0.016023699194192886,-0.02406313456594944,-0.20344233512878418,-0.32051146030426025,-0.4333813786506653,-0.5418387651443481
0.15,0.05867045372724533,0.09713559597730637,0.0,0.9907246232032776,0.0,0.0,-0.13588498532772064,0.025827080011367798,0.9841510057449341,0.0,0.0,0.0,-2.9187002182006836,-0.4366878569126129,0.744611918926239,0.4200000464916229,1.0,3.7138861443963833e-06,-2.2079179871070664e-06,-1.691132354153524e-07,0.0002635323617141694,0.00026536022778600454,-0.00010421965271234512,-0.001701295142993331,0.0041441405192017555,-0.00012960679305251688,-0.26276013255119324,0.33437225222587585,1.1929006576538086,-2.3474020957946777,3.521332263946533,-1.9563796520233154,0.4180528223514557,0.7279468774795532,0.42000001668930054,-1.1533198356628418,2.999999761581421,-0.22124280035495758,0.6875219345092773,-0.004809977486729622,-0.014278010465204716,-0.023729398846626282,-0.03316609933972359,-0.34554141759872437,-0.4149440824985504,-0.4797276556491852,-0.5398728251457214
0.16666666666666666,0.06498389691114426,0.11087881028652191,0.0,0.9832015037536621,0.0,0.0,-0.18252338469028473,0.44864776730537415,0.7578951120376587,0.0,0.0,0.0,-6.346226692199707,-0.4366878569126129,0.744611918926239,0.4200000464916229,0.9999999403953552,3.6383873975864844e-06,-2.278850388393039e-06,2.7004381308870506e-07,0.0002668264205567539,0.00026750037795864046,-0.00010410160757601261,-0.001739899511449039,0.004210035782307386,-0.0001278175914194435,-0.2987241744995117,0.3962215185165405,1.1584477424621582,-1.9047045707702637,4.01326322555542,-2.2594351768493652,0.4180528223514557,0.7279468774795532,0.42000001668930054,-1.1052159070968628,2.7507593631744385,-0.26427632570266724,-2.9999983310699463,-0.008765543811023235,-0.019551744684576988,-0.030241072177886963,-0.040835484862327576,-0.40706971287727356,-0.460339218378067,-0.5105143189430237,-0.5575873255729675
0.18333333333333332,0.06600283086299896,0.12554463744163513,0.0,0.9778798818588257,0.0,0.0,-0.20916733145713806,0.04463484510779381,0.8799528479576111,0.0,0.0,0.0,-2.153602361679077,-0.4366878569126129,0.744611918926239,0.4200000464916229,1.0,3.3864146189444e-06,-2.300287860634853e-06,1.4390711555734015e-07,0.0002667455992195755,0.0002678711898624897,-0.00010436843149363995,-0.0017411891603842378,0.004205980338156223,-0.00012878818961326033,-0.3345981240272522,0.4590662121772766,1.1112394332885742,-2.029207706451416,3.965090751647949,-3.2174599170684814,0.4180528223514557,0.7279468774795532,0.42000001668930054,-1.069796085357666,1.5722938776016235,-0.3143039345741272,-3.000000238418579,-0.022608093917369843,-0.03309287503361702,-0.04347284510731697,-0.05376086011528969,-0.7810332179069519,-0.7621271014213562,-0.7416127920150757,-0.7200301885604858
0.2,0.06410028040409088,0.14178019762039185,0.0,0.9689052104949951,0.0,0.0,-0.24743220210075378,-0.1928415149450302,1.0174297094345093,0.0,0.0,0.0,-5.586759567260742,-0.4366878569126129,0.7446119785308838,0.4200000464916229,1.0,3.6755382097908296e-06,-2.32657180276874e-06,2.211032636978416e-07,0.00026484476984478533,0.00026631413493305445,-0.00010421779006719589,-0.0017177412519231439,0.00416988180950284,-0.0001290992076974362,-0.36852675676345825,0.526923418045044,1.0516166687011719,-1.8340837955474854,4.1849188804626465,-3.941413640975952,0.4180528223514557,0.7279468774795532,0.42000001668930054,-1.0230908393859863,3.0000009536743164,-0.36432939767837524,-2.9999988079071045,-0.03737286850810051,-0.04733629524707794,-0.05716262012720108,-0.06687529385089874,-0.9483776688575745,-0.9039739966392517,-0.8579866290092468,-0.8110701441764832
0.21666666666666667,0.06738346815109253,0.15345501899719238,0.0,0.96318519115448,0.0,0.0,-0.2688387632369995,0.26048383116722107,0.6846085786819458,0.0,0.0,0.0,-1.5402207374572754,-0.4366878569126129,0.744611918926239,0.4200000464916229,1.0,3.3222745514649432e-06,-2.208058276664815e-06,2.742532672073139e-07,0.0002666293294169009,0.000267496972810477,-0.0001042631920427084,-0.00173582520801574,0.004204846918582916,-0.0001283418241655454,-0.4012230634689331,0.5912640690803528,0.9792660474777222,-1.6512367725372314,3.7993664741516113,-4.8258843421936035,0.4180528223514557,0.7279468774795532,0.42000001668930054,-0.973088264465332,3.000000476837158,-0.4143558144569397,-2.9999961853027344,-0.048893094062805176,-0.058106038719415665,-0.06716786324977875,-0.07611393183469772,-0.8797677159309387,-0.7883917093276978,-0.699259877204895,-0.6133702397346497
0.23333333333333334,0.065546415746212,0.1688668131828308,0.0,0.9528859853744507,0.0,0.0,-0.3033287525177002,-0.1285380870103836,0.8706474304199219,0.0,0.0,0.0,-5.047618389129639,-0.4366878569126129,0.744611918926239,0.4200000464916229,1.0,3.656448598121642e-06,-2.3734667138342047e-06,-4.076868265201483e-07,0.00026611698558554053,0.00026726056239567697,-0.00010423315688967705,-0.0017334865406155586,0.004194590263068676,-0.00012855575187131763,-0.4253592789173126,0.6490092277526855,0.8915607333183289,-1.2188657522201538,3.3160438537597656,-5.455543518066406,0.4180528223514557,0.7279468774795532,0.42000001668930054,-0.9230784773826599,2.9999964237213135,-0.46438440680503845,-3.000002145767212,-0.06441200524568558,-0.07372971624135971,-0.08284295350313187,-0.09176464378833771,-0.6458954215049744,-0.7033370137214661,-0.7578281760215759,-0.8071605563163757
0.25,0.0680295005440712,0.17845220863819122,0.0,0.9478548169136047,0.0,0.0,-0.31870242953300476,0.17493698000907898,0.48068496584892273,0.0,0.0,0.0,-0.8000190258026123,-0.4366878569126129,0.7446119785308838,0.4200000464916229,1.0,3.630453193181893e-06,-2.2426670511777047e-06,1.1200068428252052e-08,0.00026680133305490017,0.0002670591638889164,-0.00010390859097242355,-0.0017341704806312919,0.004210620187222958,-0.0001270287175429985,-0.4466431736946106,0.6949940919876099,0.7961934804916382,-1.0012547969818115,2.3923392295837402,-6.00516414642334,0.4180528223514557,0.7279468774795532,0.42000001668930054,-0.873069703578949,2.999999523162842,-0.5144143104553223,-2.999999523162842,-0.07628919184207916,-0.08560411632061005,-0.09472918510437012,-0.1036556214094162,-0.9289758205413818,-0.8738695979118347,-0.8225733637809753,-0.7745182514190674
0.26666666666666666,0.06608203798532486,0.18464432656764984,0.0,0.938360869884491,0.0,0.0,-0.34565722942352295,-0.2200649231672287,0.32951200008392334,0.0,0.0,0.0,-4.321638584136963,-0.4366878271102905,0.744611918926239,0.4200000464916229,0.9999999403953552,3.7400968722067773e-06,-2.236321961390786e-06,4.4995121584179287e-07,0.00026479564257897437,0.0002667310182005167,-0.0001045397948473692,-0.0017189527861773968,0.0041666654869914055,-0.00013017236778978258,-0.45853233337402344,0.726486086845398,0.6910245418548584,-0.3327350616455078,1.4190986156463623,-6.420050621032715,0.4180528223514557,0.7279468774795532,0.42000001668930054,-0.8230595588684082,2.9999983310699463,-0.5644442439079285,-3.000002861022949,-0.09333046525716782,-0.10251465439796448,-0.11153688281774521,-0.12034719437360764,-0.9984344244003296,-0.9984838366508484,-0.998546302318573,-0.9986120462417603
0.2833333333333333,0.06322900950908661,0.1876441240310669,0.0,0.9349256753921509,0.0,0.0,-0.3548435866832733,-0.15726861357688904,0.11672421544790268,0.0,0.0,0.0,-0.2053290456533432,-0.4366878569126129,0.744611918926239,0.4200000464916229,1.0,3.3916114716703305e-06,-2.2911938231118256e-06,1.2457824993816757e-07,0.00026677161804400384,0.0002678929013200104,-0.00010437355376780033,-0.001741260988637805,0.004206313751637936,-0.00012878593406639993,-0.4622018337249756,0.7396993041038513,0.5842465162277222,0.049795690923929214,0.25082477927207947,-6.413149833679199,0.4180528223514557,0.7279468774795532,0.42000001668930054,-0.7730507254600525,2.9999959468841553,-0.6144739985466003,-2.9999985694885254,-0.1101563423871994,-0.11926872283220291,-0.12824179232120514,-0.13701815903186798,-0.9998249411582947,-0.9989830255508423,-0.9983353018760681,-0.9978424310684204
0.3,0.057164087891578674,0.18809399008750916,0.0,0.9267604947090149,0.0,0.0,-0.3756527006626129,-0.3440367579460144,-0.05011435225605965,0.0,0.0,0.0,-3.508707284927368,-0.4366878569126129,0.7446119785308838,0.4200000464916229,1.0,3.680698682728689e-06,-2.319141685802606e-06,2.0107165710214758e-07,0.00026479046209715307,0.00026625796454027295,-0.00010421173647046089,-0.0017169079510495067,0.004168956074863672,-0.00012909715587738901,-0.45419076085090637,0.7402949333190918,0.48195958137512207,0.8195432424545288,-0.07522529363632202,-5.805478572845459,0.4180528223514557,0.7279468774795532,0.42000001668930054,-0.7230420112609863,2.9999983310699463,-0.6645017862319946,-3.000000238418579,-0.12759248912334442,-0.13652561604976654,-0.14539176225662231,-0.15408910810947418,-0.8469276428222656,-0.8846588134765625,-0.9210282564163208,-0.9514672756195068
0.31666666666666665,0.049881935119628906,0.18548165261745453,0.0,0.9254371523857117,0.0,0.0,-0.3789012134075165,-0.46775588393211365,-0.2001057267189026,0.0,0.0,0.0,0.5214271545410156,-0.4366932809352875,0.7444432973861694,0.4200023412704468,0.9999976754188538,0.0008086790912784636,-0.0004062227380927652,-0.0019147658022120595,0.023229973390698433,-0.16127237677574158,-0.028934702277183533,-1.5702344179153442,1.3230323791503906,-6.724807262420654,-0.44786691665649414,0.7426851987838745,0.42987972497940063,0.16040286421775818,-0.029320232570171356,-0.2860358655452728,0.4180528223514557,0.7279468774795532,0.42000001668930054,-0.6730366945266724,2.99822998046875,-0.7149198651313782,-2.999915599822998,-0.13890643417835236,-0.14846712350845337,-0.15764032304286957,-0.16646933555603027,-0.21242383122444153,-0.3119961619377136,-0.3704122304916382,-0.4050656259059906
0.3333333333333333,0.040396180003881454,0.18048547208309174,0.0,0.9189179539680481,0.0,0.0,-0.39444872736930847,-0.6204836964607239,-0.34227824211120605,0.0,0.0,0.0,-2.9869425296783447,-0.4362131655216217,0.7427340149879456,0.42000001668930054,0.9996538758277893,-4.448768464726527e-08,-1.0437501032356522e-06,-0.026308834552764893,0.028189711272716522,-0.08489462733268738,-6.707385182380676e-06,0.00027673604199662805,5.793190575786866e-05,-2.1733815670013428,-0.445892333984375,0.7483618259429932,0.42714816331863403,0.22377347946166992,0.4196555018424988,-0.17661714553833008,0.4180528223514557,0.7279468774795532,0.42000001668930054,-0.6230304837226868,2.9999732971191406,-0.7650103569030762,-2.9999942779541016,-0.14289239048957825,-0.15360957384109497,-0.16328750550746918,-0.1722065806388855,-0.29992690682411194,-0.3357253074645996,-0.33779263496398926,-0.3176747262477875
0.35,0.028700822964310646,0.17310158908367157,0.0,0.9187425971031189,0.0,0.0,-0.3948570489883423,-0.7386518716812134,-0.48363301157951355,0.0,0.0,0.0,0.8914232850074768,-0.43309924006462097,0.7467711567878723,0.42010846734046936,0.9923028945922852,0.002651478396728635,-0.0005612416425719857,-0.1238039955496788,0.22711464762687683,0.29522934556007385,-0.023943793028593063,-1.201197624206543,0.18851003050804138,-13.521241188049316,-0.4412583112716675,0.755081832408905,0.42393189668655396,0.38911837339401245,0.42217588424682617,-0.18337927758693695,0.4180528223514557,0.7279468774795532,0.42000001668930054,-0.5730253458023071,2.999969005584717,-0.815053403377533,-2.9999990463256836,-0.15007692575454712,-0.16024312376976013,-0.16886720061302185,-0.17639587819576263,-0.4819944202899933,-0.4042903184890747,-0.29970285296440125,-0.17632223665714264
0.36666666666666664,0.014811315573751926,0.1633654683828354,0.0,0.9126962423324585,0.0,0.0,-0.4086386561393738,-0.8850235939025879,-0.6286149621009827,0.0,0.0,0.0,-2.636420488357544,-0.42683711647987366,0.7565174698829651,0.42000025510787964,0.9916825294494629,-4.1013456211658195e-05,3.9552767702843994e-05,-0.12870752811431885,0.46224498748779297,0.6187916398048401,-0.001670191646553576,0.09278150647878647,-0.040046386420726776,-1.957171082496643,-0.43394631147384644,0.7619650363922119,0.42152124643325806,0.530620276927948,0.5359581708908081,-0.11353740841150284,0.4180528223514557,0.7279468774795532,0.42000001668930054,-0.5230205655097961,2.9999918937683105,-0.8651040196418762,-2.999952554702759,-0.15859118103981018,-0.16717460751533508,-0.1737838089466095,-0.17896656692028046,-0.5014152526855469,-0.3979429602622986,-0.27042847871780396,-0.12300330400466919
0.3833333333333333,0.003429989330470562,0.15069040656089783,0.0,0.8954965472221375,0.0,0.0,-0.44506844878196716,-0.6120838522911072,-0.815515398979187,0.0,0.0,0.0,-5.812328815460205,-0.41691553592681885,0.7693154811859131,0.42003732919692993,0.9891881942749023,0.0009602449717931449,-0.00014830772124696523,-0.1466478705406189,0.775122880935669,0.9840543866157532,0.02619040012359619,1.2644721269607544,-0.3561416268348694,-3.037283182144165,-0.42280617356300354,0.7731389999389648,0.4208056628704071,0.8576970100402832,0.8902100920677185,0.013935711234807968,0.4180528223514557,0.7279468774795532,0.42000001668930054,-0.47301623225212097,2.999969959259033,-0.9151562452316284,-2.999998092651367,-0.16707079112529755,-0.17344696819782257,-0.1774202287197113,-0.17958945035934448,-0.47409236431121826,-0.3254154920578003,-0.15147165954113007,0.04593619331717491
0.4,-0.006510952953249216,0.13531726598739624,0.0,0.8629167079925537,0.0,0.0,-0.5053462386131287,-0.5749980211257935,-0.968815267086029,0.0,0.0,0.0,-9.071516990661621,-0.3944474458694458,0.795748233795166,0.42106544971466064,0.9818141460418701,0.007848401553928852,-0.014951126649975777,-0.1890917718410492,2.892658233642578,1.8862043619155884,0.32776013016700745,-8.133336067199707,-5.798566818237305,-7.152261257171631,-0.3971973657608032,0.7969640493392944,0.4227825105190277,2.3669826984405518,2.1122922897338867,0.2457350194454193,0.4180528223514557,0.7279468774795532,0.42000001668930054,-0.4230111539363861,2.950490951538086,-0.9651927351951599,-3.000000476837158,-0.17650680243968964,-0.1798165887594223,-0.18036329746246338,-0.17877407371997833,-0.626544713973999,-0.4109672009944916,-0.1788836270570755,0.0681338831782341
0.4166666666666667,-0.013989413157105446,0.12297501415014267,0.0,0.8135389685630798,0.0,0.0,-0.5815104246139526,-0.40101417899131775,-0.6053285002708435,0.0,0.0,0.0,-11.70414924621582,-0.3302862048149109,0.8364524841308594,0.42744123935699463,0.9660289287567139,0.057974882423877716,-0.04561660811305046,-0.2476816624403,5.189597129821777,2.6975479125976562,0.3277510106563568,32.548004150390625,-18.729732513427734,7.4684882164001465,-0.33318281173706055,0.8387588262557983,0.4288955330848694,5.004648208618164,2.969395160675049,0.6549451351165771,0.4180528223514557,0.7279468774795532,0.42000001668930054,-0.38728752732276917,1.1407049894332886,-0.9275019764900208,2.994297981262207,-0.1917886584997177,-0.1905347853899002,-0.1862078607082367,-0.17976291477680206,-0.9919756650924683,-0.7252172827720642,-0.4241611659526825,-0.13182055950164795
0.43333333333333335,-0.018123744055628777,0.11625997722148895,0.0,0.7707457542419434,0.0,0.0,-0.6371428370475769,-0.19724321365356445,-0.44160720705986023,0.0,0.0,0.0,-6.855884552001953,-0.24391338229179382,0.8818628787994385,0.4395098388195038,0.9283007979393005,0.1308843195438385,-0.07698507606983185,-0.3394114077091217,5.582091331481934,1.9769021272659302,0.9060919284820557,-7.3564534187316895,-3.136160373687744,5.067976951599121,-0.24738268554210663,0.8852454423904419,0.4407917857170105,5.361863136291504,2.656477928161621,0.7985223531723022,0.4180528223514557,0.7279468774795532,0.42000001668930054,-0.3718676269054413,0.8953527212142944,-0.9129107594490051,-0.8595568537712097,-0.20452256500720978,-0.20368918776512146,-0.19606514275074005,-0.18496368825435638,-0.5816106796264648,-0.6155039072036743,-0.47483840584754944,-0.2628367841243744
0.45,-0.02294318936765194,0.10389858484268188,0.0,0.749530017375946,0.0,0.0,-0.661970317363739,-0.28445056080818176,-0.6567952036857605,0.0,0.0,0.0,-2.6065447330474854,-0.1491287648677826,0.9171836972236633,0.45371994376182556,0.873901903629303,0.13684813678264618,-0.07821153104305267,-0.4598380923271179,6.3179497718811035,1.1971182823181152,0.7979325652122498,4.217127323150635,-11.343855857849121,-2.286935329437256,-0.15355245769023895,0.9214985370635986,0.45358210802078247,5.9900922775268555,1.4991683959960938,0.8671656847000122,0.4180528223514557,0.7279468774795532,0.42000001668930054,-0.3563932776451111,0.9036941528320312,-0.9598230719566345,-3.000001907348633,-0.21273985505104065,-0.21117602288722992,-0.2006075531244278,-0.18570102751255035,-0.7821805477142334,-0.6103416681289673,-0.3449288606643677,-0.05054778978228569
0.4666666666666667,-0.02583472989499569,0.09510182589292526,0.0,0.7210355997085571,0.0,0.0,-0.6928979754447937,-0.12742801010608673,-0.5889934301376343,0.0,0.0,0.0,-5.879635334014893,-0.04854655638337135,0.9285736680030823,0.4651130735874176,0.8282654881477356,0.131551131606102,-0.08604886382818222,-0.5378347039222717,6.136712551116943,-0.6705792546272278,0.512610912322998,-7.411655902862549,-17.627872467041016,22.385570526123047,-0.05142613500356674,0.9346091747283936,0.465724378824234,6.31529426574707,0.2733929455280304,0.7776296138763428,0.4180528223514557,0.7279468774795532,0.42000001668930054,-0.3399316072463989,0.8272945880889893,-1.0098466873168945,-3.000002861022949,-0.22869157791137695,-0.22353027760982513,-0.2075413167476654,-0.18707048892974854,-0.7003777623176575,-0.555852472782135,-0.26563560962677,0.02819184772670269
0.48333333333333334,-0.025272995233535767,0.08786782622337341,0.0,0.706653892993927,0.0,0.0,-0.7075594067573547,0.10241901129484177,-0.33702367544174194,0.0,0.0,0.0,-1.2404409646987915,0.053955789655447006,0.9242987632751465,0.47391170263290405,0.7483184337615967,0.10948439687490463,-0.0884133130311966,-0.6482405066490173,5.835524559020996,-1.5352261066436768,0.22742775082588196,-19.671152114868164,-18.969236373901367,22.061267852783203,0.050716936588287354,0.9323791265487671,0.4744264483451843,6.194507598876953,-0.5688176155090332,0.5445214509963989,0.4180528223514557,0.7279468774795532,0.42000001668930054,-0.3279099762439728,0.48616233468055725,-1.0598689317703247,-3.0000054836273193,-0.23907898366451263,-0.23144720494747162,-0.211381196975708,-0.18700149655342102,-0.554283618927002,-0.4001047909259796,-0.1935185343027115,-0.009525381028652191
0.5,-0.025644781067967415,0.07885031402111053,0.0,0.6844304203987122,0.0,0.0,-0.7290781736373901,-0.07162418961524963,-0.5853965282440186,0.0,0.0,0.0,-4.562479496002197,0.14848658442497253,0.9028119444847107,0.4753091633319855,0.6574136018753052,0.0579119436442852,-0.12236522138118744,-0.7412693500518799,5.266878604888916,-2.0956060886383057,0.17587558925151825,-4.747548580169678,-2.1095058917999268,2.664721727371216,0.14413350820541382,0.9137666821479797,0.4783625304698944,5.190031051635742,-1.6742005348205566,0.02228766307234764,0.4180528223514557,0.7279468774795532,0.42000001668930054,-0.32039088010787964,0.42614924907684326,-1.1098910570144653,-3.0000014305114746,-0.2400115728378296,-0.2372620850801468,-0.2138659954071045,-0.1867191344499588,-0.020613282918930054,-0.2929021120071411,-0.1018867939710617,0.04531149938702583
0.5166666666666666,-0.024708949029445648,0.07399452477693558,0.0,0.6753352284431458,0.0,0.0,-0.7375109195709229,0.08137524127960205,-0.21595948934555054,0.0,0.0,0.0,-0.48294636607170105,0.22730135917663574,0.8708007335662842,0.4722375273704529,0.6013008952140808,0.020173583179712296,-0.0993204414844513,-0.792569100856781,4.3837809562683105,-2.194615602493286,-0.4336684048175812,-2.5282676219940186,-1.8701245784759521,-7.9227070808410645,0.22439709305763245,0.8807218074798584,0.47537434101104736,4.389337539672852,-2.2127201557159424,-0.34564390778541565,0.4180528223514557,0.7279468774795532,0.42000001668930054,-0.30621621012687683,1.0953069925308228,-1.159913182258606,-3.000002861022949,-0.23992198705673218,-0.2398984432220459,-0.21731558442115784,-0.18809309601783752,0.0160182137042284,0.04313851147890091,-0.0937155932188034,-0.03984221816062927
0.5333333333333333,-0.02107568271458149,0.06501087546348572,0.0,0.6564534902572632,0.0,0.0,-0.7543664574623108,0.23444172739982605,-0.5701821446418762,0.0,0.0,0.0,-3.8868205547332764,0.294722318649292,0.836174726486206,0.46157190203666687,0.5546991229057312,-0.014330318197607994,-0.08598888665437698,-0.8274716138839722,3.679733991622925,-2.2800886631011963,-0.639157235622406,-2.9723944664001465,2.587587356567383,-4.651966571807861,0.29297494888305664,0.8455073833465576,0.46531739830970764,3.7211761474609375,-2.225320816040039,-0.7722294330596924,0.4180528223514557,0.7279468774795532,0.42000001668930054,-0.2875650227069855,0.9956597089767456,-1.2099353075027466,-3.0000009536743164,-0.23473447561264038,-0.23473478853702545,-0.21526414155960083,-0.1867014467716217,0.31875157356262207,0.3409653902053833,0.15674477815628052,0.07427281886339188
0.55,-0.015097152441740036,0.06071605905890465,0.0,0.6506370306015015,0.0,0.0,-0.7593888640403748,0.3854365646839142,-0.2304898202419281,0.0,0.0,0.0,0.04477240517735481,0.34992074966430664,0.798172652721405,0.4472092092037201,0.508904755115509,-0.05067507177591324,-0.0654628649353981,-0.8568328619003296,2.856574535369873,-2.766160011291504,-0.8337826728820801,-2.229175090789795,2.053619623184204,6.5546674728393555,0.3484795093536377,0.8064873218536377,0.4512120187282562,2.989875316619873,-2.321530342102051,-0.9460508823394775,0.4180528223514557,0.7279468774795532,0.42000001668930054,-0.2737463116645813,0.6560304760932922,-1.2599574327468872,-3.0000011920928955,-0.23262019455432892,-0.23143990337848663,-0.21446673572063446,-0.18744143843650818,0.2516782581806183,0.29132428765296936,0.10968766361474991,-0.0414399728178978
0.5666666666666667,-0.006976987700909376,0.059615686535835266,0.0,0.6359809637069702,0.0,0.0,-0.7717047333717346,0.5362362265586853,-0.003628041595220566,0.0,0.0,0.0,-3.189340114593506,0.39367181062698364,0.763325035572052,0.4268033504486084,0.48772451281547546,-0.0904030054807663,-0.05440746247768402,-0.8665978908538818,1.870813012123108,-2.1734237670898438,-1.336371898651123,1.1229829788208008,5.613966464996338,16.47702407836914,0.39313891530036926,0.7715208530426025,0.43104976415634155,2.425248146057129,-1.9943095445632935,-1.3067429065704346,0.4180528223514557,0.7279468774795532,0.42000001668930054,-0.2597692310810089,0.8493497371673584,-1.3099719285964966,-3.00000262260437,-0.22688663005828857,-0.2258860021829605,-0.21262581646442413,-0.18912625312805176,0.3934866487979889,0.363669216632843,0.12671886384487152,-0.12091643363237381
0.5833333333333334,0.0035778931342065334,0.05413537099957466,0.0,0.6340935826301575,0.0,0.0,-0.7732563018798828,0.7128473520278931,-0.4995976686477661,0.0,0.0,0.0,0.6474668383598328,0.41968828439712524,0.7436468601226807,0.42294368147850037,0.4828976094722748,-0.0700417011976242,-0.039326973259449005,-0.8719846606254578,1.0596040487289429,-1.4598298072814941,0.030922628939151764,-5.3343048095703125,-0.6507301330566406,13.23147964477539,0.4178313910961151,0.7509366273880005,0.4270981550216675,1.0324331521987915,-0.9337877035140991,-0.054312437772750854,0.4180528223514557,0.7279468774795532,0.42000001668930054,-0.2511768043041229,0.16159996390342712,-1.2750873565673828,2.9935035705566406,-0.2151673585176468,-0.21558994054794312,-0.2069246619939804,-0.18836155533790588,0.8257655501365662,0.7213420271873474,0.4358433783054352,0.11416879296302795
0.6,0.01172235980629921,0.050995394587516785,0.0,0.6212115287780762,0.0,0.0,-0.7836429476737976,0.45079267024993896,-0.11218014359474182,0.0,0.0,0.0,-2.6007931232452393,0.4328645169734955,0.7324353456497192,0.42214956879615784,0.5110855102539062,-0.048526015132665634,-0.029525866732001305,-0.8576508164405823,0.5098227262496948,-0.674407958984375,-0.026806015521287918,1.2052959203720093,-0.3279866874217987,4.29646110534668,0.429634153842926,0.7392904162406921,0.4256788492202759,0.4934149980545044,-0.6428097486495972,-0.22877877950668335,0.4180528223514557,0.7279468774795532,0.42000001668930054,-0.25528812408447266,-0.34017449617385864,-1.2250869274139404,3.000000238418579,-0.2037173956632614,-0.20559924840927124,-0.201211616396904,-0.18776832520961761,0.5592992901802063,0.48720991611480713,0.2584841251373291,-0.032226819545030594
0.6166666666666667,0.01626363955438137,0.051392119377851486,0.0,0.6230306029319763,0.0,0.0,-0.7821974158287048,0.18985144793987274,0.07270319014787674,0.0,0.0,0.0,1.1085796356201172,0.4374598264694214,0.7225953936576843,0.4210747480392456,0.5373287200927734,-0.023195985704660416,-0.014764456078410149,-0.8429245352745056,0.03250610828399658,-0.49320411682128906,-0.004168832674622536,2.3724334239959717,0.5436388850212097,3.1082379817962646,0.43381983041763306,0.730204701423645,0.42540818452835083,0.060894161462783813,-0.4137836992740631,0.11105047166347504,0.4180528223514557,0.7279468774795532,0.42000001668930054,-0.2732120454311371,-1.699700117111206,-1.2457528114318848,-2.998885154724121,-0.19565662741661072,-0.19847160577774048,-0.1973346620798111,-0.18826515972614288,0.46522432565689087,0.4156787693500519,0.24171018600463867,-0.004458076320588589
0.6333333333333333,0.020863695070147514,0.05017324537038803,0.0,0.6135120391845703,0.0,0.0,-0.7896853685379028,0.3061589002609253,-0.1687692254781723,0.0,0.0,0.0,-2.335479974746704,0.4383854269981384,0.718560516834259,0.42145830392837524,0.5534915924072266,-0.023190489038825035,0.016024917364120483,-0.8323776125907898,0.10575833171606064,-0.13667356967926025,0.06856332719326019,3.6604251861572266,4.184589385986328,0.06567718833684921,0.43524497747421265,0.7276274561882019,0.4270944893360138,0.14992955327033997,-0.03106064349412918,0.1141391173005104,0.4180528223514557,0.7279468774795532,0.42000001668930054,-0.3016679883003235,-1.6978272199630737,-1.2957044839859009,-2.9988181591033936,-0.1881657987833023,-0.19180510938167572,-0.1932763308286667,-0.1880245953798294,0.4689539670944214,0.4189533591270447,0.2762266993522644,0.0601731576025486
0.65,0.02775433659553528,0.051222823560237885,0.0,0.6169288754463196,0.0,0.0,-0.787018895149231,0.439532995223999,0.11395453661680222,0.0,0.0,0.0,1.3984577655792236,0.4394516050815582,0.7168976664543152,0.42185327410697937,0.563036322593689,-0.027428722009062767,0.04027941823005676,-0.8249940872192383,0.03103373572230339,-0.06870955228805542,0.01491339411586523,0.28327450156211853,0.7428287863731384,0.3244970142841339,0.4348209500312805,0.7271860837936401,0.42934349179267883,-0.03389054909348488,0.024880902841687202,0.15381984412670135,0.4180528223514557,0.7279468774795532,0.42000001668930054,-0.348548024892807,-2.9997503757476807,-1.3456851243972778,-2.9987590312957764,-0.18308819830417633,-0.1871461421251297,-0.19033750891685486,-0.18802715837955475,0.30363500118255615,0.276358425617218,0.1843532770872116,0.02121824212372303
0.6666666666666666,0.03650432080030441,0.04863101616501808,0.0,0.6383472681045532,0.0,0.0,-0.7697485089302063,0.5489164590835571,-0.18263284862041473,0.0,0.0,0.0,4.328770160675049,0.43882519006729126,0.7168319225311279,0.42111241817474365,0.5646693110466003,-0.01605164259672165,0.02325267903506756,-0.8248333930969238,-0.1191357672214508,0.04334043711423874,-0.0665542483329773,-1.7087607383728027,-3.6003565788269043,-0.16788209974765778,0.4336533844470978,0.7287308573722839,0.4321996867656708,-0.14096000790596008,0.10390371829271317,0.1915411353111267,0.4180528223514557,0.7279468774795532,0.42000001668930054,-0.3985607922077179,-2.9995036125183105,-1.3956571817398071,-2.9992733001708984,-0.17576374113559723,-0.1804255098104477,-0.18506434559822083,-0.18530184030532837,0.3437011241912842,0.34387683868408203,0.30200767517089844,0.19399331510066986
0.6833333333333333,0.04757901653647423,0.048556048423051834,0.0,0.6468973755836487,0.0,0.0,-0.7625770568847656,0.6828339099884033,0.07922226190567017,0.0,0.0,0.0,0.2440943568944931,0.43753740191459656,0.7173237800598145,0.42000022530555725,0.5642242431640625,-1.3831710020895116e-05,1.777950456016697e-05,-0.8256215453147888,-0.023583952337503433,0.009085607714951038,-0.0008627176866866648,-0.014647936448454857,-0.03923320025205612,-0.0286495853215456,0.43307268619537354,0.7318770885467529,0.4363931715488434,-0.022473279386758804,0.20817695558071136,0.29740700125694275,0.4180528223514557,0.7279468774795532,0.42000001668930054,-0.4485790729522705,-2.99999737739563,-1.445628046989441,-2.9999287128448486,-0.17097949981689453,-0.17546576261520386,-0.1803261935710907,-0.18169154226779938,0.3395479917526245,0.3429211378097534,0.33796146512031555,0.2896086871623993
0.7,0.06010553985834122,0.04625614732503891,0.0,0.6316128969192505,0.0,0.0,-0.775283932685852,0.780425488948822,-0.19046935439109802,0.0,0.0,0.0,-3.318141460418701,0.4375362694263458,0.7173241972923279,0.42000001668930054,0.5642246007919312,1.086856514120882e-06,-2.4449989268759964e-06,-0.8256212472915649,0.0001838883472373709,-0.0002048619498964399,-8.15168023109436e-05,0.004568532574921846,0.000425109377829358,-0.0008035052451305091,0.4347648024559021,0.7366524934768677,0.4462678134441376,0.19372840225696564,0.2635616660118103,0.9938100576400757,0.4180528223514557,0.7279468774795532,0.42000001668930054,-0.4985920488834381,-2.9999823570251465,-1.495646357536316,-2.9999988079071045,-0.1661183089017868,-0.17034073173999786,-0.17491164803504944,-0.17659901082515717,0.15935687720775604,0.20786088705062866,0.2641495168209076,0.2872543931007385
0.7166666666666667,0.07506393641233444,0.04652704671025276,0.0,0.5939896106719971,0.0,0.0,-0.8044726848602295,0.9263423085212708,0.06835684180259705,0.0,0.0,0.0,-6.610056400299072,0.4375362992286682,0.7173241972923279,0.4200000464916229,0.5642246007919312,1.9635258752259688e-07,-2.8133567866461817e-06,-0.8256212472915649,7.259681297000498e-05,-0.00025692707276903093,-8.319714106619358e-05,0.00640141824260354,-0.0017846963601186872,-0.0007002290221862495,0.446529746055603,0.7376991510391235,0.46878111362457275,1.2420092821121216,-0.10648715496063232,1.819852590560913,0.4180528223514557,0.7279468774795532,0.42000001668930054,-0.5486046671867371,-2.9997875690460205,-1.545664668083191,-2.9999775886535645,-0.16743268072605133,-0.1703009456396103,-0.17329056560993195,-0.17388080060482025,-0.12442086637020111,-0.042995259165763855,0.05813542380928993,0.13613592088222504
0.7333333333333333,0.08702466636896133,0.04909193515777588,0.0,0.5705775618553162,0.0,0.0,-0.8212437033653259,0.6363039612770081,0.19595038890838623,0.0,0.0,0.0,-2.4242491722106934,0.4375362992286682,0.7173241972923279,0.4200000464916229,0.5642246007919312,1.6296183957820176e-07,-2.7113212581753032e-06,-0.8256213665008545,7.469786942237988e-05,-0.00025752888177521527,-8.363486267626286e-05,0.006406316068023443,-0.0017621922306716442,-0.0007057597977109253,0.46682608127593994,0.7404372692108154,0.4996224641799927,1.1199219226837158,0.37288036942481995,1.8915601968765259,0.4180528223514557,0.7279468774795532,0.42000001668930054,-0.5694248080253601,0.2269342988729477,-1.5956802368164062,-2.999999761581421,-0.16828469932079315,-0.17042198777198792,-0.17238003015518188,-0.17232060432434082,0.021874208003282547,0.02929265983402729,0.0523441806435585,0.05240076407790184
0.75,0.0941835269331932,0.047667719423770905,0.0,0.5733879804611206,0.0,0.0,-0.8192839622497559,0.3238900303840637,-0.12116789072751999,0.0,0.0,0.0,1.1972628831863403,0.4375362992286682,0.7173241972923279,0.4200000464916229,0.5642245411872864,1.305673720253253e-07,-2.6092641292052576e-06,-0.8256213665008545,7.531865412602201e-05,-0.0002574672398623079,-8.379295468330383e-05,0.006401224061846733,-0.0017552783247083426,-0.0007070870487950742,0.4817139804363251,0.7477556467056274,0.5250934362411499,0.5609545707702637,0.4628327190876007,1.2116073369979858,0.4180528223514557,0.7279468774795532,0.42000001668930054,-0.5447157621383667,2.5160021781921387,-1.556679606437683,2.999999761581421,-0.16708628833293915,-0.1687532514333725,-0.17004108428955078,-0.1697312742471695,-0.007936625741422176,0.05109776183962822,0.11794668436050415,0.15680721402168274
0.7666666666666666,0.09655425697565079,0.04511265084147453,0.0,0.5638846158981323,0.0,0.0,-0.8258535861968994,0.07767003774642944,-0.2039455622434616,0.0,0.0,0.0,-2.2895445823669434,0.4375362992286682,0.7173241972923279,0.4200000464916229,0.5642246603965759,1.447918691610539e-07,-2.6915313355857506e-06,-0.8256212472915649,7.466231909347698e-05,-0.0002575194521341473,-8.361996151506901e-05,0.006406242027878761,-0.0017623535823076963,-0.0007056547910906374,0.48386746644973755,0.7540653944015503,0.5390986204147339,-0.25637295842170715,0.33657556772232056,0.6277308464050293,0.4180528223514557,0.7279468774795532,0.42000001668930054,-0.5196489095687866,0.6344704031944275,-1.5066250562667847,2.9999985694885254,-0.1687169075012207,-0.16903643310070038,-0.16890834271907806,-0.16767580807209015,-0.09351826459169388,-0.00863652303814888,0.0773315578699112,0.13356232643127441
0.7833333333333333,0.09610964357852936,0.04758840054273605,0.0,0.5684069395065308,0.0,0.0,-0.822747528553009,-0.06382940709590912,0.2758866548538208,0.0,0.0,0.0,1.535315752029419,0.4375362992286682,0.7173241972923279,0.4200000464916229,0.5642246007919312,1.3949613730801502e-07,-2.5902120341925183e-06,-0.8256212472915649,7.519468636019155e-05,-0.00025751019711606205,-8.376524783670902e-05,0.006402900442481041,-0.0017570259515196085,-0.0007069000275805593,0.4792202115058899,0.758247971534729,0.5482063889503479,-0.28940603137016296,0.25742366909980774,0.4824843406677246,0.4180528223514557,0.7279468774795532,0.42000001668930054,-0.5034697651863098,1.2410253286361694,-1.499653935432434,-1.757389783859253,-0.17527830600738525,-0.17317114770412445,-0.17068126797676086,-0.16763950884342194,-0.4287753403186798,-0.28311261534690857,-0.14161260426044464,-0.030555086210370064
0.8,0.09841828793287277,0.04690059646964073,0.0,0.5795584321022034,0.0,0.0,-0.8149306774139404,0.21364983916282654,-0.14595600962638855,0.0,0.0,0.0,1.6059414148330688,0.4375362992286682,0.7173241972923279,0.4200000464916229,0.564224362373352,1.693452560402875e-07,-2.7167411644768436e-06,-0.825621485710144,7.532830204581842e-05,-0.0002577181439846754,-8.376175537705421e-05,0.0064075300469994545,-0.0017557867104187608,-0.0007074135355651379,0.47130799293518066,0.7604962587356567,0.5507693886756897,-0.676167905330658,0.0013017617166042328,-0.04524516686797142,0.4180528223514557,0.7279468774795532,0.42000001668930054,-0.5179223418235779,-2.6288352012634277,-1.456579566001892,3.0,-0.17849372327327728,-0.1745421588420868,-0.17023639380931854,-0.16577817499637604,-0.09499295800924301,0.005544966086745262,0.10464298725128174,0.18319366872310638
0.8166666666666667,0.10384567081928253,0.05060127377510071,0.0,0.6061944961547852,0.0,0.0,-0.7953164577484131,0.27742496132850647,0.11080586165189743,0.0,0.0,0.0,4.409286022186279,0.4375362992286682,0.7173241972923279,0.4200000464916229,0.5642246603965759,1.3045961111401994e-07,-2.612951675473596e-06,-0.8256212472915649,7.529523281846195e-05,-0.0002574807731434703,-8.378177881240845e-05,0.006401774939149618,-0.0017555947415530682,-0.000707044149748981,0.4640650153160095,0.7594963312149048,0.5482956171035767,0.009749375283718109,0.11664612591266632,-0.2336703985929489,0.4180528223514557,0.7279468774795532,0.42000001668930054,-0.5475186109542847,-1.031633734703064,-1.4736276865005493,-3.000000476837158,-0.18449117243289948,-0.17818070948123932,-0.17148207128047943,-0.1648968905210495,0.06368716061115265,0.09500005841255188,0.14571857452392578,0.20194585621356964
0.8333333333333334,0.10960498452186584,0.04923085868358612,0.0,0.6152843236923218,0.0,0.0,-0.7883052825927734,0.3817397952079773,-0.10423710942268372,0.0,0.0,0.0,0.3141722083091736,0.4375362992286682,0.7173241972923279,0.4200000464916229,0.5642245411872864,1.659809925058653e-07,-2.554045067881816e-06,-0.8256212472915649,7.394551357720047e-05,-0.00025751639623194933,-8.347188122570515e-05,0.006410006899386644,-0.001770870410837233,-0.0007040721247904003,0.46470755338668823,0.7595415115356445,0.5417342185974121,0.07045292854309082,-0.158892422914505,-0.4138934910297394,0.4180528223514557,0.7279468774795532,0.42000001668930054,-0.5908358097076416,-2.9999988079071045,-1.4349757432937622,3.0,-0.18265146017074585,-0.17590953409671783,-0.16843214631080627,-0.16091078519821167,0.039407502859830856,0.08504663407802582,0.1495983898639679,0.22348299622535706
0.85,0.11723265051841736,0.04510394483804703,0.0,0.6009230613708496,0.0,0.0,-0.7993068695068359,0.4968104064464569,-0.31270545721054077,0.0,0.0,0.0,-3.061472177505493,0.4375362992286682,0.7173241972923279,0.4200000464916229,0.5642247200012207,1.286712176806759e-07,-2.6328289095545188e-06,-0.8256211876869202,7.536542398156598e-05,-0.0002574204409029335,-8.378433994948864e-05,0.006399792619049549,-0.001754069933667779,-0.0007070762803778052,0.4710937738418579,0.755656361579895,0.5387260913848877,0.6504164934158325,-0.31167781352996826,0.1673097014427185,0.4180528223514557,0.7279468774795532,0.42000001668930054,-0.6408570408821106,-2.9999842643737793,-1.4524712562561035,-3.0,-0.1831722855567932,-0.17568697035312653,-0.16712887585163116,-0.15831732749938965,-0.036213748157024384,0.002407153369858861,0.061384785920381546,0.13515520095825195
0.8666666666666667,0.12760032713413239,0.044384755194187164,0.0,0.5989264249801636,0.0,0.0,-0.8008040189743042,0.6286765336990356,-0.011828216724097729,0.0,0.0,0.0,0.8016116619110107,0.4375362992286682,0.7173241972923279,0.4200000464916229,0.5642247200012207,1.5004361841874925e-07,-2.7189253160031512e-06,-0.8256213068962097,7.50058243284002e-05,-0.0002575070830062032,-8.372357115149498e-05,0.0064038606360554695,-0.0017591811483725905,-0.0007064722594805062,0.48304831981658936,0.7527791261672974,0.5452326536178589,0.8236171007156372,0.009790800511837006,0.6093171238899231,0.4180528223514557,0.7279468774795532,0.42000001668930054,-0.6582610607147217,0.6130960583686829,-1.5024895668029785,-3.0,-0.18492472171783447,-0.17714281380176544,-0.16801828145980835,-0.15842711925506592,0.040852028876543045,-3.282912075519562e-08,-0.022674573585391045,-0.031255338340997696
0.8833333333333333,0.13461636006832123,0.03885114565491676,0.0,0.6215575337409973,0.0,0.0,-0.7833685278892517,0.35949262976646423,-0.364482045173645,0.0,0.0,0.0,4.055365085601807,0.4375362992286682,0.7173241972923279,0.4200000464916229,0.5642246603965759,1.5114235907276452e-07,-2.617788140923949e-06,-0.8256213068962097,7.523654494434595e-05,-0.00025742544676177204,-8.377269841730595e-05,0.006400555372238159,-0.0017560068517923355,-0.0007068258128128946,0.4955703616142273,0.751937210559845,0.5528783798217773,0.6218403577804565,-0.16601675748825073,0.34199920296669006,0.4180528223514557,0.7279468774795532,0.42000001668930054,-0.6620294451713562,-0.929578423500061,-1.4637519121170044,2.9999992847442627,-0.18091760575771332,-0.1740025281906128,-0.1655241698026657,-0.15638631582260132,0.14257118105888367,0.12042936682701111,0.10458111017942429,0.09446125477552414
0.9,0.13795079290866852,0.03785480558872223,0.0,0.6284483075141907,0.0,0.0,-0.7778513431549072,0.11713486909866333,-0.055905669927597046,0.0,0.0,0.0,0.010678681544959545,0.4375362992286682,0.7173241972923279,0.4200000464916229,0.5642246007919312,1.5920673490654735e-07,-2.7035116545448545e-06,-0.8256213068962097,7.488518167519942e-05,-0.0002575465478003025,-8.369656279683113e-05,0.006405544932931662,-0.0017607954796403646,-0.0007062700460664928,0.5044782161712646,0.7470544576644897,0.5531009435653687,0.5591175556182861,-0.32396817207336426,-0.18538609147071838,0.4180528223514557,0.7279468774795532,0.42000001668930054,-0.6794456839561462,-1.1280521154403687,-1.480642318725586,-2.9999990463256836,-0.18200773000717163,-0.1749172806739807,-0.1662280112504959,-0.15684247016906738,0.0864577665925026,0.06222251057624817,0.042299456894397736,0.028540415689349174
