vladlanda/robotic-transformer/data/env_000_episode_0124.csv
sim_time_s,robot_box_x,robot_box_y,robot_box_z,robot_box_quat_w,robot_box_quat_x,robot_box_quat_y,robot_box_quat_z,robot_box_linvel_x,robot_box_linvel_y,robot_box_linvel_z,robot_box_angvel_x,robot_box_angvel_y,robot_box_angvel_z,cube_world_x,cube_world_y,cube_world_z,cube_quat_w,cube_quat_x,cube_quat_y,cube_quat_z,cube_linvel_x,cube_linvel_y,cube_linvel_z,cube_angvel_x,cube_angvel_y,cube_angvel_z,endpoint_world_x,endpoint_world_y,endpoint_world_z,endpoint_linvel_x,endpoint_linvel_y,endpoint_linvel_z,target_cube_world_x,target_cube_world_y,target_cube_world_z,gripper_actual_pos_rad_gp_leftgearjoint,gripper_actual_vel_rad_s_gp_leftgearjoint,gripper_actual_pos_rad_gp_rotatingjoint,gripper_actual_vel_rad_s_gp_rotatingjoint,motor_angle_rad_joint1,motor_angle_rad_joint2,motor_angle_rad_joint3,motor_angle_rad_joint4,motor_speed_rad_s_joint1,motor_speed_rad_s_joint2,motor_speed_rad_s_joint3,motor_speed_rad_s_joint4
0.0,0.0,0.0,0.0,1.0,0.0,0.0,0.0,0.0,0.0,0.0,0.0,0.0,0.0,-0.4411841928958893,0.6598460674285889,0.41999998688697815,1.0,0.0,0.0,0.0,0.0,0.0,0.0,0.0,0.0,0.0,3.42540442943573e-06,-0.005000244826078415,1.313499927520752,0.0,0.0,0.0,0.39943477511405945,0.7744864225387573,0.42000001668930054,-1.5707999467849731,0.0,0.0,0.0,0.0,0.0,0.0,0.0,0.0,0.0,0.0,0.0
0.016666666666666666,0.0028778850100934505,0.0021806680597364902,0.0,0.9998081922531128,0.0,0.0,0.019586581736803055,0.24087215960025787,0.18240931630134583,0.0,0.0,0.0,3.1418697834014893,-0.44118431210517883,0.659845769405365,0.41999998688697815,1.0,3.2799914606584935e-06,-8.339814598912199e-07,8.465387679734704e-08,-1.9833554688375443e-05,0.00017983050202019513,-6.133061833679676e-05,0.0009432226070202887,-0.004689437802881002,-0.0003198152990080416,-0.007110234349966049,0.003379564033821225,1.3159373998641968,-0.8143353462219238,0.9868683815002441,0.18095196783542633,0.39943477511405945,0.7744864225387573,0.42000001668930054,-1.5301095247268677,3.0000011920928955,-0.04584788903594017,-2.9999992847442627,0.0008691533003002405,0.0007963840034790337,0.0007110277656465769,0.0006108740926720202,0.11094217747449875,0.09756709635257721,0.08334315568208694,0.06823883205652237
0.03333333333333333,0.008960967883467674,0.006801892071962357,0.0,0.9997960329055786,0.0,0.0,0.020196838304400444,0.407020628452301,0.3153075575828552,0.0,0.0,0.0,-0.8691297769546509,-0.4411844313144684,0.6598457098007202,0.4200000464916229,1.0,3.390914116607746e-06,-2.132455392711563e-06,-3.71076644967161e-08,0.0002635782293509692,0.00026937935035675764,-0.00010509486310184002,-0.001770757487975061,0.0041308156214654446,-0.00013547815615311265,-0.027547240257263184,0.025974977761507034,1.3166308403015137,-1.591447114944458,1.6122981309890747,-0.08096716552972794,0.39943477511405945,0.7744864225387573,0.42000001668930054,-1.4800903797149658,3.0000038146972656,-0.09588772803544998,-3.0000014305114746,0.002990158973261714,0.0026527922600507736,0.0022773847449570894,0.0018608610844239593,0.1642245203256607,0.13976973295211792,0.1138303205370903,0.08631400763988495
0.05,0.01775182969868183,0.013771713711321354,0.0,0.9993767142295837,0.0,0.0,0.03530086576938629,0.593862771987915,0.4651002883911133,0.0,0.0,0.0,2.648353099822998,-0.44118446111679077,0.659845769405365,0.4200000464916229,1.0,3.7652293940482195e-06,-2.2118967990536476e-06,5.613899567435965e-09,0.000265309150563553,0.0002669153909664601,-0.0001044049859046936,-0.00172426737844944,0.004177379421889782,-0.0001294983085244894,-0.059679996222257614,0.053820669651031494,1.3116754293441772,-2.187657356262207,1.7618721723556519,-0.4752542972564697,0.39943477511405945,0.7744864225387573,0.42000001668930054,-1.4300720691680908,3.0000011920928955,-0.145926371216774,-3.000000238418579,0.005709365010261536,0.00491729099303484,0.0040530916303396225,0.003112319391220808,0.1927270144224167,0.15582595765590668,0.11705069243907928,0.07630770653486252
0.06666666666666667,0.029067832976579666,0.02306542731821537,0.0,0.9994488954544067,0.0,0.0,0.03319502994418144,0.7204062938690186,0.5952146053314209,0.0,0.0,0.0,-1.2110236883163452,-0.44118446111679077,0.6598457098007202,0.4200000464916229,0.9999999403953552,3.4068445984303253e-06,-2.2855729184811935e-06,4.300823945868615e-07,0.000267024093773216,0.0002679175231605768,-0.0001043803058564663,-0.0017406325787305832,0.004211729858070612,-0.00012850853090640157,-0.09850472956895828,0.08770175278186798,1.2990167140960693,-2.4722652435302734,2.1928560733795166,-1.014148473739624,0.39943477511405945,0.7744864225387573,0.42000001668930054,-1.3800537586212158,2.9999990463256836,-0.19596371054649353,-3.000000238418579,0.008359593339264393,0.006897140759974718,0.005323817487806082,0.003632832784205675,0.15804600715637207,0.10849840193986893,0.056921958923339844,0.003251207061111927
0.08333333333333333,0.04287987947463989,0.03440419211983681,0.0,0.9998804926872253,0.0,0.0,0.015459892340004444,0.8840740919113159,0.7166159152984619,0.0,0.0,0.0,-2.549382448196411,-0.44118446111679077,0.6598457098007202,0.4200000464916229,1.0,3.697329248097958e-06,-2.1889204617764335e-06,-2.632361599808064e-07,0.00026389621780253947,0.00026586378226056695,-0.00010433816350996494,-0.0017081365222111344,0.004150137305259705,-0.00012991174298804253,-0.1399952620267868,0.12670929729938507,1.278883457183838,-2.4978508949279785,2.4451918601989746,-1.383934497833252,0.39943477511405945,0.7744864225387573,0.42000001668930054,-1.3300354480743408,3.0000011920928955,-0.24023406207561493,-2.332960844039917,0.010029176250100136,0.007666784338653088,0.005154951009899378,0.002484956057742238,0.07916153967380524,0.016791177913546562,-0.0476423054933548,-0.1141008734703064
0.1,0.05076053738594055,0.04939468950033188,0.0,0.9998740553855896,0.0,0.0,0.015870051458477974,0.33866187930107117,0.9713680744171143,0.0,0.0,0.0,1.3396459817886353,-0.44118446111679077,0.6598457098007202,0.4200000464916229,0.9999999403953552,3.620433972173487e-06,-2.265166358483839e-06,1.7460881451825117e-07,0.00026676940615288913,0.00026740849716588855,-0.0001040794886648655,-0.0017386502586305141,0.0042092143557965755,-0.00012775196228176355,-0.18331049382686615,0.16379940509796143,1.2528895139694214,-2.5524063110351562,2.2009830474853516,-1.646085500717163,0.39943477511405945,0.7744864225387573,0.42000001668930054,-1.2800073623657227,2.9999992847442627,-0.2110203355550766,2.999999523162842,0.00510667497292161,0.002052731579169631,-0.0012008023913949728,-0.004665233660489321,-0.40832996368408203,-0.45550537109375,-0.5051313638687134,-0.557390570640564
0.11666666666666667,0.05735056847333908,0.06498276442289352,0.0,0.999992847442627,0.0,0.0,0.003776432015001774,0.42627081274986267,0.921551525592804,0.0,0.0,0.0,-2.3304526805877686,-0.44118446111679077,0.6598457098007202,0.4200000464916229,1.0,3.7984186747053172e-06,-2.262772341055097e-06,-1.5020653165720432e-07,0.00026373984292149544,0.00026565982261672616,-0.00010428996756672859,-0.0017054551281034946,0.004147582221776247,-0.000129800770082511,-0.22271230816841125,0.20408861339092255,1.227370023727417,-2.26315975189209,2.549614429473877,-1.46895432472229,0.39943477511405945,0.7744864225387573,0.42000001668930054,-1.230010747909546,3.000002384185791,-0.24240992963314056,-3.000000238418579,0.0005276885349303484,-0.003963975701481104,-0.008652450516819954,-0.013549622148275375,-0.18680459260940552,-0.2990432679653168,-0.4092412292957306,-0.5173218250274658
0.13333333333333333,0.06258580088615417,0.07822845131158829,0.0,0.9993924498558044,0.0,0.0,-0.034853387624025345,0.3045518696308136,0.77004075050354,0.0,0.0,0.0,-5.324611663818359,-0.44118446111679077,0.659845769405365,0.4200000464916229,0.9999999403953552,3.5505179312167456e-06,-2.2298092972050654e-06,2.9291240366546845e-07,0.0002670329704415053,0.0002677935699466616,-0.00010416889563202858,-0.0017439755611121655,0.004213570151478052,-0.00012800609692931175,-0.2600519061088562,0.25275999307632446,1.1999995708465576,-2.2218854427337646,3.146580219268799,-1.8151490688323975,0.39943477511405945,0.7744864225387573,0.42000001668930054,-1.1799927949905396,2.9999916553497314,-0.2084013968706131,2.999999761581421,-0.0024537304416298866,-0.008964172564446926,-0.015606791712343693,-0.022391432896256447,-0.16366836428642273,-0.2854134738445282,-0.4023166596889496,-0.5142287611961365
0.15,0.06526239216327667,0.08971359580755234,0.0,0.9960801601409912,0.0,0.0,-0.08845516294240952,0.10637501627206802,0.6174020171165466,0.0,0.0,0.0,-6.989473819732666,-0.44118446111679077,0.6598457098007202,0.4200000464916229,0.9999999403953552,3.3380795230186777e-06,-2.2429178443417186e-06,-2.8019679021440425e-08,0.00026674545370042324,0.0002675825380720198,-0.00010427855886518955,-0.0017367409309372306,0.004206846002489328,-0.00012831656204070896,-0.29690590500831604,0.30754029750823975,1.1665122509002686,-2.0238451957702637,3.6331167221069336,-2.2459826469421387,0.39943477511405945,0.7744864225387573,0.42000001668930054,-1.133982539176941,2.5244193077087402,-0.23979365825653076,-3.0,-0.0067796604707837105,-0.015218529850244522,-0.023697320371866226,-0.03222406655550003,-0.3424402177333832,-0.44468286633491516,-0.5415332317352295,-0.6329504251480103
0.16666666666666666,0.07330875098705292,0.10222026705741882,0.0,0.9926005601882935,0.0,0.0,-0.12142530083656311,0.6073876619338989,0.7941330671310425,0.0,0.0,0.0,-2.961778163909912,-0.44118446111679077,0.659845769405365,0.4200000464916229,0.9999999403953552,3.6478086258284748e-06,-2.307298927917145e-06,3.5287062161160065e-08,0.0002672687987796962,0.0002680137986317277,-0.0001041849609464407,-0.0017472092295065522,0.004217576701194048,-0.00012798466195818037,-0.33566179871559143,0.36303964257240295,1.1222811937332153,-2.2458271980285645,3.4882431030273438,-3.05218505859375,0.39943477511405945,0.7744864225387573,0.42000001668930054,-1.0913705825805664,2.5516180992126465,-0.28980958461761475,-3.0000014305114746,-0.009757100604474545,-0.019766978919506073,-0.02971675619482994,-0.03961627557873726,-0.1860327422618866,-0.25719547271728516,-0.3230541944503784,-0.3838503956794739
0.18333333333333332,0.07769818603992462,0.1114879846572876,0.0,0.9857893586158752,0.0,0.0,-0.16798613965511322,0.26615777611732483,0.5299511551856995,0.0,0.0,0.0,-6.264423847198486,-0.44118446111679077,0.6598457098007202,0.4200000464916229,0.9999999403953552,3.2905161333474098e-06,-2.1939308680885006e-06,-2.7921495870941726e-07,0.0002667803782969713,0.0002677594602573663,-0.00010433956049382687,-0.0017390174325555563,0.004206987097859383,-0.00012845761375501752,-0.37141352891921997,0.42348480224609375,1.065197467803955,-1.8878775835037231,3.904780149459839,-3.689269542694092,0.39943477511405945,0.7744864225387573,0.42000001668930054,-1.0421503782272339,3.0000009536743164,-0.3398275077342987,-2.9999988079071045,-0.019696708768606186,-0.029997937381267548,-0.040198132395744324,-0.05031838268041611,-0.6056399345397949,-0.6231716871261597,-0.6376403570175171,-0.6495354175567627
0.2,0.07844697684049606,0.1219700276851654,0.0,0.9814784526824951,0.0,0.0,-0.19157272577285767,-0.03295768052339554,0.6650713086128235,0.0,0.0,0.0,-1.7775605916976929,-0.44118446111679077,0.6598457098007202,0.4200000464916229,1.0,3.2807702154968865e-06,-2.2192509732121835e-06,1.5948818088418193e-07,0.0002662783954292536,0.00026740110479295254,-0.0001042510848492384,-0.0017357355682179332,0.004197742789983749,-0.00012865533062722534,-0.4056568145751953,0.4815419614315033,0.9969482421875,-1.8334945440292358,3.448460102081299,-4.451175212860107,0.39943477511405945,0.7744864225387573,0.42000001668930054,-0.99214768409729,3.0000007152557373,-0.38985440135002136,-3.0000007152557373,-0.03316036984324455,-0.04309951514005661,-0.052902232855558395,-0.06260238587856293,-0.8805921077728271,-0.8388985395431519,-0.7957958579063416,-0.752105712890625
0.21666666666666667,0.0811842605471611,0.1331508904695511,0.0,0.9737807512283325,0.0,0.0,-0.22748859226703644,0.20193371176719666,0.7193905711174011,0.0,0.0,0.0,-5.2759904861450195,-0.44118446111679077,0.659845769405365,0.4200000464916229,1.0,3.6131550587015226e-06,-2.2701437956129666e-06,2.2102723562511528e-07,0.0002671259571798146,0.00026781647466123104,-0.0001041400246322155,-0.001744531444273889,0.004215213470160961,-0.00012786476872861385,-0.4344627261161804,0.5383076667785645,0.9153875112533569,-1.4492697715759277,3.319849729537964,-5.2331085205078125,0.39943477511405945,0.7744864225387573,0.42000001668930054,-0.9421374797821045,3.0000007152557373,-0.43988290429115295,-3.0000011920928955,-0.04891405627131462,-0.05841076746582985,-0.06774373352527618,-0.07659906148910522,-0.986626923084259,-0.988709032535553,-0.9811705350875854,-0.9262338876724243
0.23333333333333334,0.0816422775387764,0.1420288234949112,0.0,0.9695753455162048,0.0,0.0,-0.24479304254055023,-0.012150073423981667,0.44790932536125183,0.0,0.0,0.0,-1.0981533527374268,-0.44118446111679077,0.6598457098007202,0.4200000464916229,1.0,3.381868964424939e-06,-2.290964630446979e-06,2.728199035573198e-07,0.00026691248058341444,0.0002677997399587184,-0.00010433257557451725,-0.0017395582981407642,0.004209650680422783,-0.00012844071898143739,-0.45741257071495056,0.5830416679382324,0.8233960866928101,-1.0899486541748047,2.3881754875183105,-5.744568824768066,0.39943477511405945,0.7744864225387573,0.42000001668930054,-0.8921267986297607,3.00000262260437,-0.48991310596466064,-3.0000011920928955,-0.06459623575210571,-0.07394455373287201,-0.0831504613161087,-0.09190293401479721,-0.9884709715843201,-0.9602792263031006,-0.9302214980125427,-0.9027277827262878
0.25,0.079152911901474,0.14676252007484436,0.0,0.9618223309516907,0.0,0.0,-0.27367454767227173,-0.21005506813526154,0.22583264112472534,0.0,0.0,0.0,-4.428553581237793,-0.4411844313144684,0.6598457098007202,0.4200000464916229,0.9999999403953552,3.7066108689032262e-06,-2.2230169633985497e-06,-2.2550023004441755e-07,0.00026424735551699996,0.00026656591217033565,-0.00010457867756485939,-0.001716934028081596,0.004155629314482212,-0.00013063238293398172,-0.4713352918624878,0.6192670464515686,0.7218235731124878,-0.47126513719558716,1.8869132995605469,-6.275572299957275,0.39943477511405945,0.7744864225387573,0.42000001668930054,-0.842116117477417,3.0,-0.5399430394172668,-3.000000476837158,-0.08126240968704224,-0.0905645415186882,-0.09972532838582993,-0.10843514651060104,-0.9932155013084412,-0.9943414330482483,-0.9952036738395691,-0.9958887100219727
0.26666666666666666,0.0795581266283989,0.14770695567131042,0.0,0.9591183662414551,0.0,0.0,-0.28300532698631287,0.027714965865015984,-0.004794165026396513,0.0,0.0,0.0,-0.07155001163482666,-0.44118446111679077,0.6598457098007202,0.4200000464916229,0.9999999403953552,3.7197162328084232e-06,-2.4034857233345974e-06,-1.8307420646124228e-07,0.0002662334591150284,0.000267290830379352,-0.00010425737127661705,-0.001732664299197495,0.004196626134216785,-0.00012850995699409395,-0.47821998596191406,0.6412918567657471,0.6176884174346924,-0.10510812699794769,0.7977086305618286,-6.206577301025391,0.39943477511405945,0.7744864225387573,0.42000001668930054,-0.792107105255127,3.000002145767212,-0.5899727940559387,-2.999990224838257,-0.09787004441022873,-0.10709335654973984,-0.11611279845237732,-0.12473399192094803,-1.000217318534851,-1.000136137008667,-1.00008225440979,-1.0000473260879517
0.2833333333333333,0.07519635558128357,0.14621683955192566,0.0,0.9526189565658569,0.0,0.0,-0.30416634678840637,-0.35862627625465393,-0.12397397309541702,0.0,0.0,0.0,-3.5296971797943115,-0.44118446111679077,0.659845769405365,0.4200000464916229,0.9999999403953552,3.5841367207467556e-06,-2.3154134396463633e-06,7.404404556154986e-08,0.0002652216353453696,0.0002645539352670312,-0.00010317075066268444,-0.0017022255342453718,0.004185160622000694,-0.00012499756121542305,-0.4717124104499817,0.6496300101280212,0.5185275077819824,0.8740601539611816,0.3057255744934082,-5.575814247131348,0.39943477511405945,0.7744864225387573,0.42000001668930054,-0.7420983910560608,3.000001907348633,-0.6400014162063599,-3.000000238418579,-0.11631804704666138,-0.12512248754501343,-0.13382257521152496,-0.14219015836715698,-1.0141005516052246,-1.0106234550476074,-1.0079745054244995,-1.0058636665344238
0.3,0.07032440602779388,0.142635777592659,0.0,0.9515396356582642,0.0,0.0,-0.30752623081207275,-0.23334920406341553,-0.2649784982204437,0.0,0.0,0.0,0.5148757696151733,-0.44118446111679077,0.6598457098007202,0.4200000464916229,1.0,3.7243221413518768e-06,-2.271844550705282e-06,9.635388664719358e-08,0.00026312549016438425,0.0002652580733411014,-0.00010438100434839725,-0.0016960209468379617,0.004134732764214277,-0.00013027961540501565,-0.4565589427947998,0.6569716930389404,0.4329448342323303,1.0465279817581177,0.5429431200027466,-4.823980331420898,0.39943477511405945,0.7744864225387573,0.42000001668930054,-0.6920909285545349,3.0000009536743164,-0.6900280714035034,-2.9999990463256836,-0.1330830156803131,-0.1419067084789276,-0.1506456434726715,-0.15904662013053894,-0.9569177627563477,-0.9827910661697388,-1.0003042221069336,-1.000209093093872
0.31666666666666665,0.06451690942049026,0.13674543797969818,0.0,0.9460853338241577,0.0,0.0,-0.32391756772994995,-0.4007880985736847,-0.3963153064250946,0.0,0.0,0.0,-2.95886492729187,-0.4411785900592804,0.6592199206352234,0.42000001668930054,0.9999626874923706,3.1737606320803025e-08,6.197876132318925e-07,-0.008631030097603798,0.003053324995562434,-0.032164860516786575,-2.508334000594914e-05,0.0003758641250897199,-0.001054530730471015,-0.6770744323730469,-0.45798259973526,0.659986138343811,0.4263880252838135,0.06930483132600784,0.19534043967723846,-0.20363591611385345,0.39943477511405945,0.7744864225387573,0.42000001668930054,-0.6420860290527344,2.9999890327453613,-0.7404649257659912,-2.9999284744262695,-0.14248667657375336,-0.1516733467578888,-0.16013962030410767,-0.16727375984191895,-0.5204814076423645,-0.5234911441802979,-0.49077272415161133,-0.4039187729358673
0.3333333333333333,0.0562596395611763,0.1285775899887085,0.0,0.946107804775238,0.0,0.0,-0.32385194301605225,-0.5364248752593994,-0.529776930809021,0.0,0.0,0.0,0.9651383757591248,-0.44049930572509766,0.6605944633483887,0.4201095402240753,0.999653160572052,0.0027343821711838245,-5.087349563837051e-06,-0.026193616911768913,0.2207435667514801,0.3896329998970032,0.03647471219301224,1.854804515838623,-0.057442259043455124,-8.722901344299316,-0.4547145962715149,0.6667979955673218,0.42312490940093994,0.28656652569770813,0.4793905019760132,-0.16684281826019287,0.39943477511405945,0.7744864225387573,0.42000001668930054,-0.5920805335044861,2.9999513626098633,-0.7905128598213196,-3.0000007152557373,-0.1524900645017624,-0.16092634201049805,-0.1680690348148346,-0.17308799922466278,-0.6061276197433472,-0.5319491028785706,-0.4255310595035553,-0.2779477834701538
0.35,0.04564283788204193,0.11818274110555649,0.0,0.9412445425987244,0.0,0.0,-0.33772584795951843,-0.6834930777549744,-0.6624433994293213,0.0,0.0,0.0,-2.672499179840088,-0.43635502457618713,0.6676806211471558,0.42000025510787964,0.9944821000099182,-7.851194823160768e-06,3.3318131045234622e-06,-0.10490567237138748,0.30443525314331055,0.5073824524879456,-0.0003541885525919497,0.017911477014422417,-0.0024280056823045015,-12.57565975189209,-0.4476013779640198,0.6751410961151123,0.42077958583831787,0.5886181592941284,0.594693124294281,-0.12015996873378754,0.39943477511405945,0.7744864225387573,0.42000001668930054,-0.5420756936073303,3.0000014305114746,-0.8405682444572449,-3.000002384185791,-0.16287384927272797,-0.16963131725788116,-0.17455735802650452,-0.17674145102500916,-0.6058281064033508,-0.48198503255844116,-0.3286415636539459,-0.14439818263053894
0.36666666666666664,0.037511684000492096,0.10509606450796127,0.0,0.9272834658622742,0.0,0.0,-0.37435999512672424,-0.4173952341079712,-0.8395028114318848,0.0,0.0,0.0,-5.8267951011657715,-0.42695626616477966,0.6816194653511047,0.4200950562953949,0.9921368956565857,-0.0023585299495607615,0.0002499700931366533,-0.1251346468925476,0.7329109311103821,1.0573664903640747,0.04616926237940788,-2.23392915725708,0.5396032333374023,-3.4871888160705566,-0.43698742985725403,0.6871336698532104,0.4202650189399719,0.7552514672279358,0.9579455852508545,0.08240838348865509,0.39943477511405945,0.7744864225387573,0.42000001668930054,-0.49203747510910034,3.000002384185791,-0.8905949592590332,-3.0000007152557373,-0.17249184846878052,-0.17694172263145447,-0.1790669858455658,-0.1779872626066208,-0.5067967772483826,-0.3661436140537262,-0.19734729826450348,-0.004379608202725649
0.3833333333333333,0.02672826685011387,0.09018329530954361,0.0,0.898905873298645,0.0,0.0,-0.438141793012619,-0.7321770191192627,-0.9192622900009155,0.0,0.0,0.0,-9.25469970703125,-0.4051823318004608,0.710544764995575,0.4214157462120056,0.9860852360725403,-0.003986025229096413,-0.02323797345161438,-0.1645597219467163,1.963739037513733,2.4992783069610596,0.1660589724779129,0.331647664308548,-4.732363224029541,-6.8632683753967285,-0.4123057723045349,0.7137182354927063,0.42207491397857666,2.3332748413085938,2.3404386043548584,0.2132989466190338,0.39943477511405945,0.7744864225387573,0.42000001668930054,-0.4420168101787567,3.0000016689300537,-0.9406023025512695,-2.9998884201049805,-0.18442587554454803,-0.18554255366325378,-0.18395984172821045,-0.17892597615718842,-0.7781066298484802,-0.5466697812080383,-0.2978847324848175,-0.0419936403632164
0.4,0.018076099455356598,0.0780322328209877,0.0,0.8528293967247009,0.0,0.0,-0.5221896171569824,-0.4664095640182495,-0.7053938508033752,0.0,0.0,0.0,-12.262165069580078,-0.34114378690719604,0.7589541673660278,0.42636212706565857,0.9719033241271973,0.041917018592357635,-0.0550861619412899,-0.2249717265367508,5.108480453491211,3.6470606327056885,0.240910604596138,38.06830978393555,-15.448064804077148,6.561042308807373,-0.34845831990242004,0.7640836238861084,0.4266932010650635,4.9536237716674805,3.541764259338379,0.5080439448356628,0.39943477511405945,0.7744864225387573,0.42000001668930054,-0.39752599596977234,1.8486390113830566,-0.9033636450767517,2.993565320968628,-0.19965924322605133,-0.19605469703674316,-0.18963491916656494,-0.17986059188842773,-0.8453275561332703,-0.5765888094902039,-0.3055223524570465,-0.045236073434352875
0.4166666666666667,0.012967774644494057,0.06917005032300949,0.0,0.7993798851966858,0.0,0.0,-0.6008259057998657,-0.24520087242126465,-0.4682459533214569,0.0,0.0,0.0,-10.92324447631836,-0.2543407678604126,0.8152549266815186,0.4347780644893646,0.9407570362091064,0.1257402002811432,-0.09443406015634537,-0.30041271448135376,5.996382236480713,2.5555362701416016,0.5599139928817749,10.951337814331055,-13.28210163116455,19.527498245239258,-0.26071494817733765,0.8218272924423218,0.43498218059539795,5.536807060241699,3.138291358947754,0.5502839088439941,0.39943477511405945,0.7744864225387573,0.42000001668930054,-0.3793397545814514,0.7559850215911865,-0.8533207178115845,2.9987480640411377,-0.2148265838623047,-0.20673733949661255,-0.196006640791893,-0.1823306530714035,-0.8696808218955994,-0.6109277606010437,-0.37068232893943787,-0.16345351934432983
0.43333333333333335,0.011281153187155724,0.06378279626369476,0.0,0.7601078748703003,0.0,0.0,-0.6497969031333923,-0.04108245298266411,-0.2649441063404083,0.0,0.0,0.0,-6.374621868133545,-0.160541370511055,0.8600186705589294,0.4450548589229584,0.8973861932754517,0.1568964719772339,-0.11443903297185898,-0.396213561296463,5.973710536956787,1.674865484237671,0.6934723258018494,18.522876739501953,-8.3076171875,20.886165618896484,-0.16674652695655823,0.8676639795303345,0.44449469447135925,5.805371284484863,2.2820544242858887,0.6894608736038208,0.39943477511405945,0.7744864225387573,0.42000001668930054,-0.36848214268684387,0.6642701029777527,-0.879226803779602,-3.0000035762786865,-0.23020100593566895,-0.21754251420497894,-0.202633336186409,-0.18548913300037384,-0.8659171462059021,-0.608494758605957,-0.3793451189994812,-0.1969660371541977
0.45,0.008572693914175034,0.06005905196070671,0.0,0.7435494661331177,0.0,0.0,-0.6686809062957764,-0.20739281177520752,-0.18792083859443665,0.0,0.0,0.0,-1.9054811000823975,-0.06167168170213699,0.8876847624778748,0.45444828271865845,0.8397301435470581,0.15927733480930328,-0.11387064307928085,-0.5064753890037537,5.9412360191345215,0.4385429620742798,0.21838673949241638,-10.130271911621094,-8.940494537353516,26.45783805847168,-0.06749042868614197,0.8966877460479736,0.4534608721733093,6.208467483520508,1.186335563659668,0.6354631781578064,0.39943477511405945,0.7744864225387573,0.42000001668930054,-0.3546443283557892,0.8456498384475708,-0.9292508363723755,-3.000001907348633,-0.240045428276062,-0.22886155545711517,-0.20954562723636627,-0.1887567937374115,-0.0248107872903347,-0.7212581038475037,-0.4432758092880249,-0.20744840800762177
0.4666666666666667,0.007742370944470167,0.05414155498147011,0.0,0.7201306223869324,0.0,0.0,-0.6938385367393494,0.006636492908000946,-0.4248766005039215,0.0,0.0,0.0,-4.96299409866333,0.03893161937594414,0.8937691450119019,0.46010297536849976,0.7726997137069702,0.1372801959514618,-0.1437707096338272,-0.6028426289558411,5.844593048095703,-1.0855178833007812,0.13631704449653625,-6.835387229919434,1.4418185949325562,25.777666091918945,0.03335859254002571,0.9056177139282227,0.46053415536880493,6.188530921936035,-0.005251571536064148,0.5134332180023193,0.39943477511405945,0.7744864225387573,0.42000001668930054,-0.34100568294525146,0.6100656390190125,-0.9792748689651489,-2.999999523162842,-0.240075945854187,-0.24003390967845917,-0.2167695015668869,-0.19175642728805542,-0.003597786882892251,-0.03999614343047142,-0.47499701380729675,-0.21699258685112
0.48333333333333334,0.009859170764684677,0.051641590893268585,0.0,0.7093858122825623,0.0,0.0,-0.7048203945159912,0.14007814228534698,-0.10723469406366348,0.0,0.0,0.0,-0.7575720548629761,0.13590721786022186,0.8833816051483154,0.46377113461494446,0.6813831329345703,0.09255418926477432,-0.1704680472612381,-0.7057558298110962,5.576906204223633,-1.7366595268249512,0.13736140727996826,21.961559295654297,7.567630767822266,2.3472583293914795,0.13044369220733643,0.8967822790145874,0.46559953689575195,5.6143035888671875,-0.8936191201210022,0.25969117879867554,0.39943477511405945,0.7744864225387573,0.42000001668930054,-0.33172810077667236,0.48910126090049744,-1.0292991399765015,-2.999239921569824,-0.2399565577507019,-0.2399623692035675,-0.22612591087818146,-0.1973491907119751,-0.030002595856785774,-0.018501611426472664,-0.3930509090423584,-0.2449852079153061
0.5,0.01471780426800251,0.04949633777141571,0.0,0.690653383731842,0.0,0.0,-0.7231858968734741,0.3428521454334259,-0.06912008672952652,0.0,0.0,0.0,-4.018296241760254,0.22013264894485474,0.8653382062911987,0.4618789553642273,0.6248161792755127,0.06953392922878265,-0.16206759214401245,-0.7605944275856018,4.555816650390625,-1.1908072233200073,-0.11230316758155823,-3.004002809524536,3.6811883449554443,-8.928842544555664,0.21603743731975555,0.8795105218887329,0.4640859067440033,4.704476833343506,-1.3160929679870605,-0.3208997845649719,0.39943477511405945,0.7744864225387573,0.42000001668930054,-0.324802964925766,0.5160335302352905,-1.079321265220642,-3.000000476837158,-0.23746593296527863,-0.23755377531051636,-0.22956714034080505,-0.19983237981796265,0.20198370516300201,0.21028582751750946,-0.09434353560209274,-0.0970124676823616
0.5166666666666666,0.0178034920245409,0.050539299845695496,0.0,0.6855381727218628,0.0,0.0,-0.728036642074585,0.10617399215698242,0.11529937386512756,0.0,0.0,0.0,0.08551204949617386,0.28993088006973267,0.8418416380882263,0.4540971517562866,0.5696877241134644,0.036961913108825684,-0.14504466950893402,-0.8081161975860596,3.6850922107696533,-1.713891625404358,-0.5861865878105164,-2.725052833557129,0.025864798575639725,-7.152580261230469,0.28677085041999817,0.85451340675354,0.4564186930656433,3.763232707977295,-1.667836308479309,-0.584473192691803,0.39943477511405945,0.7744864225387573,0.42000001668930054,-0.30917155742645264,1.2374838590621948,-1.1293433904647827,-3.0,-0.2349751591682434,-0.2343616634607315,-0.2303202897310257,-0.20119741559028625,0.18090929090976715,0.23190689086914062,0.0358731746673584,-0.047120362520217896
0.5333333333333333,0.02151307463645935,0.04838481545448303,0.0,0.6709181070327759,0.0,0.0,-0.7415314316749573,0.2705228924751282,-0.14682841300964355,0.0,0.0,0.0,-3.1726105213165283,0.3456308841705322,0.8169673681259155,0.43999287486076355,0.5358229279518127,0.003845847910270095,-0.13053396344184875,-0.8341701626777649,2.8863306045532227,-1.9790728092193604,-0.7233041524887085,-10.25972843170166,3.505610704421997,6.175285816192627,0.3437381386756897,0.8291034698486328,0.44270843267440796,3.010659694671631,-1.5800433158874512,-0.9834756255149841,0.39943477511405945,0.7744864225387573,0.42000001668930054,-0.2897649109363556,0.8687109351158142,-1.1793655157089233,-2.999655246734619,-0.22979222238063812,-0.22866025567054749,-0.2276354283094406,-0.20087964832782745,0.21722054481506348,0.2733473777770996,0.1447906196117401,-0.01375492475926876
0.55,0.027871405705809593,0.04989371448755264,0.0,0.6694520711898804,0.0,0.0,-0.7428552508354187,0.4019063711166382,0.11188576370477676,0.0,0.0,0.0,0.6803215146064758,0.3870348632335663,0.7912030220031738,0.4243960678577423,0.5083914399147034,-0.023879164829850197,-0.07492250204086304,-0.8575281500816345,1.7158273458480835,-1.5900535583496094,-0.47570663690567017,18.387283325195312,-11.269529342651367,24.140430450439453,0.38550037145614624,0.8019504547119141,0.42654913663864136,1.7145256996154785,-1.2248718738555908,-0.17663045227527618,0.39943477511405945,0.7744864225387573,0.42000001668930054,-0.27962619066238403,0.4249196946620941,-1.2294319868087769,-2.9509668350219727,-0.22811536490917206,-0.22582672536373138,-0.22618335485458374,-0.20221127569675446,0.2191929668188095,0.2497565895318985,0.16634391248226166,-0.03445122390985489
0.5666666666666667,0.03398279473185539,0.04747259244322777,0.0,0.6575552821159363,0.0,0.0,-0.753406286239624,0.35303565859794617,-0.19166061282157898,0.0,0.0,0.0,-2.7482917308807373,0.40824928879737854,0.7787867784500122,0.42287468910217285,0.5089954137802124,-0.04522869363427162,-0.04322038218379021,-0.8584927916526794,0.7808933258056641,-0.5923033356666565,0.06743098050355911,-7.353027820587158,9.239645957946777,0.9439824223518372,0.40591245889663696,0.7887120842933655,0.4253281056880951,0.7678259015083313,-0.5883389711380005,0.06874702125787735,0.39943477511405945,0.7744864225387573,0.42000001668930054,-0.2730504274368286,0.5130141377449036,-1.2794532775878906,-2.998961925506592,-0.22101035714149475,-0.21888990700244904,-0.2207667976617813,-0.2007267028093338,0.4103623628616333,0.40788131952285767,0.34839674830436707,0.11680010706186295
0.5833333333333334,0.04184042662382126,0.04871814325451851,0.0,0.658290684223175,0.0,0.0,-0.7527638673782349,0.4886123538017273,0.09593253582715988,0.0,0.0,0.0,1.0054786205291748,0.4159468114376068,0.769504725933075,0.4226688742637634,0.518090009689331,-0.054022934287786484,-0.012529299594461918,-0.8535262942314148,0.15185405313968658,-0.4612245559692383,0.17321377992630005,5.255125999450684,8.180373191833496,3.2547833919525146,0.41334372758865356,0.7786181569099426,0.42493438720703125,0.17060650885105133,-0.39612680673599243,0.08830725401639938,0.39943477511405945,0.7744864225387573,0.42000001668930054,-0.2648794949054718,0.38093096017837524,-1.3294715881347656,-2.997931718826294,-0.2165607362985611,-0.214204341173172,-0.21644723415374756,-0.19998620450496674,0.3829168677330017,0.3587564527988434,0.3216141164302826,0.08409648388624191
0.6,0.05103372037410736,0.046008795499801636,0.0,0.6476305723190308,0.0,0.0,-0.7619544863700867,0.6031728386878967,-0.1819632649421692,0.0,0.0,0.0,-2.601943254470825,0.41623371839523315,0.7675709128379822,0.42167285084724426,0.553967297077179,-0.03307586535811424,-0.011048346757888794,-0.8318077921867371,-0.13594797253608704,-0.1443663090467453,-0.08029644936323166,0.26480650901794434,-3.0871219635009766,6.116549491882324,0.4125399589538574,0.7769633531570435,0.4229430556297302,-0.17881858348846436,-0.01145896315574646,-0.043694447726011276,0.39943477511405945,0.7744864225387573,0.42000001668930054,-0.28101131319999695,-1.9908325672149658,-1.291184902191162,2.999786615371704,-0.20647107064723969,-0.20536744594573975,-0.2087739109992981,-0.19684849679470062,0.541283130645752,0.477363646030426,0.430425226688385,0.17621943354606628
0.6166666666666667,0.058023735880851746,0.04629902169108391,0.0,0.6492915153503418,0.0,0.0,-0.7605396509170532,0.3409191966056824,0.038600508123636246,0.0,0.0,0.0,1.134805679321289,0.4143099784851074,0.7654466032981873,0.4200109541416168,0.5780999660491943,0.00013258631224744022,-1.0293487321177963e-05,-0.8159658312797546,-0.0832970067858696,-0.06911683082580566,-0.004458101466298103,-0.20964893698692322,0.14921385049819946,1.8202853202819824,0.4090765714645386,0.7754796743392944,0.42457687854766846,-0.1896086037158966,-0.017552461475133896,0.16159690916538239,0.39943477511405945,0.7744864225387573,0.42000001668930054,-0.32940229773521423,-2.999997854232788,-1.3109341859817505,-2.999842405319214,-0.19993796944618225,-0.19957596063613892,-0.2032751441001892,-0.19508236646652222,0.4395919442176819,0.37402257323265076,0.344769150018692,0.11555974930524826
0.6333333333333333,0.06558052450418472,0.04984108731150627,0.0,0.6398004293441772,0.0,0.0,-0.7685410976409912,0.4655236303806305,0.255127876996994,0.0,0.0,0.0,-2.480928897857666,0.4136335849761963,0.764965832233429,0.4200000464916229,0.5857592225074768,-4.861922207055613e-07,3.668843717719028e-08,-0.8104851245880127,-0.025911327451467514,-0.01476634107530117,-3.565847873687744e-05,0.0019270332995802164,-0.00024257542099803686,0.9284351468086243,0.4078547954559326,0.7781699895858765,0.4276489317417145,-0.07263143360614777,0.2937118411064148,0.21681754291057587,0.39943477511405945,0.7744864225387573,0.42000001668930054,-0.3794430196285248,-3.0,-1.3608871698379517,-2.998751163482666,-0.19157806038856506,-0.19295218586921692,-0.19755318760871887,-0.1933002918958664,0.5983973145484924,0.4694124758243561,0.3982265293598175,0.15878576040267944
0.65,0.0745631605386734,0.049005527049303055,0.0,0.6421668529510498,0.0,0.0,-0.7665648460388184,0.5633410811424255,-0.056136514991521835,0.0,0.0,0.0,1.2242236137390137,0.41252371668815613,0.7659633159637451,0.42021477222442627,0.5935538411140442,0.0031219469383358955,-0.004391870461404324,-0.8047761917114258,-0.22288331389427185,0.20223842561244965,0.04613965377211571,-0.7197530269622803,-2.188516855239868,1.981149673461914,0.40509629249572754,0.7835257053375244,0.4310220777988434,-0.31471073627471924,0.23673680424690247,0.19823011755943298,0.39943477511405945,0.7744864225387573,0.42000001668930054,-0.4294605851173401,-2.9996817111968994,-1.410901427268982,-2.9999752044677734,-0.18032066524028778,-0.18383099138736725,-0.18960842490196228,-0.18916279077529907,0.43343570828437805,0.36421141028404236,0.3477326035499573,0.17826923727989197
0.6666666666666666,0.08615260571241379,0.049382977187633514,0.0,0.6663458943367004,0.0,0.0,-0.7456427216529846,0.7475102543830872,0.033256545662879944,0.0,0.0,0.0,4.8598713874816895,0.40915998816490173,0.7689313888549805,0.42013782262802124,0.6013690829277039,0.0020838372875005007,-0.0027461759746074677,-0.7989639043807983,-0.2129889726638794,0.1636270433664322,-0.001970672747120261,0.028130458667874336,0.0959504172205925,-1.362264633178711,0.40064212679862976,0.7851178646087646,0.4349191188812256,-0.2684021592140198,0.041596777737140656,0.2879699170589447,0.39943477511405945,0.7744864225387573,0.42000001668930054,-0.4794820249080658,-2.9999337196350098,-1.4608962535858154,-2.999962091445923,-0.17695441842079163,-0.18030911684036255,-0.18497976660728455,-0.18569186329841614,0.14448349177837372,0.19123996794223785,0.2990913987159729,0.2893139719963074
0.6833333333333333,0.09948062151670456,0.0469917356967926,0.0,0.6774517893791199,0.0,0.0,-0.7355671525001526,0.8281238079071045,-0.20475758612155914,0.0,0.0,0.0,0.7590633034706116,0.40637630224227905,0.7710757255554199,0.42000001668930054,0.5947350859642029,1.4282984750479955e-07,-1.8213536350231152e-06,-0.8039216995239258,-0.1474492996931076,0.11350011825561523,-4.2381114326417446e-05,0.0032241304870694876,0.0016320830909535289,-0.8102492094039917,0.3986116647720337,0.7863253355026245,0.4404100775718689,-0.018306197598576546,0.01957562565803528,0.3888068199157715,0.39943477511405945,0.7744864225387573,0.42000001668930054,-0.5294952392578125,-2.9999992847442627,-1.5109130144119263,-2.999999523162842,-0.17555056512355804,-0.17773288488388062,-0.18019117414951324,-0.1803523451089859,0.065067358314991,0.14908704161643982,0.2947503924369812,0.35635972023010254
0.7,0.11434854567050934,0.041185032576322556,0.0,0.6658153533935547,0.0,0.0,-0.7461165189743042,0.9233167171478271,-0.4166668653488159,0.0,0.0,0.0,-2.8067381381988525,0.40472596883773804,0.772346019744873,0.4200000464916229,0.5916650891304016,7.748514718741717e-08,-6.771033866925791e-08,-0.8061838150024414,-0.08286818861961365,0.06356196105480194,-5.815410986542702e-06,-0.00022458279272541404,-0.000232623890042305,-0.3625927269458771,0.4022122919559479,0.7888702154159546,0.454309344291687,0.4498324394226074,0.2205992043018341,1.3532030582427979,0.39943477511405945,0.7744864225387573,0.42000001668930054,-0.5795076489448547,-2.9999797344207764,-1.5609313249588013,-2.9999990463256836,-0.17624089121818542,-0.1769287884235382,-0.17692872881889343,-0.17580175399780273,-0.08139310032129288,0.007348960265517235,0.14954756200313568,0.2339017391204834
0.7166666666666667,0.13144756853580475,0.03791528195142746,0.0,0.6329457759857178,0.0,0.0,-0.7741960883140564,1.0711239576339722,-0.16233521699905396,0.0,0.0,0.0,-6.036648273468018,0.4041386544704437,0.7727975249290466,0.4200000464916229,0.5908715724945068,1.5297580091555574e-07,-6.8449144130511286e-09,-0.8067655563354492,-0.018115505576133728,0.013766775839030743,-5.5156415328383446e-06,-0.00028003158513456583,0.0002200873859692365,-0.05175590142607689,0.41888856887817383,0.7905465364456177,0.4822786748409271,1.5516853332519531,-0.00021805614233016968,2.110320568084717,0.39943477511405945,0.7744864225387573,0.42000001668930054,-0.6295183897018433,-2.9996767044067383,-1.6109474897384644,-2.999957799911499,-0.1803179234266281,-0.17928460240364075,-0.1767314374446869,-0.17380566895008087,-0.23713888227939606,-0.14417225122451782,-0.004322017077356577,0.10275084525346756
0.7333333333333333,0.14604556560516357,0.03713630139827728,0.0,0.6142488718032837,0.0,0.0,-0.7891123294830322,0.7988836765289307,0.0049971360713243484,0.0,0.0,0.0,-1.8545513153076172,0.40413838624954224,0.7727978825569153,0.41999995708465576,0.5908719897270203,-1.6896293573154253e-06,-5.668092853738926e-06,-0.8067653179168701,0.00010242708231089637,-0.00038724561454728246,-7.527717389166355e-05,0.009482366032898426,-0.0026505279820412397,-0.0007653440698049963,0.443798303604126,0.793635368347168,0.5180380344390869,1.3522627353668213,0.3430554270744324,2.191798210144043,0.39943477511405945,0.7744864225387573,0.42000001668930054,-0.6471593976020813,0.5695915222167969,-1.6609619855880737,-3.0,-0.18310841917991638,-0.18115100264549255,-0.17706194519996643,-0.17304584383964539,-0.0806007906794548,-0.0631755068898201,-0.018649235367774963,0.0041448017582297325
0.75,0.15584050118923187,0.0389833003282547,0.0,0.6205668449401855,0.0,0.0,-0.7841535210609436,0.5109962224960327,0.15782618522644043,0.0,0.0,0.0,1.8478798866271973,0.40413835644721985,0.7727978825569153,0.41999995708465576,0.5908718109130859,-1.2381681244733045e-06,-5.933904503763188e-06,-0.8067654371261597,0.00013025633234065026,-0.00040334893856197596,-8.05174931883812e-05,0.009824410080909729,-0.0025780803989619017,-0.0008528116741217673,0.4627329707145691,0.7992674112319946,0.5481049418449402,0.8305866718292236,0.3272828161716461,1.4882923364639282,0.39943477511405945,0.7744864225387573,0.42000001668930054,-0.6147720813751221,2.9999802112579346,-1.6217762231826782,3.000000238418579,-0.18296539783477783,-0.1808520406484604,-0.1762569695711136,-0.1719912588596344,0.07853257656097412,0.08541914820671082,0.10585257411003113,0.11466871201992035
0.7666666666666666,0.16123922169208527,0.03679391369223595,0.0,0.6148380637168884,0.0,0.0,-0.7886533737182617,0.27690574526786804,-0.20067641139030457,0.0,0.0,0.0,-1.824639081954956,0.40413835644721985,0.7727978825569153,0.41999995708465576,0.5908716320991516,-1.2885554951935774e-06,-5.971473001409322e-06,-0.8067655563354492,0.00013149283768143505,-0.000403973477659747,-8.057896047830582e-05,0.009843788109719753,-0.002579545136541128,-0.0008566456963308156,0.469105064868927,0.8043935894966125,0.5661429166793823,-0.06537241488695145,0.21241000294685364,0.8369600176811218,0.39943477511405945,0.7744864225387573,0.42000001668930054,-0.585374653339386,0.7030780911445618,-1.571719765663147,3.000000476837158,-0.17972953617572784,-0.1776282787322998,-0.17294052243232727,-0.16872413456439972,0.15976527333259583,0.1776200383901596,0.19299373030662537,0.19942645728588104
0.7833333333333333,0.16311119496822357,0.03986383602023125,0.0,0.6212974190711975,0.0,0.0,-0.7835748195648193,0.0553777702152729,0.3202257454395294,0.0,0.0,0.0,1.8682564496994019,0.40413835644721985,0.7727978825569153,0.41999995708465576,0.5908715724945068,-1.279743969462288e-06,-5.806202352687251e-06,-0.806765615940094,0.00013065231905784458,-0.0004036070895381272,-8.054426871240139e-05,0.009831950068473816,-0.0025767937768250704,-0.0008539881091564894,0.4657469093799591,0.8057777285575867,0.5766152143478394,-0.31678539514541626,0.08788630366325378,0.4699300229549408,0.39943477511405945,0.7744864225387573,0.42000001668930054,-0.5540764927864075,2.840122938156128,-1.5217167139053345,2.9999990463256836,-0.18248841166496277,-0.17898128926753998,-0.1731310486793518,-0.16800257563591003,-0.20548227429389954,-0.11920885741710663,-0.053080182522535324,-1.705484464764595e-08
0.8,0.16251838207244873,0.03877312317490578,0.0,0.6158839464187622,0.0,0.0,-0.7878368496894836,-0.07262502610683441,-0.17339974641799927,0.0,0.0,0.0,-1.7332279682159424,0.40413835644721985,0.7727978825569153,0.41999995708465576,0.5908719301223755,-1.25453539112641e-06,-5.8483033171796706e-06,-0.8067653775215149,0.0001301949960179627,-0.0004033026925753802,-8.058245293796062e-05,0.009820124134421349,-0.00257406965829432,-0.0008526527089998126,0.45544853806495667,0.8055477142333984,0.5782678723335266,-0.9292742013931274,-0.14987796545028687,-0.0885542631149292,0.39943477511405945,0.7744864225387573,0.42000001668930054,-0.5458046197891235,-1.4795246124267578,-1.4716602563858032,3.000000476837158,-0.18260757625102997,-0.17817486822605133,-0.17170539498329163,-0.16605348885059357,0.057311221957206726,0.10830985009670258,0.13966992497444153,0.1683422178030014
0.8166666666666667,0.16293205320835114,0.04065152630209923,0.0,0.621893584728241,0.0,0.0,-0.7831017374992371,0.050106875598430634,0.09529737383127213,0.0,0.0,0.0,1.5934853553771973,0.40413835644721985,0.7727978825569153,0.41999995708465576,0.5908719301223755,-1.2455715250325738e-06,-5.885662176297046e-06,-0.8067652583122253,0.0001304107572650537,-0.00040335385710932314,-8.058734238147736e-05,0.009822042658925056,-0.0025744226295500994,-0.0008532811189070344,0.4458478093147278,0.8039628267288208,0.5764708518981934,-0.18322975933551788,0.10934016108512878,-0.08723653852939606,0.39943477511405945,0.7744864225387573,0.42000001668930054,-0.545484721660614,1.2792619466781616,-1.4883960485458374,-2.999999761581421,-0.18428777158260345,-0.1788475513458252,-0.17163608968257904,-0.16518980264663696,0.10601761937141418,0.10373108088970184,0.09478047490119934,0.101511150598526
0.8333333333333334,0.16499857604503632,0.03921924903988838,0.0,0.6155824661254883,0.0,0.0,-0.7880724668502808,0.17959064245224,-0.1292618066072464,0.0,0.0,0.0,-1.8144468069076538,0.40413835644721985,0.7727979421615601,0.41999995708465576,0.5908718109130859,-1.2653778185267583e-06,-5.746525403083069e-06,-0.8067653775215149,0.0001299631840083748,-0.0004030635464005172,-8.055800572037697e-05,0.00981304980814457,-0.002573257079347968,-0.0008518167887814343,0.4423595070838928,0.8042240142822266,0.5732371211051941,-0.19832584261894226,-0.10508090257644653,-0.1409844160079956,0.39943477511405945,0.7744864225387573,0.42000001668930054,-0.5661906599998474,-3.0000016689300537,-1.449703335762024,3.000000476837158,-0.18228568136692047,-0.17696689069271088,-0.16995573043823242,-0.16339349746704102,0.06620770692825317,0.0709410086274147,0.07059329748153687,0.08948799222707748
0.85,0.1695806235074997,0.04029330238699913,0.0,0.6214455962181091,0.0,0.0,-0.7834572792053223,0.30768951773643494,0.12012950330972672,0.0,0.0,0.0,1.7697131633758545,0.40413835644721985,0.7727978825569153,0.41999995708465576,0.5908718109130859,-1.31627371047216e-06,-5.825327207276132e-06,-0.8067654371261597,0.00013098458293825388,-0.00040349565097130835,-8.051586337387562e-05,0.009830106981098652,-0.002575559774413705,-0.0008546944009140134,0.4431231915950775,0.8027852773666382,0.5729200839996338,0.23837770521640778,-0.05403874069452286,0.14143522083759308,0.39943477511405945,0.7744864225387573,0.42000001668930054,-0.6015275120735168,-1.3546826839447021,-1.4668855667114258,-2.999999761581421,-0.18182645738124847,-0.17645642161369324,-0.16937386989593506,-0.1623230278491974,0.07040856778621674,0.06349242478609085,0.06226141005754471,0.09035523235797882
0.8666666666666667,0.17585691809654236,0.03816889598965645,0.0,0.6151889562606812,0.0,0.0,-0.7883796691894531,0.41283100843429565,-0.14534161984920502,0.0,0.0,0.0,-1.873846173286438,0.40413835644721985,0.7727978825569153,0.41999995708465576,0.5908717513084412,-1.311901996814413e-06,-5.984714789519785e-06,-0.8067654967308044,0.00013144190597813576,-0.0004041469655930996,-8.06022435426712e-05,0.009848297573626041,-0.002580658532679081,-0.0008567059994675219,0.4488023519515991,0.8007472157478333,0.5726528167724609,0.4195657968521118,-0.2862362861633301,-0.0228132214397192,0.39943477511405945,0.7744864225387573,0.42000001668930054,-0.6421653032302856,-2.999851703643799,-1.5014238357543945,-1.2661641836166382,-0.17858342826366425,-0.1735263466835022,-0.16661891341209412,-0.159219890832901,0.08521775901317596,0.10305952280759811,0.12663201987743378,0.17735622823238373
0.8833333333333333,0.1845424920320511,0.03924136236310005,0.0,0.6017016768455505,0.0,0.0,-0.7987208962440491,0.5453063249588013,0.10528320074081421,0.0,0.0,0.0,-2.1443824768066406,0.40413835644721985,0.7727978825569153,0.41999995708465576,0.5908716917037964,-1.2742964372591814e-06,-6.006739113217918e-06,-0.8067654371261597,0.00013076004688628018,-0.0004036541504319757,-8.054659701883793e-05,0.009833474643528461,-0.0025769751518964767,-0.0008543227449990809,0.4573547840118408,0.7977856397628784,0.5744705200195312,0.6167017817497253,-0.05080603063106537,0.30853962898254395,0.39943477511405945,0.7744864225387573,0.42000001668930054,-0.6594847440719604,0.622207760810852,-1.5485424995422363,-2.999999761581421,-0.1777455359697342,-0.17280800640583038,-0.16591788828372955,-0.15809273719787598,0.13311654329299927,0.09055916965007782,0.05457689240574837,0.04513112083077431
0.9,0.18986448645591736,0.036193739622831345,0.0,0.6059600710868835,0.0,0.0,-0.7954950332641602,0.23365990817546844,-0.22431330382823944,0.0,0.0,0.0,1.437504529953003,0.40413835644721985,0.7727978825569153,0.41999995708465576,0.5908716917037964,-1.317699343417189e-06,-5.8371165323478635e-06,-0.8067654967308044,0.00013085646787658334,-0.0004036831669509411,-8.054659701883793e-05,0.009834637865424156,-0.0025769807398319244,-0.0008545938762836158,0.46789902448654175,0.7990050911903381,0.5820629596710205,0.5917234420776367,0.10232821106910706,0.5963738560676575,0.39943477511405945,0.7744864225387573,0.42000001668930054,-0.6534982919692993,0.13249652087688446,-1.5096781253814697,2.999999523162842,-0.1731719970703125,-0.16927750408649445,-0.16339139640331268,-0.1562129706144333,0.19737644493579865,0.1471950262784958,0.09365718066692352,0.05428440868854523
