vladlanda/robotic-transformer/data/env_000_episode_0180.csv
sim_time_s,robot_box_x,robot_box_y,robot_box_z,robot_box_quat_w,robot_box_quat_x,robot_box_quat_y,robot_box_quat_z,robot_box_linvel_x,robot_box_linvel_y,robot_box_linvel_z,robot_box_angvel_x,robot_box_angvel_y,robot_box_angvel_z,cube_world_x,cube_world_y,cube_world_z,cube_quat_w,cube_quat_x,cube_quat_y,cube_quat_z,cube_linvel_x,cube_linvel_y,cube_linvel_z,cube_angvel_x,cube_angvel_y,cube_angvel_z,endpoint_world_x,endpoint_world_y,endpoint_world_z,endpoint_linvel_x,endpoint_linvel_y,endpoint_linvel_z,target_cube_world_x,target_cube_world_y,target_cube_world_z,gripper_actual_pos_rad_gp_leftgearjoint,gripper_actual_vel_rad_s_gp_leftgearjoint,gripper_actual_pos_rad_gp_rotatingjoint,gripper_actual_vel_rad_s_gp_rotatingjoint,motor_angle_rad_joint1,motor_angle_rad_joint2,motor_angle_rad_joint3,motor_angle_rad_joint4,motor_speed_rad_s_joint1,motor_speed_rad_s_joint2,motor_speed_rad_s_joint3,motor_speed_rad_s_joint4
0.0,0.0,0.0,0.0,1.0,0.0,0.0,0.0,0.0,0.0,0.0,0.0,0.0,0.0,-0.36549636721611023,0.6975134611129761,0.41999998688697815,1.0,0.0,0.0,0.0,0.0,0.0,0.0,0.0,0.0,0.0,3.42540442943573e-06,-0.005000244826078415,1.313499927520752,0.0,0.0,0.0,0.4024306833744049,0.7702646851539612,0.42000001668930054,-1.5707999467849731,0.0,0.0,0.0,0.0,0.0,0.0,0.0,0.0,0.0,0.0,0.0
0.016666666666666666,0.0028846869245171547,0.002172430045902729,0.0,0.9998235702514648,0.0,0.0,0.018784118816256523,0.24105869233608246,0.1821271777153015,0.0,0.0,0.0,3.1417462825775146,-0.3654964864253998,0.6975131630897522,0.41999998688697815,1.0,3.279964630564791e-06,-8.339746386809566e-07,8.465587342243452e-08,-1.9833529222523794e-05,0.00017983045836444944,-6.132945418357849e-05,0.0009432713268324733,-0.004689474124461412,-0.00031981561915017664,-0.0071078110486269,0.0033997255377471447,1.315938949584961,-0.81368088722229,0.9876006245613098,0.18096989393234253,0.4024306833744049,0.7702646851539612,0.42000001668930054,-1.5301094055175781,3.0000007152557373,-0.045849766582250595,-3.000000476837158,0.0008704499341547489,0.0007971982704475522,0.0007116513443179429,0.0006115201395004988,0.11097510159015656,0.09760967642068863,0.08338829129934311,0.06828144192695618
0.03333333333333333,0.00896918773651123,0.006789530627429485,0.0,0.9998118877410889,0.0,0.0,0.01939425803720951,0.40710219740867615,0.31505244970321655,0.0,0.0,0.0,-0.8690036535263062,-0.36549660563468933,0.6975131034851074,0.4200000464916229,1.0,3.3908179375430336e-06,-2.132458348569344e-06,-3.7097745320124886e-08,0.00026357852038927376,0.00026937833172269166,-0.00010509369894862175,-0.0017707126680761576,0.004130884539335966,-0.0001354814594378695,-0.02752053178846836,0.026348315179347992,1.3165817260742188,-1.5889568328857422,1.6191027164459229,-0.08700937777757645,0.4024306833744049,0.7702646851539612,0.42000001668930054,-1.4800901412963867,3.0000009536743164,-0.0958896055817604,-3.000000476837158,0.0029902474489063025,0.0026526269502937794,0.002277149586006999,0.0018606868106871843,0.16412580013275146,0.13968424499034882,0.11375181376934052,0.08623776584863663
0.05,0.01848120056092739,0.013894552364945412,0.0,0.9999702572822571,0.0,0.0,-0.007709325756877661,0.6361913681030273,0.47228676080703735,0.0,0.0,0.0,-4.073119163513184,-0.3654966354370117,0.6975131630897522,0.4200000464916229,1.0,3.7651902857760433e-06,-2.2119197637948673e-06,5.609367637049445e-09,0.00026530938339419663,0.00026691678795032203,-0.00010440615005791187,-0.0017243892652913928,0.004177466034889221,-0.00012949809024576098,-0.05708051845431328,0.05795997381210327,1.3117804527282715,-1.9456101655960083,2.097353219985962,-0.4720248579978943,0.4024306833744049,0.7702646851539612,0.42000001668930054,-1.4300718307495117,3.0000016689300537,-0.145928293466568,-3.0000014305114746,0.00601213239133358,0.005172634031623602,0.004260771907866001,0.0032723136246204376,0.20697033405303955,0.1666121929883957,0.12433512508869171,0.08005785197019577
0.06666666666666667,0.030808376148343086,0.023385895416140556,0.0,0.9998659491539001,0.0,0.0,-0.016372371464967728,0.7727354168891907,0.6162649989128113,0.0,0.0,0.0,-0.035057149827480316,-0.3654966354370117,0.6975131034851074,0.4200000464916229,0.9999999403953552,3.406832092878176e-06,-2.28558906201215e-06,4.300801492718165e-07,0.0002670248504728079,0.0002679176686797291,-0.0001043803058564663,-0.00174071139190346,0.00421183044090867,-0.00012850876373704523,-0.09274400770664215,0.09206894785165787,1.3011364936828613,-2.2007803916931152,2.162181854248047,-0.7942960858345032,0.4024306833744049,0.7702646851539612,0.42000001668930054,-1.380049705505371,2.999999761581421,-0.1753830462694168,-0.7129541039466858,0.008583644405007362,0.006974450778216124,0.005252573173493147,0.0034128697589039803,0.13233959674835205,0.07625437527894974,0.01801001839339733,-0.0424501895904541
0.08333333333333333,0.04555865749716759,0.03497646749019623,0.0,0.9992404580116272,0.0,0.0,-0.038967233151197433,0.9417465925216675,0.7354084253311157,0.0,0.0,0.0,-3.5687973499298096,-0.3654966354370117,0.6975131034851074,0.4200000464916229,1.0,3.6973397072870284e-06,-2.18897503145854e-06,-2.6324283908252255e-07,0.00026389575214125216,0.000265863083768636,-0.00010433816350996494,-0.001708182506263256,0.004150256514549255,-0.00012991153926122934,-0.12530362606048584,0.1321815848350525,1.2876780033111572,-1.721706509590149,2.6440608501434326,-0.8310002088546753,0.4024306833744049,0.7702646851539612,0.42000001668930054,-1.3300390243530273,3.00000262260437,-0.20789025723934174,-2.962890625,0.009305762127041817,0.006518393289297819,0.0035741394385695457,0.00046985302469693124,-0.011876683682203293,-0.09789978712797165,-0.18618202209472656,-0.2766920030117035
0.1,0.054403118789196014,0.05027910694479942,0.0,0.9957621693611145,0.0,0.0,-0.09196559339761734,0.3853192627429962,1.0196665525436401,0.0,0.0,0.0,-7.318694591522217,-0.3654966354370117,0.6975131034851074,0.4200000464916229,0.9999999403953552,3.6204189655109076e-06,-2.2651970539300237e-06,1.7461321988321288e-07,0.00026676736888475716,0.0002674079150892794,-0.0001040794886648655,-0.001738528604619205,0.004209060221910477,-0.00012775698269251734,-0.15394222736358643,0.1785861849784851,1.2710483074188232,-1.6926591396331787,2.9254937171936035,-1.0940320491790771,0.4024306833744049,0.7702646851539612,0.42000001668930054,-1.2800222635269165,2.999990701675415,-0.1738676130771637,3.000001907348633,0.0027348482981324196,-0.0009655859903432429,-0.00487571582198143,-0.009002127684652805,-0.529577374458313,-0.577838659286499,-0.6287536025047302,-0.6825900673866272
0.11666666666666667,0.057908203452825546,0.06515587121248245,0.0,0.9920425415039062,0.0,0.0,-0.12590326368808746,0.4241465628147125,0.8339437246322632,0.0,0.0,0.0,-2.493173837661743,-0.3654966354370117,0.6975131034851074,0.4200000464916229,1.0,3.798416400968563e-06,-2.2627416456089122e-06,-1.5020985699720768e-07,0.00026374010485596955,0.00026566069573163986,-0.00010429113171994686,-0.001705370144918561,0.00414750212803483,-0.0001298012211918831,-0.1881985366344452,0.22215157747268677,1.2512388229370117,-2.139833450317383,2.78596830368042,-1.1435580253601074,0.4024306833744049,0.7702646851539612,0.42000001668930054,-1.2300363779067993,3.000000238418579,-0.2054748684167862,-3.000000476837158,-0.006226042751222849,-0.010881812311708927,-0.015757735818624496,-0.020864538848400116,-0.1382908672094345,-0.2536189556121826,-0.3648607134819031,-0.47187089920043945
0.13333333333333333,0.06332191079854965,0.07658256590366364,0.0,0.9859750866889954,0.0,0.0,-0.16689248383045197,0.25643885135650635,0.634128212928772,0.0,0.0,0.0,-5.814232349395752,-0.3654966354370117,0.6975131630897522,0.4200000464916229,0.9999999403953552,3.5505045161698945e-06,-2.2297124360193266e-06,2.9290509928614483e-07,0.0002670330286491662,0.000267792638624087,-0.00010417005978524685,-0.0017440036172047257,0.004213502164930105,-0.00012799850082956254,-0.22057420015335083,0.275208055973053,1.2289395332336426,-1.7075470685958862,3.6119894981384277,-1.5334382057189941,0.4024306833744049,0.7702646851539612,0.42000001668930054,-1.1800200939178467,2.9999923706054688,-0.17164747416973114,2.9999988079071045,-0.008878511376678944,-0.01553643774241209,-0.022329280152916908,-0.02926569990813732,-0.22949370741844177,-0.34227254986763,-0.44985732436180115,-0.5521640181541443
0.15,0.07348965108394623,0.08585407584905624,0.0,0.973084032535553,0.0,0.0,-0.23045065999031067,0.7311421632766724,0.5061203837394714,0.0,0.0,0.0,-8.618280410766602,-0.3654966354370117,0.6975131034851074,0.4200000464916229,0.9999999403953552,3.3380476907041157e-06,-2.2427855128626106e-06,-2.8018968478704664e-08,0.00026674478431232274,0.00026758163585327566,-0.00010427623055875301,-0.0017367067048326135,0.004206846933811903,-0.00012831886124331504,-0.2507111430168152,0.3368223011493683,1.196990966796875,-1.7024459838867188,3.989147663116455,-2.314833641052246,0.4024306833744049,0.7702646851539612,0.42000001668930054,-1.1487138271331787,0.9109306931495667,-0.2033127248287201,-3.0000007152557373,-0.010267219506204128,-0.018733685836195946,-0.027240486815571785,-0.03579654172062874,-0.09336544573307037,-0.18057039380073547,-0.2626892030239105,-0.3398514688014984
0.16666666666666666,0.0797501802444458,0.09228036552667618,0.0,0.9624356031417847,0.0,0.0,-0.2715100347995758,0.3022046983242035,0.3357599973678589,0.0,0.0,0.0,-3.6645705699920654,-0.3654966354370117,0.6975131630897522,0.4200000464916229,0.9999999403953552,3.6477515550359385e-06,-2.3071481791703263e-06,3.528846903577687e-08,0.00026726751821115613,0.0002680142060853541,-0.00010418612509965897,-0.0017472724430263042,0.004217501729726791,-0.00012797869567293674,-0.2852550148963928,0.40129584074020386,1.148430347442627,-1.905903935432434,4.185711860656738,-3.3794660568237305,0.4024306833744049,0.7702646851539612,0.42000001668930054,-1.1052484512329102,2.9999985694885254,-0.1698336899280548,3.000001907348633,-0.019025251269340515,-0.027749739587306976,-0.0364798940718174,-0.0452328696846962,-0.6229676008224487,-0.6167776584625244,-0.6088657975196838,-0.5996952056884766
0.18333333333333332,0.08170687407255173,0.10034195333719254,0.0,0.9479272961616516,0.0,0.0,-0.3184867799282074,0.04494955763220787,0.5410237312316895,0.0,0.0,0.0,-6.705283164978027,-0.3654966354370117,0.6975131034851074,0.4200000464916229,0.9999999403953552,3.290458380433847e-06,-2.193713044107426e-06,-2.7921399237129663e-07,0.00026677967980504036,0.00026776117738336325,-0.0001043418888002634,-0.0017391219735145569,0.004206927493214607,-0.00012845566379837692,-0.31506216526031494,0.4715633988380432,1.0872619152069092,-1.4229462146759033,4.373256683349609,-3.946441888809204,0.4024306833744049,0.7702646851539612,0.42000001668930054,-1.0552446842193604,3.0000014305114746,-0.20149941742420197,-2.999999761581421,-0.03151585906744003,-0.04007112607359886,-0.04859258979558945,-0.05710606649518013,-0.813664436340332,-0.7991171479225159,-0.7822586297988892,-0.7635878324508667
0.2,0.0869385376572609,0.11025316268205643,0.0,0.9378414750099182,0.0,0.0,-0.34706392884254456,0.4055422842502594,0.6182870864868164,0.0,0.0,0.0,-2.6206886768341064,-0.3654966354370117,0.6975131034851074,0.4200000464916229,1.0,3.280689952589455e-06,-2.219024509031442e-06,1.594884366795668e-07,0.0002662799961399287,0.0002674008719623089,-0.00010425224900245667,-0.0017357695614919066,0.004197873640805483,-0.00012865354074165225,-0.34139126539230347,0.5388963222503662,1.0144048929214478,-1.2913408279418945,3.986717462539673,-4.770750999450684,0.4024306833744049,0.7702646851539612,0.42000001668930054,-1.0052416324615479,3.000002861022949,-0.25152602791786194,-3.000000476837158,-0.04394007474184036,-0.052058566361665726,-0.06011398136615753,-0.06814306974411011,-0.742186963558197,-0.7042781114578247,-0.6653610467910767,-0.6261001229286194
0.21666666666666667,0.08911806344985962,0.11786868423223495,0.0,0.9303392767906189,0.0,0.0,-0.3666999042034149,0.08711696416139603,0.3888567388057709,0.0,0.0,0.0,-2.361715793609619,-0.3654966354370117,0.6975131630897522,0.4200000464916229,1.0,3.6130954867985565e-06,-2.269954165967647e-06,2.210255729551136e-07,0.0002671264810487628,0.0002678182499948889,-0.00010414235293865204,-0.001744590001180768,0.004215233027935028,-0.00012786359002348036,-0.36303645372390747,0.5975936651229858,0.9275033473968506,-1.030627727508545,3.298983573913574,-5.567617416381836,0.4024306833744049,0.7702646851539612,0.42000001668930054,-0.9552322030067444,2.9999961853027344,-0.3015553057193756,-3.0,-0.059100039303302765,-0.06665139645338058,-0.07409943640232086,-0.08149667829275131,-0.8297757506370544,-0.8461035490036011,-0.8580712676048279,-0.8689804673194885
0.23333333333333334,0.08803725242614746,0.12672433257102966,0.0,0.9166824817657471,0.0,0.0,-0.39961642026901245,-0.19557596743106842,0.5985662937164307,0.0,0.0,0.0,-5.466704368591309,-0.3654966354370117,0.6975131034851074,0.4200000464916229,1.0,3.3818200790847186e-06,-2.290785687364405e-06,2.728022536757635e-07,0.0002669146633706987,0.0002677999727893621,-0.00010433373972773552,-0.00173960963729769,0.004209722857922316,-0.0001284381141886115,-0.3769596219062805,0.6486251354217529,0.8276183009147644,-0.5130268335342407,2.782743453979492,-6.296510696411133,0.4024306833744049,0.7702646851539612,0.42000001668930054,-0.9052215218544006,2.9999969005584717,-0.35158658027648926,-2.9999990463256836,-0.07502537220716476,-0.08263891935348511,-0.09013289958238602,-0.09757152199745178,-0.9933368563652039,-0.993812084197998,-0.9941989779472351,-0.9945398569107056
0.25,0.0896504744887352,0.1313534528017044,0.0,0.9087756872177124,0.0,0.0,-0.4172849953174591,0.12000571191310883,0.21396546065807343,0.0,0.0,0.0,-1.0220646858215332,-0.36549660563468933,0.6975131034851074,0.4200000464916229,0.9999999403953552,3.706541974679567e-06,-2.2228152829484316e-06,-2.2551301981366123e-07,0.0002642470644786954,0.000266568036749959,-0.00010457867756485939,-0.0017170833889394999,0.00415569543838501,-0.00013063359074294567,-0.3877967596054077,0.6850497722625732,0.7218894958496094,-0.4009803533554077,1.642996907234192,-6.456090927124023,0.4024306833744049,0.7702646851539612,0.42000001668930054,-0.8552109003067017,2.9999945163726807,-0.401619017124176,-3.000002384185791,-0.0899638757109642,-0.0975440964102745,-0.10494228452444077,-0.1122698187828064,-0.9915663599967957,-0.9927703142166138,-0.9937728047370911,-0.981341540813446
0.26666666666666666,0.08637768775224686,0.14018455147743225,0.0,0.9148523211479187,0.0,0.0,-0.40378862619400024,-0.20453433692455292,0.6380394697189331,0.0,0.0,0.0,2.561356782913208,-0.3654966354370117,0.6975131034851074,0.4200000464916229,0.9999999403953552,3.719688493220019e-06,-2.403317694188445e-06,-1.8309575011699053e-07,0.00026623302255757153,0.00026729193632490933,-0.00010425853542983532,-0.0017327427631244063,0.00419660797342658,-0.00012851154315285385,-0.3955317735671997,0.6956428289413452,0.6172506809234619,-0.35534900426864624,-0.12571704387664795,-6.0871262550354,0.4024306833744049,0.7702646851539612,0.42000001668930054,-0.8052019476890564,2.9999303817749023,-0.4516506493091583,-3.000002861022949,-0.1076463907957077,-0.11492680013179779,-0.12211882323026657,-0.12929613888263702,-0.8772774338722229,-0.899601399898529,-0.9228213429450989,-0.9442455768585205
0.2833333333333333,0.08718291670084,0.14403130114078522,0.0,0.9145655632019043,0.0,0.0,-0.40443772077560425,0.06802830845117569,0.16671183705329895,0.0,0.0,0.0,-0.7214829325675964,-0.3654966354370117,0.6975131630897522,0.4200000464916229,0.9999999403953552,3.584116939236992e-06,-2.3153263555286685e-06,7.402376667187127e-08,0.00026522012194618583,0.0002645518397912383,-0.00010317075066268444,-0.0017020788509398699,0.004185091704130173,-0.00012499977310653776,-0.39835044741630554,0.6959432363510132,0.515718400478363,0.13200941681861877,-0.14249113202095032,-5.871152877807617,0.4024306833744049,0.7702646851539612,0.42000001668930054,-0.7551931738853455,3.000002861022949,-0.501680850982666,-3.00000262260437,-0.12091898918151855,-0.1287134885787964,-0.13641804456710815,-0.1440655142068863,-1.0095305442810059,-1.0072062015533447,-1.00543212890625,-1.0040110349655151
0.3,0.08453235030174255,0.14534829556941986,0.0,0.9205682277679443,0.0,0.0,-0.39058175683021545,-0.23874005675315857,0.045402295887470245,0.0,0.0,0.0,2.648855686187744,-0.3654966354370117,0.6975131034851074,0.4200000464916229,1.0,3.7243148653942626e-06,-2.2717647425452014e-06,9.633560438260247e-08,0.00026312581030651927,0.00026525743305683136,-0.00010438100434839725,-0.001696073217317462,0.0041348133236169815,-0.00013027583190705627,-0.3906705677509308,0.6964570879936218,0.42423754930496216,0.8046600818634033,0.11324924230575562,-5.1329121589660645,0.4024306833744049,0.7702646851539612,0.42000001668930054,-0.7051852941513062,3.000000476837158,-0.5517085194587708,-3.000002384185791,-0.13884611427783966,-0.14635291695594788,-0.1538420468568802,-0.16132013499736786,-1.0155706405639648,-1.0118319988250732,-1.0089681148529053,-1.006661295890808
0.31666666666666665,0.07897493243217468,0.14425216615200043,0.0,0.9197568893432617,0.0,0.0,-0.3924885392189026,-0.3353058099746704,-0.12845563888549805,0.0,0.0,0.0,-1.1400777101516724,-0.3652433753013611,0.6971530914306641,0.42011594772338867,0.9999797344207764,0.0028949084226042032,-2.4605747967143543e-05,-0.005667665973305702,0.012885131873190403,-0.002946848515421152,-0.016418030485510826,-0.8312760591506958,0.0051675778813660145,-0.563992440700531,-0.39072248339653015,0.6986475586891174,0.4285939037799835,0.10150580108165741,0.0677042305469513,-0.22016684710979462,0.4024306833744049,0.7702646851539612,0.42000001668930054,-0.6551810503005981,2.9999895095825195,-0.6022059917449951,-2.999701499938965,-0.1437465101480484,-0.15129545331001282,-0.15849116444587708,-0.16526195406913757,-0.28298109769821167,-0.2723994553089142,-0.24460624158382416,-0.19581550359725952
0.3333333333333333,0.07178571075201035,0.14038829505443573,0.0,0.924738883972168,0.0,0.0,-0.3806021809577942,-0.4784943759441376,-0.2748919129371643,0.0,0.0,0.0,2.39047908782959,-0.36524128913879395,0.6972688436508179,0.4200000464916229,0.9999839067459106,-2.1483917862497037e-06,5.8305431593908e-06,-0.005672086961567402,-0.00038309680530801415,3.4116364986402914e-05,-0.0001443477813154459,0.0005596164846792817,-0.0015262422384694219,-0.0014405844267457724,-0.38705939054489136,0.7056894302368164,0.4249752461910248,0.3334374725818634,0.6871098279953003,-0.18168769776821136,0.4024306833744049,0.7702646851539612,0.42000001668930054,-0.6051748991012573,2.9999825954437256,-0.6522449851036072,-3.000001907348633,-0.1496131867170334,-0.15654370188713074,-0.16286003589630127,-0.16844798624515533,-0.3655931353569031,-0.3154352605342865,-0.251074880361557,-0.1706990748643875
0.35,0.06241070106625557,0.13417449593544006,0.0,0.9232657551765442,0.0,0.0,-0.3841618597507477,-0.6113470196723938,-0.4130558371543884,0.0,0.0,0.0,-1.4036771059036255,-0.359850138425827,0.7042577266693115,0.42004460096359253,0.9977964758872986,0.0010572286555543542,-0.00025835802080109715,-0.06634006649255753,0.30156567692756653,0.3908378779888153,-0.030648674815893173,-1.5394443273544312,0.1103447899222374,-6.6183342933654785,-0.3797764778137207,0.7121188640594482,0.42200979590415955,0.6255244016647339,0.3641969561576843,-0.1890096366405487,0.4024306833744049,0.7702646851539612,0.42000001668930054,-0.5551699995994568,2.99998140335083,-0.7022900581359863,-2.999997615814209,-0.15715008974075317,-0.16259999573230743,-0.16719283163547516,-0.17080910503864288,-0.48526740074157715,-0.3697969913482666,-0.24083799123764038,-0.09914355725049973
0.36666666666666664,0.055954936891794205,0.12530717253684998,0.0,0.9273099899291992,0.0,0.0,-0.3742942214012146,-0.3130936026573181,-0.5750041604042053,0.0,0.0,0.0,2.152348041534424,-0.35399797558784485,0.7120958566665649,0.4200000464916229,0.9882369637489319,-2.0334449857273285e-07,6.750356078555342e-06,-0.15293021500110626,0.39598333835601807,0.5333423018455505,-9.013407543534413e-05,0.005312363151460886,-0.0021604704670608044,-13.13673210144043,-0.36836159229278564,0.7205033898353577,0.41938209533691406,0.707866907119751,0.5989685654640198,0.03958812728524208,0.4024306833744049,0.7702646851539612,0.42000001668930054,-0.5051618218421936,2.999054431915283,-0.7523316144943237,-2.9616036415100098,-0.1659141182899475,-0.16893546283245087,-0.17086821794509888,-0.1716279834508896,-0.5072851777076721,-0.3516089618206024,-0.1810436248779297,2.5725923478603363e-05
0.3833333333333333,0.04721955582499504,0.11495783925056458,0.0,0.925121545791626,0.0,0.0,-0.37967103719711304,-0.6007561683654785,-0.6465661525726318,0.0,0.0,0.0,-1.6628658771514893,-0.3436383903026581,0.724556565284729,0.4205811619758606,0.9781470894813538,-0.014389360323548317,0.002836794825270772,-0.20739617943763733,0.7856099009513855,0.8978896141052246,0.06430492550134659,-3.023099184036255,1.1968989372253418,-5.685326099395752,-0.35389792919158936,0.7307161688804626,0.420690655708313,1.048863172531128,0.7371578216552734,0.0816744938492775,0.4024306833744049,0.7702646851539612,0.42000001668930054,-0.4551072120666504,3.0000007152557373,-0.8023370504379272,-2.999979019165039,-0.17633745074272156,-0.17624978721141815,-0.17481714487075806,-0.1720450073480606,-0.5888640880584717,-0.4022148549556732,-0.19979465007781982,0.012749711982905865
0.4,0.04167848452925682,0.1019173413515091,0.0,0.911277174949646,0.0,0.0,-0.4117935299873352,-0.28286609053611755,-0.8237375617027283,0.0,0.0,0.0,-5.013590335845947,-0.3245459198951721,0.7402262687683105,0.422707200050354,0.9657917022705078,-0.042017996311187744,-0.003850464476272464,-0.25586336851119995,1.6705341339111328,0.9328073263168335,-0.020191673189401627,24.59480094909668,-14.985408782958984,2.040433883666992,-0.33259114623069763,0.7459288835525513,0.422634482383728,1.5451958179473877,1.0301697254180908,0.15692496299743652,0.4024306833744049,0.7702646851539612,0.42000001668930054,-0.40600308775901794,2.5419201850891113,-0.8523454070091248,-3.0003650188446045,-0.18386268615722656,-0.18079663813114166,-0.1760191023349762,-0.1696343570947647,-0.41773486137390137,-0.22744286060333252,-0.013713674619793892,0.21662700176239014
0.4166666666666667,0.04008862376213074,0.08591701090335846,0.0,0.8846349120140076,0.0,0.0,-0.46628430485725403,-0.02246096357703209,-1.0241636037826538,0.0,0.0,0.0,-8.06520938873291,-0.2887783646583557,0.7631561160087585,0.42608925700187683,0.9491056799888611,-0.027958743274211884,-0.040277913212776184,-0.311117947101593,3.2106547355651855,1.2870515584945679,0.6395965814590454,-9.641989707946777,4.733119487762451,20.871490478515625,-0.2962009906768799,0.7690966129302979,0.4255591928958893,2.9018588066101074,1.8420488834381104,0.29532790184020996,0.4024306833744049,0.7702646851539612,0.42000001668930054,-0.3800749182701111,1.0218329429626465,-0.9023680686950684,-2.99949049949646,-0.19110225141048431,-0.18497660756111145,-0.17682918906211853,-0.1668795645236969,-0.4552381634712219,-0.26776233315467834,-0.06828069686889648,0.1363052874803543
0.43333333333333335,0.04040176421403885,0.07458540797233582,0.0,0.8420414328575134,0.0,0.0,-0.5394128561019897,0.06844937056303024,-0.557053804397583,0.0,0.0,0.0,-10.911630630493164,-0.21623443067073822,0.7971269488334656,0.4306352138519287,0.9289517998695374,0.02659665234386921,-0.08497545123100281,-0.3593329191207886,5.751985549926758,1.7780050039291382,0.34145963191986084,5.239522933959961,-9.937508583068848,21.369590759277344,-0.22269964218139648,0.8039075136184692,0.42987263202667236,5.626226902008057,2.5355896949768066,0.34372976422309875,0.4024306833744049,0.7702646851539612,0.42000001668930054,-0.364250123500824,0.931419312953949,-0.8652089834213257,2.998054265975952,-0.20503412187099457,-0.19468414783477783,-0.18202456831932068,-0.16783268749713898,-0.8893117904663086,-0.660979688167572,-0.3940044343471527,-0.15392735600471497
0.45,0.03666467219591141,0.06986965984106064,0.0,0.8064286708831787,0.0,0.0,-0.5913313627243042,-0.15295834839344025,-0.3408176600933075,0.0,0.0,0.0,-5.8744215965271,-0.12402351200580597,0.8308184742927551,0.4390297532081604,0.8834969401359558,0.05916502699255943,-0.11490825563669205,-0.4502541422843933,5.884300708770752,1.1906230449676514,0.7101452946662903,19.047964096069336,-5.969958782196045,29.538124084472656,-0.12984606623649597,0.8398153781890869,0.43817371129989624,5.727736949920654,1.9899197816848755,0.5364546775817871,0.4024306833744049,0.7702646851539612,0.42000001668930054,-0.35044997930526733,0.7347051501274109,-0.8914381861686707,-3.00000262260437,-0.2189500331878662,-0.2087729424238205,-0.19179238379001617,-0.17382296919822693,-0.5109501481056213,-0.586471438407898,-0.43048015236854553,-0.2971075773239136
0.4666666666666667,0.03705904260277748,0.06572049856185913,0.0,0.7933099865913391,0.0,0.0,-0.6088179349899292,0.0689309760928154,-0.1547108143568039,0.0,0.0,0.0,-1.4631913900375366,-0.029712460935115814,0.8537102341651917,0.4470103979110718,0.8303183317184448,0.05289663374423981,-0.12530460953712463,-0.540436863899231,5.690037727355957,-0.06260579079389572,0.6038438081741333,3.578681707382202,-9.40285873413086,26.3039608001709,-0.03382088616490364,0.8635237812995911,0.4466502070426941,5.876144886016846,0.8956938982009888,0.6180764436721802,0.4024306833744049,0.7702646851539612,0.42000001668930054,-0.3385022282600403,0.5869991183280945,-0.9414621591567993,-3.0000038146972656,-0.227205291390419,-0.21739545464515686,-0.1977713704109192,-0.1774980127811432,-0.5102508068084717,-0.4869880974292755,-0.3273623287677765,-0.18603113293647766
0.48333333333333334,0.03642508387565613,0.05701417475938797,0.0,0.7719926238059998,0.0,0.0,-0.6356314420700073,-0.09567657113075256,-0.6525392532348633,0.0,0.0,0.0,-5.08215856552124,0.06538861989974976,0.8599404096603394,0.4528906047344208,0.7437885999679565,0.04180101677775383,-0.1458737552165985,-0.6509622931480408,5.296379089355469,-0.7493985891342163,0.4440106153488159,-14.385376930236816,7.406810760498047,8.76379680633545,0.06042930856347084,0.8718967437744141,0.4536452889442444,5.73201322555542,0.056489601731300354,0.41552355885505676,0.4024306833744049,0.7702646851539612,0.42000001668930054,-0.32879960536956787,0.4746142327785492,-0.9914861917495728,-2.9991254806518555,-0.22959928214550018,-0.2199007272720337,-0.19870871305465698,-0.17700821161270142,-0.03104167990386486,-0.018640518188476562,0.05821597948670387,0.12871243059635162
0.5,0.03836158290505409,0.05171604081988335,0.0,0.7605287432670593,0.0,0.0,-0.6493042707443237,0.11915495246648788,-0.3398020267486572,0.0,0.0,0.0,-0.8449709415435791,0.15321284532546997,0.8514420986175537,0.45837709307670593,0.6700494885444641,0.028152961283922195,-0.13711057603359222,-0.729000449180603,4.5882134437561035,-1.4478354454040527,0.2682074308395386,-16.186800003051758,-0.4397243857383728,23.123428344726562,0.14967045187950134,0.8647650480270386,0.4600690007209778,5.244477272033691,-0.6761377453804016,0.3783041834831238,0.4024306833744049,0.7702646851539612,0.42000001668930054,-0.3205690383911133,0.3946855664253235,-1.041508674621582,-3.0000011920928955,-0.23393644392490387,-0.22297321259975433,-0.20023158192634583,-0.17730040848255157,-0.05267507955431938,-0.023401429876685143,-0.0030458583496510983,0.0033067772164940834
0.5166666666666666,0.04240700230002403,0.0485219731926918,0.0,0.7431488037109375,0.0,0.0,-0.6691262125968933,0.29160091280937195,-0.12413772195577621,0.0,0.0,0.0,-4.025341033935547,0.22847774624824524,0.8395204544067383,0.45760226249694824,0.6289599537849426,0.01662355475127697,-0.13332360982894897,-0.7657399773597717,3.684706211090088,-1.3401802778244019,-0.09731542319059372,-6.419993877410889,5.003454685211182,18.21016502380371,0.2266557365655899,0.8525477647781372,0.46021777391433716,4.320826530456543,-0.9427444934844971,-0.1713736653327942,0.4024306833744049,0.7702646851539612,0.42000001668930054,-0.3129109740257263,0.460422545671463,-1.0915307998657227,-2.9989540576934814,-0.2323874831199646,-0.22172339260578156,-0.19974936544895172,-0.17769920825958252,0.15822970867156982,0.12911874055862427,0.05027884244918823,-0.03487221524119377
0.5333333333333333,0.04559403657913208,0.049013398587703705,0.0,0.7386420965194702,0.0,0.0,-0.6740978360176086,0.1166696771979332,0.09302006661891937,0.0,0.0,0.0,0.12199922651052475,0.2897525131702423,0.8202795386314392,0.4495980143547058,0.567267894744873,-0.044323116540908813,-0.15274649858474731,-0.8080291748046875,3.012545585632324,-1.7227487564086914,-0.7559317350387573,-22.37436866760254,10.910008430480957,-5.401434898376465,0.2881363332271576,0.8337666988372803,0.4547727108001709,3.271641969680786,-1.293784499168396,-0.3775086998939514,0.4024306833744049,0.7702646851539612,0.42000001668930054,-0.30243781208992004,0.7488275766372681,-1.1415529251098633,-2.999678373336792,-0.22977595031261444,-0.21955911815166473,-0.19912602007389069,-0.17870952188968658,0.18574000895023346,0.15604883432388306,0.046662136912345886,-0.06837809085845947
0.55,0.049685098230838776,0.04652586206793785,0.0,0.7255898118019104,0.0,0.0,-0.6881275177001953,0.2869807183742523,-0.16207672655582428,0.0,0.0,0.0,-3.0070223808288574,0.3384926915168762,0.8012151122093201,0.433841735124588,0.4967929720878601,-0.10684593766927719,-0.15616679191589355,-0.8469902276992798,2.436115026473999,-1.2077162265777588,-1.0797817707061768,3.9605307579040527,1.7043055295944214,-5.2439866065979,0.3365727663040161,0.81472247838974,0.44100284576416016,2.579697608947754,-1.2016339302062988,-1.0405876636505127,0.4024306833744049,0.7702646851539612,0.42000001668930054,-0.2845187783241272,1.434533715248108,-1.191575050354004,-2.9990029335021973,-0.2240464985370636,-0.21487455070018768,-0.19694289565086365,-0.1790679544210434,0.27223244309425354,0.2239336222410202,0.07878651469945908,-0.07116372883319855
0.5666666666666667,0.05618804693222046,0.0481845922768116,0.0,0.7250761389732361,0.0,0.0,-0.6886686682701111,0.4204317331314087,0.09506256878376007,0.0,0.0,0.0,0.8031553030014038,0.36761710047721863,0.7860540151596069,0.4249066710472107,0.47959429025650024,-0.11388659477233887,-0.0705404058098793,-0.8672042489051819,0.9082233309745789,-1.604252576828003,0.3553315997123718,-23.499921798706055,7.084146022796631,16.468093872070312,0.36736440658569336,0.7976495027542114,0.4324786961078644,1.0857595205307007,-0.529636025428772,0.272554874420166,0.4024306833744049,0.7702646851539612,0.42000001668930054,-0.26522374153137207,0.4536544680595398,-1.2415971755981445,-2.997321367263794,-0.22111524641513824,-0.21265649795532227,-0.19706541299819946,-0.181568443775177,0.33578869700431824,0.24660824239253998,0.06769116222858429,-0.1027502566576004
0.5833333333333334,0.060438960790634155,0.04586634412407875,0.0,0.7148435711860657,0.0,0.0,-0.6992843747138977,0.19315557181835175,-0.17242920398712158,0.0,0.0,0.0,-2.5799484252929688,0.3841003179550171,0.7794780135154724,0.4246116876602173,0.4993767738342285,-0.08557247370481491,-0.06990376114845276,-0.8593098521232605,0.6754555702209473,-0.5748787522315979,0.02484382688999176,-0.26036620140075684,-5.295963287353516,9.037837982177734,0.38193681836128235,0.7899411916732788,0.43186235427856445,0.5906500816345215,-0.4202018976211548,-0.15249477326869965,0.4024306833744049,0.7702646851539612,0.42000001668930054,-0.2628477215766907,0.23975080251693726,-1.2058690786361694,2.9983091354370117,-0.21315515041351318,-0.20659229159355164,-0.19435176253318787,-0.18201926350593567,0.4246330261230469,0.3276714086532593,0.14313261210918427,-0.03251266106963158
0.6,0.06543917208909988,0.04678179323673248,0.0,0.7164221405982971,0.0,0.0,-0.6976670622825623,0.3333261013031006,0.06667730957269669,0.0,0.0,0.0,1.0957657098770142,0.3905697464942932,0.7730192542076111,0.42167288064956665,0.5118981599807739,-0.03629724308848381,-0.020179199054837227,-0.8580416440963745,0.2011328488588333,-0.25172364711761475,-0.16690543293952942,5.621225833892822,-5.292695045471191,3.0023350715637207,0.3878161311149597,0.7814465761184692,0.4265393018722534,0.11789420992136002,-0.39450162649154663,-0.3645874559879303,0.4024306833744049,0.7702646851539612,0.42000001668930054,-0.2571660876274109,0.3432856798171997,-1.2272731065750122,-2.993952512741089,-0.20750823616981506,-0.20243586599826813,-0.19307976961135864,-0.18348684906959534,0.4644940197467804,0.34029677510261536,0.14051467180252075,-0.04586077854037285
0.6166666666666667,0.07253596931695938,0.043946973979473114,0.0,0.7075625061988831,0.0,0.0,-0.7066507935523987,0.45916250348091125,-0.21758639812469482,0.0,0.0,0.0,-2.357609272003174,0.39308950304985046,0.7724631428718567,0.42036354541778564,0.5400469899177551,-0.007680893875658512,-0.005035346373915672,-0.8415846228599548,0.09237992763519287,0.002632101532071829,-0.01458553597331047,0.6630361676216125,-0.33019545674324036,4.174291133880615,0.38938069343566895,0.7804175019264221,0.42351779341697693,0.03640906512737274,0.02829943224787712,-0.0906149372458458,0.4024306833744049,0.7702646851539612,0.42000001668930054,-0.27269765734672546,-1.853957176208496,-1.1979291439056396,2.999915599822998,-0.1972610205411911,-0.19483636319637299,-0.18922504782676697,-0.1830715537071228,0.5937978029251099,0.4404697120189667,0.2259841114282608,0.028714651241898537
0.6333333333333333,0.08178146928548813,0.04463651776313782,0.0,0.7103511691093445,0.0,0.0,-0.7038474082946777,0.5843467712402344,0.0555371530354023,0.0,0.0,0.0,1.3357789516448975,0.39395126700401306,0.7724832892417908,0.420000284910202,0.555864691734314,-1.2232436347403564e-05,1.0112155905517284e-05,-0.8312727808952332,0.027054181322455406,0.011464978568255901,-0.000835949438624084,-0.010411733761429787,-0.037071920931339264,1.0471018552780151,0.38882988691329956,0.7797825336456299,0.4245173931121826,-0.04101155698299408,0.036039307713508606,0.12721246480941772,0.4024306833744049,0.7702646851539612,0.42000001668930054,-0.3209429085254669,-2.999988317489624,-1.2191722393035889,-2.999992847442627,-0.19043081998825073,-0.19006529450416565,-0.18744339048862457,-0.18403375148773193,0.5010573863983154,0.35143277049064636,0.15475718677043915,-0.024271588772535324
0.65,0.0882793441414833,0.04734937474131584,0.0,0.7024021744728088,0.0,0.0,-0.711780309677124,0.31720373034477234,0.2476443350315094,0.0,0.0,0.0,-2.2430412769317627,0.39395731687545776,0.7724868059158325,0.4199999272823334,0.5559691786766052,-9.462769412493799e-07,-6.912343451404013e-06,-0.8312028050422668,0.00012685696128755808,-0.0004688766784965992,-8.281785994768143e-05,0.012567853555083275,-0.005338998977094889,-0.0013635626528412104,0.3894788920879364,0.7823247313499451,0.4272692799568176,0.03516935929656029,0.18132473528385162,0.20463109016418457,0.4024306833744049,0.7702646851539612,0.42000001668930054,-0.3709433674812317,-2.999689817428589,-1.2691348791122437,-2.999084711074829,-0.18107835948467255,-0.18344268202781677,-0.1841105967760086,-0.183590829372406,0.5576767921447754,0.40594199299812317,0.22812721133232117,0.07481566816568375
0.6666666666666666,0.0953679159283638,0.045814722776412964,0.0,0.7059013843536377,0.0,0.0,-0.7083101272583008,0.4255828261375427,-0.09959269315004349,0.0,0.0,0.0,1.3951948881149292,0.3939574658870697,0.7724867463111877,0.41999995708465576,0.5559689998626709,-1.5402687267851434e-06,-5.370325652620522e-06,-0.8312029838562012,7.209488103399053e-05,-0.00038273906102404,-7.34175555408001e-05,0.00994192250072956,-0.0031951311975717545,-0.0010025242809206247,0.3898009955883026,0.7847248315811157,0.43302661180496216,-0.07540802657604218,0.04933147132396698,0.5339314937591553,0.4024306833744049,0.7702646851539612,0.42000001668930054,-0.4209570586681366,-2.9997544288635254,-1.3191533088684082,-2.999999523162842,-0.170309916138649,-0.1748540699481964,-0.1780056208372116,-0.17954960465431213,0.3857998251914978,0.33283740282058716,0.2648436427116394,0.2168741226196289
0.6833333333333333,0.10370287299156189,0.041854456067085266,0.0,0.6984304785728455,0.0,0.0,-0.7156779170036316,0.535392165184021,-0.3103199005126953,0.0,0.0,0.0,-2.140392541885376,0.3939574658870697,0.772486686706543,0.41999995708465576,0.5559691190719604,-1.34292224629462e-06,-5.379258254833985e-06,-0.8312029242515564,7.204322901088744e-05,-0.0003836363321170211,-7.347716018557549e-05,0.009970290586352348,-0.0032186838798224926,-0.0010051511926576495,0.39293697476387024,0.7856069207191467,0.44005343317985535,0.4183804392814636,0.02148793637752533,0.4757421016693115,0.4024306833744049,0.7702646851539612,0.42000001668930054,-0.47097060084342957,-2.999999523162842,-1.3691716194152832,-3.000000238418579,-0.1659780740737915,-0.17069298028945923,-0.17413273453712463,-0.1756191998720169,0.21218781173229218,0.2327861487865448,0.2522926926612854,0.29238608479499817
0.7,0.11522926390171051,0.04091954976320267,0.0,0.6697181463241577,0.0,0.0,-0.7426154017448425,0.7730183601379395,0.10527696460485458,0.0,0.0,0.0,-5.755405426025391,0.3939574658870697,0.772486686706543,0.41999995708465576,0.5559689998626709,-1.542804966447875e-06,-5.50815457245335e-06,-0.831203043460846,6.832631333963946e-05,-0.00038377122837118804,-7.352931424975395e-05,0.009970271959900856,-0.003222201718017459,-0.0009965015342459083,0.40235573053359985,0.7863130569458008,0.45609697699546814,0.7789551019668579,0.041705455631017685,1.545554280281067,0.4024306833744049,0.7702646851539612,0.42000001668930054,-0.5209832191467285,-2.9999587535858154,-1.4191899299621582,-2.999998092651367,-0.16873683035373688,-0.1720423549413681,-0.17409761250019073,-0.17397528886795044,-0.3715597093105316,-0.25077420473098755,-0.1308651715517044,-0.0022014158312231302
0.7166666666666667,0.12361764162778854,0.04417964443564415,0.0,0.6536543369293213,0.0,0.0,-0.7567932605743408,0.41656753420829773,0.10243944823741913,0.0,0.0,0.0,-1.3755121231079102,0.3939574658870697,0.772486686706543,0.41999995708465576,0.5559690594673157,-1.4846292515358073e-06,-5.4236279538599774e-06,-0.8312029838562012,7.255928358063102e-05,-0.0003838065022137016,-7.347017526626587e-05,0.009976631961762905,-0.003222139785066247,-0.0010067239636555314,0.4144285321235657,0.7897491455078125,0.48475801944732666,0.7426738739013672,0.36767351627349854,1.8713243007659912,0.4024306833744049,0.7702646851539612,0.42000001668930054,-0.5463001132011414,-0.2540225088596344,-1.4692082405090332,-3.000000476837158,-0.1730935424566269,-0.17508134245872498,-0.17580318450927734,-0.17422448098659515,-0.025108078494668007,-0.016540871933102608,-0.0027613455895334482,0.020264506340026855
0.7333333333333333,0.1274341493844986,0.04693802073597908,0.0,0.6620599031448364,0.0,0.0,-0.7494509220123291,0.18095791339874268,0.2950560450553894,0.0,0.0,0.0,2.129930257797241,0.3939574658870697,0.772486686706543,0.41999995708465576,0.5559690594673157,-1.5094849459273973e-06,-5.511245035449974e-06,-0.8312029242515564,7.28492668713443e-05,-0.0003839065320789814,-7.346854545176029e-05,0.009980225004255772,-0.003223755629733205,-0.0010076024336740375,0.4280617833137512,0.7950845956802368,0.5082395076751709,0.7844849228858948,0.24618345499038696,1.04885995388031,0.4024306833744049,0.7702646851539612,0.42000001668930054,-0.5312347412109375,1.863465666770935,-1.5192265510559082,-3.0,-0.17237646877765656,-0.17421011626720428,-0.17470428347587585,-0.17281578481197357,0.021221475675702095,0.0436067208647728,0.06765113770961761,0.09077458828687668
0.75,0.12911243736743927,0.04669741541147232,0.0,0.6589285135269165,0.0,0.0,-0.7522055506706238,0.06487937271595001,-0.06267432868480682,0.0,0.0,0.0,-1.274242639541626,0.3939574658870697,0.772486686706543,0.41999995708465576,0.5559690594673157,-1.5438943137269234e-06,-5.464138212118996e-06,-0.8312028646469116,6.929802475497127e-05,-0.0003836793184746057,-7.35169742256403e-05,0.009968280792236328,-0.003220143262296915,-0.000998770585283637,0.43442389369010925,0.8001760840415955,0.5203659534454346,-0.012719668447971344,0.20845180749893188,0.5577405691146851,0.4024306833744049,0.7702646851539612,0.42000001668930054,-0.520767092704773,-0.4168103337287903,-1.4804457426071167,3.0000009536743164,-0.16876551508903503,-0.17065037786960602,-0.17120154201984406,-0.169441357254982,0.12266356498003006,0.14886526763439178,0.16935676336288452,0.1776932179927826
0.7666666666666666,0.12781178951263428,0.0513121522963047,0.0,0.6677237153053284,0.0,0.0,-0.7444091439247131,-0.10749029368162155,0.29887643456459045,0.0,0.0,0.0,2.124730110168457,0.3939574658870697,0.772486686706543,0.41999995708465576,0.5559689998626709,-1.3328539125723182e-06,-5.456589860841632e-06,-0.8312029242515564,7.400266622425988e-05,-0.00038382469210773706,-7.345946505665779e-05,0.009978772141039371,-0.003222430357709527,-0.0010100591462105513,0.4345681965351105,0.8007712364196777,0.5278623104095459,0.12497834861278534,0.04692620038986206,0.34446537494659424,0.4024306833744049,0.7702646851539612,0.42000001668930054,-0.5244210362434387,-0.04968176409602165,-1.4969948530197144,-3.000000476837158,-0.17139582335948944,-0.17191681265830994,-0.17128576338291168,-0.1686798334121704,-0.05658275634050369,-0.00592820905148983,0.03655043616890907,0.06116596609354019
0.7833333333333333,0.12781357765197754,0.05202700197696686,0.0,0.6642650365829468,0.0,0.0,-0.7474970817565918,0.04439372569322586,-0.007160763721913099,0.0,0.0,0.0,-1.3796238899230957,0.3939574658870697,0.772486686706543,0.41999995708465576,0.5559688806533813,-1.4861940371702076e-06,-5.376904482545797e-06,-0.8312031030654907,7.274621748365462e-05,-0.00038398607284761965,-7.348880171775818e-05,0.009982014074921608,-0.0032249249052256346,-0.0010072847362607718,0.4321287274360657,0.8025163412094116,0.5259500741958618,-0.39699360728263855,0.057310789823532104,-0.3871366083621979,0.4024306833744049,0.7702646851539612,0.42000001668930054,-0.5356494188308716,-1.188233733177185,-1.4670621156692505,3.0,-0.170864537358284,-0.17078498005867004,-0.1696835458278656,-0.16690576076507568,-0.016804002225399017,0.03391541913151741,0.07457085698843002,0.09422295540571213
0.8,0.13011372089385986,0.04948010295629501,0.0,0.671448290348053,0.0,0.0,-0.741051435470581,0.1878742128610611,-0.22455854713916779,0.0,0.0,0.0,1.9468846321105957,0.3939574658870697,0.772486686706543,0.41999995708465576,0.5559690594673157,-1.3202485433794209e-06,-5.566303116211202e-06,-0.8312029242515564,7.368899969151244e-05,-0.00038377661257982254,-7.346714846789837e-05,0.009976526722311974,-0.0032211369834840298,-0.0010092214215546846,0.42857295274734497,0.8007813692092896,0.5216718316078186,-0.0354524664580822,-0.17412661015987396,-0.0789041668176651,0.4024306833744049,0.7702646851539612,0.42000001668930054,-0.5741048455238342,-2.999997615814209,-1.4839032888412476,-3.000000476837158,-0.17265836894512177,-0.17120511829853058,-0.16881197690963745,-0.1650271713733673,-0.11262374371290207,-0.021997088566422462,0.06866909563541412,0.1470893919467926
0.8166666666666667,0.1348773092031479,0.04475581273436546,0.0,0.6667085886001587,0.0,0.0,-0.7453184723854065,0.32015979290008545,-0.39641597867012024,0.0,0.0,0.0,-1.5996516942977905,0.3939574658870697,0.772486686706543,0.41999995708465576,0.5559688806533813,-1.4969742778703221e-06,-5.494643119163811e-06,-0.831203043460846,7.267997716553509e-05,-0.0003838743141386658,-7.348856888711452e-05,0.00997834000736475,-0.0032235945109277964,-0.0010069283889606595,0.4320680499076843,0.7964030504226685,0.5167841911315918,0.4346463680267334,-0.37023666501045227,-0.3377959132194519,0.4024306833744049,0.7702646851539612,0.42000001668930054,-0.6241059899330139,-2.999995708465576,-1.5339215993881226,-3.000000238418579,-0.17549635469913483,-0.17226748168468475,-0.16800734400749207,-0.1624760627746582,-0.13318654894828796,-0.02122950367629528,0.10034876316785812,0.2189669907093048
0.8333333333333334,0.14288343489170074,0.04368332773447037,0.0,0.6405117511749268,0.0,0.0,-0.7679483890533447,0.46336081624031067,-0.027557525783777237,0.0,0.0,0.0,-4.950864791870117,0.3939574658870697,0.772486686706543,0.41999995708465576,0.5559688806533813,-1.5553907815046841e-06,-5.461447926791152e-06,-0.8312029838562012,6.90686356392689e-05,-0.0003836120304185897,-7.352535612881184e-05,0.009965376928448677,-0.0032189914491027594,-0.0009978370508179069,0.4405350685119629,0.7890878915786743,0.5172299146652222,0.6505457162857056,-0.3499566912651062,0.46939486265182495,0.4024306833744049,0.7702646851539612,0.42000001668930054,-0.6741110682487488,-2.9999899864196777,-1.5839399099349976,-2.999999523162842,-0.18208974599838257,-0.17661865055561066,-0.1699613779783249,-0.16208966076374054,-0.2695542573928833,-0.18081682920455933,-0.07724305242300034,0.02984805777668953
0.85,0.1525847166776657,0.04515262693166733,0.0,0.6297867298126221,0.0,0.0,-0.7767680883407593,0.6232031583786011,0.12985140085220337,0.0,0.0,0.0,-0.6300037503242493,0.3939574658870697,0.772486686706543,0.41999995708465576,0.5559688806533813,-1.5056247093525599e-06,-5.400505415309453e-06,-0.8312029838562012,7.224344153655693e-05,-0.00038372952258214355,-7.348647341132164e-05,0.009973296895623207,-0.0032207765616476536,-0.0010055727325379848,0.4505946636199951,0.7885098457336426,0.5289776921272278,0.5409121513366699,0.23630201816558838,0.9241554737091064,0.4024306833744049,0.7702646851539612,0.42000001668930054,-0.6903562545776367,0.7392802238464355,-1.6339572668075562,-3.0,-0.18446983397006989,-0.1787181794643402,-0.17155574262142181,-0.16310584545135498,-0.02700834535062313,-0.068499855697155,-0.09988812357187271,-0.12792326509952545
0.8666666666666667,0.15943676233291626,0.047687795013189316,0.0,0.6432318687438965,0.0,0.0,-0.76567143201828,0.34939783811569214,0.2591293156147003,0.0,0.0,0.0,2.9135804176330566,0.3939574658870697,0.7724867463111877,0.41999995708465576,0.5559688806533813,-1.5153785852817236e-06,-5.3492890401685145e-06,-0.8312029838562012,7.205698057077825e-05,-0.0003836947726085782,-7.34932254999876e-05,0.009971660561859608,-0.0032200380228459835,-0.001005074824206531,0.4579644203186035,0.7934573888778687,0.5402246713638306,0.2960638403892517,0.32740116119384766,0.4774913787841797,0.4024306833744049,0.7702646851539612,0.42000001668930054,-0.6596009731292725,2.750584363937378,-1.5948477983474731,2.9999990463256836,-0.18233010172843933,-0.17774952948093414,-0.17161382734775543,-0.16413407027721405,0.1394786387681961,0.06588942557573318,-0.0028124749660491943,-0.0710076168179512
0.8833333333333333,0.16157390177249908,0.04569772630929947,0.0,0.6440328359603882,0.0,0.0,-0.7649978399276733,0.15755270421504974,-0.11264012008905411,0.0,0.0,0.0,-0.5812792778015137,0.3939574658870697,0.772486686706543,0.41999995708465576,0.5559689998626709,-1.3113597105984809e-06,-5.539290668821195e-06,-0.831203043460846,7.250369526445866e-05,-0.0003837284166365862,-7.347483187913895e-05,0.009973792359232903,-0.003220637794584036,-0.0010061518987640738,0.45696812868118286,0.8009677529335022,0.5439456701278687,-0.427155077457428,0.2803688049316406,0.09472785890102386,0.4024306833744049,0.7702646851539612,0.42000001668930054,-0.642937958240509,-0.4796772003173828,-1.544791340827942,2.999999761581421,-0.17442908883094788,-0.1719459444284439,-0.16783230006694794,-0.16233111917972565,0.2132241278886795,0.15015600621700287,0.08288143575191498,0.008870642632246017
0.9,0.16181744635105133,0.04842334985733032,0.0,0.6569027900695801,0.0,0.0,-0.7539752721786499,-0.028622951358556747,0.21170565485954285,0.0,0.0,0.0,2.8220345973968506,0.3939574956893921,0.772486686706543,0.41999995708465576,0.5559690594673157,-1.34966296627681e-06,-5.707836407964351e-06,-0.8312029242515564,7.443365029757842e-05,-0.0003839534183498472,-7.345830090343952e-05,0.009983315132558346,-0.003224963555112481,-0.0010113659081980586,0.45252007246017456,0.8038704991340637,0.5435563921928406,-0.10295065492391586,0.21208176016807556,-0.10881064087152481,0.4024306833744049,0.7702646851539612,0.42000001668930054,-0.6294714212417603,1.87891685962677,-1.5599758625030518,-3.000000476837158,-0.17423279583454132,-0.17205794155597687,-0.16834959387779236,-0.1633986383676529,0.05479934439063072,0.028468765318393707,-6.984919309616089e-09,-0.03664953261613846
