vladlanda/robotic-transformer/data/env_000_episode_0063.csv
sim_time_s,robot_box_x,robot_box_y,robot_box_z,robot_box_quat_w,robot_box_quat_x,robot_box_quat_y,robot_box_quat_z,robot_box_linvel_x,robot_box_linvel_y,robot_box_linvel_z,robot_box_angvel_x,robot_box_angvel_y,robot_box_angvel_z,cube_world_x,cube_world_y,cube_world_z,cube_quat_w,cube_quat_x,cube_quat_y,cube_quat_z,cube_linvel_x,cube_linvel_y,cube_linvel_z,cube_angvel_x,cube_angvel_y,cube_angvel_z,endpoint_world_x,endpoint_world_y,endpoint_world_z,endpoint_linvel_x,endpoint_linvel_y,endpoint_linvel_z,target_cube_world_x,target_cube_world_y,target_cube_world_z,gripper_actual_pos_rad_gp_leftgearjoint,gripper_actual_vel_rad_s_gp_leftgearjoint,gripper_actual_pos_rad_gp_rotatingjoint,gripper_actual_vel_rad_s_gp_rotatingjoint,motor_angle_rad_joint1,motor_angle_rad_joint2,motor_angle_rad_joint3,motor_angle_rad_joint4,motor_speed_rad_s_joint1,motor_speed_rad_s_joint2,motor_speed_rad_s_joint3,motor_speed_rad_s_joint4
0.0,0.0,0.0,0.0,1.0,0.0,0.0,0.0,0.0,0.0,0.0,0.0,0.0,0.0,-0.45752936601638794,0.754054069519043,0.41999998688697815,1.0,0.0,0.0,0.0,0.0,0.0,0.0,0.0,0.0,0.0,3.42540442943573e-06,-0.005000244826078415,1.313499927520752,0.0,0.0,0.0,0.44202399253845215,0.6543806195259094,0.42000001668930054,-1.5707999467849731,0.0,0.0,0.0,0.0,0.0,0.0,0.0,0.0,0.0,0.0,0.0
0.016666666666666666,0.0028778850100934505,0.0021806680597364902,0.0,0.9998081922531128,0.0,0.0,0.019586581736803055,0.24087215960025787,0.18240931630134583,0.0,0.0,0.0,3.1418697834014893,-0.4575294852256775,0.7540537714958191,0.41999998688697815,1.0,3.2799832752061775e-06,-8.339598593920527e-07,8.465660528145236e-08,-1.9833856640616432e-05,0.00017983021098189056,-6.132945418357849e-05,0.0009432561928406358,-0.004689492750912905,-0.0003198107879143208,-0.007110234349966049,0.003379564033821225,1.3159373998641968,-0.8143353462219238,0.9868683815002441,0.18095196783542633,0.44202399253845215,0.6543806195259094,0.42000001668930054,-1.5301095247268677,3.0000011920928955,-0.04584788903594017,-2.9999992847442627,0.0008691533003002405,0.0007963840034790337,0.0007110277656465769,0.0006108740926720202,0.11094217747449875,0.09756709635257721,0.08334315568208694,0.06823883205652237
0.03333333333333333,0.008960987441241741,0.006801989860832691,0.0,0.9997960329055786,0.0,0.0,0.020196838304400444,0.4070218503475189,0.3153080940246582,0.0,0.0,0.0,-0.8691325187683105,-0.45752960443496704,0.7540537118911743,0.4200000464916229,1.0,3.39081861966406e-06,-2.1323587588994997e-06,-3.7098015326364475e-08,0.0002635778218973428,0.00026937888469547033,-0.00010509602725505829,-0.0017707271035760641,0.0041307792998850346,-0.000135479771415703,-0.027553360909223557,0.026211947202682495,1.316593885421753,-1.5913949012756348,1.616034746170044,-0.08532021939754486,0.44202399253845215,0.6543806195259094,0.42000001668930054,-1.4800904989242554,3.000002145767212,-0.0958876982331276,-2.999999761581421,0.0029901026282459497,0.002652711234986782,0.002277280669659376,0.0018607357051223516,0.16421499848365784,0.1397586166858673,0.11381752043962479,0.08629967272281647
0.05,0.01772652193903923,0.01376818586140871,0.0,0.9993836879730225,0.0,0.0,0.035103294998407364,0.5933650135993958,0.46492451429367065,0.0,0.0,0.0,2.6517040729522705,-0.45752963423728943,0.7540537714958191,0.4200000464916229,1.0,3.765183919313131e-06,-2.2118208562460495e-06,5.611563214102944e-09,0.0002653097326401621,0.00026691521634347737,-0.0001044049859046936,-0.0017243342008441687,0.004177424591034651,-0.00012949183292221278,-0.059679366648197174,0.054338037967681885,1.3115227222442627,-2.1874876022338867,1.7884013652801514,-0.48573851585388184,0.44202399253845215,0.6543806195259094,0.42000001668930054,-1.4300721883773804,3.0000033378601074,-0.1459263563156128,-3.0000007152557373,0.00569916283711791,0.0049075172282755375,0.004043762106448412,0.0031031030230224133,0.19254617393016815,0.15563909709453583,0.11685929447412491,0.07612274587154388
0.06666666666666667,0.029034841805696487,0.023059489205479622,0.0,0.9994544982910156,0.0,0.0,0.03302533179521561,0.7199508547782898,0.5950878262519836,0.0,0.0,0.0,-1.2075515985488892,-0.45752963423728943,0.7540537118911743,0.4200000464916229,0.9999999403953552,3.4068107197526842e-06,-2.2855549559608335e-06,4.3007796080019034e-07,0.0002670242392923683,0.0002679162425920367,-0.00010437914170324802,-0.0017406085971742868,0.004211718216538429,-0.0001285039325011894,-0.09640589356422424,0.08957085758447647,1.2993236780166626,-2.2494382858276367,2.3226466178894043,-0.9508389234542847,0.44202399253845215,0.6543806195259094,0.42000001668930054,-1.3800538778305054,3.0000007152557373,-0.19596368074417114,-3.0000007152557373,0.008083906956017017,0.006533751264214516,0.004872012417763472,0.003094383515417576,0.12812405824661255,0.06996060907840729,0.009749001823365688,-0.052602291107177734
0.08333333333333333,0.03440308943390846,0.03569595888257027,0.0,1.0,0.0,0.0,-0.00018355401698499918,0.18988192081451416,0.8246042132377625,0.0,0.0,0.0,-4.930780410766602,-0.45752963423728943,0.7540537118911743,0.4200000464916229,1.0,3.697329702845309e-06,-2.1888738501729676e-06,-2.632421285397868e-07,0.0002638976147864014,0.00026586613967083395,-0.00010433932766318321,-0.001708156312815845,0.004150198306888342,-0.00012991606490686536,-0.1313890814781189,0.13254927098751068,1.2796794176101685,-2.0055007934570312,2.7071385383605957,-1.3172129392623901,0.44202399253845215,0.6543806195259094,0.42000001668930054,-1.3300271034240723,2.9999983310699463,-0.17962974309921265,2.9999990463256836,0.004559472668915987,0.0023183852899819613,-8.554090891266242e-05,-0.0026609778869897127,-0.3111376464366913,-0.35898131132125854,-0.40940794348716736,-0.462706595659256
0.1,0.04336582124233246,0.04974692687392235,0.0,0.9998854398727417,0.0,0.0,-0.015136469155550003,0.6837123036384583,0.8478060364723206,0.0,0.0,0.0,-0.6839501857757568,-0.45752963423728943,0.7540537118911743,0.4200000464916229,0.9999999403953552,3.620408961069188e-06,-2.265111106680706e-06,1.7460979506722651e-07,0.0002667685621418059,0.00026740742032416165,-0.0001040799543261528,-0.0017385648097842932,0.00420914264395833,-0.00012775155482813716,-0.1667173057794571,0.17413970828056335,1.2596735954284668,-2.0885562896728516,2.5526509284973145,-1.1713148355484009,0.44202399253845215,0.6543806195259094,0.42000001668930054,-1.2800313234329224,3.0000016689300537,-0.21119311451911926,-3.000000476837158,0.0041671087965369225,0.0003198132908437401,-0.003685244359076023,-0.007858332246541977,0.012572802603244781,-0.0964340940117836,-0.20453034341335297,-0.3116298019886017
0.11666666666666667,0.05116043612360954,0.06569328904151917,0.0,0.9991164803504944,0.0,0.0,-0.04202725365757942,0.4595143795013428,1.0243746042251587,0.0,0.0,0.0,-3.923832654953003,-0.45752963423728943,0.7540537118911743,0.4200000464916229,1.0,3.7984264054102823e-06,-2.2626581994700246e-06,-1.5021373656054493e-07,0.0002637417346704751,0.00026566089945845306,-0.00010428880341351032,-0.0017054196214303374,0.004147616680711508,-0.00012979877647012472,-0.19835957884788513,0.22196517884731293,1.2402621507644653,-1.7125964164733887,3.1947970390319824,-1.1538887023925781,0.44202399253845215,0.6543806195259094,0.42000001668930054,-1.2300080060958862,2.9999921321868896,-0.17734485864639282,3.000000238418579,0.002406611805781722,-0.003393832826986909,-0.00932274665683508,-0.015388481318950653,-0.08026046305894852,-0.2140902578830719,-0.34483835101127625,-0.4722672998905182
0.13333333333333333,0.05615587532520294,0.08433448523283005,0.0,0.9955465793609619,0.0,0.0,-0.09427085518836975,0.23359358310699463,1.1784454584121704,0.0,0.0,0.0,-7.088476181030273,-0.45752963423728943,0.7540537714958191,0.4200000464916229,0.9999999403953552,3.5505834148352733e-06,-2.229631036243518e-06,2.9289705594237603e-07,0.00026703314506448805,0.000267793278908357,-0.00010416889563202858,-0.0017440826632082462,0.004213642794638872,-0.00012800424883607775,-0.2272862195968628,0.2762616276741028,1.2214882373809814,-1.7279690504074097,3.3624324798583984,-1.1689693927764893,0.44202399253845215,0.6543806195259094,0.42000001668930054,-1.196260929107666,1.1783298254013062,-0.20897749066352844,-3.000000238418579,-5.439339656732045e-05,-0.008042160421609879,-0.016091231256723404,-0.02420525997877121,-0.2217632234096527,-0.34062039852142334,-0.45528551936149597,-0.5655001997947693
0.15,0.05805155262351036,0.1009463295340538,0.0,0.9919862747192383,0.0,0.0,-0.12634585797786713,0.06243329122662544,0.9214842319488525,0.0,0.0,0.0,-2.8200886249542236,-0.45752963423728943,0.7540537118911743,0.4200000464916229,0.9999999403953552,3.338187298140838e-06,-2.2427418571169255e-06,-2.804477539086747e-08,0.00026674612308852375,0.00026758070453070104,-0.00010427739471197128,-0.0017367061227560043,0.004206916783004999,-0.00012831547064706683,-0.2642365097999573,0.3302309215068817,1.1964690685272217,-2.3380255699157715,3.4486634731292725,-1.8073513507843018,0.44202399253845215,0.6543806195259094,0.42000001668930054,-1.1559211015701294,2.999999761581421,-0.2226869910955429,1.0146371126174927,-0.0043172952719032764,-0.01393358688801527,-0.023531101644039154,-0.03311100974678993,-0.3076779246330261,-0.38219767808914185,-0.45212799310684204,-0.5174484848976135
0.16666666666666666,0.05637233331799507,0.11793912947177887,0.0,0.9853569269180298,0.0,0.0,-0.17050448060035706,-0.1631334125995636,1.0617973804473877,0.0,0.0,0.0,-6.222781181335449,-0.45752963423728943,0.7540537714958191,0.4200000464916229,0.9999999403953552,3.6479573282122146e-06,-2.3072102521837223e-06,3.523956593198818e-08,0.00026726999203674495,0.0002680135949049145,-0.00010418728925287724,-0.001747245667502284,0.0042176335118710995,-0.00012798208626918495,-0.30082637071609497,0.3906463384628296,1.1646175384521484,-1.970757246017456,3.883967399597168,-2.0305418968200684,0.44202399253845215,0.6543806195259094,0.42000001668930054,-1.1108331680297852,2.4210760593414307,-0.26439598202705383,-2.9999990463256836,-0.011388011276721954,-0.02219504304230213,-0.032900236546993256,-0.04350423812866211,-0.506752073764801,-0.5696846842765808,-0.6278839707374573,-0.6813223361968994
0.18333333333333332,0.05997171252965927,0.13124501705169678,0.0,0.9803256988525391,0.0,0.0,-0.1973867267370224,0.249381884932518,0.7709547281265259,0.0,0.0,0.0,-2.142427921295166,-0.45752963423728943,0.7540537118911743,0.4200000464916229,0.9999999403953552,3.2907466902543092e-06,-2.1938460577075602e-06,-2.792836255594011e-07,0.00026677740970626473,0.00026775922742672265,-0.00010433956049382687,-0.0017390171997249126,0.004206871148198843,-0.00012846080062445253,-0.33805978298187256,0.4534798562526703,1.122704029083252,-2.105863094329834,4.001049041748047,-3.0646605491638184,0.44202399253845215,0.6543806195259094,0.42000001668930054,-1.079925775527954,1.3559445142745972,-0.3144243061542511,-3.0000014305114746,-0.016514483839273453,-0.02815321460366249,-0.039612408727407455,-0.050896234810352325,-0.537149965763092,-0.5301209688186646,-0.5213143825531006,-0.5111920833587646
0.2,0.05840056389570236,0.14727263152599335,0.0,0.9714717268943787,0.0,0.0,-0.237155482172966,-0.11315254867076874,0.9188358187675476,0.0,0.0,0.0,-5.649441719055176,-0.45752963423728943,0.7540537118911743,0.4200000464916229,1.0,3.281018734924146e-06,-2.2191513835423393e-06,1.594105611957275e-07,0.00026627889019437134,0.0002674002607818693,-0.0001042510848492384,-0.0017357075121253729,0.0041977171786129475,-0.00012864933523815125,-0.37192022800445557,0.5205526351928711,1.0645829439163208,-1.883455514907837,4.160670757293701,-3.7252774238586426,0.44202399253845215,0.6543806195259094,0.42000001668930054,-1.0342535972595215,3.0,-0.3644504249095917,-2.999999761581421,-0.03022102080285549,-0.04166599363088608,-0.05292029678821564,-0.06396570801734924,-0.6262569427490234,-0.6766251921653748,-0.7241897583007812,-0.7674471139907837
0.21666666666666667,0.061359815299510956,0.1582007259130478,0.0,0.9662078022956848,0.0,0.0,-0.25776442885398865,0.195965975522995,0.55765300989151,0.0,0.0,0.0,-1.3938196897506714,-0.45752963423728943,0.7540537714958191,0.4200000464916229,1.0,3.6133887988398783e-06,-2.2700851332047023e-06,2.2095262863786047e-07,0.00026712619001045823,0.00026781720225699246,-0.00010414118878543377,-0.0017445421544834971,0.004215226974338293,-0.00012786578736267984,-0.40510091185569763,0.584433913230896,0.9940757155418396,-1.7553327083587646,3.7722933292388916,-4.708796501159668,0.44202399253845215,0.6543806195259094,0.42000001668930054,-0.990545928478241,2.2699239253997803,-0.4144759178161621,-3.000000476837158,-0.04081055149435997,-0.05231916531920433,-0.0636276826262474,-0.07470503449440002,-0.8360756635665894,-0.7866635918617249,-0.7392041683197021,-0.6934815049171448
0.23333333333333334,0.058395132422447205,0.17171114683151245,0.0,0.9566097855567932,0.0,0.0,-0.2913720905780792,-0.27312368154525757,0.7952967882156372,0.0,0.0,0.0,-5.049907684326172,-0.45752963423728943,0.7540537118911743,0.4200000464916229,1.0,3.382148179298383e-06,-2.2908925529918633e-06,2.727378500821942e-07,0.00026691448874771595,0.00026779979816637933,-0.00010433024726808071,-0.001739569823257625,0.004209708422422409,-0.00012843745935242623,-0.43062591552734375,0.6417455673217773,0.9094465970993042,-1.2597371339797974,3.2327756881713867,-5.2267913818359375,0.44202399253845215,0.6543806195259094,0.42000001668930054,-0.9414272308349609,3.000002145767212,-0.4645042419433594,-3.0000016689300537,-0.05724275857210159,-0.06869243830442429,-0.07995732873678207,-0.09095927327871323,-0.8654419779777527,-0.8807731866836548,-0.898705005645752,-0.916546106338501
0.25,0.0607757642865181,0.18014517426490784,0.0,0.9517894983291626,0.0,0.0,-0.30675187706947327,0.15867431461811066,0.4127185344696045,0.0,0.0,0.0,-0.8094910979270935,-0.45752960443496704,0.7540537118911743,0.4200000464916229,0.9999999403953552,3.70682323591609e-06,-2.222986950073391e-06,-2.255617914670438e-07,0.00026424857787787914,0.00026656937552616,-0.00010458100587129593,-0.0017170169157907367,0.004155629780143499,-0.00013063172809779644,-0.45261016488075256,0.6886195540428162,0.8182576894760132,-1.0665596723556519,2.4620416164398193,-5.789731979370117,0.44202399253845215,0.6543806195259094,0.42000001668930054,-0.89141845703125,2.9999959468841553,-0.5145339965820312,-2.9999992847442627,-0.0693553015589714,-0.08061343431472778,-0.09173944592475891,-0.10262623429298401,-0.9647385478019714,-0.8924597501754761,-0.8258414268493652,-0.76422518491745
0.26666666666666666,0.05735807865858078,0.191647469997406,0.0,0.9421709775924683,0.0,0.0,-0.3351326286792755,-0.20364399254322052,0.6711785793304443,0.0,0.0,0.0,-4.269199371337891,-0.45752963423728943,0.7540537118911743,0.4200000464916229,0.9999999403953552,3.7199345115368487e-06,-2.4035207388806157e-06,-1.8313633631805715e-07,0.0002662320912349969,0.000267291150521487,-0.00010425853542983532,-0.0017326887464150786,0.004196553956717253,-0.00012850847269874066,-0.46501457691192627,0.7210882306098938,0.7194746732711792,-0.4431053698062897,1.6409680843353271,-5.839076042175293,0.44202399253845215,0.6543806195259094,0.42000001668930054,-0.8414077758789062,2.9999992847442627,-0.5645637512207031,-2.999999761581421,-0.08649169653654099,-0.09759528189897537,-0.1086324080824852,-0.11945240944623947,-0.760951817035675,-0.8110379576683044,-0.8571591377258301,-0.8978479504585266
0.2833333333333333,0.0534638911485672,0.19808489084243774,0.0,0.9388542771339417,0.0,0.0,-0.3443148136138916,-0.32280975580215454,0.36889952421188354,0.0,0.0,0.0,-0.18519218266010284,-0.45752963423728943,0.7540537118911743,0.4200000464916229,0.9999999403953552,3.783127340284409e-06,-2.424309741400066e-06,2.6969897248818597e-07,0.00026540548424236476,0.0002650861570145935,-0.00010338099673390388,-0.001708629191853106,0.004187512211501598,-0.00012571841944009066,-0.474031925201416,0.7419108152389526,0.6235982179641724,-0.2862043082714081,0.8430655002593994,-5.746379852294922,0.44202399253845215,0.6543806195259094,0.42000001668930054,-0.791398823261261,2.9999985694885254,-0.614593505859375,-3.000001907348633,-0.09960421919822693,-0.11090796440839767,-0.12210553139448166,-0.13303858041763306,-1.0017821788787842,-0.9999972581863403,-0.9794725179672241,-0.9247393608093262
0.3,0.045815058052539825,0.20182974636554718,0.0,0.931074857711792,0.0,0.0,-0.3648281693458557,-0.5143771767616272,0.17344622313976288,0.0,0.0,0.0,-3.5115692615509033,-0.45752963423728943,0.7540537118911743,0.4200000464916229,0.9999999403953552,3.595015868995688e-06,-2.293348643434001e-06,3.1973758041203837e-07,0.0002659793826751411,0.0002666958898771554,-0.00010402454063296318,-0.0017263191984966397,0.004193468950688839,-0.0001278812123928219,-0.47457653284072876,0.7529823184013367,0.5256022214889526,0.28205931186676025,0.4098963141441345,-5.825723648071289,0.44202399253845215,0.6543806195259094,0.42000001668930054,-0.74139004945755,2.9999992847442627,-0.6646221876144409,-2.9999990463256836,-0.11653022468090057,-0.12773746252059937,-0.13886673748493195,-0.14974740147590637,-1.002908706665039,-1.0021986961364746,-1.001659870147705,-1.0012286901474
0.31666666666666665,0.0358252190053463,0.20291517674922943,0.0,0.9295375347137451,0.0,0.0,-0.36872750520706177,-0.6333678960800171,0.02046533301472664,0.0,0.0,0.0,0.4434061348438263,-0.45752963423728943,0.7540537118911743,0.4200000464916229,0.9999999403953552,3.600428499339614e-06,-2.2995473045739345e-06,1.9272300733064185e-07,0.00026597053511068225,0.0002667028165888041,-0.00010403105989098549,-0.001726472401060164,0.0041933427564799786,-0.0001279159914702177,-0.46725210547447205,0.7541564702987671,0.43006235361099243,0.691885232925415,-0.3136783838272095,-5.645538330078125,0.44202399253845215,0.6543806195259094,0.42000001668930054,-0.6913827061653137,2.9999821186065674,-0.7146490216255188,-3.0000009536743164,-0.13355228304862976,-0.1446421593427658,-0.15568627417087555,-0.16650302708148956,-0.9999167919158936,-0.9997652173042297,-0.9996095299720764,-0.9995592832565308
0.3333333333333333,0.02360684983432293,0.20138810575008392,0.0,0.938143789768219,0.0,0.0,-0.3462459146976471,-0.7804793119430542,-0.13797548413276672,0.0,0.0,0.0,3.7955288887023926,-0.45752963423728943,0.7540537118911743,0.4200000464916229,1.0,3.654920874396339e-06,-2.1562286747212056e-06,-1.291001012759807e-07,0.00026378940674476326,0.00026574768708087504,-0.0001043081283569336,-0.0017067271983250976,0.0041483244858682156,-0.00012986903311684728,-0.47031670808792114,0.7584049701690674,0.4255463182926178,-0.36921626329421997,0.25272420048713684,-0.2214888036251068,0.44202399253845215,0.6543806195259094,0.42000001668930054,-0.6413779854774475,2.999901056289673,-0.7651137113571167,-2.999530792236328,-0.13663643598556519,-0.1490996927022934,-0.16116085648536682,-0.1725238859653473,-0.13435454666614532,-0.2146126925945282,-0.2740517556667328,-0.3065700829029083
0.35,0.015807153657078743,0.19666391611099243,0.0,0.9403935074806213,0.0,0.0,-0.3400883376598358,-0.4348696172237396,-0.31912878155708313,0.0,0.0,0.0,-0.1509561687707901,-0.4578014016151428,0.7546113133430481,0.41999977827072144,0.9999454021453857,2.1203743017395027e-05,-5.654993401549291e-06,-0.010444466955959797,-0.030238725244998932,0.047538015991449356,-0.00033102533780038357,-0.016044428572058678,0.004887511488050222,-1.805607795715332,-0.47332167625427246,0.7600510120391846,0.42187461256980896,0.004929354880005121,-0.07289792597293854,-0.23833760619163513,0.44202399253845215,0.6543806195259094,0.42000001668930054,-0.5913721919059753,2.9999892711639404,-0.8151540756225586,-2.9999911785125732,-0.13967758417129517,-0.15243221819400787,-0.1644013673067093,-0.17521941661834717,-0.4273802638053894,-0.3550992012023926,-0.26119714975357056,-0.14419355988502502
0.36666666666666664,0.004667729139328003,0.19059397280216217,0.0,0.9469797611236572,0.0,0.0,-0.3212931752204895,-0.766666829586029,-0.38773199915885925,0.0,0.0,0.0,3.4237020015716553,-0.456279456615448,0.7585687041282654,0.4201558530330658,0.9978513121604919,5.554095332627185e-05,0.0039145974442362785,-0.06540082395076752,0.2273796945810318,0.4726124405860901,0.05042099207639694,0.08742956072092056,2.547027826309204,-13.641362190246582,-0.47128283977508545,0.7647413015365601,0.4213675558567047,0.22497862577438354,0.5953874588012695,0.08899867534637451,0.44202399253845215,0.6543806195259094,0.42000001668930054,-0.54136723279953,2.999976396560669,-0.8651813864707947,-2.9999992847442627,-0.15161965787410736,-0.16172684729099274,-0.17071543633937836,-0.17823846638202667,-0.7891837954521179,-0.5959022045135498,-0.3828100562095642,-0.15223337709903717
0.3833333333333333,-0.00806313194334507,0.18237237632274628,0.0,0.948274552822113,0.0,0.0,-0.3174513578414917,-0.8048574924468994,-0.5298041701316833,0.0,0.0,0.0,-0.49046623706817627,-0.4523879289627075,0.7664381861686707,0.42003700137138367,0.9862176179885864,-0.0006916259881108999,3.7228506698738784e-05,-0.16545158624649048,0.3330872356891632,0.5713558197021484,0.02235514298081398,-1.1624418497085571,0.2839052379131317,-4.047181606292725,-0.4638877511024475,0.7734194993972778,0.4215918183326721,0.6323621869087219,0.42857885360717773,-0.06795012950897217,0.44202399253845215,0.6543806195259094,0.42000001668930054,-0.49136245250701904,2.9999468326568604,-0.9152042865753174,-2.9999914169311523,-0.1652025431394577,-0.17133229970932007,-0.17600174248218536,-0.17893275618553162,-0.7956010103225708,-0.5278512835502625,-0.24019527435302734,0.06186911463737488
0.4,-0.016653668135404587,0.17126871645450592,0.0,0.9400601387023926,0.0,0.0,-0.341008722782135,-0.5061871409416199,-0.7067883610725403,0.0,0.0,0.0,-3.7025325298309326,-0.4437299370765686,0.7788076996803284,0.4204235374927521,0.9796340465545654,-0.0104707982391119,0.0019563965033739805,-0.20050834119319916,0.6075538396835327,0.825559675693512,0.07686255872249603,-3.599931478500366,1.3875253200531006,-5.189149379730225,-0.4520425796508789,0.7833199501037598,0.4218575358390808,0.8091031908988953,0.666431188583374,0.13183674216270447,0.44202399253845215,0.6543806195259094,0.42000001668930054,-0.44130343198776245,2.999983310699463,-0.9652094841003418,-2.99997878074646,-0.17529931664466858,-0.17730411887168884,-0.17747867107391357,-0.1756414771080017,-0.5871217846870422,-0.33139029145240784,-0.054472655057907104,0.23685391247272491
0.4166666666666667,-0.029205024242401123,0.1585320681333542,0.0,0.9208278656005859,0.0,0.0,-0.38996922969818115,-0.8358154892921448,-0.7901486158370972,0.0,0.0,0.0,-7.2133870124816895,-0.4240037202835083,0.7945442795753479,0.42386651039123535,0.9671511054039001,-0.03484199568629265,-0.019080698490142822,-0.251078724861145,1.7292600870132446,0.9694548845291138,0.07834924757480621,26.61356544494629,-11.412423133850098,10.361479759216309,-0.4317331314086914,0.8004801273345947,0.42448171973228455,1.6253554821014404,1.3282454013824463,0.34632694721221924,0.44202399253845215,0.6543806195259094,0.42000001668930054,-0.4010722041130066,1.225983738899231,-1.0152275562286377,-2.9999091625213623,-0.18730731308460236,-0.18478992581367493,-0.18012796342372894,-0.17327260971069336,-0.71552973985672,-0.45306840538978577,-0.17460162937641144,0.11163220554590225
0.43333333333333335,-0.038131456822156906,0.14307647943496704,0.0,0.8872397541999817,0.0,0.0,-0.4613085687160492,-0.4934028387069702,-0.9659864902496338,0.0,0.0,0.0,-10.111739158630371,-0.3786914050579071,0.8231251835823059,0.4272738993167877,0.9528058171272278,0.004759401082992554,-0.06115942820906639,-0.2973179221153259,3.942321300506592,1.7363678216934204,0.3904155492782593,18.59166717529297,-10.06437873840332,10.7400541305542,-0.38585254549980164,0.829386830329895,0.4278477430343628,3.732563018798828,2.1453542709350586,0.2989289164543152,0.44202399253845215,0.6543806195259094,0.42000001668930054,-0.3864826261997223,0.8433599472045898,-0.9779044389724731,2.9984776973724365,-0.19965232908725739,-0.19222241640090942,-0.18252456188201904,-0.17067359387874603,-0.8175088763237,-0.4953567385673523,-0.17366720736026764,0.13650846481323242
0.45,-0.04378531873226166,0.13032716512680054,0.0,0.8367547392845154,0.0,0.0,-0.5475778579711914,-0.27294936776161194,-0.7065883278846741,0.0,0.0,0.0,-12.71971321105957,-0.29476919770240784,0.8608152866363525,0.43288782238960266,0.9292342662811279,0.018680281937122345,-0.16179098188877106,-0.33166009187698364,6.022752285003662,1.81377112865448,0.707560658454895,28.09762954711914,-46.89226150512695,21.040184020996094,-0.30220460891723633,0.8696814775466919,0.4356536269187927,5.7909650802612305,2.6837313175201416,1.3563368320465088,0.44202399253845215,0.6543806195259094,0.42000001668930054,-0.3693113923072815,1.1276785135269165,-0.9279273748397827,2.9958126544952393,-0.21318723261356354,-0.20268402993679047,-0.18740519881248474,-0.17038670182228088,-0.7868720293045044,-0.6023750305175781,-0.2878667712211609,-0.0028982956428080797
0.4666666666666667,-0.0508846677839756,0.12264110893011093,0.0,0.7942950129508972,0.0,0.0,-0.607532262802124,-0.46300649642944336,-0.38089892268180847,0.0,0.0,0.0,-7.582306861877441,-0.19785666465759277,0.8977513313293457,0.45194774866104126,0.8924973011016846,0.02382310852408409,-0.18765157461166382,-0.40947258472442627,6.218645095825195,1.5953575372695923,1.3845711946487427,15.30560302734375,-0.953619122505188,6.763369560241699,-0.20438891649246216,0.9099141359329224,0.4554239511489868,6.159666538238525,2.0392465591430664,1.0685454607009888,0.44202399253845215,0.6543806195259094,0.42000001668930054,-0.349275678396225,1.1534600257873535,-0.9537206292152405,-2.999215841293335,-0.22665148973464966,-0.21444910764694214,-0.19435498118400574,-0.17314161360263824,-0.733271598815918,-0.6372823715209961,-0.3953360319137573,-0.19231265783309937
0.48333333333333334,-0.05470192804932594,0.11063890159130096,0.0,0.7706421613693237,0.0,0.0,-0.6372681260108948,-0.2175195813179016,-0.7486175894737244,0.0,0.0,0.0,-3.3737876415252686,-0.09487876296043396,0.9192038774490356,0.4708848297595978,0.8368326425552368,0.013465166091918945,-0.17889243364334106,-0.5172303318977356,6.13015604019165,-0.2258945107460022,1.4520916938781738,5.046331882476807,-0.01619693823158741,15.39650821685791,-0.09989189356565475,0.9331753849983215,0.4746176600456238,6.448469638824463,0.5969175100326538,1.2052150964736938,0.44202399253845215,0.6543806195259094,0.42000001668930054,-0.33172607421875,0.8576145172119141,-1.0037444829940796,-2.9979913234710693,-0.23642423748970032,-0.22165964543819427,-0.1972505748271942,-0.17235112190246582,-0.6884125471115112,-0.4598364233970642,-0.16345711052417755,0.09381963312625885
0.5,-0.06102819740772247,0.10117187350988388,0.0,0.7382649183273315,0.0,0.0,-0.6745108962059021,-0.38532754778862,-0.6043272018432617,0.0,0.0,0.0,-6.804514408111572,0.007609374821186066,0.9141523838043213,0.48745521903038025,0.7790223956108093,-0.013227971270680428,-0.16087619960308075,-0.605861246585846,6.2197675704956055,-1.6191891431808472,1.2588684558868408,19.836822509765625,-3.627588987350464,28.719085693359375,0.004781621508300304,0.929836630821228,0.49225032329559326,6.321854114532471,-0.8302252292633057,0.872981071472168,0.44202399253845215,0.6543806195259094,0.42000001668930054,-0.3198228180408478,0.5690062642097473,-1.0537667274475098,-3.000000476837158,-0.24003012478351593,-0.23387204110622406,-0.20365095138549805,-0.17367197573184967,-0.0038425365928560495,-0.5380752682685852,-0.24142037332057953,0.020466580986976624
0.5166666666666666,-0.06456372886896133,0.08944389224052429,0.0,0.7186610698699951,0.0,0.0,-0.695360541343689,-0.15594927966594696,-0.7742530107498169,0.0,0.0,0.0,-2.2518351078033447,0.10543139278888702,0.8890218734741211,0.49931567907333374,0.6975128650665283,-0.04439222067594528,-0.15176740288734436,-0.6989074945449829,5.2425312995910645,-2.7625293731689453,0.9090704321861267,-3.209242343902588,16.064239501953125,5.755421161651611,0.1043531745672226,0.9066606760025024,0.5054724216461182,5.789786338806152,-1.9439163208007812,0.5982789993286133,0.44202399253845215,0.6543806195259094,0.42000001668930054,-0.3134194314479828,0.11957743763923645,-1.1037888526916504,-2.996842622756958,-0.23994404077529907,-0.23993878066539764,-0.20813845098018646,-0.17419354617595673,-0.028642738237977028,-0.018578093498945236,-0.2301868349313736,-0.048769351094961166
0.5333333333333333,-0.06488177180290222,0.08046231418848038,0.0,0.6912216544151306,0.0,0.0,-0.7226427793502808,0.03817280754446983,-0.4918173551559448,0.0,0.0,0.0,-5.485709190368652,0.19152669608592987,0.8525112867355347,0.5020920634269714,0.6059772968292236,-0.1280945986509323,-0.1645054966211319,-0.7676724791526794,4.091876983642578,-3.0564868450164795,0.700504720211029,22.844364166259766,7.367531776428223,44.5490608215332,0.1911407709121704,0.8716601133346558,0.5121104717254639,5.021434783935547,-2.393796920776367,0.009685400873422623,0.44202399253845215,0.6543806195259094,0.42000001668930054,-0.315215528011322,-0.4045206904411316,-1.153810977935791,-2.9968502521514893,-0.23939469456672668,-0.23909172415733337,-0.21170130372047424,-0.17607630789279938,0.08396707475185394,0.13197636604309082,-0.09224768728017807,-0.0768231600522995
0.55,-0.06208194047212601,0.07513871788978577,0.0,0.6782388687133789,0.0,0.0,-0.7348414659500122,0.2040245085954666,-0.2509823441505432,0.0,0.0,0.0,-1.0708982944488525,0.2623539865016937,0.813274621963501,0.5014811158180237,0.5693779587745667,-0.13482549786567688,-0.12921075522899628,-0.8005843162536621,3.560842275619507,-2.721992015838623,-0.14240731298923492,-0.7074621319770813,15.727160453796387,-3.2996225357055664,0.26322445273399353,0.8302463293075562,0.5116583704948425,3.8540878295898438,-2.6390414237976074,-0.13910137116909027,0.44202399253845215,0.6543806195259094,0.42000001668930054,-0.3194155991077423,0.01078382134437561,-1.2038331031799316,-2.997957468032837,-0.2371845543384552,-0.23584334552288055,-0.2122035175561905,-0.1773197054862976,0.2133089005947113,0.2788059115409851,0.045899439603090286,-0.059510745108127594
0.5666666666666667,-0.05662277713418007,0.07339239120483398,0.0,0.6572548747062683,0.0,0.0,-0.7536683678627014,0.3789030611515045,-0.024769069626927376,0.0,0.0,0.0,-4.261361122131348,0.3204200267791748,0.7746199369430542,0.49364936351776123,0.5038901567459106,-0.16655094921588898,-0.08395900577306747,-0.8433897495269775,3.2568554878234863,-2.147059679031372,-0.6700050830841064,1.0920376777648926,1.8823480606079102,-16.53606605529785,0.320936918258667,0.7899690866470337,0.5040112733840942,3.059464931488037,-2.3556084632873535,-0.6370457410812378,0.44202399253845215,0.6543806195259094,0.42000001668930054,-0.309598833322525,1.1703201532363892,-1.2538552284240723,-3.0000009536743164,-0.23176918923854828,-0.22998997569084167,-0.21077999472618103,-0.1788650006055832,0.4231671988964081,0.42661380767822266,0.14299845695495605,-0.09106037020683289
0.5833333333333334,-0.04777798056602478,0.06653767824172974,0.0,0.6488844752311707,0.0,0.0,-0.7608869671821594,0.5811812877655029,-0.5357487201690674,0.0,0.0,0.0,-0.37938356399536133,0.36730140447616577,0.7395744323730469,0.47996607422828674,0.4714382290840149,-0.13303233683109283,-0.10090742260217667,-0.865947961807251,2.3153021335601807,-2.0445556640625,-0.9001234173774719,0.44023963809013367,-7.058583736419678,0.727169394493103,0.3665846586227417,0.7522603273391724,0.4908284544944763,2.370359420776367,-2.185880661010742,-0.8914611339569092,0.44202399253845215,0.6543806195259094,0.42000001668930054,-0.2823413908481598,2.0003111362457275,-1.2245713472366333,3.000000238418579,-0.21960663795471191,-0.21836254000663757,-0.20431360602378845,-0.17731034755706787,0.8595616221427917,0.8083242177963257,0.49029287695884705,0.15690623223781586
0.6,-0.04201870039105415,0.06287310272455215,0.0,0.6292625665664673,0.0,0.0,-0.7771927714347839,0.3300754129886627,-0.23474852740764618,0.0,0.0,0.0,-3.799927234649658,0.39958322048187256,0.706652045249939,0.4615604877471924,0.47090476751327515,-0.13093166053295135,-0.109463170170784,-0.865519106388092,1.2711894512176514,-2.577016592025757,-0.5603559613227844,25.32838249206543,28.625715255737305,3.0150673389434814,0.40008682012557983,0.7195792198181152,0.47251003980636597,1.7420668601989746,-1.8610544204711914,-1.3422670364379883,0.44202399253845215,0.6543806195259094,0.42000001668930054,-0.25408342480659485,0.8140755891799927,-1.1745644807815552,3.000002384185791,-0.20794299244880676,-0.20731481909751892,-0.19809521734714508,-0.1766527146100998,0.7435218095779419,0.676844596862793,0.37717682123184204,0.01603730581700802
0.6166666666666667,-0.03518275171518326,0.06194581091403961,0.0,0.6251921057701111,0.0,0.0,-0.7804708480834961,0.44091886281967163,0.029335567727684975,0.0,0.0,0.0,0.30364349484443665,0.4203040897846222,0.6773812174797058,0.4399430751800537,0.46336862444877625,-0.16914382576942444,-0.0729069858789444,-0.8668128252029419,0.7927196621894836,-1.946329116821289,-0.97640061378479,0.7254091501235962,17.601533889770508,2.3903582096099854,0.42181795835494995,0.689623236656189,0.450724720954895,0.8874114155769348,-1.6452064514160156,-1.4421839714050293,0.44202399253845215,0.6543806195259094,0.42000001668930054,-0.2570140063762665,-0.8608897924423218,-1.1964646577835083,-2.9984169006347656,-0.1963900923728943,-0.19707974791526794,-0.19265955686569214,-0.17725646495819092,0.6494894623756409,0.5597842931747437,0.2809146046638489,-0.08472125232219696
0.6333333333333333,-0.026659484952688217,0.05782807618379593,0.0,0.6100777983665466,0.0,0.0,-0.7923415303230286,0.5471429228782654,-0.2222266048192978,0.0,0.0,0.0,-3.070899248123169,0.435701847076416,0.6598027348518372,0.4215441644191742,0.4837811589241028,0.011141621507704258,0.005191764794290066,-0.8751025795936584,0.4756523370742798,-0.7133952379226685,-0.1098451018333435,-0.07763884961605072,1.1895583868026733,1.2551628351211548,0.4335176944732666,0.668371319770813,0.42290496826171875,0.21101191639900208,-0.9717307686805725,-1.5161235332489014,0.44202399253845215,0.6543806195259094,0.42000001668930054,-0.2622322738170624,0.2838137745857239,-1.1586036682128906,2.9890599250793457,-0.18242347240447998,-0.18541185557842255,-0.18612417578697205,-0.1773361712694168,0.6410396099090576,0.5375367403030396,0.27655646204948425,-0.08110736310482025
0.65,-0.015427629463374615,0.05866442993283272,0.0,0.6088984608650208,0.0,0.0,-0.793248176574707,0.680901288986206,0.07512165606021881,0.0,0.0,0.0,0.7484630346298218,0.4385693073272705,0.6551999449729919,0.422404944896698,0.5050164461135864,-0.03379559516906738,0.048080313950777054,-0.8611065149307251,0.08450820297002792,-0.10797670483589172,0.1319103240966797,0.748658299446106,4.637505531311035,-0.7156813144683838,0.436148464679718,0.6646901369094849,0.4303179383277893,0.10658050328493118,-0.07324982434511185,0.11027243733406067,0.44202399253845215,0.6543806195259094,0.42000001668930054,-0.2815818786621094,-2.5026865005493164,-1.177870512008667,-2.998340606689453,-0.17275328934192657,-0.1775350421667099,-0.1820448786020279,-0.178488090634346,0.5870125889778137,0.4572524130344391,0.2273576557636261,-0.0900699570775032
0.6666666666666666,-0.007521519903093576,0.05462290719151497,0.0,0.6308029890060425,0.0,0.0,-0.7759430408477783,0.40561047196388245,-0.27852359414100647,0.0,0.0,0.0,4.020061492919922,0.43952807784080505,0.6540839672088623,0.4231429994106293,0.5000741481781006,-0.04409976676106453,0.06974214315414429,-0.8620423078536987,-0.016763387247920036,0.041041795164346695,0.03929965943098068,-1.2832762002944946,1.1420507431030273,-0.3966624438762665,0.4362749457359314,0.6653534173965454,0.4321717619895935,-0.08607714623212814,0.08584420382976532,0.12419622391462326,0.44202399253845215,0.6543806195259094,0.42000001668930054,-0.32632124423980713,-2.8282361030578613,-1.2278395891189575,-2.9982049465179443,-0.16075751185417175,-0.16778039932250977,-0.17586560547351837,-0.17732404172420502,0.6026669144630432,0.4980829358100891,0.32938799262046814,0.07344555854797363
0.6833333333333333,0.0020305474754422903,0.05449051409959793,0.0,0.6381319761276245,0.0,0.0,-0.7699270248413086,0.5380110144615173,0.11091576516628265,0.0,0.0,0.0,0.11563819646835327,0.43905091285705566,0.6545908451080322,0.4224768579006195,0.5009523630142212,-0.03389277309179306,0.054066114127635956,-0.8631191849708557,-0.03524667024612427,0.027953268960118294,-0.06466987729072571,-0.7750353813171387,-2.939349889755249,0.06270227581262589,0.43583184480667114,0.6678431034088135,0.43518298864364624,0.05885188654065132,0.25382399559020996,0.25193896889686584,0.44202399253845215,0.6543806195259094,0.42000001668930054,-0.37629857659339905,-2.9991648197174072,-1.2777968645095825,-2.999298334121704,-0.15489278733730316,-0.16267168521881104,-0.17223957180976868,-0.17653250694274902,0.37823036313056946,0.3416779041290283,0.2815488576889038,0.14981307089328766
0.7,0.012699214741587639,0.05134117230772972,0.0,0.6226953268051147,0.0,0.0,-0.7824643850326538,0.6814068555831909,-0.22418718039989471,0.0,0.0,0.0,-3.320131778717041,0.4378149211406708,0.6552669405937195,0.4207496643066406,0.5025438070297241,-0.009228079579770565,0.015868833288550377,-0.8643568158149719,-0.08735719323158264,0.05059298500418663,-0.11407377570867538,-3.110635995864868,-5.462069511413574,0.021869538351893425,0.4392038583755493,0.6713026762008667,0.4411636292934418,0.22489704191684723,0.055331021547317505,0.5620404481887817,0.44202399253845215,0.6543806195259094,0.42000001668930054,-0.4263123869895935,-3.000000476837158,-1.3278155326843262,-2.999999761581421,-0.1481878012418747,-0.1561853289604187,-0.16606959700584412,-0.17170889675617218,0.17119108140468597,0.2294282764196396,0.2928732633590698,0.2982694208621979
0.7166666666666667,0.025589527562260628,0.04491778463125229,0.0,0.5859463810920715,0.0,0.0,-0.8103498220443726,0.81485915184021,-0.44929054379463196,0.0,0.0,0.0,-6.480613708496094,0.43707403540611267,0.6556958556175232,0.4200001060962677,0.5029882788658142,1.3001451407035347e-05,-3.524329940773896e-06,-0.8642931580543518,0.0013887557433918118,6.537172885145992e-05,-0.0004981153178960085,-0.009409023448824883,0.010770677588880062,-0.002786543220281601,0.45006245374679565,0.6690623760223389,0.4574747085571289,1.0966882705688477,-0.3363701403141022,1.5331833362579346,0.44202399253845215,0.6543806195259094,0.42000001668930054,-0.47632545232772827,-2.999880075454712,-1.3778338432312012,-2.9999868869781494,-0.14951108396053314,-0.15571360290050507,-0.16357631981372833,-0.1681046038866043,-0.22527548670768738,-0.08532985299825668,0.07478712499141693,0.1838027834892273
0.7333333333333333,0.041450683027505875,0.04192567616701126,0.0,0.5629392266273499,0.0,0.0,-0.8264983296394348,0.9628928899765015,-0.14872828125953674,0.0,0.0,0.0,-2.26455020904541,0.43707555532455444,0.6556960940361023,0.4200000464916229,0.5029873847961426,-4.091799965522114e-08,-2.471749667165568e-06,-0.8642936944961548,-4.6526274672942236e-05,-0.00023948914895299822,-5.3851399570703506e-05,0.006946264766156673,-0.0027577653527259827,-0.0006171962013468146,0.4701160788536072,0.668918788433075,0.4851565361022949,1.3369958400726318,0.2628224194049835,1.7493314743041992,0.44202399253845215,0.6543806195259094,0.42000001668930054,-0.49995166063308716,-0.07237554341554642,-1.4278521537780762,-2.9999990463256836,-0.155081644654274,-0.15959864854812622,-0.16543273627758026,-0.16876327991485596,-0.2019246369600296,-0.1764637529850006,-0.12716005742549896,-0.12173298746347427
0.75,0.05360019579529762,0.041017111390829086,0.0,0.5670207738876343,0.0,0.0,-0.8237035274505615,0.640758752822876,-0.01159612089395523,0.0,0.0,0.0,1.4995965957641602,0.43707552552223206,0.6556960940361023,0.4200000464916229,0.5029875636100769,-4.065310932332977e-08,-2.710124817895121e-06,-0.86429363489151,-2.374923315073829e-05,-0.0002284180955030024,-6.185960955917835e-05,0.006497429218143225,-0.002552660880610347,-0.0006434899987652898,0.49122920632362366,0.6750994920730591,0.5083519220352173,1.088527798652649,0.4643082320690155,1.0737850666046143,0.44202399253845215,0.6543806195259094,0.42000001668930054,-0.48200488090515137,2.0286073684692383,-1.4276291131973267,2.5454745292663574,-0.1568169742822647,-0.16101820766925812,-0.16609813272953033,-0.1693265438079834,-0.04222197085618973,-0.025423945859074593,0.01755049265921116,0.024384677410125732
0.7666666666666666,0.06085854023694992,0.035973288118839264,0.0,0.5591787695884705,0.0,0.0,-0.8290470838546753,0.3885731101036072,-0.37810608744621277,0.0,0.0,0.0,-2.205449104309082,0.43707552552223206,0.6556960940361023,0.4200000464916229,0.5029873847961426,-1.450184612394878e-07,-2.4589360236859648e-06,-0.8642936944961548,-2.8421512979548424e-05,-0.0002286883827764541,-6.0843536630272865e-05,0.006529167294502258,-0.0026049104053527117,-0.000634016643743962,0.5031456351280212,0.6834319233894348,0.5201215744018555,0.2706965506076813,0.49677878618240356,0.5085874795913696,0.44202399253845215,0.6543806195259094,0.42000001668930054,-0.4510882794857025,1.6851224899291992,-1.377577543258667,3.000000238418579,-0.15591523051261902,-0.15991081297397614,-0.1643722802400589,-0.16753771901130676,-0.022659139707684517,0.015714755281805992,0.0750226378440857,0.10072941333055496
0.7833333333333333,0.06501738727092743,0.03593849763274193,0.0,0.5635138750076294,0.0,0.0,-0.826106607913971,0.1997021585702896,0.12363654375076294,0.0,0.0,0.0,1.504252314567566,0.43707552552223206,0.6556960940361023,0.4200000464916229,0.5029873847961426,-1.7229105253591115e-07,-2.514327889002743e-06,-0.8642937541007996,-2.7948024580837227e-05,-0.00022863609774503857,-6.095762364566326e-05,0.006525101140141487,-0.002599910367280245,-0.0006349384784698486,0.5036331415176392,0.6913293600082397,0.5255950093269348,-0.15943816304206848,0.5354510545730591,0.16980436444282532,0.44202399253845215,0.6543806195259094,0.42000001668930054,-0.4106626808643341,3.0,-1.3961119651794434,-3.0000007152557373,-0.1618553102016449,-0.16402217745780945,-0.166432723402977,-0.16818737983703613,-0.41106435656547546,-0.29364967346191406,-0.16593238711357117,-0.07509075850248337
0.8,0.06545259803533554,0.03302273526787758,0.0,0.5567991137504578,0.0,0.0,-0.8306471705436707,-0.023182528093457222,-0.28815245628356934,0.0,0.0,0.0,-1.9922174215316772,0.43707552552223206,0.6556960940361023,0.4200000464916229,0.5029873847961426,-1.672124199103564e-07,-2.393481736362446e-06,-0.8642936944961548,-2.8517129976535216e-05,-0.0002288649120600894,-6.085541099309921e-05,0.006534012965857983,-0.0026076154317706823,-0.0006344622233882546,0.4946109652519226,0.699057400226593,0.5227398872375488,-0.9137886166572571,0.4193700850009918,-0.3250718116760254,0.44202399253845215,0.6543806195259094,0.42000001668930054,-0.39205658435821533,-0.4818969964981079,-1.3576757907867432,2.9999990463256836,-0.16675786674022675,-0.16716942191123962,-0.16761401295661926,-0.16788749396800995,-0.22879374027252197,-0.12623700499534607,-0.010782552883028984,0.08090908080339432
0.8166666666666667,0.06805726140737534,0.0346347950398922,0.0,0.5619927048683167,0.0,0.0,-0.8271421790122986,0.12594370543956757,0.05752258747816086,0.0,0.0,0.0,1.2030845880508423,0.43707552552223206,0.6556960940361023,0.4200000464916229,0.5029873847961426,-1.0468730238244461e-07,-2.4511416540917708e-06,-0.8642936944961548,-2.7367026632418856e-05,-0.00022840984456706792,-6.107077933847904e-05,0.0065161907114088535,-0.0025921643245965242,-0.0006354590295813978,0.4781719446182251,0.7050236463546753,0.5174635648727417,-0.8820754289627075,0.4797528386116028,-0.3440844416618347,0.44202399253845215,0.6543806195259094,0.42000001668930054,-0.4092014729976654,-1.4706470966339111,-1.3765805959701538,-2.999999761581421,-0.1751844584941864,-0.1732129007577896,-0.1710822731256485,-0.16913564503192902,-0.22717490792274475,-0.1669154018163681,-0.08515644818544388,-0.008661430329084396
0.8333333333333334,0.0713181421160698,0.031333863735198975,0.0,0.5729652643203735,0.0,0.0,-0.8195796012878418,0.2183058112859726,-0.2275530993938446,0.0,0.0,0.0,1.8113574981689453,0.43707552552223206,0.6556960940361023,0.4200000464916229,0.5029873847961426,-1.6624044008040073e-07,-2.505958264009678e-06,-0.8642937541007996,-2.7951788069913164e-05,-0.0002286342205479741,-6.09569251537323e-05,0.006525109056383371,-0.0025998896453529596,-0.0006349190953187644,0.4655044972896576,0.7116597890853882,0.5094276070594788,-0.7309630513191223,0.2759040892124176,-0.5141323804855347,0.44202399253845215,0.6543806195259094,0.42000001668930054,-0.4555107355117798,-3.000000476837158,-1.4265989065170288,-3.0000011920928955,-0.17620982229709625,-0.17340035736560822,-0.16998396813869476,-0.1666739135980606,-0.09899882972240448,-0.01917748898267746,0.08779526501893997,0.20304401218891144
0.85,0.07695363461971283,0.026319608092308044,0.0,0.5670168399810791,0.0,0.0,-0.8237061500549316,0.38153040409088135,-0.3488185703754425,0.0,0.0,0.0,-1.7891525030136108,0.43707552552223206,0.6556960940361023,0.4200000464916229,0.5029873847961426,-1.6134360691921756e-07,-2.3852678623370593e-06,-0.8642936944961548,-2.8667687729466707e-05,-0.00022884763893671334,-6.0816993936896324e-05,0.006534396670758724,-0.0026090003084391356,-0.000634067109785974,0.4582884609699249,0.7139126658439636,0.5015748739242554,-0.13075630366802216,0.028540130704641342,-0.26164156198501587,0.44202399253845215,0.6543806195259094,0.42000001668930054,-0.5055238604545593,-2.9999823570251465,-1.4766172170639038,-2.999999523162842,-0.1798814833164215,-0.17553509771823883,-0.17012567818164825,-0.16462431848049164,-0.22411780059337616,-0.13452112674713135,-0.017769373953342438,0.1142156645655632
0.8666666666666667,0.08512916415929794,0.018406763672828674,0.0,0.5388997197151184,0.0,0.0,-0.8423699140548706,0.5364156365394592,-0.5286734104156494,0.0,0.0,0.0,-5.002002239227295,0.43707552552223206,0.6556960940361023,0.4200000464916229,0.5029873847961426,-1.0645690196042779e-07,-2.445786776661407e-06,-0.8642936944961548,-2.7358222723705694e-05,-0.0002284080401295796,-6.107334047555923e-05,0.0065160649828612804,-0.002592217642813921,-0.0006354725337587297,0.4618455767631531,0.7096572518348694,0.5018210411071777,0.5865676403045654,-0.48105835914611816,0.4208749234676361,0.44202399253845215,0.6543806195259094,0.42000001668930054,-0.5555364489555359,-2.9999136924743652,-1.5266355276107788,-2.9999940395355225,-0.18548865616321564,-0.17935381829738617,-0.17175157368183136,-0.1638084203004837,-0.35440394282341003,-0.24636340141296387,-0.11660666018724442,0.028331680223345757
0.8833333333333333,0.09654292464256287,0.014048144221305847,0.0,0.5255839228630066,0.0,0.0,-0.8507417440414429,0.6853590607643127,-0.2300717979669571,0.0,0.0,0.0,-0.7680937051773071,0.43707552552223206,0.6556960940361023,0.4200000464916229,0.5029873847961426,-1.6799089053165517e-07,-2.5005208499351284e-06,-0.8642937541007996,-2.7952199161518365e-05,-0.00022863378399051726,-6.095459684729576e-05,0.00652503315359354,-0.0025999576319009066,-0.0006349272443912923,0.4721508026123047,0.7070419788360596,0.5127122402191162,0.6716681718826294,0.1438414454460144,0.819243311882019,0.44202399253845215,0.6543806195259094,0.42000001668930054,-0.5761998295783997,0.25413182377815247,-1.576653242111206,-2.9999992847442627,-0.19168154895305634,-0.18452313542366028,-0.17563962936401367,-0.16620835661888123,-0.1652584820985794,-0.18833667039871216,-0.19759510457515717,-0.19196054339408875
0.9,0.10400526225566864,0.011680244468152523,0.0,0.5391917824745178,0.0,0.0,-0.842182993888855,0.3672974705696106,-0.10258714854717255,0.0,0.0,0.0,2.7649152278900146,0.43707552552223206,0.6556960940361023,0.4200000464916229,0.5029873847961426,-1.6291687643388286e-07,-2.3796947061782703e-06,-0.8642936944961548,-2.85167625406757e-05,-0.00022886322403792292,-6.0853082686662674e-05,0.006533978972584009,-0.002607551170513034,-0.0006344612338580191,0.4846503734588623,0.7104787826538086,0.5208057761192322,0.7072224617004395,0.20951274037361145,0.19625908136367798,0.44202399253845215,0.6543806195259094,0.42000001668930054,-0.5631915926933289,1.2115962505340576,-1.5377042293548584,3.000000476837158,-0.19141744077205658,-0.18507187068462372,-0.17679764330387115,-0.16771908104419708,0.10294836014509201,0.05011393874883652,0.004963546525686979,-0.027641668915748596
0.9166666666666666,0.10679111629724503,0.005426885560154915,0.0,0.5387418270111084,0.0,0.0,-0.8424708843231201,0.1299891173839569,-0.42734143137931824,0.0,0.0,0.0,-1.1153340339660645,0.43707552552223206,0.6556960940361023,0.4200000464916229,0.5029873847961426,-1.0807693939796081e-07,-2.440321168251103e-06,-0.8642936944961548,-2.7357156795915216e-05,-0.00022840560995973647,-6.107334047555923e-05,0.006515996530652046,-0.00259208376519382,-0.0006354697397910058,0.4915168881416321,0.7114695310592651,0.5196863412857056,0.11334127932786942,-0.11275336146354675,-0.16378939151763916,0.44202399253845215,0.6543806195259094,0.42000001668930054,-0.5792199373245239,-2.775684118270874,-1.4876515865325928,3.0000009536743164,-0.18778368830680847,-0.1823866367340088,-0.17498844861984253,-0.16661010682582855,0.14113962650299072,0.11340919137001038,0.08409898728132248,0.05977112427353859
