vladlanda/robotic-transformer/data/env_000_episode_0107.csv
sim_time_s,robot_box_x,robot_box_y,robot_box_z,robot_box_quat_w,robot_box_quat_x,robot_box_quat_y,robot_box_quat_z,robot_box_linvel_x,robot_box_linvel_y,robot_box_linvel_z,robot_box_angvel_x,robot_box_angvel_y,robot_box_angvel_z,cube_world_x,cube_world_y,cube_world_z,cube_quat_w,cube_quat_x,cube_quat_y,cube_quat_z,cube_linvel_x,cube_linvel_y,cube_linvel_z,cube_angvel_x,cube_angvel_y,cube_angvel_z,endpoint_world_x,endpoint_world_y,endpoint_world_z,endpoint_linvel_x,endpoint_linvel_y,endpoint_linvel_z,target_cube_world_x,target_cube_world_y,target_cube_world_z,gripper_actual_pos_rad_gp_leftgearjoint,gripper_actual_vel_rad_s_gp_leftgearjoint,gripper_actual_pos_rad_gp_rotatingjoint,gripper_actual_vel_rad_s_gp_rotatingjoint,motor_angle_rad_joint1,motor_angle_rad_joint2,motor_angle_rad_joint3,motor_angle_rad_joint4,motor_speed_rad_s_joint1,motor_speed_rad_s_joint2,motor_speed_rad_s_joint3,motor_speed_rad_s_joint4
0.0,0.0,0.0,0.0,1.0,0.0,0.0,0.0,0.0,0.0,0.0,0.0,0.0,0.0,-0.4191810190677643,0.7029474973678589,0.41999998688697815,1.0,0.0,0.0,0.0,0.0,0.0,0.0,0.0,0.0,0.0,3.42540442943573e-06,-0.005000244826078415,1.313499927520752,0.0,0.0,0.0,0.43608033657073975,0.6766948103904724,0.42000001668930054,-1.5707999467849731,0.0,0.0,0.0,0.0,0.0,0.0,0.0,0.0,0.0,0.0,0.0
0.016666666666666666,0.0028778850100934505,0.0021806680597364902,0.0,0.9998081922531128,0.0,0.0,0.019586581736803055,0.24087215960025787,0.18240931630134583,0.0,0.0,0.0,3.1418697834014893,-0.41918113827705383,0.702947199344635,0.41999998688697815,1.0,3.2799914606584935e-06,-8.339814598912199e-07,8.465387679734704e-08,-1.9833554688375443e-05,0.00017983050202019513,-6.133061833679676e-05,0.0009432226070202887,-0.004689437802881002,-0.0003198152990080416,-0.007110234349966049,0.003379564033821225,1.3159373998641968,-0.8143353462219238,0.9868683815002441,0.18095196783542633,0.43608033657073975,0.6766948103904724,0.42000001668930054,-1.5301095247268677,3.0000011920928955,-0.04584788903594017,-2.9999992847442627,0.0008691533003002405,0.0007963840034790337,0.0007110277656465769,0.0006108740926720202,0.11094217747449875,0.09756709635257721,0.08334315568208694,0.06823883205652237
0.03333333333333333,0.00896099116653204,0.006801975890994072,0.0,0.9997960329055786,0.0,0.0,0.02019684389233589,0.40702202916145325,0.31530818343162537,0.0,0.0,0.0,-0.8691315054893494,-0.4191812574863434,0.7029471397399902,0.4200000464916229,1.0,3.390914116607746e-06,-2.132455392711563e-06,-3.71076644967161e-08,0.0002635782293509692,0.00026937935035675764,-0.00010509486310184002,-0.001770757487975061,0.0041308156214654446,-0.00013547815615311265,-0.027552684769034386,0.0261816568672657,1.316598653793335,-1.5914249420166016,1.6159266233444214,-0.08467996120452881,0.43608033657073975,0.6766948103904724,0.42000001668930054,-1.4800904989242554,3.000001907348633,-0.09588772058486938,-3.0000007152557373,0.0029901156667619944,0.0026527270674705505,0.0022772997617721558,0.0018607571255415678,0.16421672701835632,0.1397605985403061,0.11381977796554565,0.0863020271062851
0.05,0.017421336844563484,0.013702933676540852,0.0,0.9995160102844238,0.0,0.0,0.0311075858771801,0.5785461664199829,0.45922717452049255,0.0,0.0,0.0,2.595201253890991,-0.41918128728866577,0.702947199344635,0.4200000464916229,1.0,3.7652293940482195e-06,-2.2118967990536476e-06,5.613899567435965e-09,0.000265309150563553,0.0002669153909664601,-0.0001044049859046936,-0.00172426737844944,0.004177379421889782,-0.0001294983085244894,-0.059421323239803314,0.05455496162176132,1.31146240234375,-2.1818275451660156,1.785219430923462,-0.48626336455345154,0.43608033657073975,0.6766948103904724,0.42000001668930054,-1.4300721883773804,2.999999523162842,-0.14592638611793518,-3.000000476837158,0.005583899561315775,0.0047980486415326595,0.00394015247002244,0.00300562079064548,0.18774056434631348,0.1510552167892456,0.11251001805067062,0.07200685888528824
0.06666666666666667,0.02850016951560974,0.02289106883108616,0.0,0.9995913505554199,0.0,0.0,0.028585493564605713,0.7072003483772278,0.5887061953544617,0.0,0.0,0.0,-1.2580070495605469,-0.41918128728866577,0.7029471397399902,0.4200000464916229,0.9999999403953552,3.4068445984303253e-06,-2.2855729184811935e-06,4.300823945868615e-07,0.000267024093773216,0.0002679175231605768,-0.0001043803058564663,-0.0017406325787305832,0.004211729858070612,-0.00012850853090640157,-0.09625467658042908,0.08980824053287506,1.2991923093795776,-2.2732129096984863,2.315417766571045,-0.9592471122741699,0.43608033657073975,0.6766948103904724,0.42000001668930054,-1.3800538778305054,2.9999990463256836,-0.19594210386276245,-2.999999523162842,0.007945018820464611,0.006417273543775082,0.004778786562383175,0.0030240791384130716,0.13024786114692688,0.07361827790737152,0.014961778186261654,-0.04579123854637146
0.08333333333333333,0.04029116407036781,0.0343945138156414,0.0,0.9999931454658508,0.0,0.0,-0.003710582386702299,0.751521110534668,0.7331376075744629,0.0,0.0,0.0,-4.7137346267700195,-0.41918128728866577,0.7029471397399902,0.4200000464916229,1.0,3.697329248097958e-06,-2.1889204617764335e-06,-2.632361599808064e-07,0.00026389621780253947,0.00026586378226056695,-0.00010433816350996494,-0.0017081365222111344,0.004150137305259705,-0.00012991174298804253,-0.13254250586032867,0.1325264275074005,1.2805094718933105,-2.1331119537353516,2.682115077972412,-1.2444227933883667,0.43608033657073975,0.6766948103904724,0.42000001668930054,-1.3300272226333618,2.9999964237213135,-0.16217778623104095,3.0000009536743164,0.008347480557858944,0.005833853501826525,0.0031704616267234087,0.00035072711762040854,-0.001789234927855432,-0.06989959627389908,-0.1399463266134262,-0.2119733691215515
0.1,0.04625951498746872,0.049797747284173965,0.0,0.9997566938400269,0.0,0.0,-0.02205822244286537,0.40444889664649963,0.8103198409080505,0.0,0.0,0.0,-0.5948030948638916,-0.41918128728866577,0.7029471397399902,0.4200000464916229,0.9999999403953552,3.620433972173487e-06,-2.265166358483839e-06,1.7460881451825117e-07,0.00026676940615288913,0.00026740849716588855,-0.0001040794886648655,-0.0017386502586305141,0.0042092143557965755,-0.00012775196228176355,-0.16956806182861328,0.17358653247356415,1.258353352546692,-2.1977195739746094,2.4232821464538574,-1.181746244430542,0.43608033657073975,0.6766948103904724,0.42000001668930054,-1.280032992362976,2.9999053478240967,-0.19386637210845947,-2.999979019165039,0.0023283876944333315,-0.0009867310291156173,-0.004497839603573084,-0.00821511447429657,-0.1743333488702774,-0.2657400369644165,-0.3570006787776947,-0.448123961687088
0.11666666666666667,0.0508541502058506,0.06435278058052063,0.0,0.9988713264465332,0.0,0.0,-0.04749848321080208,0.2781938910484314,0.9725343585014343,0.0,0.0,0.0,-3.750227451324463,-0.41918128728866577,0.7029471397399902,0.4200000464916229,1.0,3.7984186747053172e-06,-2.262772341055097e-06,-1.5020653165720432e-07,0.00026373984292149544,0.00026565982261672616,-0.00010428996756672859,-0.0017054551281034946,0.004147582221776247,-0.000129800770082511,-0.20385198295116425,0.22045737504959106,1.2373493909835815,-1.9214437007904053,3.1680078506469727,-1.347029447555542,0.43608033657073975,0.6766948103904724,0.42000001668930054,-1.2300070524215698,2.999992609024048,-0.16010624170303345,2.999999761581421,-0.000352083588950336,-0.005529920570552349,-0.010868924669921398,-0.01637830026447773,-0.10447443276643753,-0.23293854296207428,-0.3577592372894287,-0.47878673672676086
0.13333333333333333,0.0608038529753685,0.07725074887275696,0.0,0.994850754737854,0.0,0.0,-0.10135061293840408,0.6537702083587646,0.7930492758750916,0.0,0.0,0.0,-7.147796154022217,-0.41918128728866577,0.702947199344635,0.4200000464916229,0.9999999403953552,3.5505179312167456e-06,-2.2298092972050654e-06,2.9291240366546845e-07,0.0002670329704415053,0.0002677935699466616,-0.00010416889563202858,-0.0017439755611121655,0.004213570151478052,-0.00012800609692931175,-0.23563894629478455,0.274600625038147,1.214052438735962,-1.9346266984939575,3.360914945602417,-1.5729084014892578,0.43608033657073975,0.6766948103904724,0.42000001668930054,-1.193649411201477,1.4625650644302368,-0.19185477495193481,-3.0,0.0009130735998041928,-0.0066590881906449795,-0.0143076591193676,-0.022037938237190247,-0.12900105118751526,-0.23548530042171478,-0.33874911069869995,-0.43861907720565796
0.15,0.06746437400579453,0.087765634059906,0.0,0.9909561276435852,0.0,0.0,-0.13418641686439514,0.3544957935810089,0.5631341934204102,0.0,0.0,0.0,-2.8359694480895996,-0.41918128728866577,0.7029471397399902,0.4200000464916229,0.9999999403953552,3.3380795230186777e-06,-2.2429178443417186e-06,-2.8019679021440425e-08,0.00026674545370042324,0.0002675825380720198,-0.00010427855886518955,-0.0017367409309372306,0.004206846002489328,-0.00012831656204070896,-0.27323803305625916,0.32834768295288086,1.181052803993225,-2.1952452659606934,3.4909920692443848,-2.2995877265930176,0.43608033657073975,0.6766948103904724,0.42000001668930054,-1.148435354232788,3.0000007152557373,-0.20899584889411926,0.6384985446929932,-0.0052445740438997746,-0.013956921175122261,-0.022703491151332855,-0.031491875648498535,-0.41049671173095703,-0.4662904739379883,-0.5192899107933044,-0.5696966052055359
0.16666666666666666,0.07029982656240463,0.09946848452091217,0.0,0.9842323660850525,0.0,0.0,-0.17688031494617462,0.12806835770606995,0.7126652598381042,0.0,0.0,0.0,-5.898003578186035,-0.41918128728866577,0.702947199344635,0.4200000464916229,0.9999999403953552,3.6478086258284748e-06,-2.307298927917145e-06,3.5287062161160065e-08,0.0002672687987796962,0.0002680137986317277,-0.0001041849609464407,-0.0017472092295065522,0.004217576701194048,-0.00012798466195818037,-0.3082416355609894,0.38913482427597046,1.1394963264465332,-1.9067192077636719,3.892827033996582,-2.6492490768432617,0.43608033657073975,0.6766948103904724,0.42000001668930054,-1.0984413623809814,2.9999988079071045,-0.25225695967674255,-3.0,-0.014385051093995571,-0.02392672747373581,-0.03344573453068733,-0.04295356571674347,-0.5697449445724487,-0.6197677850723267,-0.6658197045326233,-0.7080274820327759
0.18333333333333332,0.06971640884876251,0.11254819482564926,0.0,0.979889988899231,0.0,0.0,-0.199538454413414,-0.10962570458650589,0.8375051617622375,0.0,0.0,0.0,-1.6293461322784424,-0.41918128728866577,0.7029471397399902,0.4200000464916229,0.9999999403953552,3.2905161333474098e-06,-2.1939308680885006e-06,-2.7921495870941726e-07,0.0002667803782969713,0.0002677594602573663,-0.00010433956049382687,-0.0017390174325555563,0.004206987097859383,-0.00012845761375501752,-0.3439500331878662,0.4504309296607971,1.087082862854004,-2.0051889419555664,3.7566728591918945,-3.5886597633361816,0.43608033657073975,0.6766948103904724,0.42000001668930054,-1.0575159788131714,1.9671015739440918,-0.3022843301296234,-2.9999990463256836,-0.025490257889032364,-0.035370197147130966,-0.0451621450483799,-0.05488400533795357,-0.7309294939041138,-0.727424681186676,-0.7205947637557983,-0.7109509706497192
0.2,0.07444147765636444,0.1220068484544754,0.0,0.9717409610748291,0.0,0.0,-0.2360498309135437,0.42030802369117737,0.43498694896698,0.0,0.0,0.0,-5.486213207244873,-0.41918128728866577,0.7029471397399902,0.4200000464916229,1.0,3.2807702154968865e-06,-2.2192509732121835e-06,1.5948818088418193e-07,0.0002662783954292536,0.00026740110479295254,-0.0001042510848492384,-0.0017357355682179332,0.004197742789983749,-0.00012865533062722534,-0.37568235397338867,0.5156515836715698,1.0219333171844482,-1.6615099906921387,3.9872779846191406,-4.2323455810546875,0.43608033657073975,0.6766948103904724,0.42000001668930054,-1.0092663764953613,2.999999761581421,-0.35231029987335205,-3.0000007152557373,-0.034172698855400085,-0.04417956620454788,-0.05404245853424072,-0.06378713250160217,-0.4956166446208954,-0.4927394688129425,-0.4875217080116272,-0.48043549060821533
0.21666666666666667,0.0748874843120575,0.13259266316890717,0.0,0.9670307636260986,0.0,0.0,-0.254659503698349,-0.03393840044736862,0.678902268409729,0.0,0.0,0.0,-1.2926992177963257,-0.41918128728866577,0.702947199344635,0.4200000464916229,1.0,3.6131550587015226e-06,-2.2701437956129666e-06,2.2102723562511528e-07,0.0002671259571798146,0.00026781647466123104,-0.0001041400246322155,-0.001744531444273889,0.004215213470160961,-0.00012786476872861385,-0.40160852670669556,0.5741596221923828,0.9432387351989746,-1.259716510772705,3.348165988922119,-5.001748085021973,0.43608033657073975,0.6766948103904724,0.42000001668930054,-0.9592595100402832,2.9999983310699463,-0.40233859419822693,-3.0000009536743164,-0.04966207966208458,-0.059663280844688416,-0.06900187581777573,-0.07809879630804062,-0.8618984818458557,-0.8773008584976196,-0.8920282125473022,-0.9049373865127563
0.23333333333333334,0.07283840328454971,0.1392618864774704,0.0,0.9588091373443604,0.0,0.0,-0.2840510606765747,-0.21024151146411896,0.341545432806015,0.0,0.0,0.0,-4.424228191375732,-0.41918128728866577,0.7029471397399902,0.4200000464916229,1.0,3.381868964424939e-06,-2.290964630446979e-06,2.728199035573198e-07,0.00026691248058341444,0.0002677997399587184,-0.00010433257557451725,-0.0017395582981407642,0.004209650680422783,-0.00012844071898143739,-0.42205810546875,0.6279881000518799,0.8534060716629028,-0.9666167497634888,3.012387275695801,-5.7088470458984375,0.43608033657073975,0.6766948103904724,0.42000001668930054,-0.9092488288879395,3.0000009536743164,-0.4523685872554779,-2.999999761581421,-0.06444370746612549,-0.07462514191865921,-0.08408474922180176,-0.0931948646903038,-0.9888081550598145,-0.9907006621360779,-0.9807469248771667,-0.9566407799720764
0.25,0.07159293442964554,0.14661262929439545,0.0,0.955805778503418,0.0,0.0,-0.2939988672733307,-0.017160726711153984,0.47833994030952454,0.0,0.0,0.0,-0.23510241508483887,-0.4191812574863434,0.7029471397399902,0.4200000464916229,0.9999999403953552,3.7066108689032262e-06,-2.2230169633985497e-06,-2.2550023004441755e-07,0.00026424735551699996,0.00026656591217033565,-0.00010457867756485939,-0.001716934028081596,0.004155629314482212,-0.00013063238293398172,-0.43938490748405457,0.6662057638168335,0.7544238567352295,-0.8301535844802856,1.8037374019622803,-6.119152069091797,0.43608033657073975,0.6766948103904724,0.42000001668930054,-0.8592381477355957,2.999999761581421,-0.5023993253707886,-2.9999992847442627,-0.08104558289051056,-0.09117379039525986,-0.10058454424142838,-0.10965466499328613,-0.9907310605049133,-0.991844654083252,-0.9843891263008118,-0.9771325588226318
0.26666666666666666,0.06889799982309341,0.1516886055469513,0.0,0.9488664269447327,0.0,0.0,-0.3156778812408447,-0.21751970052719116,0.24887607991695404,0.0,0.0,0.0,-3.5722992420196533,-0.41918128728866577,0.7029471397399902,0.4200000464916229,0.9999999403953552,3.7197162328084232e-06,-2.4034857233345974e-06,-1.8307420646124228e-07,0.0002662334591150284,0.000267290830379352,-0.00010425737127661705,-0.001732664299197495,0.004196626134216785,-0.00012850995699409395,-0.4486338198184967,0.6905088424682617,0.6470992565155029,-0.1995345801115036,1.0414810180664062,-6.558428764343262,0.43608033657073975,0.6766948103904724,0.42000001668930054,-0.8092285990715027,2.99999737739563,-0.5524298548698425,-3.0000009536743164,-0.09802930057048798,-0.10805021226406097,-0.11738132685422897,-0.12638942897319794,-0.995292603969574,-0.9958716034889221,-0.9963229894638062,-0.9966936111450195
0.2833333333333333,0.06360678374767303,0.1535622775554657,0.0,0.9478135108947754,0.0,0.0,-0.3188253343105316,-0.3655267357826233,0.06643828004598618,0.0,0.0,0.0,0.5716347098350525,-0.41918128728866577,0.702947199344635,0.4200000464916229,0.9999999403953552,3.5841367207467556e-06,-2.3154134396463633e-06,7.404404556154986e-08,0.0002652216353453696,0.0002645539352670312,-0.00010317075066268444,-0.0017022255342453718,0.004185160622000694,-0.00012499756121542305,-0.4498535394668579,0.7000174522399902,0.5421250462532043,0.1927603781223297,0.16203731298446655,-6.043952941894531,0.43608033657073975,0.6766948103904724,0.42000001668930054,-0.7592198252677917,3.0000011920928955,-0.6024595499038696,-3.0,-0.11524144560098648,-0.12512622773647308,-0.13435772061347961,-0.14329002797603607,-1.006489872932434,-1.0048871040344238,-1.0036664009094238,-1.0026938915252686
0.3,0.056066371500492096,0.15280583500862122,0.0,0.9424813389778137,0.0,0.0,-0.3342588245868683,-0.5217459797859192,-0.09163758903741837,0.0,0.0,0.0,-2.808222770690918,-0.41918128728866577,0.7029471397399902,0.4200000464916229,1.0,3.7243221413518768e-06,-2.271844550705282e-06,9.635388664719358e-08,0.00026312549016438425,0.0002652580733411014,-0.00010438100434839725,-0.0016960209468379617,0.004134732764214277,-0.00013027961540501565,-0.4403671622276306,0.7026940584182739,0.44322580099105835,0.9852473735809326,0.11606639623641968,-5.665118217468262,0.43608033657073975,0.6766948103904724,0.42000001668930054,-0.7092118263244629,3.000000476837158,-0.6524872183799744,-3.0000011920928955,-0.13281667232513428,-0.14249446988105774,-0.15156789124011993,-0.16037394106388092,-1.0110622644424438,-1.008367896080017,-1.0063064098358154,-1.0046539306640625
0.31666666666666665,0.04605502262711525,0.14949749410152435,0.0,0.9429077506065369,0.0,0.0,-0.3330540955066681,-0.6373869776725769,-0.2413107454776764,0.0,0.0,0.0,1.0698643922805786,-0.41918128728866577,0.7029471397399902,0.4200000464916229,1.0,3.6662690945377108e-06,-2.3924540073494427e-06,1.6800134972072556e-07,0.0002660202735569328,0.0002670696994755417,-0.00010418472811579704,-0.0017310564871877432,0.004193411208689213,-0.00012849205813836306,-0.43356671929359436,0.7055341005325317,0.4134301543235779,0.3868882656097412,0.4372834861278534,-0.005357563495635986,0.43608033657073975,0.6766948103904724,0.42000001668930054,-0.6595056056976318,2.9312891960144043,-0.7028247117996216,-2.770994186401367,-0.13966576755046844,-0.1500513106584549,-0.15966194868087769,-0.16876746714115143,-0.0778965950012207,-0.1560991108417511,-0.20669105648994446,-0.22206544876098633
0.3333333333333333,0.03401656821370125,0.14366871118545532,0.0,0.9383364319801331,0.0,0.0,-0.3457235097885132,-0.777662992477417,-0.3923143446445465,0.0,0.0,0.0,-2.496213912963867,-0.41623035073280334,0.7069845199584961,0.420431911945343,0.9994426965713501,0.010797309689223766,2.38898992392933e-05,-0.031586289405822754,0.38828304409980774,0.5143700242042542,0.05696255341172218,2.867161512374878,-0.019075291231274605,-7.212033271789551,-0.43078628182411194,0.713848352432251,0.423697829246521,0.361208438873291,0.5855429172515869,-0.14956232905387878,0.43608033657073975,0.6766948103904724,0.42000001668930054,-0.6094954013824463,2.9999825954437256,-0.7528842091560364,-3.000002145767212,-0.14061161875724792,-0.15190425515174866,-0.1619616150856018,-0.17093443870544434,-0.21960745751857758,-0.22825399041175842,-0.2177158147096634,-0.1819734126329422
0.35,0.02557978965342045,0.13496410846710205,0.0,0.9394472241401672,0.0,0.0,-0.34269359707832336,-0.41706985235214233,-0.568021833896637,0.0,0.0,0.0,1.2609891891479492,-0.40899011492729187,0.716647207736969,0.4201515018939972,0.9938203692436218,0.003676733234897256,-0.0008374437456950545,-0.11093542724847794,0.48768526315689087,0.6521506309509277,-0.03438809514045715,-1.6957532167434692,0.17255647480487823,-11.910900115966797,-0.42299771308898926,0.7245570421218872,0.4212953746318817,0.6058084964752197,0.7162176370620728,-0.12649418413639069,0.43608033657073975,0.6766948103904724,0.42000001668930054,-0.559490442276001,2.999990701675415,-0.8029179573059082,-2.9999992847442627,-0.14631298184394836,-0.15665654838085175,-0.16548137366771698,-0.17286552488803864,-0.4018351137638092,-0.30300939083099365,-0.1895628422498703,-0.05811883136630058
0.36666666666666664,0.014808441512286663,0.12462235987186432,0.0,0.9349571466445923,0.0,0.0,-0.35476064682006836,-0.7366213202476501,-0.6455181837081909,0.0,0.0,0.0,-2.4970085620880127,-0.3999600410461426,0.7282403111457825,0.42002278566360474,0.9802287817001343,-0.0006303429254330695,9.108270023716614e-05,-0.19786611199378967,0.7416068315505981,0.8928950428962708,0.01538430992513895,-0.7307841181755066,0.23965148627758026,-4.1934967041015625,-0.4103590250015259,0.7365677356719971,0.42027974128723145,0.8652708530426025,0.7837330102920532,0.04683263599872589,0.43608033657073975,0.6766948103904724,0.42000001668930054,-0.5094591975212097,2.9992868900299072,-0.8529462814331055,-2.9999420642852783,-0.15644147992134094,-0.16418509185314178,-0.1702050417661667,-0.1745499223470688,-0.6374383568763733,-0.4622068405151367,-0.2760969400405884,-0.07801099866628647
0.3833333333333333,0.007150536403059959,0.11146138608455658,0.0,0.9194661378860474,0.0,0.0,-0.39316925406455994,-0.4249667823314667,-0.8339362740516663,0.0,0.0,0.0,-5.737005710601807,-0.3841913342475891,0.746150553226471,0.42080703377723694,0.9718150496482849,-0.019883649423718452,0.0045618340373039246,-0.23486003279685974,1.127352237701416,1.231226921081543,0.046079810708761215,-2.2659218311309814,1.1088318824768066,-5.608428478240967,-0.39277923107147217,0.752171516418457,0.42184096574783325,1.3051245212554932,1.072020411491394,0.12999053299427032,0.43608033657073975,0.6766948103904724,0.42000001668930054,-0.459402471780777,3.000002384185791,-0.9029526710510254,-3.0000007152557373,-0.16517619788646698,-0.16986575722694397,-0.17256182432174683,-0.1733057051897049,-0.5300995707511902,-0.31848087906837463,-0.08935000002384186,0.15649931132793427
0.4,-0.0033355355262756348,0.09646181762218475,0.0,0.8900251984596252,0.0,0.0,-0.4559113383293152,-0.7297311425209045,-0.920714795589447,0.0,0.0,0.0,-9.228017807006836,-0.3504396975040436,0.7731081247329712,0.4227677583694458,0.9542011022567749,-0.016682500019669533,-0.018680749461054802,-0.29811546206474304,3.4600682258605957,1.4300787448883057,0.751111626625061,-11.308860778808594,3.5477383136749268,15.539094924926758,-0.3577382564544678,0.7777388095855713,0.42433667182922363,2.9750962257385254,2.032151699066162,0.2673856019973755,0.43608033657073975,0.6766948103904724,0.42000001668930054,-0.4095514714717865,2.7741947174072266,-0.9529750347137451,-2.998774528503418,-0.17766247689723969,-0.1779429167509079,-0.17602252960205078,-0.17199067771434784,-0.8941236138343811,-0.5877718925476074,-0.27471479773521423,0.0404987670481205
0.4166666666666667,-0.011077472008764744,0.0789727196097374,0.0,0.843930184841156,0.0,0.0,-0.5364530086517334,-0.4076140522956848,-1.0995831489562988,0.0,0.0,0.0,-11.83926010131836,-0.27810367941856384,0.8102924227714539,0.42862221598625183,0.9319074749946594,0.03171954303979874,-0.056071195751428604,-0.35692882537841797,5.597530841827393,2.4824178218841553,0.2229970544576645,7.032643795013428,-15.52123737335205,7.675683498382568,-0.28470972180366516,0.8168600797653198,0.42978087067604065,5.545066833496094,2.674635171890259,0.5456308126449585,0.43608033657073975,0.6766948103904724,0.42000001668930054,-0.3837571144104004,0.958314836025238,-0.9155830144882202,2.9992616176605225,-0.19329328835010529,-0.18854773044586182,-0.18093127012252808,-0.17138901352882385,-0.9334847927093506,-0.6687381863594055,-0.32619231939315796,-0.0034302170388400555
0.43333333333333335,-0.016102105379104614,0.06702060252428055,0.0,0.7773677110671997,0.0,0.0,-0.6290464401245117,-0.24752013385295868,-0.5832736492156982,0.0,0.0,0.0,-14.570206642150879,-0.16412462294101715,0.8449630737304688,0.43951812386512756,0.890328049659729,0.10836931318044662,-0.09359288960695267,-0.43221786618232727,8.175262451171875,1.4699854850769043,0.8364740014076233,13.988872528076172,-16.38674545288086,7.532201766967773,-0.17200443148612976,0.8539982438087463,0.4404967427253723,7.729669570922852,1.8396954536437988,0.7682902812957764,0.43608033657073975,0.6766948103904724,0.42000001668930054,-0.3676859736442566,0.9853481650352478,-0.8655745983123779,2.996049642562866,-0.20963041484355927,-0.20464256405830383,-0.1940833479166031,-0.17791174352169037,-0.9446544051170349,-0.9192617535591125,-0.9021034836769104,-0.5249997973442078
0.45,-0.023231618106365204,0.059745121747255325,0.0,0.7185065746307373,0.0,0.0,-0.6955201625823975,-0.3964180052280426,-0.4571201503276825,0.0,0.0,0.0,-9.225461959838867,-0.041497424244880676,0.8578622937202454,0.45104336738586426,0.8424623012542725,0.1342582404613495,-0.09673349559307098,-0.512712836265564,7.251756191253662,-0.13178151845932007,0.7124003171920776,-5.406598091125488,4.966787815093994,-8.165654182434082,-0.04783113673329353,0.8704834580421448,0.4523252844810486,7.300333023071289,0.29134711623191833,0.6931999325752258,0.43608033657073975,0.6766948103904724,0.42000001668930054,-0.35184842348098755,0.8759808540344238,-0.891944408416748,-2.9996178150177,-0.22193269431591034,-0.21757948398590088,-0.20757801830768585,-0.18899567425251007,-0.5658784508705139,-0.6302692294120789,-0.6865233182907104,-0.5804817080497742
0.4666666666666667,-0.026646798476576805,0.05495806410908699,0.0,0.6836435198783875,0.0,0.0,-0.7298161387443542,-0.15738002955913544,-0.2321007251739502,0.0,0.0,0.0,-4.739720821380615,0.07563815265893936,0.8501399159431458,0.46041977405548096,0.7760519981384277,0.135157510638237,-0.09280172735452652,-0.6089857220649719,6.905580043792725,-1.7034035921096802,0.622185468673706,-2.558515787124634,-3.8345632553100586,4.1225666999816895,0.06904971599578857,0.8664323091506958,0.4619547724723816,6.646794319152832,-0.9727929830551147,0.5231491327285767,0.43608033657073975,0.6766948103904724,0.42000001668930054,-0.33785495162010193,0.6352750062942505,-0.9419686198234558,-3.0000016689300537,-0.23540924489498138,-0.2298920601606369,-0.21882453560829163,-0.19735078513622284,-0.8126038312911987,-0.6846732497215271,-0.5704046487808228,-0.3861803412437439
0.48333333333333334,-0.026261430233716965,0.04510853812098503,0.0,0.6724380254745483,0.0,0.0,-0.740153431892395,0.08604764938354492,-0.7596855163574219,0.0,0.0,0.0,-0.9123388528823853,0.17420704662799835,0.8295063972473145,0.4651830494403839,0.7319961786270142,0.1167730763554573,-0.07915890961885452,-0.6665428876876831,4.874399185180664,-2.699708938598633,0.11448191106319427,-14.913290023803711,-10.853028297424316,33.859867095947266,0.17131789028644562,0.8467452526092529,0.46776092052459717,5.623163223266602,-1.5692541599273682,0.28612735867500305,0.43608033657073975,0.6766948103904724,0.42000001668930054,-0.3288382589817047,0.2685485780239105,-0.9919926524162292,-3.0000007152557373,-0.23893040418624878,-0.2368624061346054,-0.22404375672340393,-0.20018865168094635,0.13540738821029663,-0.25607094168663025,-0.1501615345478058,-0.035211049020290375
0.5,-0.023318279534578323,0.03709687665104866,0.0,0.651868999004364,0.0,0.0,-0.7583315968513489,0.21165142953395844,-0.3770308196544647,0.0,0.0,0.0,-4.216004371643066,0.25730663537979126,0.7998611330986023,0.4624430239200592,0.625110387802124,0.08058996498584747,-0.10505567491054535,-0.7692239284515381,3.928832769393921,-2.9337880611419678,-0.7154713869094849,-34.99635696411133,23.348487854003906,14.224409103393555,0.2523941993713379,0.8182507753372192,0.466457724571228,4.600288391113281,-1.9755324125289917,-0.13288883864879608,0.43608033657073975,0.6766948103904724,0.42000001668930054,-0.32615581154823303,-0.1325424611568451,-1.0420150756835938,-2.997039318084717,-0.23775747418403625,-0.23997217416763306,-0.22636711597442627,-0.20132505893707275,0.023349594324827194,-0.022602073848247528,-0.09851730614900589,-0.05630132555961609
0.5166666666666666,-0.018809858709573746,0.03509758040308952,0.0,0.6450325846672058,0.0,0.0,-0.7641550898551941,0.33017367124557495,-0.13151395320892334,0.0,0.0,0.0,-0.08380914479494095,0.3217222988605499,0.7647536396980286,0.45369523763656616,0.5775375366210938,0.04672744497656822,-0.08617334812879562,-0.8104572892189026,3.576575994491577,-2.3621366024017334,-0.5368081331253052,-10.985987663269043,19.575098037719727,8.545609474182129,0.3184419274330139,0.782774031162262,0.45826882123947144,3.4722094535827637,-2.2128710746765137,-0.7000357508659363,0.43608033657073975,0.6766948103904724,0.42000001668930054,-0.3341197669506073,-0.49772176146507263,-1.0920372009277344,-2.9995458126068115,-0.23843029141426086,-0.23980732262134552,-0.22785858809947968,-0.20259584486484528,0.1354217380285263,0.11403097212314606,0.04480987414717674,-0.006216580979526043
0.5333333333333333,-0.011526966467499733,0.035453107208013535,0.0,0.6294397711753845,0.0,0.0,-0.7770492434501648,0.48586755990982056,0.08132647722959518,0.0,0.0,0.0,-3.339839458465576,0.3723905086517334,0.7301737666130066,0.43698203563690186,0.5402517318725586,0.0020195217803120613,-0.07087207585573196,-0.8385112881660461,2.5721793174743652,-2.0831704139709473,-1.0317213535308838,1.4358388185501099,12.76463794708252,-0.7154527902603149,0.3701128363609314,0.7483117580413818,0.44180840253829956,2.678114891052246,-2.010190963745117,-1.2002637386322021,0.43608033657073975,0.6766948103904724,0.42000001668930054,-0.3350190818309784,0.4335852563381195,-1.142059326171875,-2.9991071224212646,-0.23473644256591797,-0.23672766983509064,-0.22643175721168518,-0.20293854176998138,0.3049245774745941,0.2666204869747162,0.14975954592227936,-8.786449257058848e-08
0.55,-0.0015409172046929598,0.030747536569833755,0.0,0.6265288591384888,0.0,0.0,-0.7793982028961182,0.6437483429908752,-0.40517255663871765,0.0,0.0,0.0,0.49134454131126404,0.4092492163181305,0.7025189399719238,0.4201745390892029,0.5143670439720154,-0.0020417815539985895,0.003165670670568943,-0.8575618267059326,1.5534173250198364,-1.3616249561309814,-0.07000260800123215,-1.8676825761795044,-2.875345230102539,-4.061440467834473,0.4080708920955658,0.7181668877601624,0.4227445125579834,1.5567729473114014,-1.45163094997406,-0.6442890763282776,0.43608033657073975,0.6766948103904724,0.42000001668930054,-0.3223680853843689,0.9415091276168823,-1.1920814514160156,-2.9979450702667236,-0.22471730411052704,-0.2278851568698883,-0.22025802731513977,-0.200299933552742,0.749208927154541,0.6648191213607788,0.4842880666255951,0.23723508417606354
0.5666666666666667,0.005455983802676201,0.029002733528614044,0.0,0.6121037006378174,0.0,0.0,-0.7907775044441223,0.3837382197380066,-0.12389495968818665,0.0,0.0,0.0,-3.0085949897766113,0.42846131324768066,0.6895790100097656,0.41999122500419617,0.5229494571685791,-0.000254368525929749,0.0018892833031713963,-0.8523615598678589,0.8181174397468567,-1.1498161554336548,0.037412986159324646,3.6672487258911133,2.391364097595215,10.969511985778809,0.4261844754219055,0.7041313648223877,0.4228655695915222,0.8532038927078247,-0.5223312377929688,0.17455023527145386,0.43608033657073975,0.6766948103904724,0.42000001668930054,-0.304240345954895,1.0551351308822632,-1.153777837753296,2.986356258392334,-0.21281830966472626,-0.2174411416053772,-0.21289695799350739,-0.19729001820087433,0.794876217842102,0.688075840473175,0.48329266905784607,0.19567370414733887
0.5833333333333334,0.012838627211749554,0.02773393504321575,0.0,0.6120913028717041,0.0,0.0,-0.7907871007919312,0.47972238063812256,-0.10498275607824326,0.0,0.0,0.0,0.9314939975738525,0.4368802011013031,0.6800264120101929,0.420683890581131,0.5348444581031799,-0.008840838447213173,0.014197750017046928,-0.8447849154472351,0.04463307559490204,-0.860938549041748,0.25910305976867676,5.733798027038574,12.351914405822754,4.999727725982666,0.4338900148868561,0.6939264535903931,0.424285888671875,0.10994011908769608,-0.4613651931285858,0.2018253356218338,0.43608033657073975,0.6766948103904724,0.42000001668930054,-0.30014804005622864,-0.4408069849014282,-1.1760854721069336,-2.998782157897949,-0.20497849583625793,-0.21000470221042633,-0.2075982391834259,-0.19577337801456451,0.35895249247550964,0.3730711042881012,0.28078383207321167,0.08101408928632736
0.6,0.017666621133685112,0.02816140279173851,0.0,0.6011733412742615,0.0,0.0,-0.7991186380386353,0.22752389311790466,0.07445836067199707,0.0,0.0,0.0,-2.5723249912261963,0.43951520323753357,0.675511360168457,0.4210264980792999,0.5623749494552612,-0.014939007349312305,0.0208481103181839,-0.8264844417572021,0.16860200464725494,-0.19181077182292938,0.04930194094777107,0.20861363410949707,2.0317161083221436,2.062805414199829,0.43556708097457886,0.6892403960227966,0.4252685606479645,0.14916867017745972,-0.1129559576511383,0.1499745100736618,0.43608033657073975,0.6766948103904724,0.42000001668930054,-0.31178468465805054,-0.848386287689209,-1.2260438203811646,-2.9970099925994873,-0.1976490318775177,-0.2029309719800949,-0.20238898694515228,-0.19411872327327728,0.4738083481788635,0.4543631672859192,0.34448909759521484,0.13585235178470612
0.6166666666666667,0.02267075702548027,0.026819631457328796,0.0,0.6035555601119995,0.0,0.0,-0.7973209619522095,0.33481717109680176,-0.13923628628253937,0.0,0.0,0.0,1.2409831285476685,0.43925464153289795,0.6729629039764404,0.4215077757835388,0.5808862447738647,-0.021205566823482513,0.015846742317080498,-0.8135541081428528,-0.09484846144914627,-0.09718465059995651,0.02160385623574257,-2.3550727367401123,-2.1728873252868652,2.286710262298584,0.4354895353317261,0.6878877878189087,0.427448570728302,-0.10033024847507477,-0.028459105640649796,0.14568719267845154,0.43608033657073975,0.6766948103904724,0.42000001668930054,-0.33681514859199524,-2.033637523651123,-1.2760140895843506,-2.999159574508667,-0.19198837876319885,-0.19683627784252167,-0.19732536375522614,-0.19176551699638367,0.31661829352378845,0.35615357756614685,0.3117421567440033,0.1680469661951065
0.6333333333333333,0.02982928231358528,0.02807774767279625,0.0,0.5948043465614319,0.0,0.0,-0.8038704991340637,0.4572785794734955,0.1251383274793625,0.0,0.0,0.0,-2.3195641040802,0.4383115768432617,0.6719754338264465,0.420825332403183,0.5907726287841797,-0.014973745681345463,-0.0004790338862221688,-0.8066989779472351,-0.07079149782657623,-0.0626513659954071,-0.0904364213347435,0.20922665297985077,-3.594791889190674,1.3272366523742676,0.43580085039138794,0.6889389753341675,0.43070268630981445,0.028692170977592468,0.15175561606884003,0.23720575869083405,0.43608033657073975,0.6766948103904724,0.42000001668930054,-0.3839721381664276,-2.9988441467285156,-1.325963020324707,-2.9987847805023193,-0.1860082447528839,-0.19078560173511505,-0.19236627221107483,-0.18932893872261047,0.4637356996536255,0.43840762972831726,0.35303419828414917,0.19138897955417633
0.65,0.038503628224134445,0.025576509535312653,0.0,0.5983493328094482,0.0,0.0,-0.8012353181838989,0.5259379148483276,-0.18310846388339996,0.0,0.0,0.0,1.4351845979690552,0.4378648102283478,0.671450138092041,0.42000317573547363,0.5931157469749451,-5.898111794522265e-06,-4.7553654439980164e-05,-0.805117130279541,-0.007225692272186279,-0.0021993189584463835,-0.0010790855158120394,0.10207486152648926,0.0068595558404922485,0.8655441403388977,0.4353407919406891,0.6928814649581909,0.43473002314567566,-0.13068711757659912,0.28389430046081543,0.29905688762664795,0.43608033657073975,0.6766948103904724,0.42000001668930054,-0.4339854121208191,-3.0000011920928955,-1.3759815692901611,-2.999999761581421,-0.1769641488790512,-0.1823258250951767,-0.18540121614933014,-0.18503795564174652,0.44005507230758667,0.4277816712856293,0.36364054679870605,0.23086974024772644
0.6666666666666666,0.04943692684173584,0.02103624865412712,0.0,0.6240174770355225,0.0,0.0,-0.7814103364944458,0.6903842091560364,-0.3839595913887024,0.0,0.0,0.0,4.68504524230957,0.437771737575531,0.671464741230011,0.4200539290904999,0.59217768907547,0.0008615863043814898,-0.0009742341353558004,-0.8058063983917236,-0.085579514503479,0.01787787675857544,0.050693023949861526,-0.9532452821731567,-2.5265817642211914,-1.9964570999145508,0.43370431661605835,0.6957473754882812,0.43808066844940186,-0.03750227019190788,0.16522668302059174,0.27647867798805237,0.43608033657073975,0.6766948103904724,0.42000001668930054,-0.48398831486701965,-2.996720314025879,-1.425986647605896,-2.999929189682007,-0.17346826195716858,-0.17782533168792725,-0.18057595193386078,-0.18088063597679138,0.18111054599285126,0.2691054046154022,0.32787901163101196,0.3383750319480896
0.6833333333333333,0.06238464638590813,0.01269464660435915,0.0,0.6346559524536133,0.0,0.0,-0.772794783115387,0.8105084896087646,-0.5479034781455994,0.0,0.0,0.0,0.610016405582428,0.43676048517227173,0.6716482043266296,0.4201356768608093,0.5859967470169067,0.001979312626644969,-0.002753371372818947,-0.810306191444397,-0.04418148472905159,0.006178963929414749,-0.016887247562408447,0.26418253779411316,0.8141287565231323,-0.6384291052818298,0.4353629946708679,0.6985545754432678,0.44336575269699097,0.20644895732402802,0.11733414232730865,0.4018164277076721,0.43608033657073975,0.6766948103904724,0.42000001668930054,-0.5339990854263306,-2.999999761581421,-1.4760044813156128,-3.000000238418579,-0.17193545401096344,-0.17448721826076508,-0.1757659614086151,-0.175246000289917,0.07174570113420486,0.187747523188591,0.29082411527633667,0.362995982170105
0.7,0.07725456357002258,0.002011844888329506,0.0,0.6214833855628967,0.0,0.0,-0.7834272980690002,0.921513020992279,-0.707589864730835,0.0,0.0,0.0,-2.970554828643799,0.43672361969947815,0.6716279983520508,0.42000001668930054,0.5853878855705261,-2.013659695876413e-06,-8.559938464713923e-07,-0.8107532858848572,-0.0001158948871307075,-0.00011147261830046773,-7.567205466330051e-05,0.0019988715648651123,-0.0004950038273818791,0.00014141185965854675,0.4431735873222351,0.701289176940918,0.4572869539260864,0.7250689268112183,0.1661396622657776,1.3628889322280884,0.43608033657073975,0.6766948103904724,0.42000001668930054,-0.5840107798576355,-2.9999706745147705,-1.5260227918624878,-2.9999985694885254,-0.17298384010791779,-0.17350420355796814,-0.17288945615291595,-0.17089630663394928,-0.11195723712444305,0.007899392396211624,0.12321139127016068,0.2183762788772583
0.7166666666666667,0.09634552150964737,-0.0034181971568614244,0.0,0.5999579429626465,0.0,0.0,-0.8000315427780151,1.0510139465332031,-0.30764126777648926,0.0,0.0,0.0,-3.1401822566986084,0.43672335147857666,0.6716282367706299,0.41999998688697815,0.5853878259658813,-2.8605788884306094e-06,-4.442405497684376e-06,-0.810753345489502,2.4980892703752033e-05,-0.00035511585883796215,-9.922380559146404e-05,0.008666163310408592,-0.0031194270122796297,-0.0006244534160941839,0.45643144845962524,0.7034988403320312,0.4864896535873413,0.9312542676925659,0.3136753439903259,2.1685690879821777,0.43608033657073975,0.6766948103904724,0.42000001668930054,-0.634016752243042,-2.9999961853027344,-1.576040506362915,-2.9999918937683105,-0.18070706725120544,-0.17861011624336243,-0.17545893788337708,-0.17126357555389404,-0.24614998698234558,-0.164419025182724,-0.07771463692188263,0.0016045407392084599
0.7333333333333333,0.11043088138103485,-0.007067279424518347,0.0,0.5987306237220764,0.0,0.0,-0.8009504675865173,0.7667352557182312,-0.2187998741865158,0.0,0.0,0.0,0.7808477282524109,0.43672335147857666,0.6716282367706299,0.41999998688697815,0.5853883624076843,-3.0014348340046126e-06,-4.510545295488555e-06,-0.8107529878616333,2.6813766453415155e-05,-0.00035481294617056847,-9.869947098195553e-05,0.008656514808535576,-0.0030829638708382845,-0.0006273067556321621,0.47348278760910034,0.7088727355003357,0.5203710794448853,1.0245805978775024,0.35988521575927734,1.930586338043213,0.43608033657073975,0.6766948103904724,0.42000001668930054,-0.6516095399856567,0.5906098484992981,-1.626055121421814,-3.0,-0.1827547401189804,-0.17982541024684906,-0.17573818564414978,-0.17068155109882355,0.014274725690484047,0.03039172664284706,0.05286183953285217,0.0729866549372673
0.75,0.12005306780338287,-0.009052497334778309,0.0,0.6210191249847412,0.0,0.0,-0.7837954163551331,0.5189715027809143,-0.05416732281446457,0.0,0.0,0.0,4.190141201019287,0.43672335147857666,0.6716282367706299,0.41999998688697815,0.5853883624076843,-2.9774846552754752e-06,-4.562220510706538e-06,-0.8107529878616333,2.7942303859163076e-05,-0.00035485127591528,-9.839795529842377e-05,0.008658875711262226,-0.0030740774236619473,-0.0006296640494838357,0.4888952076435089,0.7123572826385498,0.5467970371246338,0.7502707242965698,0.09990029036998749,1.3468880653381348,0.43608033657073975,0.6766948103904724,0.42000001668930054,-0.6454971432685852,0.17163118720054626,-1.586968183517456,3.000000238418579,-0.18144577741622925,-0.17828607559204102,-0.17389655113220215,-0.16859237849712372,0.11026075482368469,0.12744715809822083,0.1453729122877121,0.15762300789356232
0.7666666666666666,0.12573471665382385,-0.014286219142377377,0.0,0.6287975907325745,0.0,0.0,-0.777569055557251,0.30100327730178833,-0.3563143312931061,0.0,0.0,0.0,0.09545275568962097,0.43672335147857666,0.6716282367706299,0.41999998688697815,0.5853883028030396,-2.5930505671567516e-06,-4.305970378482016e-06,-0.8107529878616333,2.6579707991913892e-05,-0.00035432909498922527,-9.897327981889248e-05,0.008633825927972794,-0.00308249332010746,-0.000626522523816675,0.49643197655677795,0.7135680913925171,0.5622713565826416,0.14068961143493652,-0.05885375291109085,0.663753092288971,0.43608033657073975,0.6766948103904724,0.42000001668930054,-0.6589890718460083,-1.6229122877120972,-1.5369117259979248,3.000000476837158,-0.1779412478208542,-0.1745901107788086,-0.17004787921905518,-0.16471272706985474,0.14473488926887512,0.17852455377578735,0.20477740466594696,0.2191668599843979
0.7833333333333333,0.12839186191558838,-0.014306099154055119,0.0,0.6465471982955933,0.0,0.0,-0.7628739476203918,0.12451358139514923,-0.014209835790097713,0.0,0.0,0.0,3.487168550491333,0.43672335147857666,0.6716282367706299,0.41999998688697815,0.5853884220123291,-2.983023250635597e-06,-4.356311819719849e-06,-0.8107529282569885,2.727930768742226e-05,-0.0003547435626387596,-9.857374243438244e-05,0.008655066601932049,-0.0030820793472230434,-0.0006284029805101454,0.49982431530952454,0.7095006704330444,0.5712594985961914,0.3836939036846161,-0.22384946048259735,0.4433324933052063,0.43608033657073975,0.6766948103904724,0.42000001668930054,-0.6564342379570007,1.6437734365463257,-1.552259922027588,-2.999999523162842,-0.18018828332424164,-0.17530615627765656,-0.16943144798278809,-0.1630396544933319,0.039027370512485504,0.08576132357120514,0.12625226378440857,0.1574505865573883
0.8,0.12865589559078217,-0.018551142886281013,0.0,0.6494346857070923,0.0,0.0,-0.7604174017906189,-0.021538294851779938,-0.3161613643169403,0.0,0.0,0.0,-0.5436423420906067,0.43672335147857666,0.6716282367706299,0.41999998688697815,0.5853880643844604,-2.8338763513602316e-06,-4.1938105823646765e-06,-0.8107531666755676,2.812348975567147e-05,-0.0003548976965248585,-9.844428859651089e-05,0.0086577869951725,-0.0030737556517124176,-0.0006300802924670279,0.5017653703689575,0.7065248489379883,0.5751134753227234,-0.1539817750453949,-0.19334599375724792,0.1606980562210083,0.43608033657073975,0.6766948103904724,0.42000001668930054,-0.6569553017616272,-1.437935471534729,-1.5133922100067139,2.999999761581421,-0.17787903547286987,-0.17264242470264435,-0.16651496291160583,-0.15999791026115417,0.15774217247962952,0.17157112061977386,0.17765329778194427,0.17554731667041779
0.8166666666666667,0.1303136944770813,-0.01751474104821682,0.0,0.6622830033302307,0.0,0.0,-0.7492537498474121,0.10053449869155884,0.020925123244524002,0.0,0.0,0.0,2.485788583755493,0.43672335147857666,0.6716282367706299,0.41999998688697815,0.58538818359375,-2.9665759484487353e-06,-4.440467819222249e-06,-0.8107531070709229,2.686605876078829e-05,-0.0003546973457559943,-9.870855137705803e-05,0.008652469143271446,-0.003085522912442684,-0.0006275271298363805,0.5003678798675537,0.7010788321495056,0.5776917934417725,0.1572573184967041,-0.22150468826293945,0.16466037929058075,0.43608033657073975,0.6766948103904724,0.42000001668930054,-0.6519367694854736,1.758979082107544,-1.5292636156082153,-2.9999985694885254,-0.18002207577228546,-0.1737772673368454,-0.16676382720470428,-0.1595032662153244,0.09697146713733673,0.09275484085083008,0.09273494780063629,0.0968615710735321
0.8333333333333334,0.13261118531227112,-0.021258193999528885,0.0,0.6609468460083008,0.0,0.0,-0.7504327297210693,0.1933242529630661,-0.23014211654663086,0.0,0.0,0.0,-1.0477889776229858,0.43672335147857666,0.6716282367706299,0.41999998688697815,0.5853883624076843,-3.0196483749023173e-06,-4.5082761062076315e-06,-0.8107529878616333,2.7438090910436586e-05,-0.00035505241248756647,-9.854137897491455e-05,0.008665058761835098,-0.003080681897699833,-0.0006289557786658406,0.5027662515640259,0.6992518901824951,0.5800565481185913,0.0593210868537426,-0.16724203526973724,0.23642176389694214,0.43608033657073975,0.6766948103904724,0.42000001668930054,-0.6595731973648071,-2.313476800918579,-1.4904617071151733,3.000000238418579,-0.17623715102672577,-0.17059637606143951,-0.16405916213989258,-0.15712761878967285,0.10921499878168106,0.09291978180408478,0.08303749561309814,0.08069204539060593
0.85,0.1377681940793991,-0.021491972729563713,0.0,0.6701937913894653,0.0,0.0,-0.7421861290931702,0.34783196449279785,0.020810259506106377,0.0,0.0,0.0,2.256457805633545,0.43672335147857666,0.6716282367706299,0.41999998688697815,0.5853883028030396,-2.5873794129438465e-06,-4.253302449797047e-06,-0.8107529878616333,2.6411325961817056e-05,-0.0003542824706528336,-9.902217425405979e-05,0.008632030338048935,-0.003083663061261177,-0.0006261234520934522,0.5065668225288391,0.6948527097702026,0.5848160982131958,0.417542964220047,-0.26360955834388733,0.39079248905181885,0.43608033657073975,0.6766948103904724,0.42000001668930054,-0.6666077971458435,1.1722347736358643,-1.5068044662475586,-3.0000011920928955,-0.17550624907016754,-0.1699702888727188,-0.16335853934288025,-0.1561616212129593,0.11199228465557098,0.09313245117664337,0.08933199942111969,0.10160504281520844
0.8666666666666667,0.14054548740386963,-0.02532639354467392,0.0,0.667536735534668,0.0,0.0,-0.7445768713951111,0.10715729743242264,-0.2615417540073395,0.0,0.0,0.0,-1.2196894884109497,0.43672335147857666,0.6716282367706299,0.41999998688697815,0.5853884220123291,-2.6719167180999648e-06,-4.3649097278830595e-06,-0.8107528686523438,2.6188385163550265e-05,-0.0003540249599609524,-9.904243052005768e-05,0.008624324575066566,-0.0030823792330920696,-0.0006254707695916295,0.5135633945465088,0.6912214756011963,0.5912216901779175,0.3516390025615692,-0.2825247347354889,0.4887095093727112,0.43608033657073975,0.6766948103904724,0.42000001668930054,-0.6764094829559326,-2.059737205505371,-1.4680639505386353,2.9999992847442627,-0.17216919362545013,-0.1672324538230896,-0.16097725927829742,-0.15386542677879333,0.10623861104249954,0.08994423598051071,0.08451776951551437,0.09160386025905609
0.8833333333333333,0.14454856514930725,-0.025143662467598915,0.0,0.6764146685600281,0.0,0.0,-0.7365210056304932,0.2770501375198364,0.021367428824305534,0.0,0.0,0.0,2.1471095085144043,0.43672335147857666,0.6716282367706299,0.41999998688697815,0.5853881239891052,-2.5670490231277654e-06,-4.211446594126755e-06,-0.8107531070709229,2.5029621610883623e-05,-0.00035405054222792387,-9.938445873558521e-05,0.00862344540655613,-0.0030941260047256947,-0.0006230566650629044,0.51933753490448,0.6850253939628601,0.5997231006622314,0.44422584772109985,-0.31109148263931274,0.5734291076660156,0.43608033657073975,0.6766948103904724,0.42000001668930054,-0.6793416738510132,1.4091548919677734,-1.4848666191101074,-3.0,-0.17254868149757385,-0.1675233542919159,-0.16103409230709076,-0.15352365374565125,0.10207507014274597,0.07741482555866241,0.0639251172542572,0.06339672207832336
