vladlanda/robotic-transformer/data/env_000_episode_0271.csv
sim_time_s,robot_box_x,robot_box_y,robot_box_z,robot_box_quat_w,robot_box_quat_x,robot_box_quat_y,robot_box_quat_z,robot_box_linvel_x,robot_box_linvel_y,robot_box_linvel_z,robot_box_angvel_x,robot_box_angvel_y,robot_box_angvel_z,cube_world_x,cube_world_y,cube_world_z,cube_quat_w,cube_quat_x,cube_quat_y,cube_quat_z,cube_linvel_x,cube_linvel_y,cube_linvel_z,cube_angvel_x,cube_angvel_y,cube_angvel_z,endpoint_world_x,endpoint_world_y,endpoint_world_z,endpoint_linvel_x,endpoint_linvel_y,endpoint_linvel_z,target_cube_world_x,target_cube_world_y,target_cube_world_z,gripper_actual_pos_rad_gp_leftgearjoint,gripper_actual_vel_rad_s_gp_leftgearjoint,gripper_actual_pos_rad_gp_rotatingjoint,gripper_actual_vel_rad_s_gp_rotatingjoint,motor_angle_rad_joint1,motor_angle_rad_joint2,motor_angle_rad_joint3,motor_angle_rad_joint4,motor_speed_rad_s_joint1,motor_speed_rad_s_joint2,motor_speed_rad_s_joint3,motor_speed_rad_s_joint4
0.0,0.0,0.0,0.0,1.0,0.0,0.0,0.0,0.0,0.0,0.0,0.0,0.0,0.0,-0.34101811051368713,0.6457070112228394,0.41999998688697815,1.0,0.0,0.0,0.0,0.0,0.0,0.0,0.0,0.0,0.0,3.42540442943573e-06,-0.005000244826078415,1.313499927520752,0.0,0.0,0.0,0.404657781124115,0.7577852010726929,0.42000001668930054,-1.5707999467849731,0.0,0.0,0.0,0.0,0.0,0.0,0.0,0.0,0.0,0.0,0.0
0.016666666666666666,0.001960884779691696,0.0013621589168906212,0.0,0.9999971985816956,0.0,0.0,0.002373635536059737,0.1696891039609909,0.11752551794052124,0.0,0.0,0.0,0.43873515725135803,-0.3410182297229767,0.6457067131996155,0.41999998688697815,1.0,3.2799914606584935e-06,-8.339814598912199e-07,8.465387679734704e-08,-1.9833554688375443e-05,0.00017983050202019513,-6.133061833679676e-05,0.0009432226070202887,-0.004689437802881002,-0.0003198152990080416,-0.007066652178764343,0.0039351582527160645,1.315612554550171,-0.8061315417289734,1.0294592380523682,0.15595215559005737,0.404657781124115,0.7577852010726929,0.42000001668930054,-1.5301077365875244,3.0000007152557373,-0.045859336853027344,-3.000000476837158,0.0005311916465871036,0.0004797462606802583,0.00041559102828614414,0.00033880904084071517,0.08691298216581345,0.07489297538995743,0.06204519793391228,0.04825504869222641
0.03333333333333333,0.007507743779569864,0.005206368397921324,0.0,0.999901294708252,0.0,0.0,-0.014048646204173565,0.4006868004798889,0.2781532406806946,0.0,0.0,0.0,-2.7712244987487793,-0.34101834893226624,0.6457066535949707,0.4200000464916229,1.0,3.39090593115543e-06,-2.1324372028175276e-06,-3.7106541839193596e-08,0.0002635782293509692,0.0002693790593184531,-0.00010509486310184002,-0.0017707175575196743,0.004130743443965912,-0.00013547750131692737,-0.026447748765349388,0.027445286512374878,1.3161211013793945,-1.4797369241714478,1.716447353363037,-0.0821634829044342,0.404657781124115,0.7577852010726929,0.42000001668930054,-1.480088472366333,2.999999761581421,-0.09589914232492447,-2.999999523162842,0.0025569635909050703,0.002229873090982437,0.0018657315522432327,0.0014627054333686829,0.1695505678653717,0.14340710639953613,0.11586146056652069,0.08677328377962112
0.05,0.01570766605436802,0.011441707611083984,0.0,0.9999117851257324,0.0,0.0,-0.013283898122608662,0.5340651869773865,0.41466274857521057,0.0,0.0,0.0,1.0983526706695557,-0.3410183787345886,0.6457067131996155,0.4200000464916229,1.0,3.765230758290272e-06,-2.211922264905297e-06,5.6083799826467384e-09,0.0002653090050444007,0.00026691501261666417,-0.00010440615005791187,-0.00172435212880373,0.0041774665005505085,-0.0001294955873163417,-0.05646054074168205,0.05698426812887192,1.311131477355957,-2.015793800354004,1.9060814380645752,-0.4765373766422272,0.404657781124115,0.7577852010726929,0.42000001668930054,-1.430070161819458,3.000000476837158,-0.1459263563156128,-3.0,0.005119443405419588,0.0043176584877073765,0.0034461799077689648,0.002500808797776699,0.17304502427577972,0.13532835245132446,0.09583619982004166,0.054411984980106354
0.06666666666666667,0.026350390166044235,0.019896768033504486,0.0,0.9996351003646851,0.0,0.0,-0.027013232931494713,0.698564887046814,0.5466175675392151,0.0,0.0,0.0,-2.50492787361145,-0.3410183787345886,0.6457066535949707,0.4200000464916229,0.9999999403953552,3.406835730856983e-06,-2.2856456780573353e-06,4.3008122929677484e-07,0.0002670265967026353,0.0002679176104720682,-0.0001043803058564663,-0.0017406701808795333,0.004211854189634323,-0.0001285061298403889,-0.08998127281665802,0.09390140324831009,1.2996894121170044,-1.9989879131317139,2.465506076812744,-0.8714635372161865,0.404657781124115,0.7577852010726929,0.42000001668930054,-1.3800427913665771,3.0000007152557373,-0.1205301508307457,3.0000007152557373,0.007230977527797222,0.005630850326269865,0.00392443872988224,0.002104070270434022,0.11698450893163681,0.05528660863637924,-0.008362075313925743,-0.07401934266090393
0.08333333333333333,0.040491070598363876,0.030677929520606995,0.0,0.9976902604103088,0.0,0.0,-0.06792783737182617,0.9095429182052612,0.692625105381012,0.0,0.0,0.0,-5.744615077972412,-0.3410183787345886,0.6457066535949707,0.4200000464916229,1.0,3.6973383430449758e-06,-2.188984808526584e-06,-2.6323331780986337e-07,0.0002638960722833872,0.0002658652374520898,-0.00010433932766318321,-0.0017081378027796745,0.00415008282288909,-0.0001299151626881212,-0.12325751781463623,0.1366046667098999,1.283942461013794,-2.0168190002441406,2.624936580657959,-1.0390902757644653,0.404657781124115,0.7577852010726929,0.42000001668930054,-1.3300420045852661,3.00000262260437,-0.1525212526321411,-3.0000009536743164,0.008425172418355942,0.0057509541511535645,0.0029323785565793514,-3.913008913514204e-05,0.04907417297363281,-0.020453792065382004,-0.09197913110256195,-0.16543681919574738
0.1,0.049086347222328186,0.03945688530802727,0.0,0.9958796501159668,0.0,0.0,-0.09068494290113449,0.38467714190483093,0.46345338225364685,0.0,0.0,0.0,-1.703687071800232,-0.3410183787345886,0.6457066535949707,0.4200000464916229,0.9999999403953552,3.6204280604579253e-06,-2.265225475639454e-06,1.7461863421885937e-07,0.00026676725246943533,0.0002674070419743657,-0.00010408065281808376,-0.0017385295359417796,0.004209065344184637,-0.00012775739014614373,-0.16114738583564758,0.1773182451725006,1.2631055116653442,-2.260988235473633,2.547180652618408,-1.3805313110351562,0.404657781124115,0.7577852010726929,0.42000001668930054,-1.2800185680389404,2.999994993209839,-0.11893200874328613,3.000000238418579,0.0033160520251840353,-8.451296162093058e-05,-0.003678760724142194,-0.007477283012121916,-0.4165635406970978,-0.46053174138069153,-0.5069327354431152,-0.5559271574020386
0.11666666666666667,0.061844661831855774,0.05091310292482376,0.0,0.9918767213821411,0.0,0.0,-0.12720276415348053,0.7658395767211914,0.6765637993812561,0.0,0.0,0.0,-5.0152106285095215,-0.3410183787345886,0.6457066535949707,0.4200000464916229,1.0,3.7983741094649304e-06,-2.2627561975241406e-06,-1.5019411137018324e-07,0.00026374030858278275,0.00026566023007035255,-0.00010428880341351032,-0.001705368747934699,0.004147524479776621,-0.00012980001338291913,-0.1943369358778,0.22470927238464355,1.2381160259246826,-1.8427836894989014,3.120098829269409,-1.5566060543060303,0.404657781124115,0.7577852010726929,0.42000001668930054,-1.2300161123275757,3.00000262260437,-0.15091508626937866,-2.999999523162842,4.194786379230209e-05,-0.004778101108968258,-0.00978856161236763,-0.015000471845269203,-0.33385568857192993,-0.4127863049507141,-0.4919266402721405,-0.5712025165557861
0.13333333333333333,0.07290169596672058,0.05953329801559448,0.0,0.9845362901687622,0.0,0.0,-0.17518074810504913,0.6360243558883667,0.4503992795944214,0.0,0.0,0.0,-6.230048656463623,-0.3410183787345886,0.6457067131996155,0.4200000464916229,0.9999999403953552,3.550490419002017e-06,-2.2297924715530826e-06,2.9292351655385573e-07,0.0002670329122338444,0.0002677924057934433,-0.00010416773147881031,-0.001743975793942809,0.004213578533381224,-0.0001280030410271138,-0.22806289792060852,0.27831369638442993,1.2074480056762695,-2.0014400482177734,3.495806932449341,-2.1534290313720703,0.404657781124115,0.7577852010726929,0.42000001668930054,-1.1800100803375244,2.999997138977051,-0.1755637675523758,-0.1808946430683136,-0.004956222139298916,-0.011157078668475151,-0.017518876120448112,-0.024051545187830925,-0.2937869727611542,-0.37142235040664673,-0.4463609755039215,-0.5185704231262207
0.15,0.08114372193813324,0.06480292230844498,0.0,0.9799460768699646,0.0,0.0,-0.1992628425359726,0.43947988748550415,0.23239560425281525,0.0,0.0,0.0,-1.782212734222412,-0.3410183787345886,0.6457066535949707,0.4200000464916229,0.9999999403953552,3.338063152114046e-06,-2.2428623651649104e-06,-2.8019764286568716e-08,0.00026674510445445776,0.0002675803261809051,-0.00010427739471197128,-0.0017366883112117648,0.0042068189941346645,-0.00012831240019295365,-0.2648615837097168,0.33285170793533325,1.1654443740844727,-2.0364651679992676,3.4588370323181152,-2.853455066680908,0.404657781124115,0.7577852010726929,0.42000001668930054,-1.1300108432769775,3.0000030994415283,-0.2216547429561615,-2.999999761581421,-0.010776743292808533,-0.018097709864377975,-0.02552257850766182,-0.033062875270843506,-0.4015973210334778,-0.45629552006721497,-0.5076087117195129,-0.5557210445404053
0.16666666666666666,0.08514866232872009,0.07095960527658463,0.0,0.9727311730384827,0.0,0.0,-0.23193541169166565,0.1649676114320755,0.427609384059906,0.0,0.0,0.0,-4.786919116973877,-0.3410183787345886,0.6457067131996155,0.4200000464916229,0.9999999403953552,3.6477927096711937e-06,-2.3072821022651624e-06,3.5273473031338654e-08,0.00026726932264864445,0.0002680143225006759,-0.00010418728925287724,-0.001747259870171547,0.004217622336000204,-0.00012798597163055092,-0.2978261411190033,0.3931303024291992,1.111466884613037,-1.7627549171447754,3.7743868827819824,-3.5944809913635254,0.404657781124115,0.7577852010726929,0.42000001668930054,-1.0799989700317383,3.0000011920928955,-0.1997101753950119,3.000000476837158,-0.01959414780139923,-0.02764456905424595,-0.035731248557567596,-0.04387029632925987,-0.6038947701454163,-0.6348485946655273,-0.6618579030036926,-0.6852454543113708
0.18333333333333332,0.09286623448133469,0.07724408805370331,0.0,0.9563344120979309,0.0,0.0,-0.2922747731208801,0.48166054487228394,0.3632782995700836,0.0,0.0,0.0,-8.310572624206543,-0.3410183787345886,0.6457066535949707,0.4200000464916229,0.9999999403953552,3.290506583653041e-06,-2.193882892242982e-06,-2.792363034131995e-07,0.000266780611127615,0.00026776042068377137,-0.0001043418888002634,-0.0017391631845384836,0.0042070988565683365,-0.00012845758465118706,-0.3224893808364868,0.4615992307662964,1.043789029121399,-1.1109322309494019,4.284332275390625,-4.445900917053223,0.404657781124115,0.7577852010726929,0.42000001668930054,-1.0299936532974243,2.9999983310699463,-0.23116761445999146,-3.000000476837158,-0.029130369424819946,-0.03758969157934189,-0.046027444303035736,-0.05446659401059151,-0.7189480066299438,-0.7155265212059021,-0.7102434635162354,-0.7035866975784302
0.2,0.09738684445619583,0.08279971778392792,0.0,0.9432099461555481,0.0,0.0,-0.33219724893569946,0.24518540501594543,0.25459760427474976,0.0,0.0,0.0,-3.834153413772583,-0.3410183787345886,0.6457066535949707,0.4200000464916229,1.0,3.2807513434818247e-06,-2.219149109805585e-06,1.594698204598899e-07,0.0002662786573637277,0.000267401133896783,-0.00010424992069602013,-0.0017357232281938195,0.004197727423161268,-0.00012864978634752333,-0.34252697229385376,0.5243907570838928,0.9617778062820435,-0.8250126838684082,3.6773877143859863,-5.29480504989624,0.404657781124115,0.7577852010726929,0.42000001668930054,-0.9799837470054626,2.999998092651367,-0.28119656443595886,-3.0000016689300537,-0.044513948261737823,-0.05293780937790871,-0.061046283692121506,-0.06849978119134903,-0.9405330419540405,-0.9361227750778198,-0.9079576134681702,-0.8381974697113037
0.21666666666666667,0.0982963889837265,0.08899633586406708,0.0,0.940928041934967,0.0,0.0,-0.3386066257953644,-0.02174750529229641,0.40718376636505127,0.0,0.0,0.0,0.3670506775379181,-0.3410183787345886,0.6457067131996155,0.4200000464916229,1.0,3.613105945987627e-06,-2.2700548925058683e-06,2.2101254160133976e-07,0.0002671255497261882,0.00026781795895658433,-0.00010414235293865204,-0.0017445943085476756,0.004215254448354244,-0.000127866180264391,-0.3614444136619568,0.5732336044311523,0.8708460330963135,-0.9922317862510681,2.4909918308258057,-5.642221450805664,0.404657781124115,0.7577852010726929,0.42000001668930054,-0.9299730658531189,2.9999969005584717,-0.33122774958610535,-3.000000476837158,-0.06051114201545715,-0.06893084943294525,-0.07703768461942673,-0.08450440317392349,-0.9873093366622925,-0.9850128889083862,-0.9779689311981201,-0.9698905944824219
0.23333333333333334,0.10292204469442368,0.09091459214687347,0.0,0.9345982670783997,0.0,0.0,-0.35570502281188965,0.31181836128234863,0.05666792392730713,0.0,0.0,0.0,-2.7964975833892822,-0.3410183787345886,0.6457066535949707,0.4200000464916229,1.0,3.3818123483797535e-06,-2.29084980674088e-06,2.7279790515422064e-07,0.0002669129753485322,0.00026779924519360065,-0.00010433141142129898,-0.0017395684262737632,0.004209680482745171,-0.00012843731383327395,-0.3746891915798187,0.6132650375366211,0.7711770534515381,-0.533239483833313,2.040961742401123,-6.207777976989746,0.404657781124115,0.7577852010726929,0.42000001668930054,-0.8799623847007751,3.000000476837158,-0.38125959038734436,-3.0000009536743164,-0.07569513469934464,-0.08409278839826584,-0.0921444371342659,-0.09956277161836624,-0.9907068014144897,-0.9920821189880371,-0.9931793808937073,-0.994089663028717
0.25,0.102327860891819,0.09705556929111481,0.0,0.9347640872001648,0.0,0.0,-0.35526907444000244,-0.023622719570994377,0.31959566473960876,0.0,0.0,0.0,0.9046964645385742,-0.34101834893226624,0.6457066535949707,0.4200000464916229,0.9999999403953552,3.7065203741804e-06,-2.2228459783946164e-06,-2.255132756090461e-07,0.00026424904353916645,0.0002665679494384676,-0.00010457634925842285,-0.0017169411294162273,0.004155544564127922,-0.00013062905054539442,-0.38016384840011597,0.6302079558372498,0.6698622107505798,-0.12300464510917664,0.35225462913513184,-5.887219429016113,0.404657781124115,0.7577852010726929,0.42000001668930054,-0.8299522399902344,2.9999756813049316,-0.4312913119792938,-3.000002861022949,-0.09326639026403427,-0.10137687623500824,-0.10923484712839127,-0.11651626974344254,-0.677524209022522,-0.7394148707389832,-0.7970177531242371,-0.8488669395446777
0.26666666666666666,0.10674126446247101,0.09759768843650818,0.0,0.9298473000526428,0.0,0.0,-0.3679456412792206,0.2909362018108368,-0.010426975786685944,0.0,0.0,0.0,-2.204010486602783,-0.3410183787345886,0.6457066535949707,0.4200000464916229,0.9999999403953552,3.7195993627392454e-06,-2.40332542489341e-06,-1.8308921312382154e-07,0.00026623232406564057,0.00026729132514446974,-0.00010425853542983532,-0.0017326984088867903,0.004196567460894585,-0.000128512445371598,-0.3795216381549835,0.6389549970626831,0.5714409351348877,0.3004077076911926,0.41459035873413086,-5.721808433532715,0.404657781124115,0.7577852010726929,0.42000001668930054,-0.7799434065818787,3.0000030994415283,-0.48132187128067017,-3.0000009536743164,-0.10525674372911453,-0.11419932544231415,-0.12284693866968155,-0.1308608502149582,-1.0056326389312744,-1.0042364597320557,-1.0031718015670776,-1.0023268461227417
0.2833333333333333,0.10680655390024185,0.09666961431503296,0.0,0.9318212866783142,0.0,0.0,-0.36291754245758057,-0.07522822171449661,-0.08178511261940002,0.0,0.0,0.0,1.5088391304016113,-0.3410183787345886,0.6457067131996155,0.4200000464916229,0.9999999403953552,3.5840330383507535e-06,-2.31531180361344e-06,7.403321689025688e-08,0.0002652195980772376,0.0002645523054525256,-0.00010317121632397175,-0.0017020339146256447,0.004185074009001255,-0.00012500229058787227,-0.3710559606552124,0.6445233821868896,0.4837782084941864,0.7738763093948364,0.29258716106414795,-4.854587554931641,0.404657781124115,0.7577852010726929,0.42000001668930054,-0.7299346923828125,3.0000011920928955,-0.5313504338264465,-2.9999992847442627,-0.12329337000846863,-0.13192462921142578,-0.1403382420539856,-0.14816828072071075,-1.0165454149246216,-1.012506127357483,-1.009418249130249,-1.0069471597671509
0.3,0.10405310988426208,0.09365598112344742,0.0,0.928208589553833,0.0,0.0,-0.37206026911735535,-0.16837939620018005,-0.23560328781604767,0.0,0.0,0.0,-2.057363271713257,-0.3410183787345886,0.6457066535949707,0.4200000464916229,1.0,3.7241927657305496e-06,-2.2717581487086136e-06,9.636217157549254e-08,0.00026312493719160557,0.00026525757857598364,-0.0001043833326548338,-0.0016961178043857217,0.004134873393923044,-0.00013027516251895577,-0.3519692122936249,0.6480002403259277,0.4024140238761902,1.470362663269043,0.15661904215812683,-4.879400253295898,0.404657781124115,0.7577852010726929,0.42000001668930054,-0.6799277663230896,2.9999923706054688,-0.5813772082328796,-3.000000476837158,-0.13999193906784058,-0.14857201278209686,-0.15693606436252594,-0.16468100249767303,-1.0000072717666626,-1.000002145767212,-1.0000009536743164,-0.9898442029953003
0.31666666666666665,0.09964489936828613,0.08829087018966675,0.0,0.9306616187095642,0.0,0.0,-0.3658810257911682,-0.30685359239578247,-0.3587433099746704,0.0,0.0,0.0,1.6965550184249878,-0.34048253297805786,0.6474345922470093,0.42097094655036926,0.9989364147186279,0.0009550522663630545,0.02332090213894844,-0.0397627130150795,0.09614984691143036,0.22593969106674194,0.11324338614940643,0.7430607080459595,4.920827388763428,-8.621928215026855,-0.35178694128990173,0.6524662971496582,0.424527108669281,0.12951014935970306,0.3127688765525818,-0.153817817568779,0.404657781124115,0.7577852010726929,0.42000001668930054,-0.6300790309906006,3.0000009536743164,-0.6319739818572998,-2.9996278285980225,-0.14364732801914215,-0.1519944816827774,-0.15975184738636017,-0.16648341715335846,-0.3774270713329315,-0.33605054020881653,-0.27796435356140137,-0.20283736288547516
0.3333333333333333,0.0928412601351738,0.08083203434944153,0.0,0.9272764325141907,0.0,0.0,-0.3743773102760315,-0.45307332277297974,-0.4857714772224426,0.0,0.0,0.0,-2.026278257369995,-0.3388734757900238,0.6510928273200989,0.4216010570526123,0.9937497973442078,0.005298130214214325,0.04030115529894829,-0.1039668470621109,0.1646532267332077,0.2963387966156006,0.01858263462781906,1.0778464078903198,-0.3676452040672302,-9.927468299865723,-0.34695321321487427,0.657376766204834,0.42219993472099304,0.42999571561813354,0.347287654876709,-0.1290646344423294,0.404657781124115,0.7577852010726929,0.42000001668930054,-0.5800740122795105,3.0000011920928955,-0.6820290088653564,-2.999959945678711,-0.15100856125354767,-0.15824003517627716,-0.16460701823234558,-0.16969333589076996,-0.46652480959892273,-0.3792513608932495,-0.27761155366897583,-0.1639809012413025
0.35,0.08371347188949585,0.07123265415430069,0.0,0.9297563433647156,0.0,0.0,-0.3681754469871521,-0.5929571986198425,-0.6158078908920288,0.0,0.0,0.0,1.6792628765106201,-0.3332606554031372,0.6593475341796875,0.42100781202316284,0.984629213809967,0.005525494925677776,0.023755384609103203,-0.17294621467590332,0.5299009680747986,0.7041497826576233,-0.03945149481296539,-1.5699644088745117,-0.05250604450702667,-5.199449062347412,-0.33867716789245605,0.6657992601394653,0.42038822174072266,0.5600467324256897,0.6084778904914856,-0.07636326551437378,0.404657781124115,0.7577852010726929,0.42000001668930054,-0.5300690531730652,2.9999735355377197,-0.7320752143859863,-3.0000009536743164,-0.15924657881259918,-0.16464897990226746,-0.16892379522323608,-0.17171698808670044,-0.465492308139801,-0.34970423579216003,-0.21696363389492035,-0.07170049101114273
0.36666666666666664,0.07697990536689758,0.05913080275058746,0.0,0.9263404011726379,0.0,0.0,-0.3766874670982361,-0.27100858092308044,-0.7792348265647888,0.0,0.0,0.0,-1.9987751245498657,-0.3241855204105377,0.6712700128555298,0.4200074076652527,0.9788002967834473,2.59690477832919e-06,-4.4526372221298516e-05,-0.2048165649175644,0.6012328863143921,0.7619588375091553,-0.0033790504094213247,0.06722571700811386,0.08875804394483566,-4.032066822052002,-0.3270263671875,0.67510986328125,0.4199889898300171,0.8113539218902588,0.5881989598274231,0.10507760941982269,0.404657781124115,0.7577852010726929,0.42000001668930054,-0.4800358712673187,2.9999988079071045,-0.7821051478385925,-2.9993667602539062,-0.16714173555374146,-0.17014944553375244,-0.17169393599033356,-0.17151714861392975,-0.4132830798625946,-0.2584420144557953,-0.08199213445186615,0.10972987860441208
0.3833333333333333,0.06854354590177536,0.04548253118991852,0.0,0.9108849167823792,0.0,0.0,-0.41266053915023804,-0.5852394104003906,-0.8499340415000916,0.0,0.0,0.0,-5.633816719055176,-0.3075115382671356,0.6898178458213806,0.4207026958465576,0.9689335823059082,-0.009039497002959251,-0.008619682863354683,-0.24700511991977692,1.3668550252914429,1.4199671745300293,0.06716589629650116,-1.019464135169983,-4.391849040985107,-5.933131694793701,-0.3085542321205139,0.6904786825180054,0.42189985513687134,1.4492473602294922,1.2484923601150513,0.12061765789985657,0.404657781124115,0.7577852010726929,0.42000001668930054,-0.43000122904777527,2.9919729232788086,-0.8321189880371094,-3.000044107437134,-0.1758500188589096,-0.1760134994983673,-0.1743648499250412,-0.17076393961906433,-0.507775604724884,-0.34288468956947327,-0.1593245416879654,0.035853270441293716
0.4,0.06335434317588806,0.028783923014998436,0.0,0.8812425136566162,0.0,0.0,-0.47266441583633423,-0.2689400613307953,-1.0480607748031616,0.0,0.0,0.0,-8.771503448486328,-0.26928335428237915,0.7172132134437561,0.4251677989959717,0.9520753622055054,-0.003990208264440298,-0.03880175203084946,-0.3033658564090729,3.37056565284729,1.7524152994155884,0.35670486092567444,22.116722106933594,-16.76404571533203,7.911922454833984,-0.27018022537231445,0.7182936668395996,0.4257797598838806,3.180086612701416,2.0973398685455322,0.5521627068519592,0.404657781124115,0.7577852010726929,0.42000001668930054,-0.39356160163879395,1.3992719650268555,-0.8821426033973694,-3.0000009536743164,-0.18480946123600006,-0.18179097771644592,-0.17668943107128143,-0.16950015723705292,-0.6502192616462708,-0.41776344180107117,-0.1730363816022873,0.0744975283741951
0.4166666666666667,0.06026130169630051,0.016945740208029747,0.0,0.8348849415779114,0.0,0.0,-0.5504244565963745,-0.10299909859895706,-0.7480971217155457,0.0,0.0,0.0,-11.508055686950684,-0.19060251116752625,0.754604160785675,0.4324986934661865,0.9287591576576233,0.056425612419843674,-0.08230224996805191,-0.3569996654987335,6.14115571975708,2.312960386276245,0.4536057114601135,17.904678344726562,-12.97630786895752,17.72491455078125,-0.1913507580757141,0.7563668489456177,0.43327534198760986,5.799551010131836,2.7007856369018555,0.5537745952606201,0.404657781124115,0.7577852010726929,0.42000001668930054,-0.37448665499687195,1.027571439743042,-0.8450711965560913,2.9970169067382812,-0.20047277212142944,-0.1946064531803131,-0.18412809073925018,-0.17187725007534027,-0.5827600955963135,-0.6234758496284485,-0.3691173791885376,-0.13516560196876526
0.43333333333333335,0.0608636848628521,0.006929790135473013,0.0,0.7960225343704224,0.0,0.0,-0.6052669882774353,0.08856922388076782,-0.5388487577438354,0.0,0.0,0.0,-6.9229044914245605,-0.09313824772834778,0.7947124242782593,0.4429785907268524,0.877680242061615,0.09092012047767639,-0.10687220096588135,-0.45824575424194336,5.935632228851318,1.629811406135559,0.7444548010826111,18.825109481811523,-9.875083923339844,0.6102603077888489,-0.09493754804134369,0.7967804670333862,0.44358545541763306,5.908603668212891,2.0030674934387207,0.6347648501396179,0.404657781124115,0.7577852010726929,0.42000001668930054,-0.35547858476638794,1.2733920812606812,-0.8712796568870544,-3.0000035762786865,-0.2109541893005371,-0.20505836606025696,-0.19075746834278107,-0.17514397203922272,-0.5998772978782654,-0.570580005645752,-0.3687760829925537,-0.1979929655790329
0.45,0.058458659797906876,0.002373188966885209,0.0,0.7772764563560486,0.0,0.0,-0.6291592121124268,-0.1113806888461113,-0.24172039330005646,0.0,0.0,0.0,-2.274437665939331,0.003117009997367859,0.8162286281585693,0.4551467299461365,0.8232455849647522,0.12807697057724,-0.06643734127283096,-0.5490437150001526,5.745842456817627,0.06455767154693604,0.40823328495025635,-4.460860729217529,-23.707304000854492,22.55107307434082,0.0019761482253670692,0.8202760219573975,0.4527142643928528,5.86346435546875,1.0109307765960693,0.6836701035499573,0.404657781124115,0.7577852010726929,0.42000001668930054,-0.3363707363605499,0.914457380771637,-0.9213036894798279,-3.0000061988830566,-0.22410781681537628,-0.2167796790599823,-0.19872623682022095,-0.1799967885017395,-0.6384009122848511,-0.5895148515701294,-0.415648877620697,-0.2750536799430847
0.4666666666666667,0.059181660413742065,0.0007400116301141679,0.0,0.7524555325508118,0.0,0.0,-0.6586430072784424,0.0994006097316742,-0.04796323552727699,0.0,0.0,0.0,-5.536048889160156,0.09470348060131073,0.8238632678985596,0.4602161645889282,0.782857358455658,0.13308729231357574,-0.07481391727924347,-0.6031790375709534,5.1910905838012695,-0.744435727596283,0.07984171062707901,-10.943889617919922,-15.852855682373047,20.84257698059082,0.09439510107040405,0.8286441564559937,0.4585574269294739,5.447060585021973,0.03721696138381958,0.38421911001205444,0.404657781124115,0.7577852010726929,0.42000001668930054,-0.32374057173728943,0.5523024201393127,-0.9713277220726013,-3.000002384185791,-0.23350270092487335,-0.22525399923324585,-0.20480667054653168,-0.18406528234481812,-0.5083896517753601,-0.4317854344844818,-0.30123820900917053,-0.18785260617733002
0.48333333333333334,0.06265068799257278,0.0020610506180673838,0.0,0.74017333984375,0.0,0.0,-0.672416090965271,0.2583211660385132,0.12455673515796661,0.0,0.0,0.0,-1.1389602422714233,0.1791098564863205,0.8190726041793823,0.46130508184432983,0.7092174887657166,0.11952506750822067,-0.08831211924552917,-0.6891481876373291,4.417306423187256,-0.9945040941238403,-0.07203841209411621,-7.80978536605835,5.345189571380615,6.469481945037842,0.1774822175502777,0.8240566253662109,0.46013009548187256,4.769318580627441,-0.6156734228134155,0.018338555470108986,0.404657781124115,0.7577852010726929,0.42000001668930054,-0.3124884068965912,0.733644962310791,-1.0213513374328613,-2.9995059967041016,-0.23999032378196716,-0.2313012033700943,-0.20932729542255402,-0.1873311698436737,-0.015622380189597607,-0.3309106230735779,-0.2699916660785675,-0.2254372239112854
0.5,0.06431075185537338,-0.00217585451900959,0.0,0.7185120582580566,0.0,0.0,-0.6955145001411438,0.03390311449766159,-0.41080692410469055,0.0,0.0,0.0,-4.81901741027832,0.2506951689720154,0.8101661205291748,0.45523810386657715,0.6805040836334229,0.09620389342308044,-0.08758748322725296,-0.7211014032363892,3.6555166244506836,-1.0399140119552612,-0.4725455343723297,-4.735671520233154,6.433544158935547,11.88595962524414,0.24968600273132324,0.8149092197418213,0.45509982109069824,4.077633857727051,-0.662441611289978,-0.4413166046142578,0.404657781124115,0.7577852010726929,0.42000001668930054,-0.2981147766113281,0.8686889410018921,-1.071373462677002,-2.9995670318603516,-0.2334282249212265,-0.23029139637947083,-0.20904725790023804,-0.18788973987102509,0.5337336659431458,0.23654897511005402,0.14640402793884277,0.05122805014252663
0.5166666666666666,0.06881165504455566,-0.003228043904528022,0.0,0.7077563405036926,0.0,0.0,-0.7064566612243652,0.2891562879085541,-0.01685328595340252,0.0,0.0,0.0,-0.7444688677787781,0.3102450668811798,0.7938170433044434,0.4438422918319702,0.638441264629364,0.05955098941922188,-0.09702591598033905,-0.7612044811248779,2.9009311199188232,-1.5220767259597778,-0.8608552813529968,-8.373769760131836,-2.116580009460449,14.276619911193848,0.30862855911254883,0.7983734607696533,0.44538986682891846,3.2397239208221436,-1.107285976409912,-0.6923395991325378,0.404657781124115,0.7577852010726929,0.42000001668930054,-0.2832700312137604,0.8013182282447815,-1.1213955879211426,-2.999706506729126,-0.23032152652740479,-0.22997720539569855,-0.20947231352329254,-0.18930558860301971,0.22793318331241608,0.0891733169555664,0.011862074956297874,-0.07656234502792358
0.5333333333333333,0.07428474724292755,-0.0022058403119444847,0.0,0.689758837223053,0.0,0.0,-0.7240391969680786,0.3691551685333252,0.1258431375026703,0.0,0.0,0.0,-3.914311408996582,0.3566201627254486,0.7797728776931763,0.42510083317756653,0.6089648604393005,0.01612323708832264,-0.10025042295455933,-0.7866712212562561,2.096257209777832,-1.1427807807922363,-1.3741368055343628,-11.397809028625488,1.3258562088012695,14.988439559936523,0.3544395864009857,0.7841235995292664,0.4276481866836548,2.430889129638672,-0.8045593500137329,-1.1584464311599731,0.404657781124115,0.7577852010726929,0.42000001668930054,-0.26945140957832336,0.7671912908554077,-1.1714177131652832,-3.0000007152557373,-0.2235446274280548,-0.2260867953300476,-0.2082025110721588,-0.1906142383813858,0.4136660397052765,0.2644510865211487,0.08454540371894836,-0.09027227759361267
0.55,0.07777765393257141,2.1892981749260798e-05,0.0,0.6851860284805298,0.0,0.0,-0.7283681035041809,0.1070161983370781,0.11222102493047714,0.0,0.0,0.0,0.18583090603351593,0.379761278629303,0.7708923816680908,0.4233990013599396,0.6110538840293884,0.01618242636322975,-0.0647137314081192,-0.7887733578681946,0.8227176666259766,-0.7405766844749451,-0.15752999484539032,-1.550307035446167,12.480042457580566,6.243778705596924,0.3777521252632141,0.7745629549026489,0.42600446939468384,1.1233270168304443,-0.6577919125556946,-0.18992410600185394,0.404657781124115,0.7577852010726929,0.42000001668930054,-0.2538199722766876,1.1372675895690918,-1.2215485572814941,-2.9992969036102295,-0.2200062870979309,-0.22362884879112244,-0.2079419642686844,-0.19244147837162018,0.13234706223011017,0.11879436671733856,-2.2508902475237846e-06,-0.11437270790338516
0.5666666666666667,0.08129934221506119,-0.0010670271003618836,0.0,0.6723299026489258,0.0,0.0,-0.7402516603469849,0.25809982419013977,-0.139920175075531,0.0,0.0,0.0,-2.975446939468384,0.3932681083679199,0.7663879990577698,0.4211871922016144,0.5709120035171509,0.015117150731384754,-0.024653583765029907,-0.8205018043518066,0.624679684638977,-0.2729611396789551,-0.1091107726097107,3.492791175842285,0.9634929299354553,-12.907853126525879,0.38848254084587097,0.7677838802337646,0.4229468107223511,0.37279212474823,-0.26900431513786316,-0.17125564813613892,0.404657781124115,0.7577852010726929,0.42000001668930054,-0.23841415345668793,1.1165634393692017,-1.2715905904769897,-3.0009219646453857,-0.21698665618896484,-0.22067862749099731,-0.2071346789598465,-0.19360511004924774,0.23363544046878815,0.2404121607542038,0.1057150736451149,-0.01594027876853943
0.5833333333333334,0.08742111921310425,0.0006491409731097519,0.0,0.6719626784324646,0.0,0.0,-0.7405850291252136,0.391658216714859,0.12445571273565292,0.0,0.0,0.0,0.8503040671348572,0.3982071578502655,0.7629052996635437,0.4204523265361786,0.5780977010726929,-0.00649264408275485,0.009339853189885616,-0.8158881664276123,0.26210179924964905,-0.20384839177131653,-0.002485384698957205,-0.006219080183655024,-0.0588148832321167,1.0873441696166992,0.3943752646446228,0.7631608247756958,0.42293280363082886,0.28130877017974854,-0.14858001470565796,0.10378001630306244,0.404657781124115,0.7577852010726929,0.42000001668930054,-0.2430395483970642,-1.4018913507461548,-1.3215502500534058,-2.9993462562561035,-0.21540743112564087,-0.21846850216388702,-0.20685164630413055,-0.19503529369831085,0.19363616406917572,0.2106376737356186,0.06890486925840378,-0.05561072751879692
0.6,0.09090083837509155,0.002958164783194661,0.0,0.6609789133071899,0.0,0.0,-0.7504044771194458,0.16054551303386688,0.2348143458366394,0.0,0.0,0.0,-2.66621470451355,0.40188607573509216,0.7600790858268738,0.4200013279914856,0.5887387990951538,-1.7700029275147244e-05,5.756803511758335e-05,-0.808323323726654,0.1900664120912552,-0.14727233350276947,-0.0024063135497272015,-0.05277418717741966,-0.12029370665550232,1.5002647638320923,0.39738360047340393,0.7631522417068481,0.42524001002311707,0.11052699387073517,0.026537034660577774,0.1731029599905014,0.404657781124115,0.7577852010726929,0.42000001668930054,-0.2882688045501709,-2.9997775554656982,-1.3715187311172485,-2.9991090297698975,-0.2087070792913437,-0.21224403381347656,-0.20368649065494537,-0.19450609385967255,0.43760424852371216,0.4078277349472046,0.22298480570316315,0.06407113373279572
0.6166666666666667,0.09506158530712128,0.00307343527674675,0.0,0.6624588370323181,0.0,0.0,-0.7490983605384827,0.2739368677139282,-0.029956340789794922,0.0,0.0,0.0,1.0957934856414795,0.4040033221244812,0.7584927082061768,0.4200000464916229,0.6058339476585388,-9.394852895638905e-07,-3.605081246860209e-07,-0.7955911159515381,0.10261833667755127,-0.07368186116218567,-1.1217780411243439e-06,-1.922829142131377e-05,5.989803685224615e-05,3.192880392074585,0.3973466157913208,0.7631945013999939,0.42791301012039185,-0.1083512082695961,-0.02471800334751606,0.1682216227054596,0.404657781124115,0.7577852010726929,0.42000001668930054,-0.338265985250473,-2.999987840652466,-1.4215232133865356,-2.9999608993530273,-0.20168845355510712,-0.20532798767089844,-0.19946256279945374,-0.1926252543926239,0.3139750063419342,0.34005457162857056,0.21125547587871552,0.09739285707473755
0.6333333333333333,0.10130248963832855,0.006049377378076315,0.0,0.6538110971450806,0.0,0.0,-0.7566577792167664,0.3991718292236328,0.20807473361492157,0.0,0.0,0.0,-2.4713051319122314,0.4043181538581848,0.7578259706497192,0.4200003147125244,0.6143580675125122,-8.853399776853621e-06,2.0356796085252427e-05,-0.7890273928642273,0.026234280318021774,-0.016134437173604965,-0.0010158895747736096,-0.014230892062187195,-0.04931968078017235,0.032651130110025406,0.39758580923080444,0.7642941474914551,0.4314655065536499,0.10644263029098511,0.11569123715162277,0.2676343321800232,0.404657781124115,0.7577852010726929,0.42000001668930054,-0.38826337456703186,-2.9974071979522705,-1.4715040922164917,-2.999999761581421,-0.19709224998950958,-0.200204536318779,-0.1960798054933548,-0.1905895173549652,0.3770204186439514,0.3950178623199463,0.2939648926258087,0.22388148307800293
0.65,0.1093234270811081,0.005572326015681028,0.0,0.6380860209465027,0.0,0.0,-0.7699651122093201,0.5101748704910278,-0.06894899904727936,0.0,0.0,0.0,-2.458266258239746,0.40431714057922363,0.7578266263008118,0.42000001668930054,0.614358127117157,-9.298479994868103e-07,-3.4439178762113443e-06,-0.7890272736549377,3.45195185218472e-05,-0.0001434533769497648,-2.922629937529564e-05,0.00019839117885567248,-0.004100231919437647,-0.00041970197344198823,0.3979162573814392,0.7673476934432983,0.44294553995132446,-0.06210634484887123,0.17897742986679077,1.181801676750183,0.404657781124115,0.7577852010726929,0.42000001668930054,-0.43827754259109497,-3.000000476837158,-1.5215224027633667,-3.0000007152557373,-0.1913864016532898,-0.1940344274044037,-0.19125835597515106,-0.18663275241851807,0.1953863501548767,0.253387451171875,0.2107430249452591,0.1926662027835846
0.6666666666666666,0.11907786130905151,0.0025327340699732304,0.0,0.6395531892776489,0.0,0.0,-0.7687468528747559,0.6129249334335327,-0.26555341482162476,0.0,0.0,0.0,1.3762860298156738,0.404317170381546,0.7578267455101013,0.42000001668930054,0.6143584847450256,-2.585619085948565e-06,-4.7040880417625885e-06,-0.7890270352363586,7.692622602917254e-05,-0.00036493167863227427,-0.0001008214894682169,0.008338013663887978,-0.0024804326239973307,-0.0004815542488358915,0.4004095792770386,0.7708069682121277,0.4670712351799011,0.3454088568687439,0.26640966534614563,1.7602428197860718,0.404657781124115,0.7577852010726929,0.42000001668930054,-0.48829105496406555,-2.999999761581421,-1.5715407133102417,-3.0,-0.19032886624336243,-0.19154773652553558,-0.1888502985239029,-0.18396013975143433,0.05013083294034004,0.13594062626361847,0.14213205873966217,0.1673322170972824
0.6833333333333333,0.1266784518957138,0.0029062917456030846,0.0,0.6315586566925049,0.0,0.0,-0.7753280997276306,0.3829391598701477,0.00631891330704093,0.0,0.0,0.0,-2.135148525238037,0.4043172001838684,0.7578267455101013,0.42000001668930054,0.6143583655357361,-2.553691501816502e-06,-4.7803937377466355e-06,-0.7890270352363586,7.521791849285364e-05,-0.00036557376733981073,-0.00010161637328565121,0.008345421403646469,-0.002499902155250311,-0.0004782435717061162,0.41072899103164673,0.7726364135742188,0.4928658604621887,0.9724260568618774,0.0578266978263855,1.4445757865905762,0.404657781124115,0.7577852010726929,0.42000001668930054,-0.5383037328720093,-3.0,-1.6215567588806152,-2.999999761581421,-0.1922922283411026,-0.19143769145011902,-0.18778292834758759,-0.1816539168357849,0.03299415856599808,0.13197118043899536,0.17976610362529755,0.24844639003276825
0.7,0.13516978919506073,-0.0009146396769210696,0.0,0.6013667583465576,0.0,0.0,-0.7989730834960938,0.5268426537513733,-0.2515227794647217,0.0,0.0,0.0,-5.406046390533447,0.4043172001838684,0.7578267455101013,0.42000001668930054,0.614358127117157,-2.168705805161153e-06,-4.915600129606901e-06,-0.7890272736549377,8.076217636698857e-05,-0.0003680545778479427,-0.00010034861043095589,0.00842687115073204,-0.002454751869663596,-0.0004916350590065122,0.426641583442688,0.771803081035614,0.5207222104072571,0.9421228170394897,-0.2407953441143036,2.0332047939300537,0.404657781124115,0.7577852010726929,0.42000001668930054,-0.5883163213729858,-2.9999840259552,-1.6715712547302246,-3.0,-0.19133424758911133,-0.188812717795372,-0.18421205878257751,-0.17686113715171814,-0.06801433116197586,0.06206151098012924,0.1538047343492508,0.2550613582134247
0.7166666666666667,0.14614880084991455,-0.0008083663997240365,0.0,0.5857810974121094,0.0,0.0,-0.8104693293571472,0.667683482170105,0.025034133344888687,0.0,0.0,0.0,-1.233959674835205,0.4043172001838684,0.7578267455101013,0.42000001668930054,0.6143580675125122,-2.182210891987779e-06,-5.072069598099915e-06,-0.7890273332595825,8.125044405460358e-05,-0.0003683356917463243,-0.0001002743374556303,0.008435034193098545,-0.0024519702419638634,-0.000492915220092982,0.4398519992828369,0.7693751454353333,0.5550652742385864,0.6778483390808105,0.00856102630496025,2.1038355827331543,0.404657781124115,0.7577852010726929,0.42000001668930054,-0.6077849268913269,0.3854825794696808,-1.721585750579834,-3.0000009536743164,-0.19404810667037964,-0.18953798711299896,-0.18360383808612823,-0.1749260276556015,0.005747178103774786,0.06038191169500351,0.08017589151859283,0.09764084219932556
0.7333333333333333,0.1536129117012024,0.0011112330248579383,0.0,0.5959644317626953,0.0,0.0,-0.8030108213424683,0.37050777673721313,0.15815092623233795,0.0,0.0,0.0,2.3703715801239014,0.404317170381546,0.7578267455101013,0.42000001668930054,0.614358127117157,-2.2092958715802524e-06,-4.750578682433115e-06,-0.7890272736549377,7.709782221354544e-05,-0.0003677262575365603,-0.00010134256444871426,0.008411126211285591,-0.002492282772436738,-0.00048357146442867815,0.4506114721298218,0.7707651853561401,0.5831047892570496,0.5064804553985596,0.10328115522861481,1.3517247438430786,0.404657781124115,0.7577852010726929,0.42000001668930054,-0.5793327689170837,2.793621301651001,-1.6822419166564941,3.000000238418579,-0.19135461747646332,-0.18641473352909088,-0.1805223524570465,-0.17196416854858398,0.2552014887332916,0.26897338032722473,0.2573840618133545,0.2363489270210266
0.75,0.15664611756801605,-0.0011831480078399181,0.0,0.5930987000465393,0.0,0.0,-0.8051297664642334,0.1444244533777237,-0.20938709378242493,0.0,0.0,0.0,-1.3967467546463013,0.4043172001838684,0.7578267455101013,0.42000001668930054,0.6143580675125122,-2.3474974568671314e-06,-4.818009529117262e-06,-0.7890272736549377,8.053371129790321e-05,-0.0003679314104374498,-0.00010038772597908974,0.008422770537436008,-0.002454690169543028,-0.0004909558920189738,0.4528467059135437,0.7725615501403809,0.6020181179046631,-0.21236062049865723,0.031066715717315674,1.0435091257095337,0.404657781124115,0.7577852010726929,0.42000001668930054,-0.5630700588226318,-0.5633660554885864,-1.6321845054626465,3.000000476837158,-0.1846083253622055,-0.17994284629821777,-0.17470747232437134,-0.1670285016298294,0.36977294087409973,0.3574608564376831,0.32155659794807434,0.2656073272228241
0.7666666666666666,0.15678612887859344,0.0014758644392713904,0.0,0.6018081307411194,0.0,0.0,-0.7986407279968262,-0.039065632969141006,0.2946729362010956,0.0,0.0,0.0,2.182074785232544,0.4043172001838684,0.7578267455101013,0.42000001668930054,0.6143580675125122,-2.1677976747014327e-06,-4.940291091770632e-06,-0.7890273928642273,8.080658153630793e-05,-0.00036818039370700717,-0.00010037724860012531,0.008429928682744503,-0.0024556235875934362,-0.0004918567137792706,0.4507552981376648,0.770698070526123,0.613807201385498,-0.05768278241157532,-0.13078896701335907,0.4464889168739319,0.404657781124115,0.7577852010726929,0.42000001668930054,-0.5494208335876465,1.9687470197677612,-1.5821280479431152,3.0000007152557373,-0.18369974195957184,-0.17809119820594788,-0.1723756343126297,-0.16473685204982758,0.006532787811011076,0.07139097154140472,0.1096150204539299,0.11322968453168869
0.7833333333333333,0.15464270114898682,0.0017654037801548839,0.0,0.5980970859527588,0.0,0.0,-0.8014236688613892,-0.18614469468593597,-0.0203515887260437,0.0,0.0,0.0,-1.3422811031341553,0.404317170381546,0.7578268051147461,0.42000001668930054,0.6143584251403809,-2.463754071868607e-06,-4.90163620270323e-06,-0.7890270352363586,7.875879964558408e-05,-0.0003673056198749691,-0.00010086153633892536,0.008400718681514263,-0.002473244210705161,-0.0004870932607445866,0.4452599883079529,0.7674519419670105,0.6169787049293518,-0.612743616104126,-0.2940828800201416,0.09521450847387314,0.404657781124115,0.7577852010726929,0.42000001668930054,-0.5448227524757385,-1.1505311727523804,-1.532071590423584,3.000000238418579,-0.18176859617233276,-0.17558422684669495,-0.16964544355869293,-0.16231831908226013,0.08512276411056519,0.11772496998310089,0.13145294785499573,0.11253389716148376
0.8,0.15458744764328003,0.004329562187194824,0.0,0.6055477261543274,0.0,0.0,-0.7958089709281921,0.054549701511859894,0.20284207165241241,0.0,0.0,0.0,1.8063287734985352,0.404317170381546,0.7578267455101013,0.42000001668930054,0.6143580675125122,-2.1764162738691084e-06,-4.952598828822374e-06,-0.7890273928642273,7.983889372553676e-05,-0.00036759188515134156,-0.00010046339593827724,0.008414375595748425,-0.0024598983582109213,-0.000489132828079164,0.44223636388778687,0.764415979385376,0.6171902418136597,0.18494194746017456,-0.07042469829320908,0.0006699897348880768,0.404657781124115,0.7577852010726929,0.42000001668930054,-0.539928138256073,1.5028470754623413,-1.4820303916931152,2.999999761581421,-0.18004187941551208,-0.17380733788013458,-0.16791245341300964,-0.16098985075950623,0.18411704897880554,0.15785109996795654,0.13583676517009735,0.10074532777070999
0.8166666666666667,0.15269328653812408,0.0027243189979344606,0.0,0.6002532839775085,0.0,0.0,-0.799809992313385,-0.14254021644592285,-0.11490891873836517,0.0,0.0,0.0,-1.5662633180618286,0.4043172001838684,0.7578267455101013,0.42000001668930054,0.6143580675125122,-2.3654670258110855e-06,-4.836174412048422e-06,-0.7890273928642273,8.051089389482513e-05,-0.00036788053694181144,-0.00010038190521299839,0.008421516045928001,-0.0024541839957237244,-0.0004908518167212605,0.44647547602653503,0.7628333568572998,0.6177573204040527,0.2759658396244049,-0.22179153561592102,0.1666845977306366,0.404657781124115,0.7577852010726929,0.42000001668930054,-0.5571115612983704,-3.000000238418579,-1.431973934173584,3.000000476837158,-0.17427781224250793,-0.16914331912994385,-0.16420410573482513,-0.15837757289409637,0.2050330936908722,0.1587306410074234,0.12035523355007172,0.07198544591665268
0.8333333333333334,0.1532440185546875,0.005730676930397749,0.0,0.607685923576355,0.0,0.0,-0.7941774129867554,0.06682322174310684,0.18789716064929962,0.0,0.0,0.0,1.7735068798065186,0.4043172001838684,0.7578267455101013,0.42000001668930054,0.6143580079078674,-2.1761291009170236e-06,-4.958983936376171e-06,-0.7890273928642273,8.089932816801593e-05,-0.00036821787944063544,-0.0001003555953502655,0.008431075140833855,-0.002454848028719425,-0.0004920740611851215,0.45580947399139404,0.7576556205749512,0.6166479587554932,0.8537498116493225,-0.259199321269989,-0.23690304160118103,0.404657781124115,0.7577852010726929,0.42000001668930054,-0.5775157809257507,0.28374072909355164,-1.449467658996582,-3.000001907348633,-0.17404597997665405,-0.16893905401229858,-0.1638655960559845,-0.15806014835834503,0.14322561025619507,0.11781010776758194,0.1094365119934082,0.09941539168357849
0.85,0.15566234290599823,0.0043756491504609585,0.0,0.6019242405891418,0.0,0.0,-0.7985532283782959,0.16535094380378723,-0.10750151425600052,0.0,0.0,0.0,-1.7330944538116455,0.404317170381546,0.7578268051147461,0.42000001668930054,0.6143584251403809,-2.2600845568376826e-06,-4.841723693971289e-06,-0.7890270948410034,7.607400766573846e-05,-0.00036697444738820195,-0.00010156864300370216,0.008386862464249134,-0.0024999971501529217,-0.0004810666141565889,0.4697408974170685,0.7544251084327698,0.61146080493927,0.7879273891448975,-0.23543021082878113,-0.24212396144866943,0.404657781124115,0.7577852010726929,0.42000001668930054,-0.5855957865715027,-1.1241400241851807,-1.4108859300613403,3.0000007152557373,-0.1686292290687561,-0.164730966091156,-0.16053631901741028,-0.1555587351322174,0.25485387444496155,0.19220887124538422,0.14650893211364746,0.10192158073186874
0.8666666666666667,0.1607208251953125,0.006656511686742306,0.0,0.6085764765739441,0.0,0.0,-0.793495237827301,0.3266873359680176,0.15359117090702057,0.0,0.0,0.0,1.8149995803833008,0.4043172001838684,0.7578267455101013,0.42000001668930054,0.6143583655357361,-2.56643056673056e-06,-4.881248514720937e-06,-0.7890270948410034,7.456164894392714e-05,-0.0003648287965916097,-0.00010162265971302986,0.008325549773871899,-0.002501825103536248,-0.00047630100743845105,0.48396626114845276,0.7501616477966309,0.6084616780281067,0.9317020773887634,-0.19320401549339294,-0.09337343275547028,0.404657781124115,0.7577852010726929,0.42000001668930054,-0.5860978364944458,0.8897468447685242,-1.4287993907928467,-3.0000009536743164,-0.16674727201461792,-0.1635562926530838,-0.15978297591209412,-0.155195951461792,0.1837543100118637,0.12229058891534805,0.08073599636554718,0.04529484733939171
