vladlanda/robotic-transformer/data/env_000_episode_0054.csv
sim_time_s,robot_box_x,robot_box_y,robot_box_z,robot_box_quat_w,robot_box_quat_x,robot_box_quat_y,robot_box_quat_z,robot_box_linvel_x,robot_box_linvel_y,robot_box_linvel_z,robot_box_angvel_x,robot_box_angvel_y,robot_box_angvel_z,cube_world_x,cube_world_y,cube_world_z,cube_quat_w,cube_quat_x,cube_quat_y,cube_quat_z,cube_linvel_x,cube_linvel_y,cube_linvel_z,cube_angvel_x,cube_angvel_y,cube_angvel_z,endpoint_world_x,endpoint_world_y,endpoint_world_z,endpoint_linvel_x,endpoint_linvel_y,endpoint_linvel_z,target_cube_world_x,target_cube_world_y,target_cube_world_z,gripper_actual_pos_rad_gp_leftgearjoint,gripper_actual_vel_rad_s_gp_leftgearjoint,gripper_actual_pos_rad_gp_rotatingjoint,gripper_actual_vel_rad_s_gp_rotatingjoint,motor_angle_rad_joint1,motor_angle_rad_joint2,motor_angle_rad_joint3,motor_angle_rad_joint4,motor_speed_rad_s_joint1,motor_speed_rad_s_joint2,motor_speed_rad_s_joint3,motor_speed_rad_s_joint4
0.0,0.0,0.0,0.0,1.0,0.0,0.0,0.0,0.0,0.0,0.0,0.0,0.0,0.0,-0.3297947347164154,0.7143112421035767,0.41999998688697815,1.0,0.0,0.0,0.0,0.0,0.0,0.0,0.0,0.0,0.0,3.42540442943573e-06,-0.005000244826078415,1.313499927520752,0.0,0.0,0.0,0.33724039793014526,0.6538830399513245,0.42000001668930054,-1.5707999467849731,0.0,0.0,0.0,0.0,0.0,0.0,0.0,0.0,0.0,0.0,0.0
0.016666666666666666,0.0028806249611079693,0.002140592085197568,0.0,0.9998471140861511,0.0,0.0,-0.017484361305832863,0.2394617646932602,0.17976345121860504,0.0,0.0,0.0,-3.1456851959228516,-0.32979485392570496,0.7143109440803528,0.41999998688697815,1.0,3.2799914606584935e-06,-8.339814598912199e-07,8.465387679734704e-08,-1.9833554688375443e-05,0.00017983050202019513,-6.133061833679676e-05,0.0009432226070202887,-0.004689437802881002,-0.0003198152990080416,-0.006987694650888443,0.004079329781234264,1.3159301280975342,-0.7944496870040894,1.0442184209823608,0.17931315302848816,0.33724039793014526,0.6538830399513245,0.42000001668930054,-1.5301094055175781,3.0000011920928955,-0.04586828872561455,-3.0000007152557373,0.0008683344931341708,0.0007946966798044741,0.0007088342681527138,0.0006094744894653559,0.1104515790939331,0.09701547771692276,0.08272045850753784,0.06750894337892532
0.03333333333333333,0.008886118419468403,0.0067140799947083,0.0,0.9998340010643005,0.0,0.0,-0.018221084028482437,0.40283843874931335,0.3135911524295807,0.0,0.0,0.0,0.8625169992446899,-0.3297949731349945,0.714310884475708,0.4200000464916229,1.0,3.39090593115543e-06,-2.1324372028175276e-06,-3.7106541839193596e-08,0.0002635782293509692,0.0002693790593184531,-0.00010509486310184002,-0.0017707175575196743,0.004130743443965912,-0.00013547750131692737,-0.026474932208657265,0.025298938155174255,1.3168400526046753,-1.4762065410614014,1.53676176071167,-0.04860180616378784,0.33724039793014526,0.6538830399513245,0.42000001668930054,-1.4800901412963867,3.00000262260437,-0.09590806066989899,-3.0,0.0029248385690152645,0.0025815870612859726,0.0022005296777933836,0.0017786008538678288,0.15893098711967468,0.13427305221557617,0.10813073813915253,0.08039552718400955
0.05,0.01754479669034481,0.01350796315819025,0.0,0.999445378780365,0.0,0.0,-0.03330088034272194,0.581966757774353,0.4502626955509186,0.0,0.0,0.0,-2.640876531600952,-0.3297950029373169,0.7143109440803528,0.4200000464916229,1.0,3.765230758290272e-06,-2.211922264905297e-06,5.6083799826467384e-09,0.0002653090050444007,0.00026691501261666417,-0.00010440615005791187,-0.00172435212880373,0.0041774665005505085,-0.0001294955873163417,-0.051115091890096664,0.056756846606731415,1.3132994174957275,-1.4736530780792236,2.188359260559082,-0.3452417850494385,0.33724039793014526,0.6538830399513245,0.42000001668930054,-1.4300718307495117,3.0000016689300537,-0.14591385424137115,-3.0000009536743164,0.005061584059149027,0.004081356339156628,0.0030296342447400093,0.0019011826952919364,0.12826552987098694,0.07328269630670547,0.016417454928159714,-0.042387209832668304
0.06666666666666667,0.029731247574090958,0.02278103493154049,0.0,0.9971776008605957,0.0,0.0,-0.07507883757352829,0.7910565137863159,0.6012865304946899,0.0,0.0,0.0,-5.863722324371338,-0.3297950029373169,0.714310884475708,0.4200000464916229,0.9999999403953552,3.406835730856983e-06,-2.2856456780573353e-06,4.3008122929677484e-07,0.0002670265967026353,0.0002679176104720682,-0.0001043803058564663,-0.0017406701808795333,0.004211854189634323,-0.0001285061298403889,-0.0769534558057785,0.0964825227856636,1.3054578304290771,-1.6095112562179565,2.5447864532470703,-0.5974871516227722,0.33724039793014526,0.6538830399513245,0.42000001668930054,-1.3800517320632935,2.9999940395355225,-0.11240789294242859,2.9999988079071045,0.006755496375262737,0.0048230476677417755,0.0027798120863735676,0.0006204682867974043,0.09379362314939499,0.031182056292891502,-0.03350703418254852,-0.1002829521894455
0.08333333333333333,0.03610920533537865,0.036690086126327515,0.0,0.9950448274612427,0.0,0.0,-0.09942729026079178,0.24737854301929474,0.930549681186676,0.0,0.0,0.0,-1.908288598060608,-0.3297950029373169,0.714310884475708,0.4200000464916229,1.0,3.6973383430449758e-06,-2.188984808526584e-06,-2.6323331780986337e-07,0.0002638960722833872,0.0002658652374520898,-0.00010433932766318321,-0.0017081378027796745,0.00415008282288909,-0.0001299151626881212,-0.10720700770616531,0.13561464846134186,1.2927212715148926,-1.821793556213379,2.4010009765625,-0.8428072929382324,0.33724039793014526,0.6538830399513245,0.42000001668930054,-1.3300530910491943,3.0000007152557373,-0.1443975567817688,-3.0000007152557373,0.0022053029388189316,-0.00036865269066765904,-0.003105944488197565,-0.006015511229634285,-0.37961089611053467,-0.4208523631095886,-0.46472790837287903,-0.5114986896514893
0.1,0.04718047007918358,0.0466507188975811,0.0,0.9907065033912659,0.0,0.0,-0.13601695001125336,0.6936599612236023,0.5850951671600342,0.0,0.0,0.0,-4.971920967102051,-0.3297950029373169,0.714310884475708,0.4200000464916229,0.9999999403953552,3.6204280604579253e-06,-2.265225475639454e-06,1.7461863421885937e-07,0.00026676725246943533,0.0002674070419743657,-0.00010408065281808376,-0.0017385295359417796,0.004209065344184637,-0.00012775739014614373,-0.13338392972946167,0.17937031388282776,1.2793165445327759,-1.3813717365264893,2.9905056953430176,-0.839826762676239,0.33724039793014526,0.6538830399513245,0.42000001668930054,-1.280038595199585,3.000000476837158,-0.18234853446483612,-1.6366468667984009,0.0016597248613834381,-0.002569889649748802,-0.0069555435329675674,-0.011505771428346634,-0.18672306835651398,-0.2784380316734314,-0.3705176115036011,-0.46284598112106323
0.11666666666666667,0.05565524846315384,0.058168575167655945,0.0,0.9826396107673645,0.0,0.0,-0.18552462756633759,0.45792078971862793,0.7567195296287537,0.0,0.0,0.0,-6.536857604980469,-0.3297950029373169,0.714310884475708,0.4200000464916229,1.0,3.7983741094649304e-06,-2.2627561975241406e-06,-1.5019411137018324e-07,0.00026374030858278275,0.00026566023007035255,-0.00010428880341351032,-0.001705368747934699,0.004147524479776621,-0.00012980001338291913,-0.1600317656993866,0.23071886599063873,1.262731909751892,-1.6564738750457764,3.300976037979126,-1.131717324256897,0.33724039793014526,0.6538830399513245,0.42000001668930054,-1.234489917755127,2.472939968109131,-0.14198976755142212,3.0,-0.002015301724895835,-0.007765655405819416,-0.013651394285261631,-0.01967901922762394,-0.21475671231746674,-0.3041045367717743,-0.3911157548427582,-0.4756583869457245
0.13333333333333333,0.06163797900080681,0.06772918999195099,0.0,0.9772403240203857,0.0,0.0,-0.21213513612747192,0.31505027413368225,0.4952067732810974,0.0,0.0,0.0,-2.168841600418091,-0.3297950029373169,0.7143109440803528,0.4200000464916229,0.9999999403953552,3.550490419002017e-06,-2.2297924715530826e-06,2.9292351655385573e-07,0.0002670329122338444,0.0002677924057934433,-0.00010416773147881031,-0.001743975793942809,0.004213578533381224,-0.0001280030410271138,-0.19232185184955597,0.2836604118347168,1.2406847476959229,-1.869909405708313,3.3733696937561035,-1.4985764026641846,0.33724039793014526,0.6538830399513245,0.42000001668930054,-1.1862847805023193,2.999999761581421,-0.1737927347421646,-3.0000009536743164,-0.005298169329762459,-0.012595083564519882,-0.01996731385588646,-0.02741924114525318,-0.22440089285373688,-0.3116641640663147,-0.39504456520080566,-0.4744533598423004
0.15,0.0653294175863266,0.07343362271785736,0.0,0.9682400226593018,0.0,0.0,-0.2500225603580475,0.16836264729499817,0.2661813497543335,0.0,0.0,0.0,-5.520773410797119,-0.3297950029373169,0.714310884475708,0.4200000464916229,0.9999999403953552,3.338063152114046e-06,-2.2428623651649104e-06,-2.8019764286568716e-08,0.00026674510445445776,0.0002675803261809051,-0.00010427739471197128,-0.0017366883112117648,0.0042068189941346645,-0.00012831240019295365,-0.22117763757705688,0.3458929657936096,1.2097163200378418,-1.512885570526123,4.11260461807251,-2.1804215908050537,0.33724039793014526,0.6538830399513245,0.42000001668930054,-1.136273741722107,2.999995231628418,-0.14013071358203888,2.9999992847442627,-0.00933433324098587,-0.017979906871914864,-0.026626985520124435,-0.03528018668293953,-0.2887181043624878,-0.35643714666366577,-0.41990163922309875,-0.47920289635658264
0.16666666666666666,0.07135489583015442,0.08089350163936615,0.0,0.9505330324172974,0.0,0.0,-0.3106235861778259,0.33745306730270386,0.4673321843147278,0.0,0.0,0.0,-8.544795989990234,-0.3297950029373169,0.7143109440803528,0.4200000464916229,0.9999999403953552,3.6477927096711937e-06,-2.3072821022651624e-06,3.5273473031338654e-08,0.00026726932264864445,0.0002680143225006759,-0.00010418728925287724,-0.001747259870171547,0.004217622336000204,-0.00012798597163055092,-0.2470446079969406,0.41570520401000977,1.1648104190826416,-1.3910841941833496,4.4259114265441895,-3.108090400695801,0.33724039793014526,0.6538830399513245,0.42000001668930054,-1.096487283706665,1.8385498523712158,-0.17199304699897766,-3.0,-0.01639142818748951,-0.025603115558624268,-0.034770164638757706,-0.043903984129428864,-0.5949801206588745,-0.5967146158218384,-0.5970399975776672,-0.5964046716690063
0.18333333333333332,0.07356598973274231,0.09067941457033157,0.0,0.9363943338394165,0.0,0.0,-0.3509497344493866,0.08895710855722427,0.642116367816925,0.0,0.0,0.0,-3.9371063709259033,-0.3297950029373169,0.714310884475708,0.4200000464916229,0.9999999403953552,3.290506583653041e-06,-2.193882892242982e-06,-2.792363034131995e-07,0.000266780611127615,0.00026776042068377137,-0.0001043418888002634,-0.0017391631845384836,0.0042070988565683365,-0.00012845758465118706,-0.27530354261398315,0.4860592186450958,1.1043872833251953,-1.37379789352417,4.409365653991699,-4.080657958984375,0.33724039793014526,0.6538830399513245,0.42000001668930054,-1.0487641096115112,3.00000262260437,-0.22202181816101074,-3.000000238418579,-0.02842724323272705,-0.0372740738093853,-0.04605013504624367,-0.054777827113866806,-0.7353050112724304,-0.7056235671043396,-0.6741635203361511,-0.6415769457817078
0.2,0.0797838419675827,0.09637600183486938,0.0,0.9331361055374146,0.0,0.0,-0.35952335596084595,0.35839036107063293,0.2601119577884674,0.0,0.0,0.0,-0.0270327627658844,-0.3297950029373169,0.714310884475708,0.4200000464916229,1.0,3.2807513434818247e-06,-2.219149109805585e-06,1.594698204598899e-07,0.0002662786573637277,0.000267401133896783,-0.00010424992069602013,-0.0017357232281938195,0.004197727423161268,-0.00012864978634752333,-0.3021586239337921,0.5514026880264282,1.0302023887634277,-1.3999288082122803,3.7610740661621094,-4.86265754699707,0.33724039793014526,0.6538830399513245,0.42000001668930054,-0.9987572431564331,2.9999990463256836,-0.2720485329627991,-2.999998092651367,-0.03874152526259422,-0.04693895950913429,-0.05505521595478058,-0.06312543898820877,-0.7971444129943848,-0.7239289283752441,-0.6523144841194153,-0.5831641554832458
0.21666666666666667,0.08017177879810333,0.10553964972496033,0.0,0.9244948029518127,0.0,0.0,-0.3811946213245392,0.016448713839054108,0.5193898677825928,0.0,0.0,0.0,-3.5426886081695557,-0.3297950029373169,0.7143109440803528,0.4200000464916229,1.0,3.613105945987627e-06,-2.2700548925058683e-06,2.2101254160133976e-07,0.0002671255497261882,0.00026781795895658433,-0.00010414235293865204,-0.0017445943085476756,0.004215254448354244,-0.000127866180264391,-0.32032260298728943,0.6093724966049194,0.9418902397155762,-0.8539648056030273,3.2361412048339844,-5.4632697105407715,0.33724039793014526,0.6538830399513245,0.42000001668930054,-0.9487484097480774,2.999997615814209,-0.32207706570625305,-2.9999988079071045,-0.05394398048520088,-0.062284890562295914,-0.07048815488815308,-0.07811282575130463,-0.6264389157295227,-0.6887637376785278,-0.7465940117835999,-0.7993764281272888
0.23333333333333334,0.08507493883371353,0.10891038924455643,0.0,0.9223752617835999,0.0,0.0,-0.3862950801849365,0.27732282876968384,0.1358335018157959,0.0,0.0,0.0,0.24947312474250793,-0.3297950029373169,0.714310884475708,0.4200000464916229,1.0,3.3818123483797535e-06,-2.29084980674088e-06,2.7279790515422064e-07,0.0002669129753485322,0.00026779924519360065,-0.00010433141142129898,-0.0017395684262737632,0.004209680482745171,-0.00012843731383327395,-0.3366689682006836,0.6551414728164673,0.8480629920959473,-0.82692950963974,2.2903876304626465,-5.8476481437683105,0.33724039793014526,0.6538830399513245,0.42000001668930054,-0.8987382650375366,2.9999966621398926,-0.3721078932285309,-3.0000007152557373,-0.06364321708679199,-0.07247282564640045,-0.08113905787467957,-0.08921527862548828,-0.8264362812042236,-0.8022484183311462,-0.7796841263771057,-0.7609003186225891
0.25,0.08428216725587845,0.11624209582805634,0.0,0.9140543937683105,0.0,0.0,-0.4055916965007782,-0.057452667504549026,0.40701520442962646,0.0,0.0,0.0,-3.232909679412842,-0.3297949731349945,0.714310884475708,0.4200000464916229,0.9999999403953552,3.7065203741804e-06,-2.2228459783946164e-06,-2.255132756090461e-07,0.00026424904353916645,0.0002665679494384676,-0.00010457634925842285,-0.0017169411294162273,0.004155544564127922,-0.00013062905054539442,-0.34500059485435486,0.6852110624313354,0.7470004558563232,-0.2351243942975998,1.34892737865448,-5.972860336303711,0.33724039793014526,0.6538830399513245,0.42000001668930054,-0.8487280607223511,2.999995231628418,-0.42213955521583557,-2.9999988079071045,-0.08036297559738159,-0.0890965685248375,-0.09773046523332596,-0.1057886853814125,-0.7289571762084961,-0.7781953811645508,-0.8272733092308044,-0.8734912276268005
0.26666666666666666,0.08209228515625,0.11835787445306778,0.0,0.9132040143013,0.0,0.0,-0.4075027406215668,-0.21320098638534546,0.14789897203445435,0.0,0.0,0.0,0.5061999559402466,-0.3297950029373169,0.714310884475708,0.4200000464916229,0.9999999403953552,3.7195993627392454e-06,-2.40332542489341e-06,-1.8308921312382154e-07,0.00026623232406564057,0.00026729132514446974,-0.00010425853542983532,-0.0017326984088867903,0.004196567460894585,-0.000128512445371598,-0.3524165451526642,0.7021273970603943,0.6507855653762817,-0.3261931538581848,0.5897353887557983,-5.6626739501953125,0.33724039793014526,0.6538830399513245,0.42000001668930054,-0.7987192273139954,3.0000014305114746,-0.47217074036598206,-3.000002384185791,-0.09251368790864944,-0.10172928869724274,-0.11085760593414307,-0.11940702795982361,-0.985953152179718,-0.9634014368057251,-0.944547712802887,-0.9302356243133545
0.2833333333333333,0.07650728523731232,0.1189815029501915,0.0,0.9063297510147095,0.0,0.0,-0.4225710928440094,-0.3820093274116516,-0.007582901045680046,0.0,0.0,0.0,-2.856915235519409,-0.3297950029373169,0.7143109440803528,0.4200000464916229,0.9999999403953552,3.5840330383507535e-06,-2.31531180361344e-06,7.403321689025688e-08,0.0002652195980772376,0.0002645523054525256,-0.00010317121632397175,-0.0017020339146256447,0.004185074009001255,-0.00012500229058787227,-0.35279613733291626,0.711133599281311,0.5546342134475708,0.2919378876686096,0.3184344470500946,-5.596861839294434,0.33724039793014526,0.6538830399513245,0.42000001668930054,-0.7487104535102844,2.999999523162842,-0.5222008228302002,-3.0000016689300537,-0.10972343385219574,-0.11880870908498764,-0.12784028053283691,-0.13631869852542877,-1.0109115839004517,-1.008224368095398,-1.0061771869659424,-1.0045486688613892
0.3,0.06875327229499817,0.11708544939756393,0.0,0.9067734479904175,0.0,0.0,-0.42161825299263,-0.5020265579223633,-0.15611682832241058,0.0,0.0,0.0,1.0252482891082764,-0.3297950029373169,0.714310884475708,0.4200000464916229,1.0,3.7241927657305496e-06,-2.2717581487086136e-06,9.636217157549254e-08,0.00026312493719160557,0.00026525757857598364,-0.0001043833326548338,-0.0016961178043857217,0.004134873393923044,-0.00013027516251895577,-0.3475388288497925,0.7138913869857788,0.4653822183609009,0.4737142324447632,-0.07434965670108795,-5.162634372711182,0.33724039793014526,0.6538830399513245,0.42000001668930054,-0.6987028121948242,3.0000007152557373,-0.5722285509109497,-3.0000011920928955,-0.12687918543815613,-0.13584007322788239,-0.1447809338569641,-0.15319029986858368,-1.0053389072418213,-1.0040441751480103,-1.0030561685562134,-1.002264380455017
0.31666666666666665,0.058848634362220764,0.11278384923934937,0.0,0.9008997678756714,0.0,0.0,-0.43402722477912903,-0.6406876444816589,-0.29995444416999817,0.0,0.0,0.0,-2.5270307064056396,-0.33038994669914246,0.7125508785247803,0.42086565494537354,0.9996352791786194,0.017699846997857094,-0.003793861484155059,-0.020037928596138954,0.008071552962064743,-0.07405895739793777,0.0899236798286438,4.959409713745117,0.4642016291618347,-2.8190042972564697,-0.34273701906204224,0.714172899723053,0.42597895860671997,0.05375209450721741,-0.06882543861865997,-0.1354215294122696,0.33724039793014526,0.6538830399513245,0.42000001668930054,-0.6487723588943481,3.0000412464141846,-0.6226872801780701,-2.997056007385254,-0.13887493312358856,-0.14755593240261078,-0.15604789555072784,-0.16379904747009277,-0.4177928566932678,-0.3858163058757782,-0.3335421681404114,-0.2579767405986786
0.3333333333333333,0.0468214675784111,0.10604138672351837,0.0,0.9021766185760498,0.0,0.0,-0.431366890668869,-0.7616641521453857,-0.4501328766345978,0.0,0.0,0.0,1.242310881614685,-0.3302437365055084,0.7115556597709656,0.42128273844718933,0.9990667700767517,0.03316383436322212,-0.0009120618342421949,-0.02765466645359993,0.007089791353791952,-0.04747363552451134,0.013224838301539421,0.7043153643608093,-0.036025527864694595,-0.482721745967865,-0.3441821038722992,0.7170383334159851,0.423772394657135,-0.015594502910971642,0.14911404252052307,-0.187815323472023,0.33724039793014526,0.6538830399513245,0.42000001668930054,-0.5987668037414551,2.9999730587005615,-0.6727307438850403,-2.9999916553497314,-0.14744587242603302,-0.15481212735176086,-0.16169077157974243,-0.16752532124519348,-0.5568718314170837,-0.45384860038757324,-0.3346455991268158,-0.20091618597507477
0.35,0.0370204895734787,0.09640011191368103,0.0,0.8968144655227661,0.0,0.0,-0.4424068331718445,-0.47139352560043335,-0.6370283365249634,0.0,0.0,0.0,-2.346052885055542,-0.3299619257450104,0.7117734551429749,0.4208661913871765,0.999296247959137,0.022044068202376366,-0.0006821427959948778,-0.030338849872350693,0.0697411522269249,0.07418850809335709,-0.03190473094582558,-1.5708287954330444,0.11513010412454605,-0.6232675909996033,-0.3424126207828522,0.716489315032959,0.42087069153785706,0.2206239104270935,-0.05292688310146332,-0.16250425577163696,0.33724039793014526,0.6538830399513245,0.42000001668930054,-0.5487619042396545,3.000002861022949,-0.7227843999862671,-2.9999940395355225,-0.15740646421909332,-0.16257110238075256,-0.16697193682193756,-0.17011184990406036,-0.5892325043678284,-0.4391784965991974,-0.2736464738845825,-0.0975353941321373
0.36666666666666664,0.026398401707410812,0.08500145375728607,0.0,0.8988011479377747,0.0,0.0,-0.43835657835006714,-0.7010377049446106,-0.7070215344429016,0.0,0.0,0.0,1.4858261346817017,-0.32597365975379944,0.7147279381752014,0.41999951004981995,0.9930931329727173,8.83074026205577e-05,-5.02334805787541e-05,-0.11732780933380127,0.354810893535614,0.30593639612197876,-0.003390597179532051,0.04832962155342102,0.10194066166877747,-11.682255744934082,-0.33756107091903687,0.7196378707885742,0.4191650152206421,0.3213769197463989,0.38989245891571045,0.037613093852996826,0.33724039793014526,0.6538830399513245,0.42000001668930054,-0.49874386191368103,2.999447822570801,-0.7728115320205688,-2.9706642627716064,-0.1692405343055725,-0.17126670479774475,-0.17229188978672028,-0.17193052172660828,-0.6764081120491028,-0.4882034361362457,-0.2848314046859741,-0.07357592135667801
0.3833333333333333,0.013054459355771542,0.07195606827735901,0.0,0.8938710689544678,0.0,0.0,-0.4483241140842438,-0.8891870975494385,-0.8120941519737244,0.0,0.0,0.0,-2.2982988357543945,-0.3200734853744507,0.7198631167411804,0.419999897480011,0.9755889773368835,1.0299571840732824e-05,-1.4229829048417741e-06,-0.21960414946079254,0.4344968795776367,0.37637317180633545,-0.00017204790492542088,-0.004075976088643074,0.011960539035499096,-14.471773147583008,-0.3282764256000519,0.7246707677841187,0.4208349585533142,0.7871426939964294,0.32150915265083313,0.1255244016647339,0.33724039793014526,0.6538830399513245,0.42000001668930054,-0.4486960768699646,2.9996795654296875,-0.8228173851966858,-2.9995615482330322,-0.1810878962278366,-0.179448202252388,-0.1764966994524002,-0.17199693620204926,-0.6532683372497559,-0.42344745993614197,-0.17261658608913422,0.08935701102018356
0.4,0.0024547302164137363,0.05604326352477074,0.0,0.8750380277633667,0.0,0.0,-0.4840541481971741,-0.5795982480049133,-0.997283399105072,0.0,0.0,0.0,-5.692296028137207,-0.30430465936660767,0.7290113568305969,0.42198118567466736,0.9605417251586914,-0.003879259340465069,-0.022813597694039345,-0.2771713435649872,1.5787204504013062,0.5431660413742065,0.3304291367530823,0.2609606385231018,-4.052967071533203,0.8888645768165588,-0.31018590927124023,0.7340459823608398,0.4232498109340668,1.377779483795166,0.7012971639633179,0.21479439735412598,0.33724039793014526,0.6538830399513245,0.42000001668930054,-0.3990076184272766,2.8583786487579346,-0.8728311061859131,-2.9999654293060303,-0.18958550691604614,-0.18453863263130188,-0.17775611579418182,-0.16916905343532562,-0.46906813979148865,-0.2727345824241638,-0.05191843956708908,0.1831367313861847
0.4166666666666667,-0.004081509541720152,0.03712882474064827,0.0,0.8409134149551392,0.0,0.0,-0.5411697030067444,-0.3212434649467468,-1.1993999481201172,0.0,0.0,0.0,-8.792088508605957,-0.2651527523994446,0.7460361123085022,0.42822813987731934,0.9374127388000488,-0.06318464130163193,0.028883157297968864,-0.34121933579444885,3.498558759689331,1.3869123458862305,0.29065874218940735,6.878488063812256,44.077796936035156,-5.371356964111328,-0.27019768953323364,0.7510849833488464,0.42810219526290894,3.351388692855835,1.4323935508728027,0.6049900054931641,0.33724039793014526,0.6538830399513245,0.42000001668930054,-0.3712901473045349,1.4647725820541382,-0.9228533506393433,-3.0000007152557373,-0.19853948056697845,-0.1898571252822876,-0.17911432683467865,-0.1664302796125412,-0.5263670682907104,-0.3021118938922882,-0.06294017285108566,0.17964306473731995
0.43333333333333335,-0.007830291986465454,0.02361203357577324,0.0,0.7883157134056091,0.0,0.0,-0.6152709722518921,-0.1610584408044815,-0.8584897518157959,0.0,0.0,0.0,-11.574641227722168,-0.18295443058013916,0.7706459760665894,0.4368816316127777,0.9158064723014832,0.01444933656603098,-0.018590444698929787,-0.4009288251399994,6.358273506164551,1.3908830881118774,0.6543557047843933,8.818367004394531,-8.435184478759766,23.208555221557617,-0.18738651275634766,0.7768076658248901,0.4367901682853699,6.103458881378174,1.918684959411621,0.582818329334259,0.33724039793014526,0.6538830399513245,0.42000001668930054,-0.3602559268474579,0.36332273483276367,-0.8857253193855286,2.9990804195404053,-0.21332035958766937,-0.20079733431339264,-0.18506020307540894,-0.16770724952220917,-0.5124432444572449,-0.45694097876548767,-0.2515488266944885,-0.06532011181116104
0.45,-0.014503657817840576,0.013897620141506195,0.0,0.7437156438827515,0.0,0.0,-0.6684960722923279,-0.37167295813560486,-0.5637611150741577,0.0,0.0,0.0,-6.930139541625977,-0.08472305536270142,0.7929859757423401,0.4509178102016449,0.8747918605804443,0.07639998942613602,-0.04490438848733902,-0.47632521390914917,5.783543109893799,0.24490703642368317,1.130975365638733,-6.275118350982666,8.260311126708984,8.816045761108398,-0.08902659267187119,0.8012937903404236,0.4509417414665222,5.862527847290039,1.072348713874817,0.9320011734962463,0.33724039793014526,0.6538830399513245,0.42000001668930054,-0.3536246120929718,0.3979251980781555,-0.9003073573112488,-2.999879837036133,-0.2259311079978943,-0.2115282118320465,-0.19213120639324188,-0.17166228592395782,-0.604037880897522,-0.5246738195419312,-0.3647325038909912,-0.23552532494068146
0.4666666666666667,-0.017746469005942345,0.007387915160506964,0.0,0.7238521575927734,0.0,0.0,-0.6899551153182983,-0.14079482853412628,-0.3306257724761963,0.0,0.0,0.0,-2.386638641357422,0.00834786519408226,0.7998889088630676,0.4649956524372101,0.8113884925842285,0.08843934535980225,-0.05088608339428902,-0.5755326747894287,5.186350345611572,-0.7177842855453491,0.89316725730896,-8.024999618530273,6.7841267585754395,1.6726387739181519,0.0028324704617261887,0.8100559711456299,0.4652130603790283,5.378366947174072,-0.03568419814109802,0.8878229856491089,0.33724039793014526,0.6538830399513245,0.42000001668930054,-0.3435799181461334,0.7051275372505188,-0.9503313302993774,-2.9994170665740967,-0.23641164600849152,-0.22023122012615204,-0.19811126589775085,-0.17542007565498352,-0.579839825630188,-0.4658099412918091,-0.3155662715435028,-0.193938747048378
0.48333333333333334,-0.02269652858376503,-0.003729132702574134,0.0,0.695068359375,0.0,0.0,-0.7189436554908752,-0.3827338218688965,-0.8874046206474304,0.0,0.0,0.0,-6.0965776443481445,0.0938759446144104,0.79123455286026,0.4739738702774048,0.744117021560669,0.07157348841428757,-0.06426948308944702,-0.6610873341560364,4.771386623382568,-1.5617274045944214,0.37209784984588623,-23.072490692138672,4.231410026550293,2.027878999710083,0.08736183494329453,0.8035361766815186,0.4764169454574585,4.962582588195801,-0.8015367984771729,0.6364814639091492,0.33724039793014526,0.6538830399513245,0.42000001668930054,-0.33061647415161133,0.7248247265815735,-1.0003553628921509,-2.999682903289795,-0.2400108277797699,-0.2227146327495575,-0.19888654351234436,-0.17478935420513153,-0.007297647651284933,0.06169219687581062,0.14049643278121948,0.2065027952194214
0.5,-0.0247860848903656,-0.012527212500572205,0.0,0.6763404607772827,0.0,0.0,-0.7365891337394714,-0.11694987118244171,-0.4988900423049927,0.0,0.0,0.0,-1.7430176734924316,0.17110949754714966,0.7694294452667236,0.476340651512146,0.6746115684509277,-0.010339388623833656,-0.1175752803683281,-0.7286757230758667,4.375665664672852,-1.4512118101119995,0.09665039926767349,-3.751340866088867,4.072086334228516,1.26437509059906,0.16428709030151367,0.7839058637619019,0.4837995171546936,4.3404035568237305,-1.3855013847351074,0.2194858193397522,0.33724039793014526,0.6538830399513245,0.42000001668930054,-0.3165600001811981,0.9040945172309875,-1.0503774881362915,-3.000000238418579,-0.23990364372730255,-0.2258514016866684,-0.20012818276882172,-0.17456981539726257,0.07241913676261902,0.030240312218666077,0.06159449368715286,0.07488074898719788
0.5166666666666666,-0.024454399943351746,-0.0158743504434824,0.0,0.676497757434845,0.0,0.0,-0.7364446520805359,0.07084917277097702,-0.12077151238918304,0.0,0.0,0.0,0.7477511763572693,0.2327335923910141,0.7442584037780762,0.4745332598686218,0.621912956237793,-0.028739430010318756,-0.10194551944732666,-0.7758899927139282,3.1100406646728516,-2.037323474884033,-0.06111002340912819,-0.015634238719940186,12.064176559448242,-2.7991697788238525,0.22808738052845,0.759100079536438,0.48365694284439087,3.308258533477783,-1.6345950365066528,-0.19361330568790436,0.33724039793014526,0.6538830399513245,0.42000001668930054,-0.3073290288448334,0.42434385418891907,-1.1003996133804321,-2.998654365539551,-0.23872697353363037,-0.2255742996931076,-0.2001022845506668,-0.17500314116477966,0.1621200144290924,0.09316770732402802,0.03006865829229355,-0.043028172105550766
0.5333333333333333,-0.020914360880851746,-0.02297022193670273,0.0,0.6646636724472046,0.0,0.0,-0.7471426725387573,0.1995333880186081,-0.4390656352043152,0.0,0.0,0.0,-2.6803689002990723,0.2811186611652374,0.7205226421356201,0.46592098474502563,0.588459312915802,-0.05602279677987099,-0.08575452119112015,-0.8020119071006775,2.463593006134033,-1.5836584568023682,-0.5834718346595764,-1.006158471107483,7.583530426025391,-2.643561363220215,0.27779585123062134,0.7345101237297058,0.4756474494934082,2.5704636573791504,-1.5477713346481323,-0.6866804361343384,0.33724039793014526,0.6538830399513245,0.42000001668930054,-0.2953927516937256,0.9758034944534302,-1.1504217386245728,-2.999999761581421,-0.22996442019939423,-0.21905578672885895,-0.1961136907339096,-0.1735536903142929,0.4500081539154053,0.34554868936538696,0.19506488740444183,0.04010917991399765
0.55,-0.01546438131481409,-0.025540558621287346,0.0,0.6654371023178101,0.0,0.0,-0.7464539408683777,0.37690943479537964,-0.13931845128536224,0.0,0.0,0.0,0.8765949606895447,0.3171408176422119,0.6939377784729004,0.4514569342136383,0.5568024516105652,-0.08386925607919693,-0.07049164921045303,-0.8233879804611206,1.8470056056976318,-2.1068923473358154,-0.8002933859825134,-2.9824166297912598,8.569470405578613,8.201942443847656,0.3152257800102234,0.7075672745704651,0.46141669154167175,1.9646739959716797,-1.5917508602142334,-1.0558335781097412,0.33724039793014526,0.6538830399513245,0.42000001668930054,-0.28055307269096375,0.6666926145553589,-1.1759580373764038,-0.27717888355255127,-0.22467955946922302,-0.21505191922187805,-0.19451259076595306,-0.1744551658630371,0.42762768268585205,0.3232460618019104,0.13998402655124664,-0.04364418610930443
0.5666666666666667,-0.007967464625835419,-0.025186438113451004,0.0,0.6552318334579468,0.0,0.0,-0.7554278373718262,0.500525712966919,0.08353596925735474,0.0,0.0,0.0,-2.5311431884765625,0.34356454014778137,0.670782744884491,0.42979100346565247,0.5463946461677551,-0.09360913187265396,-0.08254379034042358,-0.8281767964363098,1.17818021774292,-1.6023454666137695,-1.1841806173324585,-5.487566947937012,4.676562309265137,10.033888816833496,0.3414379954338074,0.6840512752532959,0.43958041071891785,1.1637496948242188,-1.2604894638061523,-1.4699383974075317,0.33724039793014526,0.6538830399513245,0.42000001668930054,-0.2718125581741333,0.40359407663345337,-1.1323058605194092,2.9997448921203613,-0.2160205841064453,-0.20900796353816986,-0.1924513280391693,-0.1762184351682663,0.5565216541290283,0.38157719373703003,0.11709460616111755,-0.13534799218177795
0.5833333333333334,-0.0031595397740602493,-0.029224960133433342,0.0,0.6568683385848999,0.0,0.0,-0.7540053129196167,0.2500581741333008,-0.2628293037414551,0.0,0.0,0.0,1.0648112297058105,0.3561207354068756,0.6602590084075928,0.4204338788986206,0.5283463001251221,0.004025507252663374,-0.004931468516588211,-0.8490051031112671,0.31685516238212585,-0.5198677778244019,-0.005427072290331125,-0.9954192042350769,-0.5734217762947083,-6.724860191345215,0.3503248691558838,0.6688448190689087,0.4278048872947693,0.06729298830032349,-0.6025358438491821,0.1299886405467987,0.33724039793014526,0.6538830399513245,0.42000001668930054,-0.2664150297641754,0.4574477970600128,-1.1547560691833496,-2.999525547027588,-0.20379546284675598,-0.19915051758289337,-0.1872880607843399,-0.17546924948692322,0.5243564248085022,0.4796680808067322,0.23939791321754456,0.01491848099976778
0.6,0.0034715912770479918,-0.028532449156045914,0.0,0.6469392776489258,0.0,0.0,-0.7625415325164795,0.37698304653167725,0.08444492518901825,0.0,0.0,0.0,-2.4158823490142822,0.35553261637687683,0.6553943157196045,0.42000606656074524,0.5942143797874451,0.0001493265008321032,0.0007729047792963684,-0.8043062090873718,0.011380032636225224,-0.181020587682724,-0.013418455608189106,-1.0209654569625854,-0.016897931694984436,6.167298793792725,0.35093554854393005,0.6610990762710571,0.4264253079891205,-0.016323262825608253,-0.22942307591438293,-0.10778620839118958,0.33724039793014526,0.6538830399513245,0.42000001668930054,-0.2675514817237854,-0.4364657700061798,-1.116905927658081,3.000401020050049,-0.19735999405384064,-0.19358311593532562,-0.18551000952720642,-0.17719627916812897,0.49813324213027954,0.40468624234199524,0.15801461040973663,-0.0670173391699791
0.6166666666666667,0.0069613768719136715,-0.03175249323248863,0.0,0.6493622064590454,0.0,0.0,-0.7604792714118958,0.1375013142824173,-0.22416645288467407,0.0,0.0,0.0,1.1133620738983154,0.3554648756980896,0.6533602476119995,0.42000097036361694,0.6127314567565918,3.8467485865112394e-05,1.2642337424040306e-05,-0.7902911901473999,-0.13391387462615967,-0.13305647671222687,-0.001397843356244266,-0.09161978214979172,0.024272983893752098,1.494254231452942,0.34904754161834717,0.6570460796356201,0.42749184370040894,-0.265289306640625,-0.24550363421440125,0.1285509169101715,0.33724039793014526,0.6538830399513245,0.42000001668930054,-0.3091890215873718,-2.999997854232788,-1.139202356338501,-2.9988160133361816,-0.18899019062519073,-0.18644724786281586,-0.1818711906671524,-0.1767471730709076,0.3522000312805176,0.31387796998023987,0.15413673222064972,0.00750246224924922
0.6333333333333333,0.011133699677884579,-0.03126015514135361,0.0,0.64930659532547,0.0,0.0,-0.7605267763137817,0.26544633507728577,0.051519256085157394,0.0,0.0,0.0,-0.5127571821212769,0.3537823557853699,0.6517748236656189,0.4200000464916229,0.6217103004455566,-1.5389474583571428e-07,9.943424856828642e-07,-0.7832472324371338,-0.07574790716171265,-0.07636165618896484,-2.2404128685593605e-06,-2.7044714443036355e-05,-0.00011275940050836653,1.1868531703948975,0.3468979597091675,0.65589439868927,0.42972779273986816,-0.03530425578355789,0.07033006101846695,0.16160742938518524,0.33724039793014526,0.6538830399513245,0.42000001668930054,-0.35700875520706177,-2.69002366065979,-1.1891496181488037,-2.998504161834717,-0.1842665672302246,-0.18255580961704254,-0.18045759201049805,-0.1775379627943039,0.4297083020210266,0.33686593174934387,0.1664857119321823,0.017106173560023308
0.65,0.01715727709233761,-0.034717828035354614,0.0,0.6629921793937683,0.0,0.0,-0.7486262917518616,0.4087781012058258,-0.2261826992034912,0.0,0.0,0.0,2.8933846950531006,0.3530357778072357,0.6511722803115845,0.4200078248977661,0.6219182014465332,0.00012007320765405893,-0.00016271615459118038,-0.783082127571106,-0.08556205034255981,-0.03491197153925896,0.008698876015841961,-0.09193912148475647,-0.4270760715007782,-4.91640043258667,0.34450364112854004,0.6566583514213562,0.4329296946525574,-0.23525050282478333,-0.03919103741645813,0.22475247085094452,0.33724039793014526,0.6538830399513245,0.42000001668930054,-0.4069441556930542,-2.999844551086426,-1.239141821861267,-2.9999845027923584,-0.17598240077495575,-0.1755453497171402,-0.17573033273220062,-0.17475874722003937,0.33334219455718994,0.30953654646873474,0.23735271394252777,0.18042749166488647
0.6666666666666666,0.025611521676182747,-0.034917354583740234,0.0,0.6632134318351746,0.0,0.0,-0.7484303116798401,0.5226492881774902,0.04296703636646271,0.0,0.0,0.0,-0.9250981211662292,0.3513187766075134,0.6506550312042236,0.4200000464916229,0.6121476888656616,-2.748937788510375e-07,-6.876333458194495e-08,-0.7907434105873108,-0.08892948180437088,-0.02486148476600647,-6.585440132766962e-06,-0.00016862495976965874,-0.0002679662429727614,-0.9539631009101868,0.3424339294433594,0.6562213897705078,0.43769174814224243,-0.060820117592811584,-0.03948027268052101,0.3335421681404114,0.33724039793014526,0.6538830399513245,0.42000001668930054,-0.45695915818214417,-2.9998490810394287,-1.289130449295044,-2.9999308586120605,-0.17211003601551056,-0.17173996567726135,-0.17242619395256042,-0.17159292101860046,0.2705156207084656,0.2681366503238678,0.2579938471317291,0.2745761275291443
0.6833333333333333,0.03580038249492645,-0.03848639130592346,0.0,0.6414640545845032,0.0,0.0,-0.7671530842781067,0.6492188572883606,-0.25178301334381104,0.0,0.0,0.0,-4.272395133972168,0.35076573491096497,0.6504780650138855,0.42000001668930054,0.6087005138397217,-1.209104198096611e-06,8.617788580522756e-07,-0.79339998960495,-0.012392571195960045,-0.0055290162563323975,-2.7384026907384396e-05,-0.000522080808877945,-0.0012535365531221032,-0.3515268862247467,0.3458595871925354,0.6569238305091858,0.4507012367248535,0.42528867721557617,0.0277082622051239,1.336885690689087,0.33724039793014526,0.6538830399513245,0.42000001668930054,-0.5069716572761536,-2.9999990463256836,-1.3391486406326294,-3.000000476837158,-0.16733822226524353,-0.16717566549777985,-0.1680181324481964,-0.1669071763753891,0.12113668769598007,0.13883860409259796,0.1657371073961258,0.21383613348007202
0.7,0.048497240990400314,-0.03840513899922371,0.0,0.6330903172492981,0.0,0.0,-0.7740779519081116,0.7762168645858765,0.03505239635705948,0.0,0.0,0.0,-0.26385608315467834,0.3507654368877411,0.6504783630371094,0.42000001668930054,0.6087005734443665,-1.6049322084654705e-06,-4.459806859813398e-06,-0.7934000492095947,0.00010625654977047816,-0.00035422571818344295,-8.593406528234482e-05,0.008303663693368435,-0.002226439770311117,-0.0005915442598052323,0.35622698068618774,0.660576581954956,0.4807289242744446,0.8445068597793579,0.40812861919403076,2.2424392700195312,0.33724039793014526,0.6538830399513245,0.42000001668930054,-0.5569823384284973,-2.9999988079071045,-1.3891669511795044,-3.0000009536743164,-0.16754412651062012,-0.16712234914302826,-0.16741201281547546,-0.1654084473848343,0.07274369150400162,0.049737539142370224,0.05366373062133789,0.08052904903888702
0.7166666666666667,0.057915668934583664,-0.03805501386523247,0.0,0.6488834619522095,0.0,0.0,-0.7608878016471863,0.5001470446586609,0.09255203604698181,0.0,0.0,0.0,3.3091890811920166,0.35076549649238586,0.6504784226417542,0.42000001668930054,0.6087004542350769,-2.383542550887796e-06,-4.447340870683547e-06,-0.79339998960495,6.74338880344294e-05,-0.0003649485297501087,-0.00010091741569340229,0.008450101129710674,-0.00261818733997643,-0.0005132614751346409,0.3721843361854553,0.6665226221084595,0.5124101042747498,0.9922902584075928,0.2723657488822937,1.6458017826080322,0.33724039793014526,0.6538830399513245,0.42000001668930054,-0.5933808088302612,-1.4713935852050781,-1.4391852617263794,-3.0,-0.16424572467803955,-0.16405977308750153,-0.1640741378068924,-0.1614651083946228,0.20867818593978882,0.2171662300825119,0.25704485177993774,0.311644971370697
0.7333333333333333,0.06333412230014801,-0.04042064771056175,0.0,0.6511684656143188,0.0,0.0,-0.7589332461357117,0.2181837260723114,-0.16410230100154877,0.0,0.0,0.0,-0.6177438497543335,0.35076549649238586,0.6504784226417542,0.42000001668930054,0.6087008714675903,-2.6919415176962502e-06,-4.58645490652998e-06,-0.7933998107910156,6.659413338638842e-05,-0.000364825245924294,-0.00010100100189447403,0.00844983197748661,-0.002626471221446991,-0.0005115206586197019,0.3856925368309021,0.667860209941864,0.5329962968826294,0.6000447273254395,-0.09216262400150299,1.0016040802001953,0.33724039793014526,0.6538830399513245,0.42000001668930054,-0.6297305822372437,-2.7526113986968994,-1.4034912586212158,3.000000476837158,-0.1609049290418625,-0.16030173003673553,-0.1594795435667038,-0.15596574544906616,0.12458726018667221,0.1749512255191803,0.24342051148414612,0.3053315281867981
0.75,0.06995413452386856,-0.03741888329386711,0.0,0.6645994186401367,0.0,0.0,-0.7471998333930969,0.3687371611595154,0.2044622302055359,0.0,0.0,0.0,2.9689016342163086,0.35076549649238586,0.6504784226417542,0.42000001668930054,0.6087006330490112,-2.6765878828882705e-06,-4.6797922550467774e-06,-0.79339998960495,6.634889723500237e-05,-0.0003647834819275886,-0.00010107830166816711,0.008447973988950253,-0.0026292551774531603,-0.000511001970153302,0.39470043778419495,0.6658056974411011,0.5508257150650024,0.5431727766990662,-0.00265522301197052,1.1461174488067627,0.33724039793014526,0.6538830399513245,0.42000001668930054,-0.6474897861480713,0.36533233523368835,-1.4215435981750488,-2.999999761581421,-0.16284653544425964,-0.16075849533081055,-0.15824444591999054,-0.1532902717590332,0.03980215638875961,0.088038370013237,0.15052233636379242,0.19915679097175598
0.7666666666666666,0.07299921661615372,-0.03914530202746391,0.0,0.6652624607086182,0.0,0.0,-0.7466095685958862,0.1455487161874771,-0.1733228862285614,0.0,0.0,0.0,-0.8694803714752197,0.35076549649238586,0.6504784226417542,0.42000001668930054,0.608700692653656,-2.682495278349961e-06,-4.585601345752366e-06,-0.7933998107910156,6.660863436991349e-05,-0.00036485728924162686,-0.00010100565850734711,0.008450659923255444,-0.0026268663350492716,-0.0005116004613228142,0.40408551692962646,0.6641412973403931,0.5646905899047852,0.5335400700569153,-0.2958216369152069,0.6728979349136353,0.33724039793014526,0.6538830399513245,0.42000001668930054,-0.6641221642494202,-2.1308658123016357,-1.3830437660217285,3.0000007152557373,-0.15985547006130219,-0.15726573765277863,-0.15402616560459137,-0.1485922634601593,0.11236459761857986,0.16128261387348175,0.21960394084453583,0.25875261425971985
0.7833333333333333,0.07736602425575256,-0.0378132089972496,0.0,0.6760537028312683,0.0,0.0,-0.7368523478507996,0.29124483466148376,0.09138685464859009,0.0,0.0,0.0,2.4664011001586914,0.35076549649238586,0.6504784226417542,0.42000001668930054,0.6087008118629456,-2.670812818905688e-06,-4.677540346165188e-06,-0.7933998703956604,6.633843440795317e-05,-0.0003647581615950912,-0.00010107294656336308,0.008447307161986828,-0.0026290465611964464,-0.0005109509802423418,0.4133923351764679,0.6592931747436523,0.5756332874298096,0.653835117816925,-0.22345340251922607,0.6662352085113525,0.33724039793014526,0.6538830399513245,0.42000001668930054,-0.6685352325439453,1.308159351348877,-1.4014629125595093,-3.000000238418579,-0.15918143093585968,-0.155679389834404,-0.15137889981269836,-0.14520680904388428,0.16883769631385803,0.1917974352836609,0.22595368325710297,0.24443382024765015
0.8,0.07920423150062561,-0.04003731906414032,0.0,0.6744033098220825,0.0,0.0,-0.7383632063865662,0.0536978505551815,-0.178280308842659,0.0,0.0,0.0,-1.1066800355911255,0.35076549649238586,0.6504784226417542,0.42000001668930054,0.6087005734443665,-2.6796451493282802e-06,-4.585481292451732e-06,-0.7934000492095947,6.662288797087967e-05,-0.0003648954152595252,-0.00010101404041051865,0.008451669476926327,-0.0026271564420312643,-0.0005116778193041682,0.4240416884422302,0.6553030014038086,0.5841556787490845,0.5779945254325867,-0.29146671295166016,0.5008138418197632,0.33724039793014526,0.6538830399513245,0.42000001668930054,-0.6680139899253845,-1.043567180633545,-1.3630250692367554,3.0000007152557373,-0.15607088804244995,-0.15241223573684692,-0.14780409634113312,-0.1415921300649643,0.13472893834114075,0.14662161469459534,0.16387929022312164,0.1630338430404663
0.8166666666666667,0.08234110474586487,-0.03845372423529625,0.0,0.6840707063674927,0.0,0.0,-0.7294157147407532,0.2267569899559021,0.09665273874998093,0.0,0.0,0.0,2.291013717651367,0.35076549649238586,0.6504784226417542,0.42000001668930054,0.6087006330490112,-2.668085926416097e-06,-4.680528491007863e-06,-0.79339998960495,6.625634705414996e-05,-0.00036475699744187295,-0.00010109739378094673,0.008446991443634033,-0.0026295259594917297,-0.0005107504548504949,0.43284672498703003,0.6497872471809387,0.591794490814209,0.5794684886932373,-0.271310418844223,0.4420909881591797,0.33724039793014526,0.6538830399513245,0.42000001668930054,-0.6571731567382812,2.067038059234619,-1.3817962408065796,-3.000000476837158,-0.1556657999753952,-0.15151001513004303,-0.14634054899215698,-0.13987001776695251,0.16434422135353088,0.16242298483848572,0.16727010905742645,0.15912343561649323
0.8333333333333334,0.08330484479665756,-0.04095584526658058,0.0,0.6812314391136169,0.0,0.0,-0.7320681214332581,0.0023546318989247084,-0.1723199188709259,0.0,0.0,0.0,-1.2924894094467163,0.35076549649238586,0.6504784226417542,0.42000001668930054,0.608700692653656,-2.7052142286265735e-06,-4.583363534038654e-06,-0.7933998107910156,6.66881533106789e-05,-0.00036485373857431114,-0.00010098051279783249,0.008450881578028202,-0.0026263415347784758,-0.0005117866094224155,0.4413139820098877,0.646777868270874,0.5971554517745972,0.3648880422115326,-0.17311692237854004,0.33305788040161133,0.33724039793014526,0.6538830399513245,0.42000001668930054,-0.6403603553771973,0.10548566281795502,-1.3434126377105713,3.0000007152557373,-0.1515655666589737,-0.147917240858078,-0.14316211640834808,-0.13729609549045563,0.1491667777299881,0.12639972567558289,0.10534431785345078,0.07101481407880783
0.85,0.08156478404998779,-0.03938470780849457,0.0,0.6892072558403015,0.0,0.0,-0.724564254283905,-0.14751948416233063,0.11538822203874588,0.0,0.0,0.0,2.010324478149414,0.35076549649238586,0.6504784226417542,0.42000001668930054,0.6087008118629456,-2.662369524841779e-06,-4.678263394453097e-06,-0.7933998703956604,6.625930836889893e-05,-0.0003647624107543379,-0.000101098557934165,0.008447238244116306,-0.002629439113661647,-0.0005107601755298674,0.44599881768226624,0.6421598792076111,0.6021910905838013,0.2951309084892273,-0.2255755066871643,0.29795870184898376,0.33724039793014526,0.6538830399513245,0.42000001668930054,-0.614581823348999,2.738009452819824,-1.3625285625457764,-3.0,-0.1511051207780838,-0.14746838808059692,-0.14272598922252655,-0.13709773123264313,0.14130668342113495,0.11343120783567429,0.08798869699239731,0.053873296827077866
0.8666666666666667,0.07830553501844406,-0.03788153454661369,0.0,0.6846724152565002,0.0,0.0,-0.7288509011268616,-0.25100359320640564,0.1300709843635559,0.0,0.0,0.0,-1.6310491561889648,0.35076549649238586,0.6504784226417542,0.42000001668930054,0.6087005734443665,-2.7023527309211204e-06,-4.5832516661903355e-06,-0.7934000492095947,6.670271250186488e-05,-0.00036489087506197393,-0.00010098842903971672,0.008451780304312706,-0.0026267068460583687,-0.0005118641420267522,0.44853490591049194,0.6425812244415283,0.605514407157898,-0.036995768547058105,0.16253720223903656,0.24617250263690948,0.33724039793014526,0.6538830399513245,0.42000001668930054,-0.5720975995063782,2.3578479290008545,-1.3241987228393555,2.999999761581421,-0.1469671130180359,-0.14460593461990356,-0.14105607569217682,-0.13667650520801544,0.2557017505168915,0.16459009051322937,0.07742779701948166,-0.01199515350162983
0.8833333333333333,0.07286904007196426,-0.038283392786979675,0.0,0.6909312605857849,0.0,0.0,-0.7229204773902893,-0.3625306189060211,-0.07753302156925201,0.0,0.0,0.0,1.8182573318481445,0.35076549649238586,0.6504784226417542,0.42000001668930054,0.6087006330490112,-2.6907212031801464e-06,-4.675172476709122e-06,-0.79339998960495,6.633921293541789e-05,-0.0003647579869721085,-0.00010107294656336308,0.008447257801890373,-0.002629021881148219,-0.0005109520279802382,0.44500476121902466,0.6442604660987854,0.6121605634689331,-0.328329473733902,0.10741972923278809,0.5677441358566284,0.33724039793014526,0.6538830399513245,0.42000001668930054,-0.5348609089851379,2.1024317741394043,-1.2741918563842773,3.000000476837158,-0.14391042292118073,-0.1426294445991516,-0.14013926684856415,-0.13688121736049652,0.1085115447640419,0.058613959699869156,0.00817564781755209,-0.04635213688015938
