vladlanda/robotic-transformer/data/env_000_episode_0012.csv
sim_time_s,robot_box_x,robot_box_y,robot_box_z,robot_box_quat_w,robot_box_quat_x,robot_box_quat_y,robot_box_quat_z,robot_box_linvel_x,robot_box_linvel_y,robot_box_linvel_z,robot_box_angvel_x,robot_box_angvel_y,robot_box_angvel_z,cube_world_x,cube_world_y,cube_world_z,cube_quat_w,cube_quat_x,cube_quat_y,cube_quat_z,cube_linvel_x,cube_linvel_y,cube_linvel_z,cube_angvel_x,cube_angvel_y,cube_angvel_z,endpoint_world_x,endpoint_world_y,endpoint_world_z,endpoint_linvel_x,endpoint_linvel_y,endpoint_linvel_z,target_cube_world_x,target_cube_world_y,target_cube_world_z,gripper_actual_pos_rad_gp_leftgearjoint,gripper_actual_vel_rad_s_gp_leftgearjoint,gripper_actual_pos_rad_gp_rotatingjoint,gripper_actual_vel_rad_s_gp_rotatingjoint,motor_angle_rad_joint1,motor_angle_rad_joint2,motor_angle_rad_joint3,motor_angle_rad_joint4,motor_speed_rad_s_joint1,motor_speed_rad_s_joint2,motor_speed_rad_s_joint3,motor_speed_rad_s_joint4
0.0,0.0,0.0,0.0,1.0,0.0,0.0,0.0,0.0,0.0,0.0,0.0,0.0,0.0,-0.37225061655044556,0.6223262548446655,0.41999998688697815,1.0,0.0,0.0,0.0,0.0,0.0,0.0,0.0,0.0,0.0,3.42540442943573e-06,-0.005000244826078415,1.313499927520752,0.0,0.0,0.0,0.4260094165802002,0.6527618169784546,0.42000001668930054,-1.5707999467849731,0.0,0.0,0.0,0.0,0.0,0.0,0.0,0.0,0.0,0.0,0.0
0.016666666666666666,0.0028795739635825157,0.0021787360310554504,0.0,0.9998121857643127,0.0,0.0,0.019381092861294746,0.24092276394367218,0.1823369562625885,0.0,0.0,0.0,3.1418304443359375,-0.3722507357597351,0.6223259568214417,0.41999998688697815,1.0,3.279964630564791e-06,-8.339746386809566e-07,8.465587342243452e-08,-1.9833529222523794e-05,0.00017983045836444944,-6.132945418357849e-05,0.0009432713268324733,-0.004689474124461412,-0.00031981561915017664,-0.007110029458999634,0.003384755924344063,1.315937876701355,-0.8141549229621887,0.9870681762695312,0.18095824122428894,0.4260094165802002,0.6527618169784546,0.42000001668930054,-1.5301095247268677,3.000001907348633,-0.04584841430187225,-3.0000009536743164,0.0008699211175553501,0.0007965752738527954,0.0007111260201781988,0.0006109796813689172,0.11094223707914352,0.09758035093545914,0.0833580270409584,0.06825261563062668
0.03333333333333333,0.008962998166680336,0.006798767484724522,0.0,0.9998001456260681,0.0,0.0,0.01999112404882908,0.4070393145084381,0.3152390420436859,0.0,0.0,0.0,-0.869105339050293,-0.37225085496902466,0.6223258972167969,0.4200000464916229,1.0,3.3908354453160428e-06,-2.1324485715012997e-06,-3.710144014235084e-08,0.00026357831666246057,0.00026937946677207947,-0.00010509486310184002,-0.0017707672668620944,0.004130808170884848,-0.000135478752781637,-0.027534734457731247,0.025864863768219948,1.3166499137878418,-1.5906904935836792,1.6075588464736938,-0.0787004753947258,0.4260094165802002,0.6527618169784546,0.42000001668930054,-1.4800902605056763,3.000002861022949,-0.09588824957609177,-3.0000009536743164,0.0029905547853559256,0.0026528527960181236,0.002277413150295615,0.001860913005657494,0.16419754922389984,0.13975724577903748,0.11382222175598145,0.0863073542714119
0.05,0.0184484850615263,0.013861610554158688,0.0,0.9999828338623047,0.0,0.0,-0.0058570560067892075,0.6359547972679138,0.4711223840713501,0.0,0.0,0.0,-4.07968282699585,-0.37225088477134705,0.6223259568214417,0.4200000464916229,1.0,3.7651125239790417e-06,-2.211879063906963e-06,5.622505128144439e-09,0.000265308452071622,0.0002669153327587992,-0.00010440615005791187,-0.001724260626360774,0.004177352879196405,-0.00012949221127200872,-0.05732257664203644,0.05600383132696152,1.3122715950012207,-1.9620250463485718,1.9521336555480957,-0.42429912090301514,0.4260094165802002,0.6527618169784546,0.42000001668930054,-1.4300719499588013,3.0000011920928955,-0.14590293169021606,-3.000000238418579,0.006002318114042282,0.005164980422705412,0.004255308303982019,0.0032689652871340513,0.2071668952703476,0.16687795519828796,0.12466293573379517,0.08044647425413132
0.06666666666666667,0.030752595514059067,0.023328246548771858,0.0,0.9998975396156311,0.0,0.0,-0.01431365218013525,0.7723618745803833,0.6148472428321838,0.0,0.0,0.0,-0.044672250747680664,-0.37225088477134705,0.6223258972167969,0.4200000464916229,0.9999999403953552,3.4066883927152958e-06,-2.285532218593289e-06,4.300976286231162e-07,0.0002670241810847074,0.00026791772688739,-0.00010438147000968456,-0.00174069800414145,0.00421178387477994,-0.00012850729399360716,-0.09541118890047073,0.08716785907745361,1.301909327507019,-2.439382314682007,1.962554693222046,-0.8062044978141785,0.4260094165802002,0.6527618169784546,0.42000001668930054,-1.38004469871521,2.9999990463256836,-0.11562599241733551,3.0,0.008782648481428623,0.0072532277554273605,0.0056112403981387615,0.0038513930048793554,0.15732815861701965,0.10862914472818375,0.05779356136918068,0.004752956796437502
0.08333333333333333,0.045381732285022736,0.030617594718933105,0.0,0.9993115067481995,0.0,0.0,-0.03710087016224861,0.950514018535614,0.37651771306991577,0.0,0.0,0.0,-3.5424695014953613,-0.37225088477134705,0.6223258972167969,0.4200000464916229,1.0,3.6972253383282805e-06,-2.188838152505923e-06,-2.632317830375541e-07,0.00026389729464426637,0.00026586424792185426,-0.00010433932766318321,-0.0017081560799852014,0.004150177352130413,-0.0001299097202718258,-0.13157477974891663,0.12448716163635254,1.2875819206237793,-1.945146083831787,2.4836087226867676,-0.8898921012878418,0.4260094165802002,0.6527618169784546,0.42000001668930054,-1.3300366401672363,3.0000009536743164,-0.1476352959871292,-2.9999990463256836,0.009936351329088211,0.007317468989640474,0.0045426758006215096,0.0016074859304353595,0.02374909818172455,-0.05948235094547272,-0.14497652649879456,-0.2326781153678894
0.1,0.054304156452417374,0.040457531809806824,0.0,0.9983657002449036,0.0,0.0,-0.05714864283800125,0.39728593826293945,0.673867404460907,0.0,0.0,0.0,-1.77439546585083,-0.37225088477134705,0.6223258972167969,0.4200000464916229,0.9999999403953552,3.620277084337431e-06,-2.2651142899121623e-06,1.7461523782458244e-07,0.0002667682128958404,0.0002674072457011789,-0.0001040794886648655,-0.0017386354738846421,0.004209177568554878,-0.00012775110371876508,-0.16894173622131348,0.16489934921264648,1.266430377960205,-2.4086406230926514,2.466348171234131,-1.5488072633743286,0.4260094165802002,0.6527618169784546,0.42000001668930054,-1.2800182104110718,2.9999935626983643,-0.11409228295087814,3.000000238418579,0.004027822054922581,0.0006961912149563432,-0.0028433508705347776,-0.006598952692002058,-0.4607029855251312,-0.4934383034706116,-0.528632402420044,-0.5665987730026245
0.11666666666666667,0.05821091681718826,0.051229897886514664,0.0,0.9957090020179749,0.0,0.0,-0.09253958612680435,0.2340814173221588,0.6308642029762268,0.0,0.0,0.0,-4.885080337524414,-0.37225088477134705,0.6223258972167969,0.4200000464916229,1.0,3.798308171099052e-06,-2.262737325509079e-06,-1.5021218757738097e-07,0.0002637405996210873,0.000265660259174183,-0.00010428996756672859,-0.0017054072814062238,0.00414755754172802,-0.000129801788716577,-0.20704588294029236,0.20761089026927948,1.2397947311401367,-2.1941394805908203,2.6827898025512695,-1.5650283098220825,0.4260094165802002,0.6527618169784546,0.42000001668930054,-1.2300163507461548,3.0000016689300537,-0.1461144983768463,-3.0000007152557373,-0.0037965946830809116,-0.008075693622231483,-0.01256904099136591,-0.017288969829678535,-0.35147741436958313,-0.4390387535095215,-0.5246753692626953,-0.6084678173065186
0.13333333333333333,0.07028337568044662,0.0584438294172287,0.0,0.9942270517349243,0.0,0.0,-0.10729662328958511,0.6685909032821655,0.4735690653324127,0.0,0.0,0.0,-0.6633021831512451,-0.37225088477134705,0.6223259568214417,0.4200000464916229,0.9999999403953552,3.55037650479062e-06,-2.229731535408064e-06,2.929058098288806e-07,0.0002670335816219449,0.0002677934826351702,-0.00010417238809168339,-0.0017440745141357183,0.004213663749396801,-0.0001280020660487935,-0.24716073274612427,0.25194960832595825,1.209359884262085,-2.407484531402588,2.887640953063965,-2.178865671157837,0.4260094165802002,0.6527618169784546,0.42000001668930054,-1.180000901222229,2.9999942779541016,-0.12398762255907059,3.0000014305114746,-0.0028069927357137203,-0.009156979620456696,-0.015636814758181572,-0.022257085889577866,-0.17283782362937927,-0.25757279992103577,-0.33909693360328674,-0.4173961877822876
0.15,0.0780801996588707,0.06394010782241821,0.0,0.9909961819648743,0.0,0.0,-0.13389001786708832,0.4095214605331421,0.2794349193572998,0.0,0.0,0.0,-4.0520734786987305,-0.37225085496902466,0.6223258972167969,0.4200000464916229,1.0,3.332105279696407e-06,-2.1019018277002033e-06,1.3129569254033413e-07,0.0002673073613550514,0.00026859616627916694,-0.00010459683835506439,-0.0017497853841632605,0.004215648397803307,-0.00012928245996590704,-0.2839799225330353,0.3036721646785736,1.1693525314331055,-2.005582332611084,3.3080153465270996,-2.5846471786499023,0.4260094165802002,0.6527618169784546,0.42000001668930054,-1.130000114440918,3.0000014305114746,-0.15594488382339478,-3.0000007152557373,-0.008397904224693775,-0.015992863103747368,-0.023663217201828957,-0.031421732157468796,-0.405107706785202,-0.4752037525177002,-0.5418990254402161,-0.6053485870361328
0.16666666666666666,0.0810331255197525,0.07217203080654144,0.0,0.9822869300842285,0.0,0.0,-0.18738284707069397,0.1642736941576004,0.46311357617378235,0.0,0.0,0.0,-7.088019371032715,-0.37225088477134705,0.6223258972167969,0.4200000464916229,1.0,3.737186489161104e-06,-2.233031182186096e-06,-1.876633604069866e-07,0.0002643294574227184,0.00026626838371157646,-0.00010445830412209034,-0.0017118845134973526,0.004157516174018383,-0.00013001053594052792,-0.315824031829834,0.36462247371673584,1.1168212890625,-1.7859948873519897,3.8987374305725098,-3.489150047302246,0.4260094165802002,0.6527618169784546,0.42000001668930054,-1.0799996852874756,2.9999990463256836,-0.18989497423171997,-1.1995402574539185,-0.019329804927110672,-0.02756468392908573,-0.035823434591293335,-0.04412573575973511,-0.586613655090332,-0.6315175890922546,-0.6717489361763,-0.707534670829773
0.18333333333333332,0.08991516381502151,0.07586748152971268,0.0,0.9753556847572327,0.0,0.0,-0.2206384241580963,0.5958282351493835,0.23285594582557678,0.0,0.0,0.0,-2.736945152282715,-0.37225088477134705,0.6223259568214417,0.4200000464916229,0.9999999403953552,3.660124548332533e-06,-2.302147322552628e-06,2.52845069326213e-07,0.0002669083187356591,0.0002676025324035436,-0.00010412652045488358,-0.0017412957968190312,0.004211513791233301,-0.0001278699201066047,-0.34737709164619446,0.42447251081466675,1.0519943237304688,-1.5684763193130493,3.6769659519195557,-4.343087196350098,0.4260094165802002,0.6527618169784546,0.42000001668930054,-1.029996633529663,3.0000016689300537,-0.238439679145813,-3.000000238418579,-0.026455752551555634,-0.035257354378700256,-0.0440148301422596,-0.052754539996385574,-0.611793041229248,-0.6013731956481934,-0.5894153714179993,-0.5765213370323181
0.2,0.09335413575172424,0.08292824774980545,0.0,0.9647006392478943,0.0,0.0,-0.26334893703460693,0.16760903596878052,0.4346536099910736,0.0,0.0,0.0,-5.821399688720703,-0.37225088477134705,0.6223258972167969,0.4200000464916229,1.0,3.5906891753256787e-06,-2.300306277902564e-06,1.3872099202671961e-07,0.0002665471110958606,0.00026732077822089195,-0.00010423827916383743,-0.0017326769884675741,0.004203524440526962,-0.00012820553092751652,-0.37167784571647644,0.4833067059516907,0.9713109731674194,-1.1933963298797607,3.514106512069702,-5.084050178527832,0.4260094165802002,0.6527618169784546,0.42000001668930054,-0.9799867272377014,3.0000016689300537,-0.2884676456451416,-3.000000238418579,-0.042494989931583405,-0.05127469822764397,-0.059592749923467636,-0.06787248700857162,-0.8547027111053467,-0.8754647970199585,-0.8937557935714722,-0.9095332622528076
0.21666666666666667,0.09511875361204147,0.08665888011455536,0.0,0.9588490724563599,0.0,0.0,-0.2839163541793823,0.06195826828479767,0.13854911923408508,0.0,0.0,0.0,-1.4656037092208862,-0.37225088477134705,0.6223259568214417,0.4200000464916229,1.0,3.6067892779101385e-06,-2.2609169718634803e-06,1.961327633637211e-08,0.00026447148411534727,0.0002655840653460473,-0.00010396447032690048,-0.0017088138265535235,0.0041642808355391026,-0.00012832574429921806,-0.3928602635860443,0.5325523614883423,0.8830711841583252,-0.9712526798248291,2.680821418762207,-5.519801139831543,0.4260094165802002,0.6527618169784546,0.42000001668930054,-0.9299764633178711,2.999997854232788,-0.3384978771209717,-3.0000007152557373,-0.05714111030101776,-0.06575477123260498,-0.07390432059764862,-0.08200381696224213,-0.9158160090446472,-0.8855545520782471,-0.8569139242172241,-0.8286970853805542
0.23333333333333334,0.09252152591943741,0.09296346455812454,0.0,0.9490184187889099,0.0,0.0,-0.31522059440612793,-0.2210053652524948,0.3981551229953766,0.0,0.0,0.0,-4.64402437210083,-0.37225085496902466,0.6223258972167969,0.4200000464916229,0.9999999403953552,3.742087073987932e-06,-2.227409822808113e-06,4.589062712057057e-07,0.00026475198683328927,0.00026671282830648124,-0.0001045342069119215,-0.0017188993515446782,0.0041658165864646435,-0.00013019447214901447,-0.4052119553089142,0.5726962685585022,0.7843211889266968,-0.4432069957256317,2.110539436340332,-6.095686912536621,0.4260094165802002,0.6527618169784546,0.42000001668930054,-0.8799657821655273,2.9999983310699463,-0.3885294497013092,-2.999998092651367,-0.07402228564023972,-0.08253335952758789,-0.09058579802513123,-0.0985901728272438,-0.9905745983123779,-0.9925572276115417,-0.9871087074279785,-0.981650710105896
0.25,0.0949854925274849,0.09408634901046753,0.0,0.9444517493247986,0.0,0.0,-0.32865017652511597,0.20129744708538055,0.09352149814367294,0.0,0.0,0.0,-0.5239944458007812,-0.37225088477134705,0.6223258972167969,0.4200000464916229,1.0,3.394239683984779e-06,-2.282012019350077e-06,1.3362385686832567e-07,0.0002667936496436596,0.0002679401950445026,-0.00010439474135637283,-0.0017418229253962636,0.00420664856210351,-0.00012884348689112812,-0.4147079288959503,0.5999472141265869,0.6840149760246277,-0.27238696813583374,1.200431227684021,-6.032310485839844,0.4260094165802002,0.6527618169784546,0.42000001668930054,-0.8299562335014343,2.999994993209839,-0.4385610818862915,-3.000004529953003,-0.08756101131439209,-0.09596201777458191,-0.10379522293806076,-0.11156073957681656,-0.9899477958679199,-0.9897640943527222,-0.9628660082817078,-0.8966068029403687
0.26666666666666666,0.09292984008789062,0.09417110681533813,0.0,0.936025083065033,0.0,0.0,-0.35193324089050293,-0.23967133462429047,-0.02895493432879448,0.0,0.0,0.0,-3.789104461669922,-0.37225088477134705,0.6223259568214417,0.4200000464916229,1.0,3.6832336718362058e-06,-2.31005606110557e-06,2.1009948625305697e-07,0.0002647906949277967,0.00026625851751305163,-0.00010421290062367916,-0.0017168435733765364,0.004168881103396416,-0.00012909741781186312,-0.41271257400512695,0.6140573620796204,0.5842350721359253,0.5658242702484131,0.48806291818618774,-5.6383891105651855,0.4260094165802002,0.6527618169784546,0.42000001668930054,-0.7799474596977234,2.9999992847442627,-0.48859113454818726,-2.9999985694885254,-0.10555162280797958,-0.11361982673406601,-0.12120376527309418,-0.12877841293811798,-1.0138369798660278,-1.0104033946990967,-1.0077871084213257,-1.005711555480957
0.2833333333333333,0.08747172355651855,0.09199314564466476,0.0,0.9341471195220947,0.0,0.0,-0.3568881154060364,-0.31382232904434204,-0.19376212358474731,0.0,0.0,0.0,0.33051738142967224,-0.37225088477134705,0.6223258972167969,0.4200000464916229,1.0,3.3067506137740565e-06,-2.2124868337414227e-06,2.625712340886821e-07,0.0002666061627678573,0.0002674513962119818,-0.00010424340143799782,-0.0017352820141240954,0.004204321652650833,-0.00012828712351620197,-0.40338394045829773,0.6214457750320435,0.497727632522583,0.6666680574417114,0.4562087655067444,-4.915691375732422,0.4260094165802002,0.6527618169784546,0.42000001668930054,-0.729938805103302,3.0000016689300537,-0.5386197566986084,-3.000000476837158,-0.12237894535064697,-0.13041670620441437,-0.13797685503959656,-0.14552025496959686,-0.989465057849884,-1.0006057024002075,-1.00043785572052,-1.0003141164779663
0.3,0.08025053143501282,0.08707191050052643,0.0,0.9274554252624512,0.0,0.0,-0.37393373250961304,-0.49443623423576355,-0.3448791205883026,0.0,0.0,0.0,-2.9470043182373047,-0.37225088477134705,0.6223258972167969,0.4200000464916229,1.0,3.6407882362254895e-06,-2.3779157345416024e-06,-4.194236282728525e-07,0.0002660918398760259,0.00026721289032138884,-0.00010421476326882839,-0.0017330169212073088,0.004194211680442095,-0.00012849405175074935,-0.3857899606227875,0.6270967721939087,0.4131792187690735,1.4132938385009766,0.17639198899269104,-5.007596969604492,0.4260094165802002,0.6527618169784546,0.42000001668930054,-0.6799319386482239,3.0,-0.588646650314331,-3.0000014305114746,-0.13972972333431244,-0.14759111404418945,-0.15501603484153748,-0.16245152056217194,-1.0031483173370361,-1.0023916959762573,-1.001810073852539,-1.001342535018921
0.31666666666666665,0.07060008496046066,0.07978291809558868,0.0,0.9275277853012085,0.0,0.0,-0.37375423312187195,-0.6161667704582214,-0.4759712517261505,0.0,0.0,0.0,0.957516074180603,-0.3724682331085205,0.6228911876678467,0.4200000464916229,0.9998091459274292,-2.5020860903168796e-06,3.564289954738342e-06,-0.01953616924583912,-0.034113809466362,0.08350295573472977,-6.0461075918283314e-05,0.003471415489912033,-0.0004599989333655685,-5.264930725097656,-0.38757187128067017,0.6299358010292053,0.4225134253501892,-0.21400859951972961,0.1404719352722168,-0.16629603505134583,0.4260094165802002,0.6527618169784546,0.42000001668930054,-0.6300386190414429,2.999976873397827,-0.6391262412071228,-2.9999964237213135,-0.1477944701910019,-0.15457622706890106,-0.16055259108543396,-0.16610915958881378,-0.5622835159301758,-0.4721929132938385,-0.3661953806877136,-0.2408508062362671
0.3333333333333333,0.058725617825984955,0.0702250599861145,0.0,0.9219114184379578,0.0,0.0,-0.3874008357524872,-0.7575704455375671,-0.6134292483329773,0.0,0.0,0.0,-2.684633255004883,-0.3726881146430969,0.6244621872901917,0.4200015068054199,0.9989198446273804,-2.7712449082173407e-05,2.7585658699535998e-06,-0.046464454382658005,0.006192397326231003,0.1324326992034912,-0.001615733839571476,0.049656350165605545,-0.006625480018556118,-4.814650058746338,-0.3877516984939575,0.6312248706817627,0.4216068685054779,0.07940000295639038,0.10916858166456223,0.14422078430652618,0.4260094165802002,0.6527618169784546,0.42000001668930054,-0.5800334215164185,2.999995470046997,-0.6891652345657349,-3.000000476837158,-0.1577533781528473,-0.16258776187896729,-0.166333869099617,-0.1693296581506729,-0.5972921848297119,-0.45490485429763794,-0.2967151403427124,-0.12037117779254913
0.35,0.05017829313874245,0.05798039957880974,0.0,0.9226712584495544,0.0,0.0,-0.385587602853775,-0.4165985584259033,-0.7826105952262878,0.0,0.0,0.0,1.1593509912490845,-0.3707105219364166,0.6295222043991089,0.42002665996551514,0.9919137358665466,-0.0006410731584765017,-3.098290471825749e-05,-0.12691159546375275,0.3257821500301361,0.5618833303451538,0.04118591547012329,-2.068248987197876,0.3525046408176422,-7.100680351257324,-0.38508206605911255,0.6377080082893372,0.42200809717178345,0.2767074704170227,0.5821526646614075,-0.10699572414159775,0.4260094165802002,0.6527618169784546,0.42000001668930054,-0.5300284624099731,2.9999840259552,-0.7391892671585083,-2.999962091445923,-0.16778844594955444,-0.16985929012298584,-0.1705748587846756,-0.17024829983711243,-0.5507957339286804,-0.38238194584846497,-0.19818784296512604,0.0030970629304647446
0.36666666666666664,0.03971013426780701,0.04420943930745125,0.0,0.9172699451446533,0.0,0.0,-0.3982660174369812,-0.7073241472244263,-0.8508737087249756,0.0,0.0,0.0,-2.617612838745117,-0.3636549413204193,0.6412426829338074,0.41999635100364685,0.985924243927002,0.00028941614436917007,-0.00010767507774289697,-0.1671920269727707,0.4432007670402527,0.7392381429672241,-0.0037327311001718044,-0.13538645207881927,0.16049744188785553,-4.891336441040039,-0.37622806429862976,0.6476993560791016,0.4205549359321594,0.7045189142227173,0.656136155128479,0.11467872560024261,0.4260094165802002,0.6527618169784546,0.42000001668930054,-0.479972779750824,2.9999983310699463,-0.7891961336135864,-2.999966859817505,-0.17892144620418549,-0.1776086837053299,-0.17468087375164032,-0.17045174539089203,-0.6251937747001648,-0.41900962591171265,-0.1964743435382843,0.041802603751420975
0.3833333333333333,0.032316818833351135,0.02769836224615574,0.0,0.8992837071418762,0.0,0.0,-0.4373658299446106,-0.39547601342201233,-1.0327850580215454,0.0,0.0,0.0,-5.996307849884033,-0.3512096107006073,0.6584357619285583,0.42117801308631897,0.9764657020568848,-0.027722587808966637,0.004100494086742401,-0.21384423971176147,0.9963535070419312,1.274034023284912,0.05456573888659477,-0.034429073333740234,-2.0319902896881104,-5.498438835144043,-0.35950541496276855,0.6625363826751709,0.42276954650878906,1.3659858703613281,1.0607118606567383,0.17895036935806274,0.4260094165802002,0.6527618169784546,0.42000001668930054,-0.4299376904964447,2.999992847442627,-0.8392106890678406,-3.000000238418579,-0.1866503655910492,-0.1822345107793808,-0.17585816979408264,-0.16785313189029694,-0.4350767433643341,-0.24760372936725616,-0.0406908243894577,0.184000626206398
0.4,0.028551172465085983,0.008512254804372787,0.0,0.8670909404754639,0.0,0.0,-0.4981498718261719,-0.14932653307914734,-1.2328505516052246,0.0,0.0,0.0,-9.003868103027344,-0.31110379099845886,0.6823465824127197,0.425504207611084,0.9657053351402283,0.010334789752960205,-0.04447297006845474,-0.25559455156326294,3.378434419631958,2.0288658142089844,0.280722439289093,25.36517333984375,-16.231781005859375,-1.4573249816894531,-0.3194832503795624,0.6880654096603394,0.42617571353912354,3.336001396179199,2.0422463417053223,0.4300946593284607,0.4260094165802002,0.6527618169784546,0.42000001668930054,-0.3886905014514923,1.3949670791625977,-0.8051966428756714,2.9967803955078125,-0.19599395990371704,-0.18779751658439636,-0.17744098603725433,-0.16531327366828918,-0.5310724377632141,-0.3056870102882385,-0.07362356036901474,0.16131481528282166
0.4166666666666667,0.027002735063433647,-0.005844048224389553,0.0,0.8175234794616699,0.0,0.0,-0.5758953094482422,-0.05346342548727989,-0.7273976802825928,0.0,0.0,0.0,-11.865221977233887,-0.22862154245376587,0.7203845381736755,0.43219617009162903,0.9384979009628296,0.09577786177396774,-0.09280385822057724,-0.318489670753479,6.374527931213379,2.090421438217163,0.66327303647995,-7.091206073760986,-6.8799309730529785,6.7554931640625,-0.23731893301010132,0.7269362211227417,0.43268296122550964,6.175997734069824,2.744595527648926,0.457815021276474,0.4260094165802002,0.6527618169784546,0.42000001668930054,-0.3751777112483978,0.8220523595809937,-0.7553015947341919,3.0000040531158447,-0.21081210672855377,-0.19885091483592987,-0.18353796005249023,-0.16678282618522644,-0.8641639947891235,-0.7306588292121887,-0.45468953251838684,-0.20831280946731567
0.43333333333333335,0.021909164264798164,-0.012253396213054657,0.0,0.7744258046150208,0.0,0.0,-0.632664680480957,-0.43988311290740967,-0.40364599227905273,0.0,0.0,0.0,-7.202720642089844,-0.12720561027526855,0.7524799108505249,0.4436405599117279,0.8863899111747742,0.1333247572183609,-0.12204717099666595,-0.42619457840919495,6.192533016204834,0.7346275448799133,1.0347234010696411,-8.574553489685059,2.2381982803344727,9.373268127441406,-0.13552409410476685,0.7615872621536255,0.44338420033454895,6.166051387786865,1.677086591720581,0.7111318707466125,0.4260094165802002,0.6527618169784546,0.42000001668930054,-0.36171504855155945,0.7747640013694763,-0.7827084064483643,-2.999866485595703,-0.22524042427539825,-0.21349552273750305,-0.19563919305801392,-0.1742713898420334,-0.5914641618728638,-0.6590335965156555,-0.6530277132987976,-0.44438493251800537
0.45,0.01998119056224823,-0.01787434332072735,0.0,0.755112886428833,0.0,0.0,-0.6555947661399841,-0.011087460443377495,-0.305213987827301,0.0,0.0,0.0,-2.3057215213775635,-0.021284013986587524,0.770115852355957,0.45385080575942993,0.8140613436698914,0.12081778049468994,-0.15087956190109253,-0.5476699471473694,6.40834379196167,-0.3916647434234619,0.700157642364502,-10.82706356048584,0.5326062440872192,13.281234741210938,-0.02994350716471672,0.7821285724639893,0.453687846660614,6.669063568115234,0.7207052707672119,0.6417109966278076,0.4260094165802002,0.6527618169784546,0.42000001668930054,-0.3489595055580139,0.6708952188491821,-0.832733154296875,-3.0000009536743164,-0.23319920897483826,-0.22204288840293884,-0.20383299887180328,-0.17935210466384888,-0.4175776541233063,-0.4197951853275299,-0.38221243023872375,-0.2129562348127365
0.4666666666666667,0.022288285195827484,-0.021028809249401093,0.0,0.7288964986801147,0.0,0.0,-0.6846238970756531,0.2062889188528061,-0.11119752377271652,0.0,0.0,0.0,-5.5878472328186035,0.08516299724578857,0.7691664099693298,0.4607589840888977,0.7411580681800842,0.10552901029586792,-0.15980654954910278,-0.6434361338615417,6.592640399932861,-0.954494059085846,0.613361656665802,-2.407609224319458,-14.00473690032959,4.030358791351318,0.07777876406908035,0.7852082252502441,0.46144142746925354,6.345290184020996,-0.4105753004550934,0.3869786858558655,0.4260094165802002,0.6527618169784546,0.42000001668930054,-0.3403778672218323,0.4109838604927063,-0.8827590942382812,-3.0000016689300537,-0.23912321031093597,-0.22783446311950684,-0.20909035205841064,-0.18241512775421143,-0.30492448806762695,-0.2816235423088074,-0.25047567486763,-0.15041323006153107
0.48333333333333334,0.02345534786581993,-0.022474797442555428,0.0,0.7154991626739502,0.0,0.0,-0.6986135840415955,0.0075731705874204636,-0.018812375143170357,0.0,0.0,0.0,-1.1717318296432495,0.184376060962677,0.7561205625534058,0.46564385294914246,0.6687292456626892,0.08245567977428436,-0.1482270509004593,-0.723899781703949,5.1687774658203125,-2.084761619567871,0.13139058649539948,-16.40744400024414,-2.9276013374328613,26.406932830810547,0.18019713461399078,0.7717325091362,0.466611385345459,5.985095500946045,-1.2524925470352173,0.3298376798629761,0.4260094165802002,0.6527618169784546,0.42000001668930054,-0.33291104435920715,0.3115460276603699,-0.9327837228775024,-2.9998321533203125,-0.2399742603302002,-0.23183928430080414,-0.21259745955467224,-0.18484936654567719,-0.014034470543265343,-0.19742843508720398,-0.17441460490226746,-0.1457047015428543
0.5,0.027180716395378113,-0.028842471539974213,0.0,0.6925012469291687,0.0,0.0,-0.7214166522026062,0.3123851716518402,-0.5775861144065857,0.0,0.0,0.0,-4.952568531036377,0.2719149589538574,0.7335556149482727,0.4642505347728729,0.6172540187835693,0.06324785202741623,-0.14486871659755707,-0.7707205414772034,4.596502780914307,-1.7583086490631104,0.009755482897162437,-4.322747230529785,7.511740207672119,-0.427884042263031,0.2697273790836334,0.7490724325180054,0.46620190143585205,5.0039472579956055,-1.6531203985214233,-0.2501128911972046,0.4260094165802002,0.6527618169784546,0.42000001668930054,-0.32654479146003723,0.3818604350090027,-0.9828077554702759,-3.0000016689300537,-0.23386263847351074,-0.22915835678577423,-0.21083560585975647,-0.18416407704353333,0.5461108684539795,0.3552184998989105,0.2623199224472046,0.14217476546764374
0.5166666666666666,0.03258673846721649,-0.03383339196443558,0.0,0.6818370223045349,0.0,0.0,-0.7315040826797485,0.3363964259624481,-0.17781075835227966,0.0,0.0,0.0,-0.736823558807373,0.3433574140071869,0.7043299674987793,0.456967830657959,0.5315181016921997,0.01219907682389021,-0.15551131963729858,-0.8325598239898682,3.559913158416748,-2.1337273120880127,-0.3309786021709442,2.131739377975464,7.948287487030029,0.8711846470832825,0.3408466577529907,0.721199631690979,0.4610484540462494,3.7350411415100098,-1.8059362173080444,-0.4538782835006714,0.4260094165802002,0.6527618169784546,0.42000001668930054,-0.31570979952812195,0.8344643115997314,-1.0328304767608643,-2.9996440410614014,-0.2277107685804367,-0.22500142455101013,-0.20787157118320465,-0.183173269033432,0.3256392776966095,0.24316737055778503,0.16655099391937256,0.028918718919157982
0.5333333333333333,0.03940082713961601,-0.03314012661576271,0.0,0.6622330546379089,0.0,0.0,-0.7492979168891907,0.44953256845474243,0.12349389493465424,0.0,0.0,0.0,-4.1281819343566895,0.39642199873924255,0.6785778403282166,0.44383367896080017,0.5090512037277222,-0.015064441598951817,-0.134408637881279,-0.8500435948371887,2.627218723297119,-1.8586853742599487,-0.7162808179855347,-5.48800802230835,10.468504905700684,6.809271812438965,0.3948938250541687,0.6946387887001038,0.44875967502593994,2.7767956256866455,-1.5086696147918701,-0.9325891733169556,0.4260094165802002,0.6527618169784546,0.42000001668930054,-0.30134353041648865,0.7692450881004333,-1.0828526020050049,-2.999220132827759,-0.22203846275806427,-0.22080737352371216,-0.2055441290140152,-0.1837780475616455,0.36609742045402527,0.2826065123081207,0.14812923967838287,-0.05509210005402565
0.55,0.04883330687880516,-0.03241140395402908,0.0,0.6556735038757324,0.0,0.0,-0.7550445199012756,0.6007071733474731,0.09469909220933914,0.0,0.0,0.0,-0.07513885945081711,0.4355728030204773,0.6548337936401367,0.42560845613479614,0.48974812030792236,-0.05107542872428894,-0.10751328617334366,-0.8637006878852844,1.803654670715332,-1.8931866884231567,-0.9744267463684082,-2.3357064723968506,8.433747291564941,11.801423072814941,0.43462690711021423,0.669948935508728,0.4310362935066223,1.9216887950897217,-1.40865159034729,-1.1803195476531982,0.4260094165802002,0.6527618169784546,0.42000001668930054,-0.29068297147750854,0.47153082489967346,-1.1328747272491455,-3.0000014305114746,-0.21362732350826263,-0.2140733152627945,-0.20163652300834656,-0.1838081181049347,0.4933658242225647,0.40347611904144287,0.22614841163158417,-0.019717948511242867
0.5666666666666667,0.055760156363248825,-0.030665310099720955,0.0,0.6387075185775757,0.0,0.0,-0.7694495916366577,0.3626304864883423,0.19559523463249207,0.0,0.0,0.0,-3.5925228595733643,0.4568554162979126,0.6445612907409668,0.4208065867424011,0.4983466565608978,-0.018109990283846855,-0.008760959841310978,-0.8667443990707397,0.7081707715988159,-0.7733587026596069,0.10797009617090225,-7.238065719604492,3.398409128189087,9.882003784179688,0.4551737308502197,0.6568559408187866,0.42535722255706787,0.7417410612106323,-0.39452821016311646,0.13502240180969238,0.4260094165802002,0.6527618169784546,0.42000001668930054,-0.28480809926986694,0.3240714967250824,-1.0953830480575562,3.0000083446502686,-0.20121556520462036,-0.2040441930294037,-0.19544290006160736,-0.18234071135520935,0.7440131306648254,0.6072078347206116,0.37606221437454224,0.09538184106349945
0.5833333333333334,0.06293975561857224,-0.029717791825532913,0.0,0.6359606981277466,0.0,0.0,-0.7717214226722717,0.45079556107521057,0.02084246650338173,0.0,0.0,0.0,0.5655007362365723,0.46318697929382324,0.6380220055580139,0.4215888977050781,0.5179328322410583,-0.021348899230360985,0.03099108301103115,-0.85459303855896,-0.022527283057570457,-0.43553224205970764,-0.005834650248289108,10.548983573913574,2.8964040279388428,3.3075368404388428,0.4604797661304474,0.6498410701751709,0.42612600326538086,-0.021373726427555084,-0.3790600895881653,-0.07768171280622482,0.4260094165802002,0.6527618169784546,0.42000001668930054,-0.29437941312789917,-1.126564860343933,-1.1182918548583984,-3.0,-0.19214433431625366,-0.19620853662490845,-0.19061718881130219,-0.1814393252134323,0.4364267885684967,0.3939168155193329,0.23701463639736176,0.02333144284784794
0.6,0.06921909004449844,-0.02596161514520645,0.0,0.6254531145095825,0.0,0.0,-0.780261754989624,0.2988552749156952,0.24205036461353302,0.0,0.0,0.0,-2.98842716217041,0.46451619267463684,0.6346374750137329,0.4225625991821289,0.5324647426605225,-0.03633924201130867,0.05724248290061951,-0.8437321186065674,0.17998267710208893,-0.03321252390742302,0.11262407898902893,0.9846341013908386,4.844589710235596,2.7999837398529053,0.46167653799057007,0.6469590663909912,0.4266282320022583,0.19280248880386353,-0.037816986441612244,0.15115821361541748,0.4260094165802002,0.6527618169784546,0.42000001668930054,-0.3124958574771881,-1.038698673248291,-1.1682322025299072,-2.998934745788574,-0.1856822520494461,-0.19053207337856293,-0.18756642937660217,-0.18182475864887238,0.5061922669410706,0.42955073714256287,0.24790723621845245,0.026843279600143433
0.6166666666666667,0.07545577734708786,-0.025177424773573875,0.0,0.6255504488945007,0.0,0.0,-0.780183732509613,0.40601953864097595,-0.010791686363518238,0.0,0.0,0.0,0.9143829941749573,0.4647672474384308,0.6340183615684509,0.4229811728000641,0.5658955574035645,-0.04264632239937782,0.061293985694646835,-0.8210886120796204,-0.22374381124973297,-0.043573372066020966,-0.01870228350162506,-0.596966028213501,-2.2840044498443604,3.718424081802368,0.45989373326301575,0.6468009352684021,0.4290013909339905,-0.36234793066978455,0.03857073932886124,0.16113099455833435,0.4260094165802002,0.6527618169784546,0.42000001668930054,-0.3499148488044739,-2.999997854232788,-1.2182221412658691,-2.9999992847442627,-0.1785615086555481,-0.18413066864013672,-0.18363216519355774,-0.18101315200328827,0.3655020594596863,0.3432348668575287,0.21754613518714905,0.05353255197405815
0.6333333333333333,0.08425955474376678,-0.02160714380443096,0.0,0.6482223868370056,0.0,0.0,-0.7614510655403137,0.5552138686180115,0.24502032995224,0.0,0.0,0.0,4.302806377410889,0.4598248600959778,0.6343415379524231,0.42119958996772766,0.5868483185768127,-0.018587308004498482,0.01881317049264908,-0.8092648386955261,-0.3441174626350403,0.09997861832380295,-0.11642783880233765,-3.706150770187378,-7.0659260749816895,2.3622310161590576,0.45401495695114136,0.6493220925331116,0.43155401945114136,-0.31952956318855286,0.29077860713005066,0.1729794293642044,0.4260094165802002,0.6527618169784546,0.42000001668930054,-0.39996564388275146,-2.999197483062744,-1.2681828737258911,-2.998624563217163,-0.17396484315395355,-0.1798335611820221,-0.18121221661567688,-0.18099752068519592,0.3654297888278961,0.3221312463283539,0.19355231523513794,0.04125499352812767
0.65,0.0947118028998375,-0.021894903853535652,0.0,0.6568706035614014,0.0,0.0,-0.7540033459663391,0.6530435085296631,-0.03743927180767059,0.0,0.0,0.0,0.3062342405319214,0.45495426654815674,0.635854959487915,0.42000195384025574,0.6017873287200928,2.8595821277122013e-05,-3.3453048672527075e-05,-0.7986564040184021,-0.3070550858974457,0.12501023709774017,0.00309181259945035,-0.048988327383995056,-0.1566862314939499,1.538364052772522,0.44932126998901367,0.6557334661483765,0.4354651868343353,-0.31193414330482483,0.3243836760520935,0.2725948691368103,0.4260094165802002,0.6527618169784546,0.42000001668930054,-0.4500034749507904,-2.9999704360961914,-1.3181538581848145,-2.9998931884765625,-0.16577592492103577,-0.17236103117465973,-0.17565852403640747,-0.17759454250335693,0.3503977358341217,0.3587970435619354,0.30240610241889954,0.234541118144989
0.6666666666666666,0.10662186145782471,-0.02517162449657917,0.0,0.6424039602279663,0.0,0.0,-0.766366183757782,0.7457884550094604,-0.26608648896217346,0.0,0.0,0.0,-3.2089123725891113,0.4507538974285126,0.6375607252120972,0.4200000464916229,0.609390139579773,6.457360655076627e-07,4.978164156455023e-07,-0.7928704619407654,-0.2331515997648239,0.09449687600135803,9.313225746154785e-10,7.68993828614839e-08,-3.1591107507722427e-09,1.0116262435913086,0.447349488735199,0.6608952879905701,0.4422556757926941,0.0665804073214531,0.2773759067058563,0.6721533536911011,0.4260094165802002,0.6527618169784546,0.42000001668930054,-0.5000168681144714,-2.9999895095825195,-1.3681721687316895,-3.0000007152557373,-0.16228631138801575,-0.1681821197271347,-0.17168408632278442,-0.17391665279865265,0.1262233853340149,0.19407890737056732,0.21729585528373718,0.23918554186820984
0.6833333333333333,0.12163281440734863,-0.02404928207397461,0.0,0.6050768494606018,0.0,0.0,-0.7961670756340027,0.878078043460846,0.10096339136362076,0.0,0.0,0.0,-6.629426956176758,0.44781243801116943,0.6387514472007751,0.4200001657009125,0.6138465404510498,-3.723301915670163e-06,5.902906195842661e-06,-0.7894253134727478,-0.15784765779972076,0.06366654485464096,-0.00040821125730872154,-0.005046243313699961,-0.019501738250255585,0.561596691608429,0.45713040232658386,0.6593340635299683,0.4604697823524475,1.1744335889816284,-0.27849382162094116,1.5864441394805908,0.4260094165802002,0.6527618169784546,0.42000001668930054,-0.5500293374061584,-2.99985408782959,-1.4181904792785645,-2.999986171722412,-0.16734620928764343,-0.1708061248064041,-0.17253537476062775,-0.17305073142051697,-0.31808754801750183,-0.17322608828544617,-0.059057727456092834,0.056323811411857605
0.7,0.13310039043426514,-0.021958908066153526,0.0,0.5823150873184204,0.0,0.0,-0.8129631876945496,0.6097991466522217,0.15380749106407166,0.0,0.0,0.0,-2.3462347984313965,0.44612550735473633,0.6394328474998474,0.4200000464916229,0.6158145666122437,4.263290804829012e-07,-3.219822275468687e-08,-0.7878910303115845,-0.08201631903648376,0.032861340790987015,-4.192697815597057e-06,-0.00021431622735690325,9.915973350871354e-05,0.21587593853473663,0.4776756465435028,0.6602373123168945,0.48745936155319214,1.1658711433410645,0.30059799551963806,1.6294828653335571,0.4260094165802002,0.6527618169784546,0.42000001668930054,-0.5708205103874207,0.2332085371017456,-1.4682087898254395,-3.000000476837158,-0.1699257791042328,-0.17210781574249268,-0.17299382388591766,-0.17262330651283264,-0.05140786990523338,-0.025156790390610695,-0.02296099252998829,-0.019250618293881416
0.7166666666666667,0.13973252475261688,-0.018033603206276894,0.0,0.5855535268783569,0.0,0.0,-0.8106337785720825,0.35189089179039,0.32890331745147705,0.0,0.0,0.0,1.3175996541976929,0.4456762671470642,0.639613151550293,0.4200000464916229,0.6161689162254333,3.613545231928583e-07,-1.608442801170895e-07,-0.7876139283180237,-0.00616990402340889,0.0024616410955786705,-3.796769306063652e-06,-0.0001937479682965204,0.0001265248138224706,0.008902483619749546,0.4940713047981262,0.6681691408157349,0.5090351104736328,0.705439031124115,0.5381046533584595,0.9884957671165466,0.4260094165802002,0.6527618169784546,0.42000001668930054,-0.545988142490387,2.5260045528411865,-1.4295721054077148,2.999999761581421,-0.16949665546417236,-0.17137083411216736,-0.17228540778160095,-0.1719283163547516,-0.0378434881567955,-7.066410034894943e-08,0.017498282715678215,0.03202615678310394
0.7333333333333333,0.14352869987487793,-0.017389720305800438,0.0,0.609698474407196,0.0,0.0,-0.7926334142684937,0.18405269086360931,-0.05867357552051544,0.0,0.0,0.0,4.564303874969482,0.4456760287284851,0.6396133899688721,0.4200000464916229,0.6161691546440125,6.969723358452029e-07,-3.53553832610487e-06,-0.7876138091087341,0.00017565011512488127,-0.0002732694265432656,-8.623744361102581e-05,0.005831065587699413,-0.00011077433737227693,-0.0005804699612781405,0.49863165616989136,0.6772185564041138,0.5215258598327637,-0.19035957753658295,0.557968258857727,0.5883921384811401,0.4260094165802002,0.6527618169784546,0.42000001668930054,-0.521456778049469,0.5656651854515076,-1.3795194625854492,3.0000007152557373,-0.16884690523147583,-0.17000490427017212,-0.17053067684173584,-0.16988958418369293,0.07815305143594742,0.12401796132326126,0.1506034880876541,0.16786225140094757
0.75,0.14406718313694,-0.020090164616703987,0.0,0.6176556944847107,0.0,0.0,-0.78644859790802,-0.030685249716043472,-0.1600784808397293,0.0,0.0,0.0,0.0903766080737114,0.44567596912384033,0.6396133899688721,0.4200000464916229,0.6161691546440125,4.424330199981341e-07,-3.412349315112806e-06,-0.7876138091087341,0.00016258115647360682,-0.0002808920980896801,-9.892834350466728e-05,0.0059796287678182125,-0.0007613942143507302,-0.0005877816001884639,0.49566128849983215,0.683944821357727,0.5252254009246826,-0.16672563552856445,0.31430768966674805,0.0502607524394989,0.4260094165802002,0.6527618169784546,0.42000001668930054,-0.5510560870170593,-3.0000007152557373,-1.3294668197631836,2.999999761581421,-0.16986604034900665,-0.16962000727653503,-0.16897927224636078,-0.16731573641300201,-0.11678442358970642,-0.012634963728487492,0.08147014677524567,0.16774660348892212
0.7666666666666666,0.14611200988292694,-0.02089199796319008,0.0,0.617889404296875,0.0,0.0,-0.7862650156021118,0.17715215682983398,-0.02437453158199787,0.0,0.0,0.0,0.008933818899095058,0.44567596912384033,0.6396133899688721,0.4200000464916229,0.6161692142486572,5.182628797228972e-07,-3.5880877931049326e-06,-0.7876138091087341,0.00016028163372538984,-0.00027984296320937574,-9.840657003223896e-05,0.005967851262539625,-0.0007839889731258154,-0.0005822003586217761,0.4958896040916443,0.688127875328064,0.5269135236740112,0.1829395890235901,0.21593981981277466,0.2390443980693817,0.4260094165802002,0.6527618169784546,0.42000001668930054,-0.6010550260543823,-3.0000007152557373,-1.3488491773605347,-2.999999523162842,-0.17457108199596405,-0.1720721423625946,-0.16924987733364105,-0.16549284756183624,-0.2969457507133484,-0.15734146535396576,-0.015949439257383347,0.12387998402118683
0.7833333333333333,0.1501031219959259,-0.024162940680980682,0.0,0.6023056507110596,0.0,0.0,-0.7982655763626099,0.2963310480117798,-0.24579748511314392,0.0,0.0,0.0,-3.210944652557373,0.44567596912384033,0.6396133899688721,0.4200000464916229,0.6161690950393677,4.406655023103667e-07,-3.5764714994002134e-06,-0.7876139283180237,0.0001625597506063059,-0.00028056875453330576,-9.885500185191631e-05,0.005972980055958033,-0.0007576244533993304,-0.0005874073831364512,0.500491201877594,0.6902718544006348,0.5314140319824219,0.38181158900260925,-0.007622022181749344,0.4463256299495697,0.4260094165802002,0.6527618169784546,0.42000001668930054,-0.651056170463562,-2.999997138977051,-1.3988674879074097,-3.0,-0.17911389470100403,-0.17438553273677826,-0.16920170187950134,-0.16303890943527222,-0.2995661199092865,-0.15686944127082825,-0.0032277486752718687,0.15427157282829285
0.8,0.15964099764823914,-0.021833360195159912,0.0,0.5995007157325745,0.0,0.0,-0.8003742098808289,0.6703534722328186,0.2653219997882843,0.0,0.0,0.0,0.6603718996047974,0.44567596912384033,0.6396133303642273,0.4200000464916229,0.6161688566207886,4.817764533981972e-07,-3.575860773707973e-06,-0.7876139879226685,0.00016466605302412063,-0.0002796276530716568,-9.945826604962349e-05,0.005938830319792032,-0.000729195773601532,-0.0005915194051340222,0.5040004849433899,0.6902863383293152,0.5429943799972534,0.09926003217697144,0.10326865315437317,0.9466803073883057,0.4260094165802002,0.6527618169784546,0.42000001668930054,-0.6681492924690247,0.6470139026641846,-1.4488857984542847,-3.0,-0.18912610411643982,-0.18160881102085114,-0.17360635101795197,-0.164736807346344,-0.5884202718734741,-0.4570564031600952,-0.3265465795993805,-0.20519240200519562
0.8166666666666667,0.1652209758758545,-0.023262260481715202,0.0,0.6206823587417603,0.0,0.0,-0.7840620875358582,0.28951191902160645,-0.24824298918247223,0.0,0.0,0.0,3.4354751110076904,0.44567596912384033,0.6396133899688721,0.4200000464916229,0.6161691546440125,4.288159232146427e-07,-3.4033646443276666e-06,-0.7876138091087341,0.00016270080232061446,-0.0002805841213557869,-9.889202192425728e-05,0.005971341393887997,-0.0007571470341645181,-0.0005877480725757778,0.5022545456886292,0.6934994459152222,0.5543057918548584,-0.2737150192260742,0.18202227354049683,0.35547739267349243,0.4260094165802002,0.6527618169784546,0.42000001668930054,-0.6450324058532715,1.9944368600845337,-1.4103025197982788,3.0,-0.19202670454978943,-0.18337731063365936,-0.17422816157341003,-0.16432315111160278,-0.056150540709495544,-0.019058410078287125,0.02122681401669979,0.05668051168322563
0.8333333333333334,0.16713924705982208,-0.02969278395175934,0.0,0.6223322153091431,0.0,0.0,-0.7827532291412354,0.06333891302347183,-0.4347437918186188,0.0,0.0,0.0,-0.7827446460723877,0.44567596912384033,0.6396133899688721,0.4200000464916229,0.6161692142486572,4.464835114958987e-07,-3.5707239476323593e-06,-0.7876138091087341,0.0001625358418095857,-0.0002805575495585799,-9.884312748908997e-05,0.005972890183329582,-0.0007577332435175776,-0.0005873409099876881,0.49585825204849243,0.6942366361618042,0.556647777557373,-0.4670479893684387,-0.08941149711608887,0.11621422320604324,0.4260094165802002,0.6527618169784546,0.42000001668930054,-0.6477050185203552,-1.9687803983688354,-1.3602498769760132,3.000000238418579,-0.19345839321613312,-0.1841491311788559,-0.17425769567489624,-0.16367337107658386,-0.06262928992509842,-0.026932794600725174,0.014288637787103653,0.05227649211883545
0.85,0.1705835610628128,-0.03250814601778984,0.0,0.6340375542640686,0.0,0.0,-0.7733022570610046,0.24153532087802887,-0.13409769535064697,0.0,0.0,0.0,2.501556873321533,0.44567596912384033,0.6396133899688721,0.4200000464916229,0.6161691546440125,5.051043672210653e-07,-3.1948941341397585e-06,-0.7876137495040894,0.0001559108932269737,-0.0002815744956023991,-9.719980880618095e-05,0.006032448261976242,-0.0008435078780166805,-0.0005731852725148201,0.49188363552093506,0.693363606929779,0.5594339370727539,-0.006808094680309296,0.057066965848207474,0.24811138212680817,0.4260094165802002,0.6527618169784546,0.42000001668930054,-0.6503850817680359,1.3608813285827637,-1.3790864944458008,-3.0,-0.19567903876304626,-0.1857842653989792,-0.17512428760528564,-0.16374553740024567,-0.003694499609991908,-0.005115068051964045,0.011541998945176601,0.037476636469364166
0.8666666666666667,0.17180822789669037,-0.03892766311764717,0.0,0.6329627633094788,0.0,0.0,-0.7741822600364685,0.04587806016206741,-0.3681904077529907,0.0,0.0,0.0,-1.175506591796875,0.44567596912384033,0.6396133899688721,0.4200000464916229,0.6161691546440125,4.519358469678991e-07,-3.7143397548788926e-06,-0.7876137495040894,0.00016242967103607953,-0.0002805628173518926,-9.881984442472458e-05,0.0059736426919698715,-0.0007590694003738463,-0.0005871126195415854,0.49088385701179504,0.6927672624588013,0.5616198182106018,-0.1650829315185547,-0.21605058014392853,0.14672739803791046,0.4260094165802002,0.6527618169784546,0.42000001668930054,-0.6658507585525513,-2.839820384979248,-1.3407062292099,3.000000238418579,-0.1928040236234665,-0.18340551853179932,-0.17293447256088257,-0.16156381368637085,0.06719516962766647,0.06164839491248131,0.07049345225095749,0.08609286695718765
