vladlanda/robotic-transformer/data/env_000_episode_0029.csv
sim_time_s,robot_box_x,robot_box_y,robot_box_z,robot_box_quat_w,robot_box_quat_x,robot_box_quat_y,robot_box_quat_z,robot_box_linvel_x,robot_box_linvel_y,robot_box_linvel_z,robot_box_angvel_x,robot_box_angvel_y,robot_box_angvel_z,cube_world_x,cube_world_y,cube_world_z,cube_quat_w,cube_quat_x,cube_quat_y,cube_quat_z,cube_linvel_x,cube_linvel_y,cube_linvel_z,cube_angvel_x,cube_angvel_y,cube_angvel_z,endpoint_world_x,endpoint_world_y,endpoint_world_z,endpoint_linvel_x,endpoint_linvel_y,endpoint_linvel_z,target_cube_world_x,target_cube_world_y,target_cube_world_z,gripper_actual_pos_rad_gp_leftgearjoint,gripper_actual_vel_rad_s_gp_leftgearjoint,gripper_actual_pos_rad_gp_rotatingjoint,gripper_actual_vel_rad_s_gp_rotatingjoint,motor_angle_rad_joint1,motor_angle_rad_joint2,motor_angle_rad_joint3,motor_angle_rad_joint4,motor_speed_rad_s_joint1,motor_speed_rad_s_joint2,motor_speed_rad_s_joint3,motor_speed_rad_s_joint4
0.0,0.0,0.0,0.0,1.0,0.0,0.0,0.0,0.0,0.0,0.0,0.0,0.0,0.0,-0.4239040017127991,0.6537821292877197,0.41999998688697815,1.0,0.0,0.0,0.0,0.0,0.0,0.0,0.0,0.0,0.0,3.42540442943573e-06,-0.005000244826078415,1.313499927520752,0.0,0.0,0.0,0.3716120421886444,0.7718039751052856,0.42000001668930054,-1.5707999467849731,0.0,0.0,0.0,0.0,0.0,0.0,0.0,0.0,0.0,0.0,0.0
0.016666666666666666,0.0028778850100934505,0.0021806680597364902,0.0,0.9998081922531128,0.0,0.0,0.019586581736803055,0.24087215960025787,0.18240931630134583,0.0,0.0,0.0,3.1418697834014893,-0.4239041209220886,0.6537818312644958,0.41999998688697815,1.0,3.279964630564791e-06,-8.339746386809566e-07,8.465587342243452e-08,-1.9833529222523794e-05,0.00017983045836444944,-6.132945418357849e-05,0.0009432713268324733,-0.004689474124461412,-0.00031981561915017664,-0.007110234349966049,0.003379564033821225,1.3159373998641968,-0.8143353462219238,0.9868683815002441,0.18095196783542633,0.3716120421886444,0.7718039751052856,0.42000001668930054,-1.5301095247268677,3.0000011920928955,-0.04584788903594017,-2.9999992847442627,0.0008691533003002405,0.0007963840034790337,0.0007110277656465769,0.0006108740926720202,0.11094217747449875,0.09756709635257721,0.08334315568208694,0.06823883205652237
0.03333333333333333,0.008960962295532227,0.006801874842494726,0.0,0.9997960329055786,0.0,0.0,0.020196830853819847,0.40702024102211,0.3153069317340851,0.0,0.0,0.0,-0.8691299557685852,-0.4239042401313782,0.6537817716598511,0.4200000464916229,1.0,3.3908354453160428e-06,-2.1324485715012997e-06,-3.710144014235084e-08,0.00026357831666246057,0.00026937946677207947,-0.00010509486310184002,-0.0017707672668620944,0.004130808170884848,-0.000135478752781637,-0.027545839548110962,0.025936003774404526,1.3166368007659912,-1.5913951396942139,1.6105153560638428,-0.08021341264247894,0.3716120421886444,0.7718039751052856,0.42000001668930054,-1.4800903797149658,3.000002384185791,-0.09588771313428879,-3.0000007152557373,0.002990170381963253,0.002652805997058749,0.002277403138577938,0.0018608811078593135,0.16422614455223083,0.13977156579494476,0.11383253335952759,0.0863163024187088
0.05,0.017731331288814545,0.013768665492534637,0.0,0.9993823170661926,0.0,0.0,0.03514176979660988,0.5934671759605408,0.46494096517562866,0.0,0.0,0.0,2.651000499725342,-0.42390426993370056,0.6537818312644958,0.4200000464916229,1.0,3.765139354072744e-06,-2.2119161258160602e-06,5.630195420991413e-09,0.0002653095289133489,0.00026691411039792,-0.00010440382175147533,-0.0017242460744455457,0.004177400842308998,-0.00012949357915204018,-0.0596671886742115,0.05368606001138687,1.3117117881774902,-2.187408924102783,1.7514479160308838,-0.4715007245540619,0.3716120421886444,0.7718039751052856,0.42000001668930054,-1.4300720691680908,2.999998092651367,-0.145926371216774,-3.0,0.005702248774468899,0.004910564515739679,0.004046767018735409,0.0031063843052834272,0.1927160769701004,0.15581060945987701,0.11703208833932877,0.07628555595874786
0.06666666666666667,0.029040997847914696,0.023059938102960587,0.0,0.9994534850120544,0.0,0.0,0.033057138323783875,0.7200234532356262,0.5950766801834106,0.0,0.0,0.0,-1.208496332168579,-0.42390426993370056,0.6537817716598511,0.4200000464916229,0.9999999403953552,3.4067529668391217e-06,-2.2856381747260457e-06,4.300985096961085e-07,0.00026702662580646574,0.00026791892014443874,-0.00010437914170324802,-0.001740677747875452,0.004211848136037588,-0.0001285130565520376,-0.09834590554237366,0.08745710551738739,1.2992030382156372,-2.4645581245422363,2.1886227130889893,-1.0028076171875,0.3716120421886444,0.7718039751052856,0.42000001668930054,-1.3800537586212158,3.0000030994415283,-0.19594784080982208,-3.000000238418579,0.008326224982738495,0.006857212632894516,0.005277336109429598,0.0035807755775749683,0.156150221824646,0.10627694427967072,0.05437507852911949,2.6047928258776665e-09
0.08333333333333333,0.04353241249918938,0.03445964679121971,0.0,0.9999948143959045,0.0,0.0,0.0032261039596050978,0.9368629455566406,0.7263553142547607,0.0,0.0,0.0,-4.536450386047363,-0.42390426993370056,0.6537817716598511,0.4200000464916229,1.0,3.697281499626115e-06,-2.1890098196308827e-06,-2.632294240356714e-07,0.00026389621780253947,0.00026586363674141467,-0.00010433816350996494,-0.0017081034602597356,0.004150185268372297,-0.00012991165567655116,-0.13891740143299103,0.12816810607910156,1.2794811725616455,-2.4340991973876953,2.5694422721862793,-1.3574755191802979,0.3716120421886444,0.7718039751052856,0.42000001668930054,-1.3300236463546753,2.9999983310699463,-0.18104200065135956,3.0000011920928955,0.010229350067675114,0.00782851129770279,0.005276571959257126,0.002562523353844881,0.09560137242078781,0.031405847519636154,-0.03487721458077431,-0.10348135977983475
0.1,0.052235230803489685,0.04977235570549965,0.0,0.9999493360519409,0.0,0.0,-0.010064197704195976,0.38369229435920715,0.9957354664802551,0.0,0.0,0.0,-0.5856562256813049,-0.42390426993370056,0.6537817716598511,0.4200000464916229,0.9999999403953552,3.6203855415806174e-06,-2.265273224111297e-06,1.7462159007664013e-07,0.0002667683002073318,0.00026740814791992307,-0.0001040794886648655,-0.0017385776154696941,0.004209164995700121,-0.00012775571667589247,-0.18105506896972656,0.1657298505306244,1.2552531957626343,-2.4564151763916016,2.229884624481201,-1.4810277223587036,0.3716120421886444,0.7718039751052856,0.42000001668930054,-1.280022382736206,2.999997854232788,-0.21259132027626038,-3.0000007152557373,0.005369111429899931,0.0022487537935376167,-0.0010742528829723597,-0.00461717089638114,-0.4139748513698578,-0.46291086077690125,-0.5144098401069641,-0.568827748298645
0.11666666666666667,0.05617224797606468,0.06360341608524323,0.0,0.9993156790733337,0.0,0.0,-0.0369882769882679,0.18391026556491852,0.7087982892990112,0.0,0.0,0.0,-3.9947304725646973,-0.42390426993370056,0.6537817716598511,0.4200000464916229,1.0,3.7983813854225446e-06,-2.2628894384979503e-06,-1.5019897148249584e-07,0.00026373917353339493,0.00026566049200482666,-0.00010429113171994686,-0.0017053951742127538,0.004147559404373169,-0.00012979967868886888,-0.21970795094966888,0.20688948035240173,1.2296550273895264,-2.2172341346740723,2.7116596698760986,-1.5593793392181396,0.3716120421886444,0.7718039751052856,0.42000001668930054,-1.2300078868865967,3.0000011920928955,-0.26261287927627563,-2.999999523162842,-0.0020941991824656725,-0.006335362326353788,-0.010792399756610394,-0.015487490221858025,-0.40908634662628174,-0.495998740196228,-0.5819780826568604,-0.6671879887580872
0.13333333333333333,0.06743466854095459,0.07926720380783081,0.0,0.9989304542541504,0.0,0.0,-0.04623723775148392,0.8098304271697998,1.0057257413864136,0.0,0.0,0.0,0.0748126357793808,-0.42390426993370056,0.6537818312644958,0.4200000464916229,0.9999999403953552,3.55046631739242e-06,-2.229890242233523e-06,2.9291771852513193e-07,0.00026703221374191344,0.00026779237668961287,-0.00010416773147881031,-0.0017439918592572212,0.0042135524563491344,-0.00012800241529475898,-0.26015058159828186,0.2518801987171173,1.2000195980072021,-2.4724738597869873,2.801682710647583,-2.011260509490967,0.3716120421886444,0.7718039751052856,0.42000001668930054,-1.1799906492233276,2.9999916553497314,-0.22845429182052612,3.0000009536743164,-0.0018081716261804104,-0.008192858658730984,-0.014716585166752338,-0.02140033431351185,0.061566442251205444,-0.062385912984609604,-0.1812889724969864,-0.2950361669063568
0.15,0.07633712887763977,0.0923972800374031,0.0,0.9977463483810425,0.0,0.0,-0.06709878146648407,0.4279683530330658,0.7242798805236816,0.0,0.0,0.0,-3.16593337059021,-0.4239042401313782,0.6537817716598511,0.4200000464916229,1.0,3.332185997351189e-06,-2.1020589429099346e-06,1.3131703724411636e-07,0.0002673070121090859,0.00026859756326302886,-0.00010459567420184612,-0.0017497788649052382,0.0042156740091741085,-0.00012928353680763394,-0.2988342344760895,0.3014334440231323,1.166327714920044,-2.1931028366088867,3.159600019454956,-2.0632834434509277,0.3716120421886444,0.7718039751052856,0.42000001668930054,-1.1300007104873657,3.0000016689300537,-0.25972238183021545,-3.0,-0.004805244039744139,-0.013001109473407269,-0.0212599728256464,-0.02960158698260784,-0.3262058198451996,-0.4238547682762146,-0.5173247456550598,-0.6064556241035461
0.16666666666666666,0.08104082196950912,0.10189761221408844,0.0,0.9935804009437561,0.0,0.0,-0.11312815546989441,0.2250276803970337,0.514701247215271,0.0,0.0,0.0,-6.370211124420166,-0.42390426993370056,0.6537817716598511,0.4200000464916229,1.0,3.7372556107584387e-06,-2.2332371827360475e-06,-1.8763917353226134e-07,0.00026432928279973567,0.00026626777253113687,-0.00010445783846080303,-0.0017118602991104126,0.004157558549195528,-0.00013001644401811063,-0.3340838551521301,0.36032426357269287,1.1236445903778076,-1.9796802997589111,3.7895760536193848,-2.980837821960449,0.3716120421886444,0.7718039751052856,0.42000001668930054,-1.0890822410583496,1.9629557132720947,-0.2346179187297821,2.9999990463256836,-0.012276431545615196,-0.0217298436909914,-0.031172001734375954,-0.040622904896736145,-0.5352960824966431,-0.5867258906364441,-0.6340850591659546,-0.6775200366973877
0.18333333333333332,0.08419293910264969,0.11251171678304672,0.0,0.9828552603721619,0.0,0.0,-0.18437863886356354,0.11944415420293808,0.692486047744751,0.0,0.0,0.0,-9.61046314239502,-0.42390426993370056,0.6537818312644958,0.4200000464916229,0.9999999403953552,3.660216407297412e-06,-2.302346501892316e-06,2.5286328764195787e-07,0.00026690843515098095,0.00026760369655676186,-0.00010412652045488358,-0.00174131547100842,0.004211504012346268,-0.00012787082232534885,-0.3669448494911194,0.4282733201980591,1.0667660236358643,-1.6876881122589111,4.4114179611206055,-3.792991876602173,0.3716120421886444,0.7718039751052856,0.42000001668930054,-1.0417966842651367,3.0000007152557373,-0.2658345103263855,-3.0,-0.02315552905201912,-0.033183254301548004,-0.04313172399997711,-0.05302529036998749,-0.7589484453201294,-0.7728625535964966,-0.7832375168800354,-0.7903912663459778
0.2,0.09056161344051361,0.12060633301734924,0.0,0.972061276435852,0.0,0.0,-0.2347271740436554,0.4511992931365967,0.41017240285873413,0.0,0.0,0.0,-4.926420211791992,-0.42390426993370056,0.6537817716598511,0.4200000464916229,1.0,3.5907664823753294e-06,-2.3004322429187596e-06,1.387437009725545e-07,0.00026654673274606466,0.00026732226251624525,-0.00010424060747027397,-0.0017326197121292353,0.004203468095511198,-0.0001282063458347693,-0.39782819151878357,0.4947720468044281,0.9950973987579346,-1.5127393007278442,4.083551406860352,-4.79150390625,0.3716120421886444,0.7718039751052856,0.42000001668930054,-0.9917950630187988,3.000000476837158,-0.315862238407135,-3.0000011920928955,-0.03725198656320572,-0.04673190042376518,-0.05611428990960121,-0.06543435901403427,-0.9531017541885376,-0.8872874975204468,-0.8221745491027832,-0.7585453987121582
0.21666666666666667,0.09180387854576111,0.13138507306575775,0.0,0.9680099487304688,0.0,0.0,-0.25091174244880676,-0.0030434615910053253,0.6240482926368713,0.0,0.0,0.0,-0.9502846002578735,-0.42390426993370056,0.6537818312644958,0.4200000464916229,1.0,3.6068583995074732e-06,-2.2610586256632814e-06,1.9633484171777127e-08,0.00026447203708812594,0.00026558362878859043,-0.00010396563448011875,-0.001708743628114462,0.004164293874055147,-0.0001283248420804739,-0.4237929880619049,0.5464574098587036,0.9086276292800903,-1.2873737812042236,2.7679903507232666,-5.489792823791504,0.3716120421886444,0.7718039751052856,0.42000001668930054,-0.9417849183082581,2.99999737739563,-0.36589157581329346,-2.9999942779541016,-0.05351238325238228,-0.06294472515583038,-0.07230300456285477,-0.08158883452415466,-0.8262043595314026,-0.8451736569404602,-0.8640041351318359,-0.8811740875244141
0.23333333333333334,0.0984673723578453,0.1375744491815567,0.0,0.96027672290802,0.0,0.0,-0.2790495753288269,0.4201996922492981,0.3122512996196747,0.0,0.0,0.0,-4.112599849700928,-0.4239042401313782,0.6537817716598511,0.4200000464916229,0.9999999403953552,3.742156877706293e-06,-2.227542609034572e-06,4.5892250000179047e-07,0.0002647509681992233,0.00026671559317037463,-0.00010453537106513977,-0.0017190451035276055,0.004165756516158581,-0.00013019356993027031,-0.44254231452941895,0.5916536450386047,0.8116163015365601,-0.8021461367607117,2.44063401222229,-6.115116119384766,0.3716120421886444,0.7718039751052856,0.42000001668930054,-0.8917742371559143,2.999999761581421,-0.41592276096343994,-2.9999985694885254,-0.06583132594823837,-0.07541444897651672,-0.08491051942110062,-0.09431546181440353,-0.9889777898788452,-0.9508556723594666,-0.9083638191223145,-0.8679376840591431
0.25,0.09986552596092224,0.14633646607398987,0.0,0.9574694633483887,0.0,0.0,-0.28853467106819153,0.06305904686450958,0.522102415561676,0.0,0.0,0.0,-0.1935662031173706,-0.42390426993370056,0.6537817716598511,0.4200000464916229,1.0,3.3943140351766488e-06,-2.282112973261974e-06,1.33633321297566e-07,0.0002667937951628119,0.0002679391473066062,-0.00010439474135637283,-0.0017417421331629157,0.004206571727991104,-0.00012884227908216417,-0.45207512378692627,0.6182079315185547,0.7108770608901978,-0.2938370108604431,1.106967568397522,-5.9174909591674805,0.3716120421886444,0.7718039751052856,0.42000001668930054,-0.8417637348175049,2.9999966621398926,-0.46595436334609985,-2.9999992847442627,-0.08250468224287033,-0.09200800210237503,-0.10149387270212173,-0.11092197149991989,-0.7695838212966919,-0.8143013715744019,-0.8580242991447449,-0.8979173302650452
0.26666666666666666,0.09967104345560074,0.15090475976467133,0.0,0.9505056738853455,0.0,0.0,-0.3107072710990906,-0.052711136639118195,0.19755415618419647,0.0,0.0,0.0,-3.6541900634765625,-0.42390426993370056,0.6537818312644958,0.4200000464916229,1.0,3.6832957448496018e-06,-2.3101708848116687e-06,2.1012019146837702e-07,0.00026479153893887997,0.0002662580518517643,-0.00010421173647046089,-0.0017168201738968492,0.004168934654444456,-0.00012909606448374689,-0.45467573404312134,0.6368209719657898,0.6105870604515076,0.12228332459926605,0.9611856937408447,-5.964789390563965,0.3716120421886444,0.7718039751052856,0.42000001668930054,-0.7917547225952148,2.9999988079071045,-0.5159849524497986,-3.000000238418579,-0.09677870571613312,-0.10675317794084549,-0.11668780446052551,-0.12650586664676666,-0.9407995343208313,-0.9520967602729797,-0.9623255133628845,-0.969791829586029
0.2833333333333333,0.09651082754135132,0.15221592783927917,0.0,0.9494007229804993,0.0,0.0,-0.3140672743320465,-0.23766504228115082,0.053711846470832825,0.0,0.0,0.0,0.5855057239532471,-0.42390426993370056,0.6537817716598511,0.4200000464916229,1.0,3.3067838103306713e-06,-2.212570507253986e-06,2.6257987428834895e-07,0.00026660895673558116,0.0002674504357855767,-0.00010424456559121609,-0.0017353360308334231,0.004204529337584972,-0.0001282836019527167,-0.4516029953956604,0.6484498977661133,0.5162957310676575,0.42820975184440613,0.3943418860435486,-5.340412139892578,0.3716120421886444,0.7718039751052856,0.42000001668930054,-0.7417459487915039,3.000002384185791,-0.5660141110420227,-3.000002384185791,-0.11390721797943115,-0.12376891076564789,-0.13358694314956665,-0.1432660073041916,-1.007612943649292,-1.0057488679885864,-1.0043302774429321,-1.0031993389129639
0.3,0.09058171510696411,0.15138615667819977,0.0,0.9441136717796326,0.0,0.0,-0.3296201229095459,-0.4061431586742401,-0.0949992835521698,0.0,0.0,0.0,-2.834240436553955,-0.42390426993370056,0.6537817716598511,0.4200000464916229,1.0,3.640822797024157e-06,-2.3780603441991843e-06,-4.194113500943786e-07,0.0002660947502590716,0.00026721262838691473,-0.00010421243496239185,-0.0017329666297882795,0.004194220993667841,-0.00012849632184952497,-0.4385247826576233,0.6537281274795532,0.4265679121017456,1.1566827297210693,0.17432528734207153,-5.279559135437012,0.3716120421886444,0.7718039751052856,0.42000001668930054,-0.6917387843132019,3.0000007152557373,-0.6160413026809692,-3.000002384185791,-0.13123942911624908,-0.140932098031044,-0.15062165260314941,-0.16019877791404724,-1.0026156902313232,-1.00198495388031,-1.001503348350525,-1.0011166334152222
0.31666666666666665,0.082374207675457,0.14812472462654114,0.0,0.9444827437400818,0.0,0.0,-0.32856112718582153,-0.5309652090072632,-0.23665302991867065,0.0,0.0,0.0,1.042995810508728,-0.42390426993370056,0.6537818312644958,0.4200000464916229,1.0,3.621540145104518e-06,-2.2891160824656254e-06,1.9688822305852227e-07,0.0002673401904758066,0.00026802701177075505,-0.00010420684702694416,-0.0017467169091105461,0.004218996502459049,-0.00012793648056685925,-0.44024160504341125,0.657568097114563,0.4266791045665741,-0.10121186077594757,0.19196470081806183,-0.24037373065948486,0.3716120421886444,0.7718039751052856,0.42000001668930054,-0.6417346000671387,2.999985694885254,-0.666526734828949,-3.0000016689300537,-0.137911856174469,-0.1473923921585083,-0.1565413624048233,-0.16517694294452667,-0.45428386330604553,-0.41292819380760193,-0.35542839765548706,-0.2787926495075226
0.3333333333333333,0.07186708599328995,0.14250019192695618,0.0,0.9398435950279236,0.0,0.0,-0.341605007648468,-0.6785922050476074,-0.379492849111557,0.0,0.0,0.0,-2.5427017211914062,-0.42355138063430786,0.6546870470046997,0.4200025498867035,0.9999216198921204,4.571003228193149e-05,8.072970376815647e-05,-0.012518299743533134,0.07882408797740936,0.1851680725812912,-0.0027566086500883102,-0.04576839134097099,-0.07986651360988617,-5.1892781257629395,-0.4390001893043518,0.6605015993118286,0.4228587746620178,0.1926232874393463,0.22807630896568298,-0.21206071972846985,0.3716120421886444,0.7718039751052856,0.42000001668930054,-0.5917293429374695,2.999986171722412,-0.7165842056274414,-2.9999916553497314,-0.14639857411384583,-0.15480123460292816,-0.16259948909282684,-0.16958236694335938,-0.5349178314208984,-0.44994407892227173,-0.35008755326271057,-0.2346206158399582
0.35,0.064038947224617,0.1341949999332428,0.0,0.9408915638923645,0.0,0.0,-0.33870792388916016,-0.34917208552360535,-0.5484859943389893,0.0,0.0,0.0,1.249037504196167,-0.4213571548461914,0.6595480442047119,0.42001232504844666,0.9974991679191589,-0.000194856125744991,9.88540705293417e-07,-0.07067660987377167,0.2387315034866333,0.4861067831516266,0.014487426728010178,-1.0397968292236328,-0.011121437884867191,-2.3363759517669678,-0.4357241988182068,0.6664321422576904,0.4204995930194855,0.09667421132326126,0.41443848609924316,0.1916971057653427,0.3716120421886444,0.7718039751052856,0.42000001668930054,-0.541724443435669,2.9999985694885254,-0.7666189670562744,-2.999997615814209,-0.1565302014350891,-0.16278444230556488,-0.16817983984947205,-0.1725221872329712,-0.5820732116699219,-0.43247273564338684,-0.26628783345222473,-0.08548446744680405
0.36666666666666664,0.05437977612018585,0.12420100718736649,0.0,0.9364226460456848,0.0,0.0,-0.350874125957489,-0.6647676229476929,-0.6255598664283752,0.0,0.0,0.0,-2.5053741931915283,-0.41619673371315,0.6708772778511047,0.420133501291275,0.9956295490264893,-0.0033376894425600767,0.0002966051397379488,-0.093329519033432,0.46529054641723633,0.925690233707428,-0.005634446628391743,0.2798057198524475,-0.04508335888385773,-3.8824400901794434,-0.429653525352478,0.6763365268707275,0.42036497592926025,0.5903369188308716,0.8362909555435181,-0.17795032262802124,0.3716120421886444,0.7718039751052856,0.42000001668930054,-0.49171966314315796,2.999986171722412,-0.8166429996490479,-3.000000476837158,-0.16887447237968445,-0.1719188541173935,-0.17384429275989532,-0.17451636493206024,-0.7394722700119019,-0.5380883812904358,-0.32157766819000244,-0.09414705634117126
0.3833333333333333,0.04793776571750641,0.11147619038820267,0.0,0.9210638403892517,0.0,0.0,-0.38941165804862976,-0.34835246205329895,-0.8072356581687927,0.0,0.0,0.0,-5.7478556632995605,-0.4072476327419281,0.6878468990325928,0.42011740803718567,0.9924327731132507,-0.0029304104391485453,0.0002902921405620873,-0.12275319546461105,0.6393445134162903,1.1631274223327637,0.05255085974931717,-2.5674686431884766,0.5631088018417358,-4.846963405609131,-0.417195588350296,0.6911466121673584,0.42119747400283813,0.9746183753013611,1.019416093826294,0.14323601126670837,0.3716120421886444,0.7718039751052856,0.42000001668930054,-0.44163960218429565,2.9999489784240723,-0.86664217710495,-2.9999773502349854,-0.1785222887992859,-0.17828363180160522,-0.17655979096889496,-0.17329785227775574,-0.5471377372741699,-0.3333072364330292,-0.09554646164178848,0.1601749211549759
0.4,0.04069967195391655,0.09655261784791946,0.0,0.8920588493347168,0.0,0.0,-0.45191922783851624,-0.4999801218509674,-0.9271823763847351,0.0,0.0,0.0,-9.186873435974121,-0.37729284167289734,0.7146698236465454,0.42339348793029785,0.9827778339385986,-0.021760279312729836,-0.04598957672715187,-0.17764884233474731,2.701073408126831,2.35341215133667,0.20581060647964478,44.115516662597656,6.886323928833008,-1.5416721105575562,-0.38701796531677246,0.7190556526184082,0.42362290620803833,2.7091755867004395,2.3752002716064453,0.27340370416641235,0.3716120421886444,0.7718039751052856,0.42000001668930054,-0.3964438736438751,1.8756794929504395,-0.9079819917678833,-2.0283594131469727,-0.18990737199783325,-0.1855650246143341,-0.17943041026592255,-0.17157381772994995,-0.7047755122184753,-0.45251908898353577,-0.18724071979522705,0.08324091136455536
0.4166666666666667,0.03464518487453461,0.08499427884817123,0.0,0.8461878895759583,0.0,0.0,-0.5328845977783203,-0.2763758897781372,-0.6837220191955566,0.0,0.0,0.0,-11.81386947631836,-0.30820897221565247,0.762861967086792,0.4276837110519409,0.9631574153900146,0.04613569751381874,-0.08360455930233002,-0.2514151930809021,5.573970794677734,3.1557204723358154,0.28714829683303833,21.85858726501465,-11.900678634643555,7.713946342468262,-0.31710106134414673,0.7686587572097778,0.4277496039867401,5.167141914367676,3.571165084838867,0.3545375168323517,0.3716120421886444,0.7718039751052856,0.42000001668930054,-0.37585651874542236,1.083336591720581,-0.8668931722640991,2.9976634979248047,-0.20381401479244232,-0.19573073089122772,-0.18490217626094818,-0.17250892519950867,-0.6634541153907776,-0.4938267767429352,-0.2774791419506073,-0.07432123273611069
0.43333333333333335,0.032843489199876785,0.07619453221559525,0.0,0.8078064918518066,0.0,0.0,-0.5894477963447571,-0.05086706951260567,-0.4742475748062134,0.0,0.0,0.0,-7.053185939788818,-0.22007517516613007,0.8177275657653809,0.4354194700717926,0.9216880798339844,0.12388148903846741,-0.12091981619596481,-0.3471640348434448,5.743483543395996,2.2911581993103027,0.6996376514434814,-3.301755905151367,-5.2066545486450195,8.73328971862793,-0.2292604148387909,0.825491189956665,0.4349186420440674,5.533005714416504,3.086851119995117,0.4827406108379364,0.3716120421886444,0.7718039751052856,0.42000001668930054,-0.35843515396118164,0.937810480594635,-0.8168817162513733,3.0,-0.21489502489566803,-0.20407339930534363,-0.19006644189357758,-0.17484474182128906,-0.6320940852165222,-0.4720539450645447,-0.29993027448654175,-0.15334078669548035
0.45,0.03139904513955116,0.07141562551259995,0.0,0.7899044156074524,0.0,0.0,-0.6132299900054932,-0.09897483140230179,-0.21456481516361237,0.0,0.0,0.0,-2.356224775314331,-0.12612757086753845,0.8590134382247925,0.44544222950935364,0.86611407995224,0.14026980102062225,-0.13605953752994537,-0.46006354689598083,6.25916862487793,1.664201259613037,0.8704296946525574,8.88778305053711,-9.634574890136719,0.7394565343856812,-0.13503946363925934,0.8691328763961792,0.4443116784095764,5.80449104309082,2.056246519088745,0.7205090522766113,0.3716120421886444,0.7718039751052856,0.42000001668930054,-0.3449050784111023,0.6411428451538086,-0.8432585597038269,-2.9999420642852783,-0.2267104536294937,-0.21290956437587738,-0.19583351910114288,-0.17795640230178833,-0.6875287294387817,-0.5117600560188293,-0.3361234664916992,-0.1834644079208374
0.4666666666666667,0.028292477130889893,0.06419827044010162,0.0,0.764370322227478,0.0,0.0,-0.6447774767875671,-0.26129835844039917,-0.44093793630599976,0.0,0.0,0.0,-5.682526588439941,-0.02759084478020668,0.8811377882957458,0.45476287603378296,0.8048412203788757,0.1371604949235916,-0.13657517731189728,-0.5610390305519104,6.434679985046387,-0.07083695381879807,0.620830774307251,-2.9552788734436035,-12.144913673400879,5.947821617126465,-0.035279691219329834,0.8929986953735352,0.4537345767021179,6.063859939575195,0.7124536633491516,0.5760927200317383,0.3716120421886444,0.7718039751052856,0.42000001668930054,-0.33830511569976807,0.2213258147239685,-0.8932828307151794,-3.0000030994415283,-0.2377472072839737,-0.2204565405845642,-0.19993966817855835,-0.1789674609899521,-0.768229603767395,-0.5095466375350952,-0.2585027813911438,-0.029113678261637688
0.48333333333333334,0.026394080370664597,0.060099098831415176,0.0,0.7515025734901428,0.0,0.0,-0.6597301363945007,-0.04749514162540436,-0.19411790370941162,0.0,0.0,0.0,-1.1905044317245483,0.06918290257453918,0.8835819959640503,0.4614250361919403,0.7504717111587524,0.12800127267837524,-0.14510047435760498,-0.6319442987442017,5.301512241363525,-1.0631240606307983,0.3539239168167114,-11.435504913330078,9.300436019897461,14.463936805725098,0.06346551328897476,0.8961688280105591,0.46118617057800293,5.903066635131836,-0.2766605615615845,0.400613933801651,0.3716120421886444,0.7718039751052856,0.42000001668930054,-0.3349519968032837,0.12977546453475952,-0.9433078765869141,-2.999636650085449,-0.23996001482009888,-0.23063130676746368,-0.206270232796669,-0.1818762868642807,-0.028282130137085915,-0.4962766766548157,-0.31855228543281555,-0.16605474054813385
0.5,0.027968522161245346,0.057249244302511215,0.0,0.7309970855712891,0.0,0.0,-0.6823806166648865,0.145590141415596,-0.09803424030542374,0.0,0.0,0.0,-4.528482913970947,0.1567653864622116,0.8731492757797241,0.46256476640701294,0.6990763545036316,0.11240953207015991,-0.1386301964521408,-0.6924145221710205,4.569300174713135,-1.588687539100647,-0.15945376455783844,-18.43178367614746,-3.056960344314575,19.817373275756836,0.15243037045001984,0.8870275020599365,0.46306711435317993,5.121087074279785,-0.9186363816261292,0.03040192276239395,0.3716120421886444,0.7718039751052856,0.42000001668930054,-0.33085834980010986,0.2452157437801361,-0.9933319091796875,-3.000002384185791,-0.2384161502122879,-0.23569218814373016,-0.20941124856472015,-0.18336382508277893,0.10671591758728027,-0.2010640650987625,-0.11989738047122955,-0.050453756004571915
0.5166666666666666,0.03228593245148659,0.05575759336352348,0.0,0.7234912514686584,0.0,0.0,-0.6903335452079773,0.2954172194004059,-0.07539020478725433,0.0,0.0,0.0,-0.31753647327423096,0.23253454267978668,0.853236198425293,0.45743441581726074,0.6362844109535217,0.04833335429430008,-0.1629323959350586,-0.7525017857551575,4.019956588745117,-1.8448967933654785,-0.6568208932876587,-24.972570419311523,6.8665924072265625,-8.263452529907227,0.22835174202919006,0.8674618005752563,0.46014291048049927,4.16601037979126,-1.4097723960876465,-0.20107612013816833,0.3716120421886444,0.7718039751052856,0.42000001668930054,-0.32302793860435486,0.644859790802002,-1.0433542728424072,-2.9999194145202637,-0.23689647018909454,-0.23779629170894623,-0.21068120002746582,-0.1840418428182602,0.1292543262243271,-0.02579794079065323,-0.017477603629231453,-0.023660924285650253
0.5333333333333333,0.03477340564131737,0.054715849459171295,0.0,0.7078848481178284,0.0,0.0,-0.7063278555870056,0.09654690325260162,-0.04650493338704109,0.0,0.0,0.0,-3.590697765350342,0.29561591148376465,0.8284246325492859,0.44455400109291077,0.5570771098136902,-0.05283675715327263,-0.19426092505455017,-0.8056897521018982,3.2853994369506836,-1.5038578510284424,-0.7350755333900452,-1.804290771484375,6.486030578613281,-6.676865577697754,0.291270911693573,0.8438398838043213,0.4512614607810974,3.4580414295196533,-1.499663233757019,-0.7475900650024414,0.3716120421886444,0.7718039751052856,0.42000001668930054,-0.30483534932136536,1.47455894947052,-1.0933763980865479,-2.999704599380493,-0.2337981015443802,-0.2367592751979828,-0.2104659527540207,-0.1848153918981552,0.2751730978488922,0.1735135018825531,0.06927822530269623,-0.04145915061235428
0.55,0.03827350586652756,0.05151909589767456,0.0,0.7056704759597778,0.0,0.0,-0.7085402011871338,0.24928033351898193,-0.25331342220306396,0.0,0.0,0.0,0.549648106098175,0.3418949246406555,0.8008956909179688,0.42979371547698975,0.5247222185134888,-0.08663371205329895,-0.1670854091644287,-0.8302069306373596,2.1413347721099854,-2.4531779289245605,-0.6475195288658142,-8.769123077392578,12.230707168579102,14.212936401367188,0.33954542875289917,0.8162062168121338,0.43689632415771484,2.3511147499084473,-1.707217812538147,-0.987604022026062,0.3716120421886444,0.7718039751052856,0.42000001668930054,-0.2856460213661194,0.5655672550201416,-1.1433985233306885,-2.999772548675537,-0.2306472659111023,-0.23410312831401825,-0.20952917635440826,-0.18577346205711365,0.20004621148109436,0.20196279883384705,0.0738864541053772,-0.06452260911464691
0.5666666666666667,0.044257111847400665,0.05098453909158707,0.0,0.6941455602645874,0.0,0.0,-0.7198346257209778,0.403208464384079,-8.161825826391578e-05,0.0,0.0,0.0,-2.753718376159668,0.3690744936466217,0.7839337587356567,0.4242905080318451,0.5246558785438538,-0.09197895228862762,-0.06592998653650284,-0.8437589406967163,1.1586884260177612,-1.2123034000396729,-0.08138583600521088,-1.5789917707443237,10.024383544921875,5.126359462738037,0.36639273166656494,0.7975465655326843,0.4315178394317627,1.1972973346710205,-0.7862474918365479,-0.14659279584884644,0.3716120421886444,0.7718039751052856,0.42000001668930054,-0.2808740735054016,0.42903009057044983,-1.193420648574829,-3.0000009536743164,-0.22530703246593475,-0.22934786975383759,-0.20798873901367188,-0.18732890486717224,0.461361825466156,0.40261736512184143,0.15864789485931396,-0.06888683885335922
0.5833333333333334,0.04803740605711937,0.04795806109905243,0.0,0.6946502923965454,0.0,0.0,-0.7193475961685181,0.18385063111782074,-0.2967144846916199,0.0,0.0,0.0,0.8918086886405945,0.38222208619117737,0.7706825137138367,0.42448827624320984,0.533438503742218,-0.10794083774089813,-0.06954435259103775,-0.8360356688499451,0.4950210452079773,-0.8944501876831055,0.003867009188979864,-1.8094583749771118,2.567056655883789,0.8151669502258301,0.3796325922012329,0.7836897969245911,0.4318341314792633,0.5059531927108765,-0.8585666418075562,-0.04632056504487991,0.3716120421886444,0.7718039751052856,0.42000001668930054,-0.282227486371994,-0.138160839676857,-1.2434426546096802,-2.9999454021453857,-0.21706581115722656,-0.22148174047470093,-0.20401109755039215,-0.1869799643754959,0.475661963224411,0.48387059569358826,0.26051414012908936,0.050373561680316925
0.6,0.052816204726696014,0.04707027226686478,0.0,0.6847258806228638,0.0,0.0,-0.7288007140159607,0.3200285732746124,-0.011091086082160473,0.0,0.0,0.0,-2.4495506286621094,0.38821306824684143,0.7637941241264343,0.42178863286972046,0.5556306838989258,-0.03348040580749512,-0.014479531906545162,-0.8306285738945007,0.15235358476638794,-0.18929658830165863,-0.2109070122241974,13.79835033416748,-4.798828125,8.343777656555176,0.38433146476745605,0.7742970585823059,0.4254456162452698,0.019659627228975296,-0.29046836495399475,-0.39553698897361755,0.3716120421886444,0.7718039751052856,0.42000001668930054,-0.27489402890205383,0.8387535214424133,-1.232973337173462,3.0000009536743164,-0.20864132046699524,-0.21340543031692505,-0.2002059370279312,-0.1871149241924286,0.6366914510726929,0.5814165472984314,0.2911408543586731,0.02726144716143608
0.6166666666666667,0.05965084582567215,0.04342478886246681,0.0,0.6869085431098938,0.0,0.0,-0.7267438769340515,0.4409443438053131,-0.2474336475133896,0.0,0.0,0.0,1.2281585931777954,0.3869105577468872,0.7600125074386597,0.42212796211242676,0.5750308632850647,-0.03147520869970322,0.0009783270070329309,-0.817525327205658,-0.14587262272834778,-0.18896090984344482,0.05224759876728058,-0.7585233449935913,0.8229684829711914,2.0986506938934326,0.3819739818572998,0.7708748579025269,0.42622485756874084,-0.29725319147109985,-0.18372836709022522,0.135793074965477,0.3716120421886444,0.7718039751052856,0.42000001668930054,-0.3089131712913513,-3.000001907348633,-1.2533386945724487,-2.999906539916992,-0.1988673359155655,-0.20408959686756134,-0.19526566565036774,-0.18615956604480743,0.4869382083415985,0.48451679944992065,0.2477986067533493,0.029787281528115273
0.6333333333333333,0.06846481561660767,0.043078940361738205,0.0,0.6796423196792603,0.0,0.0,-0.7335436344146729,0.5603371858596802,0.011716432869434357,0.0,0.0,0.0,-2.2993295192718506,0.3845422565937042,0.7569814920425415,0.42123115062713623,0.5884032845497131,-0.022445783019065857,-0.0011190475197508931,-0.808255136013031,-0.13865996897220612,-0.1756744235754013,-0.08013079315423965,1.5751522779464722,-2.554856061935425,1.8504483699798584,0.3812509775161743,0.7716101408004761,0.4285522699356079,0.08712505549192429,0.19990883767604828,0.1775895059108734,0.3716120421886444,0.7718039751052856,0.42000001668930054,-0.3589581847190857,-2.9996471405029297,-1.3032814264297485,-2.9984965324401855,-0.19087567925453186,-0.19649039208889008,-0.19168269634246826,-0.18617701530456543,0.5984358191490173,0.5436691045761108,0.28701937198638916,0.05964897572994232
0.65,0.07898513972759247,0.04568721354007721,0.0,0.683141827583313,0.0,0.0,-0.7302857637405396,0.6637275218963623,0.22490160167217255,0.0,0.0,0.0,1.4803539514541626,0.3835196793079376,0.7556758522987366,0.42001211643218994,0.5893405079841614,0.00025914295110851526,-3.282029865658842e-05,-0.807884693145752,-0.04775448143482208,-0.0324750654399395,-0.007418901193886995,-0.16180060803890228,0.19692692160606384,0.08142571896314621,0.37984636425971985,0.7741384506225586,0.43175995349884033,-0.2193123996257782,0.14025764167308807,0.2032942920923233,0.3716120421886444,0.7718039751052856,0.42000001668930054,-0.40897268056869507,-3.0000014305114746,-1.3532923460006714,-2.999952793121338,-0.18240046501159668,-0.1887090504169464,-0.18768788874149323,-0.1854887306690216,0.4462346136569977,0.4197028577327728,0.22093068063259125,0.04782228544354439
0.6666666666666666,0.08687352389097214,0.04328790307044983,0.0,0.7067705392837524,0.0,0.0,-0.7074428796768188,0.4704902768135071,-0.18231922388076782,0.0,0.0,0.0,4.8531951904296875,0.3834112584590912,0.7556012868881226,0.4200001657009125,0.5895746350288391,1.154880374087952e-05,-2.378453018536675e-06,-0.8077138662338257,0.0008841562666930258,0.00030481035355478525,-0.00046932033728808165,0.0030062792357057333,0.008426152169704437,-0.0011987168109044433,0.37750470638275146,0.7750571370124817,0.43620213866233826,-0.2462279498577118,-0.14087262749671936,0.30571335554122925,0.3716120421886444,0.7718039751052856,0.42000001668930054,-0.45899465680122375,-2.9999840259552,-1.4032822847366333,-2.999969005584717,-0.17211131751537323,-0.17855213582515717,-0.1801496148109436,-0.18007834255695343,0.399480938911438,0.4703046679496765,0.4084400534629822,0.372163861989975
0.6833333333333333,0.09628234058618546,0.03763198107481003,0.0,0.7165763974189758,0.0,0.0,-0.6975085735321045,0.5614598989486694,-0.35440191626548767,0.0,0.0,0.0,0.5683344602584839,0.3826114237308502,0.7553725838661194,0.4200000762939453,0.5737907886505127,-1.3901280908612534e-06,-1.6591604889981681e-07,-0.8190018534660339,-0.048860471695661545,-0.018851323053240776,-2.5579764042049646e-05,-0.0007716239779256284,-0.0013700491981580853,-1.8010700941085815,0.3766402006149292,0.7744759321212769,0.4422193765640259,0.04479452222585678,-0.018941350281238556,0.4502374529838562,0.3716120421886444,0.7718039751052856,0.42000001668930054,-0.50900799036026,-3.0000009536743164,-1.4533002376556396,-2.999998092651367,-0.16709557175636292,-0.1719588190317154,-0.17387397587299347,-0.17371125519275665,0.21378259360790253,0.3283848464488983,0.3455563485622406,0.38515427708625793
0.7,0.10691837221384048,0.029485555365681648,0.0,0.7047971487045288,0.0,0.0,-0.7094088792800903,0.6747384071350098,-0.5541681051254272,0.0,0.0,0.0,-2.8763036727905273,0.3824388086795807,0.7552916407585144,0.42000019550323486,0.5710813999176025,3.15207289531827e-05,3.884885700244922e-06,-0.8208933472633362,0.0024488081689924,0.001145504298619926,-0.0010864043142646551,-0.010049432516098022,0.018765650689601898,-0.0035152577329427004,0.3822230398654938,0.7772171497344971,0.4573618769645691,0.5781409740447998,0.2712693214416504,1.440110206604004,0.3716120421886444,0.7718039751052856,0.42000001668930054,-0.5590205788612366,-2.9999794960021973,-1.5033185482025146,-2.999999523162842,-0.16569826006889343,-0.16854949295520782,-0.16982164978981018,-0.1686958223581314,0.017371943220496178,0.14050261676311493,0.19465140998363495,0.26452451944351196
0.7166666666666667,0.12102648615837097,0.027028148993849754,0.0,0.6716093420982361,0.0,0.0,-0.7409054636955261,0.9180159568786621,-0.008655636571347713,0.0,0.0,0.0,-6.496866703033447,0.38244175910949707,0.7552940249443054,0.41999995708465576,0.5710799694061279,-1.511984805802058e-06,-5.155472081241896e-06,-0.8208944201469421,9.475272963754833e-05,-0.00038409727858379483,-7.528811693191528e-05,0.00968316849321127,-0.0027361297979950905,-0.000920041580684483,0.4005933403968811,0.7775533199310303,0.48678842186927795,1.6941040754318237,-0.20422782003879547,2.2159643173217773,0.3716120421886444,0.7718039751052856,0.42000001668930054,-0.6090315580368042,-2.999748945236206,-1.5533368587493896,-2.9999630451202393,-0.1738201379776001,-0.1731412410736084,-0.17190951108932495,-0.16820652782917023,-0.6652654409408569,-0.42126137018203735,-0.22905820608139038,-0.038215965032577515
0.7333333333333333,0.13218820095062256,0.030725695192813873,0.0,0.6498916149139404,0.0,0.0,-0.7600268721580505,0.5911590456962585,-0.03513234108686447,0.0,0.0,0.0,-2.0059974193573,0.38244175910949707,0.7552940249443054,0.41999995708465576,0.5710799694061279,-1.534973762318259e-06,-5.667818641086342e-06,-0.8208944797515869,9.421035065315664e-05,-0.00039279586053453386,-7.66427256166935e-05,0.00993011798709631,-0.0029704442713409662,-0.0009418709087185562,0.42382749915122986,0.7756229639053345,0.5249661207199097,1.3139195442199707,0.13253651559352875,2.262256622314453,0.3716120421886444,0.7718039751052856,0.42000001668930054,-0.6276056170463562,0.47817182540893555,-1.603355050086975,-2.9999990463256836,-0.18464356660842896,-0.18042048811912537,-0.17642122507095337,-0.17011085152626038,-0.10159021615982056,-0.046534743160009384,-0.01872544176876545,0.009858716279268265
0.75,0.13876187801361084,0.032178785651922226,0.0,0.6549669504165649,0.0,0.0,-0.7556574940681458,0.3221137821674347,0.13794678449630737,0.0,0.0,0.0,1.6610239744186401,0.38244175910949707,0.7552940249443054,0.41999995708465576,0.5710802674293518,-1.6698762692612945e-06,-5.623727702186443e-06,-0.820894181728363,9.838213736657053e-05,-0.00039424141868948936,-7.652002386748791e-05,0.00998653843998909,-0.0029870239086449146,-0.0009544540080241859,0.44192376732826233,0.7773114442825317,0.5568468570709229,0.7308358550071716,0.10791948437690735,1.6129150390625,0.3716120421886444,0.7718039751052856,0.42000001668930054,-0.5972059965133667,2.9288859367370605,-1.5643329620361328,2.999999761581421,-0.18491028249263763,-0.1800958216190338,-0.17582181096076965,-0.169272780418396,0.07510139793157578,0.09285999089479446,0.09680510312318802,0.09469910711050034
0.7666666666666666,0.14071211218833923,0.028407346457242966,0.0,0.6482404470443726,0.0,0.0,-0.7614356875419617,0.17392650246620178,-0.21769794821739197,0.0,0.0,0.0,-1.762160062789917,0.38244175910949707,0.7552940249443054,0.41999995708465576,0.5710803270339966,-1.4083537962505943e-06,-5.364400294638472e-06,-0.820894181728363,9.6063558885362e-05,-0.0003932603867724538,-7.660756818950176e-05,0.009948794730007648,-0.00297531858086586,-0.0009474638500250876,0.4469805955886841,0.781532883644104,0.5770936608314514,-0.17714843153953552,0.08811289072036743,0.9333093166351318,0.3716120421886444,0.7718039751052856,0.42000001668930054,-0.5630592703819275,1.2869064807891846,-1.5142765045166016,3.0000009536743164,-0.17776250839233398,-0.17367041110992432,-0.17022627592086792,-0.16459563374519348,0.21071192622184753,0.2176506221294403,0.21610741317272186,0.1989336907863617
0.7833333333333333,0.14100389182567596,0.029875705018639565,0.0,0.6539269089698792,0.0,0.0,-0.7565577626228333,-0.020442763343453407,0.13681820034980774,0.0,0.0,0.0,1.661706805229187,0.38244175910949707,0.7552940249443054,0.41999995708465576,0.5710803270339966,-1.4381924984263605e-06,-5.284944109007483e-06,-0.820894181728363,9.564186620991677e-05,-0.00039319635834544897,-7.661106064915657e-05,0.009945975616574287,-0.002974391682073474,-0.0009463116293773055,0.44124922156333923,0.781313955783844,0.5892063975334167,-0.43953579664230347,0.0380178727209568,0.5557862520217896,0.3716120421886444,0.7718039751052856,0.42000001668930054,-0.5275108814239502,2.81663179397583,-1.464242935180664,2.999999523162842,-0.17760136723518372,-0.17284223437309265,-0.16888228058815002,-0.1631171852350235,0.08976270258426666,0.10080154985189438,0.10727609694004059,0.09138075262308121
0.8,0.13864263892173767,0.028350932523608208,0.0,0.6478478908538818,0.0,0.0,-0.761769711971283,-0.2079436033964157,-0.06279674172401428,0.0,0.0,0.0,-1.702741026878357,0.38244175910949707,0.7552940249443054,0.41999995708465576,0.5710802674293518,-1.4259208001021761e-06,-5.391271770349704e-06,-0.8208941221237183,9.62854755925946e-05,-0.0003933618718292564,-7.661455310881138e-05,0.009952206164598465,-0.002976583084091544,-0.0009481879533268511,0.4282938241958618,0.7816258072853088,0.5928675532341003,-1.1617412567138672,-0.08552214503288269,0.034000203013420105,0.3716120421886444,0.7718039751052856,0.42000001668930054,-0.5113478899002075,-0.5955345630645752,-1.4141864776611328,3.000000238418579,-0.17451107501983643,-0.16990675032138824,-0.16611365973949432,-0.1608748584985733,0.0552784726023674,0.06955381482839584,0.08302987366914749,0.07156187295913696
0.8166666666666667,0.1380772888660431,0.030596444383263588,0.0,0.6538087129592896,0.0,0.0,-0.7566598653793335,0.022284340113401413,0.1545470505952835,0.0,0.0,0.0,1.6484376192092896,0.38244175910949707,0.7552940249443054,0.41999995708465576,0.5710802674293518,-1.4137280004433705e-06,-5.311412223818479e-06,-0.8208941221237183,9.574397699907422e-05,-0.0003932311665266752,-7.661106064915657e-05,0.009947267360985279,-0.0029747572261840105,-0.0009466186165809631,0.41534438729286194,0.7811349034309387,0.5923491716384888,-0.41505300998687744,0.09536120295524597,-0.044452667236328125,0.3716120421886444,0.7718039751052856,0.42000001668930054,-0.500028133392334,1.7417622804641724,-1.4320322275161743,-3.0,-0.17396213114261627,-0.1693180650472641,-0.16534140706062317,-0.1602102667093277,0.1501975655555725,0.11784600466489792,0.10323870182037354,0.07969766110181808
0.8333333333333334,0.13993783295154572,0.02911156602203846,0.0,0.647491991519928,0.0,0.0,-0.7620722651481628,0.1557488888502121,-0.10967269539833069,0.0,0.0,0.0,-1.813201665878296,0.38244175910949707,0.7552940249443054,0.41999995708465576,0.5710802674293518,-1.431924488315417e-06,-5.414774477685569e-06,-0.820894181728363,9.628129191696644e-05,-0.00039335203473456204,-7.661152631044388e-05,0.009951836429536343,-0.002976398216560483,-0.0009481588494963944,0.4102829694747925,0.7828575372695923,0.5888810157775879,-0.21514517068862915,-0.008329210802912712,-0.21226340532302856,0.3716120421886444,0.7718039751052856,0.42000001668930054,-0.5161968469619751,-3.000000238418579,-1.3934987783432007,2.999999761581421,-0.16961131989955902,-0.1659454107284546,-0.1625831574201584,-0.15814010798931122,0.14042119681835175,0.10713811218738556,0.09444208443164825,0.07580272853374481
0.85,0.14428161084651947,0.030298203229904175,0.0,0.6532807350158691,0.0,0.0,-0.7571157813072205,0.28602829575538635,0.1323641836643219,0.0,0.0,0.0,1.7714099884033203,0.38244175910949707,0.7552940249443054,0.41999995708465576,0.5710802674293518,-1.4079607808525907e-06,-5.331167358235689e-06,-0.820894181728363,9.584093641024083e-05,-0.00039326149271801114,-7.661082781851292e-05,0.009948314167559147,-0.0029749800451099873,-0.0009468977223150432,0.4111875295639038,0.7818353176116943,0.5857178568840027,0.30869269371032715,-0.05464513972401619,-0.1315053254365921,0.3716120421886444,0.7718039751052856,0.42000001668930054,-0.5510483980178833,-1.3005307912826538,-1.4117408990859985,-3.0,-0.1686083972454071,-0.16513164341449738,-0.1615549474954605,-0.15693427622318268,0.10351354628801346,0.08760163933038712,0.10027078539133072,0.11589499562978745
0.8666666666666667,0.1502419114112854,0.028561776503920555,0.0,0.6474581360816956,0.0,0.0,-0.7621010541915894,0.3872995972633362,-0.14839142560958862,0.0,0.0,0.0,-1.822957992553711,0.38244175910949707,0.7552940249443054,0.41999995708465576,0.5710802674293518,-1.449335400138807e-06,-5.255213181953877e-06,-0.8208942413330078,9.554504504194483e-05,-0.00039316617767326534,-7.661059498786926e-05,0.009944833815097809,-0.0029740999452769756,-0.0009460289147682488,0.4188351631164551,0.7793173789978027,0.579910159111023,0.5887712836265564,-0.3031187355518341,-0.3940809965133667,0.3716120421886444,0.7718039751052856,0.42000001668930054,-0.5936262607574463,-3.0000009536743164,-1.3795883655548096,2.999999761581421,-0.16593673825263977,-0.16269665956497192,-0.1588638871908188,-0.15389613807201385,0.07950793206691742,0.09633467346429825,0.14004114270210266,0.18756309151649475
0.8833333333333333,0.15874704718589783,0.029998118057847023,0.0,0.6246570348739624,0.0,0.0,-0.7808992266654968,0.5430355668067932,0.10841885954141617,0.0,0.0,0.0,-4.466675758361816,0.38244175910949707,0.7552940249443054,0.41999995708465576,0.5710800886154175,-1.539182562737551e-06,-5.630739451589761e-06,-0.8208943009376526,9.63522688834928e-05,-0.0003930257516913116,-7.666274905204773e-05,0.009939170442521572,-0.0029687106143683195,-0.0009474437101744115,0.43153393268585205,0.7748837471008301,0.5756636261940002,0.959991455078125,-0.19612853229045868,-0.023655977100133896,0.3716120421886444,0.7718039751052856,0.42000001668930054,-0.620806872844696,-0.45811527967453003,-1.3981242179870605,-2.999997615814209,-0.16629284620285034,-0.16301229596138,-0.1587134450674057,-0.15320250391960144,0.0530933141708374,0.02105426788330078,0.014266480691730976,0.014491923153400421
0.9,0.1645391583442688,0.033264197409152985,0.0,0.6156572699546814,0.0,0.0,-0.7880140542984009,0.2702174484729767,0.23348082602024078,0.0,0.0,0.0,-0.3878571093082428,0.38244175910949707,0.7552940249443054,0.41999995708465576,0.5710801482200623,-1.428437713002495e-06,-5.36003381057526e-06,-0.8208943009376526,9.615075396141037e-05,-0.0003932117542717606,-7.659988477826118e-05,0.009947695769369602,-0.002974844304844737,-0.0009475891129113734,0.4443465769290924,0.7743446826934814,0.5754936933517456,0.5496905446052551,0.07488866150379181,-0.0243622325360775,0.3716120421886444,0.7718039751052856,0.42000001668930054,-0.6037211418151855,2.257795810699463,-1.4481425285339355,-2.999999761581421,-0.16393637657165527,-0.16152851283550262,-0.15776008367538452,-0.1526995301246643,0.19312413036823273,0.12778927385807037,0.07716573029756546,0.02806765027344227
