vladlanda/robotic-transformer/data/env_000_episode_0232.csv
sim_time_s,robot_box_x,robot_box_y,robot_box_z,robot_box_quat_w,robot_box_quat_x,robot_box_quat_y,robot_box_quat_z,robot_box_linvel_x,robot_box_linvel_y,robot_box_linvel_z,robot_box_angvel_x,robot_box_angvel_y,robot_box_angvel_z,cube_world_x,cube_world_y,cube_world_z,cube_quat_w,cube_quat_x,cube_quat_y,cube_quat_z,cube_linvel_x,cube_linvel_y,cube_linvel_z,cube_angvel_x,cube_angvel_y,cube_angvel_z,endpoint_world_x,endpoint_world_y,endpoint_world_z,endpoint_linvel_x,endpoint_linvel_y,endpoint_linvel_z,target_cube_world_x,target_cube_world_y,target_cube_world_z,gripper_actual_pos_rad_gp_leftgearjoint,gripper_actual_vel_rad_s_gp_leftgearjoint,gripper_actual_pos_rad_gp_rotatingjoint,gripper_actual_vel_rad_s_gp_rotatingjoint,motor_angle_rad_joint1,motor_angle_rad_joint2,motor_angle_rad_joint3,motor_angle_rad_joint4,motor_speed_rad_s_joint1,motor_speed_rad_s_joint2,motor_speed_rad_s_joint3,motor_speed_rad_s_joint4
0.0,0.0,0.0,0.0,1.0,0.0,0.0,0.0,0.0,0.0,0.0,0.0,0.0,0.0,-0.3767230808734894,0.6540853381156921,0.41999998688697815,1.0,0.0,0.0,0.0,0.0,0.0,0.0,0.0,0.0,0.0,3.42540442943573e-06,-0.005000244826078415,1.313499927520752,0.0,0.0,0.0,0.39471620321273804,0.6708722710609436,0.42000001668930054,-1.5707999467849731,0.0,0.0,0.0,0.0,0.0,0.0,0.0,0.0,0.0,0.0,0.0
0.016666666666666666,0.002879063133150339,0.0021793320775032043,0.0,0.9998109936714172,0.0,0.0,0.01944301649928093,0.2409076988697052,0.182358518242836,0.0,0.0,0.0,3.141841173171997,-0.37672320008277893,0.6540850400924683,0.41999998688697815,1.0,3.279964630564791e-06,-8.339746386809566e-07,8.465587342243452e-08,-1.9833529222523794e-05,0.00017983045836444944,-6.132945418357849e-05,0.0009432713268324733,-0.004689474124461412,-0.00031981561915017664,-0.007109347730875015,0.0033831566106528044,1.3159377574920654,-0.8142096996307373,0.9870083332061768,0.1809561848640442,0.39471620321273804,0.6708722710609436,0.42000001668930054,-1.5301095247268677,3.000001907348633,-0.04584825038909912,-3.000000238418579,0.0008692906121723354,0.0007966104312799871,0.0007111478480510414,0.0006109938258305192,0.1109517365694046,0.09757419675588608,0.08335227519273758,0.06824757903814316
0.03333333333333333,0.008962390013039112,0.006799818016588688,0.0,0.9997988939285278,0.0,0.0,0.02005321905016899,0.40703845024108887,0.3152640163898468,0.0,0.0,0.0,-0.8691168427467346,-0.3767233192920685,0.6540849804878235,0.4200000464916229,1.0,3.3908179375430336e-06,-2.132458348569344e-06,-3.7097745320124886e-08,0.00026357852038927376,0.00026937833172269166,-0.00010509369894862175,-0.0017707126680761576,0.004130884539335966,-0.0001354814594378695,-0.027542874217033386,0.026056796312332153,1.316619873046875,-1.591111421585083,1.6159641742706299,-0.08233875036239624,0.39471620321273804,0.6708722710609436,0.42000001668930054,-1.4800902605056763,3.0,-0.09588808566331863,-3.000000238418579,0.0029900814406573772,0.002652782713994384,0.002277321880683303,0.0018608057871460915,0.16421063244342804,0.13975420594215393,0.11381740123033524,0.08630072325468063
0.05,0.018460823222994804,0.013880182057619095,0.0,0.9999804496765137,0.0,0.0,-0.006253355648368597,0.6361052393913269,0.47168487310409546,0.0,0.0,0.0,-4.0770368576049805,-0.37672334909439087,0.6540850400924683,0.4200000464916229,1.0,3.7651902857760433e-06,-2.2119197637948673e-06,5.609367637049445e-09,0.00026530938339419663,0.00026691678795032203,-0.00010440615005791187,-0.0017243892652913928,0.004177466034889221,-0.00012949809024576098,-0.05726588889956474,0.05667418986558914,1.3121012449264526,-1.957312822341919,1.9949009418487549,-0.43906936049461365,0.39471620321273804,0.6708722710609436,0.42000001668930054,-1.4300719499588013,3.0000014305114746,-0.14591634273529053,-3.0000007152557373,0.006008009891957045,0.005169881973415613,0.004259221255779266,0.003271897090598941,0.20719090104103088,0.1668623983860016,0.12462066113948822,0.08037741482257843
0.06666666666666667,0.030765613541007042,0.02335641160607338,0.0,0.9998920559883118,0.0,0.0,-0.01469111442565918,0.7724032998085022,0.615436315536499,0.0,0.0,0.0,-0.042391132563352585,-0.37672334909439087,0.6540849804878235,0.4200000464916229,0.9999999403953552,3.406832092878176e-06,-2.28558906201215e-06,4.300801492718165e-07,0.0002670248504728079,0.0002679176686797291,-0.0001043803058564663,-0.00174071139190346,0.00421183044090867,-0.00012850876373704523,-0.09502527117729187,0.08878699690103531,1.3014549016952515,-2.414888381958008,2.030877113342285,-0.8270748853683472,0.39471620321273804,0.6708722710609436,0.42000001668930054,-1.3800444602966309,3.0000014305114746,-0.12130329757928848,3.0,0.008760614320635796,0.007221895735710859,0.005570600274950266,0.0038017507176846266,0.15508334338665009,0.10591185837984085,0.05461352318525314,2.7881469577550888e-08
0.08333333333333333,0.04261384904384613,0.031165285035967827,0.0,0.9992763996124268,0.0,0.0,-0.038034383207559586,0.7142493724822998,0.3760940134525299,0.0,0.0,0.0,-3.6684787273406982,-0.37672334909439087,0.6540849804878235,0.4200000464916229,0.9999999403953552,3.626166289905086e-06,-2.3353043161478126e-06,3.032100153177453e-07,0.00026614085072651505,0.0002668516826815903,-0.00010405341163277626,-0.001728349830955267,0.004196455702185631,-0.0001279077841900289,-0.1296921670436859,0.12735088169574738,1.286383032798767,-1.8041319847106934,2.581132411956787,-0.9309375286102295,0.39471620321273804,0.6708722710609436,0.42000001668930054,-1.3300367593765259,3.000000238418579,-0.1532779335975647,-3.0000007152557373,0.008619558066129684,0.006039599422365427,0.003305931342765689,0.0003959075838793069,-0.08423279970884323,-0.16417817771434784,-0.2463759034872055,-0.3316064476966858
0.1,0.04807799309492111,0.041156623512506485,0.0,0.9959671497344971,0.0,0.0,-0.08971856534481049,0.3220830261707306,0.5768052935600281,0.0,0.0,0.0,-7.234347820281982,-0.37672334909439087,0.6540849804878235,0.4200000464916229,1.0,3.4222334761579987e-06,-2.3086047349352157e-06,1.796183539681806e-07,0.0002668157103471458,0.00026800340856425464,-0.00010440708138048649,-0.0017429988365620375,0.004207124002277851,-0.00012891183723695576,-0.16204935312271118,0.17364317178726196,1.264462947845459,-2.0225155353546143,2.9486732482910156,-1.4790124893188477,0.39471620321273804,0.6708722710609436,0.42000001668930054,-1.2800182104110718,2.9990956783294678,-0.11973079293966293,2.999976396560669,0.0015462146839126945,-0.0017820002976804972,-0.005311125423759222,-0.00907828938215971,-0.30503490567207336,-0.36905115842819214,-0.4335097074508667,-0.49904826283454895
0.11666666666666667,0.059337977319955826,0.05168595165014267,0.0,0.9925034046173096,0.0,0.0,-0.12221714109182358,0.7383564114570618,0.6620035767555237,0.0,0.0,0.0,-2.8253653049468994,-0.37672334909439087,0.6540850400924683,0.4200000464916229,1.0,3.7116215025889687e-06,-2.3326904283749172e-06,2.5741752551766695e-07,0.00026485833222977817,0.0002663549967110157,-0.00010423408821225166,-0.0017181988805532455,0.004170059692114592,-0.00012915713887196034,-0.2006378471851349,0.21783994138240814,1.2390754222869873,-2.3071584701538086,2.755016803741455,-1.6351903676986694,0.39471620321273804,0.6708722710609436,0.42000001668930054,-1.230022668838501,3.0,-0.15167313814163208,-2.9999988079071045,0.00042077849502675235,-0.004531842656433582,-0.00965371448546648,-0.014986877329647541,-0.11633995175361633,-0.2104521542787552,-0.30260494351387024,-0.39294931292533875
0.13333333333333333,0.0687161460518837,0.06095233932137489,0.0,0.9867166876792908,0.0,0.0,-0.1624506115913391,0.5311529040336609,0.49660226702690125,0.0,0.0,0.0,-5.807428359985352,-0.37672334909439087,0.6540849804878235,0.4200000464916229,1.0,3.3357862321281573e-06,-2.231929329354898e-06,3.1130659294831275e-07,0.00026669795624911785,0.00026759557658806443,-0.00010428577661514282,-0.0017371183494105935,0.004205892328172922,-0.00012840361159760505,-0.23658885061740875,0.2691776156425476,1.2091519832611084,-1.8972563743591309,3.4673829078674316,-1.913925290107727,0.39471620321273804,0.6708722710609436,0.42000001668930054,-1.180001974105835,2.999997854232788,-0.11811697483062744,2.999999761581421,-0.003505035536363721,-0.010056949220597744,-0.016734708100557327,-0.023580312728881836,-0.2574325203895569,-0.35955849289894104,-0.4583190381526947,-0.5535741448402405
0.15,0.07514572888612747,0.06752666085958481,0.0,0.9830856919288635,0.0,0.0,-0.18314626812934875,0.33517464995384216,0.3090764284133911,0.0,0.0,0.0,-1.394319772720337,-0.37672334909439087,0.6540849804878235,0.4200000464916229,1.0,3.5189802929380676e-06,-2.2830829493614146e-06,-3.625531803663762e-07,0.00026618537958711386,0.0002673575363587588,-0.00010425481013953686,-0.0017349323024973273,0.004195748828351498,-0.0001286051847273484,-0.27311792969703674,0.3222223222255707,1.1715114116668701,-2.112091541290283,3.325925588607788,-2.622112989425659,0.39471620321273804,0.6708722710609436,0.42000001668930054,-1.1343209743499756,2.4897730350494385,-0.1500716507434845,-3.0000009536743164,-0.008692547678947449,-0.016658887267112732,-0.02468409202992916,-0.03280910104513168,-0.3578300476074219,-0.4241209924221039,-0.4865037798881531,-0.5449826121330261
0.16666666666666666,0.07760227471590042,0.07482738792896271,0.0,0.977044939994812,0.0,0.0,-0.21303336322307587,0.07454261928796768,0.4932501018047333,0.0,0.0,0.0,-4.44347620010376,-0.37672334909439087,0.6540849804878235,0.4200000464916229,1.0,3.666678594527184e-06,-2.3391096419800306e-06,-3.150171608012897e-07,0.00026595700182951987,0.0002666723739821464,-0.00010403268970549107,-0.0017252295510843396,0.0041927071288228035,-0.00012778618838638067,-0.30824705958366394,0.3807401955127716,1.1208391189575195,-1.958092451095581,3.6838269233703613,-3.4421229362487793,0.39471620321273804,0.6708722710609436,0.42000001668930054,-1.0849318504333496,2.999999761581421,-0.16060183942317963,1.3688675165176392,-0.01665433682501316,-0.025454893708229065,-0.03424109145998955,-0.043054867535829544,-0.5557475686073303,-0.5874930024147034,-0.6151558756828308,-0.6388390064239502
0.18333333333333332,0.08367115259170532,0.0835808590054512,0.0,0.9627434611320496,0.0,0.0,-0.2704164683818817,0.3660171329975128,0.599707841873169,0.0,0.0,0.0,-7.883200168609619,-0.37672334909439087,0.6540849804878235,0.4200000464916229,1.0,3.814429419435328e-06,-2.399473942205077e-06,-2.702885524286103e-07,0.0002654908748809248,0.00026611171779222786,-0.00010391091927886009,-0.0017177866538986564,0.00418477039784193,-0.00012754213821608573,-0.3367970585823059,0.4476994574069977,1.0564448833465576,-1.3760488033294678,4.203954696655273,-4.221258163452148,0.39471620321273804,0.6708722710609436,0.42000001668930054,-1.034929871559143,3.0000016689300537,-0.20095060765743256,-3.0000009536743164,-0.025570623576641083,-0.03483090177178383,-0.044013675302267075,-0.053163040429353714,-0.7257970571517944,-0.7215695977210999,-0.7154287099838257,-0.7075842022895813
0.2,0.08661062270402908,0.09072098881006241,0.0,0.9514393210411072,0.0,0.0,-0.3078363239765167,0.15246686339378357,0.37605011463165283,0.0,0.0,0.0,-3.4876620769500732,-0.37672334909439087,0.6540849804878235,0.4200000464916229,1.0,3.600153604566003e-06,-2.291168357260176e-06,-2.202193059019919e-07,0.00026573051582090557,0.00026644981699064374,-0.00010398100130259991,-0.0017226870404556394,0.004188804421573877,-0.00012773176422342658,-0.36110174655914307,0.5099608898162842,0.9785064458847046,-1.1006180047988892,3.6947319507598877,-5.046192169189453,0.39471620321273804,0.6708722710609436,0.42000001668930054,-0.9849230051040649,3.0000009536743164,-0.25097909569740295,-3.000002145767212,-0.04084644839167595,-0.04941506311297417,-0.05773739516735077,-0.06604591012001038,-0.9483203291893005,-0.8980451822280884,-0.8335508704185486,-0.7707071900367737
0.21666666666666667,0.08587125688791275,0.09966526925563812,0.0,0.9377484321594238,0.0,0.0,-0.3473152816295624,-0.1155976802110672,0.5676102042198181,0.0,0.0,0.0,-5.831736087799072,-0.37672334909439087,0.6540849804878235,0.4200000464916229,0.9999999403953552,3.6397530038811965e-06,-2.261884901599842e-06,2.2244500996748684e-07,0.00026687333593145013,0.0002675435971468687,-0.00010411720722913742,-0.0017403463134542108,0.004211017861962318,-0.0001278394483961165,-0.37843573093414307,0.5668357014656067,0.887588381767273,-0.7061720490455627,3.2710065841674805,-5.76416015625,0.39471620321273804,0.6708722710609436,0.42000001668930054,-0.9349126219749451,3.0000007152557373,-0.30101022124290466,-2.999999523162842,-0.05662493035197258,-0.06531251966953278,-0.07370995730161667,-0.08200208097696304,-0.9877312183380127,-0.9901448488235474,-0.9841430187225342,-0.9756293892860413
0.23333333333333334,0.08929520100355148,0.10394727438688278,0.0,0.9295129776000977,0.0,0.0,-0.368789404630661,0.19626612961292267,0.2047666311264038,0.0,0.0,0.0,-1.4407365322113037,-0.3767233192920685,0.6540849804878235,0.4200000464916229,1.0,3.420872644710471e-06,-2.3167410745372763e-06,2.955537183879642e-07,0.00026680261362344027,0.00026804054505191743,-0.00010442431084811687,-0.0017437575152143836,0.004206955898553133,-0.00012899519060738385,-0.39316368103027344,0.611397385597229,0.7904266119003296,-0.6051955819129944,2.229982614517212,-6.004078388214111,0.39471620321273804,0.6708722710609436,0.42000001668930054,-0.8849019408226013,2.9999985694885254,-0.35104238986968994,-3.0,-0.07103157043457031,-0.07960636168718338,-0.08781227469444275,-0.09582348167896271,-0.9893068671226501,-0.9910404086112976,-0.9924014806747437,-0.9707979559898376
0.25,0.08709105104207993,0.11231312900781631,0.0,0.9304381012916565,0.0,0.0,-0.3664490878582001,-0.10844063013792038,0.4504227638244629,0.0,0.0,0.0,1.1081119775772095,-0.37672334909439087,0.6540849804878235,0.4200000464916229,0.9999999403953552,3.3476585485914256e-06,-2.259105940538575e-06,1.8080821462262975e-07,0.0002668779925443232,0.0002679099270608276,-0.00010439381003379822,-0.00174038321711123,0.004208257421851158,-0.00012870164937339723,-0.4020814299583435,0.632346510887146,0.6913610696792603,-0.40232470631599426,0.5978729724884033,-5.805920600891113,0.39471620321273804,0.6708722710609436,0.42000001668930054,-0.8348917961120605,2.999964714050293,-0.4010745584964752,-3.0000009536743164,-0.08802508562803268,-0.09641138464212418,-0.10451357811689377,-0.11246871948242188,-0.6772603392601013,-0.7330560684204102,-0.7867155075073242,-0.83561110496521
0.26666666666666666,0.08969080448150635,0.11507486552000046,0.0,0.9260395765304565,0.0,0.0,-0.3774263560771942,0.17190231382846832,0.12174048274755478,0.0,0.0,0.0,-2.030834913253784,-0.37672334909439087,0.6540849804878235,0.4200000464916229,0.9999999403953552,3.5357422802917426e-06,-2.3002112357062288e-06,-1.268858369485315e-07,0.00026601803256198764,0.00026712199905887246,-0.00010419590398669243,-0.0017316665034741163,0.004192826338112354,-0.00012849221820943058,-0.40556955337524414,0.6447921991348267,0.5943827033042908,0.01995699852705002,0.6147649884223938,-5.660649299621582,0.39471620321273804,0.6708722710609436,0.42000001668930054,-0.7848830223083496,2.9999964237213135,-0.4511057436466217,-2.999999523162842,-0.10022995620965958,-0.1092916876077652,-0.11806758493185043,-0.12665320932865143,-0.985241174697876,-0.9880395531654358,-0.9931684136390686,-0.9985665082931519
0.2833333333333333,0.08840066194534302,0.11515893787145615,0.0,0.928565502166748,0.0,0.0,-0.3711685240268707,-0.15963950753211975,-0.026913944631814957,0.0,0.0,0.0,1.6582462787628174,-0.37672334909439087,0.6540850400924683,0.4200000464916229,1.0,3.5934845072915778e-06,-2.262539965158794e-06,-5.657186008534154e-08,0.0002670453395694494,0.000267749244812876,-0.00010416400618851185,-0.0017430747393518686,0.004214037675410509,-0.00012789273750968277,-0.40255868434906006,0.6525585651397705,0.5060395002365112,0.4209851026535034,0.3151392936706543,-4.939150810241699,0.39471620321273804,0.6708722710609436,0.42000001668930054,-0.7348742485046387,2.9999990463256836,-0.5011349320411682,-3.0000040531158447,-0.11814431846141815,-0.1269170641899109,-0.13547608256340027,-0.14389151334762573,-1.0147067308425903,-1.0111268758773804,-1.0083998441696167,-1.0062252283096313
0.3,0.08341348171234131,0.1131686419248581,0.0,0.9252049922943115,0.0,0.0,-0.3794676661491394,-0.2767390310764313,-0.19493408501148224,0.0,0.0,0.0,-1.8797295093536377,-0.3767233192920685,0.6540849804878235,0.4200000464916229,0.9999999403953552,3.724986981978873e-06,-2.2359602098731557e-06,3.8285628534140415e-07,0.00026479759253561497,0.00026673171669244766,-0.0001045397948473692,-0.0017188882920891047,0.004166551399976015,-0.00013016769662499428,-0.38879308104515076,0.6550164818763733,0.42452946305274963,1.152989149093628,0.046543266624212265,-4.777366638183594,0.39471620321273804,0.6708722710609436,0.42000001668930054,-0.6848673224449158,2.999992847442627,-0.5511626601219177,-2.9999983310699463,-0.1350618451833725,-0.14373405277729034,-0.15224577486515045,-0.16063861548900604,-0.8444979190826416,-0.8730995059013367,-0.9007148146629333,-0.9253367781639099
0.31666666666666665,0.07732011377811432,0.10832913219928741,0.0,0.9281390905380249,0.0,0.0,-0.3722335696220398,-0.40849778056144714,-0.32987484335899353,0.0,0.0,0.0,1.8140711784362793,-0.37672334909439087,0.6540849804878235,0.4200000464916229,0.9999999403953552,3.557769332473981e-06,-2.278855163240223e-06,2.2830107582194614e-07,0.0002659846213646233,0.00026658488786779344,-0.00010399171151220798,-0.0017242042813450098,0.0041936119087040424,-0.0001276960247196257,-0.3895303010940552,0.6579296588897705,0.4258670210838318,-0.07463610172271729,0.1860802173614502,-0.21339337527751923,0.39471620321273804,0.6708722710609436,0.42000001668930054,-0.6348634362220764,2.999983310699463,-0.6016155481338501,-3.000002384185791,-0.14135250449180603,-0.15004289150238037,-0.15810415148735046,-0.1654004603624344,-0.4096013307571411,-0.3901289105415344,-0.3480916917324066,-0.27482500672340393
0.3333333333333333,0.0689028725028038,0.101279117166996,0.0,0.9250473976135254,0.0,0.0,-0.37985163927078247,-0.5492331981658936,-0.4616660177707672,0.0,0.0,0.0,-1.9147236347198486,-0.3764279782772064,0.6553004384040833,0.4200001358985901,0.9998873472213745,-5.125013558426872e-06,1.3651389963342808e-05,-0.01500609703361988,0.05891744792461395,0.17609886825084686,-0.0003926224017050117,0.015069274231791496,-0.012089783325791359,-4.144640922546387,-0.3879173994064331,0.6598275899887085,0.42259395122528076,0.22173243761062622,0.1558070033788681,-0.1827118992805481,0.39471620321273804,0.6708722710609436,0.42000001668930054,-0.5848584175109863,2.9999806880950928,-0.6516761183738708,-2.9999797344207764,-0.14919565618038177,-0.1570916324853897,-0.16401197016239166,-0.16971264779567719,-0.5002003312110901,-0.42875373363494873,-0.3397018015384674,-0.22840085625648499
0.35,0.05830267816781998,0.09202834963798523,0.0,0.9279871582984924,0.0,0.0,-0.37261220812797546,-0.6759453415870667,-0.593617856502533,0.0,0.0,0.0,1.8589023351669312,-0.37353193759918213,0.6607381105422974,0.42006218433380127,0.9969905018806458,3.3481381251476705e-05,0.0015539153246209025,-0.07750701159238815,0.24078920483589172,0.44050833582878113,0.025777826085686684,0.08614327758550644,1.2991042137145996,-11.813990592956543,-0.38411766290664673,0.6654360294342041,0.42144978046417236,0.22858962416648865,0.5187606811523438,0.11881966888904572,0.39471620321273804,0.6708722710609436,0.42000001668930054,-0.5348533987998962,2.999986410140991,-0.7017117738723755,-2.999999523162842,-0.15819235146045685,-0.16432353854179382,-0.16918829083442688,-0.17250169813632965,-0.522285521030426,-0.3955094516277313,-0.2516648769378662,-0.08990015834569931
0.36666666666666664,0.045429036021232605,0.08054708689451218,0.0,0.9250775575637817,0.0,0.0,-0.37977829575538635,-0.817440390586853,-0.731941282749176,0.0,0.0,0.0,-1.8302035331726074,-0.3680317997932434,0.6696523427963257,0.4200373589992523,0.987045168876648,0.0008847387507557869,-5.132930164108984e-05,-0.16044020652770996,0.5036057829856873,0.7223371267318726,0.0046480996534228325,0.4028080403804779,-0.20547497272491455,-4.677040100097656,-0.3758564591407776,0.6750186681747437,0.4207269251346588,0.7122317552566528,0.6219039559364319,-0.17995016276836395,0.39471620321273804,0.6708722710609436,0.42000001668930054,-0.4848487377166748,2.9999916553497314,-0.7517358064651489,-2.9997169971466064,-0.1673690676689148,-0.1709519624710083,-0.17293836176395416,-0.17306312918663025,-0.5306371450424194,-0.3637183904647827,-0.17618370056152344,0.029309319332242012
0.3833333333333333,0.03527190536260605,0.06632047891616821,0.0,0.9109979271888733,0.0,0.0,-0.4124109745025635,-0.5342162251472473,-0.9052202105522156,0.0,0.0,0.0,-5.10504150390625,-0.3568098545074463,0.6845541596412659,0.4202028214931488,0.980455219745636,-0.004988464061170816,0.0008461620891466737,-0.19667690992355347,0.8647246956825256,1.0843292474746704,0.06288953125476837,-2.96911358833313,1.1545518636703491,-5.794504165649414,-0.36193495988845825,0.6873154640197754,0.42104434967041016,1.030720591545105,0.9239706993103027,0.1574898511171341,0.39471620321273804,0.6708722710609436,0.42000001668930054,-0.4347721040248871,2.9999890327453613,-0.8017354607582092,-2.9999771118164062,-0.17521435022354126,-0.17590546607971191,-0.174585223197937,-0.17105604708194733,-0.38222625851631165,-0.20796550810337067,-0.007818466052412987,0.21330447494983673
0.4,0.029262498021125793,0.04905105382204056,0.0,0.8836098313331604,0.0,0.0,-0.4682239890098572,-0.29239004850387573,-1.0917892456054688,0.0,0.0,0.0,-8.295759201049805,-0.3281291127204895,0.7069737911224365,0.42376118898391724,0.9685702323913574,-0.012034905143082142,-0.032161470502614975,-0.24635851383209229,2.6361186504364014,1.6472176313400269,0.3603828549385071,15.840575218200684,-11.038599014282227,4.892364025115967,-0.3330562114715576,0.7104576826095581,0.42393702268600464,2.4934990406036377,1.8718007802963257,0.36245590448379517,0.39471620321273804,0.6708722710609436,0.42000001668930054,-0.39430588483810425,1.5176042318344116,-0.8517590761184692,-2.999911069869995,-0.1825552135705948,-0.18002641201019287,-0.17510658502578735,-0.16770420968532562,-0.46514368057250977,-0.2582578957080841,-0.033674515783786774,0.20135928690433502
0.4166666666666667,0.025377877056598663,0.03673584386706352,0.0,0.8396708965301514,0.0,0.0,-0.5430955290794373,-0.19355885684490204,-0.6104715466499329,0.0,0.0,0.0,-11.195975303649902,-0.26023682951927185,0.743740975856781,0.42845383286476135,0.95059734582901,0.053110841661691666,-0.08135499805212021,-0.294830858707428,5.552477836608887,2.2463881969451904,0.4691922962665558,-8.947792053222656,-0.20300886034965515,9.66421127319336,-0.2649500370025635,0.7476797103881836,0.4286574125289917,5.293634414672852,2.7211289405822754,0.32573121786117554,0.39471620321273804,0.6708722710609436,0.42000001668930054,-0.3761668801307678,0.9483457803726196,-0.8148487210273743,3.000002384185791,-0.19700436294078827,-0.19027835130691528,-0.18027964234352112,-0.16802167892456055,-0.8828959465026855,-0.6915338039398193,-0.39563053846359253,-0.1253208965063095
0.43333333333333335,0.02406669221818447,0.030513199046254158,0.0,0.8032510876655579,0.0,0.0,-0.5956405997276306,-0.015080415643751621,-0.42708781361579895,0.0,0.0,0.0,-6.223241329193115,-0.17219549417495728,0.7838578820228577,0.43706050515174866,0.9074276685714722,0.07928794622421265,-0.11243870109319687,-0.39704659581184387,5.587082862854004,1.7400790452957153,0.7076959013938904,19.73712730407715,-5.489843845367432,19.144725799560547,-0.17614778876304626,0.7892189025878906,0.4368787407875061,5.429832458496094,2.3030669689178467,0.5716087818145752,0.39471620321273804,0.6708722710609436,0.42000001668930054,-0.36007288098335266,0.973814070224762,-0.8417949080467224,-3.000005006790161,-0.20987971127033234,-0.20351174473762512,-0.18919946253299713,-0.17292512953281403,-0.49222561717033386,-0.5782622694969177,-0.41907888650894165,-0.25596505403518677
0.45,0.02030217833817005,0.02026628516614437,0.0,0.7864418625831604,0.0,0.0,-0.6176643371582031,-0.2976756989955902,-0.7847006320953369,0.0,0.0,0.0,-2.315495014190674,-0.07886867225170135,0.8126633763313293,0.4493189752101898,0.8444960117340088,0.08922798186540604,-0.10830385237932205,-0.5168511271476746,5.7687554359436035,0.6020992994308472,0.6777430772781372,-3.254686117172241,-16.407556533813477,12.671727180480957,-0.08359497785568237,0.8190823793411255,0.44725528359413147,5.757556915283203,1.3357353210449219,0.834881067276001,0.39471620321273804,0.6708722710609436,0.42000001668930054,-0.34334084391593933,0.8907978534698486,-0.8918188810348511,-3.0000057220458984,-0.2173561304807663,-0.21118764579296112,-0.1940060704946518,-0.17494791746139526,-0.33766135573387146,-0.3100740611553192,-0.14787736535072327,0.0053804172202944756
0.4666666666666667,0.019615933299064636,0.012262010015547276,0.0,0.7599577307701111,0.0,0.0,-0.6499724388122559,0.04587318003177643,-0.543085515499115,0.0,0.0,0.0,-5.549015998840332,0.01750868558883667,0.8212739825248718,0.4580075144767761,0.7764936685562134,0.07519108057022095,-0.14434917271137238,-0.6087421774864197,5.555553436279297,-0.5065715909004211,0.32847505807876587,0.9658178091049194,8.434608459472656,17.855600357055664,0.011914059519767761,0.8301689028739929,0.4577316641807556,5.892701625823975,0.2519526183605194,0.6069967746734619,0.39471620321273804,0.6708722710609436,0.42000001668930054,-0.3295193612575531,0.7085229754447937,-0.9418429136276245,-2.9999771118164062,-0.22623492777347565,-0.21825037896633148,-0.19778798520565033,-0.17569902539253235,-0.2772241234779358,-0.19745631515979767,-0.056933481246232986,0.07840201258659363
0.48333333333333334,0.018119141459465027,0.007047615945339203,0.0,0.7486531138420105,0.0,0.0,-0.6629619002342224,-0.13506823778152466,-0.21334631741046906,0.0,0.0,0.0,-0.8959330320358276,0.1074613705277443,0.8170043230056763,0.46512892842292786,0.7122198939323425,0.05697912350296974,-0.12685590982437134,-0.6880433559417725,4.815174579620361,-1.260412335395813,0.3402872681617737,-13.366145133972168,-8.456530570983887,19.28057861328125,0.10342706739902496,0.8269278407096863,0.4652194678783417,5.3378682136535645,-0.5817646980285645,0.47306373715400696,0.39471620321273804,0.6708722710609436,0.42000001668930054,-0.32029223442077637,0.4145490825176239,-0.991866946220398,-3.000002145767212,-0.23164349794387817,-0.22205397486686707,-0.19964484870433807,-0.17581409215927124,-0.29436975717544556,-0.1949789673089981,-0.10995759814977646,-0.042852386832237244
0.5,0.018459763377904892,-0.0002742317446973175,0.0,0.7301579713821411,0.0,0.0,-0.6832783818244934,0.07460044324398041,-0.44773101806640625,0.0,0.0,0.0,-4.026761531829834,0.1885082870721817,0.7998061776161194,0.46568992733955383,0.639522910118103,0.004072189796715975,-0.14927542209625244,-0.7541289925575256,4.390204906463623,-1.8214027881622314,-0.23973247408866882,-25.656227111816406,7.909338474273682,-4.94516134262085,0.1841561645269394,0.8119194507598877,0.4688296318054199,4.582025051116943,-1.3324350118637085,0.15543189644813538,0.39471620321273804,0.6708722710609436,0.42000001668930054,-0.3118208348751068,0.5638631582260132,-1.0418894290924072,-2.9996752738952637,-0.23467373847961426,-0.22326257824897766,-0.19964808225631714,-0.174893319606781,-0.2450944483280182,-0.09799768030643463,-0.0096600241959095,0.05897819250822067
0.5166666666666666,0.017895324155688286,-0.0024580839090049267,0.0,0.7243590950965881,0.0,0.0,-0.6894228458404541,-0.061320576816797256,-0.08165157586336136,0.0,0.0,0.0,-0.0022541924845427275,0.2563629150390625,0.7715137600898743,0.4633379578590393,0.5782372951507568,-0.03206305205821991,-0.12849797308444977,-0.8050477504730225,3.7041990756988525,-1.8955166339874268,-0.21750950813293457,-1.8437055349349976,1.2260805368423462,-7.969645023345947,0.25344234704971313,0.7838375568389893,0.46732085943222046,3.7824654579162598,-1.8934677839279175,-0.2679693102836609,0.39471620321273804,0.6708722710609436,0.42000001668930054,-0.298064261674881,0.9243450164794922,-1.0919115543365479,-3.0000009536743164,-0.23997338116168976,-0.2264830768108368,-0.2014966458082199,-0.17581681907176971,-7.918198718925851e-08,-0.06634755432605743,-0.05067771300673485,-0.05729171633720398
0.5333333333333333,0.019513513892889023,-0.00909097958356142,0.0,0.7093361616134644,0.0,0.0,-0.7048704028129578,0.11531754583120346,-0.4410664439201355,0.0,0.0,0.0,-3.4293899536132812,0.31369444727897644,0.7427677512168884,0.45310524106025696,0.5350309014320374,-0.0620141364634037,-0.11291808634996414,-0.8349524140357971,3.0732808113098145,-1.8518092632293701,-0.5874391794204712,-1.3348546028137207,9.980612754821777,-3.848057985305786,0.3120255470275879,0.7546495199203491,0.4577668011188507,3.149059772491455,-1.825006127357483,-0.8257772326469421,0.39471620321273804,0.6708722710609436,0.42000001668930054,-0.2824847400188446,0.843145489692688,-1.1419336795806885,-3.000002145767212,-0.23435808718204498,-0.2228473275899887,-0.19906799495220184,-0.1748531311750412,0.39341381192207336,0.2767931818962097,0.17048169672489166,0.048065055161714554
0.55,0.02342088334262371,-0.011275590397417545,0.0,0.7058916091918945,0.0,0.0,-0.708319902420044,0.25847238302230835,-0.12056276202201843,0.0,0.0,0.0,0.25408804416656494,0.3580612540245056,0.7113218307495117,0.43793073296546936,0.4960981011390686,-0.09717795252799988,-0.09296463429927826,-0.8577882051467896,2.217491865158081,-2.337066173553467,-0.8314778208732605,-5.730375289916992,3.5494794845581055,5.99220085144043,0.35711368918418884,0.7222732305526733,0.442867636680603,2.3439159393310547,-1.9140284061431885,-1.0359957218170166,0.39471620321273804,0.6708722710609436,0.42000001668930054,-0.2701260447502136,0.5899131894111633,-1.191955804824829,-2.999998092651367,-0.23075875639915466,-0.22053883969783783,-0.19843600690364838,-0.17622944712638855,0.3673713505268097,0.2519012689590454,0.09392466396093369,-0.07679709792137146
0.5666666666666667,0.02947799302637577,-0.010883492417633533,0.0,0.6933558583259583,0.0,0.0,-0.7205953001976013,0.41119664907455444,0.08465170115232468,0.0,0.0,0.0,-2.981257915496826,0.38949164748191833,0.6892808675765991,0.42271897196769714,0.489287793636322,-0.05634549260139465,-0.029709158465266228,-0.8697929978370667,0.9825398921966553,-0.9146789312362671,0.022766172885894775,-5.246933460235596,0.9302048683166504,3.668858289718628,0.38768136501312256,0.6976083517074585,0.42559313774108887,1.0058742761611938,-0.787895917892456,-0.06993075460195541,0.39471620321273804,0.6708722710609436,0.42000001668930054,-0.2608092129230499,0.6608197689056396,-1.1555248498916626,2.999577522277832,-0.22202499210834503,-0.21479837596416473,-0.19654272496700287,-0.17817158997058868,0.6551024913787842,0.43943631649017334,0.16655418276786804,-0.09396184235811234
0.5833333333333334,0.033148664981126785,-0.01459862943738699,0.0,0.6926349997520447,0.0,0.0,-0.7212882041931152,0.16727682948112488,-0.22010287642478943,0.0,0.0,0.0,0.7071152329444885,0.40242546796798706,0.6797939538955688,0.4225018620491028,0.508746325969696,-0.054830171167850494,-0.02569597028195858,-0.8587842583656311,0.4425256848335266,-0.6438937783241272,-0.06672503799200058,-1.6051065921783447,-2.6993021965026855,4.858669281005859,0.3985365629196167,0.6860725283622742,0.42688992619514465,0.317582368850708,-0.726872444152832,0.12374059855937958,0.39471620321273804,0.6708722710609436,0.42000001668930054,-0.263103723526001,-0.78668212890625,-1.1773823499679565,-2.999976873397827,-0.20923054218292236,-0.20443257689476013,-0.1909438818693161,-0.17712871730327606,0.5260369181632996,0.508729875087738,0.25808852910995483,0.014477226883172989
0.6,0.0384623184800148,-0.01367492787539959,0.0,0.6811766624450684,0.0,0.0,-0.732119083404541,0.33001708984375,0.051971759647130966,0.0,0.0,0.0,-2.631620407104492,0.40589621663093567,0.6727719902992249,0.4213835299015045,0.5418928861618042,-0.029826996847987175,-0.01846662163734436,-0.8397151231765747,0.2264302372932434,-0.25564584136009216,-0.06444653868675232,3.4475114345550537,-4.805340766906738,9.707315444946289,0.4025384783744812,0.6786875128746033,0.42559516429901123,0.22626125812530518,-0.17487624287605286,-0.10179398953914642,0.39471620321273804,0.6708722710609436,0.42000001668930054,-0.26447972655296326,0.40517494082450867,-1.1424435377120972,2.995189905166626,-0.20167703926563263,-0.19764718413352966,-0.1884021908044815,-0.17864954471588135,0.6238038539886475,0.5179083943367004,0.2304162085056305,-0.03875171020627022
0.6166666666666667,0.045549578964710236,-0.01705564185976982,0.0,0.6825058460235596,0.0,0.0,-0.730880081653595,0.44845911860466003,-0.18691633641719818,0.0,0.0,0.0,1.0935304164886475,0.40745553374290466,0.6699056029319763,0.42014431953430176,0.5685825943946838,-0.0020076066721230745,-0.00169076316524297,-0.8226219415664673,-0.07713690400123596,-0.18377213180065155,-0.1205582395195961,5.972921848297119,-2.3037922382354736,2.4577090740203857,0.4028904438018799,0.676032543182373,0.42659875750541687,-0.18588820099830627,-0.19249579310417175,0.12225225567817688,0.39471620321273804,0.6708722710609436,0.42000001668930054,-0.30077245831489563,-2.9999892711639404,-1.164488434791565,-2.9998042583465576,-0.19041503965854645,-0.18809819221496582,-0.18325605988502502,-0.17764130234718323,0.4805508852005005,0.41819143295288086,0.21040575206279755,0.01222609169781208
0.6333333333333333,0.05445481091737747,-0.016322828829288483,0.0,0.6782018542289734,0.0,0.0,-0.7348756790161133,0.554763913154602,0.07222570478916168,0.0,0.0,0.0,-1.5897972583770752,0.40672120451927185,0.6684834361076355,0.42000001668930054,0.5761173963546753,-6.58815366705312e-08,-1.4322342849482084e-06,-0.817366898059845,-0.02063690312206745,-0.05862363427877426,-1.145736314356327e-05,0.0015051126247271895,0.00023617285478394479,0.2501876950263977,0.4024747908115387,0.6764535307884216,0.428871214389801,0.09103316813707352,0.1623266190290451,0.16249403357505798,0.39471620321273804,0.6708722710609436,0.42000001668930054,-0.3506895899772644,-2.9723925590515137,-1.2144441604614258,-2.998764991760254,-0.18282799422740936,-0.18199194967746735,-0.18060310184955597,-0.17819151282310486,0.5741612315177917,0.44705379009246826,0.22493703663349152,0.022022690623998642
0.65,0.0652250424027443,-0.015286075882613659,0.0,0.6857735514640808,0.0,0.0,-0.7278149724006653,0.6828058958053589,0.09930727630853653,0.0,0.0,0.0,2.1427981853485107,0.4066561162471771,0.668299674987793,0.42000001668930054,0.5763585567474365,1.1187083146069199e-05,9.418296031071804e-06,-0.8171968460083008,0.0004381322651170194,0.0007727636839263141,-0.0005276920273900032,-0.002214421285316348,0.010157113894820213,-0.0019056430319324136,0.4013415277004242,0.6788277626037598,0.43171992897987366,-0.17430731654167175,0.12841157615184784,0.1979057639837265,0.39471620321273804,0.6708722710609436,0.42000001668930054,-0.4007028639316559,-2.999999523162842,-1.2644374370574951,-2.9997527599334717,-0.17272570729255676,-0.17401860654354095,-0.1760340929031372,-0.1767306923866272,0.5794417858123779,0.4622773230075836,0.28336626291275024,0.11898384988307953
0.6666666666666666,0.07329262048006058,-0.017444681376218796,0.0,0.682827889919281,0.0,0.0,-0.7305792570114136,0.39190852642059326,-0.15906807780265808,0.0,0.0,0.0,-1.5572075843811035,0.40656760334968567,0.6683721542358398,0.41999995708465576,0.578944206237793,-1.455960955354385e-06,-1.3277851394377649e-05,-0.8153671622276306,0.0005062916898168623,-0.0010719255078583956,-0.0002777406189125031,0.015520560555160046,0.00936010479927063,0.0015906809130683541,0.4007079005241394,0.6808453798294067,0.43546783924102783,-0.016525225713849068,0.06872168183326721,0.23858767747879028,0.39471620321273804,0.6708722710609436,0.42000001668930054,-0.4507272243499756,-2.998629331588745,-1.314408540725708,-2.9995481967926025,-0.16320495307445526,-0.1660531759262085,-0.1703576147556305,-0.17309993505477905,0.40406498312950134,0.36172255873680115,0.2878621518611908,0.22478418052196503
0.6833333333333333,0.08140898495912552,-0.02053234726190567,0.0,0.6877284049987793,0.0,0.0,-0.725968062877655,0.5197951197624207,-0.2747633457183838,0.0,0.0,0.0,2.1139914989471436,0.40656769275665283,0.6683713793754578,0.41999995708465576,0.5789448618888855,-1.5113619156181812e-06,-5.6939825299195945e-06,-0.8153666853904724,0.00010588758595986292,-0.0003980770707130432,-7.873936556279659e-05,0.009896916337311268,-0.002802149159833789,-0.0009030484943650663,0.4001885652542114,0.6817612648010254,0.445891797542572,-0.0068947430700063705,0.08565625548362732,1.0373480319976807,0.39471620321273804,0.6708722710609436,0.42000001668930054,-0.5007397532463074,-2.999999523162842,-1.3644267320632935,-3.0000007152557373,-0.16001951694488525,-0.16275106370449066,-0.16723385453224182,-0.16999326646327972,0.1217234879732132,0.14969120919704437,0.17284995317459106,0.20629668235778809
0.7,0.09187836199998856,-0.02053239941596985,0.0,0.6839879155158997,0.0,0.0,-0.7294933795928955,0.6370241641998291,0.005046343430876732,0.0,0.0,0.0,-1.4509854316711426,0.40656769275665283,0.6683713793754578,0.41999995708465576,0.5789451599121094,-1.4598876987292897e-06,-5.508078629645752e-06,-0.8153663873672485,0.00011166794138262048,-0.00039764639222994447,-7.820664905011654e-05,0.009914766997098923,-0.0028221081010997295,-0.0009176682797260582,0.40491002798080444,0.6826364994049072,0.4605258107185364,0.6140949726104736,0.0496489591896534,0.853825569152832,0.39471620321273804,0.6708722710609436,0.42000001668930054,-0.5507523417472839,-2.9999938011169434,-1.4144450426101685,-2.999999761581421,-0.16079206764698029,-0.16262945532798767,-0.16606535017490387,-0.1675616204738617,0.0759090855717659,0.10555513203144073,0.15955010056495667,0.23326657712459564
0.7166666666666667,0.1041279062628746,-0.025062406435608864,0.0,0.6595264673233032,0.0,0.0,-0.7516813278198242,0.7723321318626404,-0.3001736104488373,0.0,0.0,0.0,-4.755897045135498,0.40656769275665283,0.6683713793754578,0.41999995708465576,0.5789452791213989,-1.385345740345656e-06,-5.802622126793722e-06,-0.8153663873672485,0.00010866197408176959,-0.0003971557889599353,-7.818685844540596e-05,0.009895728901028633,-0.0028229018207639456,-0.0009095425484701991,0.4201943874359131,0.6848845481872559,0.48143428564071655,1.1375951766967773,0.0877733826637268,1.7794175148010254,0.39471620321273804,0.6708722710609436,0.42000001668930054,-0.6007638573646545,-2.9999966621398926,-1.4644633531570435,-3.0,-0.1589093953371048,-0.16033126413822174,-0.1628424972295761,-0.16310305893421173,-0.07689103484153748,-0.010840985924005508,0.08727645874023438,0.19849422574043274
0.7333333333333333,0.11888305097818375,-0.025510253384709358,0.0,0.6485245227813721,0.0,0.0,-0.7611937522888184,0.8998352289199829,-0.003036465495824814,0.0,0.0,0.0,-0.7146193981170654,0.40656769275665283,0.6683713793754578,0.41999995708465576,0.5789450407028198,-1.4039007965038763e-06,-5.687981229129946e-06,-0.8153665661811829,0.00010762453166535124,-0.0003971508995164186,-7.818895392119884e-05,0.009894209913909435,-0.002825971692800522,-0.0009071493404917419,0.4400562644004822,0.6898880004882812,0.5152195692062378,1.2921698093414307,0.5311795473098755,2.2410025596618652,0.39471620321273804,0.6708722710609436,0.42000001668930054,-0.6197229623794556,0.44261524081230164,-1.5144816637039185,-2.9999992847442627,-0.16217921674251556,-0.16277526319026947,-0.16396860778331757,-0.16281262040138245,-0.06801637262105942,-0.07767791301012039,-0.05654878541827202,-0.03064621239900589
0.75,0.13060957193374634,-0.023651739582419395,0.0,0.6612920165061951,0.0,0.0,-0.7501285672187805,0.6329447031021118,0.17135514318943024,0.0,0.0,0.0,2.892145872116089,0.40656769275665283,0.6683713793754578,0.41999995708465576,0.5789451003074646,-1.4228210147848586e-06,-5.592152774624992e-06,-0.8153664469718933,0.0001091360391001217,-0.0003972801787313074,-7.817964069545269e-05,0.009900650940835476,-0.002823551883921027,-0.0009108728845603764,0.46064990758895874,0.6958295702934265,0.5459221005439758,1.1275689601898193,0.2543981373310089,1.5318899154663086,0.39471620321273804,0.6708722710609436,0.42000001668930054,-0.5993496179580688,1.860155701637268,-1.475709319114685,2.999999761581421,-0.16283383965492249,-0.16339313983917236,-0.16406792402267456,-0.1623973399400711,-0.006099225953221321,0.004486909601837397,0.04066982865333557,0.07126937061548233
0.7666666666666666,0.13767212629318237,-0.02604389563202858,0.0,0.661897599697113,0.0,0.0,-0.7495942711830139,0.3790833055973053,-0.1730753779411316,0.0,0.0,0.0,-0.866722047328949,0.40656769275665283,0.6683713793754578,0.41999995708465576,0.5789452195167542,-1.379931404699164e-06,-5.8740815802593715e-06,-0.8153664469718933,0.00010884248331421986,-0.0003971863479819149,-7.817801088094711e-05,0.009897145442664623,-0.0028228869196027517,-0.0009100184543058276,0.47277766466140747,0.7006678581237793,0.565433144569397,0.28103092312812805,0.15301795303821564,0.953275203704834,0.39471620321273804,0.6708722710609436,0.42000001668930054,-0.5905413627624512,-0.5960729122161865,-1.4256528615951538,3.0000007152557373,-0.1597546488046646,-0.16047576069831848,-0.16093041002750397,-0.15917959809303284,0.05187144875526428,0.0805615559220314,0.1252671778202057,0.15362706780433655
0.7833333333333333,0.14125435054302216,-0.02390597201883793,0.0,0.6730321049690247,0.0,0.0,-0.7396132946014404,0.17093025147914886,0.14759013056755066,0.0,0.0,0.0,2.5591776371002197,0.40656766295433044,0.6683713793754578,0.41999995708465576,0.578944981098175,-1.3837682217854308e-06,-5.759400664828718e-06,-0.8153665065765381,0.00010708589252317324,-0.00039701350033283234,-7.81831331551075e-05,0.009889091365039349,-0.0028245828580111265,-0.0009055780246853828,0.47521549463272095,0.7009799480438232,0.5760689973831177,0.11201300472021103,0.04086175560951233,0.3710094094276428,0.39471620321273804,0.6708722710609436,0.42000001668930054,-0.5764058232307434,2.051403760910034,-1.4432562589645386,-3.000000476837158,-0.1622321754693985,-0.1617257446050644,-0.16079334914684296,-0.1580415964126587,-0.03814344480633736,0.011560020968317986,0.07036477327346802,0.1068580374121666
0.8,0.14178188145160675,-0.025634057819843292,0.0,0.6710202693939209,0.0,0.0,-0.7414390444755554,-0.035683996975421906,-0.10379435867071152,0.0,0.0,0.0,-1.1170016527175903,0.40656766295433044,0.6683713793754578,0.41999995708465576,0.5789451003074646,-1.391787122884125e-06,-5.7872061915986706e-06,-0.8153665065765381,0.00010691795614548028,-0.0003967698139604181,-7.81442504376173e-05,0.009882262907922268,-0.0028210212476551533,-0.0009046880295500159,0.46980977058410645,0.7028995752334595,0.5763388872146606,-0.7926173210144043,0.1186535656452179,-0.17468145489692688,0.39471620321273804,0.6708722710609436,0.42000001668930054,-0.5654236078262329,-0.5211496949195862,-1.404690146446228,2.999999523162842,-0.16109599173069,-0.16012847423553467,-0.15861085057258606,-0.15563802421092987,-0.020963400602340698,0.022635668516159058,0.06933960318565369,0.09121903777122498
0.8166666666666667,0.14346382021903992,-0.023021621629595757,0.0,0.6802821159362793,0.0,0.0,-0.7329503297805786,0.13147765398025513,0.13823029398918152,0.0,0.0,0.0,2.1790401935577393,0.40656766295433044,0.6683713793754578,0.41999995708465576,0.578944981098175,-1.383123731102387e-06,-5.786566816823324e-06,-0.8153665065765381,0.00010672638018149883,-0.0003966494696214795,-7.812678813934326e-05,0.009878783486783504,-0.0028190871234983206,-0.0009039599681273103,0.45864951610565186,0.7044238448143005,0.5731514096260071,-0.47149983048439026,0.20804542303085327,-0.17550545930862427,0.39471620321273804,0.6708722710609436,0.42000001668930054,-0.5511448979377747,2.0047624111175537,-1.4227232933044434,-2.9999990463256836,-0.16315673291683197,-0.16138967871665955,-0.15899914503097534,-0.15551458299160004,0.04520226642489433,0.044283777475357056,0.053360432386398315,0.04928009584546089
0.8333333333333334,0.14331789314746857,-0.024716783314943314,0.0,0.6764782667160034,0.0,0.0,-0.7364625930786133,-0.0554896779358387,-0.12364359200000763,0.0,0.0,0.0,-1.5021485090255737,0.40656766295433044,0.6683713793754578,0.41999995708465576,0.5789451003074646,-1.3797216524835676e-06,-5.812185918330215e-06,-0.8153664469718933,0.00010701756400521845,-0.0003968012169934809,-7.814285345375538e-05,0.009883451275527477,-0.002821191679686308,-0.0009049764485098422,0.4503324627876282,0.7074071168899536,0.5669162273406982,-0.5791308283805847,0.06074933335185051,-0.41280341148376465,0.39471620321273804,0.6708722710609436,0.42000001668930054,-0.5619814395904541,-2.8733468055725098,-1.384216547012329,3.000000238418579,-0.16144642233848572,-0.15988166630268097,-0.15753021836280823,-0.15425974130630493,-0.008227563463151455,0.001832046196796,0.01905103027820587,0.024759048596024513
0.85,0.1445336490869522,-0.022873826324939728,0.0,0.6831938624382019,0.0,0.0,-0.7302370071411133,0.10848671197891235,0.12721461057662964,0.0,0.0,0.0,1.8638397455215454,0.40656766295433044,0.6683713793754578,0.41999995708465576,0.5789450407028198,-1.3902002820032067e-06,-5.809098638565047e-06,-0.8153665065765381,0.00010693180229282007,-0.0003966757212765515,-7.812422700226307e-05,0.009879973717033863,-0.00281930691562593,-0.0009045196347869933,0.4448026418685913,0.7075076103210449,0.5609272718429565,-0.04847013205289841,0.05570228397846222,-0.27187177538871765,0.39471620321273804,0.6708722710609436,0.42000001668930054,-0.5804830193519592,0.3867510259151459,-1.4026399850845337,-2.999999523162842,-0.16349540650844574,-0.16140639781951904,-0.15837526321411133,-0.1545489877462387,-0.029268385842442513,-0.01823645643889904,0.007117127534002066,0.0322040431201458
0.8666666666666667,0.1478157937526703,-0.0247089471668005,0.0,0.678463876247406,0.0,0.0,-0.73463374376297,0.2314898520708084,-0.1549002081155777,0.0,0.0,0.0,-1.5890370607376099,0.40656766295433044,0.6683713793754578,0.41999995708465576,0.578944981098175,-1.400696760356368e-06,-5.8061473282577936e-06,-0.8153665661811829,0.00010693257354432717,-0.00039667452801950276,-7.812422700226307e-05,0.009879925288259983,-0.0028193513862788677,-0.0009045216720551252,0.44525158405303955,0.708111584186554,0.5540187358856201,0.06637613475322723,-0.07933351397514343,-0.3932708501815796,0.39471620321273804,0.6708722710609436,0.42000001668930054,-0.6081953644752502,-3.0,-1.3641905784606934,3.000000238418579,-0.16292621195316315,-0.16080857813358307,-0.15749779343605042,-0.1533430963754654,-0.05705997720360756,-0.029883800074458122,0.009569537825882435,0.05074713006615639
0.8833333333333333,0.15377768874168396,-0.02336309291422367,0.0,0.65672367811203,0.0,0.0,-0.7541312575340271,0.3988479971885681,0.10732469707727432,0.0,0.0,0.0,-4.640811920166016,0.40656766295433044,0.6683713793754578,0.41999995708465576,0.5789451003074646,-1.3861908882972784e-06,-5.829192559758667e-06,-0.8153665065765381,0.000107117673906032,-0.00039683427894487977,-7.814378477633e-05,0.009884611703455448,-0.00282136257737875,-0.0009052676614373922,0.4517880082130432,0.7075445055961609,0.5493919253349304,0.749688982963562,0.02290182374417782,-0.0623040497303009,0.39471620321273804,0.6708722710609436,0.42000001668930054,-0.6360297203063965,-0.5293922424316406,-1.3829882144927979,-2.9999959468841553,-0.16584275662899017,-0.16327030956745148,-0.15924838185310364,-0.15427304804325104,-0.10518915206193924,-0.10110567510128021,-0.07774397730827332,-0.04182673618197441
0.9,0.16193686425685883,-0.020588872954249382,0.0,0.6469488739967346,0.0,0.0,-0.7625333666801453,0.5221564173698425,0.2654542922973633,0.0,0.0,0.0,-0.5357104539871216,0.40656769275665283,0.6683713793754578,0.41999995708465576,0.5789450407028198,-1.4463849993262556e-06,-5.64617448617355e-06,-0.8153665661811829,0.0001089048819267191,-0.00039700171328149736,-7.814355194568634e-05,0.009892606176435947,-0.0028204764239490032,-0.0009100657771341503,0.46029865741729736,0.7116071581840515,0.5510240793228149,0.2926492691040039,0.4116050601005554,0.21645838022232056,0.39471620321273804,0.6708722710609436,0.42000001668930054,-0.6194040179252625,2.2687594890594482,-1.4330065250396729,-3.000000238418579,-0.16610965132713318,-0.16405774652957916,-0.16031301021575928,-0.15544280409812927,0.0022236304357647896,-0.05231271684169769,-0.09741897881031036,-0.13522592186927795
