vladlanda/robotic-transformer/data/env_000_episode_0178.csv
sim_time_s,robot_box_x,robot_box_y,robot_box_z,robot_box_quat_w,robot_box_quat_x,robot_box_quat_y,robot_box_quat_z,robot_box_linvel_x,robot_box_linvel_y,robot_box_linvel_z,robot_box_angvel_x,robot_box_angvel_y,robot_box_angvel_z,cube_world_x,cube_world_y,cube_world_z,cube_quat_w,cube_quat_x,cube_quat_y,cube_quat_z,cube_linvel_x,cube_linvel_y,cube_linvel_z,cube_angvel_x,cube_angvel_y,cube_angvel_z,endpoint_world_x,endpoint_world_y,endpoint_world_z,endpoint_linvel_x,endpoint_linvel_y,endpoint_linvel_z,target_cube_world_x,target_cube_world_y,target_cube_world_z,gripper_actual_pos_rad_gp_leftgearjoint,gripper_actual_vel_rad_s_gp_leftgearjoint,gripper_actual_pos_rad_gp_rotatingjoint,gripper_actual_vel_rad_s_gp_rotatingjoint,motor_angle_rad_joint1,motor_angle_rad_joint2,motor_angle_rad_joint3,motor_angle_rad_joint4,motor_speed_rad_s_joint1,motor_speed_rad_s_joint2,motor_speed_rad_s_joint3,motor_speed_rad_s_joint4
0.0,0.0,0.0,0.0,1.0,0.0,0.0,0.0,0.0,0.0,0.0,0.0,0.0,0.0,-0.32663893699645996,0.6835289001464844,0.41999998688697815,1.0,0.0,0.0,0.0,0.0,0.0,0.0,0.0,0.0,0.0,3.42540442943573e-06,-0.005000244826078415,1.313499927520752,0.0,0.0,0.0,0.42002928256988525,0.7524201273918152,0.42000001668930054,-1.5707999467849731,0.0,0.0,0.0,0.0,0.0,0.0,0.0,0.0,0.0,0.0,0.0
0.016666666666666666,0.0028673585038632154,0.002159030642360449,0.0,0.999820351600647,0.0,0.0,-0.018954340368509293,0.23904359340667725,0.1802273988723755,0.0,0.0,0.0,-3.1460769176483154,-0.3266390562057495,0.6835286021232605,0.41999998688697815,1.0,3.2799905511637917e-06,-8.339794135281409e-07,8.465515577427141e-08,-1.9833774786093272e-05,0.00017983047291636467,-6.132945418357849e-05,0.0009432245860807598,-0.004689525347203016,-0.00031981084612198174,-0.006978766992688179,0.004105732776224613,1.3159255981445312,-0.7933308482170105,1.0451195240020752,0.17917156219482422,0.42002928256988525,0.7524201273918152,0.42000001668930054,-1.5301092863082886,3.00000262260437,-0.04587125778198242,-2.999999761581421,0.0008640085579827428,0.0007906819810159504,0.0007053036242723465,0.0006056982674635947,0.1103099137544632,0.09687833487987518,0.0825839713215828,0.06739091128110886
0.03333333333333333,0.008868767879903316,0.006751379929482937,0.0,0.9998040199279785,0.0,0.0,-0.019796958193182945,0.40258708596229553,0.31423822045326233,0.0,0.0,0.0,0.8666982054710388,-0.32663917541503906,0.6835285425186157,0.4200000464916229,1.0,3.3908531804627273e-06,-2.132488134520827e-06,-3.710428941872124e-08,0.0002635785494931042,0.0002693783608265221,-0.00010509602725505829,-0.0017707846127450466,0.004130862653255463,-0.00013547409616876394,-0.026383820921182632,0.025890279561281204,1.316766381263733,-1.4685335159301758,1.5970380306243896,-0.05728927254676819,0.42002928256988525,0.7524201273918152,0.42000001668930054,-1.4800900220870972,3.000002384185791,-0.09591103345155716,-3.000000238418579,0.0029174769297242165,0.0025745676830410957,0.0021939673461019993,0.00177251105196774,0.15876230597496033,0.1340995579957962,0.10794925689697266,0.08021267503499985
0.05,0.017518598586320877,0.01355605386197567,0.0,0.9993928074836731,0.0,0.0,-0.034843333065509796,0.581306517124176,0.45085376501083374,0.0,0.0,0.0,-2.6373157501220703,-0.32663920521736145,0.6835286021232605,0.4200000464916229,1.0,3.7651284401363228e-06,-2.2118861124909017e-06,5.622759147172474e-09,0.00026530996547080576,0.00026691515813581645,-0.00010440382175147533,-0.00172425655182451,0.004177390597760677,-0.00012948956282343715,-0.052313871681690216,0.05797382444143295,1.312617540359497,-1.6250300407409668,2.2097883224487305,-0.40802568197250366,0.42002928256988525,0.7524201273918152,0.42000001668930054,-1.4300717115402222,3.00000262260437,-0.14592914283275604,-3.0000009536743164,0.005206306464970112,0.00428301515057683,0.003287913743406534,0.0022158711217343807,0.14686337113380432,0.09776263684034348,0.046794965863227844,-0.006111818365752697
0.06666666666666667,0.02968871407210827,0.02283969521522522,0.0,0.9970623254776001,0.0,0.0,-0.07659438997507095,0.789992094039917,0.6019462943077087,0.0,0.0,0.0,-5.861332893371582,-0.32663920521736145,0.6835285425186157,0.4200000464916229,0.9999999403953552,3.406779342185473e-06,-2.285526988998754e-06,4.300881926155853e-07,0.00026702668401412666,0.00026791810523718596,-0.00010437914170324802,-0.0017406379338353872,0.004211799707263708,-0.00012850595521740615,-0.0810324177145958,0.09843426197767258,1.3029781579971313,-1.7957608699798584,2.604383945465088,-0.7434788346290588,0.42002928256988525,0.7524201273918152,0.42000001668930054,-1.380048155784607,2.999995708465576,-0.11242271214723587,3.0000011920928955,0.007324560079723597,0.00554667180404067,0.00365801015868783,0.0016529951244592667,0.12595318257808685,0.06878522038459778,0.009560980834066868,-0.05175240710377693
0.08333333333333333,0.04427705332636833,0.034672513604164124,0.0,0.9950880408287048,0.0,0.0,-0.09899408370256424,0.9456809759140015,0.7510785460472107,0.0,0.0,0.0,-1.6262890100479126,-0.32663920521736145,0.6835285425186157,0.4200000464916229,1.0,3.6973510759708006e-06,-2.1889595700486097e-06,-2.632473012909031e-07,0.00026389595586806536,0.0002658632874954492,-0.0001043388620018959,-0.0017081330297514796,0.004150238819420338,-0.00012991279072593898,-0.1139015480875969,0.13829277455806732,1.289933443069458,-1.9462518692016602,2.461557388305664,-0.8137814998626709,0.42002928256988525,0.7524201273918152,0.42000001668930054,-1.330047369003296,2.999997854232788,-0.1444096863269806,-3.0,0.007854647003114223,0.005061042960733175,0.0021157783921808004,-0.0009860624559223652,-2.5578628992661834e-08,-0.07018490135669708,-0.14266753196716309,-0.21718664467334747
0.1,0.053585268557071686,0.044372860342264175,0.0,0.9908148050308228,0.0,0.0,-0.13522587716579437,0.43259212374687195,0.5239640474319458,0.0,0.0,0.0,-5.310639381408691,-0.32663920521736145,0.6835285425186157,0.4200000464916229,0.9999999403953552,3.62046125701454e-06,-2.2652770894637797e-06,1.745990232393524e-07,0.0002667673397809267,0.00026740715838968754,-0.0001040794886648655,-0.0017385382670909166,0.004209098871797323,-0.0001277524424949661,-0.14331203699111938,0.1832280457019806,1.2739068269729614,-1.5452319383621216,2.988192558288574,-1.049176812171936,0.42002928256988525,0.7524201273918152,0.42000001668930054,-1.2800238132476807,2.9999942779541016,-0.11090303212404251,2.999999761581421,0.0020246952772140503,-0.0016327161574736238,-0.005495233926922083,-0.00956680066883564,-0.46767333149909973,-0.5236749053001404,-0.5822831392288208,-0.6435039043426514
0.11666666666666667,0.06030507758259773,0.05774866044521332,0.0,0.9802813529968262,0.0,0.0,-0.19760695099830627,0.48059597611427307,0.7320258617401123,0.0,0.0,0.0,-8.173885345458984,-0.32663920521736145,0.6835285425186157,0.4200000464916229,1.0,3.7984573282301426e-06,-2.262856924062362e-06,-1.5021495869405044e-07,0.00026374036679044366,0.000265661277808249,-0.00010429229587316513,-0.001705389702692628,0.004147546831518412,-0.000129798921989277,-0.1702367663383484,0.235640287399292,1.252523422241211,-1.67111074924469,3.3499915599823,-1.2845425605773926,0.42002928256988525,0.7524201273918152,0.42000001668930054,-1.230035424232483,3.0,-0.142948180437088,-3.0000016689300537,-0.005674445070326328,-0.010363584384322166,-0.01526861172169447,-0.020394686609506607,-0.17187145352363586,-0.27617737650871277,-0.3771187365055084,-0.47449395060539246
0.13333333333333333,0.06773398071527481,0.06689585745334625,0.0,0.971438467502594,0.0,0.0,-0.23729167878627777,0.3456152379512787,0.4911969304084778,0.0,0.0,0.0,-3.731816530227661,-0.32663920521736145,0.6835286021232605,0.4200000464916229,0.9999999403953552,3.5505674986779923e-06,-2.2298811472865054e-06,2.928988749317796e-07,0.0002670325629878789,0.0002677947923075408,-0.00010417005978524685,-0.0017441295785829425,0.004213639069348574,-0.00012800269178114831,-0.20429939031600952,0.2904156446456909,1.2253795862197876,-1.9892736673355103,3.582770586013794,-1.9564659595489502,0.42002928256988525,0.7524201273918152,0.42000001668930054,-1.1800243854522705,2.999998092651367,-0.13065962493419647,2.999999761581421,-0.007704798132181168,-0.014134050346910954,-0.020700842142105103,-0.02740774303674698,-0.18603220582008362,-0.27619537711143494,-0.3616185188293457,-0.44224274158477783
0.15,0.07932080328464508,0.07144374400377274,0.0,0.9573512673377991,0.0,0.0,-0.28892651200294495,0.7766030430793762,0.2794328033924103,0.0,0.0,0.0,-7.10333251953125,-0.32663917541503906,0.6835285425186157,0.4200000464916229,1.0,3.3323158277198672e-06,-2.1020741769461893e-06,1.3129495357588894e-07,0.00026730698300525546,0.0002685973886400461,-0.00010459753684699535,-0.0017497893422842026,0.0042156679555773735,-0.00012928378419019282,-0.23395170271396637,0.35376590490341187,1.1890947818756104,-1.4768788814544678,4.131200790405273,-2.428006172180176,0.42002928256988525,0.7524201273918152,0.42000001668930054,-1.1300289630889893,3.00000262260437,-0.16257476806640625,-3.0000009536743164,-0.008552470244467258,-0.01665600948035717,-0.024810880422592163,-0.03301847726106644,-0.21049059927463531,-0.28617414832115173,-0.3581709861755371,-0.4264443516731262
0.16666666666666666,0.08453547954559326,0.07989762723445892,0.0,0.9474159479141235,0.0,0.0,-0.32000479102134705,0.19136016070842743,0.48050448298454285,0.0,0.0,0.0,-2.6835741996765137,-0.32663920521736145,0.6835285425186157,0.4200000464916229,1.0,3.7374031762738014e-06,-2.2332269509206526e-06,-1.876583866078363e-07,0.00026432963204570115,0.000266269693383947,-0.00010446016676723957,-0.0017119431868195534,0.004157555289566517,-0.00013001271872781217,-0.26275432109832764,0.41864627599716187,1.137559413909912,-1.5700480937957764,4.037199974060059,-3.511922836303711,0.42002928256988525,0.7524201273918152,0.42000001668930054,-1.081563115119934,2.7915637493133545,-0.2123822271823883,-2.953280210494995,-0.020548146218061447,-0.028954263776540756,-0.03735484927892685,-0.045603249222040176,-0.6992912292480469,-0.7362618446350098,-0.765776515007019,-0.7696841359138489
0.18333333333333332,0.09361081570386887,0.08855635672807693,0.0,0.9325701594352722,0.0,0.0,-0.3609887659549713,0.5520691275596619,0.6012932062149048,0.0,0.0,0.0,-6.033287048339844,-0.32663920521736145,0.6835286021232605,0.4200000464916229,0.9999999403953552,3.6603628359443974e-06,-2.302359689565492e-06,2.52847314641258e-07,0.0002669092209544033,0.00026760256150737405,-0.0001041253563016653,-0.0017412835732102394,0.004211553372442722,-0.00012787102605216205,-0.28692376613616943,0.4880611300468445,1.0720727443695068,-1.1644294261932373,4.228085517883301,-4.370323181152344,0.42002928256988525,0.7524201273918152,0.42000001668930054,-1.0316051244735718,3.0000016689300537,-0.26240861415863037,-2.9999983310699463,-0.02933785691857338,-0.03847583755850792,-0.047477927058935165,-0.055951982736587524,-0.6932541131973267,-0.6997620463371277,-0.7010548710823059,-0.6856417059898376
0.2,0.10008809715509415,0.09559794515371323,0.0,0.9239560961723328,0.0,0.0,-0.382498562335968,0.3304789662361145,0.35417136549949646,0.0,0.0,0.0,-1.6698390245437622,-0.32663920521736145,0.6835285425186157,0.4200000464916229,1.0,3.5909113194065867e-06,-2.3004156446404522e-06,1.3872801218894892e-07,0.00026654769317246974,0.0002673235139809549,-0.00010424060747027397,-0.0017326237866654992,0.004203386604785919,-0.00012819955009035766,-0.3075995445251465,0.5518500804901123,0.9920231103897095,-0.9504010081291199,3.661005973815918,-5.166011810302734,0.42002928256988525,0.7524201273918152,0.42000001668930054,-0.9815951585769653,3.000002861022949,-0.312435507774353,-2.9999988079071045,-0.043705154210329056,-0.052231382578611374,-0.060582537204027176,-0.06823008507490158,-0.9249386191368103,-0.8691932559013367,-0.8125969171524048,-0.749582827091217
0.21666666666666667,0.10246806591749191,0.10397345572710037,0.0,0.9105525016784668,0.0,0.0,-0.41339346766471863,0.06995939463376999,0.550129771232605,0.0,0.0,0.0,-4.872286319732666,-0.32663920521736145,0.6835286021232605,0.4200000464916229,1.0,3.607003463912406e-06,-2.2610099676967366e-06,1.9621262836722053e-08,0.0002644715132191777,0.00026558490935713053,-0.00010396563448011875,-0.0017088435124605894,0.004164247307926416,-0.00012832065112888813,-0.32146334648132324,0.6093223094940186,0.8988587856292725,-0.5837235450744629,3.168473243713379,-5.887845993041992,0.42002928256988525,0.7524201273918152,0.42000001668930054,-0.9315853714942932,3.0000016689300537,-0.3624650537967682,-2.999998092651367,-0.059587109833955765,-0.06812261044979095,-0.07643342763185501,-0.08344906568527222,-0.9871141314506531,-0.9858227372169495,-0.9756864309310913,-0.9454832077026367
0.23333333333333334,0.1078396886587143,0.11189477890729904,0.0,0.9039405584335327,0.0,0.0,-0.4276580810546875,0.2995624840259552,0.5309085249900818,0.0,0.0,0.0,-0.8803589344024658,-0.32663917541503906,0.6835285425186157,0.4200000464916229,0.9999999403953552,3.742284661711892e-06,-2.2275266928772908e-06,4.589204536387115e-07,0.00026475160848349333,0.00026671282830648124,-0.00010453304275870323,-0.00171882554423064,0.004165722988545895,-0.0001301881711697206,-0.33414334058761597,0.6523157358169556,0.7989100217819214,-0.5773048400878906,2.007838010787964,-6.166348457336426,0.42002928256988525,0.7524201273918152,0.42000001668930054,-0.8815746903419495,3.0000016689300537,-0.41249626874923706,-3.0,-0.07482599467039108,-0.0834629014134407,-0.09143989533185959,-0.09775745123624802,-1.0000399351119995,-1.0000190734863281,-1.0000070333480835,-1.0000004768371582
0.25,0.1097896471619606,0.11754991859197617,0.0,0.9102089405059814,0.0,0.0,-0.41414934396743774,0.07246436178684235,0.27324312925338745,0.0,0.0,0.0,2.5660388469696045,-0.32663920521736145,0.6835285425186157,0.4200000464916229,1.0,3.3944668302865466e-06,-2.2821172933618072e-06,1.336286601372194e-07,0.00026679367874749005,0.0002679389144759625,-0.00010439474135637283,-0.0017417257186025381,0.004206514917314053,-0.00012883533781860024,-0.3488427996635437,0.6740842461585999,0.6963323354721069,-0.897078275680542,0.6789177656173706,-6.153447151184082,0.42002928256988525,0.7524201273918152,0.42000001668930054,-0.8315650820732117,2.9999804496765137,-0.4625278115272522,-2.9999988079071045,-0.09138045459985733,-0.09997912496328354,-0.10793450474739075,-0.11424970626831055,-0.9920563697814941,-0.9937296509742737,-0.9950516223907471,-0.9961308240890503
0.26666666666666666,0.10851148515939713,0.11919429898262024,0.0,0.9090867638587952,0.0,0.0,-0.4166067838668823,-0.130036860704422,0.046553947031497955,0.0,0.0,0.0,-1.1751662492752075,-0.32663920521736145,0.6835286021232605,0.4200000464916229,1.0,3.683521072161966e-06,-2.3101358692656504e-06,2.1009377348946146e-07,0.0002647914516273886,0.0002662584010977298,-0.00010421173647046089,-0.0017169081838801503,0.004168983548879623,-0.00012909200449939817,-0.35626107454299927,0.6806169152259827,0.5920907855033875,-0.1274636834859848,-0.07812846451997757,-6.135884761810303,0.42002928256988525,0.7524201273918152,0.42000001668930054,-0.7815563082695007,3.0,-0.5125580430030823,-3.00000262260437,-0.10887248069047928,-0.1172599047422409,-0.12505505979061127,-0.1312442272901535,-1.0046428442001343,-1.003497838973999,-1.0026239156723022,-1.001929759979248
0.2833333333333333,0.10466883331537247,0.11822081357240677,0.0,0.9139208197593689,0.0,0.0,-0.4058925211429596,-0.2768224775791168,-0.10476959496736526,0.0,0.0,0.0,2.2533397674560547,-0.32663920521736145,0.6835285425186157,0.4200000464916229,1.0,3.307066890556598e-06,-2.212535264334292e-06,2.6255446528011817e-07,0.00026660817093215883,0.0002674499119166285,-0.00010424223728477955,-0.0017352099530398846,0.004204348661005497,-0.0001282771409023553,-0.35691291093826294,0.6820539236068726,0.4982297718524933,0.12692570686340332,0.08923503756523132,-5.1482954025268555,0.42002928256988525,0.7524201273918152,0.42000001668930054,-0.7315475940704346,3.0000009536743164,-0.5625866055488586,-2.999999523162842,-0.12635698914527893,-0.13458412885665894,-0.14226076006889343,-0.14835752546787262,-1.0229066610336304,-1.0173368453979492,-1.013075590133667,-1.0096641778945923
0.3,0.09860385954380035,0.11483936756849289,0.0,0.9118379354476929,0.0,0.0,-0.4105502963066101,-0.4074942171573639,-0.24298331141471863,0.0,0.0,0.0,-1.5081425905227661,-0.32663920521736145,0.6835285425186157,0.4200000464916229,1.0,3.6565252230502665e-06,-2.2969290967012057e-06,-2.4498103812220506e-07,0.0002653322007972747,0.0002659547026269138,-0.00010385178029537201,-0.001716420752927661,0.004181907512247562,-0.000127459890791215,-0.3473012149333954,0.6841233968734741,0.41210463643074036,0.9764926433563232,0.07257983088493347,-5.062862396240234,0.42002928256988525,0.7524201273918152,0.42000001668930054,-0.6815406680107117,3.0000014305114746,-0.6126132607460022,-3.000001907348633,-0.14369678497314453,-0.15175902843475342,-0.1593112051486969,-0.16530993580818176,-1.0069299936294556,-1.0052669048309326,-1.003989338874817,-1.0029592514038086
0.31666666666666665,0.09034186601638794,0.10916481167078018,0.0,0.9160507917404175,0.0,0.0,-0.4010622203350067,-0.5438025593757629,-0.38118430972099304,0.0,0.0,0.0,2.065040349960327,-0.32650312781333923,0.6833680868148804,0.4199995696544647,0.9999931454658508,-1.1464037925179582e-05,-9.199632586387452e-06,-0.003695264458656311,-0.011982645839452744,0.0038614480290561914,-2.7104513719677925e-05,0.0035067442804574966,0.0005704205832444131,-0.5294301509857178,-0.34706658124923706,0.6862143278121948,0.4247451424598694,-0.0047307126224040985,0.05656835436820984,-0.21219876408576965,0.42002928256988525,0.7524201273918152,0.42000001668930054,-0.6316329836845398,2.9999840259552,-0.6631548404693604,-3.000000238418579,-0.14669188857078552,-0.15490995347499847,-0.16224583983421326,-0.16762074828147888,-0.32684779167175293,-0.2887759804725647,-0.23532196879386902,-0.1680230349302292
0.3333333333333333,0.08312946557998657,0.1009611263871193,0.0,0.9135456681251526,0.0,0.0,-0.40673622488975525,-0.3666369616985321,-0.5400432348251343,0.0,0.0,0.0,-1.650831699371338,-0.3265082538127899,0.6831313371658325,0.42000001668930054,0.9999615550041199,-6.539948458339495e-07,1.6524702459719265e-06,-0.00875771977007389,-0.0001012540451483801,-0.00010345154441893101,-4.015602098661475e-05,0.0018067547352984548,-0.0005276974407024682,0.00019558181520551443,-0.3438742756843567,0.68721604347229,0.4218549132347107,0.3683757781982422,0.1863149106502533,-0.14962853491306305,0.42002928256988525,0.7524201273918152,0.42000001668930054,-0.5816279053688049,2.9999895095825195,-0.7132031917572021,-2.9999873638153076,-0.15366633236408234,-0.16061416268348694,-0.16642393171787262,-0.170091450214386,-0.44574469327926636,-0.3459237515926361,-0.23207737505435944,-0.11081381887197495
0.35,0.07418660074472427,0.09110299497842789,0.0,0.9175578355789185,0.0,0.0,-0.397602379322052,-0.5493091344833374,-0.6431636214256287,0.0,0.0,0.0,2.1196963787078857,-0.32175934314727783,0.6879751086235046,0.42001253366470337,0.9990081787109375,-0.0004066805122420192,4.523394090938382e-05,-0.04452474042773247,0.5216996073722839,0.45061978697776794,0.020643973723053932,-1.1764854192733765,0.16794264316558838,-13.639470100402832,-0.33598434925079346,0.6931822299957275,0.41995224356651306,0.5234112739562988,0.5474159121513367,0.03766726329922676,0.42002928256988525,0.7524201273918152,0.42000001668930054,-0.5316081047058105,2.9969482421875,-0.7632242441177368,-2.9843780994415283,-0.1637183576822281,-0.16811957955360413,-0.17117094993591309,-0.1720227748155594,-0.5174188613891602,-0.3687695264816284,-0.2049383968114853,-0.03610841557383537
0.36666666666666664,0.06764067709445953,0.07862891256809235,0.0,0.9151985049247742,0.0,0.0,-0.4030033349990845,-0.2921517491340637,-0.7954764366149902,0.0,0.0,0.0,-1.6386173963546753,-0.3129047155380249,0.6957213282585144,0.4200001358985901,0.986774206161499,1.1258137419645209e-05,3.2135172659764066e-05,-0.1621001809835434,0.609554648399353,0.537642776966095,-0.00013535797188524157,-0.006009493954479694,0.011692092753946781,-15.310667991638184,-0.3241640329360962,0.7016164660453796,0.4214063286781311,0.8892087340354919,0.5435582995414734,0.09637738019227982,0.42002928256988525,0.7524201273918152,0.42000001668930054,-0.48156285285949707,2.99995756149292,-0.8132318258285522,-2.999974489212036,-0.17228195071220398,-0.173879936337471,-0.17383600771427155,-0.17149575054645538,-0.4708690345287323,-0.293471097946167,-0.09822117537260056,0.10226713865995407
0.3833333333333333,0.05926349014043808,0.06463486701250076,0.0,0.9000299572944641,0.0,0.0,-0.43582797050476074,-0.5756022334098816,-0.8661575317382812,0.0,0.0,0.0,-5.279513835906982,-0.2965417206287384,0.7102815508842468,0.42075401544570923,0.9679480195045471,-0.01824355684220791,0.004729736130684614,-0.25044214725494385,1.41141939163208,1.1718008518218994,0.0979519709944725,-4.343897342681885,2.294442892074585,-7.612698554992676,-0.3041664958000183,0.7150473594665527,0.42316171526908875,1.5210763216018677,1.0709222555160522,0.12110219895839691,0.42002928256988525,0.7524201273918152,0.42000001668930054,-0.4315296411514282,2.992363214492798,-0.863246500492096,-3.0000364780426025,-0.18154309689998627,-0.17995521426200867,-0.1764242947101593,-0.17052076756954193,-0.5157099962234497,-0.3332279920578003,-0.1336345672607422,0.06961026042699814
0.4,0.05398044362664223,0.0476672425866127,0.0,0.8703676462173462,0.0,0.0,-0.49240240454673767,-0.2642737627029419,-1.0685350894927979,0.0,0.0,0.0,-8.423972129821777,-0.2581931948661804,0.7346087098121643,0.42523935437202454,0.9539616703987122,-0.013430803082883358,-0.027821242809295654,-0.29833292961120605,3.0908150672912598,1.6319777965545654,0.646126389503479,19.961536407470703,-12.312891960144043,-1.3283976316452026,-0.26640111207962036,0.739082396030426,0.4269576668739319,3.0925168991088867,1.8379583358764648,0.4521460235118866,0.42002928256988525,0.7524201273918152,0.42000001668930054,-0.3904740512371063,1.5649597644805908,-0.9132689833641052,-2.999819278717041,-0.19003255665302277,-0.1852763593196869,-0.17832031846046448,-0.16896577179431915,-0.5642616152763367,-0.35428711771965027,-0.1326862871646881,0.08602380007505417
0.4166666666666667,0.05127900466322899,0.034626372158527374,0.0,0.8238580822944641,0.0,0.0,-0.566796064376831,-0.0895022302865982,-0.7808348536491394,0.0,0.0,0.0,-11.200740814208984,-0.18192195892333984,0.7685248851776123,0.43303170800209045,0.9345653653144836,0.054770056158304214,-0.07400310039520264,-0.34367311000823975,6.12178897857666,2.2083609104156494,0.6074209213256836,13.076672554016113,-10.053949356079102,-30.622516632080078,-0.18966901302337646,0.7738789319992065,0.4343069791793823,5.611309051513672,2.4412026405334473,0.5171947479248047,0.42002928256988525,0.7524201273918152,0.42000001668930054,-0.3724912405014038,0.8234317302703857,-0.8761849403381348,2.9999983310699463,-0.2032082974910736,-0.19532433152198792,-0.18384791910648346,-0.17031611502170563,-0.5393587350845337,-0.49876877665519714,-0.2856442928314209,-0.0965663343667984
0.43333333333333335,0.052074454724788666,0.024431347846984863,0.0,0.7865776419639587,0.0,0.0,-0.6174914240837097,0.09976975619792938,-0.5514922738075256,0.0,0.0,0.0,-6.429433345794678,-0.08916361629962921,0.8036776185035706,0.4437185823917389,0.9028097987174988,0.0800669714808464,-0.08730731904506683,-0.4134020209312439,6.337178707122803,1.7915616035461426,0.6801533102989197,25.485008239746094,-3.901751756668091,-33.37391662597656,-0.0952497124671936,0.8117998838424683,0.44469964504241943,5.548729419708252,1.8257617950439453,0.691992461681366,0.42002928256988525,0.7524201273918152,0.42000001668930054,-0.35989290475845337,0.7133547067642212,-0.902586042881012,-3.0000007152557373,-0.21244841814041138,-0.20364049077033997,-0.18912450969219208,-0.17305229604244232,-0.4962359070777893,-0.4399978816509247,-0.29023152589797974,-0.17309316992759705
0.45,0.050527602434158325,0.019345466047525406,0.0,0.7704551815986633,0.0,0.0,-0.6374941468238831,-0.09093787521123886,-0.2532147169113159,0.0,0.0,0.0,-1.786592960357666,0.005575302988290787,0.8244343996047974,0.45367467403411865,0.8597075939178467,0.06679552793502808,-0.09235751628875732,-0.49790680408477783,6.328831195831299,0.5235714912414551,1.0334280729293823,28.487468719482422,-17.445392608642578,-41.02628707885742,0.001252434216439724,0.8344523906707764,0.45460450649261475,5.651039123535156,0.8749008178710938,0.5148875713348389,0.42002928256988525,0.7524201273918152,0.42000001668930054,-0.34974807500839233,0.5301133394241333,-0.9526100754737854,-3.000002861022949,-0.22343561053276062,-0.21283294260501862,-0.1954921931028366,-0.1772150993347168,-0.5601800084114075,-0.4717937409877777,-0.3449106514453888,-0.2524961531162262
0.4666666666666667,0.05147309973835945,0.017438936978578568,0.0,0.7480238080024719,0.0,0.0,-0.6636718511581421,0.11352423578500748,-0.06127934902906418,0.0,0.0,0.0,-5.0458903312683105,0.09813062846660614,0.8308081030845642,0.45887520909309387,0.8043531775474548,0.07335732877254486,-0.09475335478782654,-0.5819418430328369,5.890408992767334,-0.49417775869369507,0.5686598420143127,13.95827865600586,-11.586494445800781,-36.51433563232422,0.0957057774066925,0.8412766456604004,0.46055638790130615,5.38398551940918,-0.13391928374767303,0.17773333191871643,0.42002928256988525,0.7524201273918152,0.42000001668930054,-0.34153011441230774,0.5359079241752625,-1.0026341676712036,-3.0000011920928955,-0.23184064030647278,-0.2197817862033844,-0.2005438357591629,-0.18077442049980164,-0.4426036775112152,-0.34723055362701416,-0.24013786017894745,-0.1523677408695221
0.48333333333333334,0.05526689812541008,0.01817961595952511,0.0,0.7381250858306885,0.0,0.0,-0.6746639013290405,0.26201725006103516,0.1144920364022255,0.0,0.0,0.0,-0.6910607814788818,0.18357574939727783,0.8236128091812134,0.45932283997535706,0.7589622139930725,0.04945937916636467,-0.0955875813961029,-0.6421784162521362,5.273783206939697,-1.239358901977539,0.2972494065761566,10.754240989685059,-11.058389663696289,-37.588226318359375,0.18321162462234497,0.8341896533966064,0.4619794487953186,4.788224220275879,-0.7661780714988708,-0.10207487642765045,0.42002928256988525,0.7524201273918152,0.42000001668930054,-0.3303656578063965,0.728577196598053,-1.0526564121246338,-2.999999523162842,-0.2378748059272766,-0.22447024285793304,-0.20398281514644623,-0.18327020108699799,-0.2834117114543915,-0.21819409728050232,-0.17529499530792236,-0.15103429555892944
0.5,0.05692058429121971,0.013405712321400642,0.0,0.7188988924026489,0.0,0.0,-0.6951146721839905,0.036481551826000214,-0.4194200932979584,0.0,0.0,0.0,-4.372926712036133,0.25923311710357666,0.8117161989212036,0.45294827222824097,0.7185423374176025,0.025240859016776085,-0.08695660531520844,-0.6895637512207031,4.518858432769775,-1.41514253616333,-0.15684844553470612,10.22266960144043,-8.745656967163086,-35.1355094909668,0.2602528929710388,0.8215756416320801,0.45622503757476807,4.128249168395996,-0.8836153745651245,-0.6082518100738525,0.42002928256988525,0.7524201273918152,0.42000001668930054,-0.31744635105133057,0.7741113305091858,-1.1026785373687744,-2.999967336654663,-0.2347276210784912,-0.22172996401786804,-0.20212985575199127,-0.18245254456996918,0.3530482053756714,0.30380553007125854,0.21417191624641418,0.11602109670639038
0.5166666666666666,0.06148960441350937,0.012154818512499332,0.0,0.7107292413711548,0.0,0.0,-0.7034657001495361,0.36821672320365906,0.05013130605220795,0.0,0.0,0.0,-0.4318794012069702,0.3220158815383911,0.7913196086883545,0.4411216676235199,0.6847358345985413,-0.02428080327808857,-0.08454868197441101,-0.7234629392623901,3.641483783721924,-1.9392595291137695,-0.30254819989204407,8.898823738098145,-12.735548973083496,-36.89514923095703,0.32410603761672974,0.8008073568344116,0.44633495807647705,3.2612295150756836,-1.4015092849731445,-0.8036150932312012,0.42002928256988525,0.7524201273918152,0.42000001668930054,-0.3052958846092224,0.6462184190750122,-1.152700662612915,-3.000000476837158,-0.23374541103839874,-0.2205694019794464,-0.20173150300979614,-0.1831093579530716,0.015429044142365456,0.026827247813344002,-0.026816947385668755,-0.09964016824960709
0.5333333333333333,0.06344478577375412,0.013221150264143944,0.0,0.69600909948349,0.0,0.0,-0.718032956123352,0.039847709238529205,0.13608872890472412,0.0,0.0,0.0,-3.303720474243164,0.37133538722991943,0.7717278599739075,0.4228636622428894,0.6631447076797485,-0.0671914741396904,-0.08111415803432465,-0.741042971611023,2.7440245151519775,-1.588598608970642,-0.8394657373428345,5.675479412078857,-12.583494186401367,-27.761560440063477,0.37442800402641296,0.7808926105499268,0.4288828372955322,2.4697670936584473,-1.1437846422195435,-1.298898696899414,0.42002928256988525,0.7524201273918152,0.42000001668930054,-0.2959235608577728,0.4959290623664856,-1.2027227878570557,-2.9997873306274414,-0.22857174277305603,-0.21688060462474823,-0.20042365789413452,-0.1842144876718521,0.34524062275886536,0.23741629719734192,0.07421734929084778,-0.08867519348859787
0.55,0.06591642647981644,0.015037734992802143,0.0,0.6948702335357666,0.0,0.0,-0.7191351056098938,0.19049715995788574,0.09667903184890747,0.0,0.0,0.0,0.7185061573982239,0.3958759307861328,0.7619744539260864,0.42216694355010986,0.6856619119644165,-0.03852052614092827,-0.010902323760092258,-0.7268183827400208,1.2695653438568115,-1.0029240846633911,0.004159834235906601,-2.1677699089050293,-1.4327404499053955,-15.632099151611328,0.4002351462841034,0.7689700126647949,0.4266730844974518,1.0109237432479858,-0.6023967266082764,-0.1210295557975769,0.42002928256988525,0.7524201273918152,0.42000001668930054,-0.28564462065696716,0.7109236717224121,-1.2528252601623535,-3.000002384185791,-0.22340473532676697,-0.21344876289367676,-0.19955921173095703,-0.18581508100032806,0.25240328907966614,0.15647701919078827,0.007414027117192745,-0.13800308108329773
0.5666666666666667,0.07042691856622696,0.013527195900678635,0.0,0.6844990253448486,0.0,0.0,-0.7290138006210327,0.31594493985176086,-0.17439459264278412,0.0,0.0,0.0,-2.5680110454559326,0.40789780020713806,0.7584258317947388,0.42101410031318665,0.7285494804382324,-0.019074028357863426,0.017508169636130333,-0.6845034956932068,0.40029773116111755,-0.09832222014665604,-0.04595727473497391,-0.10150370746850967,-2.5748085975646973,9.340387344360352,0.4127914309501648,0.7632304430007935,0.423892080783844,0.4432148337364197,-0.15316182374954224,-0.10342331230640411,0.42002928256988525,0.7524201273918152,0.42000001668930054,-0.27004218101501465,1.1995240449905396,-1.285739541053772,-1.0865710973739624,-0.21812529861927032,-0.2100154012441635,-0.19875746965408325,-0.1874990612268448,0.3816044330596924,0.26336532831192017,0.10174044966697693,-0.04847375676035881
0.5833333333333334,0.07312480360269547,0.014553394168615341,0.0,0.6863808631896973,0.0,0.0,-0.7272422909736633,0.10466732829809189,0.08164041489362717,0.0,0.0,0.0,1.1502045392990112,0.4136926233768463,0.757011890411377,0.42000341415405273,0.7711973190307617,-8.668738882988691e-05,1.8824037397280335e-05,-0.636596143245697,0.3053029477596283,-0.07203669100999832,-0.0034631427843123674,0.005954055115580559,-0.1950637549161911,6.345769882202148,0.417466938495636,0.7584096789360046,0.42429307103157043,0.22250884771347046,-0.25566035509109497,0.09920811653137207,0.42002928256988525,0.7524201273918152,0.42000001668930054,-0.2705319821834564,-1.0701063871383667,-1.3326760530471802,-2.999478340148926,-0.21452663838863373,-0.20781312882900238,-0.19864177703857422,-0.18931010365486145,0.29226306080818176,0.19021807610988617,0.05220760405063629,-0.07290983945131302
0.6,0.07663372159004211,0.01808706857264042,0.0,0.6776975989341736,0.0,0.0,-0.7353407144546509,0.23359893262386322,0.2696433961391449,0.0,0.0,0.0,-2.277756452560425,0.4172549247741699,0.7559429407119751,0.42000076174736023,0.7814329862594604,3.440176442381926e-05,-0.00020966390729881823,-0.6239891052246094,0.18101422488689423,0.060676489025354385,0.032402899116277695,0.04142482951283455,2.4191250801086426,-4.919567584991455,0.4211043417453766,0.7592652440071106,0.42632925510406494,0.24516752362251282,0.16197124123573303,0.13741271197795868,0.42002928256988525,0.7524201273918152,0.42000001668930054,-0.28816846013069153,-1.0565457344055176,-1.3826334476470947,-2.995023488998413,-0.20708228647708893,-0.20301629602909088,-0.19688500463962555,-0.190207377076149,0.5779619216918945,0.3872534930706024,0.17986619472503662,4.363378684502095e-05
0.6166666666666667,0.08208589255809784,0.017500227317214012,0.0,0.6808815002441406,0.0,0.0,-0.7323935627937317,0.34802114963531494,-0.0429314523935318,0.0,0.0,0.0,1.297284722328186,0.41961872577667236,0.7568491101264954,0.4200001657009125,0.7642953395843506,-6.8167173594702035e-06,1.1078222996729892e-05,-0.6448663473129272,0.12400801479816437,0.050406020134687424,-0.0005299485637806356,0.003995975013822317,-0.026307588443160057,-2.6109297275543213,0.4223117232322693,0.7608598470687866,0.42898327112197876,-0.0717596635222435,-0.011128708720207214,0.17621470987796783,0.42002928256988525,0.7524201273918152,0.42000001668930054,-0.333153635263443,-2.999964714050293,-1.4326236248016357,-2.9994289875030518,-0.19534777104854584,-0.19440604746341705,-0.191658616065979,-0.18794649839401245,0.5215932130813599,0.3909061849117279,0.24184481799602509,0.10985459387302399
0.6333333333333333,0.08974141627550125,0.02126876451075077,0.0,0.6726839542388916,0.0,0.0,-0.7399299144744873,0.47846633195877075,0.2147047221660614,0.0,0.0,0.0,-2.3452565670013428,0.4207124412059784,0.7575505971908569,0.42000073194503784,0.7583897113800049,-5.244976364338072e-06,4.682188227889128e-05,-0.6518012881278992,0.058415088802576065,0.016202567145228386,-0.0012297467328608036,-0.028613148257136345,-0.040886420756578445,-1.388694167137146,0.42227786779403687,0.763085663318634,0.43241578340530396,0.07902935892343521,0.2414393126964569,0.24516230821609497,0.42002928256988525,0.7524201273918152,0.42000001668930054,-0.38313889503479004,-2.9981448650360107,-1.4825897216796875,-2.9995551109313965,-0.18843600153923035,-0.18930810689926147,-0.18854773044586182,-0.18648481369018555,0.5611825585365295,0.43110162019729614,0.29983019828796387,0.1949222981929779
0.65,0.09902013093233109,0.020656323060393333,0.0,0.6756482124328613,0.0,0.0,-0.7372241616249084,0.5788968801498413,-0.0689675435423851,0.0,0.0,0.0,1.4080654382705688,0.420567125082016,0.7580593824386597,0.4200633466243744,0.7565705180168152,-0.0010341731831431389,-0.001198651734739542,-0.6539101004600525,-0.03398878872394562,0.04767690598964691,0.0053441994823515415,-0.26468023657798767,-0.03924495726823807,-0.2857053875923157,0.4214895963668823,0.7661404609680176,0.4419090747833252,-0.18196558952331543,0.1344563513994217,0.9389604330062866,0.42002928256988525,0.7524201273918152,0.42000001668930054,-0.4331530034542084,-2.999999523162842,-1.532608151435852,-2.999999761581421,-0.18046246469020844,-0.18271633982658386,-0.1833074688911438,-0.18218883872032166,0.2878226339817047,0.2628294825553894,0.24083036184310913,0.2395683079957962
0.6666666666666666,0.10971895605325699,0.01709713786840439,0.0,0.6676682233810425,0.0,0.0,-0.7444589734077454,0.6717978715896606,-0.2858507037162781,0.0,0.0,0.0,-2.2288081645965576,0.42015811800956726,0.7583931684494019,0.42000025510787964,0.7560164928436279,2.3638587663299404e-05,2.4353254048037343e-05,-0.6545524597167969,0.004838151391595602,-0.01383284479379654,-0.0005754407029598951,-0.027911847457289696,-0.0032325766514986753,-0.004083686508238316,0.4247112274169922,0.7688372135162354,0.45592302083969116,0.5190390944480896,0.13359209895133972,0.9105695486068726,0.42002928256988525,0.7524201273918152,0.42000001668930054,-0.48316657543182373,-2.9999964237213135,-1.582626461982727,-3.0,-0.17668093740940094,-0.17895951867103577,-0.1794479638338089,-0.17786891758441925,0.21104824542999268,0.22800925374031067,0.255476176738739,0.3040439784526825
0.6833333333333333,0.1236361488699913,0.017900284379720688,0.0,0.6372551321983337,0.0,0.0,-0.7706528902053833,0.8052151203155518,0.07292856276035309,0.0,0.0,0.0,-5.661208629608154,0.420157790184021,0.7583945393562317,0.41999998688697815,0.7560164928436279,2.4246789962489856e-06,-1.5832348481126246e-06,-0.6545525193214417,0.00011003958934452385,0.00016873987624421716,-4.985020495951176e-05,-0.006967736408114433,-0.0013566071866080165,-0.0002455621142871678,0.4367428421974182,0.769737958908081,0.4787752032279968,1.0343252420425415,0.10745228081941605,1.8783196210861206,0.42002928256988525,0.7524201273918152,0.42000001668930054,-0.5331792235374451,-2.999976873397827,-1.6326415538787842,-2.9999992847442627,-0.17943523824214935,-0.18035988509655,-0.17937807738780975,-0.17610757052898407,-0.10111500322818756,-0.04165247082710266,0.02854922227561474,0.11380396038293839
0.7,0.13402920961380005,0.020482340827584267,0.0,0.6209871768951416,0.0,0.0,-0.7838206887245178,0.5554962754249573,0.15939071774482727,0.0,0.0,0.0,-1.4461075067520142,0.42015770077705383,0.758394718170166,0.42000001668930054,0.7560163736343384,1.0363827414039406e-06,-4.053135398862651e-06,-0.6545525789260864,0.0002743587247096002,-0.00023431034060195088,-9.131291881203651e-05,0.0033995872363448143,0.003136309562250972,0.00024717432097531855,0.454395055770874,0.7733014822006226,0.5110042095184326,1.0373823642730713,0.3511194586753845,1.9978570938110352,0.42002928256988525,0.7524201273918152,0.42000001668930054,-0.5546737909317017,0.16145843267440796,-1.6826560497283936,-3.000000238418579,-0.17994272708892822,-0.1804065704345703,-0.17885775864124298,-0.17486698925495148,0.07651462405920029,0.0657147765159607,0.05725574865937233,0.053359705954790115
0.7166666666666667,0.13993936777114868,0.02429424598813057,0.0,0.6294077038764954,0.0,0.0,-0.7770752310752869,0.29439881443977356,0.3146941661834717,0.0,0.0,0.0,2.1143136024475098,0.42015770077705383,0.7583947777748108,0.42000001668930054,0.7560164928436279,1.1736733540601563e-06,-4.466357495402917e-06,-0.6545524597167969,0.00027370837051421404,-0.0002360950893489644,-9.120791219174862e-05,0.003432235214859247,0.003109739860519767,0.0002506149758119136,0.46899425983428955,0.7787154316902161,0.5374709367752075,0.6525505781173706,0.29839715361595154,1.2637672424316406,0.42002928256988525,0.7524201273918152,0.42000001668930054,-0.5313802361488342,2.416292667388916,-1.6434065103530884,2.999999761581421,-0.17732131481170654,-0.17797984182834625,-0.17661933600902557,-0.17280416190624237,0.17115218937397003,0.16892652213573456,0.16338686645030975,0.15335141122341156
0.7333333333333333,0.14215368032455444,0.02431141585111618,0.0,0.6251614093780518,0.0,0.0,-0.7804954648017883,0.10179437696933746,-0.07629846781492233,0.0,0.0,0.0,-1.5826692581176758,0.42015770077705383,0.7583947777748108,0.42000001668930054,0.7560163736343384,1.227872985509748e-06,-4.473224635148654e-06,-0.6545525789260864,0.00027376951766200364,-0.0002357724151806906,-9.1213034465909e-05,0.003426759270951152,0.003113779705017805,0.00025006066425703466,0.4731813371181488,0.7842205762863159,0.5533490777015686,-0.14916560053825378,0.27025094628334045,0.787102222442627,0.42002928256988525,0.7524201273918152,0.42000001668930054,-0.5200205445289612,-0.7843487858772278,-1.5933500528335571,2.9999992847442627,-0.17257453501224518,-0.17342433333396912,-0.1723661869764328,-0.16899625957012177,0.2365218549966812,0.2449280321598053,0.24120771884918213,0.22222702205181122
0.75,0.14139831066131592,0.028994785621762276,0.0,0.6330337524414062,0.0,0.0,-0.7741242051124573,-0.09830917418003082,0.4227294623851776,0.0,0.0,0.0,2.1174912452697754,0.42015767097473145,0.7583947777748108,0.42000001668930054,0.7560164928436279,1.3087326351524098e-06,-4.381802227726439e-06,-0.6545525193214417,0.00027383389533497393,-0.00023544416762888432,-9.135599248111248e-05,0.003419571788981557,0.003112675389274955,0.00024936089175753295,0.4717573821544647,0.7857197523117065,0.5624967217445374,-0.013915024697780609,0.0623876228928566,0.3682646155357361,0.42002928256988525,0.7524201273918152,0.42000001668930054,-0.5110915899276733,1.6368534564971924,-1.592761516571045,-2.4576027393341064,-0.1741301715373993,-0.17364495992660522,-0.17159079015254974,-0.16765600442886353,-0.15863952040672302,-0.06819972395896912,2.805609256029129e-08,0.03750847280025482
0.7666666666666666,0.14196555316448212,0.03150554373860359,0.0,0.6293823719024658,0.0,0.0,-0.7770957946777344,0.046666115522384644,0.09039301425218582,0.0,0.0,0.0,-1.4490280151367188,0.42015770077705383,0.7583947777748108,0.42000001668930054,0.7560164332389832,1.2545614254122484e-06,-4.550209723674925e-06,-0.6545525789260864,0.00027378593222238123,-0.00023575731029268354,-9.120185859501362e-05,0.003426441689953208,0.0031145145185291767,0.0002500391856301576,0.46428877115249634,0.7870305776596069,0.5616190433502197,-0.8512251377105713,0.031477414071559906,-0.29782456159591675,0.42002928256988525,0.7524201273918152,0.42000001668930054,-0.5129950046539307,-1.5836249589920044,-1.551811933517456,3.0,-0.17494744062423706,-0.1733357161283493,-0.17048093676567078,-0.16623109579086304,-0.06365448981523514,0.008077525533735752,0.06060966104269028,0.08278033137321472
0.7833333333333333,0.1443379819393158,0.03175104409456253,0.0,0.6362934708595276,0.0,0.0,-0.7714470624923706,0.17865575850009918,-0.05045771226286888,0.0,0.0,0.0,1.849498987197876,0.42015767097473145,0.7583947777748108,0.42000001668930054,0.7560164332389832,1.1270813047303818e-06,-4.4001126298098825e-06,-0.6545525193214417,0.00027389885508455336,-0.00023554710787720978,-9.135180152952671e-05,0.0034214663319289684,0.0031140854116529226,0.00024951124214567244,0.4558582007884979,0.7870391011238098,0.5569082498550415,-0.21013393998146057,0.01831713132560253,-0.20465512573719025,0.42002928256988525,0.7524201273918152,0.42000001668930054,-0.5206906795501709,0.4859617352485657,-1.56686532497406,-3.0,-0.17612983286380768,-0.1733514815568924,-0.1695336550474167,-0.1647024303674698,-0.03310168534517288,0.02758694253861904,0.08137410879135132,0.11866357922554016
0.8,0.14817911386489868,0.028717458248138428,0.0,0.6311325430870056,0.0,0.0,-0.7756749987602234,0.3018363416194916,-0.2432282269001007,0.0,0.0,0.0,-1.6631563901901245,0.42015767097473145,0.7583947777748108,0.42000001668930054,0.7560164928436279,1.1274644293735037e-06,-4.405974323162809e-06,-0.6545524597167969,0.0002739524352364242,-0.0002355327596887946,-9.137275628745556e-05,0.0034212081227451563,0.003115008119493723,0.0002494442742317915,0.45453429222106934,0.7852402925491333,0.5515406131744385,0.07430645078420639,-0.2110348343849182,-0.2720252275466919,0.42002928256988525,0.7524201273918152,0.42000001668930054,-0.5511332154273987,-3.000000476837158,-1.5279492139816284,3.0000007152557373,-0.17762337625026703,-0.17366823554039001,-0.16868123412132263,-0.16287247836589813,-0.08518309891223907,-0.01186487078666687,0.06581384688615799,0.13587409257888794
0.8166666666666667,0.15530650317668915,0.027981886640191078,0.0,0.6055141091346741,0.0,0.0,-0.7958345413208008,0.4758457541465759,0.01150460448116064,0.0,0.0,0.0,-4.77552604675293,0.42015770077705383,0.7583947777748108,0.42000001668930054,0.7560164332389832,1.2523090617833077e-06,-4.549184723146027e-06,-0.6545525193214417,0.00027389274328015745,-0.00023586797760799527,-9.12342220544815e-05,0.003428491298109293,0.003116183215752244,0.000250157288974151,0.45970189571380615,0.7811384201049805,0.5490570068359375,0.5369786620140076,-0.28644365072250366,0.10987237840890884,0.42002928256988525,0.7524201273918152,0.42000001668930054,-0.5983114242553711,-2.652015447616577,-1.5435618162155151,-2.999999523162842,-0.1796744167804718,-0.17487162351608276,-0.1688460409641266,-0.1619822382926941,-0.09522528201341629,-0.060506850481033325,-0.010854048654437065,0.044970691204071045
0.8333333333333334,0.16468067467212677,0.030684158205986023,0.0,0.5947294235229492,0.0,0.0,-0.8039259314537048,0.5977730751037598,0.22480455040931702,0.0,0.0,0.0,-0.6273661851882935,0.42015770077705383,0.7583947777748108,0.42000001668930054,0.7560164332389832,1.2491450434026774e-06,-4.5367582970357034e-06,-0.6545526385307312,0.0002738390467129648,-0.0002358835918130353,-9.121326729655266e-05,0.003428958123549819,0.003115239553153515,0.00025021829060278833,0.46710729598999023,0.7793500423431396,0.5516419410705566,0.3324717581272125,0.021914707496762276,0.20420178771018982,0.42002928256988525,0.7524201273918152,0.42000001668930054,-0.6125452518463135,0.6671131253242493,-1.5935801267623901,-2.9999992847442627,-0.18041275441646576,-0.17564231157302856,-0.1694423109292984,-0.1623075157403946,0.014818787574768066,-0.016166165471076965,-0.039153531193733215,-0.058487821370363235
0.85,0.17037716507911682,0.0282736886292696,0.0,0.6091713905334473,0.0,0.0,-0.7930386066436768,0.3444729447364807,-0.20342443883419037,0.0,0.0,0.0,2.8348400592803955,0.42015767097473145,0.7583947777748108,0.42000001668930054,0.7560164332389832,1.1434368616392021e-06,-4.388944944366813e-06,-0.6545525789260864,0.0002739728079177439,-0.00023565081937704235,-9.137112647294998e-05,0.0034234828781336546,0.0031150912400335073,0.00024963959003798664,0.4715566039085388,0.7833935022354126,0.5531399250030518,0.17369844019412994,0.2299342304468155,-0.024891290813684464,0.42002928256988525,0.7524201273918152,0.42000001668930054,-0.5927578210830688,1.6117033958435059,-1.5545837879180908,3.0,-0.17400412261486053,-0.17070159316062927,-0.16587017476558685,-0.16002580523490906,0.25073304772377014,0.19484326243400574,0.13722020387649536,0.07715822011232376
0.8666666666666667,0.17338809370994568,0.029746102169156075,0.0,0.6092459559440613,0.0,0.0,-0.7929813265800476,0.10929550230503082,0.11155116558074951,0.0,0.0,0.0,-0.9080206751823425,0.42015770077705383,0.7583947777748108,0.42000001668930054,0.7560164332389832,1.1930633263546042e-06,-4.146542323724134e-06,-0.6545525789260864,0.0002739698102232069,-0.00023692499962635338,-9.096600115299225e-05,0.0034508134704083204,0.0031220093369483948,0.0002520643756724894,0.4709765315055847,0.7850621938705444,0.5498722791671753,-0.1329917162656784,0.09718248248100281,-0.24278607964515686,0.42002928256988525,0.7524201273918152,0.42000001668930054,-0.5915349125862122,-1.2199379205703735,-1.5045273303985596,3.000000238418579,-0.17388099431991577,-0.17089271545410156,-0.16646994650363922,-0.16113713383674622,0.0762888491153717,0.03628154098987579,-0.008216644637286663,-0.05642848461866379
