vladlanda/robotic-transformer/data/env_000_episode_0294.csv
sim_time_s,robot_box_x,robot_box_y,robot_box_z,robot_box_quat_w,robot_box_quat_x,robot_box_quat_y,robot_box_quat_z,robot_box_linvel_x,robot_box_linvel_y,robot_box_linvel_z,robot_box_angvel_x,robot_box_angvel_y,robot_box_angvel_z,cube_world_x,cube_world_y,cube_world_z,cube_quat_w,cube_quat_x,cube_quat_y,cube_quat_z,cube_linvel_x,cube_linvel_y,cube_linvel_z,cube_angvel_x,cube_angvel_y,cube_angvel_z,endpoint_world_x,endpoint_world_y,endpoint_world_z,endpoint_linvel_x,endpoint_linvel_y,endpoint_linvel_z,target_cube_world_x,target_cube_world_y,target_cube_world_z,gripper_actual_pos_rad_gp_leftgearjoint,gripper_actual_vel_rad_s_gp_leftgearjoint,gripper_actual_pos_rad_gp_rotatingjoint,gripper_actual_vel_rad_s_gp_rotatingjoint,motor_angle_rad_joint1,motor_angle_rad_joint2,motor_angle_rad_joint3,motor_angle_rad_joint4,motor_speed_rad_s_joint1,motor_speed_rad_s_joint2,motor_speed_rad_s_joint3,motor_speed_rad_s_joint4
0.0,0.0,0.0,0.0,1.0,0.0,0.0,0.0,0.0,0.0,0.0,0.0,0.0,0.0,-0.37827858328819275,0.6441163420677185,0.41999998688697815,1.0,0.0,0.0,0.0,0.0,0.0,0.0,0.0,0.0,0.0,3.42540442943573e-06,-0.005000244826078415,1.313499927520752,0.0,0.0,0.0,0.3691313862800598,0.7227138876914978,0.42000001668930054,-1.5707999467849731,0.0,0.0,0.0,0.0,0.0,0.0,0.0,0.0,0.0,0.0,0.0
0.016666666666666666,0.0028782901354134083,0.0021802352275699377,0.0,0.9998090863227844,0.0,0.0,0.01953841745853424,0.2408839464187622,0.182392418384552,0.0,0.0,0.0,3.141860246658325,-0.3782787024974823,0.6441160440444946,0.41999998688697815,1.0,3.279964630564791e-06,-8.339746386809566e-07,8.465587342243452e-08,-1.9833529222523794e-05,0.00017983045836444944,-6.132945418357849e-05,0.0009432713268324733,-0.004689474124461412,-0.00031981561915017664,-0.007110273465514183,0.003381015034392476,1.3159372806549072,-0.814293622970581,0.9869153499603271,0.18095310032367706,0.3691313862800598,0.7227138876914978,0.42000001668930054,-1.5301095247268677,3.000002145767212,-0.045848023146390915,-3.0000009536743164,0.0008698157034814358,0.0007963738753460348,0.000711022992618382,0.0006108724046498537,0.11093129217624664,0.09757255762815475,0.08334813266992569,0.06824316829442978
0.03333333333333333,0.00896147545427084,0.006801172625273466,0.0,0.999796986579895,0.0,0.0,0.020148739218711853,0.4070257842540741,0.31529131531715393,0.0,0.0,0.0,-0.8691152334213257,-0.37827882170677185,0.6441159844398499,0.4200000464916229,1.0,3.3908179375430336e-06,-2.132458348569344e-06,-3.7097745320124886e-08,0.00026357852038927376,0.00026937833172269166,-0.00010509369894862175,-0.0017707126680761576,0.004130884539335966,-0.0001354814594378695,-0.027545679360628128,0.02599222958087921,1.3166284561157227,-1.5913267135620117,1.613121509552002,-0.08125005662441254,0.3691313862800598,0.7227138876914978,0.42000001668930054,-1.4800902605056763,3.0000035762786865,-0.09588786959648132,-3.0000014305114746,0.002990545006468892,0.0026527619920670986,0.0022773584350943565,0.0018608352402225137,0.1642078310251236,0.13976716995239258,0.11382763087749481,0.08631103485822678
0.05,0.018415726721286774,0.013831415213644505,0.0,0.9999893307685852,0.0,0.0,-0.004622326698154211,0.6356765031814575,0.4699230194091797,0.0,0.0,0.0,-4.0860514640808105,-0.37827885150909424,0.6441160440444946,0.4200000464916229,1.0,3.7651902857760433e-06,-2.2119197637948673e-06,5.609367637049445e-09,0.00026530938339419663,0.00026691678795032203,-0.00010440615005791187,-0.0017243892652913928,0.004177466034889221,-0.00012949809024576098,-0.05737486854195595,0.05643134564161301,1.3121089935302734,-1.9596128463745117,1.988494873046875,-0.43761932849884033,0.3691313862800598,0.7227138876914978,0.42000001668930054,-1.4300719499588013,3.0000052452087402,-0.14592573046684265,-3.0,0.005991094745695591,0.005154569633305073,0.004245799966156483,0.0032603598665446043,0.20741134881973267,0.1670447140932083,0.12475242465734482,0.08046378195285797
0.06666666666666667,0.0307199377566576,0.023277347907423973,0.0,0.9999138712882996,0.0,0.0,-0.013125761412084103,0.7723788619041443,0.6135793924331665,0.0,0.0,0.0,-0.050242967903614044,-0.37827885150909424,0.6441159844398499,0.4200000464916229,0.9999999403953552,3.406832092878176e-06,-2.28558906201215e-06,4.300801492718165e-07,0.0002670248504728079,0.0002679176686797291,-0.0001043803058564663,-0.00174071139190346,0.00421183044090867,-0.00012850876373704523,-0.09532227367162704,0.0882340520620346,1.301459789276123,-2.431670665740967,2.0110034942626953,-0.8279165625572205,0.3691313862800598,0.7227138876914978,0.42000001668930054,-1.380043864250183,2.999998092651367,-0.13499964773654938,3.0000009536743164,0.00877857580780983,0.00724699767306447,0.005602966528385878,0.003841258818283677,0.157565638422966,0.10871658474206924,0.05773189663887024,0.004544443916529417
0.08333333333333333,0.04550018534064293,0.031059421598911285,0.0,0.9993551969528198,0.0,0.0,-0.035904791206121445,0.9512262344360352,0.37157586216926575,0.0,0.0,0.0,-3.551790952682495,-0.37827885150909424,0.6441159844398499,0.4200000464916229,0.9999999403953552,3.626166289905086e-06,-2.3353043161478126e-06,3.032100153177453e-07,0.00026614085072651505,0.0002668516826815903,-0.00010405341163277626,-0.001728349830955267,0.004196455702185631,-0.0001279077841900289,-0.13065879046916962,0.12653934955596924,1.2871402502059937,-1.8545186519622803,2.567122459411621,-0.8809133172035217,0.3691313862800598,0.7227138876914978,0.42000001668930054,-1.3300362825393677,3.000000238418579,-0.1668918877840042,-3.0,0.009919943287968636,0.0072652664966881275,0.004455980844795704,0.001484913402236998,0.015471831895411015,-0.07063151150941849,-0.15905524790287018,-0.24966473877429962
0.1,0.05442087724804878,0.040703773498535156,0.0,0.9974361658096313,0.0,0.0,-0.07156170904636383,0.3965795338153839,0.661217987537384,0.0,0.0,0.0,-4.5223588943481445,-0.37827885150909424,0.6441159844398499,0.4200000464916229,1.0,3.4222334761579987e-06,-2.3086047349352157e-06,1.796183539681806e-07,0.0002668157103471458,0.00026800340856425464,-0.00010440708138048649,-0.0017429988365620375,0.004207124002277851,-0.00012891183723695576,-0.16527870297431946,0.17007175087928772,1.2665694952011108,-2.1854007244110107,2.7392935752868652,-1.4947586059570312,0.3691313862800598,0.7227138876914978,0.42000001668930054,-1.280017375946045,2.9999935626983643,-0.13326239585876465,3.0000009536743164,0.0037775386590510607,0.00035500823287293315,-0.0032754014246165752,-0.007123261224478483,-0.4806135296821594,-0.5163747072219849,-0.5546762347221375,-0.5957607626914978
0.11666666666666667,0.05821095034480095,0.052239228039979935,0.0,0.9949088096618652,0.0,0.0,-0.10077930241823196,0.22064515948295593,0.6299262642860413,0.0,0.0,0.0,-3.016411781311035,-0.37827885150909424,0.6441160440444946,0.4200000464916229,1.0,3.711570343511994e-06,-2.332746134925401e-06,2.5742929210537113e-07,0.0002648576919455081,0.0002663539198692888,-0.00010423408821225166,-0.0017182708252221346,0.004170178435742855,-0.0001291575754294172,-0.20414507389068604,0.21190422773361206,1.2406185865402222,-2.3184783458709717,2.547001361846924,-1.5533149242401123,0.3691313862800598,0.7227138876914978,0.42000001668930054,-1.2300184965133667,2.9999992847442627,-0.16514313220977783,-3.0000011920928955,-0.004337005317211151,-0.00867246463894844,-0.013223141431808472,-0.018001815304160118,-0.3696039021015167,-0.45074859261512756,-0.5301113724708557,-0.6077466607093811
0.13333333333333333,0.07043108344078064,0.0596005916595459,0.0,0.9892207384109497,0.0,0.0,-0.14643199741840363,0.8301238417625427,0.4692540466785431,0.0,0.0,0.0,-6.235637187957764,-0.37827885150909424,0.6441159844398499,0.4200000464916229,1.0,3.335774863444385e-06,-2.2319691197481006e-06,3.1131583000387764e-07,0.0002666965883690864,0.0002675943251233548,-0.00010428344830870628,-0.0017370636342093349,0.004205815959721804,-0.0001284035388380289,-0.2397303581237793,0.26289474964141846,1.211677074432373,-1.939666986465454,3.5435171127319336,-1.9913086891174316,0.3691313862800598,0.7227138876914978,0.42000001668930054,-1.1799980401992798,2.999925136566162,-0.14762501418590546,3.000000476837158,-0.0037827463820576668,-0.010299812071025372,-0.016946732997894287,-0.023733297362923622,-0.06466816365718842,-0.1798594892024994,-0.29066193103790283,-0.39687493443489075
0.15,0.07927865535020828,0.06555784493684769,0.0,0.9853104948997498,0.0,0.0,-0.17077231407165527,0.4751048684120178,0.28995954990386963,0.0,0.0,0.0,-1.824154019355774,-0.37827885150909424,0.6441159844398499,0.4200000464916229,1.0,3.51896619577019e-06,-2.2831691239844076e-06,-3.625396516326873e-07,0.00026618328411132097,0.00026735622668638825,-0.00010425481013953686,-0.0017348447581753135,0.004195693414658308,-0.0001286104234168306,-0.27624431252479553,0.31640172004699707,1.1716735363006592,-2.088658571243286,3.3496510982513428,-2.7303879261016846,0.3691313862800598,0.7227138876914978,0.42000001668930054,-1.132989525794983,2.634857416152954,-0.17940106987953186,-3.000000476837158,-0.010111203417181969,-0.017735708504915237,-0.025443000718951225,-0.03324493020772934,-0.42439478635787964,-0.47750216722488403,-0.5276365280151367,-0.5750032663345337
0.16666666666666666,0.08343329280614853,0.07377412170171738,0.0,0.9786412119865417,0.0,0.0,-0.20557579398155212,0.22250168025493622,0.4659523665904999,0.0,0.0,0.0,-4.855654239654541,-0.37827885150909424,0.6441159844398499,0.4200000464916229,1.0,3.6666901905846316e-06,-2.339151933483663e-06,-3.150083500713663e-07,0.00026595874805934727,0.0002666740329004824,-0.00010403385385870934,-0.001725255511701107,0.004192718770354986,-0.0001277866685995832,-0.31014305353164673,0.3749622702598572,1.1180472373962402,-1.918121337890625,3.6821184158325195,-3.544076442718506,0.3691313862800598,0.7227138876914978,0.42000001668930054,-1.0832605361938477,3.000000238418579,-0.21182218194007874,-1.0321340560913086,-0.020712779834866524,-0.028783628717064857,-0.03688957542181015,-0.04504986107349396,-0.5765367150306702,-0.6098983883857727,-0.6389573812484741,-0.6639980673789978
0.18333333333333332,0.0920502170920372,0.08300145715475082,0.0,0.9642610549926758,0.0,0.0,-0.26495397090911865,0.6823716759681702,0.6054198741912842,0.0,0.0,0.0,-8.422996520996094,-0.37827885150909424,0.6441159844398499,0.4200000464916229,1.0,3.814420779235661e-06,-2.399499635430402e-06,-2.7027235205423494e-07,0.00026548944879323244,0.0002661115431692451,-0.00010391324758529663,-0.0017178029520437121,0.004184751771390438,-0.00012753890769090503,-0.3389769196510315,0.44150418043136597,1.0515140295028687,-1.3628649711608887,4.2400312423706055,-4.348119735717773,0.3691313862800598,0.7227138876914978,0.42000001668930054,-1.0332542657852173,3.000000476837158,-0.2600191533565521,-3.0,-0.029172349721193314,-0.03783561289310455,-0.04645780846476555,-0.05506321042776108,-0.487923800945282,-0.5179226398468018,-0.5436543226242065,-0.5653821229934692
0.2,0.09766477346420288,0.08995657414197922,0.0,0.9518138766288757,0.0,0.0,-0.30667635798454285,0.29633238911628723,0.40160465240478516,0.0,0.0,0.0,-3.9232707023620605,-0.37827885150909424,0.6441159844398499,0.4200000464916229,1.0,3.600188847485697e-06,-2.291208829774405e-06,-2.2020329026872787e-07,0.00026573031209409237,0.0002664495841600001,-0.00010398100130259991,-0.0017226987984031439,0.004188769496977329,-0.00012773128401022404,-0.36347678303718567,0.502409040927887,0.9709405303001404,-1.0774976015090942,3.62599778175354,-5.240981101989746,0.3691313862800598,0.7227138876914978,0.42000001668930054,-0.9832473993301392,3.000000238418579,-0.3100471496582031,-3.000000238418579,-0.04289674758911133,-0.051345448940992355,-0.05971578136086464,-0.06805690377950668,-0.8062772154808044,-0.8283552527427673,-0.8445170521736145,-0.8596213459968567
0.21666666666666667,0.0992351546883583,0.09816152602434158,0.0,0.9497408270835876,0.0,0.0,-0.31303727626800537,0.017366962507367134,0.5267397165298462,0.0,0.0,0.0,0.2055221050977707,-0.37827885150909424,0.6441159844398499,0.4200000464916229,0.9999999403953552,3.6397420899447752e-06,-2.2619685751124052e-06,2.2246368303058262e-07,0.00026687313220463693,0.00026754301507025957,-0.00010411837138235569,-0.0017404037062078714,0.004211082123219967,-0.00012783679994754493,-0.3859093487262726,0.5502545833587646,0.8812196850776672,-1.156063199043274,2.494659423828125,-5.576299667358398,0.3691313862800598,0.7227138876914978,0.42000001668930054,-0.9332367181777954,2.9999964237213135,-0.3600773811340332,-2.9999988079071045,-0.05850977078080177,-0.06704726815223694,-0.07530929148197174,-0.08337467908859253,-0.9869092106819153,-0.9811102151870728,-0.9575598835945129,-0.9258607029914856
0.23333333333333334,0.09851602464914322,0.10258782655000687,0.0,0.9432216882705688,0.0,0.0,-0.33216390013694763,-0.10188388079404831,0.19602757692337036,0.0,0.0,0.0,-3.2776389122009277,-0.37827882170677185,0.6441159844398499,0.4200000464916229,1.0,3.4208560464321636e-06,-2.3167735889728647e-06,2.955749494049087e-07,0.00026680153678171337,0.000268039497314021,-0.0001044231466948986,-0.001743743778206408,0.004206785000860691,-0.00012899443390779197,-0.40187475085258484,0.5906883478164673,0.7829598188400269,-0.6853938102722168,2.1318588256835938,-6.0781707763671875,0.3691313862800598,0.7227138876914978,0.42000001668930054,-0.8832260370254517,3.000002384185791,-0.41010892391204834,-2.9999990463256836,-0.07465159893035889,-0.08322232216596603,-0.09118707478046417,-0.09855575859546661,-0.9980718493461609,-0.9983879923820496,-0.9833647012710571,-0.9289571642875671
0.25,0.09685877710580826,0.10932642221450806,0.0,0.9421318769454956,0.0,0.0,-0.3352425694465637,-0.06789369881153107,0.3830346167087555,0.0,0.0,0.0,0.5322003960609436,-0.37827885150909424,0.6441159844398499,0.4200000464916229,0.9999999403953552,3.3476892440376105e-06,-2.2591661945625674e-06,1.8082083386161685e-07,0.00026687668287195265,0.0002679106837604195,-0.00010439427569508553,-0.0017404770478606224,0.004208184313029051,-0.00012870125647168607,-0.41270655393600464,0.6168340444564819,0.6822457313537598,-0.5210826992988586,1.0810790061950684,-5.953207969665527,0.3691313862800598,0.7227138876914978,0.42000001668930054,-0.8332159519195557,2.9999818801879883,-0.4601403474807739,-2.999999761581421,-0.09087207168340683,-0.09947614371776581,-0.10749512165784836,-0.1149277463555336,-0.8284782767295837,-0.8574755787849426,-0.8854497075080872,-0.9111244678497314
0.26666666666666666,0.0931505337357521,0.11320082098245621,0.0,0.9368362426757812,0.0,0.0,-0.34976834058761597,-0.30102309584617615,0.17886309325695038,0.0,0.0,0.0,-2.694065809249878,-0.37827885150909424,0.6441159844398499,0.4200000464916229,0.9999999403953552,3.5357459182705497e-06,-2.3003199203230906e-06,-1.268702192191995e-07,0.0002660168393049389,0.00026712208637036383,-0.00010419590398669243,-0.0017316138837486506,0.004192820750176907,-0.00012849303311668336,-0.41478830575942993,0.6313070058822632,0.5810320377349854,0.266726553440094,0.5613400936126709,-5.945404052734375,0.3691313862800598,0.7227138876914978,0.42000001668930054,-0.7832071781158447,3.000002384185791,-0.510170578956604,-2.999999761581421,-0.10823935270309448,-0.11666184663772583,-0.12454352527856827,-0.13186821341514587,-1.0050132274627686,-1.0037720203399658,-1.0028245449066162,-1.0020725727081299
0.2833333333333333,0.09182655811309814,0.11309251934289932,0.0,0.9379228353500366,0.0,0.0,-0.3468440771102905,-0.003799770725890994,-0.06240787357091904,0.0,0.0,0.0,1.1442490816116333,-0.37827885150909424,0.6441160440444946,0.4200000464916229,1.0,3.5934981497121044e-06,-2.2626372810918838e-06,-5.6559525063448746e-08,0.00026704746414907277,0.00026775026344694197,-0.00010416866280138493,-0.0017432172317057848,0.004214204382151365,-0.00012789266475010663,-0.4094288647174835,0.6402953267097473,0.48648950457572937,0.5619072914123535,0.45257315039634705,-5.375624179840088,0.3691313862800598,0.7227138876914978,0.42000001668930054,-0.7331984043121338,3.0000007152557373,-0.5601992607116699,-3.000000238418579,-0.12541227042675018,-0.1337222158908844,-0.14152289927005768,-0.14878685772418976,-1.0135667324066162,-1.010258436203003,-1.007725715637207,-1.0056980848312378
0.3,0.08774840086698532,0.11110378801822662,0.0,0.9334710836410522,0.0,0.0,-0.35865268111228943,-0.33553433418273926,-0.15036286413669586,0.0,0.0,0.0,-2.397625207901001,-0.37827882170677185,0.6441159844398499,0.4200000464916229,0.9999999403953552,3.7250597415550146e-06,-2.236036380054429e-06,3.8286003700704896e-07,0.00026479727239347994,0.00026673031970858574,-0.00010454049333930016,-0.001718925777822733,0.0041666231118142605,-0.00013016141019761562,-0.39182591438293457,0.6457796096801758,0.39872071146965027,1.5109041929244995,0.24664515256881714,-5.061486721038818,0.3691313862800598,0.7227138876914978,0.42000001668930054,-0.6831914186477661,3.0000009536743164,-0.6102259755134583,-2.999997615814209,-0.1434069126844406,-0.15139319002628326,-0.1589469462633133,-0.16601444780826569,-1.0070626735687256,-1.0053645372390747,-1.0040591955184937,-1.0030051469802856
0.31666666666666665,0.08041275292634964,0.10718344151973724,0.0,0.9348850846290588,0.0,0.0,-0.354950487613678,-0.40259966254234314,-0.3062063455581665,0.0,0.0,0.0,1.3403068780899048,-0.37827885150909424,0.6441159844398499,0.4200000464916229,0.9999999403953552,3.5578370898292633e-06,-2.278898136864882e-06,2.2831329715700122e-07,0.0002659840392880142,0.0002665840438567102,-0.00010398821905255318,-0.0017240153392776847,0.004193446598947048,-0.00012769739259965718,-0.39071378111839294,0.6522412896156311,0.4228864014148712,0.42869552969932556,0.7988058924674988,-0.1517294943332672,0.3691313862800598,0.7227138876914978,0.42000001668930054,-0.6334612369537354,3.0000009536743164,-0.660677969455719,-2.9997076988220215,-0.14743554592132568,-0.1550719290971756,-0.16194726526737213,-0.16794586181640625,-0.3620778024196625,-0.32446974515914917,-0.2682129442691803,-0.1905413120985031
0.3333333333333333,0.07201460003852844,0.10058241337537766,0.0,0.9306657910346985,0.0,0.0,-0.3658704459667206,-0.5508150458335876,-0.4354889392852783,0.0,0.0,0.0,-2.3081214427948,-0.3716461956501007,0.6530024409294128,0.42109552025794983,0.9960078001022339,0.028063997626304626,-0.0021469711791723967,-0.08471280336380005,0.3640074133872986,0.4829343557357788,0.030114540830254555,1.5607880353927612,-0.14150287210941315,-8.829113006591797,-0.3830808401107788,0.6610313653945923,0.42019855976104736,0.46009835600852966,0.48803484439849854,0.10128793865442276,0.3691313862800598,0.7227138876914978,0.42000001668930054,-0.5834559798240662,2.997809410095215,-0.7107242345809937,-2.9812686443328857,-0.15456263720989227,-0.1612284630537033,-0.16686943173408508,-0.17134392261505127,-0.4177134931087494,-0.34342145919799805,-0.25660601258277893,-0.15662147104740143
0.35,0.06139007955789566,0.09176832437515259,0.0,0.932394802570343,0.0,0.0,-0.3614414930343628,-0.6768122315406799,-0.5677313804626465,0.0,0.0,0.0,1.4998890161514282,-0.3638339340686798,0.6647520065307617,0.42150503396987915,0.9893873929977417,0.009232979267835617,0.0020153354853391647,-0.14499402046203613,0.6214833855628967,0.9357128739356995,0.012916347943246365,-1.022685170173645,1.0717618465423584,-5.630326747894287,-0.3748808205127716,0.6725996136665344,0.42256543040275574,0.6123848557472229,0.8866471648216248,0.021857451647520065,0.3691313862800598,0.7227138876914978,0.42000001668930054,-0.5334509611129761,2.9999351501464844,-0.7607482671737671,-3.0000009536743164,-0.16202513873577118,-0.16698519885540009,-0.17070768773555756,-0.173061802983284,-0.4341112971305847,-0.3210809528827667,-0.1958978921175003,-0.059864550828933716
0.36666666666666664,0.053719617426395416,0.0804138109087944,0.0,0.9286558628082275,0.0,0.0,-0.37094247341156006,-0.38390102982521057,-0.7266460061073303,0.0,0.0,0.0,-2.112276315689087,-0.35328903794288635,0.6804828643798828,0.4200361371040344,0.9852510690689087,-0.0006621932843700051,0.00020013177709188312,-0.171113058924675,0.6516677141189575,0.949635922908783,-0.030964503064751625,0.9687701463699341,-0.7497358322143555,3.641167402267456,-0.3607892692089081,0.6868338584899902,0.42027944326400757,1.0970696210861206,0.9008375406265259,-0.27037978172302246,0.3691313862800598,0.7227138876914978,0.42000001668930054,-0.483446329832077,2.999901294708252,-0.8107722997665405,-2.9999876022338867,-0.17013943195343018,-0.17258498072624207,-0.17355874180793762,-0.17297083139419556,-0.4784614145755768,-0.3068762421607971,-0.12143000960350037,0.07495827227830887
0.3833333333333333,0.04349003732204437,0.06752309203147888,0.0,0.9130910634994507,0.0,0.0,-0.4077557623386383,-0.6110526323318481,-0.8416403532028198,0.0,0.0,0.0,-5.691460609436035,-0.3376613259315491,0.700716495513916,0.4203558564186096,0.9736589193344116,-0.008743686601519585,0.0016429328825324774,-0.22783561050891876,1.2180719375610352,1.4583461284637451,0.09479673206806183,-4.355290412902832,1.841724157333374,-7.105921268463135,-0.3413136601448059,0.7029697895050049,0.42181724309921265,1.4335904121398926,1.2866263389587402,0.13678814470767975,0.3691313862800598,0.7227138876914978,0.42000001668930054,-0.43335795402526855,2.9993834495544434,-0.860771656036377,-2.9988927841186523,-0.179571732878685,-0.1788340061903,-0.17635613679885864,-0.17211785912513733,-0.37329521775245667,-0.2217014580965042,-0.050755035132169724,0.1357676088809967
0.4,0.03699425607919693,0.051268067210912704,0.0,0.8837112784385681,0.0,0.0,-0.46803250908851624,-0.35072067379951477,-1.021588921546936,0.0,0.0,0.0,-8.8165864944458,-0.3017357587814331,0.7277562022209167,0.424803763628006,0.958139181137085,-0.012280148454010487,-0.03140018880367279,-0.2843104898929596,3.1201770305633545,1.8092280626296997,0.3138301372528076,38.03389358520508,-17.79228973388672,20.641292572021484,-0.30512553453445435,0.7310963869094849,0.42564892768859863,3.0002217292785645,2.111168622970581,0.5287410020828247,0.3691313862800598,0.7227138876914978,0.42000001668930054,-0.39220812916755676,1.3998401165008545,-0.9107903242111206,-2.9998443126678467,-0.18710750341415405,-0.18339158594608307,-0.17764848470687866,-0.16994599997997284,-0.5486607551574707,-0.3361667990684509,-0.11010761559009552,0.12281519919633865
0.4166666666666667,0.03253193199634552,0.03988463804125786,0.0,0.8374744653701782,0.0,0.0,-0.546476423740387,-0.18463727831840515,-0.7065260410308838,0.0,0.0,0.0,-11.566010475158691,-0.22555747628211975,0.7661946415901184,0.4319429099559784,0.9369757175445557,0.04987125098705292,-0.07427230477333069,-0.33774691820144653,5.890011787414551,2.4111759662628174,0.41095152497291565,9.053245544433594,-13.817480087280273,11.32032299041748,-0.22871133685112,0.7699397206306458,0.4326745867729187,5.691289901733398,2.7855224609375,0.5057711601257324,0.3691313862800598,0.7227138876914978,0.42000001668930054,-0.37746766209602356,0.7010400891304016,-0.8736351132392883,2.9992711544036865,-0.20214015245437622,-0.19499501585960388,-0.18408381938934326,-0.17147567868232727,-0.5936564207077026,-0.5618809461593628,-0.3160422444343567,-0.08834816515445709
0.43333333333333335,0.03182859718799591,0.030453791841864586,0.0,0.7983538508415222,0.0,0.0,-0.6021886467933655,0.011272246018052101,-0.5046870112419128,0.0,0.0,0.0,-7.031327724456787,-0.13083505630493164,0.8073446750640869,0.44250866770744324,0.8871792554855347,0.08476031571626663,-0.10237178951501846,-0.4418695271015167,5.852042198181152,1.7849315404891968,0.8244309425354004,19.32909393310547,-4.047900199890137,6.800975322723389,-0.13453927636146545,0.8119333386421204,0.4430493712425232,5.731727600097656,2.0906295776367188,0.6676942110061646,0.3691313862800598,0.7227138876914978,0.42000001668930054,-0.3624698519706726,1.0744447708129883,-0.8994544744491577,-3.0000014305114746,-0.21273086965084076,-0.20463550090789795,-0.19005334377288818,-0.17420417070388794,-0.5951027274131775,-0.5272024273872375,-0.3376183807849884,-0.17750166356563568
0.45,0.02777957171201706,0.02659495733678341,0.0,0.7788379788398743,0.0,0.0,-0.6272251605987549,-0.19232121109962463,-0.2120964229106903,0.0,0.0,0.0,-2.415940523147583,-0.036492619663476944,0.830422043800354,0.4548133611679077,0.8216115832328796,0.10331382602453232,-0.09647856652736664,-0.5522430539131165,5.882192134857178,0.4794882535934448,0.6794136762619019,1.397029161453247,-17.482900619506836,0.947417676448822,-0.04087560996413231,0.8365097045898438,0.45414918661117554,5.563857078552246,0.9749190807342529,0.7597029209136963,0.3691313862800598,0.7227138876914978,0.42000001668930054,-0.34316977858543396,1.1085695028305054,-0.9494784474372864,-3.0000011920928955,-0.2266109734773636,-0.21612663567066193,-0.19765561819076538,-0.17852984368801117,-0.6631643772125244,-0.5571423768997192,-0.37351831793785095,-0.21968619525432587
0.4666666666666667,0.02863471955060959,0.016756342723965645,0.0,0.7512202262878418,0.0,0.0,-0.6600516438484192,0.013304783962666988,-0.5980755090713501,0.0,0.0,0.0,-5.846220016479492,0.05557958409190178,0.8372154831886292,0.46092721819877625,0.7612307667732239,0.06818819791078568,-0.1329883635044098,-0.6310246586799622,5.1454176902771,-1.202994704246521,0.4071386754512787,-14.504557609558105,4.9385223388671875,18.39723777770996,0.05058175325393677,0.8457252383232117,0.46260058879852295,5.471902847290039,-0.057538293302059174,0.5002000331878662,0.3691313862800598,0.7227138876914978,0.42000001668930054,-0.32716336846351624,0.7073432207107544,-0.9995024800300598,-3.0000007152557373,-0.23217345774173737,-0.2201150804758072,-0.19912926852703094,-0.177801713347435,-0.5009190440177917,-0.3255177140235901,-0.120124451816082,0.06499803811311722
0.48333333333333334,0.02629406563937664,0.012246798723936081,0.0,0.7359516620635986,0.0,0.0,-0.6770341396331787,-0.13885149359703064,-0.236045241355896,0.0,0.0,0.0,-1.4056333303451538,0.13909389078617096,0.8279677033424377,0.4668292701244354,0.7010605335235596,0.04778875783085823,-0.11631827801465988,-0.7019261717796326,4.342306137084961,-1.5156490802764893,0.26439985632896423,-9.581379890441895,-2.1814217567443848,24.211193084716797,0.13447073101997375,0.8372727632522583,0.46907883882522583,4.9469685554504395,-0.7797161340713501,0.37723061442375183,0.3691313862800598,0.7227138876914978,0.42000001668930054,-0.3172805607318878,0.45255419611930847,-1.0495247840881348,-3.0000007152557373,-0.23995815217494965,-0.22806060314178467,-0.203697070479393,-0.17947597801685333,-0.02729872241616249,-0.39902183413505554,-0.26384714245796204,-0.15279130637645721
0.5,0.026359286159276962,0.010981427505612373,0.0,0.7147735953330994,0.0,0.0,-0.6993559002876282,0.05723949149250984,-0.00981416366994381,0.0,0.0,0.0,-4.564863204956055,0.2118091881275177,0.811160147190094,0.4650498032569885,0.6455181837081909,0.0038118804804980755,-0.13341479003429413,-0.7519921064376831,3.9784011840820312,-1.2525471448898315,-0.28706902265548706,-10.46983814239502,6.262151718139648,2.8882744312286377,0.2071581482887268,0.8219437003135681,0.46953529119491577,4.002735137939453,-1.1487751007080078,-0.16942118108272552,0.3691313862800598,0.7227138876914978,0.42000001668930054,-0.3074304759502411,0.7193429470062256,-1.0995469093322754,-2.999722957611084,-0.23880799114704132,-0.23253591358661652,-0.20710138976573944,-0.1820426732301712,0.15270882844924927,-0.1390678435564041,-0.12654812633991241,-0.12305755168199539
0.5166666666666666,0.02980516105890274,0.005879461299628019,0.0,0.7052507400512695,0.0,0.0,-0.7089579105377197,0.1917833685874939,-0.2907337248325348,0.0,0.0,0.0,-0.6552106142044067,0.2714122235774994,0.7905968427658081,0.458037793636322,0.6048154830932617,-0.02665090747177601,-0.11073154211044312,-0.7881792187690735,3.1371915340423584,-1.4662132263183594,-0.4887651205062866,-1.885224461555481,4.240219593048096,-5.623773097991943,0.26767247915267944,0.801227331161499,0.4628864526748657,3.1824183464050293,-1.446779727935791,-0.5511412620544434,0.3691313862800598,0.7227138876914978,0.42000001668930054,-0.294159471988678,0.8744053244590759,-1.149569034576416,-3.0000011920928955,-0.2328464388847351,-0.2306917905807495,-0.20589791238307953,-0.18162445724010468,0.29567062854766846,0.12362596392631531,0.0742882564663887,0.012909573502838612
0.5333333333333333,0.03530167043209076,0.005102434195578098,0.0,0.6866176724433899,0.0,0.0,-0.7270187139511108,0.3928755521774292,-0.033122118562459946,0.0,0.0,0.0,-3.8866939544677734,0.3172782063484192,0.7691587805747986,0.4433777928352356,0.5822662711143494,-0.060442376881837845,-0.0954141840338707,-0.8051141500473022,2.4049642086029053,-1.475219488143921,-0.9095332622528076,-6.648885250091553,6.642244338989258,3.9884555339813232,0.3142344653606415,0.7789914011955261,0.44870343804359436,2.4553771018981934,-1.264961838722229,-1.0741268396377563,0.3691313862800598,0.7227138876914978,0.42000001668930054,-0.27861782908439636,0.8832133412361145,-1.1995911598205566,-2.9998438358306885,-0.2282245010137558,-0.22861455380916595,-0.20545178651809692,-0.18290387094020844,0.421986848115921,0.2621976435184479,0.10091898590326309,-0.05815057456493378
0.55,0.03900783509016037,0.005991035141050816,0.0,0.6819181442260742,0.0,0.0,-0.7314285039901733,0.15303896367549896,0.1541508585214615,0.0,0.0,0.0,0.1746303290128708,0.3510333299636841,0.7470953464508057,0.42409461736679077,0.5599958300590515,-0.10142675787210464,-0.07663137465715408,-0.8186848163604736,1.5809326171875,-1.7886961698532104,-1.0711337327957153,-0.7419013381004333,7.678519248962402,8.393016815185547,0.34864479303359985,0.7562775015830994,0.42973223328590393,1.6275088787078857,-1.3632956743240356,-1.2059657573699951,0.3691313862800598,0.7227138876914978,0.42000001668930054,-0.2656881511211395,0.5982937812805176,-1.249605655670166,-2.999911308288574,-0.22138693928718567,-0.2238638550043106,-0.2036828249692917,-0.18405847251415253,0.37419676780700684,0.27799192070961,0.08387380838394165,-0.10628306865692139
0.5666666666666667,0.043245330452919006,0.005052963271737099,0.0,0.6682080030441284,0.0,0.0,-0.7439744472503662,0.29378727078437805,-0.12107518315315247,0.0,0.0,0.0,-3.0882725715637207,0.3654852509498596,0.7377247214317322,0.42169591784477234,0.5793578028678894,-0.03616694360971451,-0.024677177891135216,-0.8138964772224426,0.4492306411266327,-0.8602665662765503,-0.0445312038064003,1.1355326175689697,0.2472396045923233,13.261077880859375,0.3617771863937378,0.7444199323654175,0.42474567890167236,0.4163617193698883,-0.4603997766971588,-0.09774921834468842,0.3691313862800598,0.7227138876914978,0.42000001668930054,-0.2551294267177582,0.5437312722206116,-1.211558222770691,2.9858808517456055,-0.21281740069389343,-0.21719904243946075,-0.200954869389534,-0.18500423431396484,0.5071409940719604,0.4126715064048767,0.16901105642318726,-0.057862743735313416
0.5833333333333334,0.04547625035047531,0.006413294933736324,0.0,0.6673154234886169,0.0,0.0,-0.7447752356529236,0.07775554805994034,0.09899887442588806,0.0,0.0,0.0,0.7152667045593262,0.369636595249176,0.728697657585144,0.42136844992637634,0.5997676849365234,-0.02836187556385994,-0.021342115476727486,-0.7993865609169006,0.12837091088294983,-0.4803873300552368,-0.010034561157226562,0.5150384902954102,-0.15678942203521729,1.1108078956604004,0.3647616505622864,0.7358037829399109,0.42575690150260925,0.042725276201963425,-0.45182889699935913,0.12660962343215942,0.3691313862800598,0.7227138876914978,0.42000001668930054,-0.2742725908756256,-2.3421735763549805,-1.2328212261199951,-2.999237298965454,-0.20663556456565857,-0.21173997223377228,-0.19902724027633667,-0.18634414672851562,0.4265483617782593,0.3878188729286194,0.1685236543416977,-0.032345000654459
0.6,0.048879317939281464,0.0077944183722138405,0.0,0.6560766100883484,0.0,0.0,-0.7546942830085754,0.23188582062721252,0.08536393940448761,0.0,0.0,0.0,-2.6365299224853516,0.3712427616119385,0.7245285511016846,0.42156749963760376,0.6148694753646851,-0.026417333632707596,0.013292348943650723,-0.7880741953849792,0.18917332589626312,0.015304493717849255,0.17757925391197205,2.9145243167877197,9.137652397155762,-1.577967643737793,0.3667289614677429,0.7335290312767029,0.42766493558883667,0.21941125392913818,0.001560065895318985,0.12545229494571686,0.3691313862800598,0.7227138876914978,0.42000001668930054,-0.2972091734409332,-0.5720099806785583,-1.282768964767456,-2.9991092681884766,-0.19815704226493835,-0.2041998952627182,-0.19546419382095337,-0.18634866178035736,0.5679054856300354,0.5058382749557495,0.2597156763076782,0.040406063199043274
0.6166666666666667,0.05386095121502876,0.0062784901820123196,0.0,0.6579247117042542,0.0,0.0,-0.7530837059020996,0.3321080803871155,-0.15384744107723236,0.0,0.0,0.0,1.1751461029052734,0.37374797463417053,0.7244357466697693,0.42311277985572815,0.614370584487915,-0.05212292820215225,0.06650001555681229,-0.7844805121421814,0.1360749900341034,-0.020249471068382263,0.0846821740269661,1.30062997341156,4.778208255767822,0.5061387419700623,0.3668469488620758,0.7316847443580627,0.4275569021701813,-0.16298864781856537,-0.12477882206439972,-0.06363951414823532,0.3691313862800598,0.7227138876914978,0.42000001668930054,-0.3369244635105133,-2.9999983310699463,-1.2704907655715942,2.9998891353607178,-0.19107010960578918,-0.1972140669822693,-0.19171346724033356,-0.18551397323608398,0.3799327611923218,0.3986358344554901,0.229261577129364,0.07430771738290787
0.6333333333333333,0.06157182902097702,0.0076017179526388645,0.0,0.6769311428070068,0.0,0.0,-0.736046314239502,0.5004733204841614,0.09957251697778702,0.0,0.0,0.0,4.197024345397949,0.372584730386734,0.7237609624862671,0.42314454913139343,0.6066605448722839,-0.05270370841026306,0.06508622318506241,-0.7905371785163879,-0.08235161006450653,-0.014787795022130013,-0.026430947706103325,-0.7778317928314209,-1.825981616973877,-1.2258929014205933,0.3644219636917114,0.7316188812255859,0.42900609970092773,-0.1607241928577423,0.11853641271591187,0.16629940271377563,0.3691313862800598,0.7227138876914978,0.42000001668930054,-0.38690394163131714,-2.998352289199829,-1.290378451347351,-2.9993817806243896,-0.18677307665348053,-0.19232968986034393,-0.18920905888080597,-0.18514226377010345,0.3395923972129822,0.3550993800163269,0.204076886177063,0.0701044350862503
0.65,0.0669928565621376,0.005006882827728987,0.0,0.6843242049217224,0.0,0.0,-0.7291778922080994,0.22496706247329712,-0.1733204573392868,0.0,0.0,0.0,0.12774448096752167,0.3710469901561737,0.7239013910293579,0.4216916561126709,0.6049925684928894,-0.026384176686406136,0.03471504896879196,-0.7950363159179688,-0.1150466799736023,0.02368837594985962,-0.09951316565275192,-1.6836587190628052,-5.674892425537109,0.9076429605484009,0.3623773455619812,0.7340911626815796,0.4327414035797119,-0.17644184827804565,0.07146099209785461,0.2490876317024231,0.3691313862800598,0.7227138876914978,0.42000001668930054,-0.43691617250442505,-2.9999420642852783,-1.340350866317749,-2.9993488788604736,-0.17962227761745453,-0.18474330008029938,-0.18368753790855408,-0.18135066330432892,0.30296850204467773,0.37685027718544006,0.3126363158226013,0.2658940553665161
0.6666666666666666,0.07240478694438934,-0.0006092149997130036,0.0,0.6709942817687988,0.0,0.0,-0.7414625287055969,0.3705431818962097,-0.4038998782634735,0.0,0.0,0.0,-3.025897979736328,0.36927902698516846,0.7243890166282654,0.4200056791305542,0.6056810617446899,-1.5241548680933192e-06,-8.865205018082634e-06,-0.7957074642181396,-0.025944890454411507,0.007328900508582592,-9.601237252354622e-06,-6.556638254551217e-05,-0.0009506195783615112,-0.029220271855592728,0.3613626956939697,0.7358317375183105,0.440316379070282,0.060175634920597076,0.10083802044391632,0.7768129706382751,0.3691313862800598,0.7227138876914978,0.42000001668930054,-0.48692983388900757,-2.9999847412109375,-1.3903690576553345,-2.999999761581421,-0.17648649215698242,-0.18003574013710022,-0.17943452298641205,-0.17724886536598206,0.12472671270370483,0.23393554985523224,0.23592251539230347,0.2557145059108734
0.6833333333333333,0.08149772882461548,-0.0013098407071083784,0.0,0.6358383297920227,0.0,0.0,-0.7718222737312317,0.5200591087341309,-0.029520394280552864,0.0,0.0,0.0,-6.367338180541992,0.3692789673805237,0.724388837814331,0.42000001668930054,0.6056814193725586,1.3962902585262782e-06,-2.6101592993654776e-06,-0.7957071661949158,0.0002025174326263368,-0.00017228914657607675,-7.197470404207706e-05,0.0033780597150325775,0.001223239814862609,-0.000599079648964107,0.3693115711212158,0.7332962155342102,0.46021080017089844,0.9892107248306274,-0.2104148268699646,1.681171178817749,0.3691313862800598,0.7227138876914978,0.42000001668930054,-0.5369424223899841,-2.9999728202819824,-1.4403873682022095,-2.999999761581421,-0.1815290004014969,-0.18211179971694946,-0.18015825748443604,-0.1764415055513382,-0.23884592950344086,-0.08897505700588226,-0.018845848739147186,0.06520401686429977
0.7,0.09207144379615784,0.0007497429032810032,0.0,0.6157034039497375,0.0,0.0,-0.7879779934883118,0.6883344054222107,0.13436774909496307,0.0,0.0,0.0,-1.9787038564682007,0.3692789077758789,0.7243888974189758,0.4200000464916229,0.6056811809539795,6.143725954643742e-07,-3.2241002827504417e-06,-0.7957072854042053,0.00014398680650629103,-0.00027627949020825326,-9.60472971200943e-05,0.006085282191634178,-0.001007257029414177,-0.0006183054647408426,0.3857482075691223,0.733642578125,0.49008798599243164,0.9768043756484985,0.2168312519788742,1.882165789604187,0.3691313862800598,0.7227138876914978,0.42000001668930054,-0.5583179593086243,0.17700305581092834,-1.4904056787490845,-3.0,-0.1851000189781189,-0.1839418113231659,-0.18137142062187195,-0.17683279514312744,-0.08826836198568344,-0.04250162094831467,-0.05266312137246132,-0.05078982189297676
0.7166666666666667,0.0999581441283226,0.004418432246893644,0.0,0.6212749481201172,0.0,0.0,-0.7835926413536072,0.39243876934051514,0.2583153545856476,0.0,0.0,0.0,1.736783742904663,0.3692788779735565,0.7243888974189758,0.4200000464916229,0.6056813597679138,5.627626933346619e-07,-3.245268544560531e-06,-0.7957072854042053,0.00014449912123382092,-0.0002778302296064794,-9.607966057956219e-05,0.006123406812548637,-0.0010044926311820745,-0.000620099192019552,0.40239059925079346,0.738274335861206,0.514683723449707,0.9102257490158081,0.31189119815826416,1.1376467943191528,0.3691313862800598,0.7227138876914978,0.42000001668930054,-0.5346283912658691,2.4467108249664307,-1.4569463729858398,2.999999523162842,-0.18467122316360474,-0.18306732177734375,-0.180817112326622,-0.17644762992858887,0.11211543530225754,0.1272149533033371,0.10328547656536102,0.08393952995538712
0.7333333333333333,0.10264559835195541,0.002437052084133029,0.0,0.6147520542144775,0.0,0.0,-0.788720428943634,0.21751168370246887,-0.119515560567379,0.0,0.0,0.0,-1.6707404851913452,0.3692789077758789,0.7243888974189758,0.4200000464916229,0.6056810021400452,6.081097012611281e-07,-3.0146236440486973e-06,-0.7957075238227844,0.00014100680709816515,-0.00027794556808657944,-9.525660425424576e-05,0.006145441439002752,-0.0010470637353137136,-0.0006122671766206622,0.4118586480617523,0.74424147605896,0.5287950038909912,0.19445745646953583,0.14379538595676422,0.6551194787025452,0.3691313862800598,0.7227138876914978,0.42000001668930054,-0.5161959528923035,-0.03217887133359909,-1.4068937301635742,3.000000238418579,-0.17701169848442078,-0.17610526084899902,-0.17506623268127441,-0.17184872925281525,0.19192983210086823,0.2126743495464325,0.20190678536891937,0.18255692720413208
0.75,0.10368749499320984,0.005458665080368519,0.0,0.6216062903404236,0.0,0.0,-0.7833298444747925,0.016674913465976715,0.22205838561058044,0.0,0.0,0.0,1.8217118978500366,0.3692789077758789,0.7243888974189758,0.4200000464916229,0.6056814193725586,5.953707500339078e-07,-3.211838475181139e-06,-0.7957071661949158,0.00014324243238661438,-0.00027746291016228497,-9.581423364579678e-05,0.006121397018432617,-0.0010184305720031261,-0.000617148180026561,0.4152584671974182,0.7456510663032532,0.5359941720962524,0.24356739223003387,0.15312083065509796,0.23216427862644196,0.3691313862800598,0.7227138876914978,0.42000001668930054,-0.5083363056182861,0.8892022371292114,-1.4248677492141724,-3.000000476837158,-0.17751558125019073,-0.1755712330341339,-0.173990398645401,-0.1705143004655838,0.05192676931619644,0.08780741691589355,0.10051962733268738,0.09606675058603287
0.7666666666666666,0.1028544157743454,0.004296489525586367,0.0,0.6160688996315002,0.0,0.0,-0.7876922488212585,-0.16188371181488037,-0.030800390988588333,0.0,0.0,0.0,-1.4674642086029053,0.3692788779735565,0.7243888974189758,0.4200000464916229,0.6056813597679138,6.042935751793266e-07,-3.2330708563677035e-06,-0.7957071661949158,0.00014202174497768283,-0.0002772228908725083,-9.556766599416733e-05,0.006122084800153971,-0.0010328475618734956,-0.0006142467609606683,0.4150657653808594,0.7470247149467468,0.5330569744110107,-0.34882330894470215,-0.04045436158776283,-0.384956419467926,0.3691313862800598,0.7227138876914978,0.42000001668930054,-0.5116162300109863,-1.110009789466858,-1.3863530158996582,3.000000476837158,-0.1745162159204483,-0.1723252385854721,-0.17078901827335358,-0.16764971613883972,0.0014746645465493202,0.05479815602302551,0.0915708988904953,0.10503265261650085
0.7833333333333333,0.10313794016838074,0.0040807523764669895,0.0,0.6236834526062012,0.0,0.0,-0.7816770076751709,0.061643075197935104,-0.07986295223236084,0.0,0.0,0.0,1.9746997356414795,0.3692789077758789,0.7243888974189758,0.4200000464916229,0.6056810617446899,5.825451125929249e-07,-3.0004241580172675e-06,-0.7957075238227844,0.00014102819841355085,-0.00027798660448752344,-9.525800123810768e-05,0.006146446336060762,-0.0010469072731211782,-0.000612338655628264,0.41084399819374084,0.744991660118103,0.527512788772583,-0.16241902112960815,-0.1349675953388214,-0.2350548505783081,0.3691313862800598,0.7227138876914978,0.42000001668930054,-0.5392794013023376,-2.1010215282440186,-1.4047375917434692,-3.000000238418579,-0.1769387125968933,-0.17330968379974365,-0.17048947513103485,-0.16642197966575623,-0.1131696030497551,-0.03197403997182846,0.048702072352170944,0.1128661260008812
0.8,0.10574235767126083,0.0010115929180756211,0.0,0.6190595626831055,0.0,0.0,-0.7853440046310425,0.20339015126228333,-0.2382955551147461,0.0,0.0,0.0,-1.5722320079803467,0.3692789077758789,0.7243888974189758,0.4200000464916229,0.6056813597679138,5.713490054404247e-07,-3.1898027827992337e-06,-0.7957072854042053,0.0001430254924343899,-0.0002774623571895063,-9.574438445270061e-05,0.006122728809714317,-0.001020470866933465,-0.0006166276871226728,0.4109575152397156,0.7407570481300354,0.5199156999588013,0.18217360973358154,-0.3544144630432129,-0.4947390556335449,0.3691313862800598,0.7227138876914978,0.42000001668930054,-0.5865606665611267,-3.000000476837158,-1.4547559022903442,-2.9999990463256836,-0.17949998378753662,-0.17434389889240265,-0.1698431670665741,-0.16426460444927216,-0.14525161683559418,-0.04773075506091118,0.06625813245773315,0.174790158867836
0.8166666666666667,0.11120889335870743,-0.0039001102559268475,0.0,0.5930041074752808,0.0,0.0,-0.805199384689331,0.3642948567867279,-0.4045860767364502,0.0,0.0,0.0,-4.776764869689941,0.3692789077758789,0.7243888974189758,0.4200000464916229,0.6056814789772034,5.771354381067795e-07,-3.2074281079985667e-06,-0.7957071661949158,0.0001432640419807285,-0.00027751276502385736,-9.581446647644043e-05,0.006122504360973835,-0.0010182231198996305,-0.0006172251305542886,0.41532015800476074,0.7326626777648926,0.5169115662574768,0.39669516682624817,-0.5497036576271057,0.25078290700912476,0.3691313862800598,0.7227138876914978,0.42000001668930054,-0.6365694403648376,-2.9999918937683105,-1.5047742128372192,-2.999999761581421,-0.18367373943328857,-0.17684835195541382,-0.1703483611345291,-0.16283158957958221,-0.22658975422382355,-0.14228811860084534,-0.03474375605583191,0.0720750093460083
0.8333333333333334,0.11928118020296097,-0.006960821803659201,0.0,0.5827109217643738,0.0,0.0,-0.8126795291900635,0.5056074857711792,-0.13220883905887604,0.0,0.0,0.0,-0.43162301182746887,0.3692788779735565,0.7243889570236206,0.4200000464916229,0.6056811809539795,5.902051611883508e-07,-3.1413712804351235e-06,-0.7957073450088501,0.00014029545127414167,-0.00027815790963359177,-9.510503150522709e-05,0.006154216360300779,-0.0010573203908279538,-0.0006108928937464952,0.4198884963989258,0.7289294004440308,0.5247607231140137,0.16885748505592346,0.055215805768966675,0.655307412147522,0.3691313862800598,0.7227138876914978,0.42000001668930054,-0.6542474627494812,0.5828495621681213,-1.5547925233840942,-3.0,-0.18693910539150238,-0.17966245114803314,-0.17233507335186005,-0.16399896144866943,-0.059741366654634476,-0.09936622530221939,-0.11691934615373611,-0.13360877335071564
0.85,0.12448704242706299,-0.007486368995159864,0.0,0.5971570014953613,0.0,0.0,-0.8021243810653687,0.2494284212589264,0.013306484557688236,0.0,0.0,0.0,2.965998888015747,0.3692789077758789,0.7243888974189758,0.4200000464916229,0.605681300163269,5.881445304112276e-07,-3.1527572446066188e-06,-0.7957072257995605,0.00014245699276216328,-0.00027770924498327076,-9.55390278249979e-05,0.0061330003663897514,-0.0010260827839374542,-0.0006153605645522475,0.42443937063217163,0.7320276498794556,0.5309857130050659,0.28831857442855835,0.26657605171203613,0.14537468552589417,0.3691313862800598,0.7227138876914978,0.42000001668930054,-0.623948872089386,2.8310723304748535,-1.5160539150238037,2.999999761581421,-0.18574097752571106,-0.17961029708385468,-0.17305056750774384,-0.16543757915496826,0.14119525253772736,0.06132233515381813,0.00182078848592937,-0.05611535161733627
0.8666666666666667,0.12536795437335968,-0.011873877607285976,0.0,0.598383367061615,0.0,0.0,-0.8012099266052246,0.04795918986201286,-0.28783679008483887,0.0,0.0,0.0,-0.7615829110145569,0.3692789077758789,0.7243888974189758,0.4200000464916229,0.6056814789772034,5.778625791208469e-07,-3.1650345135858515e-06,-0.7957072257995605,0.00014310068218037486,-0.0002774791792035103,-9.57767479121685e-05,0.006122596096247435,-0.0010200522374361753,-0.000616838107816875,0.4250433146953583,0.7355332374572754,0.5308536291122437,-0.2075103521347046,0.06576034426689148,-0.03396252170205116,0.3691313862800598,0.7227138876914978,0.42000001668930054,-0.606605052947998,-0.4763236343860626,-1.4659994840621948,2.999993085861206,-0.18077227473258972,-0.1762649565935135,-0.17099913954734802,-0.16463282704353333,0.16705194115638733,0.10499037057161331,0.05791233479976654,0.009450472891330719
0.8833333333333333,0.12427409738302231,-0.011538065969944,0.0,0.6107109189033508,0.0,0.0,-0.7918536067008972,-0.1044694185256958,0.03783516585826874,0.0,0.0,0.0,2.612806558609009,0.3692789077758789,0.7243888974189758,0.4200000464916229,0.6056814193725586,5.313208930601832e-07,-3.3573242035345174e-06,-0.7957072257995605,0.00014569677296094596,-0.0002781843941193074,-9.632064029574394e-05,0.00612546456977725,-0.000991045031696558,-0.0006230461876839399,0.42383086681365967,0.7348589897155762,0.5296473503112793,0.0827220007777214,-0.008955463767051697,-0.10305801033973694,0.3691313862800598,0.7227138876914978,0.42000001668930054,-0.6134534478187561,-0.35056939721107483,-1.4828437566757202,-2.999999761581421,-0.1821395456790924,-0.17764638364315033,-0.17217758297920227,-0.16566583514213562,0.011669672094285488,-0.0034137596376240253,-2.537854015827179e-08,0.0029190576169639826
