vladlanda/robotic-transformer/data/env_000_episode_0138.csv
sim_time_s,robot_box_x,robot_box_y,robot_box_z,robot_box_quat_w,robot_box_quat_x,robot_box_quat_y,robot_box_quat_z,robot_box_linvel_x,robot_box_linvel_y,robot_box_linvel_z,robot_box_angvel_x,robot_box_angvel_y,robot_box_angvel_z,cube_world_x,cube_world_y,cube_world_z,cube_quat_w,cube_quat_x,cube_quat_y,cube_quat_z,cube_linvel_x,cube_linvel_y,cube_linvel_z,cube_angvel_x,cube_angvel_y,cube_angvel_z,endpoint_world_x,endpoint_world_y,endpoint_world_z,endpoint_linvel_x,endpoint_linvel_y,endpoint_linvel_z,target_cube_world_x,target_cube_world_y,target_cube_world_z,gripper_actual_pos_rad_gp_leftgearjoint,gripper_actual_vel_rad_s_gp_leftgearjoint,gripper_actual_pos_rad_gp_rotatingjoint,gripper_actual_vel_rad_s_gp_rotatingjoint,motor_angle_rad_joint1,motor_angle_rad_joint2,motor_angle_rad_joint3,motor_angle_rad_joint4,motor_speed_rad_s_joint1,motor_speed_rad_s_joint2,motor_speed_rad_s_joint3,motor_speed_rad_s_joint4
0.0,0.0,0.0,0.0,1.0,0.0,0.0,0.0,0.0,0.0,0.0,0.0,0.0,0.0,-0.40923282504081726,0.7767102718353271,0.41999998688697815,1.0,0.0,0.0,0.0,0.0,0.0,0.0,0.0,0.0,0.0,3.42540442943573e-06,-0.005000244826078415,1.313499927520752,0.0,0.0,0.0,0.3539014458656311,0.6494117975234985,0.42000001668930054,-1.5707999467849731,0.0,0.0,0.0,0.0,0.0,0.0,0.0,0.0,0.0,0.0,0.0
0.016666666666666666,0.0028778850100934505,0.0021806680597364902,0.0,0.9998081922531128,0.0,0.0,0.019586581736803055,0.24087215960025787,0.18240931630134583,0.0,0.0,0.0,3.1418697834014893,-0.4092329442501068,0.7767099738121033,0.41999998688697815,1.0,3.279964630564791e-06,-8.339746386809566e-07,8.465587342243452e-08,-1.9833529222523794e-05,0.00017983045836444944,-6.132945418357849e-05,0.0009432713268324733,-0.004689474124461412,-0.00031981561915017664,-0.007110234349966049,0.003379564033821225,1.3159373998641968,-0.8143353462219238,0.9868683815002441,0.18095196783542633,0.3539014458656311,0.6494117975234985,0.42000001668930054,-1.5301095247268677,3.0000011920928955,-0.04584788903594017,-2.9999992847442627,0.0008691533003002405,0.0007963840034790337,0.0007110277656465769,0.0006108740926720202,0.11094217747449875,0.09756709635257721,0.08334315568208694,0.06823883205652237
0.03333333333333333,0.008961014449596405,0.006802023854106665,0.0,0.9997960329055786,0.0,0.0,0.020196884870529175,0.4070252478122711,0.3153088092803955,0.0,0.0,0.0,-0.8691279292106628,-0.40923306345939636,0.7767099142074585,0.4200000464916229,1.0,3.3907890610862523e-06,-2.132393774445518e-06,-3.709030593768148e-08,0.0002635782875586301,0.00026937786606140435,-0.00010509765706956387,-0.0017707186052575707,0.004130848217755556,-0.00013548022252507508,-0.02747887372970581,0.02628019079566002,1.3165953159332275,-1.5826137065887451,1.6167271137237549,-0.0852217823266983,0.3539014458656311,0.6494117975234985,0.42000001668930054,-1.4800903797149658,3.0000016689300537,-0.09588771313428879,-3.000000476837158,0.0029815516900271177,0.002641179831698537,0.0022627688013017178,0.001843246747739613,0.16321028769016266,0.13844436407089233,0.11219393461942673,0.08436683565378189
0.05,0.018432924523949623,0.013850260525941849,0.0,0.9999867081642151,0.0,0.0,-0.005159383174031973,0.6358967423439026,0.47067782282829285,0.0,0.0,0.0,-4.0824408531188965,-0.40923309326171875,0.7767099738121033,0.4200000464916229,1.0,3.7651125239790417e-06,-2.211909304605797e-06,5.615670151115637e-09,0.00026530897594057024,0.0002669153909664601,-0.00010440615005791187,-0.0017242893809452653,0.00417743856087327,-0.0001294967223657295,-0.056337062269449234,0.05742815136909485,1.3121404647827148,-1.8766582012176514,2.059462070465088,-0.4320013225078583,0.3539014458656311,0.6494117975234985,0.42000001668930054,-1.4300720691680908,3.000002384185791,-0.14592641592025757,-3.000000476837158,0.0058699678629636765,0.004994363524019718,0.004046276211738586,0.0030215689912438393,0.1951029747724533,0.15186983346939087,0.1067194864153862,0.05957645922899246
0.06666666666666667,0.022271644324064255,0.024887001141905785,0.0,0.9998950362205505,0.0,0.0,-0.014487654902040958,0.248967707157135,0.581466555595398,0.0,0.0,0.0,-0.12435801327228546,-0.40923309326171875,0.7767099142074585,0.4200000464916229,0.9999999403953552,3.4067415981553495e-06,-2.285610207763966e-06,4.300852367578045e-07,0.0002670248504728079,0.00026791688287630677,-0.00010437914170324802,-0.0017406237311661243,0.004211748018860817,-0.00012850160419475287,-0.0908363088965416,0.09069732576608658,1.3006231784820557,-2.0925052165985107,2.0479001998901367,-0.7425159215927124,0.3539014458656311,0.6494117975234985,0.42000001668930054,-1.3800461292266846,2.9999966621398926,-0.1546952724456787,1.5550792217254639,0.0036712458822876215,0.002373013412579894,0.0009504870395176113,-0.0006048277136869729,0.03509396314620972,-0.029633522033691406,-0.09507811069488525,-0.1614210605621338
0.08333333333333333,0.030872927978634834,0.036442115902900696,0.0,0.9992789030075073,0.0,0.0,-0.037969548255205154,0.5950928330421448,0.7264240980148315,0.0,0.0,0.0,-3.665733575820923,-0.40923309326171875,0.7767099142074585,0.4200000464916229,1.0,3.6972521684219828e-06,-2.1889734398428118e-06,-2.6323630208935356e-07,0.0002638957812450826,0.0002658642188180238,-0.00010433932766318321,-0.0017081927508115768,0.004150208085775375,-0.00012991396943107247,-0.11943184584379196,0.1307203322649002,1.2879233360290527,-1.4159557819366455,2.7369987964630127,-0.7717459201812744,0.3539014458656311,0.6494117975234985,0.42000001668930054,-1.3300398588180542,3.0000014305114746,-0.1942402720451355,-3.0000007152557373,0.005705744959414005,0.0027141072787344456,-0.0003997415187768638,-0.003645165590569377,0.0786750465631485,-0.03947991505265236,-0.15731380879878998,-0.27477917075157166
0.1,0.0369088277220726,0.05084589496254921,0.0,0.9962161779403687,0.0,0.0,-0.08690997213125229,0.3634057343006134,0.9285348653793335,0.0,0.0,0.0,-6.783229351043701,-0.40923309326171875,0.7767099142074585,0.4200000464916229,0.9999999403953552,3.6203418858349323e-06,-2.26525662583299e-06,1.7461363199799962e-07,0.00026676771813072264,0.000267407187493518,-0.0001040794886648655,-0.0017384879756718874,0.0042090388014912605,-0.00012775236973538995,-0.14387790858745575,0.17878156900405884,1.273939847946167,-1.472103238105774,3.068356513977051,-0.8539912700653076,0.3539014458656311,0.6494117975234985,0.42000001668930054,-1.2800236940383911,2.999988555908203,-0.16048523783683777,3.000000476837158,0.005156495608389378,0.0002923213178291917,-0.004678763449192047,-0.009765701368451118,0.03613010421395302,-0.08676587045192719,-0.20733195543289185,-0.3254479467868805
0.11666666666666667,0.040332868695259094,0.06624846905469894,0.0,0.9932841062545776,0.0,0.0,-0.11570090055465698,0.1352197676897049,0.9326046109199524,0.0,0.0,0.0,-2.3990392684936523,-0.40923309326171875,0.7767099142074585,0.4200000464916229,1.0,3.7983406855346402e-06,-2.2628419173997827e-06,-1.5020927435216436e-07,0.0002637402212712914,0.00026566023007035255,-0.00010428996756672859,-0.001705443486571312,0.004147546365857124,-0.0001297972776228562,-0.17368632555007935,0.2269173264503479,1.2592082023620605,-1.8205451965332031,3.011080741882324,-0.923753023147583,0.3539014458656311,0.6494117975234985,0.42000001668930054,-1.2322133779525757,2.724655866622925,-0.1921818107366562,-3.0,0.00507929315790534,-0.0018449717899784446,-0.008821655064821243,-0.015856415033340454,-0.06213734671473503,-0.17904441058635712,-0.2924762964248657,-0.4022168517112732
0.13333333333333333,0.04686048626899719,0.08221647143363953,0.0,0.9875009655952454,0.0,0.0,-0.15761303901672363,0.3995213210582733,1.01118803024292,0.0,0.0,0.0,-5.854477882385254,-0.40923309326171875,0.7767099738121033,0.4200000464916229,0.9999999403953552,3.5504526749718934e-06,-2.229838401035522e-06,2.92903592935545e-07,0.0002670336689334363,0.00026779345353133976,-0.00010417122393846512,-0.0017440557712689042,0.004213644191622734,-0.0001280014985240996,-0.20199693739414215,0.28225940465927124,1.2414779663085938,-1.5610501766204834,3.668924570083618,-1.206372618675232,0.3539014458656311,0.6494117975234985,0.42000001668930054,-1.182937502861023,2.9999916553497314,-0.15843024849891663,2.9999988079071045,0.0043349661864340305,-0.004516262095421553,-0.013362567871809006,-0.022205131128430367,-0.23379825055599213,-0.3224451243877411,-0.4090579152107239,-0.49338051676750183
0.15,0.050361938774585724,0.09607293456792831,0.0,0.9835875034332275,0.0,0.0,-0.18043182790279388,0.17912809550762177,0.747136116027832,0.0,0.0,0.0,-1.65904700756073,-0.40923309326171875,0.7767099142074585,0.4200000464916229,0.9999999403953552,3.3380681543349056e-06,-2.242904201921192e-06,-2.80383520845362e-08,0.00026674623950384557,0.000267581082880497,-0.00010427739471197128,-0.0017367617692798376,0.004206853918731213,-0.00012831280764658004,-0.23434075713157654,0.33989694714546204,1.2160686254501343,-2.027881383895874,3.528498649597168,-1.7566204071044922,0.3539014458656311,0.6494117975234985,0.42000001668930054,-1.1556389331817627,0.47440996766090393,-0.19014710187911987,-3.000000238418579,-0.001572124077938497,-0.011466997675597668,-0.02132275328040123,-0.031138841062784195,-0.35867998003959656,-0.41032251715660095,-0.4595031440258026,-0.5061657428741455
0.16666666666666666,0.05019073560833931,0.11061903089284897,0.0,0.9766098260879517,0.0,0.0,-0.21501918137073517,-0.07312484830617905,0.8915047645568848,0.0,0.0,0.0,-5.072225093841553,-0.40923309326171875,0.7767099738121033,0.4200000464916229,0.9999999403953552,3.6478249967331067e-06,-2.3072980184224434e-06,3.525462588527262e-08,0.0002672682167030871,0.0002680141478776932,-0.00010418612509965897,-0.0017472227336838841,0.00421749847009778,-0.0001279825810343027,-0.26664698123931885,0.405189573764801,1.1815608739852905,-1.7675480842590332,4.2979936599731445,-2.3775768280029297,0.3539014458656311,0.6494117975234985,0.42000001668930054,-1.1150383949279785,3.0,-0.24015328288078308,-2.999999761581421,-0.009657114744186401,-0.020147448405623436,-0.030552459880709648,-0.04087285324931145,-0.5245765447616577,-0.5497473478317261,-0.5719855427742004,-0.5913954973220825
0.18333333333333332,0.05370933189988136,0.12634478509426117,0.0,0.9720361232757568,0.0,0.0,-0.23483137786388397,0.20191620290279388,0.9798400402069092,0.0,0.0,0.0,-1.0673584938049316,-0.40923309326171875,0.7767099142074585,0.4200000464916229,0.9999999403953552,3.2905484204093227e-06,-2.19394087253022e-06,-2.7926759571528237e-07,0.00026677915593609214,0.00026775928563438356,-0.00010433956049382687,-0.0017390865832567215,0.004206973593682051,-0.00012845573655795306,-0.30196473002433777,0.47227275371551514,1.1351003646850586,-2.170560121536255,3.977630615234375,-3.199758529663086,0.3539014458656311,0.6494117975234985,0.42000001668930054,-1.079234004020691,1.4040608406066895,-0.29018154740333557,-3.0000007152557373,-0.016858534887433052,-0.027560336515307426,-0.038128431886434555,-0.04856857284903526,-0.5882503986358643,-0.5626526474952698,-0.5360551476478577,-0.5089727640151978
0.2,0.05390532687306404,0.13943545520305634,0.0,0.9642108082771301,0.0,0.0,-0.26513686776161194,-0.021375220268964767,0.7227285504341125,0.0,0.0,0.0,-4.590141296386719,-0.40923309326171875,0.7767099142074585,0.4200000464916229,1.0,3.2807649859023513e-06,-2.219233238065499e-06,1.594273868477103e-07,0.00026627976330928504,0.000267400115262717,-0.0001042510848492384,-0.0017358354525640607,0.004197914153337479,-0.00012865106691606343,-0.3339952826499939,0.541265606880188,1.0778357982635498,-1.6085278987884521,4.271939277648926,-3.6388330459594727,0.3539014458656311,0.6494117975234985,0.42000001668930054,-1.0333044528961182,3.000000238418579,-0.3402079641819,-2.9999985694885254,-0.029477739706635475,-0.039514727890491486,-0.049418192356824875,-0.05920594185590744,-0.8061956167221069,-0.7667569518089294,-0.7273871898651123,-0.688717246055603
0.21666666666666667,0.050494417548179626,0.15380547940731049,0.0,0.9585506319999695,0.0,0.0,-0.284922331571579,-0.26109862327575684,0.8716640472412109,0.0,0.0,0.0,-1.3875645399093628,-0.40923309326171875,0.7767099738121033,0.4200000464916229,1.0,3.613171202232479e-06,-2.2701251509715803e-06,2.2096426732787222e-07,0.0002671248512342572,0.00026781641645357013,-0.00010414118878543377,-0.0017444950062781572,0.0042151533998548985,-0.0001278652489418164,-0.3620203137397766,0.6087914109230042,1.0086814165115356,-1.5574753284454346,3.929232120513916,-4.536381721496582,0.3539014458656311,0.6494117975234985,0.42000001668930054,-0.9833794832229614,2.974931001663208,-0.39023342728614807,-3.000000476837158,-0.04462110996246338,-0.05452640727162361,-0.0632506012916565,-0.07186219096183777,-0.9064624905586243,-0.8877403140068054,-0.8104284405708313,-0.7331604957580566
0.23333333333333334,0.05139788240194321,0.16405804455280304,0.0,0.9484649896621704,0.0,0.0,-0.31688204407691956,0.06182766705751419,0.5467605590820312,0.0,0.0,0.0,-4.6024322509765625,-0.40923309326171875,0.7767099142074585,0.4200000464916229,1.0,3.381893066034536e-06,-2.290935526616522e-06,2.72741203843907e-07,0.00026691603125073016,0.0002678006130736321,-0.00010433257557451725,-0.001739594736136496,0.004209807142615318,-0.00012843935110140592,-0.38571271300315857,0.6737976670265198,0.9260464906692505,-1.1924209594726562,3.7154760360717773,-5.356832504272461,0.3539014458656311,0.6494117975234985,0.42000001668930054,-0.9333745837211609,3.000001907348633,-0.44026145339012146,-3.000000238418579,-0.058233946561813354,-0.06784234195947647,-0.07527752965688705,-0.08262268453836441,-0.9856241941452026,-0.9625495672225952,-0.8535748720169067,-0.7485960721969604
0.25,0.046889737248420715,0.17689870297908783,0.0,0.9436957240104675,0.0,0.0,-0.33081474900245667,-0.33549273014068604,0.0898846760392189,0.0,0.0,0.0,-1.767775535583496,-0.40923306345939636,0.7767099142074585,0.4200000464916229,0.9999999403953552,3.7065622109366814e-06,-2.222981265731505e-06,-2.2555772716259526e-07,0.00026424723910167813,0.000266568356892094,-0.00010457751341164112,-0.001717002596706152,0.0041555180214345455,-0.00013063121878076345,-0.40520715713500977,0.721646785736084,0.8299905061721802,-0.7415843605995178,2.4525184631347656,-6.081057071685791,0.3539014458656311,0.6494117975234985,0.42000001668930054,-0.8833643198013306,2.999993324279785,-0.4902913272380829,-2.9999942779541016,-0.0738479346036911,-0.083476722240448,-0.09099132567644119,-0.09840063005685806,-0.80580735206604,-0.804114818572998,-0.8084620833396912,-0.8141869306564331
0.26666666666666666,0.03942623361945152,0.17784450948238373,0.0,0.9351803660392761,0.0,0.0,-0.3541717827320099,-0.5332634449005127,0.11539304256439209,0.0,0.0,0.0,-3.2627477645874023,-0.40923309326171875,0.7767099142074585,0.4200000464916229,0.9999999403953552,3.7196462017163867e-06,-2.403447979304474e-06,-1.8313724581275892e-07,0.0002662329061422497,0.0002672921400517225,-0.00010425853542983532,-0.0017327220411971211,0.004196553491055965,-0.0001285112666664645,-0.41747528314590454,0.7575582265853882,0.7258172631263733,-0.5166807174682617,1.7466447353363037,-6.379140853881836,0.3539014458656311,0.6494117975234985,0.42000001668930054,-0.8333539962768555,2.9999310970306396,-0.5403215289115906,-2.999969959259033,-0.08838137239217758,-0.09772518277168274,-0.1051168292760849,-0.11242777854204178,-0.9973248839378357,-0.99555903673172,-0.9949004650115967,-0.958681046962738
0.2833333333333333,0.03319830447435379,0.18125231564044952,0.0,0.9343255162239075,0.0,0.0,-0.3564208447933197,-0.31220683455467224,0.24284064769744873,0.0,0.0,0.0,0.6270566582679749,-0.40923309326171875,0.7767099738121033,0.4200000464916229,0.9999999403953552,3.5840309919876745e-06,-2.3154766495281365e-06,7.399254542406197e-08,0.00026522090774960816,0.0002645533240865916,-0.00010317121632397175,-0.0017020802479237318,0.004185076337307692,-0.00012500105367507786,-0.42810356616973877,0.7749056220054626,0.6184078454971313,-0.5048558712005615,0.43613147735595703,-6.455065727233887,0.3539014458656311,0.6494117975234985,0.42000001668930054,-0.7833451628684998,2.9999992847442627,-0.5903512835502625,-2.9999959468841553,-0.10510542243719101,-0.11437465250492096,-0.1217198446393013,-0.12899672985076904,-0.994486391544342,-0.9955143928527832,-0.996310293674469,-0.9957602620124817
0.3,0.0259696152061224,0.18284258246421814,0.0,0.9286060333251953,0.0,0.0,-0.3710671663284302,-0.48714911937713623,0.05002794787287712,0.0,0.0,0.0,-2.728071689605713,-0.40923309326171875,0.7767099142074585,0.4200000464916229,1.0,3.724227326529217e-06,-2.271912762807915e-06,9.629899011542875e-08,0.00026312650879845023,0.000265258364379406,-0.00010438216850161552,-0.0016960541252046824,0.004134918563067913,-0.00013028219109401107,-0.43028631806373596,0.7783946990966797,0.5118729472160339,0.25886109471321106,-0.06257392466068268,-6.144079685211182,0.3539014458656311,0.6494117975234985,0.42000001668930054,-0.7333364486694336,2.9999985694885254,-0.6403800249099731,-2.9999985694885254,-0.12269648164510727,-0.13174910843372345,-0.13892927765846252,-0.1460752934217453,-1.0106148719787598,-1.0079970359802246,-1.00600004196167,-1.0044069290161133
0.31666666666666665,0.016611889004707336,0.18179285526275635,0.0,0.9292522668838501,0.0,0.0,-0.3694458305835724,-0.6013026237487793,-0.10541332513093948,0.0,0.0,0.0,1.1095250844955444,-0.40923309326171875,0.7767099142074585,0.4200000464916229,1.0,3.6661540434579365e-06,-2.3925497316668043e-06,1.6793948987015028e-07,0.00026602172874845564,0.0002670693211257458,-0.00010418705642223358,-0.0017310414696112275,0.004193533677607775,-0.0001284974568989128,-0.42296743392944336,0.7758557796478271,0.4151690602302551,0.7246277332305908,-0.2918930649757385,-5.495307922363281,0.3539014458656311,0.6494117975234985,0.42000001668930054,-0.6833293437957764,3.0000014305114746,-0.6904067397117615,-3.0,-0.14002065360546112,-0.14891952276229858,-0.15598611533641815,-0.16304466128349304,-1.0107250213623047,-1.0081241130828857,-1.006131649017334,-1.004533052444458
0.3333333333333333,0.005230820272117853,0.1781264692544937,0.0,0.9244033098220825,0.0,0.0,-0.3814164996147156,-0.7298637628555298,-0.26268211007118225,0.0,0.0,0.0,-2.419801712036133,-0.4099070727825165,0.7745261788368225,0.4212389886379242,0.9993228316307068,0.026394836604595184,-0.005785598419606686,-0.024974821135401726,0.025668678805232048,-0.007554556708782911,0.02863701432943344,1.4004542827606201,-0.22238445281982422,0.04181686043739319,-0.42424505949020386,0.7785592079162598,0.42657601833343506,-0.07555439323186874,0.139501690864563,-0.17550820112228394,0.3539014458656311,0.6494117975234985,0.42000001668930054,-0.6333805918693542,2.9999921321868896,-0.7409127354621887,-3.000000476837158,-0.14092354476451874,-0.15074296295642853,-0.15831848978996277,-0.1653258353471756,-0.24436458945274353,-0.2436833381652832,-0.22888058423995972,-0.18921995162963867
0.35,-0.008277091197669506,0.17195063829421997,0.0,0.925860583782196,0.0,0.0,-0.3778652548789978,-0.8491582274436951,-0.41227006912231445,0.0,0.0,0.0,1.3815040588378906,-0.40929245948791504,0.7757121920585632,0.4207967519760132,0.9989029765129089,0.020279062911868095,-0.0008836627821438015,-0.042197346687316895,0.11452174186706543,0.24936498701572418,-0.013762680813670158,-0.7247471809387207,0.03499468415975571,-7.611060619354248,-0.42303726077079773,0.7827995419502258,0.423418790102005,0.16566601395606995,0.30809667706489563,-0.1794820874929428,0.3539014458656311,0.6494117975234985,0.42000001668930054,-0.583375096321106,2.9999852180480957,-0.7909431457519531,-3.000004291534424,-0.14715136587619781,-0.1561281979084015,-0.16272388398647308,-0.16841599345207214,-0.4146202802658081,-0.3375035226345062,-0.2571713328361511,-0.16039445996284485
0.36666666666666664,-0.01807745173573494,0.1627173125743866,0.0,0.9217455983161926,0.0,0.0,-0.3877951502799988,-0.5074994564056396,-0.6036192774772644,0.0,0.0,0.0,-2.1405904293060303,-0.4071187973022461,0.7798277735710144,0.42000144720077515,0.9959675669670105,1.161529235105263e-05,-4.11511973652523e-05,-0.0897132158279419,0.17573978006839752,0.2702590227127075,-0.0005455437931232154,-0.028507115319371223,0.02381870336830616,-5.221231460571289,-0.419361412525177,0.7857567667961121,0.42132577300071716,0.28380927443504333,0.1697101891040802,0.043809205293655396,0.3539014458656311,0.6494117975234985,0.42000001668930054,-0.5333565473556519,3.0000016689300537,-0.8409667015075684,-2.999967098236084,-0.15477469563484192,-0.1618804782629013,-0.16655988991260529,-0.17006520926952362,-0.48067334294319153,-0.33987560868263245,-0.19832783937454224,-0.04228612780570984
0.3833333333333333,-0.02972053736448288,0.15186630189418793,0.0,0.92361980676651,0.0,0.0,-0.38330984115600586,-0.7744114995002747,-0.6714679002761841,0.0,0.0,0.0,1.6861319541931152,-0.40025192499160767,0.7869160771369934,0.4207182228565216,0.9829654097557068,-0.017950668931007385,0.002746138023212552,-0.18289104104042053,0.642443835735321,0.5966355204582214,0.04659268260002136,-2.3012328147888184,0.612816333770752,-15.271722793579102,-0.4110897183418274,0.7929971218109131,0.42194870114326477,0.676314115524292,0.686897337436676,0.0474548265337944,0.3539014458656311,0.6494117975234985,0.42000001668930054,-0.4833330810070038,2.999957323074341,-0.8909833431243896,-2.999978542327881,-0.16563691198825836,-0.16955751180648804,-0.17107971012592316,-0.1712435483932495,-0.6495645046234131,-0.44946834444999695,-0.2513529062271118,-0.0426531583070755
0.4,-0.037818826735019684,0.1382732391357422,0.0,0.9200927019119263,0.0,0.0,-0.39170074462890625,-0.4232940971851349,-0.8553006052970886,0.0,0.0,0.0,-2.0056958198547363,-0.38945338129997253,0.7967920899391174,0.42089417576789856,0.9583399891853333,-0.022124458104372025,0.006228357553482056,-0.28470364212989807,1.0368417501449585,0.40318503975868225,0.2791298031806946,-13.042641639709473,6.9290337562561035,-7.004133701324463,-0.39711660146713257,0.8026710748672485,0.4237592816352844,0.9618475437164307,0.47169679403305054,0.12998034060001373,0.3539014458656311,0.6494117975234985,0.42000001668930054,-0.43326571583747864,2.9824295043945312,-0.940989077091217,-2.997288942337036,-0.17429068684577942,-0.1747043877840042,-0.172653928399086,-0.1689889132976532,-0.48471754789352417,-0.24709488451480865,-0.003762646112591028,0.2551250755786896
0.4166666666666667,-0.048548515886068344,0.12322582304477692,0.0,0.9040239453315735,0.0,0.0,-0.42748183012008667,-0.7267059683799744,-0.9247646927833557,0.0,0.0,0.0,-5.6444220542907715,-0.36657145619392395,0.8085351586341858,0.42380961775779724,0.9418878555297852,-0.046556539833545685,-0.012778196483850479,-0.33244022727012634,1.891148567199707,0.8426802754402161,0.4750131368637085,27.84389877319336,-19.128313064575195,1.2693020105361938,-0.3744450807571411,0.8144410848617554,0.4263770580291748,1.6661287546157837,0.8184137344360352,0.24709975719451904,0.3539014458656311,0.6494117975234985,0.42000001668930054,-0.39391210675239563,1.4053943157196045,-0.9910112619400024,-2.9999923706054688,-0.18408353626728058,-0.18044240772724152,-0.17427168786525726,-0.16627894341945648,-0.5778604745864868,-0.3483816683292389,-0.11759129166603088,0.12236637622117996
0.43333333333333335,-0.056353677064180374,0.10528386384248734,0.0,0.873342752456665,0.0,0.0,-0.4871061444282532,-0.423454225063324,-1.1190564632415771,0.0,0.0,0.0,-8.819236755371094,-0.32629910111427307,0.8256073594093323,0.42895272374153137,0.9138441681861877,-0.10337750613689423,-0.06557441502809525,-0.3871716856956482,3.523689031600952,1.3313214778900146,0.7608363628387451,-23.718271255493164,-18.576045989990234,-30.925010681152344,-0.33275675773620605,0.8324509859085083,0.4312290549278259,3.226119041442871,1.19415283203125,0.3910422921180725,0.3539014458656311,0.6494117975234985,0.42000001668930054,-0.37659531831741333,1.071317195892334,-1.0408351421356201,-2.9763801097869873,-0.1936672478914261,-0.18591901659965515,-0.17565640807151794,-0.163490891456604,-0.6323388814926147,-0.35938364267349243,-0.0913904681801796,0.17530730366706848
0.45,-0.06185195967555046,0.0928507000207901,0.0,0.82603520154953,0.0,0.0,-0.563618540763855,-0.2820081412792206,-0.6113002896308899,0.0,0.0,0.0,-11.512984275817871,-0.24717597663402557,0.8484629988670349,0.43567487597465515,0.8934388756752014,-0.05411529913544655,-0.10614149272441864,-0.43309637904167175,6.58757209777832,1.502052903175354,0.587356448173523,7.5051398277282715,-15.317173957824707,-38.07858657836914,-0.25359243154525757,0.8556733131408691,0.4378371238708496,5.785123825073242,1.5674374103546143,0.47293621301651,0.3539014458656311,0.6494117975234985,0.42000001668930054,-0.3597395122051239,0.9539839625358582,-1.0030943155288696,3.0000007152557373,-0.209350124001503,-0.1976391226053238,-0.18184596300125122,-0.16453446447849274,-0.874411940574646,-0.7685698866844177,-0.45814049243927,-0.18078197538852692
0.4666666666666667,-0.06506270915269852,0.08484435826539993,0.0,0.7872419953346252,0.0,0.0,-0.6166442036628723,-0.11752799898386002,-0.4885387420654297,0.0,0.0,0.0,-6.434376239776611,-0.15142498910427094,0.8708983659744263,0.44662168622016907,0.8602392673492432,-0.009466093964874744,-0.13725166022777557,-0.4909794330596924,6.4136457443237305,1.4062018394470215,1.1970781087875366,33.611358642578125,-12.682548522949219,-54.48685073852539,-0.15614652633666992,0.8803520202636719,0.44915276765823364,5.687082767486572,1.195356011390686,0.6607632637023926,0.3539014458656311,0.6494117975234985,0.42000001668930054,-0.34656915068626404,0.6839993596076965,-0.9774767160415649,0.3884238302707672,-0.2211552858352661,-0.20926670730113983,-0.18955209851264954,-0.1689012199640274,-0.4274035394191742,-0.48104363679885864,-0.35126546025276184,-0.2509389817714691
0.48333333333333334,-0.06981034576892853,0.07201502472162247,0.0,0.7689952254295349,0.0,0.0,-0.6392545104026794,-0.23931622505187988,-0.6699200868606567,0.0,0.0,0.0,-2.2155680656433105,-0.05575038865208626,0.8806472420692444,0.45991042256355286,0.8130384087562561,-0.009474089369177818,-0.11857308447360992,-0.5699290037155151,6.2196831703186035,-0.5296351909637451,1.2428936958312988,18.32670783996582,-14.818896293640137,-36.54386901855469,-0.05873745679855347,0.8910331726074219,0.4629831314086914,5.699710845947266,-0.19961977005004883,0.8283857107162476,0.3539014458656311,0.6494117975234985,0.42000001668930054,-0.3371306359767914,0.5380450487136841,-1.0192108154296875,-3.0000016689300537,-0.2276345193386078,-0.2152099460363388,-0.19271600246429443,-0.16980259120464325,-0.6861494183540344,-0.5379033088684082,-0.3011842668056488,-0.101342111825943
0.5,-0.07500430196523666,0.06348063796758652,0.0,0.7438297867774963,0.0,0.0,-0.6683691143989563,-0.3949110805988312,-0.4490659236907959,0.0,0.0,0.0,-5.243408679962158,0.03838418051600456,0.8662853837013245,0.4703778326511383,0.7593144774436951,-0.019578713923692703,-0.10754095017910004,-0.6414772272109985,5.719562530517578,-1.5366970300674438,0.9248146414756775,19.304258346557617,4.82832670211792,-25.822023391723633,0.0365954227745533,0.8785808682441711,0.47526177763938904,5.494978904724121,-1.2803908586502075,0.5125318169593811,0.3539014458656311,0.6494117975234985,0.42000001668930054,-0.3259550929069519,0.7446308732032776,-1.0692329406738281,-3.000002145767212,-0.2395768165588379,-0.2241777926683426,-0.19775111973285675,-0.17139939963817596,-0.546450674533844,-0.3885866701602936,-0.19559097290039062,-0.020492592826485634
0.5166666666666666,-0.078474260866642,0.051423605531454086,0.0,0.7310957908630371,0.0,0.0,-0.6822748184204102,-0.18418265879154205,-0.7137545943260193,0.0,0.0,0.0,-1.2222384214401245,0.12375595420598984,0.8401072025299072,0.4771102964878082,0.7002641558647156,-0.04228324070572853,-0.05502571910619736,-0.7105028629302979,5.177056312561035,-2.773615837097168,0.7232992649078369,9.497224807739258,-16.09201431274414,-44.15821075439453,0.12392617762088776,0.8516538143157959,0.4826161861419678,4.656075954437256,-2.000821113586426,0.23751628398895264,0.3539014458656311,0.6494117975234985,0.42000001668930054,-0.31622734665870667,0.4022318124771118,-1.1192550659179688,-3.0000007152557373,-0.23993951082229614,-0.2276560515165329,-0.19885140657424927,-0.17047667503356934,-0.01749945990741253,-0.17463913559913635,-0.06275361031293869,0.02295617386698723
0.5333333333333333,-0.07915515452623367,0.0438305027782917,0.0,0.709828794002533,0.0,0.0,-0.7043742537498474,0.030264312401413918,-0.43238189816474915,0.0,0.0,0.0,-4.461963653564453,0.196991428732872,0.8052751421928406,0.4762799143791199,0.6629208326339722,-0.07013826072216034,-0.020057646557688713,-0.7451269626617432,4.443819999694824,-2.9415574073791504,0.09011157602071762,0.3552177846431732,-13.092727661132812,-36.72473907470703,0.1993895322084427,0.8165532350540161,0.48302727937698364,4.052955627441406,-2.179980516433716,-0.2578788101673126,0.3539014458656311,0.6494117975234985,0.42000001668930054,-0.3101024925708771,0.30029797554016113,-1.1692771911621094,-3.000000476837158,-0.23917578160762787,-0.2302173525094986,-0.20057876408100128,-0.17171484231948853,0.15515846014022827,0.03011246956884861,1.3023628525843378e-05,-0.04386070743203163
0.55,-0.0766778439283371,0.03972524777054787,0.0,0.7027020454406738,0.0,0.0,-0.7114842534065247,0.17755812406539917,-0.17087674140930176,0.0,0.0,0.0,-0.22402681410312653,0.25803932547569275,0.7670267820358276,0.47011256217956543,0.6302023530006409,-0.09016464650630951,0.01495326030999422,-0.7710328102111816,3.389719247817993,-3.049480676651001,-0.22685138881206512,1.2732065916061401,-6.434605121612549,-30.33733367919922,0.2621535658836365,0.7769342064857483,0.47678548097610474,3.178982734680176,-2.416342258453369,-0.5250285267829895,0.3539014458656311,0.6494117975234985,0.42000001668930054,-0.304050087928772,0.4000324010848999,-1.21929931640625,-2.999964952468872,-0.23590682446956635,-0.22876673936843872,-0.20038315653800964,-0.17293603718280792,0.26604270935058594,0.1647997498512268,0.04363199323415756,-0.08438340574502945
0.5666666666666667,-0.07132065296173096,0.03156710043549538,0.0,0.6857840418815613,0.0,0.0,-0.7278050780296326,0.3235805332660675,-0.5296235084533691,0.0,0.0,0.0,-3.64821457862854,0.3076995313167572,0.7307306528091431,0.45627325773239136,0.6193135976791382,-0.11239177733659744,0.018245548009872437,-0.7768434882164001,2.7759222984313965,-2.6179285049438477,-0.6145046353340149,7.318058490753174,-9.395814895629883,-25.27898597717285,0.3127587139606476,0.7403008937835693,0.46375393867492676,2.509215831756592,-2.0558059215545654,-1.0185136795043945,0.3539014458656311,0.6494117975234985,0.42000001668930054,-0.2952606678009033,0.5672153234481812,-1.2197678089141846,2.4679746627807617,-0.2260201871395111,-0.22138921916484833,-0.19650667905807495,-0.17251090705394745,0.5878425240516663,0.4555540382862091,0.22408649325370789,-0.004636653698980808
0.5833333333333334,-0.06813691556453705,0.027762314304709435,0.0,0.681770384311676,0.0,0.0,-0.7315662503242493,0.13214421272277832,-0.17721189558506012,0.0,0.0,0.0,0.3357125222682953,0.34249308705329895,0.6946277022361755,0.43947651982307434,0.6217917799949646,-0.11738888174295425,0.05249236151576042,-0.7725537419319153,1.7167584896087646,-2.507067918777466,-0.7731226682662964,-9.819337844848633,-16.51904296875,-5.720879077911377,0.3485705852508545,0.7024227380752563,0.4460102915763855,1.7085646390914917,-2.2469351291656494,-1.2219685316085815,0.3539014458656311,0.6494117975234985,0.42000001668930054,-0.2847466766834259,0.6943990588188171,-1.2456032037734985,-3.0000054836273193,-0.21976307034492493,-0.21644417941570282,-0.1950775533914566,-0.17460830509662628,0.42898163199424744,0.33690568804740906,0.09282192587852478,-0.14691659808158875
0.6,-0.06396526843309402,0.02673722617328167,0.0,0.6688904762268066,0.0,0.0,-0.7433609366416931,0.2800937294960022,0.05109013244509697,0.0,0.0,0.0,-2.84968900680542,0.36512988805770874,0.6686025857925415,0.42442530393600464,0.6647056341171265,-0.07951530814170837,0.06918788701295853,-0.739632785320282,0.7950364351272583,-0.6913219094276428,-0.0759897381067276,-4.950760364532471,-8.106620788574219,5.4855637550354,0.3713753819465637,0.6739986538887024,0.42853713035583496,0.7715778350830078,-0.973597526550293,-0.11878667026758194,0.3539014458656311,0.6494117975234985,0.42000001668930054,-0.2680388391017914,1.3626675605773926,-1.2074896097183228,3.0002572536468506,-0.21084719896316528,-0.20994050800800323,-0.19358567893505096,-0.17782987654209137,0.6387147307395935,0.4553123712539673,0.11714084446430206,-0.18975985050201416
0.6166666666666667,-0.0572165921330452,0.022134147584438324,0.0,0.669084906578064,0.0,0.0,-0.7431859374046326,0.39011749625205994,-0.2761227786540985,0.0,0.0,0.0,0.9309473037719727,0.37295761704444885,0.6575444340705872,0.4245915114879608,0.7110818028450012,-0.08691113442182541,0.08724553138017654,-0.6922407150268555,0.24334834516048431,-0.7048882246017456,0.2832569479942322,10.247822761535645,-6.609147548675537,-4.445120334625244,0.3801153302192688,0.6619755625724792,0.4290096163749695,0.22055265307426453,-0.5365660190582275,0.07200733572244644,0.3539014458656311,0.6494117975234985,0.42000001668930054,-0.2570655345916748,-0.062435660511255264,-1.2284432649612427,-3.0005838871002197,-0.1968996524810791,-0.1992214173078537,-0.18878750503063202,-0.17839430272579193,0.7381583452224731,0.5822128653526306,0.2553364336490631,-0.04219905287027359
0.6333333333333333,-0.04885020852088928,0.0218209158629179,0.0,0.6587361097335815,0.0,0.0,-0.7523740530014038,0.5550758838653564,-0.01748265139758587,0.0,0.0,0.0,-2.472179889678955,0.37721869349479675,0.6512250304222107,0.42490094900131226,0.7314713001251221,-0.05214524641633034,0.09493187814950943,-0.6732149720191956,-0.13371208310127258,-0.9520858526229858,0.15904755890369415,25.786869049072266,-20.338428497314453,-4.738046169281006,0.3829845190048218,0.6578487157821655,0.4273799657821655,-0.04154226556420326,0.07522207498550415,-0.08362056314945221,0.3539014458656311,0.6494117975234985,0.42000001668930054,-0.26476529240608215,-1.556398868560791,-1.1904489994049072,2.997828960418701,-0.18568699061870575,-0.19069962203502655,-0.18569156527519226,-0.18018494546413422,0.7451266646385193,0.5679603815078735,0.2351679652929306,-0.061992377042770386
0.65,-0.042701687663793564,0.023674437776207924,0.0,0.6612058877944946,0.0,0.0,-0.7502045035362244,0.2921728193759918,0.16314633190631866,0.0,0.0,0.0,1.2689787149429321,0.3757297396659851,0.6509185433387756,0.4257809817790985,0.7273572087287903,-0.036329809576272964,0.047864776104688644,-0.6836230158805847,-0.060957666486501694,0.03720221295952797,0.10460180044174194,-5.784902572631836,-11.2435884475708,-3.903285503387451,0.3817089796066284,0.6569514274597168,0.4285920262336731,-0.17357797920703888,0.026260029524564743,0.13713327050209045,0.3539014458656311,0.6494117975234985,0.42000001668930054,-0.31255221366882324,-2.9999966621398926,-1.2117228507995605,-2.9989359378814697,-0.17449194192886353,-0.182035431265831,-0.18200717866420746,-0.180914044380188,0.6242380142211914,0.49368974566459656,0.22324948012828827,-0.016630809754133224
0.6666666666666666,-0.03642824664711952,0.02194046974182129,0.0,0.658769965171814,0.0,0.0,-0.7523443698883057,0.39711031317710876,-0.08937987685203552,0.0,0.0,0.0,-1.165922999382019,0.3748992383480072,0.6524975299835205,0.4256442189216614,0.7286603450775146,-0.04299305006861687,-0.02361789345741272,-0.6831161975860596,-0.20739565789699554,0.3011031746864319,-0.06604771316051483,-3.021439552307129,0.7053484916687012,5.185400485992432,0.3797558546066284,0.6620352268218994,0.43082135915756226,-0.12221933901309967,0.3690454363822937,0.12727126479148865,0.3539014458656311,0.6494117975234985,0.42000001668930054,-0.34477749466896057,-1.0371876955032349,-1.2616887092590332,-2.9985291957855225,-0.16151341795921326,-0.17152100801467896,-0.17609579861164093,-0.17910395562648773,0.5869891047477722,0.48823657631874084,0.2677132487297058,0.06995139271020889
0.6833333333333333,-0.02842905931174755,0.018104711547493935,0.0,0.6682326197624207,0.0,0.0,-0.7439523935317993,0.5178471207618713,-0.30342015624046326,0.0,0.0,0.0,2.3319051265716553,0.37151816487312317,0.6573981642723083,0.42285624146461487,0.754601776599884,-0.050945620983839035,-0.04433101415634155,-0.6526986360549927,-0.18252544105052948,0.26415860652923584,-0.1379537135362625,0.8614690899848938,-7.0553812980651855,4.4807891845703125,0.3757471740245819,0.6659536361694336,0.4332146942615509,-0.30236124992370605,0.21267950534820557,0.16907255351543427,0.3539014458656311,0.6494117975234985,0.42000001668930054,-0.3895794451236725,-2.999988317489624,-1.3116663694381714,-2.999293804168701,-0.15457552671432495,-0.16524727642536163,-0.1723783314228058,-0.17769268155097961,0.34503549337387085,0.3377418518066406,0.22555458545684814,0.12257515639066696
0.7,-0.017752138897776604,0.01837688498198986,0.0,0.6660608649253845,0.0,0.0,-0.7458974123001099,0.6405293941497803,-0.0078100403770804405,0.0,0.0,0.0,-1.297986626625061,0.3691061735153198,0.6606724262237549,0.42112845182418823,0.7758088707923889,-0.017607085406780243,-0.022252511233091354,-0.6303296089172363,-0.1328149437904358,0.18083859980106354,-0.10537391155958176,5.836578369140625,1.0412821769714355,3.558091402053833,0.37362217903137207,0.6697055101394653,0.43683183193206787,-0.020425312221050262,0.26861071586608887,0.27028292417526245,0.3539014458656311,0.6494117975234985,0.42000001668930054,-0.4396001696586609,-2.9991390705108643,-1.3616325855255127,-2.999887466430664,-0.15224973857402802,-0.16232174634933472,-0.17032486200332642,-0.17634129524230957,0.28498899936676025,0.2998369038105011,0.24509944021701813,0.2063339501619339
0.7166666666666667,-0.005502133164554834,0.013487210497260094,0.0,0.6423522233963013,0.0,0.0,-0.7664095759391785,0.7437771558761597,-0.32860592007637024,0.0,0.0,0.0,-4.757778644561768,0.3676435053348541,0.6626073718070984,0.4200001060962677,0.7884436249732971,9.987196847305313e-08,-3.5223968097852776e-06,-0.6151070594787598,-0.05633920431137085,0.07327640801668167,-0.0001740290317684412,0.00944700837135315,0.003596650902181864,1.4248912334442139,0.37556588649749756,0.6746423244476318,0.44553273916244507,0.17508238554000854,0.21745216846466064,0.8935513496398926,0.3539014458656311,0.6494117975234985,0.42000001668930054,-0.48961353302001953,-2.9999773502349854,-1.4116508960723877,-3.0,-0.14727821946144104,-0.15679790079593658,-0.1651589274406433,-0.1712472289800644,0.10549534857273102,0.1996387541294098,0.24901223182678223,0.3117029666900635
0.7333333333333333,0.009187448769807816,0.01233015675097704,0.0,0.6309657692909241,0.0,0.0,-0.7758106589317322,0.8971939086914062,-0.03960011154413223,0.0,0.0,0.0,-0.6707816123962402,0.36730682849884033,0.6630563735961914,0.4200000464916229,0.7904742360115051,-3.8738093621759617e-07,-3.393694782971579e-07,-0.6124953031539917,-0.006812663748860359,0.00955037772655487,-1.4134508091956377e-05,0.0005418554646894336,-4.324453038861975e-05,0.10941418260335922,0.38064128160476685,0.6803045272827148,0.4679233133792877,0.5191159844398499,0.5149951577186584,1.7828034162521362,0.3539014458656311,0.6494117975234985,0.42000001668930054,-0.5396190285682678,-2.9999992847442627,-1.4616692066192627,-3.0,-0.14902076125144958,-0.15696987509727478,-0.1643628627061844,-0.1693214327096939,-0.054695505648851395,-0.0036498706322163343,0.0214784424751997,0.05685444176197052
0.75,0.02079230546951294,0.013476366177201271,0.0,0.6442467570304871,0.0,0.0,-0.7648177146911621,0.6245143413543701,0.1273997724056244,0.0,0.0,0.0,2.930483341217041,0.36730656027793884,0.6630565524101257,0.42000001668930054,0.790473997592926,1.40537110837613e-06,-3.728285719262203e-06,-0.612495481967926,0.0002968107000924647,-0.00027366657741367817,-7.91400671005249e-05,0.003959761466830969,0.005250432062894106,0.0006999001489020884,0.39223024249076843,0.6881084442138672,0.4911937117576599,0.8078059554100037,0.453843891620636,1.1052141189575195,0.3539014458656311,0.6494117975234985,0.42000001668930054,-0.5606908202171326,0.20849020779132843,-1.5116875171661377,-3.0,-0.14942489564418793,-0.15633182227611542,-0.1629554033279419,-0.16699202358722687,0.0026781775522977114,0.07609156519174576,0.13960199058055878,0.20962998270988464
0.7666666666666666,0.027850810438394547,0.011408093385398388,0.0,0.6447266936302185,0.0,0.0,-0.7644131183624268,0.3262939453125,-0.1584547609090805,0.0,0.0,0.0,-0.8975380063056946,0.36730656027793884,0.6630565524101257,0.42000001668930054,0.790473997592926,1.2583226407514303e-06,-4.058301328768721e-06,-0.6124955415725708,0.00025720903067849576,-0.0002117771509801969,-7.584807462990284e-05,0.003108070697635412,0.003919925540685654,0.0005495789810083807,0.40204668045043945,0.6933839321136475,0.5035654306411743,0.3370189666748047,0.15502166748046875,0.5469819903373718,0.3539014458656311,0.6494117975234985,0.42000001668930054,-0.5835404396057129,-2.682063102722168,-1.4729270935058594,2.999999761581421,-0.14931336045265198,-0.15475493669509888,-0.16007456183433533,-0.16283567249774933,-0.09705756604671478,0.021500442177057266,0.12905915081501007,0.22583088278770447
0.7833333333333333,0.03601879999041557,0.014279672876000404,0.0,0.6564189195632935,0.0,0.0,-0.7543965578079224,0.4698774218559265,0.21752339601516724,0.0,0.0,0.0,2.737210273742676,0.36730656027793884,0.6630566120147705,0.42000001668930054,0.7904741168022156,1.0182192227148334e-06,-3.7174872886680532e-06,-0.6124954223632812,0.0002546269097365439,-0.0002074142248602584,-7.50578474253416e-05,0.0030492825899273157,0.00387186068110168,0.000539237167686224,0.4073723256587982,0.6953881978988647,0.5146129727363586,0.3758465051651001,0.22763371467590332,0.7985238432884216,0.3539014458656311,0.6494117975234985,0.42000001668930054,-0.6059792041778564,-0.20662324130535126,-1.4896540641784668,-3.000000476837158,-0.15492697060108185,-0.15779374539852142,-0.16068267822265625,-0.16126854717731476,-0.22802117466926575,-0.10528257489204407,0.015534093603491783,0.12370724231004715
0.8,0.04067840799689293,0.012454207055270672,0.0,0.6558375954627991,0.0,0.0,-0.7549020051956177,0.23051774501800537,-0.1645912230014801,0.0,0.0,0.0,-1.069206714630127,0.36730656027793884,0.6630566120147705,0.42000001668930054,0.7904741764068604,9.881445066639571e-07,-3.7019221963419113e-06,-0.6124952435493469,0.0002543021983001381,-0.00020672270329669118,-7.48585443943739e-05,0.0030526481568813324,0.0038623549044132233,0.0005369852297008038,0.4143029451370239,0.6966296434402466,0.5224571228027344,0.3665353059768677,-0.16116341948509216,0.31829923391342163,0.3539014458656311,0.6494117975234985,0.42000001668930054,-0.6321971416473389,-2.702540397644043,-1.4509570598602295,2.9999992847442627,-0.15637323260307312,-0.157359316945076,-0.1583145260810852,-0.15715652704238892,-0.17178180813789368,-0.02747197635471821,0.12038799375295639,0.253290057182312
0.8166666666666667,0.04642298445105553,0.013633602298796177,0.0,0.6459261178970337,0.0,0.0,-0.7633998990058899,0.3579822778701782,0.10395582765340805,0.0,0.0,0.0,-1.7719303369522095,0.36730656027793884,0.6630566120147705,0.42000001668930054,0.7904740571975708,1.067130824594642e-06,-3.923975782527123e-06,-0.6124953627586365,0.0002586744085419923,-0.00021403013670351356,-7.595866918563843e-05,0.003160960739478469,0.003948359750211239,0.0005534756928682327,0.4226886034011841,0.6956101655960083,0.5304992198944092,0.6893247365951538,0.0517682246863842,0.713151752948761,0.3539014458656311,0.6494117975234985,0.42000001668930054,-0.6483588814735413,0.5004261136054993,-1.4681379795074463,-2.9999992847442627,-0.16072313487529755,-0.1595257669687271,-0.1581573784351349,-0.1548830270767212,-0.13961124420166016,-0.05354680120944977,0.047406695783138275,0.1416105479001999
0.8333333333333334,0.04928852245211601,0.01136652659624815,0.0,0.6516315340995789,0.0,0.0,-0.7585356831550598,0.09738964587450027,-0.19743961095809937,0.0,0.0,0.0,1.6473053693771362,0.36730656027793884,0.6630565524101257,0.42000001668930054,0.7904741764068604,1.0428335599499405e-06,-3.965477390011074e-06,-0.6124952435493469,0.0002608681097626686,-0.00021837081294506788,-7.649092003703117e-05,0.003214392112568021,0.004000759217888117,0.0005634361295960844,0.43308117985725403,0.6952798366546631,0.545027494430542,0.5812686681747437,-0.050446417182683945,1.0501940250396729,0.3539014458656311,0.6494117975234985,0.42000001668930054,-0.6449481248855591,-0.04749307408928871,-1.4331480264663696,2.999999761581421,-0.16241401433944702,-0.159719318151474,-0.15663300454616547,-0.1517985463142395,-0.11708244681358337,-0.027062419801950455,0.07485787570476532,0.16535921394824982
0.85,0.048850566148757935,0.006118257064372301,0.0,0.6760267615318298,0.0,0.0,-0.7368770837783813,-0.07484543323516846,-0.4348297715187073,0.0,0.0,0.0,4.7311811447143555,0.36730656027793884,0.6630566120147705,0.42000001668930054,0.790473997592926,1.116525822908443e-06,-3.8738194234611e-06,-0.612495481967926,0.0002552822697907686,-0.00020824564853683114,-7.528369314968586e-05,0.00306316209025681,0.003880447940900922,0.0005410893354564905,0.43898868560791016,0.6908872127532959,0.5612719655036926,0.17867401242256165,-0.352995365858078,0.9589288830757141,0.3539014458656311,0.6494117975234985,0.42000001668930054,-0.6385610699653625,0.7392866015434265,-1.4506185054779053,-2.9999990463256836,-0.16533243656158447,-0.1605696827173233,-0.15524937212467194,-0.1484176069498062,-0.12130165845155716,0.0054224515333771706,0.1419195532798767,0.2642958462238312
0.8666666666666667,0.0512586310505867,0.005569246597588062,0.0,0.6871960163116455,0.0,0.0,-0.726472020149231,0.21561476588249207,0.10801517218351364,0.0,0.0,0.0,0.795653760433197,0.36730656027793884,0.6630565524101257,0.42000001668930054,0.790473997592926,1.1860694257848081e-06,-3.929025297111366e-06,-0.612495481967926,0.00025637191720306873,-0.00021017268591094762,-7.535889744758606e-05,0.0031071959529072046,0.0039019384421408176,0.0005447343573905528,0.4387893080711365,0.6853272914886475,0.5728132724761963,-0.1570441722869873,-0.3211987316608429,0.5257726907730103,0.3539014458656311,0.6494117975234985,0.42000001668930054,-0.6205607652664185,1.3516578674316406,-1.4120374917984009,3.0,-0.1720530390739441,-0.16479139029979706,-0.15687650442123413,-0.14774595201015472,-0.39880186319351196,-0.26646068692207336,-0.12927959859371185,-0.00936208013445139
0.8833333333333333,0.05008525773882866,0.0013396719004958868,0.0,0.7073392271995544,0.0,0.0,-0.7068742513656616,-0.04896366596221924,-0.2472015619277954,0.0,0.0,0.0,4.0532684326171875,0.36730656027793884,0.6630566120147705,0.42000001668930054,0.7904741168022156,1.1934708936678362e-06,-3.89207161788363e-06,-0.6124953031539917,0.0002544796734582633,-0.00020782090723514557,-7.502268999814987e-05,0.0030440324917435646,0.0038775026332587004,0.0005405003321357071,0.43229761719703674,0.6824872493743896,0.5832656025886536,-0.650009036064148,-0.24465134739875793,0.701134204864502,0.3539014458656311,0.6494117975234985,0.42000001668930054,-0.6013152003288269,0.979747474193573,-1.4299113750457764,-3.0000011920928955,-0.17131538689136505,-0.1630392074584961,-0.1540098637342453,-0.14398637413978577,-0.06128493323922157,0.007248958572745323,0.07749667763710022,0.13131560385227203
0.9,0.0511220321059227,-0.0016720412531867623,0.0,0.713069498538971,0.0,0.0,-0.701093316078186,0.08924569934606552,-0.16225303709506989,0.0,0.0,0.0,-0.0769677460193634,0.36730656027793884,0.6630566120147705,0.42000001668930054,0.7904741168022156,1.0785453241624054e-06,-3.803713070738013e-06,-0.6124953031539917,0.0002587101189419627,-0.00021517804998438805,-7.597217336297035e-05,0.003158512758091092,0.00396341597661376,0.0005566159961745143,0.4238377809524536,0.6810190677642822,0.5889610052108765,-0.4015680253505707,-0.057594310492277145,0.14835670590400696,0.3539014458656311,0.6494117975234985,0.42000001668930054,-0.5881067514419556,0.6249940395355225,-1.3913853168487549,3.0000007152557373,-0.17083224654197693,-0.1621163934469223,-0.15249286592006683,-0.14199773967266083,0.18259401619434357,0.1731623411178589,0.17778755724430084,0.18178246915340424
0.9166666666666666,0.054499004036188126,-0.0071331653743982315,0.0,0.7236734628677368,0.0,0.0,-0.6901425123214722,0.2603268027305603,-0.4121406674385071,0.0,0.0,0.0,3.041050434112549,0.36730653047561646,0.6630566120147705,0.42000001668930054,0.7904740571975708,9.621647905078134e-07,-3.7518484532483853e-06,-0.6124953627586365,0.00025925354566425085,-0.00021478571579791605,-7.611094042658806e-05,0.0031748388428241014,0.003957121632993221,0.0005550511414185166,0.41837799549102783,0.6783685088157654,0.5951418876647949,-0.24117842316627502,-0.2380942702293396,0.6456632018089294,0.3539014458656311,0.6494117975234985,0.42000001668930054,-0.5906249284744263,-0.8014546632766724,-1.3413784503936768,3.000000238418579,-0.16807003319263458,-0.15948522090911865,-0.14978882670402527,-0.13923616707324982,0.18503637611865997,0.1728513389825821,0.1708221137523651,0.167632594704628
