vladlanda/robotic-transformer/data/env_000_episode_0289.csv
sim_time_s,robot_box_x,robot_box_y,robot_box_z,robot_box_quat_w,robot_box_quat_x,robot_box_quat_y,robot_box_quat_z,robot_box_linvel_x,robot_box_linvel_y,robot_box_linvel_z,robot_box_angvel_x,robot_box_angvel_y,robot_box_angvel_z,cube_world_x,cube_world_y,cube_world_z,cube_quat_w,cube_quat_x,cube_quat_y,cube_quat_z,cube_linvel_x,cube_linvel_y,cube_linvel_z,cube_angvel_x,cube_angvel_y,cube_angvel_z,endpoint_world_x,endpoint_world_y,endpoint_world_z,endpoint_linvel_x,endpoint_linvel_y,endpoint_linvel_z,target_cube_world_x,target_cube_world_y,target_cube_world_z,gripper_actual_pos_rad_gp_leftgearjoint,gripper_actual_vel_rad_s_gp_leftgearjoint,gripper_actual_pos_rad_gp_rotatingjoint,gripper_actual_vel_rad_s_gp_rotatingjoint,motor_angle_rad_joint1,motor_angle_rad_joint2,motor_angle_rad_joint3,motor_angle_rad_joint4,motor_speed_rad_s_joint1,motor_speed_rad_s_joint2,motor_speed_rad_s_joint3,motor_speed_rad_s_joint4
0.0,0.0,0.0,0.0,1.0,0.0,0.0,0.0,0.0,0.0,0.0,0.0,0.0,0.0,-0.3744564950466156,0.6248401999473572,0.41999998688697815,1.0,0.0,0.0,0.0,0.0,0.0,0.0,0.0,0.0,0.0,3.42540442943573e-06,-0.005000244826078415,1.313499927520752,0.0,0.0,0.0,0.3584962487220764,0.7671367526054382,0.42000001668930054,-1.5707999467849731,0.0,0.0,0.0,0.0,0.0,0.0,0.0,0.0,0.0,0.0,0.0
0.016666666666666666,0.0028784056194126606,0.0021800966933369637,0.0,0.9998093843460083,0.0,0.0,0.019523613154888153,0.24088764190673828,0.18238714337348938,0.0,0.0,0.0,3.1418569087982178,-0.37445661425590515,0.6248399019241333,0.41999998688697815,1.0,3.279964630564791e-06,-8.339746386809566e-07,8.465587342243452e-08,-1.9833529222523794e-05,0.00017983045836444944,-6.132945418357849e-05,0.0009432713268324733,-0.004689474124461412,-0.00031981561915017664,-0.007110139355063438,0.0033815172500908375,1.3159375190734863,-0.81428062915802,0.9869298338890076,0.1809539645910263,0.3584962487220764,0.7671367526054382,0.42000001668930054,-1.5301095247268677,3.000002384185791,-0.0458480529487133,-2.9999992847442627,0.0008698335732333362,0.0007963925017975271,0.0007110437727533281,0.0006108932429924607,0.11093194782733917,0.09757339209318161,0.08334872126579285,0.0682438537478447
0.03333333333333333,0.008961567655205727,0.006800907664000988,0.0,0.9997972846031189,0.0,0.0,0.02013394609093666,0.40702584385871887,0.315284788608551,0.0,0.0,0.0,-0.8691146969795227,-0.3744567334651947,0.6248398423194885,0.4200000464916229,1.0,3.3908179375430336e-06,-2.132458348569344e-06,-3.7097745320124886e-08,0.00026357852038927376,0.00026937833172269166,-0.00010509369894862175,-0.0017707126680761576,0.004130884539335966,-0.0001354814594378695,-0.027541104704141617,0.02586888149380684,1.3166477680206299,-1.591124415397644,1.6076536178588867,-0.0789286345243454,0.3584962487220764,0.7671367526054382,0.42000001668930054,-1.4800902605056763,3.000000476837158,-0.09588789194822311,-3.0000009536743164,0.0029905394185334444,0.0026527796871960163,0.0022773901000618935,0.0018608809914439917,0.1642109453678131,0.13977177441120148,0.11383277922868729,0.08631701022386551
0.05,0.0182748232036829,0.013728816993534565,0.0,0.9999999403953552,0.0,0.0,0.00028404503245837986,0.6313157081604004,0.4630415439605713,0.0,0.0,0.0,-3.2203526496887207,-0.3744567632675171,0.6248399019241333,0.4200000464916229,1.0,3.7651902857760433e-06,-2.2119197637948673e-06,5.609367637049445e-09,0.00026530938339419663,0.00026691678795032203,-0.00010440615005791187,-0.0017243892652913928,0.004177466034889221,-0.00012949809024576098,-0.057690832763910294,0.05571652203798294,1.3121312856674194,-1.9817821979522705,1.9516186714172363,-0.43401169776916504,0.3584962487220764,0.7671367526054382,0.42000001668930054,-1.4300719499588013,3.000001907348633,-0.1459265947341919,-3.0000007152557373,0.005933496635407209,0.005103555042296648,0.0042014168575406075,0.0032226245384663343,0.2060062289237976,0.16597041487693787,0.1240156963467598,0.08007100969552994
0.06666666666666667,0.030183788388967514,0.023096904158592224,0.0,0.9999980330467224,0.0,0.0,-0.001977514009922743,0.7512499690055847,0.6082901954650879,0.0,0.0,0.0,0.6977282166481018,-0.3744567632675171,0.6248398423194885,0.4200000464916229,0.9999999403953552,3.406832092878176e-06,-2.28558906201215e-06,4.300801492718165e-07,0.0002670248504728079,0.0002679176686797291,-0.0001043803058564663,-0.00174071139190346,0.00421183044090867,-0.00012850876373704523,-0.09616748243570328,0.08659319579601288,1.3013277053833008,-2.474597930908203,1.9438860416412354,-0.8419185876846313,0.3584962487220764,0.7671367526054382,0.42000001668930054,-1.3800469636917114,3.0000014305114746,-0.1623097062110901,0.7208572626113892,0.008606115356087685,0.007096671499311924,0.005475210957229137,0.003736387472599745,0.1541590690612793,0.10601135343313217,0.055759213864803314,0.003327641636133194
0.08333333333333333,0.044380493462085724,0.030494043603539467,0.0,0.9998192191123962,0.0,0.0,-0.019014930352568626,0.9164037704467773,0.3809336721897125,0.0,0.0,0.0,-2.8439085483551025,-0.3744567632675171,0.6248398423194885,0.4200000464916229,0.9999999403953552,3.626166289905086e-06,-2.3353043161478126e-06,3.032100153177453e-07,0.00026614085072651505,0.0002668516826815903,-0.00010405341163277626,-0.001728349830955267,0.004196455702185631,-0.0001279077841900289,-0.13381169736385345,0.12432679533958435,1.2852892875671387,-2.0915870666503906,2.512519359588623,-1.0527377128601074,0.3584962487220764,0.7671367526054382,0.42000001668930054,-1.3300354480743408,3.000002145767212,-0.2053827941417694,-3.0000007152557373,0.009770270437002182,0.007226984482258558,0.0045289406552910805,0.0016709911869838834,0.02839036099612713,-0.04962127283215523,-0.12978626787662506,-0.21207143366336823
0.1,0.0527881383895874,0.04002707824110985,0.0,0.9978533983230591,0.0,0.0,-0.06548687070608139,0.36735183000564575,0.649056613445282,0.0,0.0,0.0,-6.58310079574585,-0.3744567632675171,0.6248398423194885,0.4200000464916229,1.0,3.4222334761579987e-06,-2.3086047349352157e-06,1.796183539681806e-07,0.0002668157103471458,0.00026800340856425464,-0.00010440708138048649,-0.0017429988365620375,0.004207124002277851,-0.00012891183723695576,-0.1699604094028473,0.16936519742012024,1.2618745565414429,-2.216439962387085,2.841277599334717,-1.6627671718597412,0.3584962487220764,0.7671367526054382,0.42000001668930054,-1.280013084411621,2.9999942779541016,-0.17156986892223358,3.0,0.00393278431147337,0.0006717100040987134,-0.002794630127027631,-0.006475075148046017,-0.46091777086257935,-0.49699291586875916,-0.5354599952697754,-0.5766205191612244
0.11666666666666667,0.06366760283708572,0.051791779696941376,0.0,0.9956570267677307,0.0,0.0,-0.09309734404087067,0.8175291419029236,0.6767563223838806,0.0,0.0,0.0,-2.2232871055603027,-0.3744567632675171,0.6248399019241333,0.4200000464916229,1.0,3.711570343511994e-06,-2.332746134925401e-06,2.5742929210537113e-07,0.0002648576919455081,0.0002663539198692888,-0.00010423408821225166,-0.0017182708252221346,0.004170178435742855,-0.0001291575754294172,-0.21165511012077332,0.21021518111228943,1.23269784450531,-2.4984047412872314,2.4969143867492676,-1.84450101852417,0.3584962487220764,0.7671367526054382,0.42000001668930054,-1.2300142049789429,2.9999992847442627,-0.20318841934204102,-3.0,-0.0013103841338306665,-0.0056006102822721004,-0.010103204287588596,-0.014829053543508053,-0.164270281791687,-0.2512216866016388,-0.33659759163856506,-0.4203847348690033
0.13333333333333333,0.07394099235534668,0.060232724994421005,0.0,0.9911629557609558,0.0,0.0,-0.13264980912208557,0.6646782755851746,0.4969308078289032,0.0,0.0,0.0,-5.36928129196167,-0.3744567632675171,0.6248398423194885,0.4200000464916229,1.0,3.335774863444385e-06,-2.2319691197481006e-06,3.1131583000387764e-07,0.0002666965883690864,0.0002675943251233548,-0.00010428344830870628,-0.0017370636342093349,0.004205815959721804,-0.0001284035388380289,-0.24988412857055664,0.2574704885482788,1.1995131969451904,-2.043687582015991,3.235802173614502,-2.0831658840179443,0.3584962487220764,0.7671367526054382,0.42000001668930054,-1.1799920797348022,2.9999961853027344,-0.16937683522701263,3.000000476837158,-0.006199990399181843,-0.012002430856227875,-0.017977360635995865,-0.024136271327733994,-0.1983523964881897,-0.3139956295490265,-0.42526310682296753,-0.5320246815681458
0.15,0.08261910825967789,0.0659702718257904,0.0,0.9878252744674683,0.0,0.0,-0.15556751191616058,0.4588002562522888,0.27642762660980225,0.0,0.0,0.0,-1.3518211841583252,-0.3744567632675171,0.6248398423194885,0.4200000464916229,1.0,3.51896619577019e-06,-2.2831691239844076e-06,-3.625396516326873e-07,0.00026618328411132097,0.00026735622668638825,-0.00010425481013953686,-0.0017348447581753135,0.004195693414658308,-0.0001286104234168306,-0.28664839267730713,0.3088024854660034,1.1594358682632446,-2.1259496212005615,3.20137619972229,-2.7362027168273926,0.3584962487220764,0.7671367526054382,0.42000001668930054,-1.129999041557312,3.0000014305114746,-0.20101365447044373,-2.999999761581421,-0.010608584620058537,-0.018044324591755867,-0.0255717895925045,-0.03320293501019478,-0.3229835629463196,-0.40211021900177,-0.47656914591789246,-0.5464909672737122
0.16666666666666666,0.08701381087303162,0.07262031733989716,0.0,0.9826841950416565,0.0,0.0,-0.18528838455677032,0.18617047369480133,0.4596424698829651,0.0,0.0,0.0,-4.385776519775391,-0.3744567632675171,0.6248398423194885,0.4200000464916229,1.0,3.6666901905846316e-06,-2.339151933483663e-06,-3.150083500713663e-07,0.00026595874805934727,0.0002666740329004824,-0.00010403385385870934,-0.001725255511701107,0.004192718770354986,-0.0001277866685995832,-0.3215610980987549,0.36559921503067017,1.106363296508789,-1.9437282085418701,3.558530807495117,-3.5789308547973633,0.3584962487220764,0.7671367526054382,0.42000001668930054,-1.0799912214279175,3.0,-0.16721311211585999,3.0,-0.018234500661492348,-0.026683902367949486,-0.0351409949362278,-0.04362180829048157,-0.5447270274162292,-0.5858979225158691,-0.6224159598350525,-0.6546018719673157
0.18333333333333332,0.09528206288814545,0.07753071188926697,0.0,0.9702206254005432,0.0,0.0,-0.24222294986248016,0.5182310342788696,0.21232640743255615,0.0,0.0,0.0,-7.538189888000488,-0.3744567632675171,0.6248398423194885,0.4200000464916229,1.0,3.814420779235661e-06,-2.399499635430402e-06,-2.7027235205423494e-07,0.00026548944879323244,0.0002661115431692451,-0.00010391324758529663,-0.0017178029520437121,0.004184751771390438,-0.00012753890769090503,-0.3494911193847656,0.43104177713394165,1.0390822887420654,-1.3234803676605225,4.141692161560059,-4.426969051361084,0.3584962487220764,0.7671367526054382,0.42000001668930054,-1.0299843549728394,3.0,-0.19890055060386658,-2.9999992847442627,-0.027196640148758888,-0.03614206612110138,-0.045032475143671036,-0.0538904145359993,-0.7487448453903198,-0.7410274147987366,-0.731703519821167,-0.7212297916412354
0.2,0.09831279516220093,0.08458277583122253,0.0,0.9607261419296265,0.0,0.0,-0.27749836444854736,0.16881084442138672,0.4450778067111969,0.0,0.0,0.0,-3.0756330490112305,-0.3744567632675171,0.6248398423194885,0.4200000464916229,1.0,3.600188847485697e-06,-2.291208829774405e-06,-2.2020329026872787e-07,0.00026573031209409237,0.0002664495841600001,-0.00010398100130259991,-0.0017226987984031439,0.004188769496977329,-0.00012773128401022404,-0.3725946545600891,0.4894142746925354,0.9571666121482849,-1.076967716217041,3.3987441062927246,-5.234237194061279,0.3584962487220764,0.7671367526054382,0.42000001668930054,-0.9799744486808777,2.9999992847442627,-0.2489297091960907,-3.0,-0.04314245283603668,-0.05214512348175049,-0.061043672263622284,-0.06986157596111298,-0.8507541418075562,-0.8682177662849426,-0.8826640248298645,-0.8939773440361023
0.21666666666666667,0.09932132065296173,0.09136956930160522,0.0,0.9468727111816406,0.0,0.0,-0.3216085433959961,0.010269730351865292,0.37468695640563965,0.0,0.0,0.0,-6.435833930969238,-0.3744567632675171,0.6248398423194885,0.4200000464916229,0.9999999403953552,3.6397420899447752e-06,-2.2619685751124052e-06,2.2246368303058262e-07,0.00026687313220463693,0.00026754301507025957,-0.00010411837138235569,-0.0017404037062078714,0.004211082123219967,-0.00012783679994754493,-0.3882843852043152,0.5434885025024414,0.8630409240722656,-0.5598331689834595,3.084747314453125,-5.943567276000977,0.3584962487220764,0.7671367526054382,0.42000001668930054,-0.9299637675285339,2.999995708465576,-0.2989608943462372,-2.9999985694885254,-0.05926083028316498,-0.06827902048826218,-0.07717300206422806,-0.0859290286898613,-0.9887948632240295,-0.9910081028938293,-0.9921620488166809,-0.9840940833091736
0.23333333333333334,0.10469073057174683,0.09541208297014236,0.0,0.9370981454849243,0.0,0.0,-0.34906598925590515,0.2847772240638733,0.14281001687049866,0.0,0.0,0.0,-2.341318130493164,-0.3744567334651947,0.6248398423194885,0.4200000464916229,1.0,3.4208560464321636e-06,-2.3167735889728647e-06,2.955749494049087e-07,0.00026680153678171337,0.000268039497314021,-0.0001044231466948986,-0.001743743778206408,0.004206785000860691,-0.00012899443390779197,-0.39926064014434814,0.5853874683380127,0.7627209424972534,-0.38719427585601807,2.03713321685791,-6.162551403045654,0.3584962487220764,0.7671367526054382,0.42000001668930054,-0.8799530863761902,2.9999983310699463,-0.3489935100078583,-3.000001907348633,-0.07435906678438187,-0.08332318067550659,-0.09209893643856049,-0.10031518340110779,-1.0000026226043701,-1.0000007152557373,-1.000000238418579,-0.9464886784553528
0.25,0.10554855316877365,0.1012575775384903,0.0,0.9385460615158081,0.0,0.0,-0.3451539874076843,0.009845388121902943,0.38386794924736023,0.0,0.0,0.0,1.3859760761260986,-0.3744567632675171,0.6248398423194885,0.4200000464916229,0.9999999403953552,3.3476892440376105e-06,-2.2591661945625674e-06,1.8082083386161685e-07,0.00026687668287195265,0.0002679106837604195,-0.00010439427569508553,-0.0017404770478606224,0.004208184313029051,-0.00012870125647168607,-0.4076574742794037,0.6065464019775391,0.6617238521575928,-0.4167262315750122,0.7737622261047363,-6.010683536529541,0.3584962487220764,0.7671367526054382,0.42000001668930054,-0.8299433588981628,2.9999825954437256,-0.39902564883232117,-2.9999992847442627,-0.0908011719584465,-0.09974495321512222,-0.1085219755768776,-0.11675205081701279,-0.9933608770370483,-0.9947929978370667,-0.9959269762039185,-0.9968562126159668
0.26666666666666666,0.10352296382188797,0.10443908721208572,0.0,0.9348975419998169,0.0,0.0,-0.3549177944660187,-0.18126575648784637,0.14044247567653656,0.0,0.0,0.0,-2.08437180519104,-0.3744567632675171,0.6248398423194885,0.4200000464916229,0.9999999403953552,3.5357459182705497e-06,-2.3003199203230906e-06,-1.268702192191995e-07,0.0002660168393049389,0.00026712208637036383,-0.00010419590398669243,-0.0017316138837486506,0.004192820750176907,-0.00012849303311668336,-0.4075238108634949,0.6158790588378906,0.5596752166748047,0.4065858721733093,0.18757206201553345,-5.99003791809082,0.3584962487220764,0.7671367526054382,0.42000001668930054,-0.7799345850944519,3.000002145767212,-0.4490566849708557,-3.0000009536743164,-0.1082497388124466,-0.11698736995458603,-0.12560909986495972,-0.13371790945529938,-1.0029584169387817,-1.002229928970337,-1.0016732215881348,-1.0012322664260864
0.2833333333333333,0.09917724877595901,0.10482906550168991,0.0,0.9369286298751831,0.0,0.0,-0.349520742893219,-0.31581640243530273,-0.020811280235648155,0.0,0.0,0.0,1.5010828971862793,-0.3744567632675171,0.6248399019241333,0.4200000464916229,1.0,3.5934981497121044e-06,-2.2626372810918838e-06,-5.6559525063448746e-08,0.00026704746414907277,0.00026775026344694197,-0.00010416866280138493,-0.0017432172317057848,0.004214204382151365,-0.00012789266475010663,-0.39971208572387695,0.6207607984542847,0.4669414162635803,0.6410626173019409,0.29279714822769165,-5.131857872009277,0.3584962487220764,0.7671367526054382,0.42000001668930054,-0.7299262285232544,3.0000011920928955,-0.4990856945514679,-2.9999990463256836,-0.12571372091770172,-0.13428837060928345,-0.14278918504714966,-0.15080368518829346,-1.0198040008544922,-1.0149974822998047,-1.0113188028335571,-1.0083731412887573
0.3,0.09239920973777771,0.10261908173561096,0.0,0.9334940314292908,0.0,0.0,-0.3585929274559021,-0.45630761981010437,-0.17730015516281128,0.0,0.0,0.0,-1.9950416088104248,-0.37441930174827576,0.6248087286949158,0.4200001657009125,0.9999995231628418,-1.6271958884317428e-05,1.2281580893613864e-05,-0.0008667160291224718,0.007083505392074585,-0.00903485156595707,-0.0003437039558775723,-0.015335998497903347,0.030106576159596443,-0.370323121547699,-0.3933664560317993,0.624900221824646,0.4268154799938202,0.0899769738316536,-0.06124596670269966,-0.18082794547080994,0.3584962487220764,0.7671367526054382,0.42000001668930054,-0.6800087690353394,3.000059127807617,-0.5495927333831787,-3.0021204948425293,-0.1382080465555191,-0.14636947214603424,-0.15428052842617035,-0.16149519383907318,-0.46300008893013,-0.41750216484069824,-0.350706547498703,-0.2602333128452301
0.31666666666666665,0.08339480310678482,0.09791349619626999,0.0,0.935904860496521,0.0,0.0,-0.35225293040275574,-0.5874890089035034,-0.32314756512641907,0.0,0.0,0.0,1.6917506456375122,-0.3744201064109802,0.6248077750205994,0.42000001668930054,0.9999995827674866,3.3432036161684664e-06,-3.070837010454852e-06,-0.0008666982175782323,0.0003215711622033268,0.00023919070372357965,-8.320808410644531e-05,-0.0010964088141918182,0.005908260587602854,-3.76743046217598e-05,-0.3946021795272827,0.6314474940299988,0.42397257685661316,0.024608805775642395,0.5993700623512268,-0.18392403423786163,0.3584962487220764,0.7671367526054382,0.42000001668930054,-0.6300020813941956,2.999981164932251,-0.5996353626251221,-2.999999523162842,-0.14693361520767212,-0.15391814708709717,-0.16034086048603058,-0.16574953496456146,-0.5336767435073853,-0.45213159918785095,-0.3547718822956085,-0.24251805245876312
0.3333333333333333,0.0777641087770462,0.09036853909492493,0.0,0.9329550862312317,0.0,0.0,-0.35999274253845215,-0.2609412968158722,-0.5007368326187134,0.0,0.0,0.0,-1.8267139196395874,-0.372866690158844,0.6284465193748474,0.4200000464916229,0.9986493587493896,1.0294737876392901e-05,-7.930758329166565e-06,-0.051956113427877426,0.09952481091022491,0.22612373530864716,-2.996172770508565e-05,0.0013582746032625437,0.0001088212156901136,-5.3161301612854,-0.3920350670814514,0.6360781788825989,0.42082464694976807,0.31540852785110474,0.21830511093139648,-0.19572196900844574,0.3584962487220764,0.7671367526054382,0.42000001668930054,-0.5799971222877502,2.9999825954437256,-0.6496890187263489,-2.999980926513672,-0.156587615609169,-0.16161519289016724,-0.16581982374191284,-0.1687968522310257,-0.605793297290802,-0.45930084586143494,-0.29936349391937256,-0.13028499484062195
0.35,0.06971113383769989,0.0813453420996666,0.0,0.9360207915306091,0.0,0.0,-0.35194477438926697,-0.5650576949119568,-0.5630198121070862,0.0,0.0,0.0,1.9662621021270752,-0.3698008060455322,0.6347808241844177,0.42053255438804626,0.992434024810791,-0.013301549479365349,0.0009425361058674753,-0.12205281853675842,0.43006718158721924,0.7417055368423462,0.07830921560525894,-3.4673728942871094,0.9194764494895935,-5.429057598114014,-0.38806867599487305,0.6439346075057983,0.4230723977088928,0.34257352352142334,0.7464064359664917,-0.0019737370312213898,0.3584962487220764,0.7671367526054382,0.42000001668930054,-0.5299921631813049,2.999953031539917,-0.6997136473655701,-3.000000238418579,-0.1688973605632782,-0.17075490951538086,-0.1716035157442093,-0.17114046216011047,-0.7134302854537964,-0.5279252529144287,-0.3325369358062744,-0.13376276195049286
0.36666666666666664,0.06520874053239822,0.06973376870155334,0.0,0.9336063861846924,0.0,0.0,-0.35830026865005493,-0.2174770087003708,-0.7317594289779663,0.0,0.0,0.0,-1.7043571472167969,-0.3621220290660858,0.6479514837265015,0.42038577795028687,0.986820638179779,-0.009552749805152416,0.0016910405829548836,-0.1615269035100937,0.45876628160476685,0.768920361995697,-0.028861094266176224,1.431649088859558,-0.4176163971424103,-4.942342758178711,-0.3778991103172302,0.6553798317909241,0.4202709496021271,0.8714039325714111,0.6355115175247192,-0.3025456666946411,0.3584962487220764,0.7671367526054382,0.42000001668930054,-0.47998765110969543,2.9999918937683105,-0.7497376799583435,-3.000001907348633,-0.1787884384393692,-0.1773620843887329,-0.17468878626823425,-0.17059274017810822,-0.5992209911346436,-0.3742871582508087,-0.13437843322753906,0.11156129837036133
0.3833333333333333,0.05750730633735657,0.05674957484006882,0.0,0.9198048114776611,0.0,0.0,-0.39237627387046814,-0.5468155145645142,-0.8052347302436829,0.0,0.0,0.0,-5.350398540496826,-0.351671427488327,0.6635079979896545,0.42055490612983704,0.9811014533042908,-0.013705850578844547,0.0023817475885152817,-0.19299282133579254,0.8975638747215271,1.2023625373840332,0.10117863118648529,-4.770086765289307,1.7228425741195679,-6.323790073394775,-0.3622589707374573,0.6682255268096924,0.42153066396713257,1.1663150787353516,1.0655162334442139,0.135776549577713,0.3584962487220764,0.7671367526054382,0.42000001668930054,-0.4298984408378601,2.9999983310699463,-0.7997338175773621,-2.999972343444824,-0.18956753611564636,-0.1844281703233719,-0.17777350544929504,-0.16958585381507874,-0.5572851896286011,-0.36214572191238403,-0.1515451818704605,0.06551901996135712
0.4,0.053177446126937866,0.04081731662154198,0.0,0.8925290703773499,0.0,0.0,-0.45098987221717834,-0.21835967898368835,-1.0047515630722046,0.0,0.0,0.0,-8.483970642089844,-0.3191656470298767,0.6872879862785339,0.42450088262557983,0.9660707116127014,-0.03301476687192917,-0.04158185422420502,-0.2527613639831543,2.816471815109253,1.9911421537399292,0.40129396319389343,57.32049560546875,1.5100972652435303,2.0415079593658447,-0.3292761445045471,0.6937766075134277,0.4245360493659973,2.811927556991577,1.9411706924438477,0.35203057527542114,0.3584962487220764,0.7671367526054382,0.42000001668930054,-0.3886863589286804,1.491637945175171,-0.8497576117515564,-3.00000262260437,-0.19835573434829712,-0.1897915005683899,-0.17946091294288635,-0.16751018166542053,-0.5801296830177307,-0.35180968046188354,-0.11148475110530853,0.1301148533821106
0.4166666666666667,0.05088355392217636,0.029393430799245834,0.0,0.8492045998573303,0.0,0.0,-0.528063952922821,-0.04505814239382744,-0.737494707107544,0.0,0.0,0.0,-11.224212646484375,-0.24603581428527832,0.7254545092582703,0.4300498068332672,0.9435024261474609,0.036108892410993576,-0.08645182102918625,-0.3178449273109436,5.754244804382324,2.605039358139038,0.5483585000038147,-8.459860801696777,-8.023538589477539,-5.20850944519043,-0.25605931878089905,0.7332463264465332,0.4295627474784851,5.408082962036133,2.921207904815674,0.299461305141449,0.3584962487220764,0.7671367526054382,0.42000001668930054,-0.3743898272514343,0.8444118499755859,-0.8128442168235779,3.000002145767212,-0.2132386565208435,-0.20069827139377594,-0.18532000482082367,-0.16863985359668732,-0.5204929113388062,-0.45077335834503174,-0.23871669173240662,-0.045009344816207886
0.43333333333333335,0.052489545196294785,0.019536277279257774,0.0,0.8131126165390015,0.0,0.0,-0.5821064114570618,0.14940586686134338,-0.5302278399467468,0.0,0.0,0.0,-6.643336296081543,-0.15520191192626953,0.7702925205230713,0.43896910548210144,0.894892692565918,0.0704207494854927,-0.11526209861040115,-0.4253498911857605,5.932406902313232,2.271728754043579,0.6562680602073669,9.18648910522461,-9.771540641784668,2.769263982772827,-0.16514426469802856,0.7808219194412231,0.43784886598587036,5.509976863861084,2.4633564949035645,0.5795509219169617,0.3584962487220764,0.7671367526054382,0.42000001668930054,-0.3608616590499878,0.7481948137283325,-0.839384138584137,-2.999999761581421,-0.2215561419725418,-0.2080169916152954,-0.1898670494556427,-0.17081056535243988,-0.4236782193183899,-0.37559762597084045,-0.24986416101455688,-0.15011858940124512
0.45,0.051162365823984146,0.015046623535454273,0.0,0.7967920303344727,0.0,0.0,-0.6042536497116089,-0.05727948620915413,-0.22117191553115845,0.0,0.0,0.0,-1.9274723529815674,-0.06498497724533081,0.8011845350265503,0.4476809501647949,0.8496730327606201,0.07519218325614929,-0.12701363861560822,-0.5062305331230164,5.459063529968262,0.5713967680931091,0.6038084626197815,-9.632956504821777,4.0343241691589355,16.912721633911133,-0.07235821336507797,0.8134516477584839,0.44673171639442444,5.707279205322266,1.61314058303833,0.6105935573577881,0.3584962487220764,0.7671367526054382,0.42000001668930054,-0.3499818444252014,0.5027061700820923,-0.8894081115722656,-3.0000011920928955,-0.23153749108314514,-0.21639512479305267,-0.19583123922348022,-0.17489533126354218,-0.4797476530075073,-0.4129875898361206,-0.3155841827392578,-0.24633704125881195
0.4666666666666667,0.05277571082115173,0.013466164469718933,0.0,0.7744899392127991,0.0,0.0,-0.6325862407684326,0.15203411877155304,-0.04022328183054924,0.0,0.0,0.0,-5.229434013366699,0.02617466077208519,0.8160422444343567,0.45384496450424194,0.7772422432899475,0.08549828827381134,-0.12664639949798584,-0.6103647947311401,5.132769584655762,-0.6513828635215759,0.28639087080955505,-11.803763389587402,-9.281625747680664,33.95301818847656,0.018614042550325394,0.830902636051178,0.4526141285896301,5.5868144035339355,0.607422947883606,0.41585201025009155,0.3584962487220764,0.7671367526054382,0.42000001668930054,-0.3434697985649109,0.16261672973632812,-0.9394320845603943,-3.000002145767212,-0.23816458880901337,-0.2221275120973587,-0.20029477775096893,-0.17838606238365173,-0.3683778643608093,-0.30425477027893066,-0.22851964831352234,-0.16564391553401947
0.48333333333333334,0.05502719059586525,0.01444284152239561,0.0,0.7643758058547974,0.0,0.0,-0.6447709798812866,0.10940727591514587,0.15957577526569366,0.0,0.0,0.0,-0.729697585105896,0.1106981486082077,0.8194923400878906,0.4567173421382904,0.7281025052070618,0.07476674020290375,-0.12270190566778183,-0.6702393889427185,4.640100955963135,-0.9030954837799072,0.12047886848449707,-9.890481948852539,-5.848239898681641,19.124197006225586,0.10595101118087769,0.8342735767364502,0.45623713731765747,5.137707233428955,-0.15975365042686462,0.22308692336082458,0.3584962487220764,0.7671367526054382,0.42000001668930054,-0.3411974012851715,0.14392352104187012,-0.9894561171531677,-3.0000011920928955,-0.23980189859867096,-0.22669807076454163,-0.20417200028896332,-0.1817806214094162,7.426488082273863e-06,-0.27117612957954407,-0.2520027160644531,-0.24641013145446777
0.5,0.06103101745247841,0.010310543701052666,0.0,0.7451266646385193,0.0,0.0,-0.666922926902771,0.44967687129974365,-0.3886832892894745,0.0,0.0,0.0,-4.547874927520752,0.18825283646583557,0.8143370747566223,0.4529082477092743,0.6685978174209595,0.04278568923473358,-0.1403885781764984,-0.7289974093437195,4.059185981750488,-0.9805288910865784,-0.3226184546947479,-5.34971284866333,-2.3902318477630615,15.366147994995117,0.18400543928146362,0.8302533626556396,0.4542921781539917,4.471034049987793,-0.48221734166145325,-0.24886992573738098,0.3584962487220764,0.7671367526054382,0.42000001668930054,-0.3346145451068878,0.547423779964447,-1.0394790172576904,-2.999999523162842,-0.23273205757141113,-0.22456620633602142,-0.20316465198993683,-0.1819342076778412,0.5389630794525146,0.27767667174339294,0.18509405851364136,0.09278139472007751
0.5166666666666666,0.06310579925775528,0.009382536634802818,0.0,0.7368093132972717,0.0,0.0,-0.6761006116867065,0.12782859802246094,-0.05701541155576706,0.0,0.0,0.0,-0.17059074342250824,0.25362542271614075,0.8027596473693848,0.44653111696243286,0.5963495969772339,0.0377923846244812,-0.12830273807048798,-0.7915030717849731,3.491410970687866,-0.8972368240356445,-0.39277103543281555,3.842897415161133,5.983166217803955,-4.781922817230225,0.248957559466362,0.8181027173995972,0.44860416650772095,3.6278910636901855,-0.879758358001709,-0.4147070050239563,0.3584962487220764,0.7671367526054382,0.42000001668930054,-0.32142436504364014,1.1035445928573608,-1.089501142501831,-2.9998085498809814,-0.22847609221935272,-0.22305671870708466,-0.2026849091053009,-0.18263736367225647,0.35581424832344055,0.18533219397068024,0.07258539646863937,-0.043921902775764465
0.5333333333333333,0.06653304398059845,0.010090280324220657,0.0,0.7230841517448425,0.0,0.0,-0.6907599568367004,0.24270087480545044,0.10229012370109558,0.0,0.0,0.0,-3.2616465091705322,0.3054959177970886,0.7886134386062622,0.43401867151260376,0.5626229047775269,0.01625308021903038,-0.11863851547241211,-0.8179951310157776,2.662163734436035,-1.5576108694076538,-0.7068720459938049,-0.7229359745979309,6.378847599029541,12.44081974029541,0.3022937774658203,0.8039074540138245,0.4365665912628174,2.8170015811920166,-0.8780268430709839,-0.9035062789916992,0.3584962487220764,0.7671367526054382,0.42000001668930054,-0.3019813895225525,0.9097722768783569,-1.1395232677459717,-2.9989426136016846,-0.22465747594833374,-0.2214900553226471,-0.20310281217098236,-0.18507565557956696,0.21261903643608093,0.09681735932826996,-0.03930375352501869,-0.17626681923866272
0.55,0.07175914198160172,0.008658376522362232,0.0,0.7218427658081055,0.0,0.0,-0.6920571327209473,0.3438413739204407,-0.15499821305274963,0.0,0.0,0.0,0.7028437256813049,0.33970823884010315,0.7750130295753479,0.42480698227882385,0.548491895198822,-0.0021268774289637804,-0.09150397777557373,-0.8311311602592468,1.279306411743164,-1.2571159601211548,0.11697409301996231,-5.835203170776367,-0.1663777083158493,11.173419952392578,0.33661192655563354,0.7892601490020752,0.42795056104660034,1.3140747547149658,-0.7077856063842773,-0.06186299026012421,0.3584962487220764,0.7671367526054382,0.42000001668930054,-0.29276153445243835,0.2560313045978546,-1.1896202564239502,-3.0000040531158447,-0.22221682965755463,-0.22013191878795624,-0.20365557074546814,-0.1875467598438263,0.1507837027311325,0.10991454869508743,-0.003245710860937834,-0.1143091693520546
0.5666666666666667,0.07483325153589249,0.010496838949620724,0.0,0.7109807729721069,0.0,0.0,-0.7032114267349243,0.1531362384557724,0.14857247471809387,0.0,0.0,0.0,-2.729285478591919,0.3557707369327545,0.7669963836669922,0.42385077476501465,0.5555916428565979,-0.016966495662927628,-0.06931158900260925,-0.828387439250946,0.5961461663246155,-0.5620275735855103,0.07479508221149445,-7.386840343475342,5.547725200653076,6.846444606781006,0.3518407940864563,0.780341625213623,0.42761504650115967,0.5980795621871948,-0.3765268921852112,0.06297294050455093,0.3584962487220764,0.7671367526054382,0.42000001668930054,-0.2867659032344818,0.5062807202339172,-1.2396423816680908,-2.9994163513183594,-0.22014306485652924,-0.21874001622200012,-0.20438168942928314,-0.1902489960193634,0.23624131083488464,0.17845159769058228,0.024235522374510765,-0.11526963114738464
0.5833333333333334,0.07878439128398895,0.008449049666523933,0.0,0.7117601037025452,0.0,0.0,-0.7024226188659668,0.2605137228965759,-0.1464683562517166,0.0,0.0,0.0,0.9719669222831726,0.3607499897480011,0.7610310912132263,0.42260098457336426,0.5642620325088501,-0.03700178116559982,-0.04117172956466675,-0.8237379193305969,-0.01579928584396839,-0.6070113182067871,-0.008131593465805054,-3.124772310256958,3.6923201084136963,6.402073860168457,0.3566353917121887,0.7737554311752319,0.4269472360610962,-0.045810766518116,-0.38806629180908203,-0.024512916803359985,0.3584962487220764,0.7671367526054382,0.42000001668930054,-0.2834913432598114,-0.058052632957696915,-1.2896627187728882,-3.0000016689300537,-0.2141958624124527,-0.21365141868591309,-0.2019415944814682,-0.19021081924438477,0.26916274428367615,0.2548395097255707,0.12293285131454468,0.00238924496807158
0.6,0.08480293303728104,0.009363480843603611,0.0,0.7025703191757202,0.0,0.0,-0.7116143107414246,0.4015890657901764,0.07973140478134155,0.0,0.0,0.0,-2.397763967514038,0.36064520478248596,0.7589489817619324,0.42048802971839905,0.5879576206207275,-0.008916521444916725,-0.007068993989378214,-0.8088117241859436,0.005852994509041309,-0.10486876219511032,-0.10225751996040344,5.130852222442627,-1.621956467628479,2.5940239429473877,0.35563579201698303,0.7710919380187988,0.423566997051239,-0.0006182203069329262,0.00861579179763794,-0.07003425806760788,0.3584962487220764,0.7671367526054382,0.42000001668930054,-0.3004685640335083,-1.6859312057495117,-1.2694077491760254,2.9987425804138184,-0.20846787095069885,-0.20881672203540802,-0.1999129205942154,-0.19067922234535217,0.5030221343040466,0.40799272060394287,0.2020525187253952,0.020989181473851204
0.6166666666666667,0.09258771687746048,0.012842602096498013,0.0,0.705434262752533,0.0,0.0,-0.7087753415107727,0.5105428099632263,0.2688124477863312,0.0,0.0,0.0,1.387954592704773,0.3605327308177948,0.7583767771720886,0.4200000464916229,0.5889319181442261,3.1999502425605897e-06,8.642598004371393e-06,-0.8081826567649841,-9.158944158116356e-05,0.000813239486888051,-0.0002798165660351515,-0.010318247601389885,0.002766640158370137,0.0007993857725523412,0.35524824261665344,0.7707635164260864,0.42523568868637085,-0.04857363924384117,0.005597148090600967,0.17726488411426544,0.3584962487220764,0.7671367526054382,0.42000001668930054,-0.34829893708229065,-2.9999818801879883,-1.289446234703064,-3.0,-0.20024330914020538,-0.20228616893291473,-0.19685837626457214,-0.19065983593463898,0.511346697807312,0.40556660294532776,0.19460336863994598,0.008717010729014874
0.6333333333333333,0.0980345830321312,0.011922355741262436,0.0,0.6997717022895813,0.0,0.0,-0.7143664956092834,0.28803470730781555,-0.1111118346452713,0.0,0.0,0.0,-2.1139049530029297,0.3605320453643799,0.758377730846405,0.4200000464916229,0.5889325737953186,5.622970320473542e-07,-2.9903437734901672e-06,-0.8081821203231812,0.00012077663268428296,-0.00028124928940087557,-9.351200424134731e-05,0.006536670029163361,-0.0013542069355025887,-0.0006877671694383025,0.3558029234409332,0.7730505466461182,0.4288370609283447,-0.022628560662269592,0.09404635429382324,0.24976162612438202,0.3584962487220764,0.7671367526054382,0.42000001668930054,-0.39830777049064636,-2.999995470046997,-1.339409589767456,-2.999065399169922,-0.18799248337745667,-0.19210189580917358,-0.1903286725282669,-0.1872953176498413,0.6515200734138489,0.5675843358039856,0.3927679657936096,0.24379882216453552
0.65,0.1044895127415657,0.015505961142480373,0.0,0.7040794491767883,0.0,0.0,-0.710121214389801,0.36333680152893066,0.25774717330932617,0.0,0.0,0.0,1.605106234550476,0.36053207516670227,0.758377730846405,0.4200000464916229,0.5889327526092529,4.6875285875103145e-07,-3.4245751976413885e-06,-0.8081820011138916,0.00011644673213595524,-0.00027026544557884336,-9.149382822215557e-05,0.006270784419029951,-0.0013385167112573981,-0.0006648384733125567,0.35452064871788025,0.7735313177108765,0.4368649423122406,-0.06259045004844666,0.15003752708435059,0.7164343595504761,0.3584962487220764,0.7671367526054382,0.42000001668930054,-0.44832146167755127,-2.999999761581421,-1.3894277811050415,-3.000000476837158,-0.1831396520137787,-0.18750673532485962,-0.18743155896663666,-0.1857687532901764,0.29527246952056885,0.27320173382759094,0.17442309856414795,0.0967056080698967
0.6666666666666666,0.11250677704811096,0.015063820406794548,0.0,0.697641134262085,0.0,0.0,-0.7164473533630371,0.5044942498207092,-0.06297741830348969,0.0,0.0,0.0,-1.965114951133728,0.36053207516670227,0.758377730846405,0.4200000464916229,0.5889326333999634,4.802759008271096e-07,-3.369989144630381e-06,-0.8081821203231812,0.00011648336658254266,-0.0002705063088797033,-9.15108248591423e-05,0.006276373751461506,-0.001339704031124711,-0.0006652403390035033,0.35671114921569824,0.7762526273727417,0.4456012547016144,0.24301178753376007,0.030450984835624695,0.5050529837608337,0.3584962487220764,0.7671367526054382,0.42000001668930054,-0.4983346164226532,-3.0000009536743164,-1.4394460916519165,-2.9999992847442627,-0.17688427865505219,-0.1813855916261673,-0.18249323964118958,-0.18160231411457062,0.22488662600517273,0.2757573127746582,0.27225470542907715,0.2909003794193268
0.6833333333333333,0.12249619513750076,0.010768645443022251,0.0,0.6721859574317932,0.0,0.0,-0.7403823733329773,0.6441652774810791,-0.3314666152000427,0.0,0.0,0.0,-5.0517730712890625,0.36053207516670227,0.758377730846405,0.4200000464916229,0.5889325737953186,2.596321166947746e-07,-3.096011369052576e-06,-0.8081820607185364,0.00011908575106645003,-0.0002710872795432806,-9.206333197653294e-05,0.006276237778365612,-0.0013111998559907079,-0.0006717262440361083,0.36330127716064453,0.7778792381286621,0.4610580801963806,0.5872676372528076,0.13996577262878418,1.4637128114700317,0.3584962487220764,0.7671367526054382,0.42000001668930054,-0.5483472347259521,-2.9999635219573975,-1.4894644021987915,-2.9999992847442627,-0.1754637509584427,-0.17876282334327698,-0.17945973575115204,-0.17784826457500458,0.0061607747338712215,0.09093186259269714,0.1339549720287323,0.19206252694129944
0.7,0.13559618592262268,0.010990981012582779,0.0,0.6592181921005249,0.0,0.0,-0.7519516944885254,0.7574791312217712,0.06479024887084961,0.0,0.0,0.0,-1.0631208419799805,0.36053207516670227,0.758377730846405,0.4200000464916229,0.5889325737953186,4.939513473800616e-07,-3.4035826956824167e-06,-0.8081820607185364,0.00011577888653846458,-0.00027060805587098,-9.13392286747694e-05,0.006282701622694731,-0.0013483918737620115,-0.0006637749029323459,0.37267565727233887,0.7818137407302856,0.4907798767089844,0.563926100730896,0.4716068506240845,2.0593953132629395,0.3584962487220764,0.7671367526054382,0.42000001668930054,-0.5832094550132751,-1.3042973279953003,-1.5394827127456665,-3.0,-0.18007469177246094,-0.18150557577610016,-0.18101835250854492,-0.1781253069639206,-0.16931214928627014,-0.10938657075166702,-0.08293850719928741,-0.05001077800989151
0.7166666666666667,0.1452064961194992,0.013054072856903076,0.0,0.6695087552070618,0.0,0.0,-0.7428041696548462,0.5102565288543701,0.16614101827144623,0.0,0.0,0.0,2.5087742805480957,0.36053207516670227,0.758377730846405,0.4200000464916229,0.5889328122138977,4.542454519196326e-07,-3.347586925883661e-06,-0.8081819415092468,0.00011632132373051718,-0.0002705419610720128,-9.146425873041153e-05,0.006278177257627249,-0.001341560622677207,-0.000664898136164993,0.3859408497810364,0.788446307182312,0.5173666477203369,0.8543074131011963,0.34100621938705444,1.2292736768722534,0.3584962487220764,0.7671367526054382,0.42000001668930054,-0.585333526134491,0.8593241572380066,-1.5633388757705688,-0.09581786394119263,-0.18096114695072174,-0.18167060613632202,-0.18090365827083588,-0.17764320969581604,0.011530181393027306,0.0541917160153389,0.0729852244257927,0.09218426793813705
0.7333333333333333,0.15029427409172058,0.010396518744528294,0.0,0.6680489778518677,0.0,0.0,-0.7441173195838928,0.268798291683197,-0.18497002124786377,0.0,0.0,0.0,-1.1209220886230469,0.36053207516670227,0.758377730846405,0.4200000464916229,0.5889326930046082,4.6351834726010566e-07,-3.287011395514128e-06,-0.8081820607185364,0.00011611527588684112,-0.0002705933584365994,-9.142467752099037e-05,0.006280462723225355,-0.001344436313956976,-0.0006645183893851936,0.3952043056488037,0.7931140661239624,0.5308933258056641,0.2516642212867737,0.03059675544500351,0.5438647270202637,0.3584962487220764,0.7671367526054382,0.42000001668930054,-0.5951756238937378,-1.798784613609314,-1.5159910917282104,3.000000238418579,-0.17695391178131104,-0.17737197875976562,-0.17666810750961304,-0.17352057993412018,0.09889943897724152,0.1611631214618683,0.1993677020072937,0.22460821270942688
0.75,0.15219886600971222,0.012400180101394653,0.0,0.6775007247924805,0.0,0.0,-0.7355220913887024,0.07311507314443588,0.15006127953529358,0.0,0.0,0.0,2.291578531265259,0.3605320453643799,0.758377730846405,0.4200000464916229,0.5889327526092529,4.934253183819237e-07,-3.4127006074413657e-06,-0.8081820607185364,0.00011469179298728704,-0.0002703698119148612,-9.112758561968803e-05,0.006282862741500139,-0.0013607307337224483,-0.0006612059660255909,0.40054476261138916,0.7921663522720337,0.5384129881858826,0.4204055070877075,0.011840425431728363,0.38175302743911743,0.3584962487220764,0.7671367526054382,0.42000001668930054,-0.5989922285079956,1.0924813747406006,-1.5318042039871216,-2.999999523162842,-0.17905347049236298,-0.17781366407871246,-0.17586402595043182,-0.17180658876895905,-0.0381004698574543,0.03017497807741165,0.07851788401603699,0.10777832567691803
0.7666666666666666,0.15142782032489777,0.010522626340389252,0.0,0.6739951372146606,0.0,0.0,-0.7387357950210571,-0.10197854042053223,-0.13259302079677582,0.0,0.0,0.0,-1.3985718488693237,0.36053207516670227,0.758377730846405,0.4200000464916229,0.5889326930046082,5.294012339618348e-07,-3.4903732739621773e-06,-0.8081820011138916,0.00011655350681394339,-0.00027054184465669096,-9.143468923866749e-05,0.006277438253164291,-0.0013365019112825394,-0.0006653642049059272,0.4033071994781494,0.7917158603668213,0.5396987199783325,-0.10245421528816223,-0.15151046216487885,-0.07057059556245804,0.3584962487220764,0.7671367526054382,0.42000001668930054,-0.6075408458709717,-1.8551095724105835,-1.4929895401000977,3.000000238418579,-0.17739875614643097,-0.17543981969356537,-0.1730552613735199,-0.16888688504695892,0.01931602507829666,0.07977981865406036,0.12259932607412338,0.14166930317878723
0.7833333333333333,0.1515623778104782,0.012803479097783566,0.0,0.6814609169960022,0.0,0.0,-0.7318544983863831,0.048021189868450165,0.11093448102474213,0.0,0.0,0.0,1.8985881805419922,0.36053207516670227,0.758377730846405,0.4200000464916229,0.5889327526092529,4.5390109448817384e-07,-3.06296669805306e-06,-0.8081820011138916,0.00011601953156059608,-0.0002706409140955657,-9.140954352915287e-05,0.0062821777537465096,-0.0013459798647090793,-0.0006643733941018581,0.40396881103515625,0.7886927723884583,0.5394735336303711,0.23621892929077148,-0.053767360746860504,0.07366792112588882,0.3584962487220764,0.7671367526054382,0.42000001668930054,-0.6169493794441223,0.5274461507797241,-1.5092859268188477,-3.000000476837158,-0.17949146032333374,-0.17627455294132233,-0.17280171811580658,-0.1678735911846161,0.0595245361328125,0.08356242626905441,0.10922716557979584,0.12570972740650177
0.8,0.15369842946529388,0.011554574593901634,0.0,0.6768208146095276,0.0,0.0,-0.7361478209495544,0.1700982302427292,-0.1257239282131195,0.0,0.0,0.0,-1.6058932542800903,0.36053207516670227,0.758377730846405,0.4200000464916229,0.5889326930046082,4.7044400730555935e-07,-3.1716028843220556e-06,-0.8081820011138916,0.00011652841203613207,-0.0002709118998609483,-9.147846139967442e-05,0.0062860157340765,-0.0013404559576883912,-0.0006658950005657971,0.4072556793689728,0.787442684173584,0.5392090082168579,0.1770426332950592,-0.15707173943519592,0.04231809824705124,0.3584962487220764,0.7671367526054382,0.42000001668930054,-0.6439976692199707,-3.000000238418579,-1.4705381393432617,3.0,-0.17821507155895233,-0.17470087110996246,-0.17083099484443665,-0.16561183333396912,0.026016289368271828,0.0555703304708004,0.09262864291667938,0.12341920286417007
0.8166666666666667,0.1582484245300293,0.013025258667767048,0.0,0.6825279593467712,0.0,0.0,-0.7308594584465027,0.307684063911438,0.11331559717655182,0.0,0.0,0.0,1.93911612033844,0.36053207516670227,0.758377730846405,0.4200000464916229,0.5889326930046082,4.806879587704316e-07,-3.286801756985369e-06,-0.8081820011138916,0.00011525409354362637,-0.0002706411760300398,-9.11979004740715e-05,0.006286650896072388,-0.0013540287036448717,-0.0006625890964642167,0.41264230012893677,0.7848150730133057,0.543969988822937,0.4653007388114929,-0.08289064466953278,0.5598915219306946,0.3584962487220764,0.7671367526054382,0.42000001668930054,-0.6780049800872803,-1.2086418867111206,-1.4873089790344238,-2.999999761581421,-0.17912887036800385,-0.17506614327430725,-0.17041902244091034,-0.1644425243139267,0.017314137890934944,0.029068773612380028,0.06074293702840805,0.09738389402627945
0.8333333333333334,0.16036126017570496,0.010882877744734287,0.0,0.6784011721611023,0.0,0.0,-0.7346916794776917,0.06910549849271774,-0.16822880506515503,0.0,0.0,0.0,-1.5408120155334473,0.36053207516670227,0.758377730846405,0.4200000464916229,0.5889326930046082,4.3849689745911746e-07,-3.0285243610705948e-06,-0.8081820011138916,0.0001165821377071552,-0.0002708978718146682,-9.148032404482365e-05,0.006285460665822029,-0.0013394280103966594,-0.0006659705541096628,0.42135486006736755,0.782928466796875,0.5504248142242432,0.5218632221221924,-0.21266290545463562,0.35010775923728943,0.3584962487220764,0.7671367526054382,0.42000001668930054,-0.7025261521339417,-1.6733627319335938,-1.5373272895812988,-2.999999523162842,-0.17769275605678558,-0.1734529733657837,-0.16828590631484985,-0.16169525682926178,0.026066754013299942,0.05954953655600548,0.11136572808027267,0.1663276106119156
0.85,0.1637258231639862,0.012518486939370632,0.0,0.6590782999992371,0.0,0.0,-0.7520743012428284,0.24484474956989288,0.1177448183298111,0.0,0.0,0.0,-3.773230791091919,0.36053207516670227,0.758377730846405,0.4200000464916229,0.5889326930046082,4.8155027343455e-07,-3.3272353903157637e-06,-0.8081820011138916,0.00011550319322850555,-0.0002706462692003697,-9.126798249781132e-05,0.0062852660194039345,-0.0013515072641894221,-0.0006631833384744823,0.42987149953842163,0.7813241481781006,0.5576057434082031,0.5902496576309204,0.060779303312301636,0.5866101980209351,0.3584962487220764,0.7671367526054382,0.42000001668930054,-0.7045199871063232,1.1890517473220825,-1.5873456001281738,-2.999999761581421,-0.17923852801322937,-0.1745162010192871,-0.1685785949230194,-0.16117143630981445,0.0444183275103569,0.0268142968416214,0.029507407918572426,0.03947015479207039
0.8666666666666667,0.16498227417469025,0.014858917333185673,0.0,0.6547188758850098,0.0,0.0,-0.7558724880218506,0.028858179226517677,0.22777821123600006,0.0,0.0,0.0,0.27571821212768555,0.36053207516670227,0.758377730846405,0.4200000464916229,0.5889328718185425,4.5195707798484364e-07,-3.267044803578756e-06,-0.808181881904602,0.00011645258928183466,-0.0002704980142880231,-9.149685502052307e-05,0.006276268512010574,-0.0013399189338088036,-0.0006653618183918297,0.43585196137428284,0.7853233218193054,0.5698065757751465,0.11217527836561203,0.3803700804710388,0.882657527923584,0.3584962487220764,0.7671367526054382,0.42000001668930054,-0.6636543869972229,2.9999804496765137,-1.5483732223510742,3.000000238418579,-0.17662008106708527,-0.1728309839963913,-0.16756656765937805,-0.16075699031352997,0.16333968937397003,0.08773953467607498,0.021915003657341003,-0.04346761479973793
