vladlanda/robotic-transformer/data/env_000_episode_0227.csv
sim_time_s,robot_box_x,robot_box_y,robot_box_z,robot_box_quat_w,robot_box_quat_x,robot_box_quat_y,robot_box_quat_z,robot_box_linvel_x,robot_box_linvel_y,robot_box_linvel_z,robot_box_angvel_x,robot_box_angvel_y,robot_box_angvel_z,cube_world_x,cube_world_y,cube_world_z,cube_quat_w,cube_quat_x,cube_quat_y,cube_quat_z,cube_linvel_x,cube_linvel_y,cube_linvel_z,cube_angvel_x,cube_angvel_y,cube_angvel_z,endpoint_world_x,endpoint_world_y,endpoint_world_z,endpoint_linvel_x,endpoint_linvel_y,endpoint_linvel_z,target_cube_world_x,target_cube_world_y,target_cube_world_z,gripper_actual_pos_rad_gp_leftgearjoint,gripper_actual_vel_rad_s_gp_leftgearjoint,gripper_actual_pos_rad_gp_rotatingjoint,gripper_actual_vel_rad_s_gp_rotatingjoint,motor_angle_rad_joint1,motor_angle_rad_joint2,motor_angle_rad_joint3,motor_angle_rad_joint4,motor_speed_rad_s_joint1,motor_speed_rad_s_joint2,motor_speed_rad_s_joint3,motor_speed_rad_s_joint4
0.0,0.0,0.0,0.0,1.0,0.0,0.0,0.0,0.0,0.0,0.0,0.0,0.0,0.0,-0.45828723907470703,0.7499774098396301,0.41999998688697815,1.0,0.0,0.0,0.0,0.0,0.0,0.0,0.0,0.0,0.0,3.42540442943573e-06,-0.005000244826078415,1.313499927520752,0.0,0.0,0.0,0.43666762113571167,0.7089477777481079,0.42000001668930054,-1.5707999467849731,0.0,0.0,0.0,0.0,0.0,0.0,0.0,0.0,0.0,0.0,0.0
0.016666666666666666,0.0028778850100934505,0.0021806680597364902,0.0,0.9998081922531128,0.0,0.0,0.019586581736803055,0.24087215960025787,0.18240931630134583,0.0,0.0,0.0,3.1418697834014893,-0.4582873582839966,0.7499771118164062,0.41999998688697815,1.0,3.2799832752061775e-06,-8.339598593920527e-07,8.465660528145236e-08,-1.9833856640616432e-05,0.00017983021098189056,-6.132945418357849e-05,0.0009432561928406358,-0.004689492750912905,-0.0003198107879143208,-0.007110234349966049,0.003379564033821225,1.3159373998641968,-0.8143353462219238,0.9868683815002441,0.18095196783542633,0.43666762113571167,0.7089477777481079,0.42000001668930054,-1.5301095247268677,3.0000011920928955,-0.04584788903594017,-2.9999992847442627,0.0008691533003002405,0.0007963840034790337,0.0007110277656465769,0.0006108740926720202,0.11094217747449875,0.09756709635257721,0.08334315568208694,0.06823883205652237
0.03333333333333333,0.00896099116653204,0.006802000571042299,0.0,0.9997960329055786,0.0,0.0,0.020196838304400444,0.40702199935913086,0.3153077960014343,0.0,0.0,0.0,-0.8691334128379822,-0.45828747749328613,0.7499770522117615,0.4200000464916229,1.0,3.3908784189407015e-06,-2.132447662006598e-06,-3.7113029094371086e-08,0.0002635781711433083,0.0002693779533728957,-0.00010509602725505829,-0.001770740025676787,0.004130825400352478,-0.00013548026618082076,-0.027553986757993698,0.02624288573861122,1.3165892362594604,-1.5913631916046143,1.616146206855774,-0.08595778793096542,0.43666762113571167,0.7089477777481079,0.42000001668930054,-1.4800904989242554,3.000001907348633,-0.09588772058486938,-3.000001907348633,0.0029900961089879274,0.002652701921761036,0.002277268096804619,0.001860719989053905,0.16421358287334442,0.13975714147090912,0.11381584405899048,0.08629779517650604
0.05,0.017733406275510788,0.013769298791885376,0.0,0.9993817806243896,0.0,0.0,0.03515717759728432,0.5935206413269043,0.46497589349746704,0.0,0.0,0.0,2.650768518447876,-0.4582875072956085,0.7499771118164062,0.4200000464916229,1.0,3.7651825550710782e-06,-2.211884293501498e-06,5.609665620909254e-09,0.0002653094124980271,0.0002669155364856124,-0.0001044049859046936,-0.001724360859952867,0.00417743343859911,-0.00012949237134307623,-0.05968625098466873,0.054585039615631104,1.3114500045776367,-2.187650442123413,1.8127543926239014,-0.49389880895614624,0.43666762113571167,0.7089477777481079,0.42000001668930054,-1.4300721883773804,3.0000030994415283,-0.1459263563156128,-2.999999761581421,0.0057009062729775906,0.004909113515168428,0.004045209381729364,0.0031047535594552755,0.1925193965435028,0.1556105613708496,0.11682946234941483,0.07608309388160706
0.06666666666666667,0.029044199734926224,0.02306140586733818,0.0,0.9994530081748962,0.0,0.0,0.03307168185710907,0.7201013565063477,0.5951310396194458,0.0,0.0,0.0,-1.2084805965423584,-0.4582875072956085,0.7499770522117615,0.4200000464916229,0.9999999403953552,3.4068248169205617e-06,-2.2856320356368087e-06,4.300777334265149e-07,0.00026702528703026474,0.00026791737764142454,-0.00010437797755002975,-0.0017406486440449953,0.004211665131151676,-0.00012849978520534933,-0.0967153012752533,0.09009463340044022,1.2989181280136108,-2.282665252685547,2.3321266174316406,-0.9813820123672485,0.43666762113571167,0.7089477777481079,0.42000001668930054,-1.3800538778305054,3.000000476837158,-0.19596368074417114,-2.9999992847442627,0.008119627833366394,0.006582660134881735,0.004934738390147686,0.0031699843239039183,0.13231830298900604,0.07554461807012558,0.0167173333466053,-0.04422878846526146
0.08333333333333333,0.034414730966091156,0.03569789603352547,0.0,1.0,0.0,0.0,-7.188415474956855e-05,0.1900140792131424,0.8245925903320312,0.0,0.0,0.0,-4.931910514831543,-0.4582875072956085,0.7499770522117615,0.4200000464916229,0.9999999403953552,3.626150828495156e-06,-2.3353632059297524e-06,3.0320998689603584e-07,0.00026613965746946633,0.00026685226475819945,-0.00010405294597148895,-0.0017284216592088342,0.004196350462734699,-0.0001279056741623208,-0.13219863176345825,0.1331925243139267,1.2785940170288086,-2.037242889404297,2.715062379837036,-1.3684204816818237,0.43666762113571167,0.7089477777481079,0.42000001668930054,-1.3300317525863647,2.9999990463256836,-0.21501827239990234,0.43512892723083496,0.004695054609328508,0.0024902885779738426,0.00012333608174230903,-0.002415669383481145,-0.3034689426422119,-0.34995245933532715,-0.3990163803100586,-0.4509299099445343
0.1,0.04404476284980774,0.049648672342300415,0.0,0.9998920559883118,0.0,0.0,-0.014694149605929852,0.6747466325759888,0.8507267832756042,0.0,0.0,0.0,-0.6977333426475525,-0.4582875072956085,0.7499770522117615,0.4200000464916229,1.0,3.422215741011314e-06,-2.3086440705810674e-06,1.7961383491638117e-07,0.0002668150991667062,0.00026800442719832063,-0.00010440708138048649,-0.001743118860758841,0.004207138903439045,-0.0001289104257011786,-0.1686459183692932,0.17492376267910004,1.2572880983352661,-2.1683011054992676,2.5678153038024902,-1.2819693088531494,0.43666762113571167,0.7089477777481079,0.42000001668930054,-1.2800294160842896,2.999999761581421,-0.25901076197624207,-3.000001907348633,0.004593693185597658,0.000818914792034775,-0.0031145743560045958,-0.0072173490189015865,0.016345471143722534,-0.08897547423839569,-0.19342513382434845,-0.29692575335502625
0.11666666666666667,0.051613885909318924,0.06570260226726532,0.0,0.9991273283958435,0.0,0.0,-0.04176829010248184,0.4576130509376526,1.0244420766830444,0.0,0.0,0.0,-3.9305620193481445,-0.4582875072956085,0.7499771118164062,0.4200000464916229,1.0,3.711592853505863e-06,-2.332753865630366e-06,2.574192592419422e-07,0.0002648566442076117,0.0002663531631696969,-0.0001042329240590334,-0.0017181416042149067,0.004169980529695749,-0.00012915612023789436,-0.20090678334236145,0.22304587066173553,1.236512303352356,-1.71356201171875,3.2151832580566406,-1.1945706605911255,0.43666762113571167,0.7089477777481079,0.42000001668930054,-1.2300055027008057,2.9999890327453613,-0.22491568326950073,2.9999992847442627,0.0027405815199017525,-0.0029633573722094297,-0.00879825558513403,-0.014772836118936539,-0.0683024525642395,-0.20580221712589264,-0.3401602804660797,-0.47111767530441284
0.13333333333333333,0.05657285824418068,0.08443521708250046,0.0,0.9955659508705139,0.0,0.0,-0.09406619518995285,0.23195095360279083,1.1782560348510742,0.0,0.0,0.0,-7.096256732940674,-0.4582875072956085,0.7499770522117615,0.4200000464916229,1.0,3.3358085147483507e-06,-2.2319140953186434e-06,3.1129312105804274e-07,0.0002666973159648478,0.00026759272441267967,-0.00010428577661514282,-0.001737017184495926,0.004205896519124508,-0.00012840180716011673,-0.22979751229286194,0.27760541439056396,1.2173867225646973,-1.7210837602615356,3.373135805130005,-1.1778690814971924,0.43666762113571167,0.7089477777481079,0.42000001668930054,-1.1962677240371704,1.1772090196609497,-0.2562144696712494,-2.9999990463256836,0.00044724965118803084,-0.007509398739784956,-0.015529022552073002,-0.023615285754203796,-0.21319663524627686,-0.33613428473472595,-0.4548330008983612,-0.5690129399299622
0.15,0.05843513458967209,0.10107074677944183,0.0,0.9920036792755127,0.0,0.0,-0.12620896100997925,0.0609799288213253,0.9213657975196838,0.0,0.0,0.0,-2.8278520107269287,-0.4582875072956085,0.7499770522117615,0.4200000464916229,1.0,3.5190378184779547e-06,-2.283064759467379e-06,-3.625691817887855e-07,0.00026618439005687833,0.0002673580020200461,-0.00010425783693790436,-0.001735009253025055,0.004195804707705975,-0.00012860787683166564,-0.2666130065917969,0.3317449688911438,1.1921939849853516,-2.3185667991638184,3.456845283508301,-1.8126555681228638,0.43666762113571167,0.7089477777481079,0.42000001668930054,-1.1558157205581665,2.9999959468841553,-0.23291540145874023,2.9999990463256836,-0.0037372265942394733,-0.01338820531964302,-0.023021366447210312,-0.03263753280043602,-0.3049622178077698,-0.38343238830566406,-0.4572618901729584,-0.5264087915420532
0.16666666666666666,0.0567253977060318,0.11810889095067978,0.0,0.9853701591491699,0.0,0.0,-0.17042793333530426,-0.1645336002111435,1.061599612236023,0.0,0.0,0.0,-6.231482028961182,-0.4582875072956085,0.7499770522117615,0.4200000464916229,1.0,3.6667033782578073e-06,-2.339081675017951e-06,-3.150136080876109e-07,0.00026595877716317773,0.0002666739164851606,-0.00010403385385870934,-0.001725254813209176,0.00419270945712924,-0.00012778321979567409,-0.30268561840057373,0.3923284411430359,1.1604743003845215,-1.9305616617202759,3.895293712615967,-2.015714168548584,0.43666762113571167,0.7089477777481079,0.42000001668930054,-1.1120463609695435,2.2765707969665527,-0.26414498686790466,-2.9999985694885254,-0.01080277282744646,-0.02170407958328724,-0.032503727823495865,-0.043201692402362823,-0.5085378289222717,-0.5745380520820618,-0.6357702016830444,-0.6921917796134949
0.18333333333333332,0.06032454967498779,0.13195544481277466,0.0,0.9803018569946289,0.0,0.0,-0.19750498235225677,0.24864834547042847,0.7691723108291626,0.0,0.0,0.0,-2.1522037982940674,-0.4582875072956085,0.7499770522117615,0.4200000464916229,1.0,3.8144380596349947e-06,-2.3994705315999454e-06,-2.702848291846749e-07,0.00026549192261882126,0.000266112299868837,-0.00010391208343207836,-0.001717865583486855,0.004184891004115343,-0.000127535909996368,-0.33941948413848877,0.45522916316986084,1.118959903717041,-2.0811901092529297,4.009469985961914,-3.037111282348633,0.43666762113571167,0.7089477777481079,0.42000001668930054,-1.080472469329834,1.5503239631652832,-0.31417328119277954,-2.9997966289520264,-0.01592874526977539,-0.02771172672510147,-0.03931371122598648,-0.05073830857872963,-0.5428445935249329,-0.5374050140380859,-0.5301399230957031,-0.5214972496032715
0.2,0.05878600478172302,0.14781346917152405,0.0,0.9714460968971252,0.0,0.0,-0.23726031184196472,-0.11652877926826477,0.9188563227653503,0.0,0.0,0.0,-5.654932022094727,-0.4582875072956085,0.7499770522117615,0.4200000464916229,1.0,3.6001295029564062e-06,-2.291185865033185e-06,-2.2020017809154524e-07,0.0002657297591213137,0.0002664490893948823,-0.00010398216545581818,-0.0017226807540282607,0.004188799764961004,-0.00012773256457876414,-0.3732995390892029,0.5224097967147827,1.0605486631393433,-1.8990535736083984,4.162258148193359,-3.7954978942871094,0.43666762113571167,0.7089477777481079,0.42000001668930054,-1.0341055393218994,2.999999523162842,-0.3641992509365082,-2.999999523162842,-0.029941679909825325,-0.04146351292729378,-0.05279669165611267,-0.06392387300729752,-0.6868165731430054,-0.7221505641937256,-0.755370020866394,-0.7858721017837524
0.21666666666666667,0.06156464293599129,0.15909579396247864,0.0,0.9661519527435303,0.0,0.0,-0.25797364115715027,0.19811254739761353,0.554499626159668,0.0,0.0,0.0,-1.4035887718200684,-0.4582875072956085,0.7499770522117615,0.4200000464916229,0.9999999403953552,3.639737315097591e-06,-2.261905365230632e-06,2.224729200861475e-07,0.00026687447098083794,0.00026754679856821895,-0.00010411837138235569,-0.0017404091777279973,0.004210993647575378,-0.00012784003047272563,-0.40691131353378296,0.5860605239868164,0.9890279769897461,-1.7853147983551025,3.756795883178711,-4.756202220916748,0.43666762113571167,0.7089477777481079,0.42000001668930054,-0.9852821826934814,2.8311498165130615,-0.41422516107559204,-2.999999523162842,-0.04156576097011566,-0.05292733758687973,-0.06410101801156998,-0.07506930828094482,-0.8709633946418762,-0.8130004405975342,-0.7573366165161133,-0.7043489813804626
0.23333333333333334,0.05863475799560547,0.17253640294075012,0.0,0.956527054309845,0.0,0.0,-0.2916436493396759,-0.2559700608253479,0.7945859432220459,0.0,0.0,0.0,-5.04077672958374,-0.45828747749328613,0.7499770522117615,0.4200000464916229,1.0,3.42076441484096e-06,-2.3167292511061532e-06,2.956030868972448e-07,0.0002668006345629692,0.00026803917717188597,-0.00010442500934004784,-0.0017438046634197235,0.00420692004263401,-0.0001289931678911671,-0.43258190155029297,0.6427029371261597,0.9032993912696838,-1.264867901802063,3.1901283264160156,-5.301690578460693,0.43666762113571167,0.7089477777481079,0.42000001668930054,-0.9352937340736389,2.999995708465576,-0.4642534852027893,-3.0,-0.057940125465393066,-0.06924913078546524,-0.08039530366659164,-0.09130200743675232,-0.8421617150306702,-0.861488938331604,-0.8828240036964417,-0.9035406112670898
0.25,0.06101576238870621,0.18096531927585602,0.0,0.951660692691803,0.0,0.0,-0.3071513772010803,0.15717844665050507,0.4130273759365082,0.0,0.0,0.0,-0.8256906867027283,-0.4582875072956085,0.7499770522117615,0.4200000464916229,0.9999999403953552,3.347640813444741e-06,-2.259107077406952e-06,1.8085022190916789e-07,0.00026687653735280037,0.0002679111494217068,-0.00010439427569508553,-0.0017405003309249878,0.004208215046674013,-0.00012870266800746322,-0.45474928617477417,0.6883586645126343,0.8110302686691284,-1.0772545337677002,2.372805595397949,-5.842121124267578,0.43666762113571167,0.7089477777481079,0.42000001668930054,-0.885284960269928,2.999998092651367,-0.5142834186553955,-3.0000011920928955,-0.07001552730798721,-0.08114832639694214,-0.09216731786727905,-0.10296814888715744,-0.9642006754875183,-0.8931823968887329,-0.8276268839836121,-0.766936719417572
0.26666666666666666,0.05761837214231491,0.19243934750556946,0.0,0.941998302936554,0.0,0.0,-0.3356175720691681,-0.20423941314220428,0.6716181039810181,0.0,0.0,0.0,-4.282947540283203,-0.4582875072956085,0.7499770522117615,0.4200000464916229,0.9999999403953552,3.5357268188818125e-06,-2.3001737190497806e-06,-1.2685268302448094e-07,0.00026601794525049627,0.00026712287217378616,-0.0001041970681399107,-0.0017317483434453607,0.004192880354821682,-0.00012849216000176966,-0.46715110540390015,0.7192505598068237,0.7110631465911865,-0.43636882305145264,1.5315279960632324,-5.935628890991211,0.43666762113571167,0.7089477777481079,0.42000001668930054,-0.835274338722229,3.000004291534424,-0.5643131732940674,-2.999998092651367,-0.0871310755610466,-0.09808351844549179,-0.10901142656803131,-0.11975602805614471,-0.7710676193237305,-0.8127927780151367,-0.855538547039032,-0.895357608795166
0.2833333333333333,0.05930538475513458,0.19834095239639282,0.0,0.9383026361465454,0.0,0.0,-0.3458152711391449,0.12097381055355072,0.25631698966026306,0.0,0.0,0.0,-0.2355278730392456,-0.4582875072956085,0.7499771118164062,0.4200000464916229,1.0,3.5934988318331307e-06,-2.2624899429501966e-06,-5.653167178820695e-08,0.0002670465619303286,0.0002677509910427034,-0.00010416633449494839,-0.0017431797459721565,0.004214051645249128,-0.0001278916170122102,-0.47567540407180786,0.7382917404174805,0.6134570837020874,-0.2760615944862366,0.7405327558517456,-5.853453636169434,0.43666762113571167,0.7089477777481079,0.42000001668930054,-0.7852655053138733,2.9999938011169434,-0.6143429279327393,-3.0000016689300537,-0.09989379346370697,-0.11098461598157883,-0.1218993216753006,-0.13264556229114532,-0.9931091070175171,-0.9826012849807739,-0.9211549162864685,-0.8644678592681885
0.3,0.05689743161201477,0.2007056474685669,0.0,0.935156524181366,0.0,0.0,-0.35423481464385986,-0.2435140460729599,0.11088129878044128,0.0,0.0,0.0,-1.5454297065734863,-0.45828747749328613,0.7499770522117615,0.4200000464916229,0.9999999403953552,3.7250752029649448e-06,-2.235918827864225e-06,3.828830017482687e-07,0.0002647972432896495,0.00026673058164305985,-0.00010453932918608189,-0.0017189180944114923,0.004166692495346069,-0.0001301649317611009,-0.4759085774421692,0.7479351758956909,0.5186988115310669,0.34564006328582764,0.37823837995529175,-5.362419605255127,0.43666762113571167,0.7089477777481079,0.42000001668930054,-0.7352567315101624,3.000001907348633,-0.6643714904785156,-3.000002145767212,-0.11741429567337036,-0.12829488515853882,-0.13906052708625793,-0.1496942639350891,-1.0186667442321777,-1.0141123533248901,-1.0106515884399414,-1.00788414478302
0.31666666666666665,0.05030975490808487,0.2011944055557251,0.0,0.9388080835342407,0.0,0.0,-0.3444406986236572,-0.33637502789497375,-0.060877032577991486,0.0,0.0,0.0,2.026042938232422,-0.4582875072956085,0.7499770522117615,0.4200000464916229,0.9999999403953552,3.5577868402469903e-06,-2.278708961966913e-06,2.2836172774987062e-07,0.00026598546537570655,0.0002665847132448107,-0.00010398868471384048,-0.0017240389715880156,0.0041935034096241,-0.0001276976545341313,-0.46761155128479004,0.7478953003883362,0.43277090787887573,0.6900333166122437,-0.2966631352901459,-5.094174385070801,0.43666762113571167,0.7089477777481079,0.42000001668930054,-0.6852497458457947,2.9999914169311523,-0.714398205280304,-3.0,-0.13429436087608337,-0.14507853984832764,-0.15579140186309814,-0.166394904255867,-0.7398627400398254,-0.7926584482192993,-0.8409320712089539,-0.8833358883857727
0.3333333333333333,0.04308861121535301,0.1985616236925125,0.0,0.9366364479064941,0.0,0.0,-0.35030296444892883,-0.4797970950603485,-0.19964231550693512,0.0,0.0,0.0,-1.632514238357544,-0.4582873284816742,0.749977171421051,0.4200000464916229,0.9999999403953552,1.8484631709725363e-06,-9.620167418233905e-08,4.1003072936973695e-08,-1.0549401849857531e-05,0.00011098662798758596,-4.7790585085749626e-05,0.001518018078058958,-0.003705354640260339,-0.00019574812904465944,-0.46808314323425293,0.7525094747543335,0.4276832938194275,0.08763569593429565,0.44358235597610474,-0.18761691451072693,0.43666762113571167,0.7089477777481079,0.42000001668930054,-0.6352447867393494,2.999988317489624,-0.7648207545280457,-2.9999589920043945,-0.13951854407787323,-0.15150950849056244,-0.16294097900390625,-0.17372320592403412,-0.2781422734260559,-0.34281986951828003,-0.3806174695491791,-0.388389527797699
0.35,0.033647630363702774,0.19352129101753235,0.0,0.9399499297142029,0.0,0.0,-0.34131231904029846,-0.610160231590271,-0.34267497062683105,0.0,0.0,0.0,2.020826578140259,-0.4565421938896179,0.7534627318382263,0.42000019550323486,0.9991329312324524,7.679968803131487e-07,-1.0876051419472788e-05,-0.04163195192813873,0.1342880129814148,0.24368856847286224,-1.4069839380681515e-05,0.00012272101594135165,0.0006060839514248073,-5.134688377380371,-0.4645463824272156,0.7590107917785645,0.4241543114185333,0.357287734746933,0.370817631483078,-0.20827817916870117,0.43666762113571167,0.7089477777481079,0.42000001668930054,-0.5852395296096802,2.999976873397827,-0.8148657083511353,-2.9999938011169434,-0.1467716544866562,-0.15852658450603485,-0.1692904382944107,-0.1789495199918747,-0.505755603313446,-0.43860703706741333,-0.34676676988601685,-0.22981461882591248
0.36666666666666664,0.02193458564579487,0.18618375062942505,0.0,0.9376457333564758,0.0,0.0,-0.34759238362312317,-0.7456981539726257,-0.4796561896800995,0.0,0.0,0.0,-1.7370498180389404,-0.45216891169548035,0.7609290480613708,0.42003577947616577,0.9925526976585388,0.0007873887661844492,4.304347748984583e-05,-0.12181317061185837,0.4046957790851593,0.63165283203125,0.013193410821259022,0.8798342347145081,-0.29084330797195435,-1.4323906898498535,-0.45737266540527344,0.7660837173461914,0.4213276505470276,0.5395392775535583,0.5486544370651245,-0.14064252376556396,0.43666762113571167,0.7089477777481079,0.42000001668930054,-0.5352345705032349,2.999992847442627,-0.8649160861968994,-2.9999890327453613,-0.15595896542072296,-0.16616494953632355,-0.174967423081398,-0.1822550892829895,-0.5460692048072815,-0.4367228150367737,-0.3042820990085602,-0.14918866753578186
0.3833333333333333,0.007983770221471786,0.17659540474414825,0.0,0.9325820207595825,0.0,0.0,-0.360958069562912,-0.8772318959236145,-0.6150099635124207,0.0,0.0,0.0,-1.6907904148101807,-0.442930668592453,0.7744399905204773,0.4200003147125244,0.9887941479682922,1.3469971236190759e-05,-5.991620582790347e-06,-0.1492854505777359,0.7445086240768433,1.0278823375701904,-0.0007650948828086257,-0.0479283332824707,0.020018400624394417,-4.9699506759643555,-0.4466407597064972,0.7782434225082397,0.4196583032608032,0.7670092582702637,0.9152164459228516,-0.06290487945079803,0.43666762113571167,0.7089477777481079,0.42000001668930054,-0.48523008823394775,2.99961256980896,-0.9149577021598816,-3.000540256500244,-0.16538064181804657,-0.17333856225013733,-0.17948493361473083,-0.18372979760169983,-0.5337967872619629,-0.3850937783718109,-0.21219195425510406,-0.016717486083507538
0.4,-0.0037181121297180653,0.16433361172676086,0.0,0.920016884803772,0.0,0.0,-0.39187875390052795,-0.653827428817749,-0.7824305295944214,0.0,0.0,0.0,-4.771448612213135,-0.42841020226478577,0.7939630746841431,0.4200993776321411,0.9819220304489136,-0.0024418598040938377,0.0003706678980961442,-0.189269557595253,1.0557891130447388,1.3816579580307007,0.04512815177440643,-2.143089771270752,0.7754618525505066,-6.455209732055664,-0.43162259459495544,0.7958149313926697,0.4200132489204407,1.078012228012085,1.2539966106414795,0.12099038064479828,0.43666762113571167,0.7089477777481079,0.42000001668930054,-0.43519431352615356,3.0000007152557373,-0.9649848937988281,-2.9999911785125732,-0.17435452342033386,-0.1794707477092743,-0.1823417991399765,-0.18292266130447388,-0.4987791180610657,-0.318905770778656,-0.11325769126415253,0.11497677117586136
0.4166666666666667,-0.011606781743466854,0.14908869564533234,0.0,0.8952808380126953,0.0,0.0,-0.44550225138664246,-0.404242604970932,-0.9693371057510376,0.0,0.0,0.0,-7.919764518737793,-0.4030442237854004,0.8203441500663757,0.423173189163208,0.9688220620155334,-0.014314104802906513,-0.022143211215734482,-0.24635043740272522,2.1735146045684814,1.8442811965942383,0.029187865555286407,33.17061996459961,-14.474681854248047,9.929214477539062,-0.40608638525009155,0.8230456709861755,0.4225708246231079,1.9597806930541992,1.8826966285705566,0.43513810634613037,0.43666762113571167,0.7089477777481079,0.42000001668930054,-0.39368778467178345,1.4968012571334839,-1.0150034427642822,-3.0000014305114746,-0.1832132637500763,-0.18509748578071594,-0.18434768915176392,-0.18098777532577515,-0.5389830470085144,-0.3356820344924927,-0.11301904171705246,0.12433439493179321
0.43333333333333335,-0.015697916969656944,0.13105693459510803,0.0,0.8554033637046814,0.0,0.0,-0.5179623961448669,-0.17027318477630615,-1.1513268947601318,0.0,0.0,0.0,-10.55354118347168,-0.34755468368530273,0.8601211309432983,0.42913925647735596,0.9514166712760925,0.0376589372754097,-0.05452105775475502,-0.3006915748119354,4.7660746574401855,2.4050118923187256,0.4558524489402771,20.62517738342285,-13.962103843688965,19.130064010620117,-0.3499472141265869,0.8628666400909424,0.4286167621612549,4.385414123535156,2.8800432682037354,0.5330252647399902,0.43666762113571167,0.7089477777481079,0.42000001668930054,-0.37547019124031067,0.9498124122619629,-0.9775989055633545,2.9962053298950195,-0.1955449879169464,-0.19292989373207092,-0.18762701749801636,-0.1797792613506317,-0.7726818919181824,-0.4920601546764374,-0.21914425492286682,0.03845066949725151
0.45,-0.024057134985923767,0.11920549720525742,0.0,0.7960991263389587,0.0,0.0,-0.6051661968231201,-0.6061612963676453,-0.5602491497993469,0.0,0.0,0.0,-13.608551979064941,-0.2515590488910675,0.9023162722587585,0.44047045707702637,0.9154472947120667,0.113622285425663,-0.08191832154989243,-0.3772737681865692,7.096775054931641,1.8217719793319702,0.711708664894104,15.087346076965332,-19.602989196777344,18.665613174438477,-0.2547316551208496,0.9054679870605469,0.43989741802215576,6.872251510620117,2.4349498748779297,0.8175944685935974,0.43666762113571167,0.7089477777481079,0.42000001668930054,-0.3592597544193268,0.9865812063217163,-0.9275825619697571,2.99371337890625,-0.21182440221309662,-0.20802916586399078,-0.19866155087947845,-0.18504254519939423,-0.931915283203125,-0.914806604385376,-0.8013426065444946,-0.4426860511302948
0.4666666666666667,-0.029711907729506493,0.1131996437907219,0.0,0.741294264793396,0.0,0.0,-0.6711801886558533,-0.3494910001754761,-0.4104377329349518,0.0,0.0,0.0,-8.829710960388184,-0.13739344477653503,0.9259499311447144,0.4534199833869934,0.890224039554596,0.12723922729492188,-0.08997676521539688,-0.4280368983745575,7.1354193687438965,0.23589125275611877,0.7995266318321228,2.396418809890747,-13.580717086791992,14.531168937683105,-0.13863593339920044,0.9325361251831055,0.4531593322753906,6.950799942016602,1.006507158279419,0.8702410459518433,0.43666762113571167,0.7089477777481079,0.42000001668930054,-0.34212249517440796,1.0045976638793945,-0.9531264901161194,-3.000001907348633,-0.22754386067390442,-0.22381123900413513,-0.2135523408651352,-0.19284053146839142,-0.6327112913131714,-0.6998072862625122,-0.749094545841217,-0.381635844707489
0.48333333333333334,-0.035795439034700394,0.10013008862733841,0.0,0.7098687291145325,0.0,0.0,-0.704334020614624,-0.33543747663497925,-0.7803792953491211,0.0,0.0,0.0,-4.226949214935303,-0.018482152372598648,0.9353084564208984,0.4651602506637573,0.8119987845420837,0.14539149403572083,-0.08162340521812439,-0.5593360662460327,7.151601791381836,-0.9439746141433716,0.5654921531677246,-7.420135974884033,5.737887382507324,1.9960423707962036,-0.02171230874955654,0.9416177272796631,0.46387192606925964,7.133933067321777,-0.21234509348869324,0.5985509157180786,0.43666762113571167,0.7089477777481079,0.42000001668930054,-0.32470643520355225,0.9042726755142212,-1.0031503438949585,-2.999818801879883,-0.23547546565532684,-0.23146949708461761,-0.22084710001945496,-0.1943664699792862,-0.6698341965675354,-0.5241008996963501,-0.38902485370635986,-0.01898333616554737
0.5,-0.03883712738752365,0.0928543284535408,0.0,0.7019557356834412,0.0,0.0,-0.7122205495834351,-0.16703709959983826,-0.32571330666542053,0.0,0.0,0.0,-0.2859034240245819,0.08883719146251678,0.9193629026412964,0.472799688577652,0.7376646399497986,0.12345998734235764,-0.06884009391069412,-0.6602041125297546,5.500284671783447,-2.3780760765075684,0.06072632223367691,-10.97661018371582,-17.607580184936523,24.601112365722656,0.08683275431394577,0.9278321266174316,0.4710407853126526,6.007565498352051,-1.33547842502594,0.45294538140296936,0.43666762113571167,0.7089477777481079,0.42000001668930054,-0.31365475058555603,0.29882171750068665,-1.053173542022705,-3.0000064373016357,-0.24001850187778473,-0.24001431465148926,-0.23076479136943817,-0.19818659126758575,-0.047670878469944,-0.03218620643019676,-0.5670972466468811,-0.2721744179725647
0.5166666666666666,-0.03894246369600296,0.0823783427476883,0.0,0.6848253607749939,0.0,0.0,-0.7287071943283081,0.06551579385995865,-0.6164326667785645,0.0,0.0,0.0,-3.605433225631714,0.1786106526851654,0.8926621079444885,0.4722462296485901,0.6717673540115356,0.06953350454568863,-0.08513740450143814,-0.7325607538223267,4.714048385620117,-2.558859348297119,-0.2132941484451294,-5.059892654418945,-5.850584030151367,10.33400821685791,0.17659911513328552,0.9019325971603394,0.47235676646232605,5.053772449493408,-2.107125759124756,-0.05007375404238701,0.43666762113571167,0.7089477777481079,0.42000001668930054,-0.3098287582397461,0.1854170858860016,-1.1031955480575562,-3.0000014305114746,-0.2367088794708252,-0.2362973839044571,-0.2344144582748413,-0.1986660659313202,0.03948930278420448,0.15105250477790833,-0.1427774280309677,0.02134806104004383
0.5333333333333333,-0.03591952100396156,0.07652774453163147,0.0,0.6813674569129944,0.0,0.0,-0.7319415211677551,0.20528589189052582,-0.29704949259757996,0.0,0.0,0.0,0.3853985369205475,0.2537398338317871,0.8536061644554138,0.46708130836486816,0.6110341548919678,0.022283202037215233,-0.08025738596916199,-0.7872098684310913,3.86283016204834,-2.831542730331421,-0.6200671195983887,-12.817070007324219,1.774044156074524,3.546502113342285,0.2526106834411621,0.8627796173095703,0.46805495023727417,4.1886138916015625,-2.536712169647217,-0.34358683228492737,0.43666762113571167,0.7089477777481079,0.42000001668930054,-0.3019907474517822,0.6385053396224976,-1.1532176733016968,-2.9999990463256836,-0.2376001626253128,-0.23478427529335022,-0.23622338473796844,-0.19881385564804077,0.0706610158085823,0.19268512725830078,0.03239553049206734,0.04116478189826012
0.55,-0.030556384474039078,0.0668039545416832,0.0,0.6676531434059143,0.0,0.0,-0.7444725036621094,0.33465126156806946,-0.6379233598709106,0.0,0.0,0.0,-3.0894556045532227,0.3170642852783203,0.8130596280097961,0.45342177152633667,0.5188884735107422,-0.06170231103897095,-0.10887500643730164,-0.8456320762634277,3.2302913665771484,-2.332301378250122,-0.6741268038749695,1.9450362920761108,11.702132225036621,-7.954823970794678,0.3153929114341736,0.8239257335662842,0.4578753709793091,3.4019174575805664,-2.394139289855957,-0.8498318195343018,0.43666762113571167,0.7089477777481079,0.42000001668930054,-0.2865065336227417,1.191725730895996,-1.2032397985458374,-2.9997665882110596,-0.2313099056482315,-0.227497860789299,-0.23161867260932922,-0.19594129920005798,0.4229227602481842,0.4753856062889099,0.3549844026565552,0.18957936763763428
0.5666666666666667,-0.022695060819387436,0.0612662211060524,0.0,0.6661591529846191,0.0,0.0,-0.7458096146583557,0.4928606450557709,-0.29271528124809265,0.0,0.0,0.0,0.6354961395263672,0.3659917116165161,0.7723949551582336,0.4393914043903351,0.4719003736972809,-0.10073257237672806,-0.08536575734615326,-0.8717084527015686,2.501099109649658,-3.023568868637085,-0.681689977645874,-3.8160879611968994,5.510735511779785,13.33350658416748,0.36582836508750916,0.7830021381378174,0.4440494775772095,2.6943583488464355,-2.362140655517578,-0.8790712952613831,0.43666762113571167,0.7089477777481079,0.42000001668930054,-0.2709825038909912,0.4595652222633362,-1.253261923789978,-3.0000014305114746,-0.22735731303691864,-0.2223818600177765,-0.22748595476150513,-0.19501379132270813,0.3371071517467499,0.35852155089378357,0.2963877022266388,0.037857551127672195
0.5833333333333334,-0.013095815666019917,0.05931486561894417,0.0,0.654679000377655,0.0,0.0,-0.7559069991111755,0.6205565333366394,-0.056924011558294296,0.0,0.0,0.0,-2.722623825073242,0.40560561418533325,0.7395985722541809,0.42327141761779785,0.4538952708244324,-0.07707764208316803,-0.03664752468466759,-0.8869583010673523,1.9858741760253906,-1.35439932346344,-0.13762053847312927,3.2164809703826904,-7.5679707527160645,-2.68880295753479,0.4048835039138794,0.7488746643066406,0.42629700899124146,1.7210993766784668,-1.6353628635406494,-0.8092623949050903,0.43666762113571167,0.7089477777481079,0.42000001668930054,-0.2658821642398834,0.50236976146698,-1.24837064743042,2.9987661838531494,-0.21992278099060059,-0.2157779186964035,-0.22232197225093842,-0.19525302946567535,0.5437794327735901,0.4510114789009094,0.3586874306201935,-0.006320665590465069
0.6,-0.0063920943066477776,0.0563112273812294,0.0,0.6556858420372009,0.0,0.0,-0.7550337910652161,0.31995248794555664,-0.21190546452999115,0.0,0.0,0.0,1.0596745014190674,0.42585593461990356,0.7210547924041748,0.42345213890075684,0.4482726454734802,-0.07441478967666626,-0.017003923654556274,-0.8906317353248596,0.7539164423942566,-1.2943707704544067,0.3043579161167145,5.333082675933838,11.983999252319336,3.7756786346435547,0.42479240894317627,0.7297176122665405,0.426687628030777,0.8429553508758545,-0.9433765411376953,0.1259462833404541,0.43666762113571167,0.7089477777481079,0.42000001668930054,-0.2551719546318054,0.5566107630729675,-1.2684667110443115,-2.996884346008301,-0.20830312371253967,-0.20618143677711487,-0.21420703828334808,-0.1935429722070694,0.7346402406692505,0.6038251519203186,0.5262451171875,0.1319035291671753
0.6166666666666667,0.0022034526336938143,0.05671823397278786,0.0,0.6456246972084045,0.0,0.0,-0.7636548280715942,0.5071688294410706,0.056509923189878464,0.0,0.0,0.0,-2.4394290447235107,0.43744635581970215,0.7094711661338806,0.42276281118392944,0.46891602873802185,-0.06030343472957611,-0.017649056389927864,-0.8810049295425415,0.37656882405281067,-0.6277483105659485,0.16279739141464233,-0.2516055405139923,6.781961917877197,11.154757499694824,0.4355384111404419,0.717795729637146,0.42597806453704834,0.41645100712776184,-0.33709508180618286,0.1227295994758606,0.43666762113571167,0.7089477777481079,0.42000001668930054,-0.2507374584674835,0.025300147011876106,-1.2303823232650757,3.000002145767212,-0.19767756760120392,-0.19787123799324036,-0.20698662102222443,-0.19279538094997406,0.725145161151886,0.5584279894828796,0.4838992655277252,0.08861982077360153
0.6333333333333333,0.012160501442849636,0.05253274738788605,0.0,0.6482923626899719,0.0,0.0,-0.7613915205001831,0.5625972747802734,-0.233484148979187,0.0,0.0,0.0,1.3097821474075317,0.44239839911460876,0.7040603756904602,0.42303553223609924,0.4925335645675659,-0.05985293909907341,-0.005316068418323994,-0.8682165145874023,0.09091363847255707,-0.24623961746692657,0.0018998074810951948,-2.1920032501220703,-0.3180525302886963,3.4763009548187256,0.4387734532356262,0.713097333908081,0.4271417260169983,-0.03434377908706665,-0.16029387712478638,0.1776220202445984,0.43666762113571167,0.7089477777481079,0.42000001668930054,-0.28683003783226013,-2.9999959468841553,-1.2513033151626587,-2.9992659091949463,-0.18347951769828796,-0.18627505004405975,-0.1965898722410202,-0.18886546790599823,0.6760521531105042,0.5861322283744812,0.5642650127410889,0.22940248250961304
0.65,0.024003034457564354,0.052927300333976746,0.0,0.6396740078926086,0.0,0.0,-0.7686463594436646,0.7329620718955994,0.04223213344812393,0.0,0.0,0.0,-2.3514182567596436,0.4434763491153717,0.7007057070732117,0.42173850536346436,0.5151394605636597,-0.03889305144548416,-0.023409966379404068,-0.8559033870697021,0.053102489560842514,-0.17546425759792328,-0.08088680356740952,3.346532106399536,-2.384171485900879,1.2449541091918945,0.44086021184921265,0.713559627532959,0.4303629696369171,0.22837534546852112,0.19438347220420837,0.2189449667930603,0.43666762113571167,0.7089477777481079,0.42000001668930054,-0.33345314860343933,-2.5696098804473877,-1.3012534379959106,-2.9987123012542725,-0.17307566106319427,-0.17771267890930176,-0.18849393725395203,-0.18610920011997223,0.7509133219718933,0.6016032099723816,0.5460050702095032,0.21994845569133759
0.6666666666666666,0.037536654621362686,0.052371978759765625,0.0,0.6430022120475769,0.0,0.0,-0.7658643126487732,0.848160982131958,-0.08809257298707962,0.0,0.0,0.0,1.4459425210952759,0.44340020418167114,0.6987677812576294,0.42001280188560486,0.5374451875686646,0.00010309033677913249,-0.00016961416986305267,-0.843298614025116,-0.11810431629419327,-0.01050152163952589,-0.0005599444266408682,0.042629458010196686,0.01382423471659422,1.838464379310608,0.44065842032432556,0.7159527540206909,0.43390539288520813,-0.14325585961341858,0.12399987876415253,0.22611004114151,0.43666762113571167,0.7089477777481079,0.42000001668930054,-0.38318461179733276,-2.9999988079071045,-1.3512463569641113,-2.999917984008789,-0.16298893094062805,-0.16940850019454956,-0.1804269552230835,-0.18253843486309052,0.501047670841217,0.4270526170730591,0.4426802694797516,0.21779347956180573
0.6833333333333333,0.04872283712029457,0.05293256789445877,0.0,0.6677844524383545,0.0,0.0,-0.7443546652793884,0.6100172996520996,0.08575566112995148,0.0,0.0,0.0,4.82396936416626,0.44227269291877747,0.6986580491065979,0.42003703117370605,0.5420818328857422,0.0005366611294448376,-0.0007943538366816938,-0.8403251767158508,-0.0907163992524147,0.012636908330023289,0.027154581621289253,-0.5583525896072388,-1.2424105405807495,-2.864774227142334,0.4394315779209137,0.7172288298606873,0.4375036656856537,-0.10922957956790924,0.14129775762557983,0.22041039168834686,0.43666762113571167,0.7089477777481079,0.42000001668930054,-0.43319448828697205,-2.9999523162841797,-1.4012112617492676,-2.9987106323242188,-0.15604041516780853,-0.1633448451757431,-0.17375323176383972,-0.17886517941951752,0.38692882657051086,0.3462143838405609,0.3924722969532013,0.2436755746603012
0.7,0.05992177501320839,0.05131412297487259,0.0,0.6786174774169922,0.0,0.0,-0.7344918847084045,0.7003316283226013,-0.15652057528495789,0.0,0.0,0.0,0.7166514992713928,0.4410770833492279,0.6988467574119568,0.41999998688697815,0.5305435061454773,4.054003966302844e-06,5.79616289542173e-06,-0.8476576805114746,-0.04943730682134628,0.002732685999944806,-0.00016916784807108343,-0.007611011620610952,0.002933685900643468,-1.0826948881149292,0.43927961587905884,0.7203576564788818,0.44232624769210815,-0.03597964346408844,0.18290486931800842,0.3097958564758301,0.43666762113571167,0.7089477777481079,0.42000001668930054,-0.48320528864860535,-2.9906790256500244,-1.4511748552322388,-3.000060796737671,-0.15106695890426636,-0.15825222432613373,-0.1670779585838318,-0.17339274287223816,0.21527743339538574,0.26846882700920105,0.4069017767906189,0.40157350897789
0.7166666666666667,0.07268518209457397,0.04624585434794426,0.0,0.6668354868888855,0.0,0.0,-0.7452049255371094,0.7972724437713623,-0.37117454409599304,0.0,0.0,0.0,-2.8252487182617188,0.440956175327301,0.6988427639007568,0.4200000762939453,0.5294684171676636,-6.487814971478656e-06,-7.114846084732562e-06,-0.8483296632766724,-0.00016957390471361578,-0.0005346837569959462,-0.00013631582260131836,0.015189019031822681,-0.02105042338371277,-0.0018501410959288478,0.4440300166606903,0.7241489887237549,0.4520382583141327,0.5580157041549683,0.2158249020576477,0.9639853239059448,0.43666762113571167,0.7089477777481079,0.42000001668930054,-0.5332179665565491,-2.999980926513672,-1.5011930465698242,-3.0,-0.1500340849161148,-0.15588197112083435,-0.16201451420783997,-0.167627215385437,-0.022934505715966225,0.07779403030872345,0.2547869086265564,0.33357131481170654
0.7333333333333333,0.08857206255197525,0.045696455985307693,0.0,0.6327799558639526,0.0,0.0,-0.7743316292762756,0.9302639365196228,-0.011339539662003517,0.0,0.0,0.0,-6.229888916015625,0.44095662236213684,0.6988425254821777,0.41999998688697815,0.5294678807258606,-2.7084538487542886e-06,-3.7423301364469808e-06,-0.848330020904541,-4.986158455722034e-05,-0.00031106718233786523,-8.573057129979134e-05,0.008374987170100212,-0.0034931686241179705,-0.0007815337739884853,0.46140414476394653,0.7243176698684692,0.47455692291259766,1.567509412765503,-0.06720264256000519,1.8297629356384277,0.43666762113571167,0.7089477777481079,0.42000001668930054,-0.583229660987854,-2.9999327659606934,-1.5512113571166992,-2.9999938011169434,-0.15717056393623352,-0.16020864248275757,-0.16241399943828583,-0.1654685139656067,-0.3940334916114807,-0.23782698810100555,-0.018420498818159103,0.139910489320755
0.75,0.101148821413517,0.046700991690158844,0.0,0.6130008101463318,0.0,0.0,-0.7900822758674622,0.6825568675994873,0.07794972509145737,0.0,0.0,0.0,-1.968042016029358,0.44095662236213684,0.6988425254821777,0.41999998688697815,0.5294679403305054,-3.2954185371636413e-06,-3.941903742088471e-06,-0.8483299016952515,-5.677823719452135e-05,-0.00031338774715550244,-8.818740025162697e-05,0.008433496579527855,-0.0035926259588450193,-0.0007771989912725985,0.48867353796958923,0.7267459034919739,0.5079520344734192,1.649880051612854,0.3510452210903168,2.141817569732666,0.43666762113571167,0.7089477777481079,0.42000001668930054,-0.6028429865837097,0.36720001697540283,-1.601226806640625,-2.9999988079071045,-0.16191226243972778,-0.16335488855838776,-0.1630881279706955,-0.16444818675518036,-0.16656138002872467,-0.12851200997829437,-0.04801400378346443,-0.0016293261433020234
0.7666666666666666,0.10901019722223282,0.049525272101163864,0.0,0.6185595989227295,0.0,0.0,-0.7857378721237183,0.39761173725128174,0.22144079208374023,0.0,0.0,0.0,1.7178224325180054,0.44095659255981445,0.6988425254821777,0.41999998688697815,0.529467761516571,-3.2548641684115864e-06,-3.829618435702287e-06,-0.8483299612998962,-5.916488225921057e-05,-0.00031328474869951606,-8.900044485926628e-05,0.008424431085586548,-0.0036013454664498568,-0.0007730349316261709,0.5098615884780884,0.7332639694213867,0.5383967757225037,0.8768142461776733,0.46306008100509644,1.5694177150726318,0.43666762113571167,0.7089477777481079,0.42000001668930054,-0.5749679207801819,2.746734380722046,-1.5622105598449707,3.0,-0.16318155825138092,-0.16416460275650024,-0.16286952793598175,-0.16357558965682983,-0.009113896638154984,0.010225341655313969,0.05481449142098427,0.08584534376859665
0.7833333333333333,0.11273059993982315,0.048298995941877365,0.0,0.6123545169830322,0.0,0.0,-0.7905832529067993,0.1880205124616623,-0.1419357806444168,0.0,0.0,0.0,-1.865878939628601,0.44095659255981445,0.6988425254821777,0.41999998688697815,0.5294679999351501,-3.298312094557332e-06,-3.8258035601757e-06,-0.8483298420906067,-5.86906389798969e-05,-0.0003131158882752061,-8.878251537680626e-05,0.00842148344963789,-0.003595353802666068,-0.0007731590885668993,0.5169777274131775,0.7421258687973022,0.5577670335769653,-0.06926602870225906,0.5291921496391296,0.9292213916778564,0.43666762113571167,0.7089477777481079,0.42000001668930054,-0.5455496311187744,0.9171297550201416,-1.5121541023254395,3.0000009536743164,-0.1616509109735489,-0.16247759759426117,-0.16074694693088531,-0.16111509501934052,0.04792484641075134,0.07368646562099457,0.10650995373725891,0.13718852400779724
0.8,0.11323888599872589,0.05204709246754646,0.0,0.6185588240623474,0.0,0.0,-0.785738468170166,-0.02157040685415268,0.3633976876735687,0.0,0.0,0.0,1.8256032466888428,0.44095659255981445,0.6988425254821777,0.41999998688697815,0.5294678807258606,-3.296426939414232e-06,-3.830425157502759e-06,-0.8483299612998962,-5.869425513083115e-05,-0.0003131313424091786,-8.878554217517376e-05,0.008421935141086578,-0.0035958406515419483,-0.0007732125231996179,0.508345365524292,0.7494337558746338,0.5694640874862671,-0.8685084581375122,0.47038328647613525,0.5150833129882812,0.43666762113571167,0.7089477777481079,0.42000001668930054,-0.512244462966919,2.882117748260498,-1.462151050567627,3.0,-0.16606830060482025,-0.1653003841638565,-0.16207347810268402,-0.16102449595928192,-0.3084234595298767,-0.20571768283843994,-0.1157955601811409,-0.027596652507781982
0.8166666666666667,0.1149006336927414,0.053086623549461365,0.0,0.6130271553993225,0.0,0.0,-0.7900618314743042,0.12885770201683044,0.07657180726528168,0.0,0.0,0.0,-1.5438677072525024,0.44095659255981445,0.6988425254821777,0.41999998688697815,0.5294678807258606,-3.0582423278247006e-06,-3.675649850265472e-06,-0.8483299016952515,-5.954323205514811e-05,-0.0003131975245196372,-8.913478814065456e-05,0.00842041615396738,-0.0035996530205011368,-0.0007721104193478823,0.4885486364364624,0.7571005821228027,0.5713636875152588,-1.5984865427017212,0.4027625024318695,-0.1044263243675232,0.43666762113571167,0.7089477777481079,0.42000001668930054,-0.5048574209213257,-1.614207148551941,-1.412097692489624,3.0,-0.16826428472995758,-0.16642040014266968,-0.1623387634754181,-0.1603478044271469,-0.20225828886032104,-0.12529534101486206,-0.06520698219537735,-5.820766091346741e-10
0.8333333333333334,0.11840032786130905,0.05165514722466469,0.0,0.6202959418296814,0.0,0.0,-0.7843678593635559,0.2531866431236267,-0.1569945365190506,0.0,0.0,0.0,1.8934897184371948,0.44095662236213684,0.6988425254821777,0.41999998688697815,0.5294679999351501,-3.107967131654732e-06,-3.7907968817307847e-06,-0.8483298420906067,-5.721007619285956e-05,-0.0003132413257844746,-8.833920583128929e-05,0.008427326567471027,-0.0035897186025977135,-0.0007760264561511576,0.4659201204776764,0.7631610631942749,0.5682631731033325,-1.1395913362503052,0.38211607933044434,-0.20814678072929382,0.43666762113571167,0.7089477777481079,0.42000001668930054,-0.5080153942108154,1.0099503993988037,-1.4299877882003784,-2.9999988079071045,-0.17202132940292358,-0.1687120944261551,-0.16342823207378387,-0.1600475162267685,-0.17885175347328186,-0.10080202668905258,-0.03665323555469513,0.045191459357738495
0.85,0.12384510040283203,0.04694785550236702,0.0,0.6151410341262817,0.0,0.0,-0.7884171009063721,0.3640108108520508,-0.3445376455783844,0.0,0.0,0.0,-1.682770848274231,0.44095659255981445,0.6988425254821777,0.41999998688697815,0.5294679999351501,-3.1151969324128004e-06,-3.829304205282824e-06,-0.8483299016952515,-5.773082739324309e-05,-0.0003124806971754879,-8.795293979346752e-05,0.00841595884412527,-0.003594517009332776,-0.00077224982669577,0.44934821128845215,0.7666628360748291,0.5612750053405762,-0.825840950012207,0.031334683299064636,-0.4228942096233368,0.43666762113571167,0.7089477777481079,0.42000001668930054,-0.5329276919364929,-3.0000007152557373,-1.391459345817566,3.0000007152557373,-0.1754446029663086,-0.17069359123706818,-0.16409967839717865,-0.15897905826568604,-0.19432885944843292,-0.09769412875175476,-0.0057454342022538185,0.1168043315410614
0.8666666666666667,0.13184033334255219,0.041283607482910156,0.0,0.5885650515556335,0.0,0.0,-0.8084498643875122,0.5268217921257019,-0.3507431447505951,0.0,0.0,0.0,-4.909727573394775,0.44095659255981445,0.6988425254821777,0.41999998688697815,0.5294678211212158,-3.141055003652582e-06,-4.144739250477869e-06,-0.8483299016952515,-5.753390723839402e-05,-0.00031224306439980865,-8.784281089901924e-05,0.008409613743424416,-0.003586956299841404,-0.000771723163779825,0.4432082772254944,0.7636324167251587,0.5567461848258972,0.08044267445802689,-0.37064892053604126,0.029916198924183846,0.43666762113571167,0.7089477777481079,0.42000001668930054,-0.5759696364402771,-2.198289155960083,-1.4097691774368286,-2.999992847442627,-0.1795727163553238,-0.17330382764339447,-0.16521234810352325,-0.15801891684532166,-0.2470245212316513,-0.16150103509426117,-0.07572710514068604,0.046244315803050995
0.8833333333333333,0.1422109305858612,0.03860541805624962,0.0,0.5775958895683289,0.0,0.0,-0.8163228631019592,0.6586211919784546,-0.07784917950630188,0.0,0.0,0.0,-0.6144744157791138,0.44095659255981445,0.6988425254821777,0.41999998688697815,0.5294678807258606,-3.07448067360383e-06,-3.750736595975468e-06,-0.8483299612998962,-5.919611066929065e-05,-0.0003131616394966841,-8.901138789951801e-05,0.008420279249548912,-0.0035974010825157166,-0.0007725749164819717,0.44686102867126465,0.7616503238677979,0.5596164464950562,0.31737783551216125,0.033985041081905365,0.2650842070579529,0.43666762113571167,0.7089477777481079,0.42000001668930054,-0.5845988988876343,0.8985393643379211,-1.4597874879837036,-3.0,-0.18259045481681824,-0.17580343782901764,-0.1672087013721466,-0.15892736613750458,-0.09961214661598206,-0.11468573659658432,-0.1336396038532257,-0.120362289249897
0.9,0.14941459894180298,0.03193136677145958,0.0,0.5917474031448364,0.0,0.0,-0.8061234354972839,0.36002790927886963,-0.42778366804122925,0.0,0.0,0.0,2.767397880554199,0.44095662236213684,0.6988425254821777,0.41999998688697815,0.5294679999351501,-3.1365793802251574e-06,-3.845445007755188e-06,-0.8483297824859619,-5.7082164858002216e-05,-0.00031322857830673456,-8.828169666230679e-05,0.008427713997662067,-0.0035890983417630196,-0.0007761569577269256,0.4517800509929657,0.762160062789917,0.5605795383453369,0.19492292404174805,-0.11107954382896423,-0.17008119821548462,0.43666762113571167,0.7089477777481079,0.42000001668930054,-0.5835445523262024,-0.6410749554634094,-1.4211699962615967,3.000000476837158,-0.1803564429283142,-0.1740315705537796,-0.16600382328033447,-0.15781602263450623,0.03380860760807991,0.04304584860801697,0.040728624910116196,0.058751851320266724
0.9166666666666666,0.1529354602098465,0.029565660282969475,0.0,0.5915434956550598,0.0,0.0,-0.8062731027603149,0.14618079364299774,-0.12816990911960602,0.0,0.0,0.0,-0.8434851765632629,0.44095662236213684,0.6988425254821777,0.41999998688697815,0.5294678807258606,-3.13563418785634e-06,-3.841773377644131e-06,-0.8483299612998962,-5.6134769693017006e-05,-0.0003125600051134825,-8.747284300625324e-05,0.008420615456998348,-0.0035870533902198076,-0.0007751677767373621,0.457130491733551,0.7571671009063721,0.5537089109420776,0.5649769306182861,-0.2872864305973053,-0.4935847222805023,0.43666762113571167,0.7089477777481079,0.42000001668930054,-0.5965233445167542,-0.8827880620956421,-1.371117353439331,3.0,-0.18373210728168488,-0.1766180694103241,-0.16802221536636353,-0.15901367366313934,-0.005647807847708464,-0.0102554801851511,-0.021132374182343483,-0.011501713655889034
