vladlanda/robotic-transformer/data/env_000_episode_0211.csv
sim_time_s,robot_box_x,robot_box_y,robot_box_z,robot_box_quat_w,robot_box_quat_x,robot_box_quat_y,robot_box_quat_z,robot_box_linvel_x,robot_box_linvel_y,robot_box_linvel_z,robot_box_angvel_x,robot_box_angvel_y,robot_box_angvel_z,cube_world_x,cube_world_y,cube_world_z,cube_quat_w,cube_quat_x,cube_quat_y,cube_quat_z,cube_linvel_x,cube_linvel_y,cube_linvel_z,cube_angvel_x,cube_angvel_y,cube_angvel_z,endpoint_world_x,endpoint_world_y,endpoint_world_z,endpoint_linvel_x,endpoint_linvel_y,endpoint_linvel_z,target_cube_world_x,target_cube_world_y,target_cube_world_z,gripper_actual_pos_rad_gp_leftgearjoint,gripper_actual_vel_rad_s_gp_leftgearjoint,gripper_actual_pos_rad_gp_rotatingjoint,gripper_actual_vel_rad_s_gp_rotatingjoint,motor_angle_rad_joint1,motor_angle_rad_joint2,motor_angle_rad_joint3,motor_angle_rad_joint4,motor_speed_rad_s_joint1,motor_speed_rad_s_joint2,motor_speed_rad_s_joint3,motor_speed_rad_s_joint4
0.0,0.0,0.0,0.0,1.0,0.0,0.0,0.0,0.0,0.0,0.0,0.0,0.0,0.0,-0.33792543411254883,0.6304327249526978,0.41999998688697815,1.0,0.0,0.0,0.0,0.0,0.0,0.0,0.0,0.0,0.0,3.42540442943573e-06,-0.005000244826078415,1.313499927520752,0.0,0.0,0.0,0.4696948528289795,0.6725331544876099,0.42000001668930054,-1.5707999467849731,0.0,0.0,0.0,0.0,0.0,0.0,0.0,0.0,0.0,0.0,0.0
0.016666666666666666,0.0028912138659507036,0.002058587968349457,0.0,0.9999223351478577,0.0,0.0,-0.012464827857911587,0.24048590660095215,0.17753250896930695,0.0,0.0,0.0,-2.486391544342041,-0.3379255533218384,0.6304324269294739,0.41999998688697815,1.0,3.2799905511637917e-06,-8.339794135281409e-07,8.465515577427141e-08,-1.9833774786093272e-05,0.00017983047291636467,-6.132945418357849e-05,0.0009432245860807598,-0.004689525347203016,-0.00031981084612198174,-0.007012574002146721,0.0039945803582668304,1.3159356117248535,-0.7952540516853333,1.0400266647338867,0.17963561415672302,0.4696948528289795,0.6725331544876099,0.42000001668930054,-1.5301094055175781,3.000000238418579,-0.04586334154009819,-3.000000476837158,0.0008747577085159719,0.0008007596479728818,0.000714685651473701,0.0006130555993877351,0.1108604371547699,0.09739118814468384,0.08305884897708893,0.06786230951547623
0.03333333333333333,0.008636770769953728,0.00659540481865406,0.0,0.9999533891677856,0.0,0.0,-0.009656491689383984,0.39920565485954285,0.3123067617416382,0.0,0.0,0.0,1.2482064962387085,-0.33792567253112793,0.6304323673248291,0.4200000464916229,1.0,3.3908531804627273e-06,-2.132488134520827e-06,-3.710428941872124e-08,0.0002635785494931042,0.0002693783608265221,-0.00010509602725505829,-0.0017707846127450466,0.004130862653255463,-0.00013547409616876394,-0.026736833155155182,0.024922791868448257,1.316760778427124,-1.5006589889526367,1.5059120655059814,-0.04914366453886032,0.4696948528289795,0.6725331544876099,0.42000001668930054,-1.4800901412963867,3.000000238418579,-0.09590312093496323,-3.0,0.002843988360837102,0.0025070342235267162,0.002132400870323181,0.0017160738352686167,0.15954561531543732,0.13483010232448578,0.10863785445690155,0.08090046793222427
0.05,0.01708957552909851,0.013395910151302814,0.0,0.999758243560791,0.0,0.0,-0.021987678483128548,0.5696311593055725,0.4492667019367218,0.0,0.0,0.0,-2.3176023960113525,-0.3379257023334503,0.6304324269294739,0.4200000464916229,1.0,3.7651284401363228e-06,-2.2118861124909017e-06,5.622759147172474e-09,0.00026530996547080576,0.00026691515813581645,-0.00010440382175147533,-0.00172425655182451,0.004177390597760677,-0.00012948956282343715,-0.05565716326236725,0.055570442229509354,1.312199354171753,-1.9289641380310059,2.1184308528900146,-0.46493685245513916,0.4696948528289795,0.6725331544876099,0.42000001668930054,-1.430068016052246,3.000004768371582,-0.13425974547863007,-1.680803656578064,0.0053659300319850445,0.004542375449091196,0.0036473379004746675,0.0026756792794913054,0.1768960952758789,0.1369435042142868,0.09515143930912018,0.05143820866942406
0.06666666666666667,0.029120422899723053,0.02263970673084259,0.0,0.9981955289840698,0.0,0.0,-0.06004776060581207,0.7833762764930725,0.5997336506843567,0.0,0.0,0.0,-5.540746212005615,-0.3379257023334503,0.6304323673248291,0.4200000464916229,0.9999999403953552,3.406779342185473e-06,-2.285526988998754e-06,4.300881926155853e-07,0.00026702668401412666,0.00026791810523718596,-0.00010437914170324802,-0.0017406379338353872,0.004211799707263708,-0.00012850595521740615,-0.08874333649873734,0.09412741661071777,1.3012973070144653,-2.033170700073242,2.474722146987915,-0.8293596506118774,0.4696948528289795,0.6725331544876099,0.42000001668930054,-1.3800491094589233,3.000002145767212,-0.15102218091487885,-0.4229559302330017,0.008049441501498222,0.006461934186518192,0.004764375742524862,0.0029510371387004852,0.1620733141899109,0.1071552261710167,0.050194982439279556,-0.008847246877849102
0.08333333333333333,0.0441143624484539,0.03361721336841583,0.0,0.9968318343162537,0.0,0.0,-0.07953771203756332,0.9325906038284302,0.7343237400054932,0.0,0.0,0.0,-1.3540598154067993,-0.3379257023334503,0.6304323673248291,0.4200000464916229,1.0,3.6973510759708006e-06,-2.1889595700486097e-06,-2.632473012909031e-07,0.00026389595586806536,0.0002658632874954492,-0.0001043388620018959,-0.0017081330297514796,0.004150238819420338,-0.00012991279072593898,-0.12542837858200073,0.13205397129058838,1.2864899635314941,-2.1678037643432617,2.3413758277893066,-0.9551466703414917,0.4696948528289795,0.6725331544876099,0.42000001668930054,-1.33003830909729,3.0,-0.19149379432201385,-3.000000238418579,0.009436852298676968,0.006831400096416473,0.004075745586305857,0.0011628605425357819,0.03316108137369156,-0.0370471253991127,-0.10940753668546677,-0.1838500052690506
0.1,0.053105637431144714,0.04287975654006004,0.0,0.9935111999511719,0.0,0.0,-0.11373408138751984,0.411477267742157,0.4947332441806793,0.0,0.0,0.0,-5.058284759521484,-0.3379257023334503,0.6304323673248291,0.4200000464916229,0.9999999403953552,3.62046125701454e-06,-2.2652770894637797e-06,1.745990232393524e-07,0.0002667673397809267,0.00026740715838968754,-0.0001040794886648655,-0.0017385382670909166,0.004209098871797323,-0.0001277524424949661,-0.15882515907287598,0.17510457336902618,1.2679139375686646,-1.8088147640228271,2.8651795387268066,-1.2094881534576416,0.4696948528289795,0.6725331544876099,0.42000001668930054,-1.2800124883651733,2.9999966621398926,-0.15774498879909515,3.000002384185791,0.004013825207948685,0.0005414958577603102,-0.0031325279269367456,-0.007016951218247414,-0.4443408250808716,-0.5012141466140747,-0.5606043338775635,-0.622643232345581
0.11666666666666667,0.0652245283126831,0.05510590970516205,0.0,0.9904912114143372,0.0,0.0,-0.13757579028606415,0.8789242506027222,0.8291224837303162,0.0,0.0,0.0,-1.5904273986816406,-0.3379257023334503,0.6304323673248291,0.4200000464916229,1.0,3.7984573282301426e-06,-2.262856924062362e-06,-1.5021495869405044e-07,0.00026374036679044366,0.000265661277808249,-0.00010429229587316513,-0.001705389702692628,0.004147546831518412,-0.000129798921989277,-0.19361437857151031,0.2198610156774521,1.2428243160247803,-2.227355480194092,2.6936004161834717,-1.7594854831695557,0.4696948528289795,0.6725331544876099,0.42000001668930054,-1.2300199270248413,3.0000011920928955,-0.18946926295757294,-3.0000007152557373,-0.0009783810237422585,-0.005581759847700596,-0.010395330376923084,-0.015429957769811153,-0.23061443865299225,-0.30122390389442444,-0.3710736036300659,-0.44029688835144043
0.13333333333333333,0.07650107145309448,0.06402633339166641,0.0,0.985895574092865,0.0,0.0,-0.1673617959022522,0.6497125029563904,0.4479443430900574,0.0,0.0,0.0,-4.357397079467773,-0.3379257023334503,0.6304324269294739,0.4200000464916229,0.9999999403953552,3.5505674986779923e-06,-2.2298811472865054e-06,2.928988749317796e-07,0.0002670325629878789,0.0002677947923075408,-0.00010417005978524685,-0.0017441295785829425,0.004213639069348574,-0.00012800269178114831,-0.22954480350017548,0.26964858174324036,1.2119157314300537,-1.9878005981445312,3.2391343116760254,-1.9925966262817383,0.4696948528289795,0.6725331544876099,0.42000001668930054,-1.1799999475479126,2.999995470046997,-0.1557271033525467,3.0000007152557373,-0.0056139277294278145,-0.011601441539824009,-0.017762381583452225,-0.024106411263346672,-0.264657586812973,-0.35677623748779297,-0.44559115171432495,-0.5309807062149048
0.15,0.08503057807683945,0.06905427575111389,0.0,0.9749146699905396,0.0,0.0,-0.22257888317108154,0.4579499661922455,0.2460506707429886,0.0,0.0,0.0,-7.605951309204102,-0.33792567253112793,0.6304323673248291,0.4200000464916229,1.0,3.3323015031783143e-06,-2.102055532304803e-06,1.3129393039434945e-07,0.0002673060225788504,0.0002685941581148654,-0.00010459520854055882,-0.0017496503423899412,0.0042156013660132885,-0.00012928296928294003,-0.26023194193840027,0.33060789108276367,1.1722735166549683,-1.6293110847473145,3.988429069519043,-2.7247064113616943,0.4696948528289795,0.6725331544876099,0.42000001668930054,-1.1300030946731567,3.0000009536743164,-0.18748849630355835,-3.0000007152557373,-0.011393090710043907,-0.018739359453320503,-0.026193536818027496,-0.033765267580747604,-0.41168874502182007,-0.4788495898246765,-0.542087197303772,-0.6014913320541382
0.16666666666666666,0.08935657888650894,0.0755334198474884,0.0,0.9668641686439514,0.0,0.0,-0.2552914619445801,0.18474644422531128,0.4438338279724121,0.0,0.0,0.0,-2.857269287109375,-0.3379257023334503,0.6304323673248291,0.4200000464916229,1.0,3.7373970371845644e-06,-2.2331828404276166e-06,-1.8766169773698493e-07,0.0002643293410073966,0.0002662685001268983,-0.00010445946827530861,-0.0017119462136179209,0.004157547373324633,-0.00013001658953726292,-0.2917267382144928,0.3928169906139374,1.1191470623016357,-1.6716454029083252,3.8735320568084717,-3.602722406387329,0.4696948528289795,0.6725331544876099,0.42000001668930054,-1.08023202419281,2.9447619915008545,-0.23749274015426636,-3.0,-0.020314473658800125,-0.028396690264344215,-0.036514416337013245,-0.04468193277716637,-0.6010332107543945,-0.6263826489448547,-0.647663950920105,-0.6652588844299316
0.18333333333333332,0.09805981069803238,0.07883305102586746,0.0,0.9541947841644287,0.0,0.0,-0.299186110496521,0.5405088067054749,0.15357181429862976,0.0,0.0,0.0,-6.064655780792236,-0.3379257023334503,0.6304324269294739,0.4200000464916229,0.9999999403953552,3.6603839816962136e-06,-2.3022842015052447e-06,2.5284006710535323e-07,0.00026690884260460734,0.0002676031144801527,-0.00010412419214844704,-0.0017413157038390636,0.004211471416056156,-0.00012786804290954024,-0.31745439767837524,0.45925629138946533,1.0513415336608887,-1.2547833919525146,4.069245338439941,-4.4996185302734375,0.4696948528289795,0.6725331544876099,0.42000001668930054,-1.0302252769470215,3.0000030994415283,-0.28751954436302185,-3.0000007152557373,-0.028849147260189056,-0.037261854857206345,-0.04565154016017914,-0.05403969809412956,-0.7117176651954651,-0.6943485736846924,-0.6755973100662231,-0.6559851169586182
0.2,0.10123224556446075,0.08567190170288086,0.0,0.9463992118835449,0.0,0.0,-0.3229992985725403,0.19021755456924438,0.3998650014400482,0.0,0.0,0.0,-1.7048096656799316,-0.3379257023334503,0.6304323673248291,0.4200000464916229,1.0,3.5909681628254475e-06,-2.300425876455847e-06,1.3870655379832897e-07,0.0002665469073690474,0.0002673210692591965,-0.00010423827916383743,-0.0017325730295851827,0.004203351214528084,-0.00012819882249459624,-0.338781476020813,0.5161566734313965,0.9680728912353516,-1.0155174732208252,3.1906442642211914,-5.274233818054199,0.4696948528289795,0.6725331544876099,0.42000001668930054,-0.9802153706550598,2.9999961853027344,-0.3375472128391266,-3.0000007152557373,-0.04412950947880745,-0.05256304889917374,-0.060988649725914,-0.06902237236499786,-0.6782169938087463,-0.7145365476608276,-0.7518623471260071,-0.7881718277931213
0.21666666666666667,0.10673428326845169,0.08816571533679962,0.0,0.933929443359375,0.0,0.0,-0.3574574887752533,0.3419756293296814,0.14417099952697754,0.0,0.0,0.0,-5.209928035736084,-0.3379257023334503,0.6304324269294739,0.4200000464916229,1.0,3.6070816804567585e-06,-2.261013833049219e-06,1.9594006417378296e-08,0.0002644706692080945,0.000265584938460961,-0.00010396563448011875,-0.0017088844906538725,0.004164294805377722,-0.0001283210440305993,-0.35333195328712463,0.5672212839126587,0.8740031123161316,-0.5335900187492371,2.817126989364624,-5.936707973480225,0.4696948528289795,0.6725331544876099,0.42000001668930054,-0.9302046895027161,3.0000007152557373,-0.3875774145126343,-2.9999988079071045,-0.05569038912653923,-0.06439055502414703,-0.07311152666807175,-0.08145947009325027,-0.8972176313400269,-0.8712389469146729,-0.8488185405731201,-0.8306878805160522
0.23333333333333334,0.10825365781784058,0.09357012063264847,0.0,0.9279488921165466,0.0,0.0,-0.37270745635032654,0.029217051342129707,0.3290669918060303,0.0,0.0,0.0,-0.8107948899269104,-0.33792567253112793,0.6304323673248291,0.4200000464916229,0.9999999403953552,3.7423803860292537e-06,-2.2275726223597303e-06,4.588900992530398e-07,0.00026475079357624054,0.0002667132648639381,-0.00010453537106513977,-0.0017188824713230133,0.004165737424045801,-0.00013019502512179315,-0.3636685907840729,0.6018410921096802,0.7734007239341736,-0.4783221483230591,1.5908149480819702,-6.077282905578613,0.4696948528289795,0.6725331544876099,0.42000001668930054,-0.8801940083503723,2.999997615814209,-0.4376083314418793,-3.000000238418579,-0.0713978186249733,-0.08016286045312881,-0.08895168453454971,-0.09735165536403656,-0.9601666927337646,-0.9581577181816101,-0.9546695351600647,-0.9506998062133789
0.25,0.10752037912607193,0.09493996202945709,0.0,0.917351245880127,0.0,0.0,-0.3980787992477417,-0.13330978155136108,0.08342032879590988,0.0,0.0,0.0,-4.145285129547119,-0.3379257023334503,0.6304323673248291,0.4200000464916229,1.0,3.394552777535864e-06,-2.2820759113528766e-06,1.3360092054881534e-07,0.0002667939115781337,0.00026794092264026403,-0.00010439474135637283,-0.0017418104689568281,0.004206564277410507,-0.00012883881572633982,-0.3692891001701355,0.6251145005226135,0.667723536491394,0.02144404500722885,0.9257441759109497,-6.406044960021973,0.4696948528289795,0.6725331544876099,0.42000001668930054,-0.8301840424537659,3.000002861022949,-0.48763903975486755,-3.000000238418579,-0.08784178644418716,-0.09653724730014801,-0.1052035465836525,-0.11337602138519287,-1.0240083932876587,-1.0180206298828125,-1.0134661197662354,-1.009861707687378
0.26666666666666666,0.10361619293689728,0.09445809572935104,0.0,0.9143553972244263,0.0,0.0,-0.4049125611782074,-0.27968060970306396,-0.07278316468000412,0.0,0.0,0.0,0.06684323400259018,-0.3379257023334503,0.6304324269294739,0.4200000464916229,1.0,3.683615432237275e-06,-2.3101263195712818e-06,2.1006846395721368e-07,0.00026479296502657235,0.0002662580809555948,-0.00010421290062367916,-0.0017168235499411821,0.004168986808508635,-0.0001290914515266195,-0.3699883818626404,0.6317132711410522,0.5675996541976929,0.11290159821510315,-0.12221954017877579,-5.766502380371094,0.4696948528289795,0.6725331544876099,0.42000001668930054,-0.7801752686500549,3.0000016689300537,-0.5376686453819275,-3.0,-0.1050109788775444,-0.1135714203119278,-0.12213832885026932,-0.13023488223552704,-1.003645658493042,-1.002751111984253,-1.0020692348480225,-1.0015250444412231
0.2833333333333333,0.09719619899988174,0.09146885573863983,0.0,0.9063155651092529,0.0,0.0,-0.4226016104221344,-0.44369426369667053,-0.22518432140350342,0.0,0.0,0.0,-3.2573883533477783,-0.3379257023334503,0.6304323673248291,0.4200000464916229,1.0,3.3071373763959855e-06,-2.2125616396806436e-06,2.625232013997447e-07,0.00026660869480110705,0.0002674512506928295,-0.00010424340143799782,-0.0017352959839627147,0.004204402677714825,-0.00012827638420276344,-0.36288946866989136,0.6293182373046875,0.4744870066642761,0.7231607437133789,-0.2779489755630493,-5.22115421295166,0.4696948528289795,0.6725331544876099,0.42000001668930054,-0.7301669716835022,3.0000011920928955,-0.587696373462677,-2.9999988079071045,-0.12262076139450073,-0.13097338378429413,-0.13938310742378235,-0.14735515415668488,-1.0161744356155396,-1.0122591257095337,-1.0092663764953613,-1.006867527961731
0.3,0.08850674331188202,0.08617721498012543,0.0,0.9055519700050354,0.0,0.0,-0.42423537373542786,-0.553686261177063,-0.3572860062122345,0.0,0.0,0.0,0.736819326877594,-0.3379257321357727,0.6304295659065247,0.4200005829334259,1.0,1.8946215277537704e-05,7.4638687692640815e-06,-4.107280619791709e-05,0.015708673745393753,-0.12288989871740341,0.00018962519243359566,0.335701048374176,-0.6700776219367981,-4.306334495544434,-0.35727614164352417,0.6295466423034668,0.4234786629676819,0.16855260729789734,-0.06787213683128357,-0.3432181179523468,0.4696948528289795,0.6725331544876099,0.42000001668930054,-0.680162250995636,2.991565704345703,-0.6381051540374756,-2.9958441257476807,-0.13655486702919006,-0.1451871246099472,-0.15362237393856049,-0.16102486848831177,-0.38390690088272095,-0.46651551127433777,-0.5060853958129883,-0.45971572399139404
0.31666666666666665,0.07772205024957657,0.0785340890288353,0.0,0.899067759513855,0.0,0.0,-0.4378095269203186,-0.6933590173721313,-0.5000410079956055,0.0,0.0,0.0,-2.8409311771392822,-0.33764299750328064,0.6292255520820618,0.4200000464916229,0.999889075756073,3.8177873307176924e-08,-3.267460044753534e-07,-0.01488788053393364,0.015875153243541718,-0.05312670022249222,-7.444759830832481e-06,0.0003820038109552115,-1.3786781892122235e-05,-1.1771718263626099,-0.3541029095649719,0.6330451965332031,0.42009735107421875,0.3534114956855774,0.3867228031158447,-0.18079425394535065,0.4696948528289795,0.6725331544876099,0.42000001668930054,-0.6301565766334534,2.9999656677246094,-0.6882120370864868,-2.9999043941497803,-0.14347891509532928,-0.1528095006942749,-0.1612161099910736,-0.1673041135072708,-0.4454629123210907,-0.4540306031703949,-0.4224202632904053,-0.3251373767852783
0.3333333333333333,0.0652502253651619,0.06860069185495377,0.0,0.8993539810180664,0.0,0.0,-0.4372211992740631,-0.8172934055328369,-0.6361402273178101,0.0,0.0,0.0,1.0229897499084473,-0.33428728580474854,0.6335655450820923,0.4201728105545044,0.9966111183166504,-0.004317803308367729,4.372457624413073e-05,-0.08214395493268967,0.39426422119140625,0.5319119691848755,0.024517612531781197,-1.232881784439087,0.04771135747432709,-15.322246551513672,-0.34886884689331055,0.642096757888794,0.4188287854194641,0.36560624837875366,0.6734746694564819,0.007446985691785812,0.4696948528289795,0.6725331544876099,0.42000001668930054,-0.5801140666007996,2.999976396560669,-0.7382199764251709,-2.999966621398926,-0.15255054831504822,-0.16107341647148132,-0.1680501103401184,-0.1717991828918457,-0.5429545640945435,-0.4660835862159729,-0.35422706604003906,-0.19675937294960022
0.35,0.05551945045590401,0.055833734571933746,0.0,0.893122136592865,0.0,0.0,-0.4498142600059509,-0.5019317865371704,-0.8164829611778259,0.0,0.0,0.0,-2.591923236846924,-0.32700470089912415,0.6434014439582825,0.42036572098731995,0.9948222637176514,-0.009179365821182728,0.0009659145143814385,-0.10120987892150879,0.4696935713291168,0.6338378190994263,0.02726852335035801,-1.3466304540634155,0.3097772002220154,5.315036296844482,-0.3397405743598938,0.6520276069641113,0.41944366693496704,0.7430912852287292,0.6822543740272522,0.05402927100658417,0.4696948528289795,0.6725331544876099,0.42000001668930054,-0.5300571918487549,2.9999990463256836,-0.7882245779037476,-2.9999747276306152,-0.161895290017128,-0.16854766011238098,-0.17309601604938507,-0.17379021644592285,-0.540747344493866,-0.4042777121067047,-0.23782697319984436,-0.04254475608468056
0.36666666666666664,0.04411574453115463,0.04134419560432434,0.0,0.8727483153343201,0.0,0.0,-0.48817041516304016,-0.7517993450164795,-0.897367000579834,0.0,0.0,0.0,-6.214121341705322,-0.31409895420074463,0.6609345078468323,0.42070484161376953,0.9881570935249329,-0.010073449462652206,-0.007678547874093056,-0.1529216319322586,0.9940582513809204,1.2918258905410767,0.06604946404695511,-3.6802923679351807,1.7725201845169067,-5.747486114501953,-0.3235785961151123,0.666390061378479,0.4207555651664734,1.2396365404129028,1.1779577732086182,0.10788752138614655,0.4696948528289795,0.6725331544876099,0.42000001668930054,-0.47999727725982666,2.9999334812164307,-0.8382313251495361,-2.9999749660491943,-0.1723119616508484,-0.1761753410100937,-0.17746105790138245,-0.17452052235603333,-0.5825029015541077,-0.4097881019115448,-0.21032778918743134,0.006174108479171991
0.3833333333333333,0.03524671867489815,0.02386503480374813,0.0,0.835837185382843,0.0,0.0,-0.5489774346351624,-0.4721263647079468,-1.101101040840149,0.0,0.0,0.0,-9.325030326843262,-0.2864028513431549,0.6934853196144104,0.4213925004005432,0.9771575331687927,-0.025202883407473564,-0.0057969847694039345,-0.21093681454658508,2.3256824016571045,2.5917184352874756,0.028857365250587463,1.7466013431549072,-5.99039888381958,-7.368556499481201,-0.28658297657966614,0.6942183375358582,0.42292162775993347,3.1936817169189453,2.2033796310424805,0.3174985647201538,0.4696948528289795,0.6725331544876099,0.42000001668930054,-0.4299827516078949,3.0000011920928955,-0.8882375955581665,-2.999788761138916,-0.182145357131958,-0.18266534805297852,-0.1802363097667694,-0.17343714833259583,-0.603206217288971,-0.3834884464740753,-0.14714759588241577,0.0892425924539566
0.4,0.029134437441825867,0.011895626783370972,0.0,0.7796255946159363,0.0,0.0,-0.62624591588974,-0.31198546290397644,-0.5865755081176758,0.0,0.0,0.0,-12.34410285949707,-0.20514555275440216,0.7326931357383728,0.42665761709213257,0.9589234590530396,0.03781909495592117,-0.050720829516649246,-0.27651920914649963,6.349062919616699,2.7130775451660156,0.24619732797145844,33.45928955078125,-20.30280876159668,2.9914376735687256,-0.2057884931564331,0.7345048785209656,0.4279126524925232,6.091006278991699,2.6372570991516113,0.44078725576400757,0.4696948528289795,0.6725331544876099,0.42000001668930054,-0.391335666179657,1.3142179250717163,-0.8512532114982605,2.9950132369995117,-0.1978539526462555,-0.19613485038280487,-0.18822026252746582,-0.1763709932565689,-0.858439028263092,-0.8656507134437561,-0.5543301701545715,-0.2798044979572296
0.4166666666666667,0.025891928002238274,0.003408507676795125,0.0,0.7335954904556274,0.0,0.0,-0.6795864105224609,-0.13933369517326355,-0.45711320638656616,0.0,0.0,0.0,-7.284239768981934,-0.10443935543298721,0.7701689600944519,0.4350236654281616,0.9249483346939087,0.08332178741693497,-0.08134174346923828,-0.3618168234825134,6.450191020965576,1.399192452430725,0.5351780652999878,7.116110801696777,-10.579119682312012,9.214305877685547,-0.10453388839960098,0.7727301120758057,0.43599945306777954,6.176355838775635,1.8504624366760254,0.5882093906402588,0.4696948528289795,0.6725331544876099,0.42000001668930054,-0.37571513652801514,0.8089137673377991,-0.866317868232727,-3.0000014305114746,-0.2110462784767151,-0.2094041407108307,-0.19699332118034363,-0.18105308711528778,-0.7549440264701843,-0.7198219895362854,-0.4770159423351288,-0.2670644521713257
0.43333333333333335,0.026195259764790535,-0.0014330758713185787,0.0,0.7110373973846436,0.0,0.0,-0.7031541466712952,0.10880134254693985,-0.27374809980392456,0.0,0.0,0.0,-2.682229995727539,0.0020302608609199524,0.7942106127738953,0.4447386562824249,0.8605590462684631,0.09884536266326904,-0.09435971826314926,-0.4906770884990692,6.372281074523926,0.4748181104660034,0.4675734341144562,6.65345573425293,-8.621048927307129,5.591890335083008,-8.845236152410507e-05,0.7969748377799988,0.44426921010017395,6.461921691894531,1.0358216762542725,0.5972502827644348,0.4696948528289795,0.6725331544876099,0.42000001668930054,-0.35846424102783203,1.1494319438934326,-0.9163418412208557,-3.000001907348633,-0.22449976205825806,-0.22136926651000977,-0.20498360693454742,-0.18569837510585785,-0.6971951127052307,-0.5982545614242554,-0.3978148102760315,-0.2345488965511322
0.45,0.026086535304784775,-0.0036052840296179056,0.0,0.702916145324707,0.0,0.0,-0.7112727165222168,-0.05735401436686516,-0.02761867083609104,0.0,0.0,0.0,-0.841246485710144,0.1066594272851944,0.7996762990951538,0.45191308856010437,0.8055979609489441,0.09276489168405533,-0.09421695023775101,-0.5775203108787537,6.092287063598633,-1.0831034183502197,0.3088982403278351,-5.718890190124512,-17.961427688598633,21.174463272094727,0.10564987361431122,0.8037936687469482,0.45220935344696045,6.329070568084717,-0.21352048218250275,0.560439944267273,0.4696948528289795,0.6725331544876099,0.42000001668930054,-0.33999940752983093,0.8827791810035706,-0.9663658738136292,-3.000002145767212,-0.23665887117385864,-0.2311413586139679,-0.21134884655475616,-0.18924161791801453,-0.7251049280166626,-0.5484519600868225,-0.34597471356391907,-0.17672903835773468
0.4666666666666667,0.02865823730826378,-0.010978534817695618,0.0,0.6814984083175659,0.0,0.0,-0.7318195700645447,0.23197053372859955,-0.5912030935287476,0.0,0.0,0.0,-4.59661865234375,0.20563215017318726,0.7901517152786255,0.45622387528419495,0.7475352883338928,0.07929646223783493,-0.09924875944852829,-0.6519606709480286,5.63231086730957,-1.7088041305541992,0.12931010127067566,-6.223754405975342,-7.9295973777771,12.094470977783203,0.20559483766555786,0.7936040163040161,0.4568341374397278,5.8193817138671875,-1.107485294342041,0.2482745349407196,0.4696948528289795,0.6725331544876099,0.42000001668930054,-0.325557142496109,0.8147925734519958,-1.01638925075531,-3.0000011920928955,-0.23847782611846924,-0.2344629466533661,-0.21247310936450958,-0.18858294188976288,0.17461948096752167,-0.053076472133398056,0.05625544860959053,0.1424710899591446
0.48333333333333334,0.032071176916360855,-0.015882588922977448,0.0,0.672694742679596,0.0,0.0,-0.7399201393127441,0.24918167293071747,-0.17894503474235535,0.0,0.0,0.0,-0.39922502636909485,0.29653891921043396,0.7666109800338745,0.45778223872184753,0.6484779715538025,0.037655070424079895,-0.13152667880058289,-0.7488384246826172,4.8570990562438965,-1.8356348276138306,-0.029739778488874435,-13.502494812011719,20.532264709472656,-11.236515045166016,0.29445379972457886,0.7711700201034546,0.45998716354370117,5.05219030380249,-1.6209570169448853,0.22422558069229126,0.4696948528289795,0.6725331544876099,0.42000001668930054,-0.3093753159046173,1.1194565296173096,-1.0664113759994507,-2.997124671936035,-0.2382802665233612,-0.23662100732326508,-0.21306970715522766,-0.1881375014781952,0.015321210958063602,-0.0845976248383522,-0.035306379199028015,-0.01924736239016056
0.5,0.03753986954689026,-0.015092791058123112,0.0,0.6551042199134827,0.0,0.0,-0.7555385231971741,0.3719005286693573,0.1269465684890747,0.0,0.0,0.0,-3.766263723373413,0.37150782346725464,0.7377220392227173,0.45017483830451965,0.545450747013092,-0.10921799391508102,-0.2159806191921234,-0.8024383187294006,3.4945051670074463,-2.046626091003418,-0.47617682814598083,-14.609776496887207,9.675592422485352,13.407801628112793,0.3676927983760834,0.7450690269470215,0.45946669578552246,4.0376691818237305,-1.704542875289917,-0.22839322686195374,0.4696948528289795,0.6725331544876099,0.42000001668930054,-0.29200804233551025,0.8908251523971558,-1.1164335012435913,-2.9988818168640137,-0.23773430287837982,-0.2373853474855423,-0.21384216845035553,-0.1893967092037201,0.09498167037963867,0.03660423681139946,-0.007345711812376976,-0.07815203070640564
0.5166666666666666,0.046265337616205215,-0.019587751477956772,0.0,0.6500381827354431,0.0,0.0,-0.7599015831947327,0.5787677764892578,-0.42447158694267273,0.0,0.0,0.0,0.13618984818458557,0.4289689362049103,0.7102793455123901,0.44125378131866455,0.5068584680557251,-0.1325777918100357,-0.18284694850444794,-0.8319161534309387,2.8592889308929443,-1.949310302734375,-0.6019999980926514,-4.481400489807129,7.670060157775879,1.2865911722183228,0.4261628985404968,0.7175329923629761,0.45068487524986267,3.0229735374450684,-1.6556227207183838,-0.6699784994125366,0.4696948528289795,0.6725331544876099,0.42000001668930054,-0.2774118185043335,0.8101831078529358,-1.166455626487732,-3.000000476837158,-0.23000943660736084,-0.23107393085956573,-0.20955665409564972,-0.1874629259109497,0.6007528305053711,0.5278332829475403,0.3713293969631195,0.19665353000164032
0.5333333333333333,0.05417650192975998,-0.02062501385807991,0.0,0.6359795331954956,0.0,0.0,-0.7717059254646301,0.4517749547958374,0.036525048315525055,0.0,0.0,0.0,-3.017658233642578,0.4710612893104553,0.6862542629241943,0.4268372356891632,0.4967351257801056,-0.13694876432418823,-0.10792704671621323,-0.8502064347267151,2.0804495811462402,-1.0308884382247925,-0.7548143863677979,38.36393356323242,15.576215744018555,-4.592588901519775,0.46760082244873047,0.6917871236801147,0.4358155131340027,1.965611219406128,-1.3919422626495361,-0.8219850063323975,0.4696948528289795,0.6725331544876099,0.42000001668930054,-0.2619670033454895,1.1516932249069214,-1.134305477142334,3.0000016689300537,-0.22481809556484222,-0.22621802985668182,-0.207034170627594,-0.18757253885269165,0.3021963834762573,0.2858571410179138,0.12321878969669342,-0.052410904318094254
0.55,0.06296896189451218,-0.017515726387500763,0.0,0.6354835033416748,0.0,0.0,-0.7721143960952759,0.5631406307220459,0.2457231879234314,0.0,0.0,0.0,0.8374233245849609,0.49523964524269104,0.6720477342605591,0.4205234944820404,0.494294673204422,-0.0018537456635385752,-0.00810411386191845,-0.8692545890808105,0.9880514740943909,-0.7888815402984619,-0.4333682060241699,18.14185333251953,-2.663525104522705,-9.154447555541992,0.49099642038345337,0.6717389822006226,0.42460522055625916,0.8293490409851074,-0.8800987005233765,-0.24215209484100342,0.4696948528289795,0.6725331544876099,0.42000001668930054,-0.2407217025756836,1.5228430032730103,-1.1569430828094482,-2.994982957839966,-0.22006955742835999,-0.22163304686546326,-0.20531709492206573,-0.18882840871810913,0.3252546191215515,0.3148711025714874,0.13052593171596527,-0.054025012999773026
0.5666666666666667,0.07351957261562347,-0.017981629818677902,0.0,0.6233357191085815,0.0,0.0,-0.7819543480873108,0.6543256640434265,-0.053592558950185776,0.0,0.0,0.0,-2.8622679710388184,0.5029047727584839,0.6656516790390015,0.4199986755847931,0.5431091785430908,0.0004546735726762563,-0.0010703711304813623,-0.8396612405776978,0.34074491262435913,-0.387454628944397,0.02713841386139393,0.10753433406352997,1.5084588527679443,6.703457355499268,0.49872931838035583,0.6652127504348755,0.4238118529319763,0.1961752474308014,-0.30681362748146057,-0.30818498134613037,0.4696948528289795,0.6725331544876099,0.42000001668930054,-0.2544105350971222,-2.573345184326172,-1.1194028854370117,2.9949629306793213,-0.21055486798286438,-0.21295668184757233,-0.20042677223682404,-0.18757209181785583,0.5428950190544128,0.5085262656211853,0.28773677349090576,0.0734763815999031
0.5833333333333334,0.08391762524843216,-0.015481473878026009,0.0,0.6234834790229797,0.0,0.0,-0.7818365097045898,0.5679292678833008,0.1649562418460846,0.0,0.0,0.0,0.9424631595611572,0.5054354667663574,0.6608710885047913,0.4199996888637543,0.566766619682312,1.548396176076494e-05,4.284997339709662e-05,-0.8238784074783325,0.059906601905822754,-0.22251655161380768,-0.00013380638847593218,-0.005044441670179367,-0.001636495697312057,2.786281108856201,0.49880167841911316,0.6602262854576111,0.4218214154243469,-0.03484564647078514,-0.12217488139867783,0.1551935374736786,0.4696948528289795,0.6725331544876099,0.42000001668930054,-0.3039969503879547,-2.999997138977051,-1.142371416091919,-2.99951434135437,-0.20385506749153137,-0.20633603632450104,-0.1969788372516632,-0.1871805042028427,0.47588786482810974,0.4532957673072815,0.2509227395057678,0.06030314043164253
0.6,0.09479742497205734,-0.01020103506743908,0.0,0.6457265615463257,0.0,0.0,-0.7635686993598938,0.6937380433082581,0.38164079189300537,0.0,0.0,0.0,4.309015274047852,0.5050147771835327,0.6595177054405212,0.4200010299682617,0.5750876665115356,-5.497006713994779e-05,-0.0001015293673845008,-0.8180916905403137,-0.13791675865650177,0.05050143226981163,-0.0021895160898566246,0.16960006952285767,-0.008025836199522018,0.32846957445144653,0.49699580669403076,0.6607463955879211,0.42441198229789734,-0.1869848519563675,0.15359432995319366,0.17046718299388885,0.4696948528289795,0.6725331544876099,0.42000001668930054,-0.35403066873550415,-2.9937164783477783,-1.192345380783081,-2.999157667160034,-0.19571371376514435,-0.19891470670700073,-0.19308435916900635,-0.18652747571468353,0.5462137460708618,0.4842875301837921,0.26259687542915344,0.059997234493494034
0.6166666666666667,0.10746603459119797,-0.00809895433485508,0.0,0.6543989181518555,0.0,0.0,-0.7561494708061218,0.7875304222106934,0.08509042114019394,0.0,0.0,0.0,0.30910375714302063,0.5020145177841187,0.6614238619804382,0.41999998688697815,0.5872746706008911,-1.8838256892195204e-06,1.6531601431779563e-05,-0.8093876838684082,-0.21942530572414398,0.15652431547641754,-0.0004858285537920892,-0.011487387120723724,-0.024809664115309715,2.0635037422180176,0.4941369295120239,0.6664721965789795,0.4280761778354645,-0.2096991240978241,0.3629772663116455,0.24893371760845184,0.4696948528289795,0.6725331544876099,0.42000001668930054,-0.4040772616863251,-3.0,-1.2423168420791626,-2.9997613430023193,-0.18411976099014282,-0.188594788312912,-0.18645775318145752,-0.1832050234079361,0.6185005307197571,0.5730568766593933,0.392093300819397,0.2321368008852005
0.6333333333333333,0.12174100428819656,-0.009626858867704868,0.0,0.6728052496910095,0.0,0.0,-0.7398196458816528,0.8919419050216675,-0.16239024698734283,0.0,0.0,0.0,3.8420464992523193,0.49854642152786255,0.6639111638069153,0.4200000464916229,0.5875911116600037,-1.7786485173587607e-08,-3.7473537872756424e-07,-0.8091579079627991,-0.19711551070213318,0.14059068262577057,-6.877817213535309e-07,1.6198238199649495e-06,3.437600389588624e-05,-0.1834653615951538,0.4886735677719116,0.670350193977356,0.43345433473587036,-0.4108695685863495,0.1900743842124939,0.4672320783138275,0.4696948528289795,0.6725331544876099,0.42000001668930054,-0.454091340303421,-2.9999992847442627,-1.2923351526260376,-3.000000476837158,-0.17655345797538757,-0.18071217834949493,-0.18026573956012726,-0.17836077511310577,0.39340150356292725,0.4474625885486603,0.39565509557724,0.3649742305278778
0.65,0.13770878314971924,-0.014682922512292862,0.0,0.6784359812736511,0.0,0.0,-0.7346594929695129,0.9892160892486572,-0.3543578088283539,0.0,0.0,0.0,-0.09657628834247589,0.4937806725502014,0.6661226749420166,0.4200000464916229,0.5952267050743103,2.5965789518522797e-07,-7.944122870640058e-08,-0.803557813167572,-0.1517259180545807,0.10588052123785019,-1.4689285308122635e-06,-6.625114474445581e-05,1.8514567273086868e-05,0.05932299792766571,0.4869096279144287,0.6740771532058716,0.4398353099822998,0.059797730296850204,0.23356255888938904,0.46227729320526123,0.4696948528289795,0.6725331544876099,0.42000001668930054,-0.5041040778160095,-2.999999761581421,-1.3423534631729126,-2.9999990463256836,-0.1713249832391739,-0.17421787977218628,-0.1740085631608963,-0.17197725176811218,0.29423588514328003,0.38129347562789917,0.39191699028015137,0.4244585335254669
0.6666666666666666,0.1553163081407547,-0.022275181487202644,0.0,0.6617099046707153,0.0,0.0,-0.7497599720954895,1.0794569253921509,-0.555042028427124,0.0,0.0,0.0,-3.6120221614837646,0.4920887351036072,0.6673053503036499,0.4200000464916229,0.5954786539077759,1.8791538991536072e-07,-2.571155448549689e-07,-0.8033711314201355,-0.08471111953258514,0.05906682088971138,-6.485206540673971e-06,-0.0001584010460646823,-0.00026779164909385145,0.02229553833603859,0.49390873312950134,0.6789423227310181,0.45475369691848755,0.7453242540359497,0.31866180896759033,1.429774522781372,0.4696948528289795,0.6725331544876099,0.42000001668930054,-0.5541166663169861,-2.9999823570251465,-1.3923717737197876,-2.999999523162842,-0.16909901797771454,-0.17031987011432648,-0.16952639818191528,-0.1665974259376526,0.0715777650475502,0.175556942820549,0.2242112010717392,0.2888621687889099
0.6833333333333333,0.1763119399547577,-0.024994878098368645,0.0,0.6568841338157654,0.0,0.0,-0.7539915442466736,1.3863307237625122,-0.01023112703114748,0.0,0.0,0.0,0.26027122139930725,0.49149712920188904,0.6677192449569702,0.4200000464916229,0.5955322980880737,3.194926136984577e-07,4.665547059801156e-09,-0.8033312559127808,-0.017687875777482986,0.012258758768439293,-5.267036613076925e-06,-0.000287220609607175,0.000309579074382782,0.0014801345532760024,0.5071068406105042,0.6847313642501831,0.48625558614730835,0.8699445724487305,0.43137669563293457,2.3054609298706055,0.4696948528289795,0.6725331544876099,0.42000001668930054,-0.604125440120697,-2.9999992847442627,-1.4423900842666626,-2.9999988079071045,-0.1737402379512787,-0.17263473570346832,-0.17036382853984833,-0.1658419966697693,-0.36507296562194824,-0.2393905520439148,-0.15646542608737946,-0.06945604830980301
0.7,0.19497330486774445,-0.022029278799891472,0.0,0.6754351854324341,0.0,0.0,-0.7374193668365479,1.0101990699768066,-0.047317370772361755,0.0,0.0,0.0,3.5197863578796387,0.4914970099925995,0.6677195429801941,0.41999998688697815,0.5955322980880737,-2.5085071229113964e-06,-3.751092663151212e-06,-0.8033312559127808,3.567214298527688e-05,-0.0003109725075773895,-8.34090169519186e-05,0.007535332348197699,-0.002558874199166894,-0.0004935272736474872,0.5205084681510925,0.6903451681137085,0.5182269811630249,0.9181811809539795,0.3830558657646179,1.530693769454956,0.4696948528289795,0.6725331544876099,0.42000001668930054,-0.6228765249252319,0.4700436592102051,-1.4924083948135376,-2.999999761581421,-0.17862391471862793,-0.17555567622184753,-0.1719505935907364,-0.1661273092031479,0.1754528284072876,0.18717700242996216,0.17683300375938416,0.17227742075920105
0.7166666666666667,0.20828914642333984,-0.02725899964570999,0.0,0.679577112197876,0.0,0.0,-0.7336040735244751,0.7642025947570801,-0.32556265592575073,0.0,0.0,0.0,-0.3363479971885681,0.4914969801902771,0.6677196025848389,0.41999998688697815,0.5955325365066528,-2.819517931129667e-06,-4.612256816471927e-06,-0.803331196308136,4.299245847505517e-05,-0.00035918058711104095,-0.0001002955250442028,0.008561491966247559,-0.0029121139086782932,-0.0005766614922322333,0.5324200391769409,0.6966098546981812,0.5369033217430115,0.43061214685440063,0.12929755449295044,0.8780773878097534,0.4696948528289795,0.6725331544876099,0.42000001668930054,-0.6456564664840698,-2.890780448913574,-1.453703761100769,3.0,-0.17237776517868042,-0.16957654058933258,-0.1665462851524353,-0.16127736866474152,0.1805017590522766,0.2109476774930954,0.22044789791107178,0.21986517310142517
0.7333333333333333,0.21812529861927032,-0.028568878769874573,0.0,0.6936348080635071,0.0,0.0,-0.720326840877533,0.5373824834823608,-0.035491179674863815,0.0,0.0,0.0,3.125875473022461,0.4914969801902771,0.6677196025848389,0.41999998688697815,0.5955325961112976,-2.7790433705376927e-06,-4.361685114417924e-06,-0.8033311367034912,4.396055010147393e-05,-0.00036020198604092,-9.996211156249046e-05,0.00859830528497696,-0.0029068670701235533,-0.0005795073811896145,0.5375797748565674,0.6970690488815308,0.5477161407470703,0.23147445917129517,0.04055238142609596,0.4676588177680969,0.4696948528289795,0.6725331544876099,0.42000001668930054,-0.6613436341285706,0.7085949182510376,-1.470775842666626,-3.0,-0.17123085260391235,-0.16762098670005798,-0.16411329805850983,-0.15864098072052002,0.14160145819187164,0.169195756316185,0.18047751486301422,0.1734541803598404
0.75,0.22383058071136475,-0.03232491388916969,0.0,0.6949449777603149,0.0,0.0,-0.7190629243850708,0.24466827511787415,-0.23981554806232452,0.0,0.0,0.0,-0.7467448711395264,0.4914969801902771,0.6677196025848389,0.41999998688697815,0.5955322980880737,-2.856040282495087e-06,-4.523317784332903e-06,-0.8033313751220703,4.190299296169542e-05,-0.000358951190719381,-0.00010056491009891033,0.008553016930818558,-0.002917540492489934,-0.0005740099586546421,0.5373687744140625,0.6972081661224365,0.5488241314888,-0.277353972196579,-0.07349151372909546,-0.15857110917568207,0.4696948528289795,0.6725331544876099,0.42000001668930054,-0.6719857454299927,-1.763110876083374,-1.4321345090866089,3.0,-0.16876959800720215,-0.16475804150104523,-0.16108384728431702,-0.15579435229301453,0.08109726011753082,0.11668536067008972,0.13851134479045868,0.13549980521202087
0.7666666666666666,0.22972635924816132,-0.03294408321380615,0.0,0.7055232524871826,0.0,0.0,-0.7086867690086365,0.39578598737716675,-0.008453374728560448,0.0,0.0,0.0,2.524653673171997,0.4914969801902771,0.6677196025848389,0.41999998688697815,0.5955323576927185,-2.773956111923326e-06,-4.2733363443403505e-06,-0.8033313155174255,4.378814628580585e-05,-0.0003601440112106502,-0.00010001030750572681,0.008596272207796574,-0.002908151363953948,-0.0005790981231257319,0.5344506502151489,0.6956664323806763,0.545687198638916,-0.04819710552692413,-0.03979739919304848,-0.1695287972688675,0.4696948528289795,0.6725331544876099,0.42000001668930054,-0.6729196906089783,1.3791851997375488,-1.4496300220489502,-2.999999761581421,-0.16788192093372345,-0.16346701979637146,-0.15948961675167084,-0.15423758327960968,0.13554468750953674,0.1320551484823227,0.12958058714866638,0.11167147010564804
0.7833333333333333,0.23340487480163574,-0.03689991682767868,0.0,0.7042017579078674,0.0,0.0,-0.7099999189376831,0.15533563494682312,-0.271760493516922,0.0,0.0,0.0,-1.0320683717727661,0.4914969801902771,0.6677196025848389,0.41999998688697815,0.5955327749252319,-2.8007243599859066e-06,-4.400430043460801e-06,-0.8033309578895569,4.3965956137981266e-05,-0.0003593834990169853,-0.00010002497583627701,0.008569330908358097,-0.0029023101087659597,-0.0005791650619357824,0.5347104072570801,0.6940324306488037,0.5403863191604614,0.01095714420080185,-0.23559284210205078,-0.31582632660865784,0.4696948528289795,0.6725331544876099,0.42000001668930054,-0.6877944469451904,-2.7901790142059326,-1.411051869392395,2.9999992847442627,-0.16509081423282623,-0.16089554131031036,-0.15706710517406464,-0.1521914005279541,0.06498084962368011,0.07010778039693832,0.07968068867921829,0.07431960105895996
0.8,0.237704798579216,-0.03752755746245384,0.0,0.7080599665641785,0.0,0.0,-0.7061522603034973,0.296321839094162,-0.018701672554016113,0.0,0.0,0.0,1.4792613983154297,0.4914969801902771,0.6677196025848389,0.41999998688697815,0.5955321788787842,-2.7131577553518582e-06,-4.561139576253481e-06,-0.8033314347267151,4.214005093672313e-05,-0.00035911129089072347,-0.00010041729547083378,0.008561120368540287,-0.002914713229984045,-0.0005743448855355382,0.5378043055534363,0.689802885055542,0.5376691818237305,0.3817799687385559,-0.2104993760585785,0.032466210424900055,0.4696948528289795,0.6725331544876099,0.42000001668930054,-0.7072368264198303,0.2129473239183426,-1.428963541984558,-3.000000238418579,-0.1656917929649353,-0.16127046942710876,-0.1570323258638382,-0.15190257132053375,0.04074837639927864,0.034671761095523834,0.046818193048238754,0.05676494911313057
0.8166666666666667,0.24027672410011292,-0.04132445901632309,0.0,0.7011953592300415,0.0,0.0,-0.712969183921814,0.07403089106082916,-0.2604679465293884,0.0,0.0,0.0,-1.9661500453948975,0.4914969801902771,0.6677196025848389,0.41999998688697815,0.5955325961112976,-2.6456464183866046e-06,-4.346547029854264e-06,-0.8033311367034912,4.787867874256335e-05,-0.00036058216937817633,-9.890296496450901e-05,0.008615180850028992,-0.0028731313068419695,-0.0005883525009267032,0.5463877320289612,0.6854408979415894,0.5367089509963989,0.5731772780418396,-0.39260634779930115,-0.007254764437675476,0.4696948528289795,0.6725331544876099,0.42000001668930054,-0.7259259819984436,-2.228438138961792,-1.3979142904281616,3.000000476837158,-0.1647036075592041,-0.16038942337036133,-0.1559317260980606,-0.1505887359380722,-0.035717468708753586,-0.018498428165912628,0.01704873889684677,0.05102989077568054
0.8333333333333334,0.24306797981262207,-0.042023666203022,0.0,0.698326051235199,0.0,0.0,-0.7157798409461975,0.19260528683662415,-0.014969771727919579,0.0,0.0,0.0,0.14058926701545715,0.4914969801902771,0.6677196025848389,0.41999998688697815,0.5955325365066528,-2.8572121664183214e-06,-4.669366717280354e-06,-0.8033311367034912,4.247806282364763e-05,-0.00035924886469729245,-0.00010044570080935955,0.00856256578117609,-0.002915708115324378,-0.0005756232421845198,0.5566481351852417,0.6809266805648804,0.5416238307952881,0.6915254592895508,-0.12203218042850494,0.6259908676147461,0.4696948528289795,0.6725331544876099,0.42000001668930054,-0.7367582321166992,0.6855829358100891,-1.4160854816436768,-3.0,-0.16628071665763855,-0.16185539960861206,-0.15693148970603943,-0.15108336508274078,-0.02080763503909111,-0.04081795737147331,-0.03656372055411339,-0.025472955778241158
0.85,0.24391363561153412,-0.0431000180542469,0.0,0.7141005396842957,0.0,0.0,-0.7000431418418884,0.012766585685312748,-0.023950455710291862,0.0,0.0,0.0,3.5319106578826904,0.4914969801902771,0.6677196025848389,0.41999998688697815,0.5955324769020081,-2.612272055557696e-06,-4.29610781793599e-06,-0.8033312559127808,4.484400415094569e-05,-0.0003601652570068836,-9.971274994313717e-05,0.008598290383815765,-0.002897842088714242,-0.0005812380113638937,0.5672353506088257,0.6764631271362305,0.5520670413970947,0.5671195387840271,-0.3636144995689392,0.6885068416595459,0.4696948528289795,0.6725331544876099,0.42000001668930054,-0.7276191115379333,0.425065815448761,-1.4660885334014893,-3.0,-0.16514845192432404,-0.1611223667860031,-0.15621311962604523,-0.15026186406612396,0.027093077078461647,0.017497755587100983,0.027513984590768814,0.04235117882490158
0.8666666666666667,0.24206748604774475,-0.04200839623808861,0.0,0.7165728211402893,0.0,0.0,-0.6975122690200806,-0.1547439992427826,0.1569603532552719,0.0,0.0,0.0,-0.49895796179771423,0.4914969801902771,0.6677196025848389,0.41999998688697815,0.5955324172973633,-2.835461145878071e-06,-4.620449999492848e-06,-0.8033312559127808,4.220403570798226e-05,-0.00035914528416469693,-0.00010051135905086994,0.00855901651084423,-0.0029169609770178795,-0.0005749036208726466,0.5756282806396484,0.6734622716903687,0.5583897829055786,0.38006484508514404,-0.0924057587981224,0.21353207528591156,0.4696948528289795,0.6725331544876099,0.42000001668930054,-0.7196236252784729,0.5196316838264465,-1.4702783823013306,2.063188314437866,-0.16362814605236053,-0.1604214608669281,-0.15599974989891052,-0.15041683614253998,0.13398903608322144,0.0660567581653595,0.015162643976509571,-0.02940698340535164
