vladlanda/robotic-transformer/data/env_000_episode_0038.csv
sim_time_s,robot_box_x,robot_box_y,robot_box_z,robot_box_quat_w,robot_box_quat_x,robot_box_quat_y,robot_box_quat_z,robot_box_linvel_x,robot_box_linvel_y,robot_box_linvel_z,robot_box_angvel_x,robot_box_angvel_y,robot_box_angvel_z,cube_world_x,cube_world_y,cube_world_z,cube_quat_w,cube_quat_x,cube_quat_y,cube_quat_z,cube_linvel_x,cube_linvel_y,cube_linvel_z,cube_angvel_x,cube_angvel_y,cube_angvel_z,endpoint_world_x,endpoint_world_y,endpoint_world_z,endpoint_linvel_x,endpoint_linvel_y,endpoint_linvel_z,target_cube_world_x,target_cube_world_y,target_cube_world_z,gripper_actual_pos_rad_gp_leftgearjoint,gripper_actual_vel_rad_s_gp_leftgearjoint,gripper_actual_pos_rad_gp_rotatingjoint,gripper_actual_vel_rad_s_gp_rotatingjoint,motor_angle_rad_joint1,motor_angle_rad_joint2,motor_angle_rad_joint3,motor_angle_rad_joint4,motor_speed_rad_s_joint1,motor_speed_rad_s_joint2,motor_speed_rad_s_joint3,motor_speed_rad_s_joint4
0.0,0.0,0.0,0.0,1.0,0.0,0.0,0.0,0.0,0.0,0.0,0.0,0.0,0.0,-0.45258206129074097,0.7487223148345947,0.41999998688697815,1.0,0.0,0.0,0.0,0.0,0.0,0.0,0.0,0.0,0.0,3.42540442943573e-06,-0.005000244826078415,1.313499927520752,0.0,0.0,0.0,0.4746549129486084,0.7601577043533325,0.42000001668930054,-1.5707999467849731,0.0,0.0,0.0,0.0,0.0,0.0,0.0,0.0,0.0,0.0,0.0
0.016666666666666666,0.0028778850100934505,0.0021806680597364902,0.0,0.9998081922531128,0.0,0.0,0.019586581736803055,0.24087215960025787,0.18240931630134583,0.0,0.0,0.0,3.1418697834014893,-0.4525821805000305,0.7487220168113708,0.41999998688697815,1.0,3.2799832752061775e-06,-8.339598593920527e-07,8.465660528145236e-08,-1.9833856640616432e-05,0.00017983021098189056,-6.132945418357849e-05,0.0009432561928406358,-0.004689492750912905,-0.0003198107879143208,-0.007110234349966049,0.003379564033821225,1.3159373998641968,-0.8143353462219238,0.9868683815002441,0.18095196783542633,0.4746549129486084,0.7601577043533325,0.42000001668930054,-1.5301095247268677,3.0000011920928955,-0.04584788903594017,-2.9999992847442627,0.0008691533003002405,0.0007963840034790337,0.0007110277656465769,0.0006108740926720202,0.11094217747449875,0.09756709635257721,0.08334315568208694,0.06823883205652237
0.03333333333333333,0.00896099116653204,0.006802027579396963,0.0,0.9997960329055786,0.0,0.0,0.020196840167045593,0.4070222079753876,0.3153079152107239,0.0,0.0,0.0,-0.8691337704658508,-0.45258229970932007,0.7487219572067261,0.4200000464916229,1.0,3.39081861966406e-06,-2.1323587588994997e-06,-3.7098015326364475e-08,0.0002635778218973428,0.00026937888469547033,-0.00010509602725505829,-0.0017707271035760641,0.0041307792998850346,-0.000135479771415703,-0.027556639164686203,0.02629934810101986,1.3165804147720337,-1.5912965536117554,1.6163429021835327,-0.08707208186388016,0.4746549129486084,0.7601577043533325,0.42000001668930054,-1.4800903797149658,3.0000007152557373,-0.09588771313428879,-3.000000238418579,0.002990090986713767,0.0026526888832449913,0.0022772483061999083,0.0018606933299452066,0.1642124056816101,0.13975512981414795,0.11381323635578156,0.08629471808671951
0.05,0.01771640032529831,0.013764498755335808,0.0,0.9993875622749329,0.0,0.0,0.03499270975589752,0.59312504529953,0.4648137390613556,0.0,0.0,0.0,2.653585433959961,-0.45258232951164246,0.7487220168113708,0.4200000464916229,1.0,3.765183919313131e-06,-2.2118208562460495e-06,5.611563214102944e-09,0.0002653097326401621,0.00026691521634347737,-0.0001044049859046936,-0.0017243342008441687,0.004177424591034651,-0.00012949183292221278,-0.059683751314878464,0.055075205862522125,1.3113009929656982,-2.187629222869873,1.8593087196350098,-0.5096983313560486,0.4746549129486084,0.7601577043533325,0.42000001668930054,-1.4300720691680908,3.0000033378601074,-0.1459263563156128,-3.0000007152557373,0.0056939939968287945,0.004902439657598734,0.004038799088448286,0.003098605200648308,0.19233392179012299,0.15541747212409973,0.1166316494345665,0.07588361203670502
0.06666666666666667,0.02902097813785076,0.023053990676999092,0.0,0.9994576573371887,0.0,0.0,0.0329296700656414,0.7197246551513672,0.5949785113334656,0.0,0.0,0.0,-1.205800175666809,-0.45258232951164246,0.7487219572067261,0.4200000464916229,0.9999999403953552,3.4068107197526842e-06,-2.2855549559608335e-06,4.3007796080019034e-07,0.0002670242392923683,0.0002679162425920367,-0.00010437914170324802,-0.0017406085971742868,0.004211718216538429,-0.0001285039325011894,-0.09660691767930984,0.0912729799747467,1.2984178066253662,-2.2710282802581787,2.366387367248535,-1.0050694942474365,0.4746549129486084,0.7601577043533325,0.42000001668930054,-1.3800537586212158,2.999999761581421,-0.19596366584300995,-3.0000009536743164,0.00810445100069046,0.006565777584910393,0.004916070494800806,0.0031491578556597233,0.1315990686416626,0.07463355362415314,0.015620986931025982,-0.04551218822598457
0.08333333333333333,0.038049060851335526,0.03506472706794739,0.0,0.9999999403953552,0.0,0.0,0.0002954995434265584,0.43722110986709595,0.7831054329872131,0.0,0.0,0.0,-4.838162422180176,-0.45258232951164246,0.7487219572067261,0.4200000464916229,1.0,3.697329702845309e-06,-2.1888738501729676e-06,-2.632421285397868e-07,0.0002638976147864014,0.00026586613967083395,-0.00010433932766318321,-0.001708156312815845,0.004150198306888342,-0.00012991606490686536,-0.13174749910831451,0.13486972451210022,1.278625249862671,-2.0174453258514404,2.7432329654693604,-1.331831455230713,0.4746549129486084,0.7601577043533325,0.42000001668930054,-1.3300362825393677,3.000002145767212,-0.24078567326068878,-2.3908324241638184,0.006837660446763039,0.004429328255355358,0.001866465201601386,-0.000859960971865803,-0.17738541960716248,-0.23383717238903046,-0.29262855648994446,-0.3539353907108307
0.1,0.041927240788936615,0.049251001328229904,0.0,0.9998844861984253,0.0,0.0,-0.015198837034404278,0.14377228915691376,0.756531298160553,0.0,0.0,0.0,-0.7112058997154236,-0.45258232951164246,0.7487219572067261,0.4200000464916229,0.9999999403953552,3.620408961069188e-06,-2.265111106680706e-06,1.7460979506722651e-07,0.0002667685621418059,0.00026740742032416165,-0.0001040799543261528,-0.0017385648097842932,0.00420914264395833,-0.00012775155482813716,-0.16837181150913239,0.17727486789226532,1.255736231803894,-2.1857752799987793,2.579318046569824,-1.3385841846466064,0.4746549129486084,0.7601577043533325,0.42000001668930054,-1.280027151107788,2.999999761581421,-0.29025182127952576,-2.999999761581421,0.001953632803633809,-0.0014940177788957953,-0.005120689980685711,-0.008938410319387913,-0.2445477992296219,-0.32938724756240845,-0.41387349367141724,-0.49808943271636963
0.11666666666666667,0.051962874829769135,0.06563156843185425,0.0,0.9990411996841431,0.0,0.0,-0.0437801256775856,0.6288986802101135,0.9748643040657043,0.0,0.0,0.0,-4.196959972381592,-0.45258232951164246,0.7487219572067261,0.4200000464916229,1.0,3.7984264054102823e-06,-2.2626581994700246e-06,-1.5021373656054493e-07,0.0002637417346704751,0.00026566089945845306,-0.00010428880341351032,-0.0017054196214303374,0.004147616680711508,-0.00012979877647012472,-0.1999775767326355,0.22802437841892242,1.232753038406372,-1.7111896276474,3.3898425102233887,-1.447023868560791,0.4746549129486084,0.7601577043533325,0.42000001668930054,-1.2299989461898804,2.999990224838257,-0.257222443819046,3.000000238418579,0.00362386554479599,-0.0021381708793342113,-0.008022409863770008,-0.014037043787539005,-0.049076177179813385,-0.1759859174489975,-0.3003745675086975,-0.42206400632858276
0.13333333333333333,0.05908557027578354,0.08412640541791916,0.0,0.9951205849647522,0.0,0.0,-0.09866593778133392,0.38174155354499817,1.1668578386306763,0.0,0.0,0.0,-7.348641872406006,-0.45258232951164246,0.7487220168113708,0.4200000464916229,0.9999999403953552,3.5505834148352733e-06,-2.229631036243518e-06,2.9289705594237603e-07,0.00026703314506448805,0.000267793278908357,-0.00010416889563202858,-0.0017440826632082462,0.004213642794638872,-0.00012800424883607775,-0.22851993143558502,0.2848535180091858,1.2104495763778687,-1.696631908416748,3.476437568664551,-1.2810475826263428,0.4746549129486084,0.7601577043533325,0.42000001668930054,-1.1925418376922607,1.584118366241455,-0.28829681873321533,-2.9999992847442627,0.00079571851529181,-0.006999565754085779,-0.014864638447761536,-0.022804373875260353,-0.20837366580963135,-0.3267265260219574,-0.44138678908348083,-0.5521036982536316
0.15,0.06332221627235413,0.10063432157039642,0.0,0.9911738634109497,0.0,0.0,-0.1325681358575821,0.1999073177576065,0.9145140051841736,0.0,0.0,0.0,-3.028731107711792,-0.45258232951164246,0.7487219572067261,0.4200000464916229,0.9999999403953552,3.338187298140838e-06,-2.2427418571169255e-06,-2.804477539086747e-08,0.00026674612308852375,0.00026758070453070104,-0.00010427739471197128,-0.0017367061227560043,0.004206916783004999,-0.00012831547064706683,-0.2649531960487366,0.33972275257110596,1.1847904920578003,-2.2434744834899902,3.5201973915100098,-1.8027324676513672,0.4746549129486084,0.7601577043533325,0.42000001668930054,-1.1504112482070923,2.9999935626983643,-0.2741054594516754,3.0000007152557373,-0.0034857161808758974,-0.012968651950359344,-0.02244856394827366,-0.031927429139614105,-0.3210975229740143,-0.40231022238731384,-0.4792982041835785,-0.5519921183586121
0.16666666666666666,0.06388042122125626,0.11747487634420395,0.0,0.9840631484985352,0.0,0.0,-0.1778194159269333,-0.032307788729667664,1.0508856773376465,0.0,0.0,0.0,-6.345095157623291,-0.45258232951164246,0.7487220168113708,0.4200000464916229,0.9999999403953552,3.6479573282122146e-06,-2.3072102521837223e-06,3.523956593198818e-08,0.00026726999203674495,0.0002680135949049145,-0.00010418728925287724,-0.001747245667502284,0.0042176335118710995,-0.00012798208626918495,-0.30003517866134644,0.4011601209640503,1.1532490253448486,-1.8731346130371094,3.9546985626220703,-2.0248475074768066,0.4746549129486084,0.7601577043533325,0.42000001668930054,-1.1071064472198486,2.2256593704223633,-0.30504608154296875,-2.9999990463256836,-0.010800479911267757,-0.021557539701461792,-0.0322331041097641,-0.042827919125556946,-0.5300216674804688,-0.5952695608139038,-0.6560572385787964,-0.712338387966156
0.18333333333333332,0.06816985458135605,0.13379378616809845,0.0,0.978666365146637,0.0,0.0,-0.20545583963394165,0.25587692856788635,0.9500583410263062,0.0,0.0,0.0,-2.291858196258545,-0.45258232951164246,0.7487219572067261,0.4200000464916229,0.9999999403953552,3.2907466902543092e-06,-2.1938460577075602e-06,-2.792836255594011e-07,0.00026677740970626473,0.00026775922742672265,-0.00010433956049382687,-0.0017390171997249126,0.004206871148198843,-0.00012846080062445253,-0.3361537456512451,0.4648245573043823,1.110730767250061,-2.1062169075012207,4.020848274230957,-3.059763193130493,0.4746549129486084,0.7601577043533325,0.42000001668930054,-1.0745627880096436,1.6986793279647827,-0.3550734519958496,-2.999999761581421,-0.018875792622566223,-0.03019595704972744,-0.041375234723091125,-0.052419256418943405,-0.6893978714942932,-0.6724496483802795,-0.6542407274246216,-0.635260283946991
0.2,0.06808454543352127,0.15187740325927734,0.0,0.9693679809570312,0.0,0.0,-0.2456130087375641,-0.042862892150878906,1.1062864065170288,0.0,0.0,0.0,-5.783961296081543,-0.45258232951164246,0.7487219572067261,0.4200000464916229,1.0,3.281018734924146e-06,-2.2191513835423393e-06,1.594105611957275e-07,0.00026627889019437134,0.0002674002607818693,-0.0001042510848492384,-0.0017357075121253729,0.0041977171786129475,-0.00012864933523815125,-0.3709092438220978,0.532585859298706,1.0526564121246338,-1.9243602752685547,4.195821762084961,-3.8197696208953857,0.4746549129486084,0.7601577043533325,0.42000001668930054,-1.027262568473816,3.0000007152557373,-0.40509891510009766,-2.999999523162842,-0.03338087722659111,-0.044848475605249405,-0.05554039403796196,-0.06571896374225616,-0.8706470131874084,-0.8720739483833313,-0.8397471308708191,-0.7853886485099792
0.21666666666666667,0.07260555773973465,0.16573728621006012,0.0,0.9634789824485779,0.0,0.0,-0.2677839696407318,0.2987869083881378,0.7363249659538269,0.0,0.0,0.0,-1.6492514610290527,-0.45258232951164246,0.7487220168113708,0.4200000464916229,1.0,3.6133887988398783e-06,-2.2700851332047023e-06,2.2095262863786047e-07,0.00026712619001045823,0.00026781720225699246,-0.00010414118878543377,-0.0017445421544834971,0.004215226974338293,-0.00012786578736267984,-0.40488508343696594,0.5971081852912903,0.9809476137161255,-1.8183395862579346,3.807692527770996,-4.781004905700684,0.4746549129486084,0.7601577043533325,0.42000001668930054,-0.9772602319717407,3.0000009536743164,-0.4551248252391815,-3.0000014305114746,-0.04678216949105263,-0.0577072836458683,-0.06743635982275009,-0.07639119774103165,-0.9578984379768372,-0.8806077837944031,-0.7863324880599976,-0.6826815009117126
0.23333333333333334,0.07132843881845474,0.18235546350479126,0.0,0.9528518915176392,0.0,0.0,-0.30343571305274963,-0.17214390635490417,0.977746307849884,0.0,0.0,0.0,-5.34389066696167,-0.45258232951164246,0.7487219572067261,0.4200000464916229,1.0,3.382148179298383e-06,-2.2908925529918633e-06,2.727378500821942e-07,0.00026691448874771595,0.00026779979816637933,-0.00010433024726808071,-0.001739569823257625,0.004209708422422409,-0.00012843745935242623,-0.4309118986129761,0.6537643671035767,0.8934339284896851,-1.303955078125,3.1566689014434814,-5.4986138343811035,0.4746549129486084,0.7601577043533325,0.42000001668930054,-0.9272500872612,2.999999523162842,-0.5051530599594116,-2.999999761581421,-0.06303726136684418,-0.07391869276762009,-0.0836479514837265,-0.09253061562776566,-0.8189521431922913,-0.8424817323684692,-0.867286741733551,-0.8910680413246155
0.25,0.075330950319767,0.1936497539281845,0.0,0.946956992149353,0.0,0.0,-0.321360319852829,0.2553566098213196,0.5840520858764648,0.0,0.0,0.0,-1.1627552509307861,-0.45258229970932007,0.7487219572067261,0.4200000464916229,0.9999999403953552,3.70682323591609e-06,-2.222986950073391e-06,-2.255617914670438e-07,0.00026424857787787914,0.00026656937552616,-0.00010458100587129593,-0.0017170169157907367,0.004155629780143499,-0.00013063172809779644,-0.45316582918167114,0.6990265846252441,0.7978674173355103,-1.0470150709152222,2.3499836921691895,-6.045320510864258,0.4746549129486084,0.7601577043533325,0.42000001668930054,-0.8772394061088562,3.000000238418579,-0.5551828145980835,-3.0000011920928955,-0.07441280782222748,-0.08525645732879639,-0.09501876682043076,-0.10396621376276016,-0.9195953011512756,-0.856961190700531,-0.8031290769577026,-0.7560473680496216
0.26666666666666666,0.07482506334781647,0.20122340321540833,0.0,0.9423628449440002,0.0,0.0,-0.33459264039993286,-0.12925982475280762,0.4009963274002075,0.0,0.0,0.0,-1.921093463897705,-0.45258232951164246,0.7487219572067261,0.4200000464916229,0.9999999403953552,3.7199345115368487e-06,-2.4035207388806157e-06,-1.8313633631805715e-07,0.0002662320912349969,0.000267291150521487,-0.00010425853542983532,-0.0017326887464150786,0.004196553956717253,-0.00012850847269874066,-0.46752333641052246,0.7284336090087891,0.6942396759986877,-0.550171971321106,1.290278673171997,-6.320164680480957,0.4746549129486084,0.7601577043533325,0.42000001668930054,-0.8272289633750916,2.9999992847442627,-0.6052125692367554,-2.9999992847442627,-0.09120690822601318,-0.10197746008634567,-0.11166661232709885,-0.12050798535346985,-0.9938905835151672,-0.9953182935714722,-0.996404230594635,-0.9972610473632812
0.2833333333333333,0.0705854743719101,0.20513208210468292,0.0,0.9444590210914612,0.0,0.0,-0.32862916588783264,-0.24402737617492676,0.15202143788337708,0.0,0.0,0.0,1.5138999223709106,-0.45258232951164246,0.7487219572067261,0.4200000464916229,0.9999999403953552,3.783127340284409e-06,-2.424309741400066e-06,2.6969897248818597e-07,0.00026540548424236476,0.0002650861570145935,-0.00010338099673390388,-0.001708629191853106,0.004187512211501598,-0.00012571841944009066,-0.4748566150665283,0.7378023266792297,0.5898419618606567,-0.2729683220386505,0.017323538661003113,-6.247793674468994,0.4746549129486084,0.7601577043533325,0.42000001668930054,-0.7772201299667358,2.999993324279785,-0.6552423238754272,-2.9999966621398926,-0.10749997943639755,-0.11823878437280655,-0.12795202434062958,-0.13683632016181946,-0.8837111592292786,-0.8924858570098877,-0.9040534496307373,-0.9154224991798401
0.3,0.06492934376001358,0.20573075115680695,0.0,0.94105064868927,0.0,0.0,-0.3382657468318939,-0.38643878698349,-0.005237783771008253,0.0,0.0,0.0,-2.0917105674743652,-0.45258232951164246,0.7487219572067261,0.4200000464916229,0.9999999403953552,3.595015868995688e-06,-2.293348643434001e-06,3.1973758041203837e-07,0.0002659793826751411,0.0002666958898771554,-0.00010402454063296318,-0.0017263191984966397,0.004193468950688839,-0.0001278812123928219,-0.4735453128814697,0.7429369688034058,0.48988795280456543,0.4459441304206848,0.3847188949584961,-5.533542633056641,0.4746549129486084,0.7601577043533325,0.42000001668930054,-0.7272114157676697,3.0000016689300537,-0.705269992351532,-3.0000009536743164,-0.12481071799993515,-0.1354360431432724,-0.14506569504737854,-0.15387991070747375,-1.0266960859298706,-1.020198106765747,-1.0152515172958374,-1.011293649673462
0.31666666666666665,0.05719867721199989,0.2038617879152298,0.0,0.9431962966918945,0.0,0.0,-0.3322359621524811,-0.5076730251312256,-0.15412075817584991,0.0,0.0,0.0,1.6306926012039185,-0.45258232951164246,0.7487219572067261,0.4200000464916229,0.9999999403953552,3.600428499339614e-06,-2.2995473045739345e-06,1.9272300733064185e-07,0.00026597053511068225,0.0002667028165888041,-0.00010403105989098549,-0.001726472401060164,0.0041933427564799786,-0.0001279159914702177,-0.4627855718135834,0.7473812699317932,0.4003552794456482,0.9417524933815002,0.06322923302650452,-5.320068836212158,0.4746549129486084,0.7601577043533325,0.42000001668930054,-0.6772045493125916,2.99999737739563,-0.7552957534790039,-2.9999992847442627,-0.1417783945798874,-0.15230639278888702,-0.1618655025959015,-0.1706264168024063,-1.0000896453857422,-1.0000531673431396,-1.0000289678573608,-1.0000118017196655
0.3333333333333333,0.047223303467035294,0.1995372474193573,0.0,0.9400859475135803,0.0,0.0,-0.3409375548362732,-0.6460545063018799,-0.2991389334201813,0.0,0.0,0.0,-2.003664493560791,-0.4525805711746216,0.7487168908119202,0.42000073194503784,1.0,5.437758954940364e-05,3.178072802256793e-05,1.9493129457259784e-06,-0.0032212580554187298,0.0030218479223549366,-0.002455164911225438,-0.012126293033361435,-0.09258806705474854,-0.012667081318795681,-0.46520957350730896,0.7545192837715149,0.4273566007614136,0.35064440965652466,0.7708977460861206,-0.12067234516143799,0.4746549129486084,0.7601577043533325,0.42000001668930054,-0.6274351477622986,3.0000016689300537,-0.8057265281677246,-2.939034938812256,-0.13724949955940247,-0.1503300964832306,-0.16190694272518158,-0.1719994843006134,0.0211351215839386,-0.06793640553951263,-0.13579367101192474,-0.17522795498371124
0.35,0.03573108837008476,0.192874476313591,0.0,0.9423724412918091,0.0,0.0,-0.3345656991004944,-0.7613071203231812,-0.44587838649749756,0.0,0.0,0.0,1.747805118560791,-0.44574877619743347,0.7574639916419983,0.42080533504486084,0.9977521300315857,0.02050979807972908,-0.0012096329592168331,-0.06378462165594101,0.4002706706523895,0.5000559687614441,0.01686258427798748,0.8707261681556702,-0.0631893128156662,-6.616547107696533,-0.4583156108856201,0.7640461921691895,0.42538130283355713,0.5627040863037109,0.5825086832046509,-0.08694810420274734,0.4746549129486084,0.7601577043533325,0.42000001668930054,-0.5774296522140503,3.0000011920928955,-0.8557506203651428,-2.9999983310699463,-0.14033286273479462,-0.15343259274959564,-0.1647362858057022,-0.1741793304681778,-0.27269676327705383,-0.2226831018924713,-0.1571996808052063,-0.07243534922599792
0.36666666666666664,0.028679341077804565,0.18317922949790955,0.0,0.9396198391914368,0.0,0.0,-0.34222009778022766,-0.5035715699195862,-0.5952945351600647,0.0,0.0,0.0,-1.6510989665985107,-0.43619537353515625,0.7689893245697021,0.42067456245422363,0.9861409664154053,0.016902580857276917,-0.003167001763358712,-0.1650160402059555,0.6287133097648621,0.7493369579315186,-0.037661172449588776,-1.9249695539474487,0.4263588488101959,-14.09192943572998,-0.44626080989837646,0.7769030332565308,0.4224650263786316,0.8435326814651489,0.8042216300964355,-0.10742190480232239,0.4746549129486084,0.7601577043533325,0.42000001668930054,-0.5274247527122498,2.9999637603759766,-0.9057824015617371,-2.999997615814209,-0.143988698720932,-0.15605196356773376,-0.1660912036895752,-0.17398549616336823,-0.4951368570327759,-0.3633783757686615,-0.22292423248291016,-0.07244816422462463
0.3833333333333333,0.016156209632754326,0.17230422794818878,0.0,0.9267086982727051,0.0,0.0,-0.3757805824279785,-0.8403642177581787,-0.6793357133865356,0.0,0.0,0.0,-5.233598709106445,-0.4211185872554779,0.7858059406280518,0.4200976490974426,0.9796429872512817,-0.0023922803811728954,0.000416259397752583,-0.2007327675819397,1.0977941751480103,1.1909762620925903,0.04558848589658737,-2.112632989883423,0.8237491846084595,-4.910784721374512,-0.42943906784057617,0.7917193174362183,0.42214637994766235,1.2155956029891968,1.0687892436981201,0.08153333514928818,0.4746549129486084,0.7601577043533325,0.42000001668930054,-0.47739726305007935,3.0000007152557373,-0.9558077454566956,-2.9999663829803467,-0.15574142336845398,-0.1645839363336563,-0.17125731706619263,-0.17564710974693298,-0.7367458343505859,-0.5193796753883362,-0.2928858697414398,-0.05845005810260773
0.4,0.006930819246917963,0.15843243896961212,0.0,0.900926411151886,0.0,0.0,-0.43397194147109985,-0.5216732025146484,-0.8793428540229797,0.0,0.0,0.0,-8.37967586517334,-0.3952346742153168,0.812329888343811,0.4209231436252594,0.9684227108955383,-0.010223145596683025,-0.012002487666904926,-0.24881474673748016,2.234036922454834,1.7729212045669556,0.1621973067522049,3.7137489318847656,-3.1401443481445312,-12.005882263183594,-0.4021357297897339,0.8161749839782715,0.4237200617790222,2.1672959327697754,1.822628378868103,0.10192935168743134,0.4746549129486084,0.7601577043533325,0.42000001668930054,-0.4273681938648224,2.9839255809783936,-1.0058225393295288,-2.999803304672241,-0.16639985144138336,-0.17158076167106628,-0.17439907789230347,-0.17477045953273773,-0.6987557411193848,-0.44824209809303284,-0.18761910498142242,0.07992381602525711
0.4166666666666667,0.0013903151266276836,0.1416098177433014,0.0,0.8602226972579956,0.0,0.0,-0.5099185109138489,-0.25878584384918213,-1.063056468963623,0.0,0.0,0.0,-11.037895202636719,-0.33837270736694336,0.8492640256881714,0.42763546109199524,0.9521209001541138,0.03506103530526161,-0.042910847812891006,-0.30065783858299255,4.612381935119629,2.908191680908203,0.5419008135795593,18.61625099182129,-16.263385772705078,2.9913361072540283,-0.3450285792350769,0.854748010635376,0.43020403385162354,4.4547200202941895,2.747694492340088,0.605650782585144,0.4746549129486084,0.7601577043533325,0.42000001668930054,-0.39130935072898865,1.2224860191345215,-0.9684001207351685,2.9978270530700684,-0.18125461041927338,-0.1810648888349533,-0.17849411070346832,-0.17356088757514954,-0.9045220017433167,-0.5743287205696106,-0.24930903315544128,0.06356313079595566
0.43333333333333335,-0.0016550578875467181,0.13012975454330444,0.0,0.8006436824798584,0.0,0.0,-0.5991408228874207,-0.1362566351890564,-0.553670346736908,0.0,0.0,0.0,-13.681605339050293,-0.23942959308624268,0.8950498700141907,0.439121276140213,0.9239422082901001,0.11201886087656021,-0.07896193861961365,-0.3571380376815796,7.504920959472656,2.2991724014282227,0.8369206786155701,6.485534191131592,-12.199222564697266,15.373044967651367,-0.2459184229373932,0.9015418291091919,0.44184139370918274,7.202408790588379,2.8984408378601074,0.8082499504089355,0.4746549129486084,0.7601577043533325,0.42000001668930054,-0.3741581439971924,0.9297857880592346,-0.9183803200721741,2.9986090660095215,-0.19738484919071198,-0.19657671451568604,-0.18957704305648804,-0.17825183272361755,-0.934620201587677,-0.9184790253639221,-0.7953646779060364,-0.42119523882865906
0.45,-0.007963685318827629,0.12519556283950806,0.0,0.74761563539505,0.0,0.0,-0.6641317009925842,-0.3169572949409485,-0.38598984479904175,0.0,0.0,0.0,-8.446823120117188,-0.12218105792999268,0.9246154427528381,0.45345327258110046,0.8806039094924927,0.1401645988225937,-0.08732866495847702,-0.44414448738098145,7.1662750244140625,1.4613704681396484,0.8855968117713928,10.993101119995117,-5.500919342041016,-6.231438636779785,-0.1276354193687439,0.9343302249908447,0.45625731348991394,7.098324775695801,1.4163799285888672,0.8775796294212341,0.4746549129486084,0.7601577043533325,0.42000001668930054,-0.35805726051330566,0.9819621443748474,-0.9442650675773621,-3.0000009536743164,-0.21234169602394104,-0.21156004071235657,-0.2045968472957611,-0.18867531418800354,-0.5539963245391846,-0.6270192265510559,-0.6998045444488525,-0.5140337347984314
0.4666666666666667,-0.009091510437428951,0.1126013845205307,0.0,0.7161834239959717,0.0,0.0,-0.6979120969772339,0.00780149269849062,-0.9333704113960266,0.0,0.0,0.0,-4.560770034790039,-0.0030824877321720123,0.9382376074790955,0.46562907099723816,0.8229446411132812,0.13945209980010986,-0.08444614708423615,-0.5442280173301697,7.234780788421631,-0.6349865794181824,0.7936557531356812,11.881033897399902,-7.857126235961914,22.035369873046875,-0.007781879045069218,0.9497182369232178,0.46873459219932556,7.239739418029785,0.20771566033363342,0.6802926063537598,0.4746549129486084,0.7601577043533325,0.42000001668930054,-0.3420598804950714,0.8721035718917847,-0.9942891001701355,-3.0000016689300537,-0.22018519043922424,-0.2188691347837448,-0.2115524709224701,-0.19204458594322205,-0.4056527018547058,-0.302033394575119,-0.2162054032087326,0.009673529304564
0.48333333333333334,-0.013452676124870777,0.10372636467218399,0.0,0.7074063420295715,0.0,0.0,-0.7068071365356445,-0.21097305417060852,-0.41079455614089966,0.0,0.0,0.0,-0.36972665786743164,0.10881830006837845,0.9269808530807495,0.47385933995246887,0.7298840880393982,0.10711266845464706,-0.12816178798675537,-0.6628503799438477,5.868042469024658,-1.8161641359329224,0.26903772354125977,-16.172447204589844,0.7025176882743835,5.49888277053833,0.10400434583425522,0.9432204961776733,0.4797872304916382,6.234130859375,-0.8337759375572205,0.6073071956634521,0.4746549129486084,0.7601577043533325,0.42000001668930054,-0.32988792657852173,0.5600308179855347,-1.0443127155303955,-2.999577045440674,-0.23288367688655853,-0.22832082211971283,-0.2181445211172104,-0.19456255435943604,-0.652340292930603,-0.5053274631500244,-0.3652760684490204,-0.19156727194786072
0.5,-0.014412010088562965,0.09576105326414108,0.0,0.6903114914894104,0.0,0.0,-0.7235122919082642,-0.0075761000625789165,-0.46549686789512634,0.0,0.0,0.0,-3.710103988647461,0.20153599977493286,0.902531087398529,0.4727850556373596,0.6072735786437988,-0.015059630386531353,-0.21419771015644073,-0.7649256587028503,4.364998817443848,-2.6066460609436035,0.1596604883670807,-12.926862716674805,12.963024139404297,32.10997009277344,0.1963830292224884,0.9231553077697754,0.4847177267074585,5.4305219650268555,-1.8580037355422974,0.0570109523832798,0.4746549129486084,0.7601577043533325,0.42000001668930054,-0.32389137148857117,0.11445564776659012,-1.094334602355957,-2.9933676719665527,-0.24003960192203522,-0.234505295753479,-0.22170855104923248,-0.19551193714141846,-0.08857833594083786,-0.4547923803329468,-0.2379823476076126,-0.05677173659205437
0.5166666666666666,-0.012391876429319382,0.09127549082040787,0.0,0.6873334646224976,0.0,0.0,-0.726341962814331,0.15250632166862488,-0.19143101572990417,0.0,0.0,0.0,0.40935420989990234,0.27898964285850525,0.8687735199928284,0.4692808985710144,0.5253964066505432,-0.026046322658658028,-0.17106036841869354,-0.8330777287483215,4.134262561798096,-2.143629550933838,-0.07720835506916046,5.527163505554199,9.389521598815918,-15.881437301635742,0.2760452926158905,0.8880799412727356,0.48030635714530945,4.357565402984619,-2.44683575630188,-0.5829836130142212,0.4746549129486084,0.7601577043533325,0.42000001668930054,-0.32347816228866577,0.055823154747486115,-1.1443567276000977,-2.997649908065796,-0.23998315632343292,-0.23998108506202698,-0.22478774189949036,-0.19651852548122406,3.5514807677827775e-05,1.6438838429166935e-05,-0.10018360614776611,-0.03709442913532257
0.5333333333333333,-0.008147109299898148,0.09067331999540329,0.0,0.6753751635551453,0.0,0.0,-0.7374743223190308,0.3041548728942871,0.03223029896616936,0.0,0.0,0.0,-2.8311290740966797,0.34117281436920166,0.8300555348396301,0.4562523066997528,0.4691839814186096,-0.06326387822628021,-0.15991650521755219,-0.8661931753158569,3.1613926887512207,-2.576136827468872,-0.7293376326560974,-1.499526023864746,15.207313537597656,-5.2150559425354,0.3413417339324951,0.8508244752883911,0.46793848276138306,3.4947352409362793,-2.2482478618621826,-0.9879324436187744,0.4746549129486084,0.7601577043533325,0.42000001668930054,-0.3213385045528412,0.2320575714111328,-1.1943788528442383,-2.997652053833008,-0.23811303079128265,-0.2383928894996643,-0.2253221720457077,-0.1972883641719818,0.21704348921775818,0.19573047757148743,0.05171370133757591,-0.02715463377535343
0.55,-0.0008892471669241786,0.08735694736242294,0.0,0.6757651567459106,0.0,0.0,-0.7371169924736023,0.4990676939487457,-0.34925979375839233,0.0,0.0,0.0,0.987342119216919,0.3887559175491333,0.7932499647140503,0.4386806786060333,0.41764143109321594,-0.10666979104280472,-0.14082489907741547,-0.8912718892097473,2.198115587234497,-2.429326295852661,-0.8434449434280396,2.6691513061523438,12.843972206115723,0.42755722999572754,0.3918135166168213,0.8140518665313721,0.4503127932548523,2.548029661178589,-2.150167465209961,-1.179530143737793,0.4746549129486084,0.7601577043533325,0.42000001668930054,-0.3144528567790985,0.5034858584403992,-1.244400978088379,-2.999053478240967,-0.23038481175899506,-0.23137004673480988,-0.22118259966373444,-0.19564801454544067,0.6226163506507874,0.5672890543937683,0.3744335174560547,0.16730663180351257
0.5666666666666667,0.008033985272049904,0.08615807443857193,0.0,0.6654900312423706,0.0,0.0,-0.7464067339897156,0.561991810798645,0.021554918959736824,0.0,0.0,0.0,-2.599012613296509,0.4237421154975891,0.7715635895729065,0.4241596758365631,0.4047416150569916,-0.09546880424022675,-0.039248351007699966,-0.9085865020751953,1.4396495819091797,-0.9865659475326538,0.10828480124473572,-10.688281059265137,4.128698825836182,-1.2436810731887817,0.4278663992881775,0.7882444262504578,0.43512219190597534,1.4875614643096924,-0.8759396076202393,-0.0876540094614029,0.4746549129486084,0.7601577043533325,0.42000001668930054,-0.3049251437187195,0.572574257850647,-1.2922627925872803,-2.785804033279419,-0.21939997375011444,-0.2219475507736206,-0.2154998779296875,-0.1943112164735794,0.7415499091148376,0.6215891242027283,0.3786594867706299,0.08154269307851791
0.5833333333333334,0.01909712329506874,0.08287515491247177,0.0,0.667209267616272,0.0,0.0,-0.7448703646659851,0.6834196448326111,-0.19942131638526917,0.0,0.0,0.0,1.212066650390625,0.4447297751903534,0.7585110664367676,0.42385417222976685,0.39973023533821106,-0.07967210561037064,-0.048502326011657715,-0.9118747711181641,0.7601628303527832,-1.1250550746917725,0.17422889173030853,-9.59567928314209,7.4760942459106445,4.995977401733398,0.4474104046821594,0.7746466398239136,0.4354403018951416,0.8808670043945312,-0.7759525179862976,0.05618605017662048,0.4746549129486084,0.7601577043533325,0.42000001668930054,-0.29514217376708984,0.5676009654998779,-1.2533445358276367,3.0000030994415283,-0.2074621319770813,-0.2114209234714508,-0.20840828120708466,-0.19195711612701416,0.5424636006355286,0.5101965665817261,0.35673120617866516,0.10270406305789948
0.6,0.027399305254220963,0.08247213065624237,0.0,0.6582396030426025,0.0,0.0,-0.7528085112571716,0.43107250332832336,0.021817199885845184,0.0,0.0,0.0,-2.3463807106018066,0.45659172534942627,0.750907301902771,0.4232581853866577,0.41501227021217346,-0.0815977230668068,-0.03573793172836304,-0.905444324016571,0.4734284579753876,-0.5120779871940613,0.23258614540100098,-15.305001258850098,9.02841567993164,17.233858108520508,0.45880842208862305,0.766492486000061,0.43499982357025146,0.396679162979126,-0.19160301983356476,0.04143385589122772,0.4746549129486084,0.7601577043533325,0.42000001668930054,-0.2917967438697815,-0.11318882554769516,-1.2741248607635498,-2.985964775085449,-0.1978861540555954,-0.20281082391738892,-0.20257990062236786,-0.1906743347644806,0.6095607280731201,0.5418587923049927,0.37368130683898926,0.09339447319507599
0.6166666666666667,0.036076296120882034,0.08227725327014923,0.0,0.6614142656326294,0.0,0.0,-0.7500208020210266,0.553787112236023,0.013452374376356602,0.0,0.0,0.0,1.3935563564300537,0.45951607823371887,0.7485253214836121,0.4247381091117859,0.43509313464164734,-0.09129337966442108,0.008492226712405682,-0.895704984664917,0.022891776636242867,0.005086155142635107,-0.056148022413253784,2.1270828247070312,-2.2171523571014404,5.042672634124756,0.4611814320087433,0.7637779712677002,0.4349639415740967,-0.07807047665119171,-0.09968023002147675,-0.07720114290714264,0.4746549129486084,0.7601577043533325,0.42000001668930054,-0.2944125831127167,-0.11639006435871124,-1.3219325542449951,-2.739210844039917,-0.18715113401412964,-0.19316262006759644,-0.19553616642951965,-0.1881590634584427,0.6070086359977722,0.5554566383361816,0.41973963379859924,0.16493146121501923
0.6333333333333333,0.04634079337120056,0.07991788536310196,0.0,0.6531754732131958,0.0,0.0,-0.7572065591812134,0.6472072601318359,-0.21326413750648499,0.0,0.0,0.0,-2.2630996704101562,0.4595435559749603,0.7497262358665466,0.42195090651512146,0.47463366389274597,-0.04319019988179207,-0.02148502692580223,-0.878860592842102,-0.005375592969357967,-0.005962449591606855,-0.1704019159078598,1.4043539762496948,-6.608170986175537,3.918001413345337,0.45847272872924805,0.765068531036377,0.42759424448013306,-0.20010201632976532,0.14669397473335266,-0.5673603415489197,0.4746549129486084,0.7601577043533325,0.42000001668930054,-0.3241998553276062,-2.99965763092041,-1.2826566696166992,2.9998316764831543,-0.1776130050420761,-0.18447035551071167,-0.18895834684371948,-0.18567518889904022,0.5494369268417358,0.5028562545776367,0.38685542345046997,0.15293383598327637
0.65,0.0587373711168766,0.08034303039312363,0.0,0.6568917632102966,0.0,0.0,-0.7539848685264587,0.7654197812080383,0.07261773943901062,0.0,0.0,0.0,1.4938042163848877,0.4590197503566742,0.7487897276878357,0.4200182259082794,0.4854802191257477,0.0001882905198726803,0.00011198813444934785,-0.8742475509643555,0.024683905765414238,0.03236318752169609,-0.018188871443271637,-0.5953652262687683,0.17733430862426758,-0.13814644515514374,0.4586486518383026,0.7678327560424805,0.4281543493270874,0.06534107774496078,0.27302688360214233,0.10121630132198334,0.4746549129486084,0.7601577043533325,0.42000001668930054,-0.374235600233078,-2.9999914169311523,-1.302130937576294,-2.999953031539917,-0.17074626684188843,-0.1784195452928543,-0.18469500541687012,-0.185044527053833,0.3998134136199951,0.3333025276660919,0.21656908094882965,-0.004733884707093239
0.6666666666666666,0.06804957985877991,0.07773687690496445,0.0,0.6617628335952759,0.0,0.0,-0.7497132420539856,0.5034297704696655,-0.2609657943248749,0.0,0.0,0.0,0.4064481258392334,0.45902395248413086,0.748797595500946,0.4200000762939453,0.4854806661605835,-1.5054835103001096e-06,-5.730845714424504e-06,-0.8742473125457764,0.00016795177361927927,-0.0002746610261965543,-8.443580009043217e-05,0.005065976642072201,-0.000925922067835927,-0.0014160580467432737,0.4598957896232605,0.7728185653686523,0.43053120374679565,0.01501365378499031,0.2216286063194275,0.15623441338539124,0.4746549129486084,0.7601577043533325,0.42000001668930054,-0.4242425858974457,-2.9999611377716064,-1.3520981073379517,-2.998913526535034,-0.1625746190547943,-0.17122727632522583,-0.1791347712278366,-0.18268804252147675,0.40449386835098267,0.3843821585178375,0.3318409323692322,0.19083036482334137
0.6833333333333333,0.07847388833761215,0.07788502424955368,0.0,0.67862868309021,0.0,0.0,-0.7344815135002136,0.6458966732025146,0.02656538225710392,0.0,0.0,0.0,3.828965425491333,0.45902401208877563,0.7487974762916565,0.4200000464916229,0.4854804277420044,-1.0460171040449495e-07,-2.293545549036935e-06,-0.8742474317550659,-4.47642378276214e-05,-0.0002221468457719311,-5.4582953453063965e-05,0.006477304734289646,-0.002625282621011138,-0.0005813341122120619,0.459375262260437,0.774078369140625,0.43332019448280334,0.0018393192440271378,0.0364973247051239,0.19953106343746185,0.4746549129486084,0.7601577043533325,0.42000001668930054,-0.4742535948753357,-2.9999027252197266,-1.4021148681640625,-2.99992299079895,-0.15995724499225616,-0.1680656224489212,-0.17580707371234894,-0.1805052012205124,0.1698223501443863,0.2044539600610733,0.2274361103773117,0.18481741845607758
0.7,0.09042032808065414,0.07484415173530579,0.0,0.6841557025909424,0.0,0.0,-0.7293359637260437,0.7412923574447632,-0.210933119058609,0.0,0.0,0.0,-0.1300019919872284,0.4590003490447998,0.7488101124763489,0.42000001668930054,0.485394686460495,-6.054564892110648e-06,1.547173633298371e-05,-0.8742951154708862,-0.0007732214289717376,0.0012621828354895115,-0.00046519888564944267,-0.00790591910481453,-0.009450600482523441,-0.0007597265648655593,0.46070265769958496,0.7766622304916382,0.437398225069046,0.13411802053451538,0.043045565485954285,0.26231062412261963,0.4746549129486084,0.7601577043533325,0.42000001668930054,-0.524257242679596,-2.999878168106079,-1.452125072479248,-2.9999186992645264,-0.15734311938285828,-0.16448314487934113,-0.1712713986635208,-0.17588700354099274,0.03333686292171478,0.13646601140499115,0.24476473033428192,0.30907750129699707
0.7166666666666667,0.1039133295416832,0.06870634108781815,0.0,0.6679099202156067,0.0,0.0,-0.7442421317100525,0.8448801636695862,-0.4389919340610504,0.0,0.0,0.0,-3.5283827781677246,0.45899927616119385,0.7488115429878235,0.41999995708465576,0.48539483547210693,-1.2784641967300558e-06,-4.2804135773621965e-06,-0.8742950558662415,-1.001488089968916e-05,-0.00031660450622439384,-5.708588287234306e-05,0.009013469330966473,-0.0035905311815440655,-0.0009352983324788511,0.46762388944625854,0.7806328535079956,0.44918835163116455,0.6707924604415894,0.34308457374572754,1.2445268630981445,0.4746549129486084,0.7601577043533325,0.42000001668930054,-0.5742696523666382,-2.9999818801879883,-1.502143383026123,-2.999999761581421,-0.1590185910463333,-0.16421698033809662,-0.16891030967235565,-0.172034353017807,-0.17330767214298248,-0.04791158810257912,0.08949397504329681,0.1970776617527008
0.7333333333333333,0.1204746812582016,0.06693407148122787,0.0,0.6296988725662231,0.0,0.0,-0.7768393158912659,0.9784679412841797,-0.07739455252885818,0.0,0.0,0.0,-6.88336181640625,0.45899930596351624,0.7488115429878235,0.41999995708465576,0.4853947162628174,-1.6571040077906218e-06,-4.878343133896124e-06,-0.8742950558662415,-2.2284586520981975e-05,-0.00032275274861603975,-5.897576920688152e-05,0.00916898250579834,-0.003638254711404443,-0.0009336186340078712,0.48862266540527344,0.7821135520935059,0.4755665063858032,1.861952304840088,-0.05226298049092293,1.981789231300354,0.4746549129486084,0.7601577043533325,0.42000001668930054,-0.6242755055427551,-2.9997546672821045,-1.552161693572998,-2.999959945678711,-0.16833621263504028,-0.17026518285274506,-0.17150186002254486,-0.17164067924022675,-0.529679000377655,-0.343788743019104,-0.14240662753582,0.03904872015118599
0.75,0.1339217573404312,0.06673269718885422,0.0,0.6060057878494263,0.0,0.0,-0.7954602241516113,0.7354499101638794,0.012814881280064583,0.0,0.0,0.0,-2.543100118637085,0.45899930596351624,0.7488115429878235,0.41999995708465576,0.48539480566978455,-1.7299316823482513e-06,-4.677011929743458e-06,-0.8742950558662415,-2.553504418756347e-05,-0.00032299893791787326,-5.906354635953903e-05,0.009176461957395077,-0.003633505431935191,-0.0009274300537072122,0.5191587805747986,0.7833938598632812,0.5104018449783325,1.7329715490341187,0.2385869324207306,2.1699883937835693,0.4746549129486084,0.7601577043533325,0.42000001668930054,-0.6421562433242798,0.5459192991256714,-1.6021798849105835,-3.0000011920928955,-0.17515653371810913,-0.17493508756160736,-0.1738004982471466,-0.1718488186597824,-0.2838839590549469,-0.2097627818584442,-0.1252104938030243,-0.055110231041908264
0.7666666666666666,0.14258430898189545,0.06859687715768814,0.0,0.6081961393356323,0.0,0.0,-0.7937867641448975,0.4411476254463196,0.15747858583927155,0.0,0.0,0.0,1.2287766933441162,0.45899930596351624,0.7488115429878235,0.41999995708465576,0.4853951930999756,-1.6909862097236328e-06,-4.712484042102005e-06,-0.8742948770523071,-2.389738438068889e-05,-0.0003224341489840299,-5.88451512157917e-05,0.009163071401417255,-0.0036359631922096014,-0.0009281666134484112,0.5414808988571167,0.7871264219284058,0.5404142141342163,0.8954036235809326,0.25042229890823364,1.4930601119995117,0.4746549129486084,0.7601577043533325,0.42000001668930054,-0.6103188991546631,2.999999523162842,-1.6360079050064087,-1.1895802021026611,-0.17832256853580475,-0.17703987658023834,-0.17468605935573578,-0.17171098291873932,-0.10719636082649231,-0.05263175442814827,0.00879171397536993,0.05952518805861473
0.7833333333333333,0.14737887680530548,0.06664919853210449,0.0,0.6295273303985596,0.0,0.0,-0.7769783735275269,0.2651688754558563,-0.19159190356731415,0.0,0.0,0.0,4.471206188201904,0.45899930596351624,0.7488116025924683,0.41999995708465576,0.4853946566581726,-1.754145614540903e-06,-4.518996320257429e-06,-0.8742950558662415,-2.4392684281338006e-05,-0.0003229811554774642,-5.9044454246759415e-05,0.009175797924399376,-0.0036363357212394476,-0.0009301510872319341,0.5461346507072449,0.7916848063468933,0.559430718421936,-0.349557489156723,0.2919442057609558,0.8953672051429749,0.4746549129486084,0.7601577043533325,0.42000001668930054,-0.5699531435966492,1.902960181236267,-1.5910946130752563,2.9999990463256836,-0.17812366783618927,-0.1759607493877411,-0.17268122732639313,-0.1689707338809967,0.01571853645145893,0.07703942060470581,0.13649791479110718,0.1828043907880783
0.8,0.14926521480083466,0.06948590278625488,0.0,0.6391068696975708,0.0,0.0,-0.7691178917884827,0.045936375856399536,0.3018282949924469,0.0,0.0,0.0,0.44888898730278015,0.45899930596351624,0.7488115429878235,0.41999995708465576,0.4853948950767517,-1.8864994899558951e-06,-4.788498245034134e-06,-0.8742949366569519,-2.480104740243405e-05,-0.0003220127837266773,-5.8651668950915337e-05,0.009155326522886753,-0.003636403242126107,-0.0009250900475308299,0.5367042422294617,0.7948225736618042,0.571364164352417,-0.7084857225418091,0.09072113782167435,0.6333990097045898,0.4746549129486084,0.7601577043533325,0.42000001668930054,-0.5740628838539124,-2.0480990409851074,-1.541038155555725,3.0,-0.18278768658638,-0.17869293689727783,-0.1735428124666214,-0.16819077730178833,-0.31147468090057373,-0.1911807358264923,-0.07314019650220871,0.03496328741312027
0.8166666666666667,0.15318545699119568,0.06990495324134827,0.0,0.6588547229766846,0.0,0.0,-0.7522701621055603,0.2300526350736618,0.02392451837658882,0.0,0.0,0.0,3.733539342880249,0.45899930596351624,0.7488116025924683,0.41999995708465576,0.48539477586746216,-1.7512450085632736e-06,-4.794241249328479e-06,-0.8742951154708862,-2.6004512619692832e-05,-0.0003230174188502133,-5.9106387197971344e-05,0.009175902232527733,-0.003629181068390608,-0.0009265552507713437,0.5262807607650757,0.7950426340103149,0.5805070400238037,-0.6483423113822937,0.0061359889805316925,0.5132448077201843,0.4746549129486084,0.7601577043533325,0.42000001668930054,-0.5806841254234314,0.9912763833999634,-1.5563145875930786,-3.0000007152557373,-0.18526701629161835,-0.179398775100708,-0.17244942486286163,-0.16536341607570648,-0.18328244984149933,-0.06471036374568939,0.057134415954351425,0.17818790674209595
0.8333333333333334,0.15450319647789001,0.06748248636722565,0.0,0.6619738340377808,0.0,0.0,-0.7495269775390625,0.029690241441130638,-0.1907760202884674,0.0,0.0,0.0,-0.4711460769176483,0.45899930596351624,0.7488116025924683,0.41999995708465576,0.4853947162628174,-1.7326707393294782e-06,-4.6630334509245586e-06,-0.8742951154708862,-2.5126875698333606e-05,-0.00032294809352606535,-5.905679427087307e-05,0.00917461235076189,-0.0036327047273516655,-0.0009281500824727118,0.51507568359375,0.7949360609054565,0.5870092511177063,-0.6859397888183594,-0.08061210811138153,0.41471368074417114,0.4746549129486084,0.7601577043533325,0.42000001668930054,-0.6024194359779358,-3.000000476837158,-1.517432451248169,2.999999761581421,-0.1881406158208847,-0.180497944355011,-0.17168472707271576,-0.162687286734581,-0.1185208186507225,-0.0268841739743948,0.0708179920911789,0.17378461360931396
0.85,0.15698590874671936,0.06503201276063919,0.0,0.6449528336524963,0.0,0.0,-0.7642223834991455,0.19949190318584442,-0.10772186517715454,0.0,0.0,0.0,-3.683377265930176,0.45899930596351624,0.7488115429878235,0.41999995708465576,0.48539459705352783,-1.7684428712527733e-06,-4.8119877646968234e-06,-0.8742951154708862,-2.4735007173148915e-05,-0.00032238513813354075,-5.880394019186497e-05,0.00916321575641632,-0.0036364553961902857,-0.0009270661394111812,0.5095924139022827,0.7956267595291138,0.5948116779327393,-0.02285037189722061,0.06374460458755493,0.650127112865448,0.4746549129486084,0.7601577043533325,0.42000001668930054,-0.6211711764335632,0.4664691388607025,-1.5332492589950562,-3.0,-0.18874864280223846,-0.18030332028865814,-0.17045095562934875,-0.16016747057437897,0.04233202338218689,0.06628170609474182,0.10792354494333267,0.16917243599891663
0.8666666666666667,0.16192828118801117,0.06569019705057144,0.0,0.6419641971588135,0.0,0.0,-0.7667346000671387,0.3290969133377075,0.12378552556037903,0.0,0.0,0.0,0.4580676257610321,0.45899930596351624,0.7488115429878235,0.41999995708465576,0.48539504408836365,-1.6514628669028752e-06,-4.8004335440055e-06,-0.8742949366569519,-2.406893872830551e-05,-0.00032286017085425556,-5.897926166653633e-05,0.009173491969704628,-0.003637920832261443,-0.0009296907228417695,0.50849449634552,0.798612117767334,0.6089641451835632,-0.09313368052244186,0.3095434606075287,1.0704669952392578,0.4746549129486084,0.7601577043533325,0.42000001668930054,-0.5911636352539062,2.8980984687805176,-1.4944307804107666,2.999999523162842,-0.18706034123897552,-0.17908108234405518,-0.16946761310100555,-0.15913106501102448,0.1570856273174286,0.08526234328746796,0.022007163614034653,-0.02672097459435463
0.8833333333333333,0.16451704502105713,0.06306744366884232,0.0,0.6604912877082825,0.0,0.0,-0.7508336901664734,0.10228759795427322,-0.19951945543289185,0.0,0.0,0.0,3.6757400035858154,0.45899930596351624,0.7488116025924683,0.41999995708465576,0.485394686460495,-1.7478823792771436e-06,-4.79932032249053e-06,-0.8742951154708862,-2.599117397039663e-05,-0.0003230712318327278,-5.911220796406269e-05,0.009177626110613346,-0.0036309384740889072,-0.000926777021959424,0.5019527673721313,0.7991719245910645,0.6244785785675049,-0.7088304758071899,-0.19558939337730408,0.8287467360496521,0.4746549129486084,0.7601577043533325,0.42000001668930054,-0.5881553292274475,-2.1064085960388184,-1.4443743228912354,3.000000238418579,-0.18309612572193146,-0.1758454144001007,-0.16689065098762512,-0.1570463925600052,0.1593744158744812,0.15570798516273499,0.15122674405574799,0.1512080579996109
0.9,0.1681581735610962,0.058399152010679245,0.0,0.6640211939811707,0.0,0.0,-0.7477137446403503,0.2537701725959778,-0.3646939694881439,0.0,0.0,0.0,-0.47755032777786255,0.45899930596351624,0.7488115429878235,0.41999995708465576,0.4853949248790741,-1.8850696505978703e-06,-4.83750227431301e-06,-0.8742949962615967,-2.43287104240153e-05,-0.00032194098457694054,-5.861464887857437e-05,0.00915381871163845,-0.0036383785773068666,-0.0009258429054170847,0.49454718828201294,0.7980234622955322,0.630179762840271,-0.2079583704471588,-0.023906420916318893,0.0395987331867218,0.4746549129486084,0.7601577043533325,0.42000001668930054,-0.5949752330780029,1.0228124856948853,-1.394317865371704,2.9999992847442627,-0.18071594834327698,-0.17343726754188538,-0.1644415557384491,-0.15446001291275024,0.20094303786754608,0.20310474932193756,0.20648570358753204,0.21610328555107117
0.9166666666666666,0.17461484670639038,0.05307077243924141,0.0,0.677348792552948,0.0,0.0,-0.7356619834899902,0.44164371490478516,-0.33852288126945496,0.0,0.0,0.0,3.0789825916290283,0.45899930596351624,0.7488115429878235,0.41999995708465576,0.48539498448371887,-1.6513903347004089e-06,-4.800068381882738e-06,-0.8742949962615967,-2.4003902581171133e-05,-0.00032287248177453876,-5.8969249948859215e-05,0.0091741057112813,-0.0036391224712133408,-0.0009298496879637241,0.49145060777664185,0.7949464321136475,0.6364821195602417,-0.1270875334739685,-0.24538177251815796,0.7337061166763306,0.4746549129486084,0.7601577043533325,0.42000001668930054,-0.596818208694458,-1.0615566968917847,-1.3442646265029907,2.999999761581421,-0.17947719991207123,-0.17189563810825348,-0.16264943778514862,-0.15238891541957855,0.06716965138912201,0.07445579022169113,0.07728948444128036,0.08089468628168106
