vladlanda/robotic-transformer/data/env_000_episode_0087.csv
sim_time_s,robot_box_x,robot_box_y,robot_box_z,robot_box_quat_w,robot_box_quat_x,robot_box_quat_y,robot_box_quat_z,robot_box_linvel_x,robot_box_linvel_y,robot_box_linvel_z,robot_box_angvel_x,robot_box_angvel_y,robot_box_angvel_z,cube_world_x,cube_world_y,cube_world_z,cube_quat_w,cube_quat_x,cube_quat_y,cube_quat_z,cube_linvel_x,cube_linvel_y,cube_linvel_z,cube_angvel_x,cube_angvel_y,cube_angvel_z,endpoint_world_x,endpoint_world_y,endpoint_world_z,endpoint_linvel_x,endpoint_linvel_y,endpoint_linvel_z,target_cube_world_x,target_cube_world_y,target_cube_world_z,gripper_actual_pos_rad_gp_leftgearjoint,gripper_actual_vel_rad_s_gp_leftgearjoint,gripper_actual_pos_rad_gp_rotatingjoint,gripper_actual_vel_rad_s_gp_rotatingjoint,motor_angle_rad_joint1,motor_angle_rad_joint2,motor_angle_rad_joint3,motor_angle_rad_joint4,motor_speed_rad_s_joint1,motor_speed_rad_s_joint2,motor_speed_rad_s_joint3,motor_speed_rad_s_joint4
0.0,0.0,0.0,0.0,1.0,0.0,0.0,0.0,0.0,0.0,0.0,0.0,0.0,0.0,-0.4645913541316986,0.6751126050949097,0.41999998688697815,1.0,0.0,0.0,0.0,0.0,0.0,0.0,0.0,0.0,0.0,3.42540442943573e-06,-0.005000244826078415,1.313499927520752,0.0,0.0,0.0,0.42689767479896545,0.6803311109542847,0.42000001668930054,-1.5707999467849731,0.0,0.0,0.0,0.0,0.0,0.0,0.0,0.0,0.0,0.0,0.0
0.016666666666666666,0.0028778850100934505,0.0021806680597364902,0.0,0.9998081922531128,0.0,0.0,0.019586581736803055,0.24087215960025787,0.18240931630134583,0.0,0.0,0.0,3.1418697834014893,-0.46459147334098816,0.6751123070716858,0.41999998688697815,1.0,3.2799914606584935e-06,-8.339814598912199e-07,8.465387679734704e-08,-1.9833554688375443e-05,0.00017983050202019513,-6.133061833679676e-05,0.0009432226070202887,-0.004689437802881002,-0.0003198152990080416,-0.007110234349966049,0.003379564033821225,1.3159373998641968,-0.8143353462219238,0.9868683815002441,0.18095196783542633,0.42689767479896545,0.6803311109542847,0.42000001668930054,-1.5301095247268677,3.0000011920928955,-0.04584788903594017,-2.9999992847442627,0.0008691533003002405,0.0007963840034790337,0.0007110277656465769,0.0006108740926720202,0.11094217747449875,0.09756709635257721,0.08334315568208694,0.06823883205652237
0.03333333333333333,0.008960961364209652,0.0068018678575754166,0.0,0.9997960329055786,0.0,0.0,0.020196828991174698,0.4070199429988861,0.3153064548969269,0.0,0.0,0.0,-0.8691307306289673,-0.4645915925502777,0.675112247467041,0.4200000464916229,1.0,3.390885240150965e-06,-2.1324319732229924e-06,-3.711133800265998e-08,0.00026357753085903823,0.00026937859365716577,-0.00010509602725505829,-0.0017706351354718208,0.004130707122385502,-0.00013548039714805782,-0.02754562720656395,0.025926891714334488,1.3166379928588867,-1.5913820266723633,1.6100753545761108,-0.08002819865942001,0.42689767479896545,0.6803311109542847,0.42000001668930054,-1.4800904989242554,3.0000009536743164,-0.09588771313428879,-3.000000238418579,0.0029901720117777586,0.0026528097223490477,0.0022774061653763056,0.001860885531641543,0.16422641277313232,0.13977199792861938,0.11383292078971863,0.08631686121225357
0.05,0.017759598791599274,0.013773027807474136,0.0,0.9993746876716614,0.0,0.0,0.035358868539333344,0.5939784646034241,0.46516576409339905,0.0,0.0,0.0,2.6474575996398926,-0.4645916223526001,0.6751123070716858,0.4200000464916229,1.0,3.7652134778909385e-06,-2.2118977085483493e-06,5.605784725304375e-09,0.0002653079864103347,0.00026691483799368143,-0.00010440615005791187,-0.0017242918256670237,0.0041773696430027485,-0.00012949654774274677,-0.05968097224831581,0.05362633988261223,1.3117324113845825,-2.187669277191162,1.7480533123016357,-0.47034960985183716,0.42689767479896545,0.6803311109542847,0.42000001668930054,-1.4300721883773804,3.000002145767212,-0.145926371216774,-3.0000011920928955,0.005712350830435753,0.00492017762735486,0.004055866040289402,0.003114974359050393,0.19277487695217133,0.15587857365608215,0.11710669100284576,0.07636608928442001
0.06666666666666667,0.029077574610710144,0.023067809641361237,0.0,0.9994471669197083,0.0,0.0,0.03324609622359276,0.72052401304245,0.5952779054641724,0.0,0.0,0.0,-1.2118545770645142,-0.4645916223526001,0.675112247467041,0.4200000464916229,0.9999999403953552,3.4068298191414215e-06,-2.28560702453251e-06,4.300801776935259e-07,0.00026702682953327894,0.0002679186000023037,-0.00010437914170324802,-0.0017406968399882317,0.004211870953440666,-0.00012850748316850513,-0.09852005541324615,0.08742982894182205,1.29912531375885,-2.473996162414551,2.196180820465088,-1.0131266117095947,0.42689767479896545,0.6803311109542847,0.42000001668930054,-1.3800538778305054,3.000002145767212,-0.19596372544765472,-3.0000014305114746,0.008363340981304646,0.006901009939610958,0.005327776540070772,0.003636784851551056,0.1580539494752884,0.10852677375078201,0.05697042867541313,0.0033222436904907227
0.08333333333333333,0.04130198806524277,0.03475572168827057,0.0,0.9991279244422913,0.0,0.0,0.04175366088747978,0.8144809007644653,0.7422829270362854,0.0,0.0,0.0,2.359968662261963,-0.4645916223526001,0.675112247467041,0.4200000464916229,1.0,3.6973638088966254e-06,-2.188969347116654e-06,-2.6325207613808743e-07,0.0002638972655404359,0.0002658646844793111,-0.00010433816350996494,-0.0017081599216908216,0.004150238819420338,-0.0001299150026170537,-0.14209790527820587,0.1229369267821312,1.2784695625305176,-2.7194457054138184,2.083482265472412,-1.4077110290527344,0.42689767479896545,0.6803311109542847,0.42000001668930054,-1.330034852027893,2.999999761581421,-0.23586606979370117,-1.8564680814743042,0.009438732638955116,0.007144391071051359,0.004700593184679747,0.0020992369391024113,0.06343155354261398,0.003996330313384533,-0.0573900081217289,-0.12073832005262375
0.1,0.048203110694885254,0.04958750680088997,0.0,0.999302089214325,0.0,0.0,0.03735433146357536,0.2862565219402313,0.9459713697433472,0.0,0.0,0.0,-1.4734143018722534,-0.4645916223526001,0.675112247467041,0.4200000464916229,0.9999999403953552,3.6204753541824175e-06,-2.2652429834124632e-06,1.7459507262174156e-07,0.0002667691733222455,0.0002674090501386672,-0.0001040794886648655,-0.0017386652762070298,0.004209219943732023,-0.000127756706206128,-0.1834886372089386,0.16365715861320496,1.2514147758483887,-2.325407028198242,2.6134729385375977,-1.7524032592773438,0.42689767479896545,0.6803311109542847,0.42000001668930054,-1.2800071239471436,2.9999961853027344,-0.1980789750814438,2.9999990463256836,0.004466739017516375,0.0014233584515750408,-0.0018169520189985633,-0.005265444051474333,-0.412692129611969,-0.4665745496749878,-0.5227344036102295,-0.5813764929771423
0.11666666666666667,0.0522821843624115,0.06473609060049057,0.0,0.9999839067459106,0.0,0.0,0.005677748937159777,0.3247408866882324,1.0057487487792969,0.0,0.0,0.0,-4.35024356842041,-0.4645916223526001,0.675112247467041,0.4200000464916229,1.0,3.7984361824783264e-06,-2.2628191800322384e-06,-1.502184687751651e-07,0.0002637402212712914,0.0002656611322890967,-0.00010429113171994686,-0.00170544080901891,0.004147577099502087,-0.00012980044994037598,-0.2217174917459488,0.20811273157596588,1.2258718013763428,-2.317206859588623,2.682363986968994,-1.459547996520996,0.42689767479896545,0.6803311109542847,0.42000001668930054,-1.2300165891647339,3.0000011920928955,-0.22957022488117218,-3.000000238418579,4.891365460935049e-05,-0.004512737039476633,-0.00925961509346962,-0.014203484170138836,-0.06657259166240692,-0.1915024369955063,-0.3129814863204956,-0.4308442175388336
0.13333333333333333,0.05485266447067261,0.07837402075529099,0.0,0.9999886751174927,0.0,0.0,-0.00476327259093523,0.08645030856132507,0.7287524938583374,0.0,0.0,0.0,-0.1979503333568573,-0.4645916223526001,0.6751123070716858,0.4200000464916229,0.9999999403953552,3.5505424875736935e-06,-2.229828169220127e-06,2.9289728331605147e-07,0.0002670327667146921,0.00026779386098496616,-0.00010417122393846512,-0.0017440201481804252,0.004213609732687473,-0.0001280046271858737,-0.263425350189209,0.2508012056350708,1.1992461681365967,-2.4597582817077637,2.6677088737487793,-1.6966135501861572,0.42689767479896545,0.6803311109542847,0.42000001668930054,-1.1799975633621216,2.9999899864196777,-0.19558297097682953,3.000000238418579,-0.0019788946956396103,-0.008630967698991299,-0.015392803587019444,-0.022273531183600426,-0.176350936293602,-0.2974754571914673,-0.4137747585773468,-0.5251089930534363
0.15,0.056927092373371124,0.09240832179784775,0.0,0.9995763897895813,0.0,0.0,-0.029104694724082947,0.10771025717258453,0.9000170230865479,0.0,0.0,0.0,-3.8057825565338135,-0.4645916223526001,0.675112247467041,0.4200000464916229,0.9999999403953552,3.3381409139110474e-06,-2.242858045065077e-06,-2.8032497212393537e-08,0.00026674586115404963,0.000267583760432899,-0.00010427902452647686,-0.0017367436084896326,0.0042067947797477245,-0.00012831806088797748,-0.3022758960723877,0.2997506856918335,1.1689268350601196,-2.2243738174438477,3.1585545539855957,-1.9811203479766846,0.42689767479896545,0.6803311109542847,0.42000001668930054,-1.1300116777420044,3.0000011920928955,-0.2270788848400116,-3.0,-0.0051767826080322266,-0.013846543617546558,-0.022535288706421852,-0.0312507264316082,-0.2589194178581238,-0.36867251992225647,-0.4731205701828003,-0.5722188353538513
0.16666666666666666,0.05720984563231468,0.1051345244050026,0.0,0.9966979026794434,0.0,0.0,-0.0811987891793251,-0.07333062589168549,0.7052891850471497,0.0,0.0,0.0,-7.049252510070801,-0.4645916223526001,0.6751123070716858,0.4200000464916229,0.9999999403953552,3.6479259506450035e-06,-2.3072648218658287e-06,3.527170022721293e-08,0.00026726938085630536,0.0002680151374079287,-0.00010418728925287724,-0.0017472502076998353,0.0042176260612905025,-0.0001279857533518225,-0.3381568193435669,0.35803210735321045,1.129199504852295,-2.0096547603607178,3.7595295906066895,-2.7447409629821777,0.42689767479896545,0.6803311109542847,0.42000001668930054,-1.0939677953720093,1.4285653829574585,-0.24016520380973816,1.0885660648345947,-0.011338635347783566,-0.021538566797971725,-0.03166633099317551,-0.041731223464012146,-0.4795156419277191,-0.5475251078605652,-0.6105776429176331,-0.6688741445541382
0.18333333333333332,0.062371253967285156,0.11893332749605179,0.0,0.9932697415351868,0.0,0.0,-0.11582395434379578,0.43640491366386414,0.8692300915718079,0.0,0.0,0.0,-3.067483901977539,-0.4645916223526001,0.675112247467041,0.4200000464916229,0.9999999403953552,3.2906175420066575e-06,-2.1938744794169907e-06,-2.792331486034527e-07,0.00026677839923650026,0.00026776004233397543,-0.00010434072464704514,-0.0017390716820955276,0.004206844139844179,-0.000128455605590716,-0.375446617603302,0.41699737310409546,1.0779852867126465,-2.1084532737731934,3.6599199771881104,-3.414062976837158,0.42689767479896545,0.6803311109542847,0.42000001668930054,-1.0504536628723145,2.9999992847442627,-0.28145766258239746,-3.000000476837158,-0.016538862138986588,-0.02775607444345951,-0.03881422430276871,-0.049728311598300934,-0.31644174456596375,-0.35578009486198425,-0.3908562958240509,-0.42212480306625366
0.2,0.06436385214328766,0.12938672304153442,0.0,0.9864587187767029,0.0,0.0,-0.1640097051858902,0.14696194231510162,0.5943778157234192,0.0,0.0,0.0,-6.546566963195801,-0.4645916223526001,0.675112247467041,0.4200000464916229,1.0,3.280872078903485e-06,-2.2192043616087176e-06,1.594703888940785e-07,0.000266279123025015,0.0002674026181921363,-0.00010425224900245667,-0.0017357339384034276,0.004197788890451193,-0.00012865306052844971,-0.40916043519973755,0.47913655638694763,1.0147578716278076,-1.739954948425293,3.9632012844085693,-4.046409606933594,0.42689767479896545,0.6803311109542847,0.42000001668930054,-1.0004544258117676,2.999997615814209,-0.3314850330352783,-3.0000016689300537,-0.02825801819562912,-0.039277851581573486,-0.05011741816997528,-0.06080678477883339,-0.6852715015411377,-0.6773051619529724,-0.6672994494438171,-0.6559430360794067
0.21666666666666667,0.0635823905467987,0.13992774486541748,0.0,0.9816526174545288,0.0,0.0,-0.1906779706478119,-0.18057578802108765,0.6938517093658447,0.0,0.0,0.0,-2.1043312549591064,-0.4645916223526001,0.6751123070716858,0.4200000464916229,1.0,3.61322804565134e-06,-2.2701351554133e-06,2.2101198737800587e-07,0.0002671258116606623,0.00026781592168845236,-0.00010414235293865204,-0.0017445181729272008,0.004215212073177099,-0.00012786121806129813,-0.4411282539367676,0.5367469787597656,0.9410134553909302,-1.6936182975769043,3.3483822345733643,-4.798806190490723,0.42689767479896545,0.6803311109542847,0.42000001668930054,-0.9504519104957581,2.999999761581421,-0.3815133571624756,-2.9999985694885254,-0.042067673057317734,-0.052459605038166046,-0.0625358298420906,-0.0724601149559021,-0.9653760194778442,-0.9518333673477173,-0.871024489402771,-0.7919101119041443
0.23333333333333334,0.06386803090572357,0.1480337232351303,0.0,0.973975419998169,0.0,0.0,-0.22665368020534515,0.09982001781463623,0.39013808965682983,0.0,0.0,0.0,-5.180795192718506,-0.4645916223526001,0.675112247467041,0.4200000464916229,1.0,3.3819662803580286e-06,-2.2910076040716376e-06,2.7280304948362755e-07,0.0002669124223757535,0.00026779892505146563,-0.00010433257557451725,-0.0017395394388586283,0.004209703765809536,-0.00012843689182773232,-0.4673771858215332,0.5897562503814697,0.8528115153312683,-1.2700389623641968,3.0252127647399902,-5.618766784667969,0.42689767479896545,0.6803311109542847,0.42000001668930054,-0.9004412293434143,2.9999983310699463,-0.43154358863830566,-3.000000238418579,-0.05843472480773926,-0.06855971366167068,-0.07842706143856049,-0.08794886618852615,-0.9877884387969971,-0.9823088049888611,-0.9626309275627136,-0.9451620578765869
0.25,0.05959729850292206,0.15818434953689575,0.0,0.9695547819137573,0.0,0.0,-0.2448745220899582,-0.24350959062576294,0.5959005355834961,0.0,0.0,0.0,-1.193273901939392,-0.4645915925502777,0.675112247467041,0.4200000464916229,0.9999999403953552,3.7066854474687716e-06,-2.2230881313589634e-06,-2.2551273559656693e-07,0.0002642464532982558,0.00026656698901206255,-0.00010458100587129593,-0.001717007951810956,0.004155655857175589,-0.00013063506048638374,-0.4853358864784241,0.6247125267982483,0.7569839954376221,-0.7719171047210693,1.6815546751022339,-5.798136234283447,0.42689767479896545,0.6803311109542847,0.42000001668930054,-0.8504306077957153,2.9999563694000244,-0.4815743863582611,-2.999987840652466,-0.07544877380132675,-0.08536502718925476,-0.09511278569698334,-0.10456626117229462,-0.791424036026001,-0.8178681135177612,-0.8468806743621826,-0.8750964999198914
0.26666666666666666,0.06058032065629959,0.16426841914653778,0.0,0.9615033864974976,0.0,0.0,-0.27479317784309387,0.07852191478013992,0.3096640706062317,0.0,0.0,0.0,-4.34766960144043,-0.4645916223526001,0.675112247467041,0.4200000464916229,0.9999999403953552,3.7198042264208198e-06,-2.4035468868532917e-06,-1.830882467857009e-07,0.00026623273151926696,0.0002672920818440616,-0.00010425853542983532,-0.001732720178551972,0.004196507390588522,-0.00012850765779148787,-0.49570611119270325,0.6509767770767212,0.6558743715286255,-0.25766047835350037,1.3162429332733154,-6.196685791015625,0.42689767479896545,0.6803311109542847,0.42000001668930054,-0.8004212975502014,2.999997615814209,-0.5316048860549927,-2.9999992847442627,-0.0893939957022667,-0.0995398536324501,-0.10949743539094925,-0.11914864182472229,-0.9950990676879883,-0.9957591891288757,-0.9962902069091797,-0.9967422485351562
0.2833333333333333,0.057380687445402145,0.16737100481987,0.0,0.9585897326469421,0.0,0.0,-0.28479060530662537,-0.2596229016780853,0.13362063467502594,0.0,0.0,0.0,-0.26069802045822144,-0.4645916223526001,0.6751123070716858,0.4200000464916229,0.9999999403953552,3.5842122088070028e-06,-2.31555281970941e-06,7.402991997196295e-08,0.0002652212860994041,0.00026455314946360886,-0.00010317121632397175,-0.0017021918902173638,0.004185174126178026,-0.0001249952329089865,-0.4961225390434265,0.6639214158058167,0.558951735496521,0.3231546878814697,0.44209951162338257,-5.45947265625,0.42689767479896545,0.6803311109542847,0.42000001668930054,-0.7504125237464905,3.000002384185791,-0.581634521484375,-3.0000009536743164,-0.10713654011487961,-0.11701684445142746,-0.1267770677804947,-0.13627590239048004,-1.0108771324157715,-1.0081806182861328,-1.006129503250122,-1.004498839378357
0.3,0.05186741426587105,0.16720522940158844,0.0,0.952022910118103,0.0,0.0,-0.30602672696113586,-0.36763226985931396,-0.06039419025182724,0.0,0.0,0.0,-3.5076725482940674,-0.4645916223526001,0.675112247467041,0.4200000464916229,1.0,3.724411499206326e-06,-2.271947550980258e-06,9.634975128847145e-08,0.0002631252573337406,0.00026525932480581105,-0.00010438100434839725,-0.0016960831126198173,0.0041347164660692215,-0.00013027824752498418,-0.48616868257522583,0.6719731092453003,0.46831727027893066,0.9326188564300537,0.4528166949748993,-5.348649024963379,0.42689767479896545,0.6803311109542847,0.42000001668930054,-0.700404703617096,3.00000262260437,-0.6316623091697693,-3.000000238418579,-0.12363786995410919,-0.1334977000951767,-0.143279030919075,-0.1528143733739853,-1.005022406578064,-1.0037953853607178,-1.0028589963912964,-1.0021107196807861
0.31666666666666665,0.04412870854139328,0.16449898481369019,0.0,0.9509365558624268,0.0,0.0,-0.3093859553337097,-0.49838897585868835,-0.2035229504108429,0.0,0.0,0.0,0.5170002579689026,-0.4645916223526001,0.675112247467041,0.4200000464916229,1.0,3.6663427636085544e-06,-2.3925626919663046e-06,1.6799576485482248e-07,0.00026601969148032367,0.0002670693211257458,-0.00010418589226901531,-0.0017311598639935255,0.004193514119833708,-0.00012849272752646357,-0.4787087142467499,0.6773171424865723,0.4268149137496948,0.13946408033370972,-0.07454758137464523,-0.21666088700294495,0.42689767479896545,0.6803311109542847,0.42000001668930054,-0.650466799736023,3.0002615451812744,-0.6821110844612122,-3.001885414123535,-0.13418398797512054,-0.14428196847438812,-0.15411701798439026,-0.16347140073776245,-0.2516089379787445,-0.2786029577255249,-0.2842719256877899,-0.26368391513824463
0.3333333333333333,0.03402772918343544,0.1594211608171463,0.0,0.9454107284545898,0.0,0.0,-0.3258812427520752,-0.6574749946594238,-0.3486471474170685,0.0,0.0,0.0,-2.973616123199463,-0.4645550847053528,0.6751716732978821,0.42000290751457214,0.9999995231628418,-0.0007419440080411732,0.00037923402851447463,-0.00028494102298282087,0.1120835691690445,0.2228311002254486,-0.009944369085133076,0.9766188263893127,-0.5461221933364868,-4.990740776062012,-0.4777708947658539,0.6806212067604065,0.423773854970932,0.15665797889232635,0.2526506185531616,-0.2079346626996994,0.42689767479896545,0.6803311109542847,0.42000001668930054,-0.600460946559906,2.998852014541626,-0.7321661114692688,-2.9989798069000244,-0.1394881308078766,-0.1496124118566513,-0.15913133323192596,-0.1677684187889099,-0.3757663071155548,-0.351522296667099,-0.3097885847091675,-0.24830764532089233
0.35,0.021668344736099243,0.15197627246379852,0.0,0.9453055262565613,0.0,0.0,-0.3261861801147461,-0.7791953682899475,-0.4872475862503052,0.0,0.0,0.0,0.9065701365470886,-0.4607839584350586,0.6817830204963684,0.4200037717819214,0.9968909025192261,2.3282962501980364e-05,0.00011612320668064058,-0.07879380136728287,0.31474757194519043,0.5314388871192932,-0.0034315588418394327,-0.00398549810051918,-0.16701462864875793,-13.350370407104492,-0.47364342212677,0.6887015104293823,0.4205312728881836,0.3496798276901245,0.6797106266021729,-0.1608007848262787,0.42689767479896545,0.6803311109542847,0.42000001668930054,-0.5504559874534607,2.9999940395355225,-0.7822026610374451,-3.0000009536743164,-0.1472594290971756,-0.1562633365392685,-0.1643681526184082,-0.171286478638649,-0.49008482694625854,-0.3980957567691803,-0.28867480158805847,-0.16216054558753967
0.36666666666666664,0.012584561482071877,0.14181888103485107,0.0,0.940636932849884,0.0,0.0,-0.3394143879413605,-0.48443520069122314,-0.6553441882133484,0.0,0.0,0.0,-2.5024869441986084,-0.4546789824962616,0.6918253302574158,0.42002394795417786,0.9939470887184143,-0.0006038903957232833,6.128512177383527e-05,-0.10985736548900604,0.4400666356086731,0.7140545845031738,0.018030129373073578,-0.8821192979812622,0.18501199781894684,-2.285443067550659,-0.46678322553634644,0.6979691982269287,0.4201628863811493,0.5224823951721191,0.5995356440544128,0.05162503197789192,0.42689767479896545,0.6803311109542847,0.42000001668930054,-0.5003865361213684,2.99994158744812,-0.8322004079818726,-2.9999783039093018,-0.15608838200569153,-0.16298283636569977,-0.16864946484565735,-0.17283043265342712,-0.5495449900627136,-0.3972490727901459,-0.22550727427005768,-0.03713560476899147
0.3833333333333333,0.00027126455097459257,0.1299763172864914,0.0,0.9252374172210693,0.0,0.0,-0.3793886601924896,-0.8288760781288147,-0.7374168038368225,0.0,0.0,0.0,-6.056402206420898,-0.444022536277771,0.7078076601028442,0.42077523469924927,0.9904431104660034,-0.019483542069792747,0.0024728141725063324,-0.13651646673679352,0.8879878520965576,1.2540924549102783,0.07013826072216034,-3.478214979171753,0.8787876963615417,-4.997851848602295,-0.4543951451778412,0.7120203971862793,0.4213765859603882,0.963755190372467,1.168724775314331,0.09389549493789673,0.42689767479896545,0.6803311109542847,0.42000001668930054,-0.45033472776412964,2.9999840259552,-0.8822098970413208,-2.999974250793457,-0.1679043471813202,-0.17160774767398834,-0.1737522929906845,-0.1741511970758438,-0.6939748525619507,-0.4968036413192749,-0.2792535126209259,-0.0460885688662529
0.4,-0.008637496270239353,0.11516360938549042,0.0,0.8962940573692322,0.0,0.0,-0.4434601664543152,-0.5049957633018494,-0.9334806203842163,0.0,0.0,0.0,-9.153200149536133,-0.4169115126132965,0.7365003824234009,0.4224555790424347,0.9796491265296936,-0.021462121978402138,-0.013978737406432629,-0.1990767866373062,2.8093764781951904,1.9024386405944824,0.3347149193286896,-7.674199104309082,-0.57188880443573,13.432056427001953,-0.42660218477249146,0.7403830289840698,0.4230205714702606,2.504873275756836,2.2451601028442383,0.12229424715042114,0.42689767479896545,0.6803311109542847,0.42000001668930054,-0.4005300998687744,2.7837698459625244,-0.9193695187568665,-1.5668272972106934,-0.17833076417446136,-0.17842580378055573,-0.1766059398651123,-0.1727842390537262,-0.7336970567703247,-0.4669891893863678,-0.18270152807235718,0.11126690357923508
0.4166666666666667,-0.01397558394819498,0.09780159592628479,0.0,0.8518086075782776,0.0,0.0,-0.5238531231880188,-0.2416386902332306,-1.1193476915359497,0.0,0.0,0.0,-11.724803924560547,-0.3520728647708893,0.7796177864074707,0.4264741837978363,0.9676530361175537,0.030046002939343452,-0.052188389003276825,-0.244992196559906,4.920896053314209,2.7311980724334717,0.33444729447364807,3.170241594314575,-7.612130641937256,18.79619598388672,-0.36124491691589355,0.7865387201309204,0.4261951744556427,5.058753490447998,3.3786325454711914,0.34400397539138794,0.42689767479896545,0.6803311109542847,0.42000001668930054,-0.3734971880912781,1.3291932344436646,-0.8766758441925049,2.998643159866333,-0.19304554164409637,-0.18787364661693573,-0.18072159588336945,-0.17166532576084137,-0.8627711534500122,-0.5547190308570862,-0.25139692425727844,0.037472765892744064
0.43333333333333335,-0.01679106429219246,0.08518683910369873,0.0,0.7863152027130127,0.0,0.0,-0.6178255677223206,-0.12206056714057922,-0.6255918145179749,0.0,0.0,0.0,-14.682401657104492,-0.2434937059879303,0.828296959400177,0.43458107113838196,0.9394649267196655,0.09901182353496552,-0.0901801586151123,-0.3153882622718811,8.011926651000977,2.2978312969207764,0.6161084771156311,5.770989894866943,-13.380995750427246,20.91817855834961,-0.2528214454650879,0.837852954864502,0.43403154611587524,7.731103897094727,2.8754477500915527,0.5464632511138916,0.42689767479896545,0.6803311109542847,0.42000001668930054,-0.35650545358657837,0.6827023029327393,-0.8266329169273376,2.9996087551116943,-0.20919418334960938,-0.20342011749744415,-0.1922977715730667,-0.17684638500213623,-0.925147294998169,-0.906234085559845,-0.8217861652374268,-0.43354031443595886
0.45,-0.022777041420340538,0.07839520275592804,0.0,0.7261854410171509,0.0,0.0,-0.6874988675117493,-0.3140466511249542,-0.4541454315185547,0.0,0.0,0.0,-9.560672760009766,-0.11901140213012695,0.8560551404953003,0.4445055425167084,0.9021708369255066,0.13086771965026855,-0.10401896387338638,-0.39766985177993774,7.6499762535095215,0.4736696183681488,0.7942257523536682,-8.71812629699707,5.8309149742126465,0.541694164276123,-0.12709744274616241,0.8697926998138428,0.4440324306488037,7.523198127746582,1.2886000871658325,0.6270703077316284,0.42689767479896545,0.6803311109542847,0.42000001668930054,-0.34952905774116516,0.359548419713974,-0.8533393144607544,-2.9989278316497803,-0.22287817299365997,-0.21749277412891388,-0.20679880678653717,-0.1877250373363495,-0.580470085144043,-0.6505701541900635,-0.7215548157691956,-0.5895109176635742
0.4666666666666667,-0.024918556213378906,0.0735112726688385,0.0,0.6897134184837341,0.0,0.0,-0.7240824699401855,-0.08080166578292847,-0.23608827590942383,0.0,0.0,0.0,-5.0695271492004395,0.00328817218542099,0.8635144233703613,0.4534567594528198,0.8526861667633057,0.11962312459945679,-0.10232534259557724,-0.49814271926879883,7.250507831573486,-0.9489790201187134,0.61744624376297,13.781356811523438,-7.56849479675293,24.23527717590332,-0.003968561068177223,0.8808021545410156,0.4531865119934082,7.2570695877075195,-0.13722480833530426,0.5307554006576538,0.42689767479896545,0.6803311109542847,0.42000001668930054,-0.34207847714424133,0.43403956294059753,-0.9033634066581726,-3.0000016689300537,-0.23648932576179504,-0.23004277050495148,-0.21849963068962097,-0.19617913663387299,-0.84319007396698,-0.7148993015289307,-0.6058889031410217,-0.39937376976013184
0.48333333333333334,-0.02967197261750698,0.06266139447689056,0.0,0.6767943501472473,0.0,0.0,-0.7361721396446228,-0.36875176429748535,-0.7882723212242126,0.0,0.0,0.0,-1.1816471815109253,0.11100787669420242,0.8547078371047974,0.4590439200401306,0.7930720448493958,0.10398130118846893,-0.09021732211112976,-0.5933677554130554,5.8490309715271,-1.9820071458816528,0.3488035202026367,9.085920333862305,-8.203771591186523,25.5369873046875,0.106746606528759,0.8739602565765381,0.4596107602119446,6.025872230529785,-0.9288567304611206,0.29512661695480347,0.42689767479896545,0.6803311109542847,0.42000001668930054,-0.33503398299217224,0.31707388162612915,-0.9533874988555908,-3.0000016689300537,-0.2385197877883911,-0.2370564043521881,-0.2237589955329895,-0.19868293404579163,0.1514502763748169,-0.2676016390323639,-0.15157343447208405,-0.010123767890036106
0.5,-0.030802082270383835,0.05538734421133995,0.0,0.6528096795082092,0.0,0.0,-0.7575219869613647,0.043966781347990036,-0.31075766682624817,0.0,0.0,0.0,-4.8837127685546875,0.20273113250732422,0.8297762274742126,0.45848405361175537,0.7350945472717285,0.09572266042232513,-0.0966235026717186,-0.6641814112663269,5.011562347412109,-2.9582409858703613,-0.050964370369911194,-11.0465087890625,10.893807411193848,1.138994574546814,0.20055200159549713,0.8499444723129272,0.4604632258415222,5.355554580688477,-1.9511003494262695,-0.13494810461997986,0.42689767479896545,0.6803311109542847,0.42000001668930054,-0.3308035135269165,0.08788695931434631,-1.0034114122390747,-2.9988112449645996,-0.23998981714248657,-0.23998546600341797,-0.2288299798965454,-0.2012031525373459,-0.02014969103038311,-0.027915358543395996,-0.3295224606990814,-0.19487765431404114
0.5166666666666666,-0.02975059114396572,0.05216829106211662,0.0,0.6444501876831055,0.0,0.0,-0.7646462917327881,0.07544392347335815,-0.11910251528024673,0.0,0.0,0.0,-0.24853523075580597,0.282386839389801,0.7958458662033081,0.45112019777297974,0.6313552260398865,0.04455389827489853,-0.1233874037861824,-0.7643173933029175,3.4636178016662598,-3.0081653594970703,-0.5011467337608337,-13.069753646850586,19.521324157714844,26.344329833984375,0.27996689081192017,0.8158652782440186,0.4548438787460327,4.46075439453125,-2.2814273834228516,-0.4617021381855011,0.42689767479896545,0.6803311109542847,0.42000001668930054,-0.331269770860672,-0.31048110127449036,-1.0534335374832153,-2.997758150100708,-0.23785574734210968,-0.2382049262523651,-0.23194903135299683,-0.20341821014881134,0.1201934963464737,0.1332053691148758,-0.08823757618665695,-0.08159900456666946
0.5333333333333333,-0.026421263813972473,0.05216709151864052,0.0,0.6279370784759521,0.0,0.0,-0.7782641053199768,0.25632423162460327,0.12500625848770142,0.0,0.0,0.0,-3.3878908157348633,0.3445969521999359,0.7581577301025391,0.43568748235702515,0.541431188583374,-0.03481284901499748,-0.14953172206878662,-0.826607882976532,3.066437005996704,-2.451434850692749,-0.8567141890525818,-11.25534725189209,9.433821678161621,-4.741962909698486,0.3419029414653778,0.7795286178588867,0.44221410155296326,3.23976993560791,-2.251033306121826,-0.9882156848907471,0.42689767479896545,0.6803311109542847,0.42000001668930054,-0.33453238010406494,-1.3759861758444458e-05,-1.103455662727356,-2.999549627304077,-0.23414309322834015,-0.23463299870491028,-0.23189325630664825,-0.20445100963115692,0.23777112364768982,0.23488864302635193,0.05338054522871971,-0.05816497281193733
0.55,-0.02015805058181286,0.048073090612888336,0.0,0.6248430609703064,0.0,0.0,-0.7807503342628479,0.4205187261104584,-0.36312294006347656,0.0,0.0,0.0,0.46277928352355957,0.38930562138557434,0.7284858226776123,0.42150425910949707,0.5161189436912537,-0.015087247826159,-0.0004847091040574014,-0.8563838005065918,2.275733232498169,-1.518128752708435,-0.22761398553848267,8.35632610321045,-8.984743118286133,6.77378511428833,0.38885751366615295,0.744770884513855,0.42583802342414856,2.155289888381958,-1.893511414527893,-0.8519163131713867,0.42689767479896545,0.6803311109542847,0.42000001668930054,-0.3253291845321655,1.0213401317596436,-1.1534777879714966,-2.989504337310791,-0.2250843048095703,-0.22623232007026672,-0.22669346630573273,-0.20233318209648132,0.6775229573249817,0.622920572757721,0.4385479986667633,0.20685768127441406
0.5666666666666667,-0.01232316717505455,0.04712693765759468,0.0,0.6108909845352173,0.0,0.0,-0.7917147278785706,0.4992447793483734,0.05324113368988037,0.0,0.0,0.0,-3.0918328762054443,0.41660869121551514,0.7107546925544739,0.4200274646282196,0.5088818669319153,-0.0009409132762812078,0.00032211121288128197,-0.8608357906341553,1.11142897605896,-1.3905606269836426,0.25720834732055664,7.669146537780762,11.653626441955566,5.761951923370361,0.4148399233818054,0.7253463268280029,0.42228463292121887,1.2236254215240479,-0.7904200553894043,-0.017507676035165787,0.42689767479896545,0.6803311109542847,0.42000001668930054,-0.30161288380622864,1.403401255607605,-1.1716086864471436,0.5645277500152588,-0.21476303040981293,-0.21710297465324402,-0.22042672336101532,-0.2003638595342636,0.6032378673553467,0.5231884121894836,0.3630673587322235,0.07977297902107239
0.5833333333333334,-0.007609691005200148,0.04454800486564636,0.0,0.6099846959114075,0.0,0.0,-0.7924131751060486,0.22070498764514923,-0.1837259829044342,0.0,0.0,0.0,0.7952492833137512,0.43170037865638733,0.6965460777282715,0.4210086166858673,0.5228615999221802,-0.013239971362054348,0.022120224311947823,-0.8520276546478271,0.5822868347167969,-0.9114625453948975,0.10976237803697586,2.9136292934417725,5.006450653076172,4.026515483856201,0.42896950244903564,0.7103175520896912,0.42381715774536133,0.5140383243560791,-0.9430650472640991,0.1224948987364769,0.42689767479896545,0.6803311109542847,0.42000001668930054,-0.3083791136741638,-1.543838381767273,-1.2112916707992554,-2.999896287918091,-0.20687280595302582,-0.20948201417922974,-0.2141619473695755,-0.19811001420021057,0.2995358407497406,0.33602994680404663,0.3204132914543152,0.11721533536911011
0.6,-0.0014768524561077356,0.04607586935162544,0.0,0.5981911420822144,0.0,0.0,-0.8013534545898438,0.3821658194065094,0.0864875465631485,0.0,0.0,0.0,-2.589614152908325,0.4378252923488617,0.6866188049316406,0.4222673773765564,0.5447810888290405,-0.029089368879795074,0.02884247712790966,-0.8375771045684814,0.2618474066257477,-0.35024502873420715,0.15812666714191437,6.596505641937256,5.901591777801514,2.0092380046844482,0.4348534643650055,0.7009494304656982,0.42604148387908936,0.31026118993759155,-0.25067874789237976,0.13606363534927368,0.42689767479896545,0.6803311109542847,0.42000001668930054,-0.3179788887500763,0.16999736428260803,-1.2612372636795044,-2.998023509979248,-0.202793151140213,-0.20508325099945068,-0.20995140075683594,-0.19734272360801697,0.41471660137176514,0.383914053440094,0.343046098947525,0.10599132627248764
0.6166666666666667,0.006175884511321783,0.04331700876355171,0.0,0.6000538468360901,0.0,0.0,-0.7999595999717712,0.4764464795589447,-0.1813630908727646,0.0,0.0,0.0,1.19855535030365,0.4405096769332886,0.682577908039093,0.4233357906341553,0.5603569746017456,-0.03622109815478325,0.052907150238752365,-0.8257656693458557,0.012428036890923977,-0.21418669819831848,0.0324193611741066,0.29392731189727783,-0.6250575184822083,1.9257780313491821,0.4366980195045471,0.6977149844169617,0.4280131459236145,-0.11473668366670609,-0.1506846398115158,0.13040217757225037,0.42689767479896545,0.6803311109542847,0.42000001668930054,-0.3490849733352661,-3.0000007152557373,-1.2999931573867798,-1.7352113723754883,-0.19454030692577362,-0.1972985565662384,-0.20263312757015228,-0.19383877515792847,0.41202497482299805,0.41247129440307617,0.4190146028995514,0.21989548206329346
0.6333333333333333,0.016436628997325897,0.043604373931884766,0.0,0.6241344809532166,0.0,0.0,-0.7813169360160828,0.6499903798103333,0.05342879518866539,0.0,0.0,0.0,4.454880714416504,0.43886134028434753,0.6805633902549744,0.42262324690818787,0.5645319223403931,-0.02863796055316925,0.03311809524893761,-0.8242492079734802,-0.13499853014945984,-0.056416094303131104,-0.0680013969540596,-2.206477403640747,-2.988650321960449,-0.4747837483882904,0.434815913438797,0.6976165771484375,0.43098676204681396,-0.08169418573379517,0.12465909868478775,0.20186039805412292,0.42689767479896545,0.6803311109542847,0.42000001668930054,-0.399077832698822,-2.9980740547180176,-1.348646879196167,-2.9983036518096924,-0.18902307748794556,-0.19176021218299866,-0.1967730075120926,-0.19094322621822357,0.42058199644088745,0.3951244652271271,0.3971589207649231,0.2125699371099472
0.65,0.028384704142808914,0.041039783507585526,0.0,0.6339810490608215,0.0,0.0,-0.7733485698699951,0.7490074634552002,-0.18142516911029816,0.0,0.0,0.0,0.46433764696121216,0.43658432364463806,0.6799192428588867,0.42003607749938965,0.5625974535942078,0.0003935379791073501,0.000781318754889071,-0.8267305493354797,-0.13246069848537445,0.0491785891354084,-0.02002067305147648,-0.6519302129745483,-0.17023587226867676,-0.7243306040763855,0.4342215657234192,0.7011247873306274,0.4355641007423401,-0.045325081795454025,0.17189228534698486,0.3142877519130707,0.42689767479896545,0.6803311109542847,0.42000001668930054,-0.449097216129303,-2.9999992847442627,-1.398615837097168,-2.999462604522705,-0.18045654892921448,-0.18359515070915222,-0.18838109076023102,-0.1851702779531479,0.45398491621017456,0.4613001048564911,0.5107572674751282,0.4003933072090149
0.6666666666666666,0.042006198316812515,0.03573834151029587,0.0,0.6199832558631897,0.0,0.0,-0.7846150398254395,0.8481982946395874,-0.3813643455505371,0.0,0.0,0.0,-3.0989456176757812,0.43546557426452637,0.6803601980209351,0.4200000464916229,0.5605775117874146,1.7278894404171297e-07,-8.494895809008085e-08,-0.8281019926071167,-0.046793725341558456,0.017182016745209694,-8.605653420090675e-06,-0.00040061306208372116,0.00018717735656537116,-0.18164484202861786,0.436309278011322,0.7041746377944946,0.44391804933547974,0.2872690260410309,0.15612483024597168,0.8064224720001221,0.42689767479896545,0.6803311109542847,0.42000001668930054,-0.4991101026535034,-2.999988079071045,-1.4486340284347534,-3.000000238418579,-0.17509599030017853,-0.1777026355266571,-0.18117588758468628,-0.17905890941619873,0.2501223087310791,0.3000433146953583,0.39929020404815674,0.3683214485645294
0.6833333333333333,0.05835026130080223,0.03369510546326637,0.0,0.5844849944114685,0.0,0.0,-0.8114045262336731,1.0012438297271729,-0.11676452308893204,0.0,0.0,0.0,-6.359628200531006,0.4353717863559723,0.6803940534591675,0.4200001060962677,0.5604736804962158,1.1266497494943906e-05,-8.273115781776141e-06,-0.8281722664833069,0.0015485030598938465,-0.00040141388308256865,-0.0005645663477480412,0.0014394678873941302,0.010399221442639828,-0.004713320638984442,0.4483076333999634,0.7029035091400146,0.46398067474365234,1.2612075805664062,-0.2905575633049011,1.6979541778564453,0.42689767479896545,0.6803311109542847,0.42000001668930054,-0.54912269115448,-2.9996111392974854,-1.4986523389816284,-2.999957323074341,-0.1756143569946289,-0.1767716258764267,-0.17797476053237915,-0.17553311586380005,-0.04623831808567047,0.034674521535634995,0.166436105966568,0.1975967288017273
0.7,0.07141655683517456,0.033245764672756195,0.0,0.5626938343048096,0.0,0.0,-0.8266653418540955,0.6999471783638,0.01717730052769184,0.0,0.0,0.0,-2.169867753982544,0.43537330627441406,0.6803939342498779,0.4200000464916229,0.5604723691940308,7.452758410408933e-08,-2.457308937664493e-06,-0.8281731009483337,5.652650725096464e-05,-0.00025704599102027714,-7.918919436633587e-05,0.0065275696106255054,-0.0019476428860798478,-0.0006839447887614369,0.47003328800201416,0.7033753395080566,0.4931735694408417,1.2669689655303955,0.274410605430603,1.8175088167190552,0.42689767479896545,0.6803311109542847,0.42000001668930054,-0.5697709918022156,0.23774713277816772,-1.5486705303192139,-3.000000476837158,-0.17499807476997375,-0.17562727630138397,-0.17557285726070404,-0.1733648180961609,0.11450894922018051,0.1013297438621521,0.12482830882072449,0.06830793619155884
0.7166666666666667,0.07956352084875107,0.0353693813085556,0.0,0.5671196579933167,0.0,0.0,-0.8236353993415833,0.43219009041786194,0.21054619550704956,0.0,0.0,0.0,1.502166748046875,0.43537330627441406,0.6803939342498779,0.4200000464916229,0.560472309589386,1.7152963494027063e-08,-2.7931778276979458e-06,-0.828173041343689,6.400712300091982e-05,-0.0002585159381851554,-8.142855949699879e-05,0.0065207588486373425,-0.0018853188958019018,-0.0007052403525449336,0.4875005781650543,0.709868311882019,0.5179613828659058,0.7475968599319458,0.45707935094833374,1.1999963521957397,0.42689767479896545,0.6803311109542847,0.42000001668930054,-0.5449211597442627,2.5239150524139404,-1.5098053216934204,2.9999985694885254,-0.17277616262435913,-0.17351770401000977,-0.1730576604604721,-0.17161422967910767,0.09091349691152573,0.1005534827709198,0.1340482085943222,0.10433279722929001
0.7333333333333333,0.08372354507446289,0.03365546092391014,0.0,0.5598018169403076,0.0,0.0,-0.8286265134811401,0.19302290678024292,-0.19561366736888885,0.0,0.0,0.0,-2.064115285873413,0.43537330627441406,0.6803939342498779,0.4200000464916229,0.5604720711708069,1.118398245125718e-07,-2.507181761757238e-06,-0.8281732797622681,6.78919386700727e-05,-0.00025711036869324744,-8.22385773062706e-05,0.006463455036282539,-0.0018329913727939129,-0.0007107954006642103,0.49300238490104675,0.7174450159072876,0.531013548374176,-0.10569114238023758,0.45883363485336304,0.5597738027572632,0.42689767479896545,0.6803311109542847,0.42000001668930054,-0.5169552564620972,0.9443725347518921,-1.4597526788711548,2.9999992847442627,-0.1697143018245697,-0.17039376497268677,-0.16956710815429688,-0.16865625977516174,0.20407690107822418,0.21440793573856354,0.23622050881385803,0.21056802570819855
0.75,0.08468247205018997,0.03632773458957672,0.0,0.5651006102561951,0.0,0.0,-0.8250219821929932,0.015587474219501019,0.29517775774002075,0.0,0.0,0.0,1.6382118463516235,0.43537330627441406,0.6803939342498779,0.4200000464916229,0.5604720711708069,1.4073710019602004e-07,-2.6296306714357343e-06,-0.8281732201576233,6.56597621855326e-05,-0.0002571654040366411,-8.17449763417244e-05,0.0064775277860462666,-0.001858352217823267,-0.0007056783069856465,0.48761582374572754,0.7245725393295288,0.5382418632507324,-0.49758076667785645,0.48182904720306396,0.3284168839454651,0.42689767479896545,0.6803311109542847,0.42000001668930054,-0.48986026644706726,2.178128242492676,-1.415999174118042,2.276801824569702,-0.17187727987766266,-0.17126911878585815,-0.16915254294872284,-0.1677444875240326,-0.2006005197763443,-0.1170554980635643,-0.03908591344952583,-0.0031289318576455116
0.7666666666666666,0.08397208899259567,0.03704764321446419,0.0,0.5663982629776001,0.0,0.0,-0.8241316676139832,-0.11301364749670029,-0.0029142906423658133,0.0,0.0,0.0,-0.3549647629261017,0.43537330627441406,0.6803939342498779,0.4200000464916229,0.5604722499847412,1.1824955947759008e-07,-2.7409105314291082e-06,-0.8281731009483337,6.834246596554294e-05,-0.0002560803259257227,-8.227769285440445e-05,0.006434889510273933,-0.0018212507711723447,-0.0007099129143171012,0.4736022353172302,0.7304738759994507,0.537990927696228,-1.1962158679962158,0.22452688217163086,-0.20549365878105164,0.42689767479896545,0.6803311109542847,0.42000001668930054,-0.4911305606365204,-1.9702528715133667,-1.3659707307815552,2.9999990463256836,-0.17404386401176453,-0.17213457822799683,-0.1688317507505417,-0.1667822003364563,-0.1617286652326584,-0.07099974155426025,0.010163971222937107,0.06464704126119614
0.7833333333333333,0.0845630094408989,0.03489284962415695,0.0,0.5809233784675598,0.0,0.0,-0.8139582276344299,0.0879674106836319,-0.18755154311656952,0.0,0.0,0.0,2.9353396892547607,0.43537330627441406,0.6803939342498779,0.4200000464916229,0.5604720115661621,1.4359468991642643e-07,-2.647249175424804e-06,-0.8281733393669128,6.780221883673221e-05,-0.0002571281511336565,-8.221971802413464e-05,0.006464233621954918,-0.0018342441180720925,-0.0007106511038728058,0.45860421657562256,0.73408043384552,0.5341014266014099,-0.6360090970993042,0.22523628175258636,-0.19803579151630402,0.42689767479896545,0.6803311109542847,0.42000001668930054,-0.5146595239639282,-0.9247319102287292,-1.3847142457962036,-2.999999523162842,-0.17771893739700317,-0.17398160696029663,-0.16894382238388062,-0.16541433334350586,-0.1951514333486557,-0.08675909787416458,0.020065100863575935,0.12248656898736954
0.8,0.08765403926372528,0.03004126064479351,0.0,0.5809015035629272,0.0,0.0,-0.8139739036560059,0.2230672985315323,-0.3363882005214691,0.0,0.0,0.0,-0.9405398964881897,0.43537330627441406,0.6803939342498779,0.4200000464916229,0.5604724287986755,1.2386887249249412e-07,-2.4613291316200048e-06,-0.8281731009483337,6.702233076794073e-05,-0.0002564569003880024,-8.196826092898846e-05,0.006452021189033985,-0.0018376328516751528,-0.0007076348410919309,0.45112982392311096,0.7347155809402466,0.5277916193008423,-0.2398245483636856,-0.10091392695903778,-0.3647509217262268,0.42689767479896545,0.6803311109542847,0.42000001668930054,-0.5575041770935059,-3.0000009536743164,-1.4059942960739136,0.18756753206253052,-0.1818094104528427,-0.17609871923923492,-0.16903701424598694,-0.1633935123682022,-0.22519202530384064,-0.10486988723278046,0.02151060849428177,0.16114501655101776
0.8166666666666667,0.09318409860134125,0.02237578295171261,0.0,0.5587241053581238,0.0,0.0,-0.8293535709381104,0.37702399492263794,-0.5151261687278748,0.0,0.0,0.0,-4.16058349609375,0.43537330627441406,0.6803939342498779,0.4200000464916229,0.5604721903800964,2.06489936260823e-08,-2.9924224236310693e-06,-0.8281731605529785,6.539645255543292e-05,-0.00025863657356239855,-8.172611705958843e-05,0.00651594577357173,-0.0018700228538364172,-0.0007084736134856939,0.4514663815498352,0.7295503616333008,0.525968074798584,0.3014814853668213,-0.4706392288208008,0.2816183269023895,0.42689767479896545,0.6803311109542847,0.42000001668930054,-0.607517421245575,-2.9999537467956543,-1.4466367959976196,-2.9999988079071045,-0.1869371235370636,-0.17922787368297577,-0.1700555831193924,-0.16200582683086395,-0.3066976070404053,-0.19851301610469818,-0.08311957865953445,0.05376523733139038
0.8333333333333334,0.10220770537853241,0.01876695081591606,0.0,0.5501227378845215,0.0,0.0,-0.8350837826728821,0.4927930235862732,-0.22574062645435333,0.0,0.0,0.0,-0.18450304865837097,0.43537330627441406,0.6803939342498779,0.4200000464916229,0.5604721307754517,1.597011873855081e-07,-2.6395248369226465e-06,-0.8281731605529785,6.678317731712013e-05,-0.00025715676019899547,-8.198828436434269e-05,0.006470442749559879,-0.001845997991040349,-0.0007084280368871987,0.45743221044540405,0.7246568202972412,0.5346404314041138,0.49338799715042114,-0.020709328353405,0.6931899785995483,0.42689767479896545,0.6803311109542847,0.42000001668930054,-0.6261721253395081,0.4765109419822693,-1.4966551065444946,-3.000000476837158,-0.19345885515213013,-0.18439725041389465,-0.17383132874965668,-0.1640607714653015,-0.08902484178543091,-0.11543149501085281,-0.13402198255062103,-0.12393530458211899
0.85,0.10681475698947906,0.011918042786419392,0.0,0.5673984885215759,0.0,0.0,-0.8234433531761169,0.2582981586456299,-0.4672078788280487,0.0,0.0,0.0,3.250861883163452,0.43537330627441406,0.6803939342498779,0.4200000464916229,0.5604720115661621,1.2523061343472364e-07,-2.7261016839474905e-06,-0.8281732797622681,6.706763815600425e-05,-0.00025728074251674116,-8.202879689633846e-05,0.0064724525436758995,-0.0018424433656036854,-0.0007092166342772543,0.4681515097618103,0.72411048412323,0.5430542230606079,0.6851330399513245,-0.14028894901275635,0.32521969079971313,0.42689767479896545,0.6803311109542847,0.42000001668930054,-0.6212528944015503,0.1381743997335434,-1.457934856414795,2.9999990463256836,-0.19125856459140778,-0.18290315568447113,-0.1729203313589096,-0.1632409542798996,0.10142911225557327,0.08566932380199432,0.07315301150083542,0.08593646436929703
0.8666666666666667,0.10874179005622864,0.008303331211209297,0.0,0.5698241591453552,0.0,0.0,-0.8217666745185852,0.04989338293671608,-0.18070417642593384,0.0,0.0,0.0,-0.5680624842643738,0.43537330627441406,0.6803939342498779,0.4200000464916229,0.5604722499847412,1.1968504054493678e-07,-2.6542379600869026e-06,-0.8281732201576233,6.797300738980994e-05,-0.0002561424917075783,-8.218968287110329e-05,0.006438614800572395,-0.0018255772301927209,-0.0007091833977028728,0.4785197973251343,0.7187463045120239,0.5452417135238647,0.6249144077301025,-0.3955632448196411,0.08322171866893768,0.42689767479896545,0.6803311109542847,0.42000001668930054,-0.6371123194694519,-1.8551338911056519,-1.407905101776123,2.999999761581421,-0.19143353402614594,-0.1831633597612381,-0.17324115335941315,-0.16323897242546082,0.08087365329265594,0.052999984472990036,0.02712429314851761,0.024826647713780403
