vladlanda/robotic-transformer/data/env_000_episode_0060.csv
sim_time_s,robot_box_x,robot_box_y,robot_box_z,robot_box_quat_w,robot_box_quat_x,robot_box_quat_y,robot_box_quat_z,robot_box_linvel_x,robot_box_linvel_y,robot_box_linvel_z,robot_box_angvel_x,robot_box_angvel_y,robot_box_angvel_z,cube_world_x,cube_world_y,cube_world_z,cube_quat_w,cube_quat_x,cube_quat_y,cube_quat_z,cube_linvel_x,cube_linvel_y,cube_linvel_z,cube_angvel_x,cube_angvel_y,cube_angvel_z,endpoint_world_x,endpoint_world_y,endpoint_world_z,endpoint_linvel_x,endpoint_linvel_y,endpoint_linvel_z,target_cube_world_x,target_cube_world_y,target_cube_world_z,gripper_actual_pos_rad_gp_leftgearjoint,gripper_actual_vel_rad_s_gp_leftgearjoint,gripper_actual_pos_rad_gp_rotatingjoint,gripper_actual_vel_rad_s_gp_rotatingjoint,motor_angle_rad_joint1,motor_angle_rad_joint2,motor_angle_rad_joint3,motor_angle_rad_joint4,motor_speed_rad_s_joint1,motor_speed_rad_s_joint2,motor_speed_rad_s_joint3,motor_speed_rad_s_joint4
0.0,0.0,0.0,0.0,1.0,0.0,0.0,0.0,0.0,0.0,0.0,0.0,0.0,0.0,-0.4294408857822418,0.6289406418800354,0.41999998688697815,1.0,0.0,0.0,0.0,0.0,0.0,0.0,0.0,0.0,0.0,3.42540442943573e-06,-0.005000244826078415,1.313499927520752,0.0,0.0,0.0,0.3563499450683594,0.6461901068687439,0.42000001668930054,-1.5707999467849731,0.0,0.0,0.0,0.0,0.0,0.0,0.0,0.0,0.0,0.0,0.0
0.016666666666666666,0.0028778850100934505,0.0021806680597364902,0.0,0.9998081922531128,0.0,0.0,0.019586581736803055,0.24087215960025787,0.18240931630134583,0.0,0.0,0.0,3.1418697834014893,-0.42944100499153137,0.6289403438568115,0.41999998688697815,1.0,3.2799914606584935e-06,-8.339814598912199e-07,8.465387679734704e-08,-1.9833554688375443e-05,0.00017983050202019513,-6.133061833679676e-05,0.0009432226070202887,-0.004689437802881002,-0.0003198152990080416,-0.007110234349966049,0.003379564033821225,1.3159373998641968,-0.8143353462219238,0.9868683815002441,0.18095196783542633,0.3563499450683594,0.6461901068687439,0.42000001668930054,-1.5301095247268677,3.0000011920928955,-0.04584788903594017,-2.9999992847442627,0.0008691533003002405,0.0007963840034790337,0.0007110277656465769,0.0006108740926720202,0.11094217747449875,0.09756709635257721,0.08334315568208694,0.06823883205652237
0.03333333333333333,0.008960925973951817,0.0068016923032701015,0.0,0.9997960329055786,0.0,0.0,0.02019681967794895,0.4070151150226593,0.31529510021209717,0.0,0.0,0.0,-0.8691312670707703,-0.4294411242008209,0.6289402842521667,0.4200000464916229,1.0,3.390914116607746e-06,-2.132455392711563e-06,-3.71076644967161e-08,0.0002635782293509692,0.00026937935035675764,-0.00010509486310184002,-0.001770757487975061,0.0041308156214654446,-0.00013547815615311265,-0.027534566819667816,0.025515643879771233,1.3167009353637695,-1.5904054641723633,1.5827200412750244,-0.07236339151859283,0.3563499450683594,0.6461901068687439,0.42000001668930054,-1.4800903797149658,3.0000011920928955,-0.09588772803544998,-3.0000009536743164,0.0029902574606239796,0.0026529321912676096,0.0022775628603994846,0.0018610713304951787,0.16423949599266052,0.13978856801986694,0.11385275423526764,0.08633945137262344
0.05,0.017754381522536278,0.013771610334515572,0.0,0.9993759989738464,0.0,0.0,0.035321902483701706,0.5938913226127625,0.46509748697280884,0.0,0.0,0.0,2.6479835510253906,-0.4294411540031433,0.6289403438568115,0.4200000464916229,1.0,3.7652293940482195e-06,-2.2118967990536476e-06,5.613899567435965e-09,0.000265309150563553,0.0002669153909664601,-0.0001044049859046936,-0.00172426737844944,0.004177379421889782,-0.0001294983085244894,-0.05964850261807442,0.05244216322898865,1.3120633363723755,-2.187331199645996,1.6851783990859985,-0.44564691185951233,0.3563499450683594,0.6461901068687439,0.42000001668930054,-1.4300720691680908,3.0000016689300537,-0.14592638611793518,-3.0,0.005713050253689289,0.004921142943203449,0.004057074431329966,0.003116398584097624,0.19301049411296844,0.15611937642097473,0.11735119670629501,0.07661282271146774
0.06666666666666667,0.029070759192109108,0.02306520938873291,0.0,0.999448299407959,0.0,0.0,0.03321345895528793,0.7204191088676453,0.5952053070068359,0.0,0.0,0.0,-1.2113093137741089,-0.4294411540031433,0.6289402842521667,0.4200000464916229,0.9999999403953552,3.4068445984303253e-06,-2.2855729184811935e-06,4.300823945868615e-07,0.000267024093773216,0.0002679175231605768,-0.0001043803058564663,-0.0017406325787305832,0.004211729858070612,-0.00012850853090640157,-0.09869503974914551,0.08510877192020416,1.3000197410583496,-2.497776985168457,2.123051881790161,-0.971500039100647,0.3563499450683594,0.6461901068687439,0.42000001668930054,-1.3800499439239502,3.00000262260437,-0.17133088409900665,-0.26041552424430847,0.008368431590497494,0.006908559240400791,0.0053376997821033,0.003650761442258954,0.1584152728319168,0.1091180145740509,0.05778784677386284,0.004323713947087526
0.08333333333333333,0.04209917411208153,0.03465033695101738,0.0,0.9994803667068481,0.0,0.0,0.03223395720124245,0.8438409566879272,0.7371508479118347,0.0,0.0,0.0,0.425967812538147,-0.4294411540031433,0.6289402842521667,0.4200000464916229,0.9999999403953552,3.6261940294934902e-06,-2.335324097657576e-06,3.032077131592814e-07,0.00026613869704306126,0.00026684990734793246,-0.00010405178181827068,-0.0017283851047977805,0.004196336027234793,-0.00012790512118954211,-0.14172640442848206,0.11992327868938446,1.2808794975280762,-2.654404640197754,2.0490212440490723,-1.2935978174209595,0.3563499450683594,0.6461901068687439,0.42000001668930054,-1.3300367593765259,3.000001907348633,-0.21768543124198914,-3.0000014305114746,0.009756338782608509,0.007431581150740385,0.0049566361121833324,0.0023246840573847294,0.06948891282081604,0.008548730053007603,-0.05440477654337883,-0.11939769983291626
0.1,0.04930836707353592,0.043078478425741196,0.0,0.9999291896820068,0.0,0.0,0.011900526471436024,0.30063843727111816,0.4232426583766937,0.0,0.0,0.0,-3.3848214149475098,-0.4294411540031433,0.6289402842521667,0.4200000464916229,1.0,3.4221902751596645e-06,-2.308589955646312e-06,1.7962148035621794e-07,0.0002668164379429072,0.00026800547493621707,-0.00010440824553370476,-0.0017430244479328394,0.0042070322670042515,-0.00012891182268504053,-0.18315869569778442,0.15963579714298248,1.255566954612732,-2.3641014099121094,2.577881336212158,-1.6637699604034424,0.3563499450683594,0.6461901068687439,0.42000001668930054,-1.280006766319275,2.9999942779541016,-0.1838030070066452,3.0000007152557373,0.004532585386186838,0.001508953981101513,-0.0017138579860329628,-0.005146476905792952,-0.42929983139038086,-0.4776940941810608,-0.5284205079078674,-0.5817363262176514
0.11666666666666667,0.054124023765325546,0.05464170128107071,0.0,0.9995031356811523,0.0,0.0,-0.03151986747980118,0.31354132294654846,0.6643176078796387,0.0,0.0,0.0,-6.123015403747559,-0.4294411540031433,0.6289403438568115,0.4200000464916229,1.0,3.7115696613909677e-06,-2.3326665541389957e-06,2.5742116349647404e-07,0.00026485652779228985,0.0002663531631696969,-0.00010423525236546993,-0.0017182076117023826,0.004170072730630636,-0.00012915638217236847,-0.22182053327560425,0.20535865426063538,1.2259973287582397,-2.303114414215088,2.8624963760375977,-1.7549357414245605,0.3563499450683594,0.6461901068687439,0.42000001668930054,-1.23000967502594,3.0000040531158447,-0.21537066996097565,-3.0,-0.0003101885668002069,-0.004705240949988365,-0.009287781082093716,-0.014070665463805199,-0.09664356708526611,-0.21572527289390564,-0.3311746120452881,-0.4428926110267639
0.13333333333333333,0.05706442892551422,0.0638555958867073,0.0,0.9985176920890808,0.0,0.0,-0.05442848801612854,0.11935962736606598,0.4447438418865204,0.0,0.0,0.0,-1.639816403388977,-0.4294411540031433,0.6289402842521667,0.4200000464916229,1.0,3.33580555889057e-06,-2.2318915853247745e-06,3.1130230127018876e-07,0.0002666967629920691,0.00026759342290461063,-0.00010428694076836109,-0.0017371419817209244,0.004205943085253239,-0.0001284025638597086,-0.26475462317466736,0.2489328384399414,1.1928657293319702,-2.5128839015960693,2.7390050888061523,-2.219863176345825,0.3563499450683594,0.6461901068687439,0.42000001668930054,-1.1799925565719604,2.9999914169311523,-0.1814534068107605,3.000000476837158,-0.002533720573410392,-0.008873097598552704,-0.015321951359510422,-0.021892158314585686,-0.17841747403144836,-0.2875399589538574,-0.39177706837654114,-0.4911158084869385
0.15,0.06559451669454575,0.0740676000714302,0.0,0.9958362579345703,0.0,0.0,-0.09116005152463913,0.6527222394943237,0.6816939115524292,0.0,0.0,0.0,-5.347222328186035,-0.4294411540031433,0.6289402842521667,0.4200000464916229,1.0,3.5190355447412003e-06,-2.283108187839389e-06,-3.6255448776501e-07,0.000266183604253456,0.0002673582639545202,-0.00010425667278468609,-0.0017349626868963242,0.004195743706077337,-0.00012861307186540216,-0.30347272753715515,0.2997710704803467,1.1537525653839111,-2.1158957481384277,3.296095132827759,-2.487600803375244,0.3563499450683594,0.6461901068687439,0.42000001668930054,-1.1299989223480225,3.0000007152557373,-0.21304066479206085,-2.9999988079071045,-0.002750019310042262,-0.011270064860582352,-0.019796498119831085,-0.02834000065922737,-0.020114067941904068,-0.14763832092285156,-0.2691165804862976,-0.38446125388145447
0.16666666666666666,0.07087063789367676,0.080971360206604,0.0,0.9935126304626465,0.0,0.0,-0.11372201144695282,0.3352804183959961,0.38191479444503784,0.0,0.0,0.0,-1.068005084991455,-0.4294411540031433,0.6289402842521667,0.4200000464916229,1.0,3.666726797746378e-06,-2.339156480957172e-06,-3.150096574700001e-07,0.00026595761300995946,0.0002666733635123819,-0.0001040350180119276,-0.0017252563266083598,0.004192715510725975,-0.00012778647942468524,-0.3411175012588501,0.3507552742958069,1.1054096221923828,-2.1210148334503174,3.1637680530548096,-3.196925163269043,0.3563499450683594,0.6461901068687439,0.42000001668930054,-1.0854980945587158,2.3581764698028564,-0.18111637234687805,2.999999523162842,-0.008904535323381424,-0.018541967496275902,-0.028124725446105003,-0.037670884281396866,-0.32496321201324463,-0.38751038908958435,-0.4456542134284973,-0.4997705817222595
0.18333333333333332,0.07351783663034439,0.08881700038909912,0.0,0.9899173974990845,0.0,0.0,-0.14164571464061737,0.08139147609472275,0.5409795641899109,0.0,0.0,0.0,-4.149420261383057,-0.4294411540031433,0.6289402842521667,0.4200000464916229,1.0,3.814431011051056e-06,-2.3995532956178067e-06,-2.702744552607328e-07,0.0002654912241268903,0.000266111281234771,-0.00010391324758529663,-0.001717864186502993,0.00418497622013092,-0.00012754154158756137,-0.375256210565567,0.40715479850769043,1.0481432676315308,-1.8459293842315674,3.5381357669830322,-3.66497540473938,0.3563499450683594,0.6461901068687439,0.42000001668930054,-1.0364375114440918,3.000002145767212,-0.21270912885665894,-2.999999523162842,-0.017013631761074066,-0.027477191761136055,-0.037810828536748886,-0.04803888499736786,-0.5998124480247498,-0.6331820487976074,-0.6626281142234802,-0.6885125637054443
0.2,0.07257499545812607,0.09528036415576935,0.0,0.9806895852088928,0.0,0.0,-0.19557082653045654,-0.12275068461894989,0.3221212327480316,0.0,0.0,0.0,-7.380561828613281,-0.4294411540031433,0.6289402842521667,0.4200000464916229,1.0,3.6001690659759333e-06,-2.291307964696898e-06,-2.2020600454197847e-07,0.0002657303411979228,0.0002664489147718996,-0.00010397983714938164,-0.0017226878553628922,0.004188837017863989,-0.0001277351111639291,-0.40286076068878174,0.47046101093292236,0.9777278900146484,-1.3348734378814697,3.9199771881103516,-4.6316447257995605,0.3563499450683594,0.6461901068687439,0.42000001668930054,-0.9864349365234375,2.999999761581421,-0.2627376317977905,-3.0000014305114746,-0.030237697064876556,-0.04074431583285332,-0.05107032135128975,-0.061249446123838425,-0.9181097745895386,-0.8930509686470032,-0.8661906719207764,-0.8381906747817993
0.21666666666666667,0.07271195948123932,0.10247798264026642,0.0,0.9735057353973389,0.0,0.0,-0.22866259515285492,0.06172172725200653,0.4729457199573517,0.0,0.0,0.0,-2.989300012588501,-0.4294411540031433,0.6289402842521667,0.4200000464916229,0.9999999403953552,3.6397284475242486e-06,-2.2620708932663547e-06,2.2246081243793014e-07,0.0002668728702701628,0.0002675432479009032,-0.00010411837138235569,-0.001740393927320838,0.004211096093058586,-0.00012783710553776473,-0.42736420035362244,0.5253581404685974,0.8947959542274475,-1.1652743816375732,3.0915136337280273,-5.287624359130859,0.3563499450683594,0.6461901068687439,0.42000001668930054,-0.9364280700683594,3.000000238418579,-0.31276801228523254,-2.999999761581421,-0.04667731747031212,-0.05716782808303833,-0.06722680479288101,-0.0768284723162651,-0.9872633814811707,-0.9894703030586243,-0.9870697259902954,-0.9763189554214478
0.23333333333333334,0.07144111394882202,0.10803115367889404,0.0,0.9621401429176331,0.0,0.0,-0.27255529165267944,-0.13130810856819153,0.2524554133415222,0.0,0.0,0.0,-6.296359062194824,-0.4294411242008209,0.6289402842521667,0.4200000464916229,1.0,3.420801476750057e-06,-2.3169377527665347e-06,2.955712261609733e-07,0.0002668015076778829,0.00026803911896422505,-0.00010442547500133514,-0.0017436784692108631,0.004206907004117966,-0.00012899722787551582,-0.44422411918640137,0.5732172727584839,0.7993696928024292,-0.6263477206230164,2.6561527252197266,-5.997483253479004,0.3563499450683594,0.6461901068687439,0.42000001668930054,-0.8864173889160156,2.999997138977051,-0.36279967427253723,-3.0,-0.06340087950229645,-0.07383278012275696,-0.08384132385253906,-0.09339692443609238,-0.9920462965965271,-0.9933044910430908,-0.9943010210990906,-0.9951118230819702
0.25,0.07119085639715195,0.1118149608373642,0.0,0.9552761912345886,0.0,0.0,-0.2957150638103485,0.08541762083768845,0.1947891116142273,0.0,0.0,0.0,-1.7141623497009277,-0.4294411540031433,0.6289402842521667,0.4200000464916229,0.9999999403953552,3.347705842315918e-06,-2.2592498680751305e-06,1.8081014729887102e-07,0.0002668780798558146,0.00026791164418682456,-0.00010439660400152206,-0.0017404821701347828,0.004208279773592949,-0.00012870303180534393,-0.45497310161590576,0.6041199564933777,0.6987476944923401,-0.34010493755340576,1.3680176734924316,-6.113960266113281,0.3563499450683594,0.6461901068687439,0.42000001668930054,-0.8364072442054749,2.999995470046997,-0.41283145546913147,-3.00000262260437,-0.08035776019096375,-0.09068632125854492,-0.10061361640691757,-0.11009707301855087,-0.9924867749214172,-0.9938010573387146,-0.9919792413711548,-0.9849433898925781
0.26666666666666666,0.06934311985969543,0.11314530670642853,0.0,0.9502550363540649,0.0,0.0,-0.31147298216819763,-0.15190309286117554,0.0074678463861346245,0.0,0.0,0.0,-2.1652605533599854,-0.4294411540031433,0.6289402842521667,0.4200000464916229,0.9999999403953552,3.535732730597374e-06,-2.300363803442451e-06,-1.2688023787177372e-07,0.0002660173049662262,0.0002671217080205679,-0.00010419590398669243,-0.0017316966550424695,0.004192880820482969,-0.00012849396443925798,-0.4578423798084259,0.6173092126846313,0.5987326502799988,0.1255035549402237,0.3943733870983124,-5.897841930389404,0.3563499450683594,0.6461901068687439,0.42000001668930054,-0.7863984107971191,2.9999990463256836,-0.46286264061927795,-3.000004291534424,-0.09779302030801773,-0.10791631042957306,-0.11769162118434906,-0.12705813348293304,-1.004938006401062,-1.0037075281143188,-1.0027717351913452,-1.002030372619629
0.2833333333333333,0.06519515067338943,0.1118103489279747,0.0,0.9519031047821045,0.0,0.0,-0.30639925599098206,-0.29577797651290894,-0.1338948905467987,0.0,0.0,0.0,1.4888769388198853,-0.4294411540031433,0.6289403438568115,0.4200000464916229,1.0,3.5934951938543236e-06,-2.2627673388342373e-06,-5.6559382954901594e-08,0.000267045950749889,0.0002677501179277897,-0.00010416517034173012,-0.0017431960441172123,0.004214114975184202,-0.00012789200991392136,-0.45656466484069824,0.6221603155136108,0.5070657730102539,0.22848902642726898,0.14529365301132202,-5.13379430770874,0.3563499450683594,0.6461901068687439,0.42000001668930054,-0.7363896369934082,3.000001907348633,-0.5128920674324036,-3.000000476837158,-0.11508582532405853,-0.12508338689804077,-0.1347665637731552,-0.1440621316432953,-1.0160871744155884,-1.0121344327926636,-1.0091192722320557,-1.0067148208618164
0.3,0.0586182065308094,0.10790859907865524,0.0,0.9487816095352173,0.0,0.0,-0.3159327805042267,-0.44876161217689514,-0.28083059191703796,0.0,0.0,0.0,-2.00101375579834,-0.4294411242008209,0.6289402842521667,0.4200000464916229,0.9999999403953552,3.7250451896397863e-06,-2.236193722637836e-06,3.828650392279087e-07,0.00026479706866666675,0.0002667299413587898,-0.0001045397948473692,-0.0017188811907544732,0.004166614264249802,-0.0001301660668104887,-0.4460386633872986,0.6253333687782288,0.42040538787841797,1.0378724336624146,0.18131431937217712,-5.116686820983887,0.3563499450683594,0.6461901068687439,0.42000001668930054,-0.6863825917243958,3.0000007152557373,-0.5629197359085083,-3.0000033378601074,-0.13244663178920746,-0.1422722339630127,-0.15182356536388397,-0.16101400554180145,-1.0050498247146606,-1.0038259029388428,-1.00288724899292,-1.0021336078643799
0.31666666666666665,0.049704331904649734,0.10162709653377533,0.0,0.9509628415107727,0.0,0.0,-0.3093050718307495,-0.5784258246421814,-0.415663480758667,0.0,0.0,0.0,1.721968412399292,-0.4289523661136627,0.6271586418151855,0.4206940531730652,0.9992530345916748,0.01764530874788761,-0.0005741079803556204,-0.03437437117099762,0.03242243826389313,-0.07672382146120071,0.014234960079193115,0.7332610487937927,-0.03398735076189041,-2.554746627807617,-0.4471036195755005,0.6276422142982483,0.4256976246833801,-0.05030754208564758,0.09832305461168289,-0.2032437026500702,0.3563499450683594,0.6461901068687439,0.42000001668930054,-0.6364191174507141,2.999983787536621,-0.6133826375007629,-2.9997918605804443,-0.13813023269176483,-0.14756427705287933,-0.15636126697063446,-0.16437211632728577,-0.409379780292511,-0.3539794683456421,-0.28181564807891846,-0.19049020111560822
0.3333333333333333,0.038511890918016434,0.0930284857749939,0.0,0.9481871724128723,0.0,0.0,-0.31771230697631836,-0.715944230556488,-0.5563885569572449,0.0,0.0,0.0,-1.9766128063201904,-0.42844459414482117,0.626402735710144,0.42005008459091187,0.9988555908203125,0.0011039520613849163,-0.00012042482558172196,-0.04781527444720268,0.030326686799526215,-0.03402794152498245,-0.0558437779545784,-2.857712745666504,0.24159160256385803,-1.375425100326538,-0.44526249170303345,0.6303962469100952,0.42258787155151367,0.23937863111495972,0.30108776688575745,-0.16891539096832275,0.3563499450683594,0.6461901068687439,0.42000001668930054,-0.5864137411117554,2.9999780654907227,-0.6634390950202942,-2.999964952468872,-0.1455947905778885,-0.15388111770153046,-0.16124756634235382,-0.1675206571817398,-0.4659460186958313,-0.3817439079284668,-0.2827165126800537,-0.16821908950805664
0.35,0.025239411741495132,0.08218944072723389,0.0,0.9503889083862305,0.0,0.0,-0.3110642433166504,-0.8456354141235352,-0.6891178488731384,0.0,0.0,0.0,1.797715425491333,-0.42537111043930054,0.6302324533462524,0.42068859934806824,0.9952223300933838,0.01723785325884819,-0.0007067792466841638,-0.0960979089140892,0.3543109595775604,0.4322485625743866,0.04896300658583641,2.6679859161376953,-0.4538460373878479,-10.788853645324707,-0.4396960735321045,0.6374073028564453,0.42011716961860657,0.43701693415641785,0.531852662563324,-0.12387532740831375,0.3563499450683594,0.6461901068687439,0.42000001668930054,-0.5364089012145996,3.0000009536743164,-0.7134766578674316,-2.9991941452026367,-0.15432600677013397,-0.16063164174556732,-0.16574998199939728,-0.16952013969421387,-0.511869490146637,-0.37644752860069275,-0.22459284961223602,-0.057789552956819534
0.36666666666666664,0.01551901362836361,0.06874988973140717,0.0,0.9478254318237305,0.0,0.0,-0.3187898099422455,-0.4952062666416168,-0.8503697514533997,0.0,0.0,0.0,-1.8734813928604126,-0.4191815257072449,0.6377545595169067,0.42017871141433716,0.9855273962020874,0.00143041939008981,-0.0016193027840927243,-0.1695018708705902,0.4666014313697815,0.564575731754303,-0.04311937093734741,-4.881319999694824,0.9881314635276794,-4.802306652069092,-0.4312255382537842,0.6450221538543701,0.4202171564102173,0.6048715114593506,0.450307697057724,0.10550390183925629,0.3563499450683594,0.6461901068687439,0.42000001668930054,-0.48637816309928894,2.9999680519104004,-0.7634947299957275,-2.9999828338623047,-0.16271205246448517,-0.16631615161895752,-0.16841167211532593,-0.1688840389251709,-0.4611878991127014,-0.28290045261383057,-0.08527550101280212,0.12813572585582733
0.3833333333333333,0.002843686379492283,0.053680628538131714,0.0,0.9349761605262756,0.0,0.0,-0.35471048951148987,-0.857276439666748,-0.9308244585990906,0.0,0.0,0.0,-5.510971546173096,-0.40656426548957825,0.6518680453300476,0.4211229979991913,0.9774432182312012,-0.02115093171596527,-0.003910379949957132,-0.21009992063045502,1.0670746564865112,1.150202989578247,0.08894426375627518,-1.2422058582305908,-4.393202304840088,-5.541525363922119,-0.41687726974487305,0.6575576663017273,0.42227697372436523,1.1252522468566895,1.0763721466064453,0.14449097216129303,0.3563499450683594,0.6461901068687439,0.42000001668930054,-0.43632709980010986,2.9999966621398926,-0.8135048151016235,-2.999953031539917,-0.1726822406053543,-0.17286068201065063,-0.1712075024843216,-0.1676870882511139,-0.566329300403595,-0.3639127314090729,-0.14209754765033722,0.09408053010702133
0.4,-0.006440748926252127,0.03579029440879822,0.0,0.9093733429908752,0.0,0.0,-0.41598087549209595,-0.5320351719856262,-1.1158075332641602,0.0,0.0,0.0,-8.715415954589844,-0.37668102979660034,0.6756413578987122,0.4251389503479004,0.9614002108573914,-0.03622620180249214,-0.0427364818751812,-0.26938968896865845,2.618546724319458,1.7985368967056274,0.31559595465660095,29.50128936767578,-3.3386521339416504,2.6760313510894775,-0.3867022395133972,0.6828057765960693,0.42522603273391724,2.4902496337890625,1.8485859632492065,0.4099268317222595,0.3563499450683594,0.6461901068687439,0.42000001668930054,-0.39182326197624207,1.783827304840088,-0.8635138273239136,-3.0000009536743164,-0.18132424354553223,-0.17801962792873383,-0.17257986962795258,-0.1650661826133728,-0.6109152436256409,-0.36928045749664307,-0.11356934159994125,0.14909783005714417
0.4166666666666667,-0.013989932835102081,0.022747397422790527,0.0,0.8679425120353699,0.0,0.0,-0.4966646134853363,-0.40654557943344116,-0.6653233170509338,0.0,0.0,0.0,-11.654258728027344,-0.3085595965385437,0.7122625708580017,0.4299827814102173,0.9372528791427612,0.022610796615481377,-0.08788102120161057,-0.3366343677043915,5.736441612243652,2.415147542953491,0.37703239917755127,13.486297607421875,-11.821072578430176,7.97979736328125,-0.318037211894989,0.720338761806488,0.429820716381073,5.3009443283081055,2.67897891998291,0.3214651346206665,0.3563499450683594,0.6461901068687439,0.42000001668930054,-0.3730317950248718,0.9495700001716614,-0.8265759348869324,2.9992101192474365,-0.1971336007118225,-0.19041264057159424,-0.1791437566280365,-0.16606996953487396,-0.8886900544166565,-0.8295660018920898,-0.48146188259124756,-0.16090449690818787
0.43333333333333335,-0.017273016273975372,0.01248839870095253,0.0,0.8081486821174622,0.0,0.0,-0.5889784693717957,-0.12900839745998383,-0.5722747445106506,0.0,0.0,0.0,-14.002021789550781,-0.20317459106445312,0.7557100653648376,0.4361785054206848,0.9076177477836609,0.07217040657997131,-0.12524501979351044,-0.3941255509853363,7.527286529541016,1.953713059425354,0.5184433460235596,10.682816505432129,-15.793846130371094,18.353511810302734,-0.21130509674549103,0.765925407409668,0.43589067459106445,7.446080207824707,2.7975833415985107,0.5478118658065796,0.3563499450683594,0.6461901068687439,0.42000001668930054,-0.3569856584072113,0.9616838693618774,-0.800281822681427,0.42699870467185974,-0.2102745920419693,-0.20261238515377045,-0.18632371723651886,-0.16875632107257843,-0.7887769937515259,-0.7036920189857483,-0.4369323253631592,-0.20724453032016754
0.45,-0.023473234847187996,0.007496580947190523,0.0,0.7534306645393372,0.0,0.0,-0.6575273275375366,-0.3310554623603821,-0.2877751290798187,0.0,0.0,0.0,-9.129166603088379,-0.08592420071363449,0.7837826013565063,0.4457463026046753,0.8485234379768372,0.09391282498836517,-0.10893131047487259,-0.5092368125915527,7.154885768890381,0.3931306004524231,0.47591912746429443,20.0101318359375,5.800797462463379,9.000418663024902,-0.09430310130119324,0.7974966168403625,0.4456990957260132,6.827797889709473,1.202211618423462,0.6654354333877563,0.3563499450683594,0.6461901068687439,0.42000001668930054,-0.34239667654037476,0.7758989930152893,-0.839671790599823,-3.000002861022949,-0.22508856654167175,-0.21753592789173126,-0.197562575340271,-0.1751975119113922,-0.6534677743911743,-0.7033089399337769,-0.6293589472770691,-0.3899420201778412
0.4666666666666667,-0.02552170120179653,8.598785643698648e-05,0.0,0.7195542454719543,0.0,0.0,-0.694436252117157,-0.05824776366353035,-0.5274483561515808,0.0,0.0,0.0,-4.990092754364014,0.022573094815015793,0.7931317090988159,0.4543963372707367,0.7999550700187683,0.09544051438570023,-0.09020452946424484,-0.5855135321617126,5.872289180755615,-1.1124643087387085,0.4287857115268707,-11.018102645874023,-7.762514591217041,34.96293258666992,0.015102021396160126,0.8089795112609863,0.4546257257461548,6.487768173217773,0.12852489948272705,0.6136540174484253,0.3563499450683594,0.6461901068687439,0.42000001668930054,-0.3307398557662964,0.4500046968460083,-0.8896961212158203,-3.000002861022949,-0.23508286476135254,-0.22696854174137115,-0.2052309513092041,-0.17900525033473969,-0.5392063856124878,-0.45636776089668274,-0.3417198061943054,-0.13148653507232666
0.48333333333333334,-0.02952883020043373,-0.004190976265817881,0.0,0.7091076970100403,0.0,0.0,-0.7051001787185669,-0.24744044244289398,-0.1810024380683899,0.0,0.0,0.0,-0.6496171951293945,0.11564653366804123,0.7843233942985535,0.45997756719589233,0.7408030033111572,0.08152057230472565,-0.08676924556493759,-0.6610872745513916,4.784885883331299,-1.5282716751098633,0.5642521977424622,29.44119644165039,-12.997014999389648,35.034385681152344,0.11056862026453018,0.80257248878479,0.46205148100852966,5.264884948730469,-0.8600819110870361,0.25395065546035767,0.3563499450683594,0.6461901068687439,0.42000001668930054,-0.32604584097862244,0.12389000505208969,-0.9397202730178833,-3.0000016689300537,-0.2400125116109848,-0.23648998141288757,-0.2126007229089737,-0.18314886093139648,-0.034632205963134766,-0.4960625171661377,-0.40070608258247375,-0.26168569922447205
0.5,-0.031105976551771164,-0.011998707428574562,0.0,0.6902691721916199,0.0,0.0,-0.7235526442527771,-0.09378578513860703,-0.473177433013916,0.0,0.0,0.0,-3.920980215072632,0.19655069708824158,0.7650894522666931,0.45727136731147766,0.6124312281608582,0.020856555551290512,-0.15132850408554077,-0.7756239771842957,4.226138114929199,-2.004986524581909,-0.8066359758377075,-37.21458435058594,18.358240127563477,-7.699064254760742,0.18819370865821838,0.7855761051177979,0.4636093080043793,4.32400369644165,-1.440762996673584,0.1361750066280365,0.3563499450683594,0.6461901068687439,0.42000001668930054,-0.3267096281051636,-0.30771511793136597,-0.989744246006012,-2.9982852935791016,-0.23746329545974731,-0.24001163244247437,-0.21536141633987427,-0.18456396460533142,0.005597912240773439,-0.019993985071778297,-0.1553114801645279,-0.07738997787237167
0.5166666666666666,-0.030105937272310257,-0.014361722394824028,0.0,0.6844063997268677,0.0,0.0,-0.72910076379776,0.07311814278364182,-0.0910499170422554,0.0,0.0,0.0,-0.003938231151551008,0.25993847846984863,0.737651526927948,0.451048880815506,0.5850341320037842,-0.03461455553770065,-0.18319541215896606,-0.7892884016036987,3.4960720539093018,-1.8310565948486328,-0.4981868863105774,-6.830367088317871,2.4535624980926514,-9.882558822631836,0.2539832890033722,0.7558231353759766,0.4588831067085266,3.5992212295532227,-1.9332187175750732,-0.48313313722610474,0.3563499450683594,0.6461901068687439,0.42000001668930054,-0.33379027247428894,0.15545345842838287,-1.039766788482666,-2.9999964237213135,-0.23951247334480286,-0.23968742787837982,-0.22023186087608337,-0.18839262425899506,0.10853102058172226,0.08885245770215988,-0.17738832533359528,-0.18953031301498413
0.5333333333333333,-0.026860138401389122,-0.016131259500980377,0.0,0.669017493724823,0.0,0.0,-0.7432466745376587,0.24488908052444458,-0.07296746969223022,0.0,0.0,0.0,-3.4154157638549805,0.31038427352905273,0.707541286945343,0.4374926686286926,0.5516419410705566,-0.07610370218753815,-0.16592369973659515,-0.8138603568077087,2.5648138523101807,-1.871781587600708,-0.9434114694595337,-5.275007247924805,5.471168518066406,-3.413473129272461,0.3067541718482971,0.7265642881393433,0.4455406665802002,2.7196359634399414,-1.7184885740280151,-0.9824737906455994,0.3563499450683594,0.6461901068687439,0.42000001668930054,-0.320229709148407,1.2209033966064453,-1.0897889137268066,-2.9999992847442627,-0.2347215861082077,-0.2356388121843338,-0.22099436819553375,-0.1907968968153,0.38099271059036255,0.3331562876701355,0.04298137128353119,-0.11700711399316788
0.55,-0.02120930142700672,-0.01952950656414032,0.0,0.6669206023216248,0.0,0.0,-0.7451288104057312,0.3680545389652252,-0.27512654662132263,0.0,0.0,0.0,0.6021506190299988,0.34357622265815735,0.6836387515068054,0.4235653877258301,0.5510578751564026,-0.05593796446919441,-0.04118579626083374,-0.8315706849098206,1.317129135131836,-1.4642685651779175,-0.07010512053966522,5.281041145324707,-12.616100311279297,6.34239387512207,0.3416598439216614,0.6982057094573975,0.43065720796585083,1.2534137964248657,-1.4957162141799927,-0.47343695163726807,0.3563499450683594,0.6461901068687439,0.42000001668930054,-0.3012015223503113,1.0518436431884766,-1.1398110389709473,-2.999890089035034,-0.22904808819293976,-0.230057030916214,-0.21947896480560303,-0.19217613339424133,0.3712635636329651,0.37987756729125977,0.1606004238128662,-0.034488044679164886
0.5666666666666667,-0.014830801635980606,-0.020802965387701988,0.0,0.6553661227226257,0.0,0.0,-0.7553113698959351,0.411214143037796,-0.022270331159234047,0.0,0.0,0.0,-2.706676721572876,0.35872918367385864,0.6679854393005371,0.4206729233264923,0.5538102984428406,-0.014453941024839878,-0.00705889705568552,-0.8324874639511108,0.40001624822616577,-1.3882256746292114,0.2208884060382843,-16.189363479614258,3.5522632598876953,15.478517532348633,0.3556746244430542,0.6803818941116333,0.42654338479042053,0.36615192890167236,-0.6564133167266846,0.14940689504146576,0.3563499450683594,0.6461901068687439,0.42000001668930054,-0.28391292691230774,0.8340469598770142,-1.1044352054595947,3.0000016689300537,-0.22177031636238098,-0.22319623827934265,-0.21645228564739227,-0.19309335947036743,0.5113154053688049,0.46997612714767456,0.24264834821224213,-0.01979619637131691
0.5833333333333334,-0.01107421237975359,-0.02513972669839859,0.0,0.6561204195022583,0.0,0.0,-0.754656195640564,0.1482706218957901,-0.29850882291793823,0.0,0.0,0.0,0.9392310380935669,0.3628227710723877,0.6554551124572754,0.4208034574985504,0.5762801170349121,-0.010836330242455006,0.016608353704214096,-0.8170115351676941,-0.0875573679804802,-0.9819563627243042,0.35800090432167053,9.500998497009277,9.093246459960938,0.16151458024978638,0.35847532749176025,0.6668906211853027,0.4262181222438812,-0.0629625990986824,-0.8462834358215332,-0.28339576721191406,0.3563499450683594,0.6461901068687439,0.42000001668930054,-0.2990703582763672,-1.8508038520812988,-1.1272828578948975,-2.9994215965270996,-0.21232524514198303,-0.21414074301719666,-0.21068692207336426,-0.1917538046836853,0.4717980623245239,0.479825884103775,0.3241840898990631,0.07113438099622726
0.6,-0.006372641306370497,-0.025434281677007675,0.0,0.645898163318634,0.0,0.0,-0.7634235620498657,0.31631168723106384,-0.003646938828751445,0.0,0.0,0.0,-2.3942978382110596,0.3616032898426056,0.6468595862388611,0.4239512085914612,0.5858986377716064,-0.017572108656167984,0.05466107279062271,-0.808347761631012,-0.02042292058467865,-0.048063501715660095,0.1221117153763771,-1.8594785928726196,2.2112679481506348,1.7083412408828735,0.35681474208831787,0.6593366861343384,0.42480790615081787,-0.01669301837682724,-0.1366107314825058,0.16596664488315582,0.3563499450683594,0.6461901068687439,0.42000001668930054,-0.3143364191055298,-0.1362667679786682,-1.1771981716156006,-2.99889874458313,-0.2053360790014267,-0.2073056548833847,-0.20631471276283264,-0.1916232705116272,0.5644152760505676,0.5131753087043762,0.3475077748298645,0.07096976041793823
0.6166666666666667,0.00046071401447989047,-0.029699549078941345,0.0,0.648712158203125,0.0,0.0,-0.7610338926315308,0.4240838587284088,-0.27460968494415283,0.0,0.0,0.0,1.3410128355026245,0.36122003197669983,0.6460474729537964,0.4239533245563507,0.5963173508644104,-0.042065367102622986,0.05260083079338074,-0.7999182343482971,-0.02050822228193283,-0.048390913754701614,-0.04120444506406784,-1.8586657047271729,2.194728136062622,1.6804245710372925,0.35475867986679077,0.6571321487426758,0.4260954260826111,-0.29121917486190796,-0.12018053978681564,0.025447694584727287,0.3563499450683594,0.6461901068687439,0.42000001668930054,-0.3521794080734253,-3.0000007152557373,-1.1898102760314941,1.1334121227264404,-0.19470810890197754,-0.1974727213382721,-0.19895711541175842,-0.18877840042114258,0.5493550300598145,0.528804361820221,0.4179151654243469,0.17378133535385132
0.6333333333333333,0.010012566111981869,-0.03090919367969036,0.0,0.6719987392425537,0.0,0.0,-0.7405523061752319,0.6172550916671753,-0.036654990166425705,0.0,0.0,0.0,4.496407985687256,0.36019912362098694,0.6456460356712341,0.4222484827041626,0.5991455316543579,-0.030975885689258575,0.042840465903282166,-0.7988927960395813,-0.16027551889419556,0.04316993057727814,-0.054102297872304916,0.6439248919487,-6.47038459777832,-0.8079551458358765,0.35183781385421753,0.6570084095001221,0.42853301763534546,-0.15871956944465637,0.1446489840745926,0.18462850153446198,0.3563499450683594,0.6461901068687439,0.42000001668930054,-0.40218865871429443,-2.9978585243225098,-1.2257195711135864,-2.999154806137085,-0.18730147182941437,-0.19028528034687042,-0.19318147003650665,-0.1866098791360855,0.48137167096138,0.45482808351516724,0.3723437786102295,0.16099271178245544
0.65,0.017154861241579056,-0.035148147493600845,0.0,0.6806755065917969,0.0,0.0,-0.732585072517395,0.3445025682449341,-0.28909948468208313,0.0,0.0,0.0,0.3418285548686981,0.35771995782852173,0.6464076042175293,0.4200444221496582,0.5965237617492676,0.0005732544814236462,-0.0008189151994884014,-0.8025946617126465,-0.06778287887573242,0.05000710487365723,-0.017570439726114273,0.24336464703083038,0.7903075814247131,-0.02133932150900364,0.34967830777168274,0.6593321561813354,0.43260467052459717,-0.17555338144302368,0.09226014465093613,0.2798802852630615,0.3563499450683594,0.6461901068687439,0.42000001668930054,-0.4522038400173187,-2.999828577041626,-1.2756896018981934,-2.9999938011169434,-0.17922194302082062,-0.18221315741539001,-0.18576444685459137,-0.1818811148405075,0.4040152132511139,0.44063040614128113,0.450623482465744,0.3430294096469879
0.6666666666666666,0.024395233020186424,-0.04225099831819534,0.0,0.6677296757698059,0.0,0.0,-0.7444038391113281,0.47575896978378296,-0.49931299686431885,0.0,0.0,0.0,-2.957749843597412,0.35741159319877625,0.6466231346130371,0.42000022530555725,0.5972482562065125,-1.7646461856202222e-06,-3.708754547915305e-06,-0.8020563125610352,0.00012628038530237973,-7.143125549191609e-05,-0.00029462319798767567,-0.0012797836679965258,-0.0028392053209245205,0.0022169509902596474,0.34918004274368286,0.6612036228179932,0.4406459331512451,0.10659834742546082,0.09403058886528015,0.8075683116912842,0.3563499450683594,0.6461901068687439,0.42000001668930054,-0.5022172331809998,-2.999988079071045,-1.3257077932357788,-2.9999992847442627,-0.17472577095031738,-0.17670701444149017,-0.17946770787239075,-0.17659790813922882,0.20055454969406128,0.2782144248485565,0.353280633687973,0.32866615056991577
0.6833333333333333,0.03511345013976097,-0.044693298637866974,0.0,0.6330063343048096,0.0,0.0,-0.7741466164588928,0.6210681200027466,-0.12508201599121094,0.0,0.0,0.0,-6.2904815673828125,0.3574114441871643,0.646622896194458,0.4200000464916229,0.5972493290901184,5.752238507739094e-07,-3.2635255138302455e-06,-0.8020555973052979,0.00013588808360509574,-0.000274785328656435,-9.29033849388361e-05,0.006204937119036913,-0.0010523549281060696,-0.0006521317991428077,0.3587574362754822,0.6578385829925537,0.4611641764640808,1.1119861602783203,-0.31445834040641785,1.7390131950378418,0.3563499450683594,0.6461901068687439,0.42000001668930054,-0.5522297620773315,-2.999948263168335,-1.3757261037826538,-2.9999964237213135,-0.17866528034210205,-0.17812731862068176,-0.17833569645881653,-0.17451627552509308,-0.2073022425174713,-0.07269208878278732,0.07378971576690674,0.13635341823101044
0.7,0.047487687319517136,-0.044410884380340576,0.0,0.6136361956596375,0.0,0.0,-0.7895889282226562,0.7901317477226257,0.04456489160656929,0.0,0.0,0.0,-1.869816780090332,0.3574114143848419,0.646622896194458,0.4200000464916229,0.5972493886947632,3.432438688832917e-07,-3.2933278362179408e-06,-0.8020554780960083,0.00012850429629907012,-0.00027390714967623353,-9.345030412077904e-05,0.006207566242665052,-0.0012003321899101138,-0.0006396790267899632,0.37850427627563477,0.6572948694229126,0.4921354055404663,1.2172534465789795,0.19107109308242798,1.958573818206787,0.3563499450683594,0.6461901068687439,0.42000001668930054,-0.5729908347129822,0.2428843230009079,-1.4257444143295288,-3.0,-0.18134383857250214,-0.17958316206932068,-0.17830714583396912,-0.174247607588768,-0.04919794201850891,-0.038396041840314865,-0.00946849025785923,-0.04642348736524582
0.7166666666666667,0.057047344744205475,-0.042037252336740494,0.0,0.6199129819869995,0.0,0.0,-0.7846705317497253,0.49038031697273254,0.1799236387014389,0.0,0.0,0.0,1.8467515707015991,0.3574114441871643,0.646622896194458,0.4200000464916229,0.5972495079040527,3.2467761457155575e-07,-3.1997501537261996e-06,-0.8020554780960083,0.000128689527628012,-0.0002744576195254922,-9.336741641163826e-05,0.0062205009162425995,-0.0011977518443018198,-0.0006404975429177284,0.3980253338813782,0.6612011194229126,0.518412709236145,1.0353962182998657,0.278456449508667,1.2593083381652832,0.3563499450683594,0.6461901068687439,0.42000001668930054,-0.5478613376617432,2.549757957458496,-1.3872264623641968,3.0000011920928955,-0.18058592081069946,-0.17885971069335938,-0.1772884577512741,-0.17390255630016327,0.12865400314331055,0.11678314954042435,0.1241111159324646,0.0790538638830185
0.7333333333333333,0.06111108884215355,-0.04549470543861389,0.0,0.6138719320297241,0.0,0.0,-0.7894056439399719,0.283451110124588,-0.2085837423801422,0.0,0.0,0.0,-1.5972977876663208,0.3574114143848419,0.646622896194458,0.4200000464916229,0.597249448299408,3.61037137963649e-07,-3.2275022476824233e-06,-0.8020554780960083,0.0001289534120587632,-0.0002738172188401222,-9.35504212975502e-05,0.006202996708452702,-0.0011943529825657606,-0.0006405732710845768,0.4096240699291229,0.6671481132507324,0.5338119268417358,0.2678998112678528,0.14781101047992706,0.6859618425369263,0.3563499450683594,0.6461901068687439,0.42000001668930054,-0.5201855897903442,0.8944858312606812,-1.3371738195419312,3.0000007152557373,-0.17227265238761902,-0.17167125642299652,-0.17089299857616425,-0.16901467740535736,0.19627976417541504,0.20246045291423798,0.22045683860778809,0.1922300159931183
0.75,0.06306163221597672,-0.04417956620454788,0.0,0.6211341023445129,0.0,0.0,-0.7837042808532715,0.05850174278020859,0.11983936280012131,0.0,0.0,0.0,1.906948208808899,0.3574114143848419,0.646622896194458,0.4200000464916229,0.5972493886947632,3.4478932775527937e-07,-3.1370625492854742e-06,-0.8020555377006531,0.0001277215196751058,-0.0002741935895755887,-9.318883530795574e-05,0.006219257600605488,-0.0012090557720512152,-0.000638058700133115,0.4132869243621826,0.6690467596054077,0.5419571399688721,0.2118588238954544,0.19100162386894226,0.3187599778175354,0.3563499450683594,0.6461901068687439,0.42000001668930054,-0.4960533380508423,1.8951159715652466,-1.3564016819000244,-2.9999990463256836,-0.17210888862609863,-0.17084328830242157,-0.1692853569984436,-0.1673729419708252,0.08483598381280899,0.1012842133641243,0.12440922856330872,0.10978585481643677
0.7666666666666666,0.06252200156450272,-0.04574167728424072,0.0,0.6158989667892456,0.0,0.0,-0.7878251075744629,-0.06537717580795288,-0.18691544234752655,0.0,0.0,0.0,-1.6885426044464111,0.3574114441871643,0.646622896194458,0.4200000464916229,0.597249448299408,3.217714379388781e-07,-3.2232983357971534e-06,-0.8020554184913635,0.00012878267443738878,-0.00027449821936897933,-9.339442476630211e-05,0.006220870651304722,-0.0011970942141488194,-0.0006407602340914309,0.4117119610309601,0.671424925327301,0.5409646034240723,-0.37523597478866577,0.11118270456790924,-0.24444004893302917,0.3563499450683594,0.6461901068687439,0.42000001668930054,-0.482974648475647,-0.15906968712806702,-1.3180811405181885,3.0,-0.16991174221038818,-0.16851912438869476,-0.1667405664920807,-0.16513600945472717,0.15773539245128632,0.16342531144618988,0.17255954444408417,0.1542566865682602
0.7833333333333333,0.06419874727725983,-0.04292605072259903,0.0,0.6228340268135071,0.0,0.0,-0.7823539972305298,0.02172667905688286,0.1649155467748642,0.0,0.0,0.0,1.7191942930221558,0.3574114143848419,0.646622896194458,0.4200000464916229,0.597249448299408,3.6399740110937273e-07,-3.252462192904204e-06,-0.8020555377006531,0.0001290905347559601,-0.0002737900649663061,-9.358534589409828e-05,0.0062016150914132595,-0.0011926570441573858,-0.0006408677436411381,0.4054718613624573,0.671876072883606,0.5359596014022827,-0.28404664993286133,0.1828022599220276,-0.322907418012619,0.3563499450683594,0.6461901068687439,0.42000001668930054,-0.4857693016529083,-0.1720936894416809,-1.3376595973968506,-2.999999523162842,-0.17188821732997894,-0.16962102055549622,-0.16693571209907532,-0.16482555866241455,0.1189231276512146,0.10981223732233047,0.110593281686306,0.10177647322416306
0.8,0.06601717323064804,-0.04306966811418533,0.0,0.6180359125137329,0.0,0.0,-0.7861498594284058,0.16434334218502045,-0.048495661467313766,0.0,0.0,0.0,-1.7381871938705444,0.3574114441871643,0.646622896194458,0.4200000464916229,0.5972495079040527,3.278489657532191e-07,-3.1553579447063385e-06,-0.8020554184913635,0.00012843117292504758,-0.00027450433117337525,-9.33036208152771e-05,0.006223062518984079,-0.0012009732890874147,-0.0006399584817700088,0.40132737159729004,0.672390878200531,0.5269878506660461,-0.19331270456314087,-0.1126512810587883,-0.5859906673431396,0.3563499450683594,0.6461901068687439,0.42000001668930054,-0.5231239795684814,-2.999999761581421,-1.3017805814743042,3.000000476837158,-0.17099015414714813,-0.16852816939353943,-0.16543328762054443,-0.16294533014297485,-0.039004262536764145,0.001594045665115118,0.05554218590259552,0.1122724786400795
0.8166666666666667,0.07071565836668015,-0.045117758214473724,0.0,0.5924476981163025,0.0,0.0,-0.8056089282035828,0.3320700228214264,-0.180063396692276,0.0,0.0,0.0,-4.9370341300964355,0.3574114143848419,0.646622896194458,0.4200000464916229,0.597249448299408,3.4102504287147895e-07,-3.177627604600275e-06,-0.8020554184913635,0.00012870268255937845,-0.000273861427558586,-9.348965249955654e-05,0.006205537356436253,-0.001197412027977407,-0.0006400539423339069,0.4017426371574402,0.6691784858703613,0.5202750563621521,0.251164048910141,-0.3080371618270874,-0.08833862096071243,0.3563499450683594,0.6461901068687439,0.42000001668930054,-0.5731343030929565,-2.9999043941497803,-1.3216619491577148,-2.9999966621398926,-0.17267155647277832,-0.16954898834228516,-0.16550500690937042,-0.16189201176166534,-0.1596040427684784,-0.10727684199810028,-0.03738027811050415,0.046487677842378616
0.8333333333333334,0.07797835022211075,-0.04521436244249344,0.0,0.5816394090652466,0.0,0.0,-0.8134467601776123,0.4707317352294922,0.06664151698350906,0.0,0.0,0.0,-0.5955711007118225,0.3574114143848419,0.646622896194458,0.4200000464916229,0.5972493886947632,3.475381333828409e-07,-3.0847602374706184e-06,-0.8020555377006531,0.00012759841047227383,-0.00027422368293628097,-9.316322393715382e-05,0.006220677867531776,-0.0012107603251934052,-0.0006378240650519729,0.4045443534851074,0.6684367060661316,0.5215209722518921,0.0697324275970459,0.1364227682352066,0.20726531744003296,0.3563499450683594,0.6461901068687439,0.42000001668930054,-0.5930928587913513,0.32748934626579285,-1.3716802597045898,-2.999999761581421,-0.17480869591236115,-0.17154064774513245,-0.16709475219249725,-0.16282261908054352,-0.07820272445678711,-0.10508324205875397,-0.1207277923822403,-0.12155218422412872
0.85,0.08238336443901062,-0.04282324016094208,0.0,0.5954208374023438,0.0,0.0,-0.803413987159729,0.20219667255878448,0.2118520438671112,0.0,0.0,0.0,2.848707914352417,0.3574114441871643,0.646622896194458,0.4200000464916229,0.5972495079040527,3.280054841070523e-07,-3.1655245038564317e-06,-0.8020554780960083,0.00012924738985020667,-0.0002743008662946522,-9.351829066872597e-05,0.0062135024927556515,-0.001190940965898335,-0.000641632592305541,0.40730708837509155,0.6731010675430298,0.5206896662712097,0.18003615736961365,0.3583865761756897,-0.27188634872436523,0.3563499450683594,0.6461901068687439,0.42000001668930054,-0.5734227299690247,1.8801442384719849,-1.3428350687026978,3.0,-0.17392946779727936,-0.17152343690395355,-0.16776041686534882,-0.16389283537864685,0.09021660685539246,0.033521074801683426,-0.01550391037017107,-0.048892032355070114
0.8666666666666667,0.08300763368606567,-0.044531386345624924,0.0,0.5955216288566589,0.0,0.0,-0.8033393025398254,0.007488863542675972,-0.13191953301429749,0.0,0.0,0.0,-0.8792259693145752,0.3574114143848419,0.646622896194458,0.4200000464916229,0.597249448299408,3.523787199810613e-07,-3.191323912687949e-06,-0.8020554780960083,0.00012883231102023274,-0.0002738364564720541,-9.352155029773712e-05,0.00620410917326808,-0.0011958598624914885,-0.0006403251318261027,0.4061795473098755,0.6778582334518433,0.5130257606506348,-0.34981486201286316,0.15347161889076233,-0.4954974353313446,0.3563499450683594,0.6461901068687439,0.42000001668930054,-0.5756523609161377,-1.8257197141647339,-1.2927900552749634,3.0,-0.17010478675365448,-0.16892574727535248,-0.16629941761493683,-0.16331493854522705,0.07408349961042404,0.038002245128154755,3.725290298461914e-09,-0.025359414517879486
