vladlanda/robotic-transformer/data/env_000_episode_0208.csv
sim_time_s,robot_box_x,robot_box_y,robot_box_z,robot_box_quat_w,robot_box_quat_x,robot_box_quat_y,robot_box_quat_z,robot_box_linvel_x,robot_box_linvel_y,robot_box_linvel_z,robot_box_angvel_x,robot_box_angvel_y,robot_box_angvel_z,cube_world_x,cube_world_y,cube_world_z,cube_quat_w,cube_quat_x,cube_quat_y,cube_quat_z,cube_linvel_x,cube_linvel_y,cube_linvel_z,cube_angvel_x,cube_angvel_y,cube_angvel_z,endpoint_world_x,endpoint_world_y,endpoint_world_z,endpoint_linvel_x,endpoint_linvel_y,endpoint_linvel_z,target_cube_world_x,target_cube_world_y,target_cube_world_z,gripper_actual_pos_rad_gp_leftgearjoint,gripper_actual_vel_rad_s_gp_leftgearjoint,gripper_actual_pos_rad_gp_rotatingjoint,gripper_actual_vel_rad_s_gp_rotatingjoint,motor_angle_rad_joint1,motor_angle_rad_joint2,motor_angle_rad_joint3,motor_angle_rad_joint4,motor_speed_rad_s_joint1,motor_speed_rad_s_joint2,motor_speed_rad_s_joint3,motor_speed_rad_s_joint4
0.0,0.0,0.0,0.0,1.0,0.0,0.0,0.0,0.0,0.0,0.0,0.0,0.0,0.0,-0.33034831285476685,0.665197491645813,0.41999998688697815,1.0,0.0,0.0,0.0,0.0,0.0,0.0,0.0,0.0,0.0,3.42540442943573e-06,-0.005000244826078415,1.313499927520752,0.0,0.0,0.0,0.3918725550174713,0.6760115027427673,0.42000001668930054,-1.5707999467849731,0.0,0.0,0.0,0.0,0.0,0.0,0.0,0.0,0.0,0.0,0.0
0.016666666666666666,0.0028794060926884413,0.002142694778740406,0.0,0.9998444318771362,0.0,0.0,-0.017639722675085068,0.23942990601062775,0.1798132359981537,0.0,0.0,0.0,-3.145692825317383,-0.3303484320640564,0.6651971936225891,0.41999998688697815,1.0,3.2799905511637917e-06,-8.339794135281409e-07,8.465515577427141e-08,-1.9833774786093272e-05,0.00017983047291636467,-6.132945418357849e-05,0.0009432245860807598,-0.004689525347203016,-0.00031981084612198174,-0.006986426189541817,0.004082332830876112,1.3159294128417969,-0.7943518161773682,1.0442941188812256,0.1793050467967987,0.3918725550174713,0.6760115027427673,0.42000001668930054,-1.5301092863082886,3.000002384185791,-0.04586855322122574,-3.000000476837158,0.0008675712160766125,0.0007939995848573744,0.0007082005613483489,0.0006088778609409928,0.11044728010892868,0.09701072424650192,0.08271492272615433,0.06750363111495972
0.03333333333333333,0.008883404545485973,0.006713528651744127,0.0,0.9998316764831543,0.0,0.0,-0.01834750548005104,0.40273141860961914,0.31359046697616577,0.0,0.0,0.0,0.8612369894981384,-0.33034855127334595,0.6651971340179443,0.4200000464916229,1.0,3.3908531804627273e-06,-2.132488134520827e-06,-3.710428941872124e-08,0.0002635785494931042,0.0002693783608265221,-0.00010509602725505829,-0.0017707846127450466,0.004130862653255463,-0.00013547409616876394,-0.0264742374420166,0.025207925587892532,1.3168519735336304,-1.4764659404754639,1.5260958671569824,-0.046972133219242096,0.3918725550174713,0.6760115027427673,0.42000001668930054,-1.4800899028778076,3.0000014305114746,-0.09590834379196167,-3.0000009536743164,0.0029236094560474157,0.002580433152616024,0.0021994439885020256,0.0017780341440811753,0.15889456868171692,0.13423871994018555,0.10809794068336487,0.08035580068826675
0.05,0.017540497705340385,0.013507150113582611,0.0,0.9994409084320068,0.0,0.0,-0.033435359597206116,0.5818411111831665,0.45024698972702026,0.0,0.0,0.0,-2.641842842102051,-0.33034858107566833,0.6651971936225891,0.4200000464916229,1.0,3.7651284401363228e-06,-2.2118861124909017e-06,5.622759147172474e-09,0.00026530996547080576,0.00026691515813581645,-0.00010440382175147533,-0.00172425655182451,0.004177390597760677,-0.00012948956282343715,-0.053226862102746964,0.05638270825147629,1.3128383159637451,-1.710594654083252,2.1701533794403076,-0.4056167006492615,0.3918725550174713,0.6760115027427673,0.42000001668930054,-1.430071473121643,3.000001907348633,-0.14189749956130981,-2.5181424617767334,0.005281225312501192,0.004381892271339893,0.003410677658393979,0.00236350460909307,0.1549009382724762,0.10831240564584732,0.059861402958631516,0.009437920525670052
0.06666666666666667,0.029722893610596657,0.022773560136556625,0.0,0.9972136616706848,0.0,0.0,-0.0745980516076088,0.7908703684806824,0.601000964641571,0.0,0.0,0.0,-5.866389751434326,-0.33034858107566833,0.6651971340179443,0.4200000464916229,0.9999999403953552,3.406779342185473e-06,-2.285526988998754e-06,4.300881926155853e-07,0.00026702668401412666,0.00026791810523718596,-0.00010437914170324802,-0.0017406379338353872,0.004211799707263708,-0.00012850595521740615,-0.08339547365903854,0.09611373394727707,1.3030810356140137,-1.8787059783935547,2.5619587898254395,-0.7548165917396545,0.3918725550174713,0.6760115027427673,0.42000001668930054,-1.380049228668213,2.999999761581421,-0.1058395504951477,2.9999990463256836,0.0075470502488315105,0.005823667161166668,0.003988214768469334,0.002039344049990177,0.13569967448711395,0.07966136932373047,0.021588686853647232,-0.038648344576358795
0.08333333333333333,0.036361467093229294,0.036030665040016174,0.0,0.9950935244560242,0.0,0.0,-0.09893887490034103,0.2420390099287033,0.9339077472686768,0.0,0.0,0.0,-1.9114911556243896,-0.33034858107566833,0.6651971340179443,0.4200000464916229,1.0,3.6973510759708006e-06,-2.1889595700486097e-06,-2.632473012909031e-07,0.00026389595586806536,0.0002658632874954492,-0.0001043388620018959,-0.0017081330297514796,0.004150238819420338,-0.00012991279072593898,-0.11727352440357208,0.13548636436462402,1.2873125076293945,-2.001225471496582,2.426436424255371,-1.044816493988037,0.3918725550174713,0.6760115027427673,0.42000001668930054,-1.3300460577011108,2.9999992847442627,-0.13786549866199493,-3.000000476837158,0.004017775412648916,0.001665374031290412,-0.0008484932477585971,-0.003530544927343726,-0.34854942560195923,-0.3884570300579071,-0.43106839060783386,-0.4767477810382843
0.1,0.04712202027440071,0.04600831866264343,0.0,0.9907789826393127,0.0,0.0,-0.13548815250396729,0.6949658989906311,0.5846754908561707,0.0,0.0,0.0,-4.970661640167236,-0.33034858107566833,0.6651971340179443,0.4200000464916229,0.9999999403953552,3.62046125701454e-06,-2.2652770894637797e-06,1.745990232393524e-07,0.0002667673397809267,0.00026740715838968754,-0.0001040794886648655,-0.0017385382670909166,0.004209098871797323,-0.0001277524424949661,-0.14763055741786957,0.17977803945541382,1.269735336303711,-1.6884866952896118,3.005244255065918,-1.1204167604446411,0.3918725550174713,0.6760115027427673,0.42000001668930054,-1.2800352573394775,2.9999990463256836,-0.18787598609924316,-2.9999990463256836,0.0037210083100944757,-0.0001852942368714139,-0.0042513469234108925,-0.008484511636197567,-0.12392619252204895,-0.21367233991622925,-0.3037501871585846,-0.39415693283081055
0.11666666666666667,0.056190889328718185,0.05312911048531532,0.0,0.9882656931877136,0.0,0.0,-0.15274466574192047,0.48914140462875366,0.342100590467453,0.0,0.0,0.0,-0.6353445053100586,-0.33034858107566833,0.6651971340179443,0.4200000464916229,1.0,3.7984573282301426e-06,-2.262856924062362e-06,-1.5021495869405044e-07,0.00026374036679044366,0.000265661277808249,-0.00010429229587316513,-0.001705389702692628,0.004147546831518412,-0.000129798921989277,-0.1809939742088318,0.22884303331375122,1.2466589212417603,-2.101311206817627,3.0585391521453857,-1.5912156105041504,0.3918725550174713,0.6760115027427673,0.42000001668930054,-1.2300218343734741,2.999987840652466,-0.15410946309566498,2.999999523162842,0.0016261260025203228,-0.0038003085646778345,-0.009366701357066631,-0.015080329962074757,-0.10995128005743027,-0.20087824761867523,-0.2895908057689667,-0.37608301639556885
0.13333333333333333,0.06208019703626633,0.05651436373591423,0.0,0.984011173248291,0.0,0.0,-0.17810669541358948,0.30210018157958984,0.13299846649169922,0.0,0.0,0.0,-3.9273154735565186,-0.33034858107566833,0.6651971936225891,0.4200000464916229,0.9999999403953552,3.5505674986779923e-06,-2.2298811472865054e-06,2.928988749317796e-07,0.0002670325629878789,0.0002677947923075408,-0.00010417005978524685,-0.0017441295785829425,0.004213639069348574,-0.00012800269178114831,-0.21230816841125488,0.28386974334716797,1.2172982692718506,-1.6778517961502075,3.5331273078918457,-1.935544729232788,0.3918725550174713,0.6760115027427673,0.42000001668930054,-1.1800256967544556,3.0,-0.18588073551654816,-2.999999761581421,-0.0007612847839482129,-0.007822185754776001,-0.014968572184443474,-0.022207774221897125,-0.19782181084156036,-0.2932133972644806,-0.38509854674339294,-0.4735003113746643
0.15,0.06956623494625092,0.06077282875776291,0.0,0.9731601476669312,0.0,0.0,-0.23012898862361908,0.4943918287754059,0.30968090891838074,0.0,0.0,0.0,-7.201653003692627,-0.33034855127334595,0.6651971340179443,0.4200000464916229,1.0,3.3323158277198672e-06,-2.1020741769461893e-06,1.3129495357588894e-07,0.00026730698300525546,0.0002685973886400461,-0.00010459753684699535,-0.0017497893422842026,0.0042156679555773735,-0.00012928378419019282,-0.24047760665416718,0.34678584337234497,1.177891731262207,-1.589648962020874,3.9544713497161865,-2.746934413909912,0.3918725550174713,0.6760115027427673,0.42000001668930054,-1.1341408491134644,2.508057117462158,-0.1521659940481186,2.999999761581421,-0.0065001328475773335,-0.014672422781586647,-0.022886697202920914,-0.031152430921792984,-0.4507732093334198,-0.49302899837493896,-0.5333114266395569,-0.5718407034873962
0.16666666666666666,0.07451043277978897,0.06822960823774338,0.0,0.9656879901885986,0.0,0.0,-0.2597050368785858,0.2219419926404953,0.49851495027542114,0.0,0.0,0.0,-2.4845714569091797,-0.33034858107566833,0.6651971340179443,0.4200000464916229,1.0,3.7374031762738014e-06,-2.2332269509206526e-06,-1.876583866078363e-07,0.00026432963204570115,0.000266269693383947,-0.00010446016676723957,-0.0017119431868195534,0.004157555289566517,-0.00013001271872781217,-0.27188199758529663,0.4085869789123535,1.1265583038330078,-1.657764196395874,3.8295512199401855,-3.408808708190918,0.3918725550174713,0.6760115027427673,0.42000001668930054,-1.0846353769302368,3.0,-0.1839085817337036,-2.9999992847442627,-0.01579836569726467,-0.02445286698639393,-0.03310415893793106,-0.041767191141843796,-0.6171148419380188,-0.6347033381462097,-0.6495730876922607,-0.6621079444885254
0.18333333333333332,0.08370167016983032,0.07251109182834625,0.0,0.9537477493286133,0.0,0.0,-0.30060818791389465,0.5778159499168396,0.20179586112499237,0.0,0.0,0.0,-5.685088157653809,-0.33034858107566833,0.6651971936225891,0.4200000464916229,0.9999999403953552,3.6603628359443974e-06,-2.302359689565492e-06,2.52847314641258e-07,0.0002669092209544033,0.00026760256150737405,-0.0001041253563016653,-0.0017412835732102394,0.004211553372442722,-0.00012787102605216205,-0.2972886562347412,0.47457799315452576,1.0622549057006836,-1.2657544612884521,4.055414199829102,-4.298423767089844,0.3918725550174713,0.6760115027427673,0.42000001668930054,-1.0346285104751587,3.0000035762786865,-0.23393499851226807,-3.000000238418579,-0.024621903896331787,-0.033493734896183014,-0.042321816086769104,-0.05112854391336441,-0.7193830609321594,-0.6967461705207825,-0.6735895276069641,-0.6504233479499817
0.2,0.08748108893632889,0.08012158423662186,0.0,0.9468869566917419,0.0,0.0,-0.32156655192375183,0.21905072033405304,0.44106942415237427,0.0,0.0,0.0,-1.4010872840881348,-0.33034858107566833,0.6651971340179443,0.4200000464916229,1.0,3.5909113194065867e-06,-2.3004156446404522e-06,1.3872801218894892e-07,0.00026654769317246974,0.0002673235139809549,-0.00010424060747027397,-0.0017326237866654992,0.004203386604785919,-0.00012819955009035766,-0.3198307454586029,0.5319018363952637,0.9819288849830627,-1.1255393028259277,3.2403879165649414,-5.134458065032959,0.3918725550174713,0.6760115027427673,0.42000001668930054,-0.9846184253692627,3.000000238418579,-0.2839629352092743,-2.9999985694885254,-0.03974305838346481,-0.04864539951086044,-0.05751154199242592,-0.06588297337293625,-0.6666111946105957,-0.702685534954071,-0.7396022081375122,-0.7756286859512329
0.21666666666666667,0.08997294306755066,0.08386074751615524,0.0,0.9358171224594116,0.0,0.0,-0.35248592495918274,0.11970026791095734,0.1210748553276062,0.0,0.0,0.0,-4.827133655548096,-0.33034858107566833,0.6651971936225891,0.4200000464916229,1.0,3.607003463912406e-06,-2.2610099676967366e-06,1.9621262836722053e-08,0.0002644715132191777,0.00026558490935713053,-0.00010396563448011875,-0.0017088435124605894,0.004164247307926416,-0.00012832065112888813,-0.3360669016838074,0.584013044834137,0.8904117345809937,-0.693747341632843,2.90584135055542,-5.754365921020508,0.3918725550174713,0.6760115027427673,0.42000001668930054,-0.9346078634262085,3.0000007152557373,-0.33399316668510437,-2.999998092651367,-0.051720160990953445,-0.06094755232334137,-0.07014857977628708,-0.07886182516813278,-0.7613186240196228,-0.7653254270553589,-0.7699599266052246,-0.7762434482574463
0.23333333333333334,0.08868152648210526,0.08982624113559723,0.0,0.9307390451431274,0.0,0.0,-0.3656841516494751,-0.1276257038116455,0.34296664595603943,0.0,0.0,0.0,-0.6580621600151062,-0.33034855127334595,0.6651971340179443,0.4200000464916229,0.9999999403953552,3.742284661711892e-06,-2.2275266928772908e-06,4.589204536387115e-07,0.00026475160848349333,0.00026671282830648124,-0.00010453304275870323,-0.00171882554423064,0.004165722988545895,-0.0001301881711697206,-0.34880733489990234,0.6218163967132568,0.7920684814453125,-0.6139950752258301,1.7853286266326904,-5.98394250869751,0.3918725550174713,0.6760115027427673,0.42000001668930054,-0.8845971822738647,2.9999961853027344,-0.38402482867240906,-3.000002145767212,-0.06738588213920593,-0.07669708877801895,-0.08584634214639664,-0.09433179348707199,-0.8251821398735046,-0.8496186137199402,-0.8726754188537598,-0.894152045249939
0.25,0.09197509288787842,0.09036759287118912,0.0,0.9201624989509583,0.0,0.0,-0.391536682844162,0.16632884740829468,0.053818367421627045,0.0,0.0,0.0,-3.79032301902771,-0.33034858107566833,0.6651971340179443,0.4200000464916229,1.0,3.3944668302865466e-06,-2.2821172933618072e-06,1.336286601372194e-07,0.00026679367874749005,0.0002679389144759625,-0.00010439474135637283,-0.0017417257186025381,0.004206514917314053,-0.00012883533781860024,-0.35655421018600464,0.649754524230957,0.6874511241912842,-0.1678823083639145,1.2275323867797852,-6.4250593185424805,0.3918725550174713,0.6760115027427673,0.42000001668930054,-0.8345869183540344,2.999999761581421,-0.43405649065971375,-2.999999761581421,-0.07993432134389877,-0.0895485207438469,-0.09899989515542984,-0.107792928814888,-0.9961029887199402,-0.9963595867156982,-0.9966082572937012,-0.9968485236167908
0.26666666666666666,0.08987760543823242,0.09580206125974655,0.0,0.9173095226287842,0.0,0.0,-0.39817482233047485,-0.10249587148427963,0.2766115367412567,0.0,0.0,0.0,0.0997481644153595,-0.33034858107566833,0.6651971936225891,0.4200000464916229,1.0,3.683521072161966e-06,-2.3101358692656504e-06,2.1009377348946146e-07,0.0002647914516273886,0.0002662584010977298,-0.00010421173647046089,-0.0017169081838801503,0.004168983548879623,-0.00012909200449939817,-0.35733675956726074,0.657477080821991,0.5906409025192261,0.08552807569503784,0.06143471598625183,-5.305685043334961,0.3918725550174713,0.6760115027427673,0.42000001668930054,-0.7845780849456787,2.9999992847442627,-0.4840870797634125,-3.0000011920928955,-0.09718646109104156,-0.1066022589802742,-0.11596424877643585,-0.12472523003816605,-0.7171396613121033,-0.774604082107544,-0.8323060870170593,-0.8869516849517822
0.2833333333333333,0.08665784448385239,0.09679821133613586,0.0,0.9091973900794983,0.0,0.0,-0.4163653552532196,-0.2704963684082031,0.0597199872136116,0.0,0.0,0.0,-3.224561929702759,-0.33034858107566833,0.6651971340179443,0.4200000464916229,1.0,3.307066890556598e-06,-2.212535264334292e-06,2.6255446528011817e-07,0.00026660817093215883,0.0002674499119166285,-0.00010424223728477955,-0.0017352099530398846,0.004204348661005497,-0.0001282771409023553,-0.3534848093986511,0.6639392375946045,0.5030866265296936,0.5400240421295166,0.3883753716945648,-4.902194499969482,0.3918725550174713,0.6760115027427673,0.42000001668930054,-0.7345693111419678,3.000001907348633,-0.5341158509254456,-3.000002861022949,-0.11124114692211151,-0.12139085680246353,-0.13148467242717743,-0.1409280002117157,-1.0333784818649292,-1.02521550655365,-1.0189878940582275,-1.0140173435211182
0.3,0.0806545615196228,0.09598654508590698,0.0,0.9088081121444702,0.0,0.0,-0.4172143042087555,-0.39810678362846375,-0.09130188822746277,0.0,0.0,0.0,0.7835618257522583,-0.33034858107566833,0.6651971340179443,0.4200000464916229,1.0,3.6565252230502665e-06,-2.2969290967012057e-06,-2.4498103812220506e-07,0.0002653322007972747,0.0002659547026269138,-0.00010385178029537201,-0.001716420752927661,0.004181907512247562,-0.000127459890791215,-0.3447232246398926,0.6691309213638306,0.42518728971481323,0.6880170106887817,0.13003920018672943,-4.584251403808594,0.3918725550174713,0.6760115027427673,0.42000001668930054,-0.6845698952674866,2.999995708465576,-0.5841425061225891,-3.0000016689300537,-0.1282232701778412,-0.13827979564666748,-0.1483067125082016,-0.1577003300189972,-1.0014011859893799,-1.001064658164978,-1.0008071660995483,-1.0005978345870972
0.31666666666666665,0.07216189801692963,0.09262869507074356,0.0,0.9188420176506042,0.0,0.0,-0.39462554454803467,-0.5600460171699524,-0.24876034259796143,0.0,0.0,0.0,4.043074131011963,-0.33034858107566833,0.6651971936225891,0.4200000464916229,0.9999999403953552,3.6509104575088713e-06,-2.304588178958511e-06,1.9766633840845316e-07,0.0002669171371962875,0.0002675950527191162,-0.00010412209667265415,-0.001741163432598114,0.004211817868053913,-0.00012785132275894284,-0.34661921858787537,0.6698668003082275,0.42379751801490784,-0.4256223440170288,-0.1455540806055069,-0.26875561475753784,0.3918725550174713,0.6760115027427673,0.42000001668930054,-0.6345906853675842,2.9997079372406006,-0.6345534324645996,-3.0000662803649902,-0.13232940435409546,-0.1428815722465515,-0.15313296020030975,-0.16241830587387085,-0.23628486692905426,-0.2609230875968933,-0.2707911431789398,-0.26384344696998596
0.3333333333333333,0.06194303184747696,0.08672960847616196,0.0,0.9217281937599182,0.0,0.0,-0.3878365159034729,-0.6724300384521484,-0.39771780371665955,0.0,0.0,0.0,-0.09236817061901093,-0.33048492670059204,0.6644957661628723,0.4200003147125244,0.9999366402626038,-1.0292188562743831e-05,-5.128422841949032e-08,-0.011253553442656994,-0.01496907789260149,-0.08754078298807144,-0.00033620122121647,0.011854706332087517,0.00203347229398787,-2.4626412391662598,-0.34781891107559204,0.6688224077224731,0.4200681447982788,0.1424279510974884,-0.0062364861369132996,-0.21354468166828156,0.3918725550174713,0.6760115027427673,0.42000001668930054,-0.584585428237915,3.0000009536743164,-0.6845980286598206,-3.000004529953003,-0.13912265002727509,-0.14897215366363525,-0.15820635855197906,-0.16616854071617126,-0.4785256087779999,-0.39291512966156006,-0.28651487827301025,-0.1616368293762207
0.35,0.05488986894488335,0.07792602479457855,0.0,0.9178652167320251,0.0,0.0,-0.396892249584198,-0.341998428106308,-0.5760630369186401,0.0,0.0,0.0,-1.7353863716125488,-0.32985877990722656,0.6652392745018005,0.42010846734046936,0.9988588690757751,0.002697278745472431,-1.1941801858483814e-05,-0.047681864351034164,0.12180540710687637,0.2203354686498642,0.027008159086108208,1.379392147064209,-0.06374392658472061,-10.981305122375488,-0.3435022830963135,0.6719061136245728,0.4197492003440857,0.41612088680267334,0.3488800525665283,0.0663408562541008,0.3918725550174713,0.6760115027427673,0.42000001668930054,-0.5345810651779175,2.999999523162842,-0.734600305557251,-2.9999659061431885,-0.14800365269184113,-0.15576191246509552,-0.16250015795230865,-0.16762854158878326,-0.5376555919647217,-0.38739416003227234,-0.21200031042099,-0.016681548207998276
0.36666666666666664,0.045884229242801666,0.06758569926023483,0.0,0.9154267907142639,0.0,0.0,-0.40248459577560425,-0.6108550429344177,-0.6433917284011841,0.0,0.0,0.0,-0.22310781478881836,-0.3246711790561676,0.6732752919197083,0.4200184941291809,0.9755900502204895,-0.0003810554917436093,0.00015497836284339428,-0.21959926187992096,0.4331916570663452,0.5957956910133362,0.001985052367672324,-0.09612900018692017,0.024533666670322418,-24.063356399536133,-0.3337280750274658,0.6806186437606812,0.4210425913333893,0.7861919403076172,0.7467843294143677,0.0857197642326355,0.3918725550174713,0.6760115027427673,0.42000001668930054,-0.4845500588417053,2.999990224838257,-0.7846161127090454,-2.999979257583618,-0.15945807099342346,-0.16389930248260498,-0.1669352948665619,-0.16809463500976562,-0.6762440800666809,-0.463873952627182,-0.22943638265132904,0.01919415220618248
0.3833333333333333,0.0400935560464859,0.05454374849796295,0.0,0.9056056141853333,0.0,0.0,-0.42412084341049194,-0.29394596815109253,-0.822422206401825,0.0,0.0,0.0,-3.7102372646331787,-0.3122987747192383,0.6882999539375305,0.42172926664352417,0.9689825773239136,-0.043220505118370056,0.009026034735143185,-0.24315237998962402,0.8345529437065125,0.8733216524124146,0.11023294180631638,-5.595679759979248,2.826911211013794,-11.794410705566406,-0.317920982837677,0.692267119884491,0.4231601655483246,1.2064234018325806,0.7629042267799377,0.1559862196445465,0.3918725550174713,0.6760115027427673,0.42000001668930054,-0.4344817101955414,2.9999213218688965,-0.8346241116523743,-2.9999783039093018,-0.16828501224517822,-0.16918152570724487,-0.16825060546398163,-0.16516560316085815,-0.47784367203712463,-0.24887101352214813,0.004913573618978262,0.2739577889442444
0.4,0.03181596100330353,0.03990297019481659,0.0,0.8819344639778137,0.0,0.0,-0.4713720381259918,-0.5706979632377625,-0.9074509143829346,0.0,0.0,0.0,-7.271457195281982,-0.28450363874435425,0.7049853801727295,0.4260422885417938,0.9537356495857239,-0.05282117426395416,-0.02159155160188675,-0.2951810359954834,2.3713290691375732,0.9810550212860107,0.3830408453941345,28.755693435668945,-17.931509017944336,13.343926429748535,-0.2897084355354309,0.7096404433250427,0.4266654849052429,2.1804237365722656,1.3814210891723633,0.4426916241645813,0.3918725550174713,0.6760115027427673,0.42000001668930054,-0.39350181818008423,1.5476702451705933,-0.8846467137336731,-3.000002861022949,-0.17849446833133698,-0.17541223764419556,-0.17017331719398499,-0.1626206785440445,-0.6117556691169739,-0.3850327134132385,-0.1429467797279358,0.1044541522860527
0.4166666666666667,0.024963336065411568,0.02801474742591381,0.0,0.8412656784057617,0.0,0.0,-0.5406218767166138,-0.3842909336090088,-0.5390148162841797,0.0,0.0,0.0,-10.399850845336914,-0.22358964383602142,0.7329567670822144,0.43189045786857605,0.9361923336982727,0.0026736892759799957,-0.0694499984383583,-0.3445481061935425,5.146142482757568,1.5763894319534302,0.46083778142929077,7.832891464233398,-10.114768981933594,16.163782119750977,-0.2280246913433075,0.738036036491394,0.43215954303741455,4.865995407104492,2.0870680809020996,0.43547138571739197,0.3918725550174713,0.6760115027427673,0.42000001668930054,-0.3754197657108307,0.8316007256507874,-0.8477199077606201,2.9991650581359863,-0.1926792860031128,-0.18487270176410675,-0.17472685873508453,-0.16245560348033905,-0.9839106798171997,-0.6931169033050537,-0.3852299749851227,-0.09958375245332718
0.43333333333333335,0.02147962525486946,0.019830545410513878,0.0,0.7827894687652588,0.0,0.0,-0.6222866177558899,-0.14475378394126892,-0.46855199337005615,0.0,0.0,0.0,-12.901997566223145,-0.1238955482840538,0.7662913203239441,0.4388831555843353,0.8993973731994629,0.03672131150960922,-0.10155072063207626,-0.42358386516571045,7.0349812507629395,1.4708212614059448,0.544320285320282,11.6693115234375,-6.288771152496338,13.086210250854492,-0.12843891978263855,0.7721858620643616,0.43886247277259827,7.014742851257324,2.1122918128967285,0.5321590900421143,0.3918725550174713,0.6760115027427673,0.42000001668930054,-0.3605700433254242,0.9331443905830383,-0.8741955757141113,-3.0000014305114746,-0.2031373679637909,-0.19545353949069977,-0.18088088929653168,-0.16461694240570068,-0.569297730922699,-0.5688263773918152,-0.3446957468986511,-0.15127916634082794
0.45,0.01749519631266594,0.015236030332744122,0.0,0.7332776784896851,0.0,0.0,-0.679929256439209,-0.2845240831375122,-0.20705123245716095,0.0,0.0,0.0,-7.88779354095459,-0.012686017900705338,0.792259931564331,0.4488079845905304,0.852938711643219,0.08850929141044617,-0.12552019953727722,-0.49890509247779846,6.568760395050049,0.31600385904312134,0.6700994372367859,1.033826470375061,-18.66294288635254,19.30303955078125,-0.01662880927324295,0.8001410365104675,0.4486492872238159,6.572399139404297,1.09751296043396,0.6328076124191284,0.3918725550174713,0.6760115027427673,0.42000001668930054,-0.34366679191589355,0.9801233410835266,-0.8389091491699219,2.996720790863037,-0.21519474685192108,-0.20649634301662445,-0.18821369111537933,-0.1688658893108368,-0.724402904510498,-0.6366618275642395,-0.4362195134162903,-0.27563393115997314
0.4666666666666667,0.01622595265507698,0.006473795045167208,0.0,0.7052921056747437,0.0,0.0,-0.7089168429374695,-0.09360659867525101,-0.569628894329071,0.0,0.0,0.0,-3.5552337169647217,0.09016487002372742,0.8021306991577148,0.45835578441619873,0.7962434887886047,0.09954576194286346,-0.12771262228488922,-0.5829034447669983,5.673075199127197,-0.9561006426811218,0.7719131112098694,8.67194938659668,-6.36093282699585,26.81785011291504,0.0861964076757431,0.8110036849975586,0.45832496881484985,5.912038803100586,0.010534405708312988,0.6482730507850647,0.3918725550174713,0.6760115027427673,0.42000001668930054,-0.3280418813228607,0.7475470900535583,-0.8651083111763,-3.000002384185791,-0.22379761934280396,-0.21329282224178314,-0.1920165866613388,-0.17030465602874756,-0.6826706528663635,-0.5002703070640564,-0.2861451804637909,-0.11397034674882889
0.48333333333333334,0.012674573808908463,0.0024119566660374403,0.0,0.7008368968963623,0.0,0.0,-0.7133215069770813,-0.17986208200454712,-0.16956374049186707,0.0,0.0,0.0,0.10931550711393356,0.17542263865470886,0.7944129109382629,0.466422438621521,0.7510790228843689,0.09350841492414474,-0.1094827950000763,-0.6443213224411011,4.366774082183838,-1.6243292093276978,0.4364092946052551,1.796303629875183,-5.702541828155518,25.489437103271484,0.17321434617042542,0.8034272789955139,0.46746861934661865,4.792179107666016,-0.8293064832687378,0.458670973777771,0.3918725550174713,0.6760115027427673,0.42000001668930054,-0.3181338608264923,0.4179607331752777,-0.9151326417922974,-3.0000009536743164,-0.23738086223602295,-0.22321830689907074,-0.19827425479888916,-0.1735774427652359,-0.6633530259132385,-0.4819369614124298,-0.3173031210899353,-0.18236619234085083
0.5,0.012269871309399605,-0.0047518415376544,0.0,0.686174213886261,0.0,0.0,-0.7274372577667236,0.005843868479132652,-0.45054832100868225,0.0,0.0,0.0,-3.291093349456787,0.24594393372535706,0.7776533961296082,0.4693259298801422,0.7116894721984863,0.08363046497106552,-0.09671398997306824,-0.6907606720924377,3.669548988342285,-1.8659359216690063,0.09686366468667984,-0.05383031815290451,-3.516343355178833,13.333202362060547,0.24461877346038818,0.7858327627182007,0.4706375002861023,3.9558558464050293,-1.4225826263427734,0.07411538809537888,0.3918725550174713,0.6760115027427673,0.42000001668930054,-0.30956390500068665,0.5930519104003906,-0.9651566743850708,-3.0000014305114746,-0.24002999067306519,-0.22828301787376404,-0.20137690007686615,-0.17505110800266266,-0.02346639521420002,-0.29621320962905884,-0.18160739541053772,-0.08460783213376999
0.5166666666666666,0.014504282735288143,-0.00801923219114542,0.0,0.6839711666107178,0.0,0.0,-0.7295090556144714,0.16670002043247223,-0.16122020781040192,0.0,0.0,0.0,0.5146228075027466,0.30382275581359863,0.7517277598381042,0.4662589728832245,0.6637061834335327,0.05437491834163666,-0.08598475903272629,-0.7410424947738647,2.8157095909118652,-2.1627018451690674,-0.3134877681732178,-2.385164499282837,-1.6173917055130005,17.02931785583496,0.3028795123100281,0.7595771551132202,0.46840620040893555,3.2338356971740723,-1.678711175918579,-0.303446501493454,0.3918725550174713,0.6760115027427673,0.42000001668930054,-0.29821547865867615,0.6720985770225525,-1.0151801109313965,-3.00000262260437,-0.23956680297851562,-0.23316659033298492,-0.20500189065933228,-0.17769666016101837,0.09351260960102081,-0.11756911128759384,-0.11345017701387405,-0.11989811062812805
0.5333333333333333,0.018992455676198006,-0.008005321025848389,0.0,0.6727644801139832,0.0,0.0,-0.7398566603660583,0.3194129467010498,0.06294502317905426,0.0,0.0,0.0,-2.704200506210327,0.34885019063949585,0.7274143099784851,0.4550706446170807,0.6359019875526428,0.02586558274924755,-0.07260100543498993,-0.7679118514060974,1.9046714305877686,-1.90983247756958,-0.7841162085533142,-3.679060935974121,-0.5766839981079102,21.529823303222656,0.3481990396976471,0.7344874143600464,0.4576859176158905,2.372410774230957,-1.4409215450286865,-0.8038026094436646,0.3918725550174713,0.6760115027427673,0.42000001668930054,-0.2864372432231903,0.6229226589202881,-1.065202236175537,-3.0000009536743164,-0.23543283343315125,-0.2328455001115799,-0.20617525279521942,-0.18033291399478912,0.3304790258407593,0.11915206909179688,-0.02533724159002304,-0.1638500690460205
0.55,0.026474161073565483,-0.011697173118591309,0.0,0.6738160252571106,0.0,0.0,-0.7388991713523865,0.4227808713912964,-0.272016316652298,0.0,0.0,0.0,1.0502758026123047,0.38011807203292847,0.7060793042182922,0.43869251012802124,0.6074674129486084,-0.010092430748045444,-0.05249854549765587,-0.7925436496734619,0.943708598613739,-1.68496835231781,-1.011685848236084,-0.8401894569396973,2.824122905731201,20.364397048950195,0.379158616065979,0.7120205760002136,0.4415360689163208,1.4618968963623047,-1.2990056276321411,-1.0502980947494507,0.3918725550174713,0.6760115027427673,0.42000001668930054,-0.2750876545906067,0.6227027177810669,-1.1152243614196777,-2.999999523162842,-0.22506611049175262,-0.22613298892974854,-0.20305316150188446,-0.18061965703964233,0.5534950494766235,0.3933216333389282,0.17757923901081085,-0.031482137739658356
0.5666666666666667,0.03528409078717232,-0.011982357129454613,0.0,0.6640873551368713,0.0,0.0,-0.7476549744606018,0.5864227414131165,-0.006246490869671106,0.0,0.0,0.0,-2.410740613937378,0.3973104655742645,0.6903955936431885,0.41972777247428894,0.6031352877616882,0.011523962020874023,0.026067858561873436,-0.7971295118331909,0.3807138204574585,-0.33194535970687866,-0.4239145815372467,24.806106567382812,-3.579669952392578,11.869447708129883,0.3961399793624878,0.6941397786140442,0.4187462329864502,0.4165442883968353,-0.7197506427764893,-0.9458059072494507,0.3918725550174713,0.6760115027427673,0.42000001668930054,-0.26338255405426025,0.7178031802177429,-1.1357276439666748,0.1992967575788498,-0.21614620089530945,-0.21987682580947876,-0.20105308294296265,-0.18266116082668304,0.6899306178092957,0.5119112133979797,0.21107248961925507,-0.06652495265007019
0.5833333333333334,0.04178149998188019,-0.015339823439717293,0.0,0.6665685176849365,0.0,0.0,-0.7454437613487244,0.3038061559200287,-0.26005321741104126,0.0,0.0,0.0,1.2112094163894653,0.4013657569885254,0.6880902647972107,0.4200008511543274,0.6384135484695435,-1.1229168194404338e-05,-1.1881401405844372e-05,-0.7696935534477234,0.11982642859220505,-0.1507778763771057,-0.0015150695107877254,0.03360886126756668,0.008457391522824764,2.7919085025787354,0.3984532952308655,0.6893183588981628,0.42629116773605347,-0.05442303419113159,-0.3264787197113037,0.12601639330387115,0.3918725550174713,0.6760115027427673,0.42000001668930054,-0.27912023663520813,-2.4590749740600586,-1.176978349685669,-2.999791145324707,-0.20751257240772247,-0.2098051905632019,-0.1953280121088028,-0.18109957873821259,0.3318735659122467,0.4810601472854614,0.266002893447876,0.05191957578063011
0.6,0.04887723922729492,-0.015127215534448624,0.0,0.6578095555305481,0.0,0.0,-0.7531842589378357,0.45603156089782715,0.026299389079213142,0.0,0.0,0.0,-2.233991861343384,0.40213915705680847,0.6864089965820312,0.4200000464916229,0.6345012187957764,4.019965160750871e-08,4.62727420824649e-08,-0.7729218602180481,0.041260164231061935,-0.08245396614074707,-1.6625200487396796e-06,2.8443259907362517e-06,-6.893481622682884e-05,-0.2650834619998932,0.3990703821182251,0.6885840892791748,0.42815715074539185,0.12906169891357422,0.15770766139030457,0.12449302524328232,0.3918725550174713,0.6760115027427673,0.42000001668930054,-0.3032112121582031,-0.5588007569313049,-1.2269295454025269,-2.9987552165985107,-0.20229682326316833,-0.20280812680721283,-0.19210681319236755,-0.1814943253993988,0.5060586333274841,0.5440579652786255,0.27990084886550903,0.0346892811357975
0.6166666666666667,0.05342363566160202,-0.01891360431909561,0.0,0.66119384765625,0.0,0.0,-0.7502150535583496,0.22691741585731506,-0.3130245804786682,0.0,0.0,0.0,1.3503791093826294,0.4023778438568115,0.6859322190284729,0.4200000464916229,0.6340200901031494,4.0381202381922776e-08,1.3198763859634255e-08,-0.773316502571106,-0.016372065991163254,-0.014474648982286453,1.5502009773626924e-05,-0.0015644289087504148,-0.002049452858045697,-1.8782744407653809,0.3978596329689026,0.6886849403381348,0.43058839440345764,-0.27083641290664673,-0.0752364993095398,0.16123799979686737,0.3918725550174713,0.6760115027427673,0.42000001668930054,-0.3449820578098297,-3.0000011920928955,-1.276916265487671,-2.999222755432129,-0.19303961098194122,-0.19283293187618256,-0.186039000749588,-0.1790761649608612,0.4729190468788147,0.5337411165237427,0.34012919664382935,0.1573675125837326
0.6333333333333333,0.05886051803827286,-0.018991341814398766,0.0,0.6536111235618591,0.0,0.0,-0.7568305730819702,0.3565964996814728,-0.0054726856760680676,0.0,0.0,0.0,-2.0749526023864746,0.4017702341079712,0.6857203245162964,0.42000025510787964,0.6226091980934143,-1.050524815582321e-06,4.281517249182798e-05,-0.7825329303741455,-0.022069400176405907,-0.005990069359540939,-0.0012640641070902348,-0.028955774381756783,-0.06940122693777084,-0.6634661555290222,0.3953556418418884,0.6897696256637573,0.4331851005554199,-0.055157847702503204,0.19384345412254333,0.17214131355285645,0.3918725550174713,0.6760115027427673,0.42000001668930054,-0.3896271586418152,-2.3417484760284424,-1.326874017715454,-2.9992473125457764,-0.18715322017669678,-0.18616363406181335,-0.18228398263454437,-0.17801137268543243,0.5270116925239563,0.5142673254013062,0.3125559389591217,0.13035890460014343
0.65,0.06621688604354858,-0.02224011905491352,0.0,0.6581339240074158,0.0,0.0,-0.7529008984565735,0.4708501994609833,-0.23839367926120758,0.0,0.0,0.0,1.56147301197052,0.40034955739974976,0.6862539649009705,0.42019978165626526,0.6039624214172363,0.0030778401996940374,-0.003974581137299538,-0.7969968914985657,-0.1720450222492218,0.05981430038809776,0.01764482446014881,-0.21018680930137634,-0.8561198115348816,-5.196244716644287,0.3918497860431671,0.6913866400718689,0.4362105131149292,-0.37601667642593384,0.014755100943148136,0.1947823464870453,0.3918725550174713,0.6760115027427673,0.42000001668930054,-0.43908825516700745,-3.0000011920928955,-1.3768926858901978,-2.9999167919158936,-0.17939887940883636,-0.17832380533218384,-0.17708927392959595,-0.17521284520626068,0.3267190456390381,0.3570251166820526,0.24567711353302002,0.14403370022773743
0.6666666666666666,0.07548055797815323,-0.02242331951856613,0.0,0.6550611853599548,0.0,0.0,-0.7555758357048035,0.5794723033905029,0.03924630209803581,0.0,0.0,0.0,-1.5854967832565308,0.397148996591568,0.687038242816925,0.42000043392181396,0.5898962616920471,-9.091036190511659e-06,-7.404903954011388e-06,-0.8074789643287659,-0.15199455618858337,0.0408652164041996,-1.50240957736969e-05,0.0004446885723154992,0.0006871655932627618,-1.990187406539917,0.3886778950691223,0.6912549138069153,0.4400745928287506,-0.0942714661359787,-0.053974710404872894,0.2790192663669586,0.3918725550174713,0.6760115027427673,0.42000001668930054,-0.4891055226325989,-2.9996681213378906,-1.4268803596496582,-2.9999759197235107,-0.17558817565441132,-0.17389550805091858,-0.17378728091716766,-0.1727174073457718,0.2439006268978119,0.2804034352302551,0.2425641268491745,0.22997204959392548
0.6833333333333333,0.08662764728069305,-0.026300886645913124,0.0,0.628777265548706,0.0,0.0,-0.777585506439209,0.7094752788543701,-0.2548113763332367,0.0,0.0,0.0,-4.940713405609131,0.39556199312210083,0.6874385476112366,0.4200000464916229,0.5831190943717957,-1.7287253228914778e-07,3.043553675752264e-08,-0.8123866319656372,-0.07538464665412903,0.018062656745314598,-2.4349428713321686e-06,-8.214857371058315e-05,-0.00013581610983237624,-0.7373120188713074,0.39125901460647583,0.6920387744903564,0.4519733786582947,0.37104532122612,0.0125831738114357,1.2614660263061523,0.3918725550174713,0.6760115027427673,0.42000001668930054,-0.5391179919242859,-2.999950885772705,-1.4768983125686646,-3.000000238418579,-0.1707119196653366,-0.16880175471305847,-0.16933049261569977,-0.16846145689487457,0.08962041139602661,0.13429789245128632,0.1438673734664917,0.17480729520320892
0.7,0.10035181790590286,-0.026374848559498787,0.0,0.6163432002067566,0.0,0.0,-0.7874776721000671,0.8386655449867249,0.027024753391742706,0.0,0.0,0.0,-0.874204695224762,0.39524170756340027,0.6875119805335999,0.4200001060962677,0.5821180939674377,-1.2559238484755042e-06,2.233626219094731e-06,-0.8131042718887329,0.0033084081951528788,-0.0005972310900688171,-0.0001802848419174552,-0.004876237362623215,-0.008235188201069832,0.014513256028294563,0.39978229999542236,0.6957806348800659,0.4798990786075592,0.6668647527694702,0.4360635280609131,2.0393548011779785,0.3918725550174713,0.6760115027427673,0.42000001668930054,-0.5891193151473999,-2.9999947547912598,-1.5269166231155396,-2.9999992847442627,-0.171280175447464,-0.16890881955623627,-0.16927632689476013,-0.16791211068630219,0.056152794510126114,0.03153463825583458,0.006063361186534166,0.0028537476900964975
0.7166666666666667,0.11086073517799377,-0.024194123223423958,0.0,0.6285912990570068,0.0,0.0,-0.7777358293533325,0.5540065169334412,0.17436397075653076,0.0,0.0,0.0,2.7486953735351562,0.3952413499355316,0.6875124573707581,0.41999995708465576,0.5821184515953064,-2.047688894890598e-06,-6.499627943412634e-06,-0.8131039142608643,9.146784577751532e-05,-0.0004222010029479861,-8.455384522676468e-05,0.010366974398493767,-0.0029476310592144728,-0.0008749159169383347,0.41320565342903137,0.7030683159828186,0.5071040987968445,0.8310551643371582,0.4216617941856384,1.3012073040008545,0.3918725550174713,0.6760115027427673,0.42000001668930054,-0.6083587408065796,0.40972381830215454,-1.5769346952438354,-3.000000476837158,-0.16929711401462555,-0.16737118363380432,-0.16801629960536957,-0.16662006080150604,0.16514284908771515,0.14173157513141632,0.13537052273750305,0.1423690915107727
0.7333333333333333,0.11675014346837997,-0.026286469772458076,0.0,0.6280947327613831,0.0,0.0,-0.7781369090080261,0.30714285373687744,-0.1816326379776001,0.0,0.0,0.0,-1.0866514444351196,0.39524132013320923,0.6875123977661133,0.41999995708465576,0.5821184515953064,-1.4776777561564813e-06,-6.075723831600044e-06,-0.8131039142608643,0.00011492690100567415,-0.0003989985561929643,-7.881899364292622e-05,0.009883991442620754,-0.0027615102007985115,-0.0008967031026259065,0.4238208830356598,0.7080936431884766,0.5226576328277588,0.4312650263309479,0.098587267100811,0.7334637641906738,0.3918725550174713,0.6760115027427673,0.42000001668930054,-0.6280553936958313,-2.503702402114868,-1.5379900932312012,3.000000476837158,-0.16456395387649536,-0.16315509378910065,-0.1639767438173294,-0.16264355182647705,0.18135984241962433,0.18156230449676514,0.2017572671175003,0.21924801170825958
0.75,0.12456746399402618,-0.022994667291641235,0.0,0.6392611861228943,0.0,0.0,-0.7689896821975708,0.4191940426826477,0.2562461495399475,0.0,0.0,0.0,2.55997896194458,0.39524132013320923,0.6875123977661133,0.41999995708465576,0.5821183323860168,-1.4656355915576569e-06,-6.047911028872477e-06,-0.813103973865509,0.00011455716594355181,-0.0003989473916590214,-7.881363853812218e-05,0.009881913661956787,-0.0027602575719356537,-0.0008956321398727596,0.430817186832428,0.7092516422271729,0.5338433980941772,0.44018152356147766,0.2083302140235901,0.6337722539901733,0.3918725550174713,0.6760115027427673,0.42000001668930054,-0.6393856406211853,0.8605207800865173,-1.5533345937728882,-3.000000238418579,-0.16675832867622375,-0.16450978815555573,-0.16418273746967316,-0.16189901530742645,-0.03057936765253544,-0.014546355232596397,0.025401446968317032,0.05440431833267212
0.7666666666666666,0.12834377586841583,-0.024198882281780243,0.0,0.6376487016677856,0.0,0.0,-0.7703272700309753,0.18607424199581146,-0.1466970145702362,0.0,0.0,0.0,-1.2058018445968628,0.39524132013320923,0.6875123977661133,0.41999995708465576,0.5821183919906616,-1.4813041389061254e-06,-6.188457518874202e-06,-0.8131039142608643,0.0001162214030046016,-0.0003990732948295772,-7.881270721554756e-05,0.0098883593454957,-0.0027585639618337154,-0.0009000715217553079,0.4382368326187134,0.7101659774780273,0.539146900177002,0.41673368215560913,-0.16455833613872528,0.16805629432201385,0.3918725550174713,0.6760115027427673,0.42000001668930054,-0.6624122262001038,-3.0000009536743164,-1.5144591331481934,2.999999761581421,-0.16485224664211273,-0.16259491443634033,-0.16179949045181274,-0.15922150015830994,0.03512730449438095,0.06223178654909134,0.11598267406225204,0.15533481538295746
0.7833333333333333,0.13320989906787872,-0.022126182913780212,0.0,0.6471043825149536,0.0,0.0,-0.7624014019966125,0.3116971552371979,0.12741045653820038,0.0,0.0,0.0,2.2622780799865723,0.39524132013320923,0.6875123977661133,0.41999995708465576,0.5821183323860168,-1.463673697799095e-06,-6.15291673966567e-06,-0.8131040930747986,0.00011495707440190017,-0.00039904750883579254,-7.881643250584602e-05,0.009885617531836033,-0.0027608415111899376,-0.0008967751055024564,0.4470205307006836,0.7078729867935181,0.543183445930481,0.6908721923828125,-0.023616060614585876,0.33802568912506104,0.3918725550174713,0.6760115027427673,0.42000001668930054,-0.6789507865905762,0.7084804773330688,-1.5303118228912354,-2.999999761581421,-0.16648373007774353,-0.16353319585323334,-0.16154669225215912,-0.1579906940460205,0.029437145218253136,0.03683743625879288,0.0799582451581955,0.11640216410160065
0.8,0.13506676256656647,-0.023869434371590614,0.0,0.6444376707077026,0.0,0.0,-0.7646568417549133,0.05121482163667679,-0.1602807492017746,0.0,0.0,0.0,-1.3184815645217896,0.39524132013320923,0.6875123977661133,0.41999995708465576,0.5821185111999512,-1.3019140396863804e-06,-5.883423909835983e-06,-0.813103973865509,0.00011691415420500562,-0.00040040395106188953,-7.879408076405525e-05,0.009932738728821278,-0.0027737526688724756,-0.0009035054827108979,0.4579629600048065,0.7059831619262695,0.546399712562561,0.6009853482246399,-0.21992544829845428,0.2005041241645813,0.3918725550174713,0.6760115027427673,0.42000001668930054,-0.6955187320709229,-2.412738084793091,-1.4915062189102173,3.000000238418579,-0.16584323346614838,-0.16275572776794434,-0.16005387902259827,-0.155899316072464,-0.012328014709055424,0.00844288058578968,0.06094662472605705,0.10447893291711807
0.8166666666666667,0.1384814828634262,-0.021323204040527344,0.0,0.6533498764038086,0.0,0.0,-0.7570560574531555,0.22980545461177826,0.13617025315761566,0.0,0.0,0.0,2.121269702911377,0.3952413499355316,0.6875123977661133,0.41999995708465576,0.5821183323860168,-1.481561184846214e-06,-6.0228353504498955e-06,-0.8131040334701538,0.00011299514153506607,-0.00039867821033112705,-7.879105396568775e-05,0.009871641173958778,-0.0027602307964116335,-0.0008914498030208051,0.46803662180900574,0.7017881870269775,0.5518002510070801,0.7017718553543091,-0.140442356467247,0.45041313767433167,0.3918725550174713,0.6760115027427673,0.42000001668930054,-0.7026642560958862,1.2445697784423828,-1.5078320503234863,-2.999999523162842,-0.16945099830627441,-0.16545213758945465,-0.1613425612449646,-0.1559430956840515,-0.05420513451099396,-0.04098441079258919,0.006687466986477375,0.05209743604063988
0.8333333333333334,0.13935527205467224,-0.023625340312719345,0.0,0.6507291197776794,0.0,0.0,-0.7593099474906921,0.002111082896590233,-0.14858050644397736,0.0,0.0,0.0,-1.4958690404891968,0.39524132013320923,0.6875123977661133,0.41999995708465576,0.5821183919906616,-1.449307205803052e-06,-6.217980171641102e-06,-0.813103973865509,0.00011661156167974696,-0.00039936587563715875,-7.885531522333622e-05,0.009897086769342422,-0.0027626275550574064,-0.0009015929535962641,0.47805070877075195,0.7006173729896545,0.5579127073287964,0.44940006732940674,-0.1005706936120987,0.40484583377838135,0.3918725550174713,0.6760115027427673,0.42000001668930054,-0.7017561793327332,-0.9465420842170715,-1.469090223312378,3.0000007152557373,-0.16787590086460114,-0.1641511172056198,-0.15978048741817474,-0.15413708984851837,-0.014250282198190689,-0.013043614104390144,0.014545846730470657,0.03781857714056969
0.85,0.13799646496772766,-0.021701006218791008,0.0,0.6582313179969788,0.0,0.0,-0.7528157234191895,-0.13356143236160278,0.13195614516735077,0.0,0.0,0.0,1.9720125198364258,0.39524132013320923,0.6875123977661133,0.41999995708465576,0.5821182727813721,-1.3210609495217795e-06,-5.561205398407765e-06,-0.8131040334701538,0.00011655343405436724,-0.0003999971959274262,-7.881619967520237e-05,0.009918353520333767,-0.0027692129369825125,-0.0009018726414069533,0.48435935378074646,0.6976908445358276,0.5654600858688354,0.3843574523925781,-0.11716298758983612,0.5180502533912659,0.3918725550174713,0.6760115027427673,0.42000001668930054,-0.6882795095443726,2.2730894088745117,-1.4858652353286743,-2.9999992847442627,-0.1704568713903427,-0.16624493896961212,-0.16101546585559845,-0.15461286902427673,-0.04124780744314194,-0.03738955408334732,-0.010749489068984985,0.013812077231705189
0.8666666666666667,0.13387338817119598,-0.022715184837579727,0.0,0.653450608253479,0.0,0.0,-0.756969153881073,-0.2780221104621887,-0.09799408167600632,0.0,0.0,0.0,-1.6535279750823975,0.39524132013320923,0.6875123977661133,0.41999995708465576,0.5821186304092407,-1.4743980045750504e-06,-6.1277346503629815e-06,-0.8131039142608643,0.00011482468107715249,-0.000398983305785805,-7.881061173975468e-05,0.00988350622355938,-0.0027599979657679796,-0.000896328769158572,0.48601266741752625,0.6987533569335938,0.5727763175964355,-0.18738038837909698,0.1561557799577713,0.4943990707397461,0.3918725550174713,0.6760115027427673,0.42000001668930054,-0.6570884585380554,1.5105633735656738,-1.4471867084503174,3.000000238418579,-0.1699942946434021,-0.16614188253879547,-0.16094550490379333,-0.15460294485092163,-0.015036944299936295,-0.03582669794559479,-0.04222109541296959,-0.052180420607328415
0.8833333333333333,0.127966046333313,-0.02074143849313259,0.0,0.6602753400802612,0.0,0.0,-0.7510236501693726,-0.3839458227157593,0.16286781430244446,0.0,0.0,0.0,1.9173144102096558,0.3952413499355316,0.6875123977661133,0.41999995708465576,0.5821185111999512,-1.4653618336524232e-06,-6.083596872485941e-06,-0.813103973865509,0.00011318470205878839,-0.00039875952643342316,-7.878709584474564e-05,0.009874529205262661,-0.002760527189821005,-0.0008920117397792637,0.48222804069519043,0.6998723149299622,0.5835514068603516,-0.23512981832027435,0.10277600586414337,0.8203479051589966,0.3918725550174713,0.6760115027427673,0.42000001668930054,-0.6209229230880737,2.6955692768096924,-1.464411735534668,-2.999999523162842,-0.17152433097362518,-0.16780288517475128,-0.16248752176761627,-0.1560371071100235,-0.02963833138346672,-0.05178753659129143,-0.05724291503429413,-0.05882267653942108
