vladlanda/robotic-transformer/data/env_000_episode_0106.csv
sim_time_s,robot_box_x,robot_box_y,robot_box_z,robot_box_quat_w,robot_box_quat_x,robot_box_quat_y,robot_box_quat_z,robot_box_linvel_x,robot_box_linvel_y,robot_box_linvel_z,robot_box_angvel_x,robot_box_angvel_y,robot_box_angvel_z,cube_world_x,cube_world_y,cube_world_z,cube_quat_w,cube_quat_x,cube_quat_y,cube_quat_z,cube_linvel_x,cube_linvel_y,cube_linvel_z,cube_angvel_x,cube_angvel_y,cube_angvel_z,endpoint_world_x,endpoint_world_y,endpoint_world_z,endpoint_linvel_x,endpoint_linvel_y,endpoint_linvel_z,target_cube_world_x,target_cube_world_y,target_cube_world_z,gripper_actual_pos_rad_gp_leftgearjoint,gripper_actual_vel_rad_s_gp_leftgearjoint,gripper_actual_pos_rad_gp_rotatingjoint,gripper_actual_vel_rad_s_gp_rotatingjoint,motor_angle_rad_joint1,motor_angle_rad_joint2,motor_angle_rad_joint3,motor_angle_rad_joint4,motor_speed_rad_s_joint1,motor_speed_rad_s_joint2,motor_speed_rad_s_joint3,motor_speed_rad_s_joint4
0.0,0.0,0.0,0.0,1.0,0.0,0.0,0.0,0.0,0.0,0.0,0.0,0.0,0.0,-0.4464055299758911,0.7136601805686951,0.41999998688697815,1.0,0.0,0.0,0.0,0.0,0.0,0.0,0.0,0.0,0.0,3.42540442943573e-06,-0.005000244826078415,1.313499927520752,0.0,0.0,0.0,0.3369072377681732,0.7433868646621704,0.42000001668930054,-1.5707999467849731,0.0,0.0,0.0,0.0,0.0,0.0,0.0,0.0,0.0,0.0,0.0
0.016666666666666666,0.0028778850100934505,0.0021806680597364902,0.0,0.9998081922531128,0.0,0.0,0.019586581736803055,0.24087215960025787,0.18240931630134583,0.0,0.0,0.0,3.1418697834014893,-0.44640564918518066,0.7136598825454712,0.41999998688697815,1.0,3.2799832752061775e-06,-8.339598593920527e-07,8.465660528145236e-08,-1.9833856640616432e-05,0.00017983021098189056,-6.132945418357849e-05,0.0009432561928406358,-0.004689492750912905,-0.0003198107879143208,-0.007110234349966049,0.003379564033821225,1.3159373998641968,-0.8143353462219238,0.9868683815002441,0.18095196783542633,0.3369072377681732,0.7433868646621704,0.42000001668930054,-1.5301095247268677,3.0000011920928955,-0.04584788903594017,-2.9999992847442627,0.0008691533003002405,0.0007963840034790337,0.0007110277656465769,0.0006108740926720202,0.11094217747449875,0.09756709635257721,0.08334315568208694,0.06823883205652237
0.03333333333333333,0.008960975334048271,0.0068019358441233635,0.0,0.9997960329055786,0.0,0.0,0.020196838304400444,0.40702125430107117,0.3153086304664612,0.0,0.0,0.0,-0.8691304922103882,-0.4464057683944702,0.7136598229408264,0.4200000464916229,1.0,3.3908236218849197e-06,-2.1324740373529494e-06,-3.7087911408661967e-08,0.0002635786950122565,0.00026937879738397896,-0.00010509719140827656,-0.0017707741353660822,0.004130927845835686,-0.00013548358401749283,-0.027549846097826958,0.02608148567378521,1.3166142702102661,-1.5915066003799438,1.6155853271484375,-0.08286944776773453,0.3369072377681732,0.7433868646621704,0.42000001668930054,-1.4800904989242554,3.000002145767212,-0.09588771313428879,-3.0000009536743164,0.0029901370871812105,0.0026527605950832367,0.002277342602610588,0.0018608089303597808,0.1642206609249115,0.139765202999115,0.11382506787776947,0.08630794286727905
0.05,0.017748331651091576,0.01377122662961483,0.0,0.9993776679039001,0.0,0.0,0.03527417033910751,0.5938050746917725,0.46507003903388977,0.0,0.0,0.0,2.648772954940796,-0.4464057981967926,0.7136598825454712,0.4200000464916229,1.0,3.7651204820576822e-06,-2.2119561435829382e-06,5.640150124719412e-09,0.0002653099945746362,0.0002669153327587992,-0.0001044049859046936,-0.0017243726179003716,0.0041774604469537735,-0.0001294949179282412,-0.05968252941966057,0.053952574729919434,1.3116381168365479,-2.187589645385742,1.7616214752197266,-0.47619321942329407,0.3369072377681732,0.7433868646621704,0.42000001668930054,-1.4300721883773804,3.000002145767212,-0.1459263563156128,-2.9999992847442627,0.005707616452127695,0.004915605299174786,0.0040514650754630566,0.003110752673819661,0.19269809126853943,0.15579672157764435,0.1170213595032692,0.07627787441015244
0.06666666666666667,0.029063589870929718,0.023064715787768364,0.0,0.9994496703147888,0.0,0.0,0.03317240625619888,0.7203649878501892,0.595207691192627,0.0,0.0,0.0,-1.2104926109313965,-0.4464057981967926,0.7136598229408264,0.4200000464916229,0.9999999403953552,3.406740233913297e-06,-2.2856668238091515e-06,4.3010706463064707e-07,0.0002670245012268424,0.00026791717391461134,-0.0001043803058564663,-0.0017406563274562359,0.00421176990494132,-0.00012850540224462748,-0.09764640033245087,0.08838339149951935,1.2991902828216553,-2.388087272644043,2.2547101974487305,-0.9914308190345764,0.3369072377681732,0.7433868646621704,0.42000001668930054,-1.3800538778305054,3.000002145767212,-0.19596368074417114,-3.0,0.008226764388382435,0.006725819315761328,0.005113887134939432,0.003385293995961547,0.14414362609386444,0.09116129577159882,0.036139871925115585,-0.021001223474740982
0.08333333333333333,0.03582947328686714,0.035470981150865555,0.0,0.9999996423721313,0.0,0.0,0.0008319726912304759,0.18977664411067963,0.8263033032417297,0.0,0.0,0.0,-4.933483123779297,-0.4464057981967926,0.7136598229408264,0.4200000464916229,0.9999999403953552,3.626007128332276e-06,-2.335401404707227e-06,3.0324841304718575e-07,0.0002661396865732968,0.00026684964541345835,-0.00010405061766505241,-0.0017283027991652489,0.004196319729089737,-0.00012790360779035836,-0.13570186495780945,0.1301930844783783,1.2783610820770264,-2.2266149520874023,2.6463236808776855,-1.4537982940673828,0.3369072377681732,0.7433868646621704,0.42000001668930054,-1.3300243616104126,2.9999990463256836,-0.19046162068843842,3.000002145767212,0.005852449219673872,0.0036894255317747593,0.0013669877080246806,-0.0011242693290114403,-0.2990189790725708,-0.33793267607688904,-0.3795871436595917,-0.4242880046367645
0.1,0.0448165126144886,0.049757663160562515,0.0,0.999904453754425,0.0,0.0,-0.013821532018482685,0.6830146908760071,0.8534004092216492,0.0,0.0,0.0,-0.6961706876754761,-0.4464057981967926,0.7136598229408264,0.4200000464916229,1.0,3.4220852285216097e-06,-2.308649982296629e-06,1.7965334109248943e-07,0.0002668154484126717,0.000268004194367677,-0.00010440708138048649,-0.0017430060543119907,0.004207085818052292,-0.00012891326332464814,-0.17475387454032898,0.17034077644348145,1.2553486824035645,-2.2969532012939453,2.4519686698913574,-1.3483524322509766,0.3369072377681732,0.7433868646621704,0.42000001668930054,-1.2800242900848389,3.000000238418579,-0.22194619476795197,-3.0000007152557373,0.004859872628003359,0.0013232813216745853,-0.002379507990553975,-0.00625892449170351,0.03935929387807846,-0.0665854960680008,-0.17157624661922455,-0.27556112408638
0.11666666666666667,0.052596013993024826,0.06444547325372696,0.0,0.9991655945777893,0.0,0.0,-0.04084280505776405,0.4688515365123749,0.9294318556785583,0.0,0.0,0.0,-3.904783010482788,-0.4464057981967926,0.7136598825454712,0.4200000464916229,1.0,3.711474391820957e-06,-2.3327690996666206e-06,2.574539621491567e-07,0.00026485734269954264,0.0002663543273229152,-0.00010423525236546993,-0.001718277344480157,0.004170149099081755,-0.00012915724073536694,-0.20968183875083923,0.2170369178056717,1.2325468063354492,-1.9087097644805908,3.139054775238037,-1.3497925996780396,0.3369072377681732,0.7433868646621704,0.42000001668930054,-1.2299987077713013,2.9999914169311523,-0.1880398392677307,3.000000238418579,0.003476299811154604,-0.001980236964300275,-0.0075738634914159775,-0.013313591480255127,-0.03796693682670593,-0.17387162148952484,-0.30658358335494995,-0.4358968138694763
0.13333333333333333,0.057920198887586594,0.07781562954187393,0.0,0.9956862330436707,0.0,0.0,-0.09278406947851181,0.2616189122200012,0.7172285914421082,0.0,0.0,0.0,-7.0965962409973145,-0.4464057981967926,0.7136598229408264,0.4200000464916229,1.0,3.3357293887092965e-06,-2.232001179436338e-06,3.113242996732879e-07,0.00026669848011806607,0.0002675954601727426,-0.00010428694076836109,-0.0017371148569509387,0.004205853678286076,-0.0001284004101762548,-0.24136883020401,0.2713070213794708,1.2089884281158447,-1.8689382076263428,3.3854410648345947,-1.5249929428100586,0.3369072377681732,0.7433868646621704,0.42000001668930054,-1.1913095712661743,1.7201730012893677,-0.21959057450294495,-2.999999523162842,0.001755561912432313,-0.00590990437194705,-0.013644438236951828,-0.021453527733683586,-0.17376120388507843,-0.2937648892402649,-0.40956127643585205,-0.5209850668907166
0.15,0.059537019580602646,0.09144392609596252,0.0,0.9923303723335266,0.0,0.0,-0.12361393868923187,0.02792244404554367,0.8536660075187683,0.0,0.0,0.0,-2.637862205505371,-0.4464057981967926,0.7136598229408264,0.4200000464916229,1.0,3.518959374559927e-06,-2.2831704882264603e-06,-3.6253547364140104e-07,0.0002661850885488093,0.00026735811843536794,-0.00010425550863146782,-0.0017349324189126492,0.004195698536932468,-0.00012860653805546463,-0.28031307458877563,0.32476741075515747,1.1776725053787231,-2.377887725830078,3.3978188037872314,-2.2144017219543457,0.3369072377681732,0.7433868646621704,0.42000001668930054,-1.145899772644043,2.999994993209839,-0.19157911837100983,3.000000238418579,-0.0025133120361715555,-0.011823554523289204,-0.02112262323498726,-0.030414434149861336,-0.32602494955062866,-0.40225130319595337,-0.47384515404701233,-0.5408229231834412
0.16666666666666666,0.0654260441660881,0.10560058057308197,0.0,0.9857358336448669,0.0,0.0,-0.1682998090982437,0.37928009033203125,0.8155991435050964,0.0,0.0,0.0,-6.209338665008545,-0.4464057981967926,0.7136598229408264,0.4200000464916229,1.0,3.666649945444078e-06,-2.3392451566905947e-06,-3.149942244817794e-07,0.0002659584570210427,0.0002666738582774997,-0.00010403734631836414,-0.0017252413090318441,0.004192806314677,-0.00012778767268173397,-0.31687867641448975,0.38497933745384216,1.1393401622772217,-1.9891066551208496,3.8578941822052,-2.4025864601135254,0.3369072377681732,0.7433868646621704,0.42000001668930054,-1.0960180759429932,2.966892957687378,-0.22309769690036774,-3.000000238418579,-0.0067120688036084175,-0.01743743009865284,-0.028070148080587387,-0.038614772260189056,-0.4109191596508026,-0.4742209315299988,-0.5340813994407654,-0.5905089378356934
0.18333333333333332,0.0675380751490593,0.11699539422988892,0.0,0.9812906980514526,0.0,0.0,-0.19253207743167877,0.10234339535236359,0.6056406497955322,0.0,0.0,0.0,-1.8559377193450928,-0.4464057981967926,0.7136598229408264,0.4200000464916229,1.0,3.814366891674581e-06,-2.399669938313309e-06,-2.70255782197637e-07,0.00026549093308858573,0.0002661114267539233,-0.00010391161777079105,-0.0017178055131807923,0.004184804391115904,-0.00012753871851600707,-0.3526687026023865,0.4458877146244049,1.0895284414291382,-1.976123571395874,3.7983479499816895,-3.4174563884735107,0.3369072377681732,0.7433868646621704,0.42000001668930054,-1.0582013130187988,1.6538307666778564,-0.2731260061264038,-3.0000009536743164,-0.01861538365483284,-0.029353689402341843,-0.03997744992375374,-0.050499945878982544,-0.7320594787597656,-0.7156487703323364,-0.6979963779449463,-0.6797080039978027
0.2,0.06589188426733017,0.12960639595985413,0.0,0.9735257625579834,0.0,0.0,-0.22857722640037537,-0.15145151317119598,0.7651756405830383,0.0,0.0,0.0,-5.24444580078125,-0.4464057981967926,0.7136598229408264,0.4200000464916229,1.0,3.600131549319485e-06,-2.291358214279171e-06,-2.2017978551502893e-07,0.00026572885690256953,0.0002664503699634224,-0.00010398216545581818,-0.0017227239441126585,0.0041888379491865635,-0.00012773461639881134,-0.3846096992492676,0.5105157494544983,1.0255179405212402,-1.740170955657959,3.942615032196045,-4.175576210021973,0.3369072377681732,0.7433868646621704,0.42000001668930054,-1.0111570358276367,3.000000476837158,-0.3231526017189026,-3.0,-0.03396819904446602,-0.04423506185412407,-0.05413857102394104,-0.06394191831350327,-0.9396116137504578,-0.905514121055603,-0.8571608066558838,-0.8084707260131836
0.21666666666666667,0.06839535385370255,0.14346854388713837,0.0,0.9690618515014648,0.0,0.0,-0.24681797623634338,0.12315339595079422,0.8594152927398682,0.0,0.0,0.0,-1.2321345806121826,-0.4464057981967926,0.7136598229408264,0.4200000464916229,0.9999999403953552,3.639731630755705e-06,-2.262153202536865e-06,2.224811481710276e-07,0.0002668729575816542,0.00026754403370432556,-0.00010411720722913742,-0.0017403962556272745,0.004211026709526777,-0.00012783294369000942,-0.4158611297607422,0.569414496421814,0.9500188827514648,-1.668344497680664,3.3311901092529297,-4.915677547454834,0.3369072377681732,0.7433868646621704,0.42000001668930054,-0.9611524939537048,3.0000016689300537,-0.37318092584609985,-2.9999990463256836,-0.04792138934135437,-0.05746860429644585,-0.06637983024120331,-0.0752020925283432,-0.9845457077026367,-0.9531834721565247,-0.8537504076957703,-0.7581188082695007
0.23333333333333334,0.06734245270490646,0.15451443195343018,0.0,0.9605270028114319,0.0,0.0,-0.2781868278980255,-0.09557849913835526,0.6124423146247864,0.0,0.0,0.0,-4.668255805969238,-0.4464057683944702,0.7136598229408264,0.4200000464916229,1.0,3.4207912449346622e-06,-2.316995278306422e-06,2.9559876679741137e-07,0.0002668022643774748,0.000268039497314021,-0.0001044231466948986,-0.0017436875496059656,0.004206903278827667,-0.0001289985520998016,-0.4408136010169983,0.6227413415908813,0.8618611097335815,-1.187571406364441,3.071579933166504,-5.542112350463867,0.3369072377681732,0.7433868646621704,0.42000001668930054,-0.9111418128013611,3.0000014305114746,-0.42321115732192993,-2.9999992847442627,-0.06407182663679123,-0.07363343983888626,-0.08249061554670334,-0.0908660963177681,-0.9881187677383423,-0.9795389175415039,-0.9741626381874084,-0.9702666997909546
0.25,0.06555354595184326,0.16210031509399414,0.0,0.9568492770195007,0.0,0.0,-0.29058462381362915,-0.1263352781534195,0.37323886156082153,0.0,0.0,0.0,-0.5363159775733948,-0.4464057981967926,0.7136598229408264,0.4200000464916229,0.9999999403953552,3.3476921998953912e-06,-2.259393340864335e-06,1.8084217856539908e-07,0.0002668773813638836,0.0002679125755093992,-0.00010439427569508553,-0.0017405325779691339,0.004208301659673452,-0.00012870290083810687,-0.45970991253852844,0.662980318069458,0.7655092477798462,-0.870049238204956,1.9723308086395264,-5.986229419708252,0.3369072377681732,0.7433868646621704,0.42000001668930054,-0.8611311316490173,2.9999992847442627,-0.4732421338558197,-3.000000238418579,-0.0806790366768837,-0.09021108597517014,-0.09905069321393967,-0.10741418600082397,-0.9927437901496887,-0.9934073686599731,-0.9939541220664978,-0.9944285750389099
0.26666666666666666,0.06093405932188034,0.16599678993225098,0.0,0.9492987394332886,0.0,0.0,-0.31437548995018005,-0.3263394832611084,0.1696505844593048,0.0,0.0,0.0,-3.8253746032714844,-0.4464057981967926,0.7136598229408264,0.4200000464916229,0.9999999403953552,3.7081454138387926e-06,-2.392748001511791e-06,-1.2725767817300948e-07,0.0002660360769368708,0.00026716632419265807,-0.00010421336628496647,-0.0017322303028777242,0.004193194210529327,-0.00012854882515966892,-0.46944659948349,0.6900753974914551,0.6607272624969482,-0.24426808953285217,1.2639858722686768,-6.42161750793457,0.3369072377681732,0.7433868646621704,0.42000001668930054,-0.8111215829849243,2.999995231628418,-0.5232734680175781,-3.000000238418579,-0.09747759997844696,-0.10687631368637085,-0.1156235933303833,-0.123918317258358,-0.9947196245193481,-0.9954809546470642,-0.9960619211196899,-0.9965261816978455
0.2833333333333333,0.05895286798477173,0.16618120670318604,0.0,0.9476313591003418,0.0,0.0,-0.3193662762641907,-0.033638592809438705,-0.03736739233136177,0.0,0.0,0.0,0.2474302500486374,-0.4464057981967926,0.7136598825454712,0.4200000464916229,0.9999999403953552,3.572764853743138e-06,-2.304269173691864e-06,1.2984313002561976e-07,0.0002652157854754478,0.00026455047191120684,-0.00010317238047719002,-0.0017021457897499204,0.004185081925243139,-0.00012500114098656923,-0.4721275568008423,0.7034145593643188,0.5561412572860718,0.10262081027030945,0.37919944524765015,-6.112758636474609,0.3369072377681732,0.7433868646621704,0.42000001668930054,-0.7611128091812134,3.000001907348633,-0.5733031630516052,-3.0,-0.11439667642116547,-0.12369474023580551,-0.13237974047660828,-0.14063481986522675,-1.0047147274017334,-1.0035516023635864,-1.0026661157608032,-1.001960277557373
0.3,0.05405774712562561,0.16445979475975037,0.0,0.9411899447441101,0.0,0.0,-0.33787792921066284,-0.38519734144210815,-0.1361275315284729,0.0,0.0,0.0,-3.2268519401550293,-0.4464057981967926,0.7136598229408264,0.4200000464916229,1.0,3.7452036849572323e-06,-2.2383974283002317e-06,-1.767933923702003e-07,0.0002643612679094076,0.0002662355836946517,-0.00010443315841257572,-0.0017120852135121822,0.004158807918429375,-0.00012990103277843446,-0.46301454305648804,0.7070298194885254,0.45922327041625977,0.982182502746582,0.11103013157844543,-5.423983573913574,0.3369072377681732,0.7433868646621704,0.42000001668930054,-0.7111046314239502,3.0000011920928955,-0.6233310103416443,-3.0000007152557373,-0.13266441226005554,-0.14159493148326874,-0.15000063180923462,-0.1580335646867752,-1.0163335800170898,-1.0123569965362549,-1.0093178749084473,-1.0068856477737427
0.31666666666666665,0.046681519597768784,0.16057327389717102,0.0,0.9406616687774658,0.0,0.0,-0.33934587240219116,-0.42886465787887573,-0.2887313961982727,0.0,0.0,0.0,0.7607690095901489,-0.44704294204711914,0.7111831903457642,0.4207574427127838,0.9990944862365723,0.016719406470656395,-0.0019283484434708953,-0.03907659277319908,0.033731501549482346,-0.00698633398860693,0.0638650506734848,2.187023162841797,-1.0392420291900635,-0.5393168926239014,-0.45398974418640137,0.7089687585830688,0.42803794145584106,0.1300482600927353,-0.16415664553642273,-0.14178355038166046,0.3369072377681732,0.7433868646621704,0.42000001668930054,-0.6611363291740417,2.9725468158721924,-0.6738231182098389,-2.856135845184326,-0.13969750702381134,-0.14974616467952728,-0.15899069607257843,-0.1673675775527954,-0.046399153769016266,-0.14076752960681915,-0.20792140066623688,-0.22593267261981964
0.3333333333333333,0.03783249855041504,0.15417294204235077,0.0,0.9352279305458069,0.0,0.0,-0.35404616594314575,-0.5809228420257568,-0.4258372485637665,0.0,0.0,0.0,-2.8020730018615723,-0.4467081129550934,0.7111999988555908,0.42051902413368225,0.9990907311439514,0.013096971437335014,-0.0005352842854335904,-0.04056769236922264,0.013873185031116009,0.012704851105809212,-0.02885587327182293,-1.4972907304763794,0.12014302611351013,-0.14374764263629913,-0.45349472761154175,0.711222231388092,0.4266524612903595,0.12086252123117447,0.2618606686592102,-0.1521449238061905,0.3369072377681732,0.7433868646621704,0.42000001668930054,-0.6111298203468323,2.999985456466675,-0.7238759994506836,-2.999979257583618,-0.14151416718959808,-0.15272915363311768,-0.16274812817573547,-0.17120368778705597,-0.1789904087781906,-0.22129476070404053,-0.24583660066127777,-0.23775269091129303
0.35,0.026714060455560684,0.14550574123859406,0.0,0.9355655312538147,0.0,0.0,-0.3531530797481537,-0.7058209776878357,-0.5590031743049622,0.0,0.0,0.0,1.0567021369934082,-0.4446762800216675,0.7145837545394897,0.42038822174072266,0.9972726702690125,0.009704588912427425,-0.00034668753505684435,-0.07316292822360992,0.2858636677265167,0.42908230423927307,0.06585356593132019,3.2954046726226807,-0.2820468246936798,-8.550647735595703,-0.4495595395565033,0.7181586027145386,0.42420971393585205,0.3198644518852234,0.5011352300643921,-0.12847952544689178,0.3369072377681732,0.7433868646621704,0.42000001668930054,-0.5611247420310974,2.9999806880950928,-0.7739137411117554,-3.000002384185791,-0.14656361937522888,-0.15749087929725647,-0.16694656014442444,-0.17438240349292755,-0.3528778553009033,-0.29755857586860657,-0.22707124054431915,-0.13362997770309448
0.36666666666666664,0.013474730774760246,0.13446372747421265,0.0,0.9305638670921326,0.0,0.0,-0.36612963676452637,-0.8450765013694763,-0.7024049162864685,0.0,0.0,0.0,-2.5917770862579346,-0.4394959509372711,0.7221582531929016,0.4203876852989197,0.9884592890739441,0.009641421027481556,-0.001524341176263988,-0.15117138624191284,0.37448757886886597,0.5240913033485413,0.004604965448379517,0.2909880578517914,-0.1048254445195198,-11.915230751037598,-0.442630797624588,0.7263540625572205,0.42254987359046936,0.554339587688446,0.5809526443481445,-0.08116867393255234,0.3369072377681732,0.7433868646621704,0.42000001668930054,-0.5111199617385864,2.9999821186065674,-0.8239648938179016,-2.9999849796295166,-0.15336836874485016,-0.16293278336524963,-0.17073006927967072,-0.17613162100315094,-0.41705241799354553,-0.311763197183609,-0.18976962566375732,-0.04867882281541824
0.3833333333333333,0.0027167738880962133,0.12063230574131012,0.0,0.9147140979766846,0.0,0.0,-0.40410158038139343,-0.5726144313812256,-0.8833302855491638,0.0,0.0,0.0,-5.759030342102051,-0.4285706877708435,0.7361339330673218,0.420166939496994,0.9834005832672119,-0.0016587685095146298,-0.0026763940695673227,-0.1814202517271042,0.8580769896507263,1.0959539413452148,0.05218833312392235,-0.7320699095726013,-2.52335786819458,-4.246533393859863,-0.4314279556274414,0.7386529445648193,0.42244482040405273,0.8694031834602356,0.9891349077224731,0.0587296262383461,0.3369072377681732,0.7433868646621704,0.42000001668930054,-0.4611159563064575,2.9999730587005615,-0.8740185499191284,-2.999993085861206,-0.1603875309228897,-0.1677965223789215,-0.17310796678066254,-0.17569273710250854,-0.3913862705230713,-0.24671287834644318,-0.08169203996658325,0.10186847299337387
0.4,-0.0039790114387869835,0.10369771718978882,0.0,0.8855907320976257,0.0,0.0,-0.4644664525985718,-0.3342873454093933,-1.0681935548782349,0.0,0.0,0.0,-8.841766357421875,-0.40156471729278564,0.7630376219749451,0.4229382872581482,0.974266767501831,0.0052664801478385925,-0.02812994457781315,-0.2235737442970276,2.5947964191436768,2.2618212699890137,0.2595605254173279,26.424152374267578,-14.476451873779297,1.8705681562423706,-0.40453603863716125,0.7648010849952698,0.42522895336151123,2.4975743293762207,2.1925151348114014,0.3668627142906189,0.3369072377681732,0.7433868646621704,0.42000001668930054,-0.41154950857162476,2.7047345638275146,-0.9240517616271973,-3.0000016689300537,-0.16862459480762482,-0.1729169487953186,-0.17481297254562378,-0.17375899851322174,-0.5544224977493286,-0.33256450295448303,-0.0970565527677536,0.14547501504421234
0.4166666666666667,-0.008534404449164867,0.09181150048971176,0.0,0.8397905826568604,0.0,0.0,-0.5429105162620544,-0.23396213352680206,-0.5848187208175659,0.0,0.0,0.0,-11.684752464294434,-0.3342284858226776,0.8062134981155396,0.42915278673171997,0.9551781415939331,0.06640901416540146,-0.06493831425905228,-0.2810826003551483,5.5262908935546875,3.0528926849365234,0.5163913369178772,14.437920570373535,-10.539204597473145,3.6418979167938232,-0.3371592164039612,0.8085278272628784,0.43152210116386414,5.176873207092285,3.0475292205810547,0.4982421100139618,0.3369072377681732,0.7433868646621704,0.42000001668930054,-0.3823434114456177,1.1612238883972168,-0.8868144154548645,2.999361991882324,-0.18410539627075195,-0.18510203063488007,-0.18157608807086945,-0.1753678023815155,-0.9056112170219421,-0.8286405801773071,-0.5049840807914734,-0.20884087681770325
0.43333333333333335,-0.016858886927366257,0.08741401880979538,0.0,0.8003464341163635,0.0,0.0,-0.5995377898216248,-0.614698052406311,-0.263846218585968,0.0,0.0,0.0,-7.022630214691162,-0.2464170604944229,0.8489380478858948,0.44020015001296997,0.924690306186676,0.11320839077234268,-0.08919140696525574,-0.3523869514465332,5.638812065124512,1.9645248651504517,0.9073952436447144,-3.921022891998291,1.7446236610412598,0.24713173508644104,-0.24837549030780792,0.8529003262519836,0.4426739811897278,5.463217258453369,2.3550820350646973,0.7186721563339233,0.3369072377681732,0.7433868646621704,0.42000001668930054,-0.36634984612464905,0.8867979645729065,-0.9130799770355225,-2.999840497970581,-0.19818097352981567,-0.19960695505142212,-0.19517190754413605,-0.18384836614131927,-0.6063432693481445,-0.6753909587860107,-0.7461835741996765,-0.5283581614494324
0.45,-0.020841870456933975,0.07582155615091324,0.0,0.7798231244087219,0.0,0.0,-0.6259998679161072,-0.08883804082870483,-0.8583312034606934,0.0,0.0,0.0,-2.970531702041626,-0.14809077978134155,0.8811454772949219,0.4519192576408386,0.8628578186035156,0.12306461483240128,-0.0982913002371788,-0.48028144240379333,6.18874454498291,0.6525196433067322,0.7654179930686951,-9.497472763061523,3.2478182315826416,4.427929878234863,-0.1516381800174713,0.885695219039917,0.453014612197876,6.1959967613220215,1.4487168788909912,0.6385689377784729,0.3369072377681732,0.7433868646621704,0.42000001668930054,-0.34964704513549805,0.968169093132019,-0.9631040096282959,-2.999227523803711,-0.20310981571674347,-0.20493125915527344,-0.20097781717777252,-0.1862577348947525,-0.22732655704021454,-0.18281640112400055,-0.14826735854148865,0.06612507253885269
0.4666666666666667,-0.0255880244076252,0.06626807898283005,0.0,0.75111985206604,0.0,0.0,-0.6601659059524536,-0.3293779194355011,-0.5142102241516113,0.0,0.0,0.0,-6.061567783355713,-0.045865800231695175,0.8946609497070312,0.46056443452835083,0.7893332839012146,0.10966786742210388,-0.1194467768073082,-0.5921640992164612,5.986272811889648,-0.3849042057991028,0.6723735332489014,-9.738019943237305,7.078817844390869,8.625771522521973,-0.050616078078746796,0.9012821912765503,0.4628891944885254,6.213300704956055,0.5398262143135071,0.5928903222084045,0.3369072377681732,0.7433868646621704,0.42000001668930054,-0.3339385986328125,0.7965469360351562,-1.0131275653839111,-2.9998972415924072,-0.21027275919914246,-0.2104610651731491,-0.20526207983493805,-0.18728120625019073,-0.401644229888916,-0.29849952459335327,-0.22662146389484406,-0.08061634749174118
0.48333333333333334,-0.02857239358127117,0.061276234686374664,0.0,0.736786961555481,0.0,0.0,-0.6761249303817749,-0.11312506347894669,-0.2078217715024948,0.0,0.0,0.0,-1.3880842924118042,0.05143963545560837,0.8912979364395142,0.4656336009502411,0.6984528303146362,0.07492919266223907,-0.1559532880783081,-0.6944261193275452,5.279098987579346,-1.2863966226577759,0.08781559765338898,-23.790773391723633,7.359879493713379,1.2374180555343628,0.045337338000535965,0.9009214639663696,0.46991217136383057,5.613415718078613,-0.5942596793174744,0.359669029712677,0.3369072377681732,0.7433868646621704,0.42000001668930054,-0.32216864824295044,0.5577467679977417,-1.0631499290466309,-2.999074697494507,-0.2191130369901657,-0.21662262082099915,-0.20938602089881897,-0.18889003992080688,-0.5537387132644653,-0.3599415421485901,-0.2109682857990265,-0.07169623672962189
0.5,-0.027973460033535957,0.054404668509960175,0.0,0.715508222579956,0.0,0.0,-0.6986042857170105,0.09105873852968216,-0.4672589600086212,0.0,0.0,0.0,-4.552883148193359,0.13417768478393555,0.8740021586418152,0.4647561311721802,0.648938000202179,0.04024923965334892,-0.13691993057727814,-0.7473368048667908,4.6865763664245605,-1.787407398223877,-0.02558891288936138,-3.3080930709838867,-5.377665996551514,5.4693732261657715,0.1294957548379898,0.8854437470436096,0.470272958278656,4.575566291809082,-1.344132661819458,-0.1576676368713379,0.3369072377681732,0.7433868646621704,0.42000001668930054,-0.3136352598667145,0.48534518480300903,-1.1131720542907715,-3.0000011920928955,-0.22745348513126373,-0.2213272601366043,-0.21121834218502045,-0.188503235578537,-0.4698849618434906,-0.23291592299938202,-0.04277085140347481,0.08329713344573975
0.5166666666666666,-0.028531109914183617,0.05165179446339607,0.0,0.7072596549987793,0.0,0.0,-0.7069538831710815,-0.06205342710018158,-0.1102699562907219,0.0,0.0,0.0,-0.23409096896648407,0.2029191255569458,0.8468381762504578,0.45926719903945923,0.6015478372573853,0.0038641351275146008,-0.11210111528635025,-0.7909226417541504,3.6776413917541504,-1.876694679260254,-0.4605676233768463,-2.5727274417877197,5.763708591461182,-8.060572624206543,0.19928252696990967,0.8570555448532104,0.46498435735702515,3.763881206512451,-1.8851016759872437,-0.4880742132663727,0.3369072377681732,0.7433868646621704,0.42000001668930054,-0.30151984095573425,0.9595819711685181,-1.163194179534912,-3.0000011920928955,-0.2373286336660385,-0.2268330454826355,-0.21324244141578674,-0.18856051564216614,-0.38305506110191345,-0.18166302144527435,-0.02966013178229332,0.02133723348379135
0.5333333333333333,-0.027027210220694542,0.04503116384148598,0.0,0.6905887722969055,0.0,0.0,-0.7232475876808167,0.1169414147734642,-0.4261249303817749,0.0,0.0,0.0,-3.66496205329895,0.259615421295166,0.8175191879272461,0.445266991853714,0.5676528215408325,-0.029270881786942482,-0.1022917702794075,-0.8163637518882751,2.926373243331909,-2.039259672164917,-0.8769271373748779,-0.6191606521606445,13.41169261932373,-2.043393135070801,0.25714537501335144,0.8274891376495361,0.4518156051635742,3.1292738914489746,-1.867993950843811,-1.0109481811523438,0.3369072377681732,0.7433868646621704,0.42000001668930054,-0.2832230031490326,1.0460182428359985,-1.2132163047790527,-2.997983694076538,-0.23838366568088531,-0.22576457262039185,-0.21080966293811798,-0.18654076755046844,0.001879699295386672,0.10680615901947021,0.1651899665594101,0.10745169967412949
0.55,-0.023221129551529884,0.04229675978422165,0.0,0.6862542033195496,0.0,0.0,-0.727361798286438,0.2570176124572754,-0.13507826626300812,0.0,0.0,0.0,0.2000049203634262,0.30412769317626953,0.7861971259117126,0.42716488242149353,0.5328146815299988,-0.06622052192687988,-0.08106417208909988,-0.8397332429885864,2.178666591644287,-2.2863681316375732,-1.0603508949279785,-11.850394248962402,4.9285569190979,4.37456750869751,0.3023759126663208,0.7953155040740967,0.43409132957458496,2.377547025680542,-1.8728299140930176,-1.116856336593628,0.3369072377681732,0.7433868646621704,0.42000001668930054,-0.2696455121040344,0.5369150042533875,-1.2632384300231934,-3.000002384185791,-0.23930566012859344,-0.22527673840522766,-0.2096683531999588,-0.18676027655601501,0.10615848004817963,0.12326281517744064,0.10164984315633774,-0.03648756444454193
0.5666666666666667,-0.01718117482960224,0.0425092838704586,0.0,0.6731926202774048,0.0,0.0,-0.7394671440124512,0.41039302945137024,0.07852199673652649,0.0,0.0,0.0,-3.0121257305145264,0.3329993486404419,0.7689125537872314,0.42120251059532166,0.5022833943367004,-0.01651609316468239,-0.017120972275733948,-0.8643757700920105,1.2125524282455444,-0.9399707317352295,-0.039753369987010956,5.758191108703613,-11.178773880004883,-8.658021926879883,0.32862889766693115,0.7758364081382751,0.4273148775100708,0.9888873100280762,-0.691617488861084,0.1272495687007904,0.3369072377681732,0.7433868646621704,0.42000001668930054,-0.257606565952301,1.1668554544448853,-1.313201665878296,-2.9996402263641357,-0.23370426893234253,-0.22113095223903656,-0.20729947090148926,-0.18778017163276672,0.4749162495136261,0.33155158162117004,0.17788831889629364,-0.062305107712745667
0.5833333333333334,-0.013782501220703125,0.038521844893693924,0.0,0.6723691821098328,0.0,0.0,-0.7402160167694092,0.1638154685497284,-0.23054809868335724,0.0,0.0,0.0,0.7054882645606995,0.3447694182395935,0.7581657767295837,0.4207950234413147,0.5399800539016724,-0.012219789437949657,0.01064758189022541,-0.8415216207504272,0.5363348126411438,-1.1846152544021606,-0.026447080075740814,1.5212993621826172,-0.6026936173439026,16.43611717224121,0.34150397777557373,0.7630519866943359,0.427615761756897,0.38009804487228394,-0.847974956035614,-0.10397405922412872,0.3369072377681732,0.7433868646621704,0.42000001668930054,-0.24667654931545258,0.21194608509540558,-1.2749525308609009,2.999533176422119,-0.2223655730485916,-0.2124374508857727,-0.20141533017158508,-0.18609610199928284,0.5071113705635071,0.3931075930595398,0.2651238739490509,0.050788961350917816
0.6,-0.008346145041286945,0.039358653128147125,0.0,0.6606475114822388,0.0,0.0,-0.7506962418556213,0.32897186279296875,0.04804524406790733,0.0,0.0,0.0,-2.6239383220672607,0.3478448688983917,0.7500655055046082,0.421164333820343,0.564651608467102,-0.016163889318704605,0.0256203543394804,-0.8247731328010559,-0.0013244086876511574,-0.3360370397567749,0.1165710836648941,2.1216650009155273,6.7279767990112305,7.001139163970947,0.3440711796283722,0.7541958689689636,0.4278976321220398,0.003833802416920662,-0.2075987160205841,0.13920427858829498,0.3369072377681732,0.7433868646621704,0.42000001668930054,-0.25058019161224365,-0.42637649178504944,-1.2950693368911743,-2.999335289001465,-0.21486853063106537,-0.2071778029203415,-0.19851964712142944,-0.18682308495044708,0.6229958534240723,0.4369411766529083,0.2517752945423126,0.0052167633548378944
0.6166666666666667,-0.0014248535735532641,0.035602133721113205,0.0,0.6619393229484558,0.0,0.0,-0.7495574355125427,0.4376984238624573,-0.20385219156742096,0.0,0.0,0.0,1.051456332206726,0.3473376929759979,0.7456845641136169,0.421648770570755,0.5847603678703308,-0.02520454116165638,0.0349673368036747,-0.8100600242614746,-0.07840190827846527,-0.2425813227891922,0.0043569039553403854,0.0745786800980568,0.23393315076828003,0.514517068862915,0.3419812321662903,0.7502144575119019,0.42675697803497314,-0.2679074704647064,-0.27645143866539,-0.05813642963767052,0.3369072377681732,0.7433868646621704,0.42000001668930054,-0.28843191266059875,-2.999859571456909,-1.2588094472885132,2.9997589588165283,-0.20259083807468414,-0.19801248610019684,-0.19245405495166779,-0.18478642404079437,0.5462496876716614,0.4104807674884796,0.27271777391433716,0.08030986785888672
0.6333333333333333,0.007798904087394476,0.036280084401369095,0.0,0.6743069291114807,0.0,0.0,-0.7384512424468994,0.5821067094802856,0.0508958138525486,0.0,0.0,0.0,2.440427303314209,0.34510180354118347,0.7420923709869385,0.4204932749271393,0.5967867374420166,-0.0072699133306741714,0.00957401841878891,-0.8023098111152649,-0.12911826372146606,-0.19109292328357697,-0.09556622058153152,-1.5282244682312012,-4.893219947814941,1.29881751537323,0.3386662006378174,0.7484145164489746,0.42840442061424255,-0.09795840829610825,0.059630006551742554,0.17058102786540985,0.3369072377681732,0.7433868646621704,0.42000001668930054,-0.3384662866592407,-2.9997880458831787,-1.2788056135177612,-2.9988656044006348,-0.19538798928260803,-0.19285079836845398,-0.18929383158683777,-0.1843770146369934,0.5248273015022278,0.38117536902427673,0.24474914371967316,0.07445897907018661
0.65,0.01506231538951397,0.03337855264544487,0.0,0.6721855998039246,0.0,0.0,-0.7403826713562012,0.31167516112327576,-0.23536981642246246,0.0,0.0,0.0,-1.2617374658584595,0.34348174929618835,0.7403239011764526,0.41999998688697815,0.6003190875053406,-8.44522310217144e-06,-3.1704048524261452e-06,-0.7997605204582214,-0.07097107172012329,-0.07828937470912933,-0.00029960949905216694,0.008862560614943504,-0.006956662051379681,0.4341784715652466,0.3373556435108185,0.7509750127792358,0.43161919713020325,-0.07067656517028809,0.09189144521951675,0.20999440550804138,0.3369072377681732,0.7433868646621704,0.42000001668930054,-0.3884858191013336,-2.9997103214263916,-1.3287707567214966,-2.9992003440856934,-0.18457257747650146,-0.18456682562828064,-0.18339931964874268,-0.18130676448345184,0.5543636083602905,0.4386773407459259,0.328740656375885,0.19460538029670715
0.6666666666666666,0.02227928675711155,0.03365190327167511,0.0,0.680888831615448,0.0,0.0,-0.7323868274688721,0.46549996733665466,0.03977744281291962,0.0,0.0,0.0,2.1872167587280273,0.3429608941078186,0.7397549748420715,0.4200000464916229,0.6019662618637085,-1.981791228899965e-06,-6.148831062091631e-07,-0.7985215187072754,-0.01648023910820484,-0.017723342403769493,-8.442543912678957e-05,0.002311590127646923,-0.0020123585127294064,0.16018421947956085,0.3352246880531311,0.751319408416748,0.43744421005249023,-0.1180083155632019,0.05164168030023575,0.5095520615577698,0.3369072377681732,0.7433868646621704,0.42000001668930054,-0.43849971890449524,-3.000000476837158,-1.378788948059082,-3.0000007152557373,-0.17897211015224457,-0.1801300346851349,-0.1799728274345398,-0.17916759848594666,0.3491154611110687,0.28125056624412537,0.22751650214195251,0.1670788675546646
0.6833333333333333,0.03138190135359764,0.03034249320626259,0.0,0.6773494482040405,0.0,0.0,-0.7356613874435425,0.5694558024406433,-0.21791619062423706,0.0,0.0,0.0,-1.5156657695770264,0.34296080470085144,0.7397549748420715,0.4200000464916229,0.6019662618637085,1.604094990170779e-07,-1.0187279997353471e-07,-0.7985215187072754,-6.674566975561902e-05,1.3119904906488955e-05,-6.096437573432922e-06,-0.00272765988484025,-0.003490148577839136,-6.492727698059753e-05,0.33608633279800415,0.7525779008865356,0.4439621567726135,0.14278152585029602,-0.03662339225411415,0.4377809762954712,0.3369072377681732,0.7433868646621704,0.42000001668930054,-0.48851287364959717,-2.9999992847442627,-1.428807258605957,-3.0,-0.1722290813922882,-0.17424607276916504,-0.17463304102420807,-0.17432901263237,0.2587435245513916,0.26250913739204407,0.285542368888855,0.31444478034973145
0.7,0.04237509146332741,0.02378430776298046,0.0,0.6538363099098206,0.0,0.0,-0.7566360235214233,0.7016491293907166,-0.46270719170570374,0.0,0.0,0.0,-4.6492486000061035,0.34296056628227234,0.7397550940513611,0.4200000464916229,0.6019665598869324,1.1772664976206215e-07,-3.2664181617292343e-06,-0.7985211610794067,0.00012934986443724483,-0.00027917628176510334,-8.977018296718597e-05,0.006311614066362381,-0.0011053263442590833,-0.0006062922766432166,0.34254372119903564,0.7529217600822449,0.4585842490196228,0.6464645862579346,0.05795393884181976,1.4317095279693604,0.3369072377681732,0.7433868646621704,0.42000001668930054,-0.5385254621505737,-2.999962091445923,-1.478825569152832,-2.9999988079071045,-0.17039966583251953,-0.17196258902549744,-0.1715991497039795,-0.1704130470752716,0.029010899364948273,0.07116186618804932,0.12902140617370605,0.19611603021621704
0.7166666666666667,0.05670473352074623,0.02201441116631031,0.0,0.6430244445800781,0.0,0.0,-0.7658456563949585,0.8177629113197327,-0.047681547701358795,0.0,0.0,0.0,-0.6962570548057556,0.34296056628227234,0.7397550940513611,0.4200000464916229,0.6019665002822876,4.178084509476321e-07,-3.0841652005619835e-06,-0.7985213398933411,0.00013679407129529864,-0.00027603862690739334,-9.477720595896244e-05,0.0061631943099200726,-0.0010994673939421773,-0.0006275901105254889,0.3541682958602905,0.7555745840072632,0.489315927028656,0.7788557410240173,0.38967999815940857,2.196617603302002,0.3369072377681732,0.7433868646621704,0.42000001668930054,-0.5856416821479797,-2.647977352142334,-1.528843879699707,-3.0,-0.17465941607952118,-0.17504103481769562,-0.17333078384399414,-0.17069795727729797,-0.13785262405872345,-0.11750710010528564,-0.08558580279350281,-0.04206022620201111
0.7333333333333333,0.06730394065380096,0.022104164585471153,0.0,0.6554269790649414,0.0,0.0,-0.7552585005760193,0.569498598575592,0.04074525833129883,0.0,0.0,0.0,2.795534610748291,0.34296056628227234,0.7397550940513611,0.4200000464916229,0.6019663214683533,2.635503335568501e-07,-3.2531277156522265e-06,-0.7985213398933411,0.0001354651030851528,-0.0002769540005829185,-9.441794827580452e-05,0.006192714907228947,-0.0011191627709195018,-0.0006252040038816631,0.3702734112739563,0.7600667476654053,0.5190143585205078,0.994720458984375,0.1939329206943512,1.4703245162963867,0.3369072377681732,0.7433868646621704,0.42000001668930054,-0.600075900554657,0.6390408277511597,-1.578862190246582,-3.0,-0.1749470978975296,-0.1751180738210678,-0.1729881316423416,-0.16969706118106842,0.04782635346055031,0.06868864595890045,0.09868937730789185,0.14145660400390625
0.75,0.07333296537399292,0.017722874879837036,0.0,0.6554432511329651,0.0,0.0,-0.7552444338798523,0.32466936111450195,-0.2669273316860199,0.0,0.0,0.0,-0.9489994049072266,0.34296053647994995,0.7397550940513611,0.4200000464916229,0.6019665002822876,3.2022759910432796e-07,-3.4342472190473927e-06,-0.7985212206840515,0.00013832328841090202,-0.00027626336668618023,-9.511364623904228e-05,0.00616006413474679,-0.0010821041651070118,-0.000631260103546083,0.38234978914260864,0.7629361152648926,0.5369064211845398,0.42883944511413574,-0.030888646841049194,0.8319306373596191,0.3369072377681732,0.7433868646621704,0.42000001668930054,-0.608559787273407,-1.4654271602630615,-1.5399113893508911,2.999999761581421,-0.17060095071792603,-0.17078402638435364,-0.16860578954219818,-0.1651073545217514,0.11192739009857178,0.15517579019069672,0.19251398742198944,0.23012013733386993
0.7666666666666666,0.0762132927775383,0.017937317490577698,0.0,0.6658989787101746,0.0,0.0,-0.7460419535636902,0.12966972589492798,0.04114028066396713,0.0,0.0,0.0,2.443067789077759,0.34296056628227234,0.7397550940513611,0.4200000464916229,0.6019666194915771,3.974573701270856e-07,-3.074456117246882e-06,-0.7985211610794067,0.00013684095756616443,-0.00027596106519922614,-9.47359949350357e-05,0.006161224562674761,-0.0010971406009048223,-0.0006276993663050234,0.38890600204467773,0.7607713341712952,0.5490005016326904,0.41271430253982544,-0.09707501530647278,0.6447550058364868,0.3369072377681732,0.7433868646621704,0.42000001668930054,-0.6097632646560669,1.099269986152649,-1.555200219154358,-2.9999992847442627,-0.1716301590204239,-0.17056019604206085,-0.16733646392822266,-0.16289609670639038,0.03429269790649414,0.08319690823554993,0.1184578537940979,0.14762194454669952
0.7833333333333333,0.07654894143342972,0.014484268613159657,0.0,0.6630797386169434,0.0,0.0,-0.7485487461090088,-0.006363993510603905,-0.27641379833221436,0.0,0.0,0.0,-1.4030632972717285,0.34296056628227234,0.7397550940513611,0.4200000464916229,0.6019662022590637,4.543935858691839e-07,-2.991502014992875e-06,-0.7985215187072754,0.00014000845840200782,-0.0002744776429608464,-9.561097249388695e-05,0.006107529159635305,-0.0010547220008447766,-0.0006334174540825188,0.39337992668151855,0.7590959072113037,0.5550433993339539,0.11438526213169098,-0.16171443462371826,0.2428492158651352,0.3369072377681732,0.7433868646621704,0.42000001668930054,-0.6104739308357239,-1.0019081830978394,-1.516321063041687,3.000000238418579,-0.16934159398078918,-0.1677788496017456,-0.16430997848510742,-0.15973152220249176,0.13767673075199127,0.16934770345687866,0.18322476744651794,0.1880459040403366
0.8,0.07775050401687622,0.015779536217451096,0.0,0.6698662042617798,0.0,0.0,-0.7424818277359009,0.09406721591949463,0.05267917737364769,0.0,0.0,0.0,1.682803988456726,0.34296056628227234,0.7397550940513611,0.4200000464916229,0.6019662618637085,2.951763633518567e-07,-2.9960915526316967e-06,-0.7985213994979858,0.00013671501073986292,-0.000276740436675027,-9.474344551563263e-05,0.006180476862937212,-0.0011040017707273364,-0.0006278613582253456,0.39539259672164917,0.7549974918365479,0.5585633516311646,0.27008315920829773,-0.16073565185070038,0.21011494100093842,0.3369072377681732,0.7433868646621704,0.42000001668930054,-0.6053505539894104,1.4053637981414795,-1.532131552696228,-3.000000238418579,-0.17149697244167328,-0.16871576011180878,-0.1643219143152237,-0.1589895337820053,0.05388742685317993,0.07728943973779678,0.09089736640453339,0.1025761216878891
0.8166666666666667,0.07711199671030045,0.012831350788474083,0.0,0.6639886498451233,0.0,0.0,-0.7477426528930664,-0.0825079008936882,-0.18035341799259186,0.0,0.0,0.0,-1.7636232376098633,0.34296053647994995,0.7397550940513611,0.4200000464916229,0.6019662618637085,3.7325355606299127e-07,-3.1913241400616243e-06,-0.7985214591026306,0.0001345187920378521,-0.0002767050755210221,-9.424728341400623e-05,0.0061917235143482685,-0.0011305223451927304,-0.000622884719632566,0.400684654712677,0.7520877122879028,0.5609431266784668,0.3028031885623932,-0.2938111424446106,0.21016770601272583,0.3369072377681732,0.7433868646621704,0.42000001668930054,-0.6140170097351074,-2.1310620307922363,-1.4933178424835205,3.0,-0.169169083237648,-0.1662580966949463,-0.16185130178928375,-0.15649138391017914,0.023192528635263443,0.054977111518383026,0.07899979501962662,0.1022418886423111
0.8333333333333334,0.07790804654359818,0.013470431789755821,0.0,0.6688821911811829,0.0,0.0,-0.7433684468269348,0.0889161229133606,0.06178119778633118,0.0,0.0,0.0,1.5440412759780884,0.34296056628227234,0.7397550940513611,0.4200000464916229,0.6019662022590637,4.388000149901927e-07,-2.9995562726981007e-06,-0.7985214591026306,0.00013890641275793314,-0.0002772349107544869,-9.514717385172844e-05,0.006181095726788044,-0.0010774948168545961,-0.0006329640164040029,0.40642932057380676,0.7463964819908142,0.5657411217689514,0.42855319380760193,-0.30490362644195557,0.40580761432647705,0.3369072377681732,0.7433868646621704,0.42000001668930054,-0.6232119202613831,0.7829268574714661,-1.5096075534820557,-2.999999761581421,-0.17006008327007294,-0.16644974052906036,-0.161409392952919,-0.15538406372070312,0.03102133423089981,0.0540962852537632,0.0781438797712326,0.1087217628955841
0.85,0.07738563418388367,0.010916022583842278,0.0,0.662433385848999,0.0,0.0,-0.749120831489563,-0.08738923072814941,-0.17484691739082336,0.0,0.0,0.0,-1.8493859767913818,0.34296056628227234,0.7397550940513611,0.4200000464916229,0.601966381072998,2.9637951115546457e-07,-3.175361143803457e-06,-0.7985213994979858,0.0001359385350951925,-0.00027693770243786275,-9.453902021050453e-05,0.00618963735178113,-0.0011138648260384798,-0.0006262677488848567,0.41479870676994324,0.7417770624160767,0.5719043016433716,0.5219451785087585,-0.34544605016708374,0.45955201983451843,0.3369072377681732,0.7433868646621704,0.42000001668930054,-0.6290066838264465,-1.2936044931411743,-1.470858097076416,2.999999523162842,-0.16829673945903778,-0.16457802057266235,-0.15938840806484222,-0.15308324992656708,0.02717326395213604,0.048645876348018646,0.07116363197565079,0.0992911159992218
0.8666666666666667,0.07812457531690598,0.011594971641898155,0.0,0.6673043966293335,0.0,0.0,-0.7447850704193115,0.08709201961755753,0.0671515092253685,0.0,0.0,0.0,1.5155819654464722,0.34296056628227234,0.7397550940513611,0.4200000464916229,0.6019665598869324,4.295282565180969e-07,-3.1783629310666583e-06,-0.7985212802886963,0.0001367575750919059,-0.0002759400231298059,-9.476533159613609e-05,0.006160877179354429,-0.0010994853219017386,-0.0006276043714024127,0.42267510294914246,0.7359720468521118,0.5810264945030212,0.48126721382141113,-0.2681806981563568,0.6676592826843262,0.3369072377681732,0.7433868646621704,0.42000001668930054,-0.62314772605896,1.7301123142242432,-1.487610101699829,-3.000000476837158,-0.1688505858182907,-0.16472280025482178,-0.15909115970134735,-0.1522502452135086,0.05863804370164871,0.05877455696463585,0.06335834413766861,0.07590339332818985
0.8833333333333333,0.07729917764663696,0.01168585941195488,0.0,0.6606636047363281,0.0,0.0,-0.7506821155548096,-0.08558182418346405,0.042032305151224136,0.0,0.0,0.0,-1.902321696281433,0.34296053647994995,0.7397550940513611,0.4200000464916229,0.6019663214683533,4.205696768622147e-07,-3.09559800371062e-06,-0.7985214591026306,0.00013517697516363114,-0.0002762849908322096,-9.442050941288471e-05,0.006177810952067375,-0.0011209251824766397,-0.0006241897935979068,0.43093061447143555,0.7337358593940735,0.5919779539108276,0.44925451278686523,-0.11633817851543427,0.7637634873390198,0.3369072377681732,0.7433868646621704,0.42000001668930054,-0.6066080927848816,0.35966581106185913,-1.448923110961914,3.000000476837158,-0.16584904491901398,-0.1623699814081192,-0.15727628767490387,-0.15079930424690247,0.12628793716430664,0.09153992682695389,0.061352215707302094,0.039085689932107925
0.9,0.07440256327390671,0.01424938254058361,0.0,0.6657264232635498,0.0,0.0,-0.746195912361145,-0.2244873195886612,0.22520959377288818,0.0,0.0,0.0,1.5968636274337769,0.34296056628227234,0.7397550940513611,0.4200000464916229,0.6019662618637085,4.357502234597632e-07,-3.0896248972567264e-06,-0.7985214591026306,0.00013939682685304433,-0.00027719943318516016,-9.527476504445076e-05,0.006177487783133984,-0.0010717370314523578,-0.0006340455147437751,0.43636947870254517,0.7318031787872314,0.6049458384513855,0.2146071046590805,-0.06349798291921616,0.8433579206466675,0.3369072377681732,0.7433868646621704,0.42000001668930054,-0.5786391496658325,2.764672040939331,-1.4661102294921875,-2.999999761581421,-0.1634095013141632,-0.16062802076339722,-0.15616247057914734,-0.15019802749156952,0.16739322245121002,0.11952711641788483,0.0739387795329094,0.03324270248413086
