vladlanda/robotic-transformer/data/env_000_episode_0030.csv
sim_time_s,robot_box_x,robot_box_y,robot_box_z,robot_box_quat_w,robot_box_quat_x,robot_box_quat_y,robot_box_quat_z,robot_box_linvel_x,robot_box_linvel_y,robot_box_linvel_z,robot_box_angvel_x,robot_box_angvel_y,robot_box_angvel_z,cube_world_x,cube_world_y,cube_world_z,cube_quat_w,cube_quat_x,cube_quat_y,cube_quat_z,cube_linvel_x,cube_linvel_y,cube_linvel_z,cube_angvel_x,cube_angvel_y,cube_angvel_z,endpoint_world_x,endpoint_world_y,endpoint_world_z,endpoint_linvel_x,endpoint_linvel_y,endpoint_linvel_z,target_cube_world_x,target_cube_world_y,target_cube_world_z,gripper_actual_pos_rad_gp_leftgearjoint,gripper_actual_vel_rad_s_gp_leftgearjoint,gripper_actual_pos_rad_gp_rotatingjoint,gripper_actual_vel_rad_s_gp_rotatingjoint,motor_angle_rad_joint1,motor_angle_rad_joint2,motor_angle_rad_joint3,motor_angle_rad_joint4,motor_speed_rad_s_joint1,motor_speed_rad_s_joint2,motor_speed_rad_s_joint3,motor_speed_rad_s_joint4
0.0,0.0,0.0,0.0,1.0,0.0,0.0,0.0,0.0,0.0,0.0,0.0,0.0,0.0,-0.38699889183044434,0.774730920791626,0.41999998688697815,1.0,0.0,0.0,0.0,0.0,0.0,0.0,0.0,0.0,0.0,3.42540442943573e-06,-0.005000244826078415,1.313499927520752,0.0,0.0,0.0,0.3620436489582062,0.7588295340538025,0.42000001668930054,-1.5707999467849731,0.0,0.0,0.0,0.0,0.0,0.0,0.0,0.0,0.0,0.0,0.0
0.016666666666666666,0.0028786035254597664,0.0021798470988869667,0.0,0.9998099207878113,0.0,0.0,0.019496779888868332,0.24089457094669342,0.1823776364326477,0.0,0.0,0.0,3.141849994659424,-0.3869990110397339,0.7747306227684021,0.41999998688697815,1.0,3.279964630564791e-06,-8.339746386809566e-07,8.465587342243452e-08,-1.9833529222523794e-05,0.00017983045836444944,-6.132945418357849e-05,0.0009432713268324733,-0.004689474124461412,-0.00031981561915017664,-0.007110148668289185,0.0033822853583842516,1.3159375190734863,-0.8142576813697815,0.9869556427001953,0.1809539496898651,0.3620436489582062,0.7588295340538025,0.42000001668930054,-1.5301095247268677,3.000002384185791,-0.045848120003938675,-3.0,0.0008698438759893179,0.0007964034448377788,0.0007110637379810214,0.0006109153619036078,0.11093410849571228,0.09757502377033234,0.08335020393133163,0.06824518740177155
0.03333333333333333,0.008962232619524002,0.006800867151468992,0.0,0.9997978210449219,0.0,0.0,0.0201074481010437,0.4070758521556854,0.3152947425842285,0.0,0.0,0.0,-0.8690521717071533,-0.38699913024902344,0.7747305631637573,0.4200000464916229,1.0,3.390805204617209e-06,-2.132404688381939e-06,-3.708747797759315e-08,0.0002635775599628687,0.0002693787682801485,-0.0001050964929163456,-0.0017706695944070816,0.004130705259740353,-0.00013547964044846594,-0.026403190568089485,0.026350222527980804,1.3167439699172974,-1.4617712497711182,1.6234726905822754,-0.06689564883708954,0.3620436489582062,0.7588295340538025,0.42000001668930054,-1.4800902605056763,3.0000007152557373,-0.09588795900344849,-3.000000476837158,0.0028667105361819267,0.0024847397580742836,0.0020651472732424736,0.001604486140422523,0.1492677927017212,0.1202429011464119,0.08971794694662094,0.057622265070676804
0.05,0.018475782126188278,0.01390830334275961,0.0,0.9999760389328003,0.0,0.0,-0.006923056673258543,0.636397123336792,0.47252053022384644,0.0,0.0,0.0,-4.072753429412842,-0.3869991600513458,0.7747306227684021,0.4200000464916229,1.0,3.7651225284207612e-06,-2.211832452303497e-06,5.631207500300661e-09,0.0002653110132087022,0.000266915129031986,-0.00010440382175147533,-0.0017243130132555962,0.00417749211192131,-0.00012949398660566658,-0.053086720407009125,0.05819091945886612,1.3128663301467896,-1.7540931701660156,2.1218671798706055,-0.39083755016326904,0.3620436489582062,0.7588295340538025,0.42000001668930054,-1.4300719499588013,3.000001907348633,-0.14592665433883667,-3.0000011920928955,0.005479875952005386,0.004502769093960524,0.0034533909056335688,0.0023276086430996656,0.17437399923801422,0.1286279857158661,0.08095535635948181,0.03130102530121803
0.06666666666666667,0.030796706676483154,0.02340063452720642,0.0,0.9998799562454224,0.0,0.0,-0.01549327652901411,0.7727410197257996,0.616336464881897,0.0,0.0,0.0,-0.03648492321372032,-0.3869991600513458,0.7747305631637573,0.4200000464916229,0.9999999403953552,3.4066986245306907e-06,-2.2855422230350086e-06,4.301130900330463e-07,0.0002670245012268424,0.00026791836717166007,-0.0001043803058564663,-0.0017406563274562359,0.004211660008877516,-0.00012850432540290058,-0.08581870794296265,0.09261107444763184,1.3040556907653809,-2.041004180908203,2.169863700866699,-0.6578881740570068,0.3620436489582062,0.7588295340538025,0.42000001668930054,-1.3800498247146606,3.0000007152557373,-0.17630301415920258,-0.8139497637748718,0.007483202964067459,0.005682211834937334,0.00376856024377048,0.0017377162585034966,0.09708161652088165,0.03961927443742752,-0.019999748095870018,-0.08181183785200119
0.08333333333333333,0.036832842975854874,0.036776263266801834,0.0,0.9992252588272095,0.0,0.0,-0.039355698972940445,0.22711247205734253,0.8759427070617676,0.0,0.0,0.0,-3.8078572750091553,-0.3869991600513458,0.7747305631637573,0.4200000464916229,1.0,3.697237389133079e-06,-2.188894086430082e-06,-2.632152131809562e-07,0.000263897207332775,0.0002658645680639893,-0.00010433699935674667,-0.0017081270925700665,0.00415023323148489,-0.0001299154246225953,-0.11479999870061874,0.13324055075645447,1.290619134902954,-1.4606459140777588,2.705148458480835,-0.8758246898651123,0.3620436489582062,0.7588295340538025,0.42000001668930054,-1.330042839050293,3.000000476837158,-0.22326631844043732,-2.999999523162842,0.0028243581764400005,0.00023573443468194455,-0.0025197432842105627,-0.005450124852359295,-0.4067636728286743,-0.46627697348594666,-0.5285384058952332,-0.5937802195549011
0.1,0.04669538512825966,0.051732324063777924,0.0,0.9958702325820923,0.0,0.0,-0.0907881110906601,0.7374523878097534,0.9041885733604431,0.0,0.0,0.0,-6.964837551116943,-0.3869991600513458,0.7747305631637573,0.4200000464916229,0.9999999403953552,3.6202645787852816e-06,-2.2652204734185943e-06,1.7464172685777157e-07,0.00026676952256821096,0.00026740870089270175,-0.0001040799543261528,-0.0017386189429089427,0.004209231119602919,-0.0001277522387681529,-0.1392190158367157,0.18022215366363525,1.27678644657135,-1.4776036739349365,2.9633731842041016,-0.8433396816253662,0.3620436489582062,0.7588295340538025,0.42000001668930054,-1.2800238132476807,2.9999969005584717,-0.21119356155395508,2.9999988079071045,0.0003901717427652329,-0.0037860891316086054,-0.008132252842187881,-0.012656246311962605,-0.06274551153182983,-0.16836433112621307,-0.2729246914386749,-0.37633591890335083
0.11666666666666667,0.05465846136212349,0.06669142842292786,0.0,0.9924748539924622,0.0,0.0,-0.12244866788387299,0.5043523907661438,0.9149242639541626,0.0,0.0,0.0,-2.5566940307617188,-0.3869991600513458,0.7747305631637573,0.4200000464916229,1.0,3.798244051722577e-06,-2.2627962152910186e-06,-1.50183694813677e-07,0.000263741152593866,0.00026566089945845306,-0.00010428996756672859,-0.0017054296331480145,0.004147564060986042,-0.00012979822349734604,-0.1681540310382843,0.22635099291801453,1.2620421648025513,-1.7171800136566162,2.9464058876037598,-0.8416592478752136,0.3620436489582062,0.7588295340538025,0.42000001668930054,-1.2303951978683472,2.928550958633423,-0.24253776669502258,-3.0000007152557373,-0.003500640159472823,-0.009264946915209293,-0.015174918808043003,-0.021238092333078384,-0.1357225775718689,-0.2517257630825043,-0.3642275333404541,-0.47302430868148804
0.13333333333333333,0.06057451292872429,0.0813586488366127,0.0,0.9865309596061707,0.0,0.0,-0.16357456147670746,0.2971797585487366,0.8597214818000793,0.0,0.0,0.0,-5.8135762214660645,-0.3869991600513458,0.7747306227684021,0.4200000464916229,0.9999999403953552,3.55031761500868e-06,-2.2298022486211266e-06,2.929353684066882e-07,0.0002670320973265916,0.0002677934244275093,-0.00010417005978524685,-0.0017440698575228453,0.004213511943817139,-0.00012799800606444478,-0.19526445865631104,0.27992135286331177,1.2460062503814697,-1.464012861251831,3.562351703643799,-1.1075103282928467,0.3620436489582062,0.7588295340538025,0.42000001668930054,-1.1814707517623901,2.902184009552002,-0.2085275650024414,3.0000007152557373,-0.0066632675006985664,-0.01436167024075985,-0.022131526842713356,-0.02997695282101631,-0.2555134892463684,-0.3623600900173187,-0.46465373039245605,-0.5622280240058899
0.15,0.06268275529146194,0.09689029306173325,0.0,0.9815617799758911,0.0,0.0,-0.19114507734775543,0.04561423137784004,0.9832062721252441,0.0,0.0,0.0,-2.0736281871795654,-0.38699913024902344,0.7747305631637573,0.4200000464916229,1.0,3.332025926283677e-06,-2.1019659470766783e-06,1.313283775061791e-07,0.00026730605168268085,0.00026859392528422177,-0.00010459637269377708,-0.0017496388172730803,0.004215574357658625,-0.00012928410433232784,-0.22615882754325867,0.337618350982666,1.2225762605667114,-1.9827027320861816,3.5722849369049072,-1.694762945175171,0.3620436489582062,0.7588295340538025,0.42000001668930054,-1.1560717821121216,0.34832197427749634,-0.2399006187915802,-2.999999523162842,-0.01203647255897522,-0.021195324137806892,-0.030338404700160027,-0.03946784883737564,-0.3850768804550171,-0.4505186975002289,-0.5109303593635559,-0.5662761330604553
0.16666666666666666,0.06963762640953064,0.10954360663890839,0.0,0.9729763865470886,0.0,0.0,-0.2309047132730484,0.49699240922927856,0.71612948179245,0.0,0.0,0.0,-5.571386814117432,-0.3869991600513458,0.7747305631637573,0.4200000464916229,1.0,3.7371282815001905e-06,-2.233031636933447e-06,-1.8763215337003203e-07,0.000264328729826957,0.0002662690822035074,-0.00010445667430758476,-0.0017118192045018077,0.004157449118793011,-0.00013001686602365226,-0.25769492983818054,0.4037925899028778,1.1898330450057983,-1.725313663482666,4.390652656555176,-2.3356704711914062,0.3620436489582062,0.7588295340538025,0.42000001668930054,-1.1164101362228394,3.000001907348633,-0.2899070680141449,-3.0,-0.01517421007156372,-0.02550605684518814,-0.03573375567793846,-0.04585959389805794,-0.3434765338897705,-0.377429723739624,-0.408110111951828,-0.43560609221458435
0.18333333333333332,0.07130144536495209,0.12409624457359314,0.0,0.9675456881523132,0.0,0.0,-0.2526961863040924,0.06611083447933197,0.853861391544342,0.0,0.0,0.0,-1.4484623670578003,-0.3869991600513458,0.7747306227684021,0.4200000464916229,0.9999999403953552,3.6600679322873475e-06,-2.302136635989882e-06,2.528700520088023e-07,0.00026690925005823374,0.0002676027943380177,-0.0001041253563016653,-0.0017412796150892973,0.0042115445248782635,-0.00012787021114490926,-0.2916088104248047,0.47154271602630615,1.1418148279190063,-1.9712998867034912,4.17512845993042,-3.2143518924713135,0.3620436489582062,0.7588295340538025,0.42000001668930054,-1.080151915550232,1.4534573554992676,-0.3399239480495453,-3.000000476837158,-0.027674460783600807,-0.03777720779180527,-0.04743294045329094,-0.05699652433395386,-0.6727206707000732,-0.68516606092453,-0.6558563113212585,-0.6255133748054504
0.2,0.0765475258231163,0.13891682028770447,0.0,0.9581410884857178,0.0,0.0,-0.2862965166568756,0.3122301697731018,0.9578922390937805,0.0,0.0,0.0,-5.071412086486816,-0.3869991600513458,0.7747305631637573,0.4200000464916229,1.0,3.5906386983697303e-06,-2.3002876332611777e-06,1.387365955451969e-07,0.0002665475767571479,0.0002673207491170615,-0.00010424014180898666,-0.0017325275111943483,0.004203495569527149,-0.00012820970732718706,-0.32324111461639404,0.5429356098175049,1.0836865901947021,-1.6756815910339355,4.362443923950195,-3.8103535175323486,0.3620436489582062,0.7588295340538025,0.42000001668930054,-1.0339770317077637,3.0000009536743164,-0.38995036482810974,-3.000000238418579,-0.03838454931974411,-0.04855566844344139,-0.05771655961871147,-0.06677751243114471,-0.8068243861198425,-0.7791302800178528,-0.7261191010475159,-0.6745444536209106
0.21666666666666667,0.07866277545690536,0.1515682488679886,0.0,0.9531949162483215,0.0,0.0,-0.3023565709590912,0.08618072420358658,0.6789970397949219,0.0,0.0,0.0,-0.9781232476234436,-0.3869991600513458,0.7747306227684021,0.4200000464916229,1.0,3.6067460769118043e-06,-2.260896735606366e-06,1.9630940428783106e-08,0.0002644705818966031,0.0002655840362422168,-0.00010396447032690048,-0.0017087544547393918,0.004164231941103935,-0.00012832245556637645,-0.35196417570114136,0.6108858585357666,1.010360836982727,-1.4788525104522705,4.019073009490967,-4.854696273803711,0.3620436489582062,0.7588295340538025,0.42000001668930054,-0.9839738011360168,3.000000238418579,-0.4399752914905548,-3.0,-0.05341799557209015,-0.06325027346611023,-0.07123827189207077,-0.07876650243997574,-0.9118513464927673,-0.8819936513900757,-0.8058345913887024,-0.7042951583862305
0.23333333333333334,0.07679854333400726,0.16551169753074646,0.0,0.9437686204910278,0.0,0.0,-0.33060669898986816,-0.17875783145427704,0.854248046875,0.0,0.0,0.0,-4.404734134674072,-0.38699913024902344,0.7747305631637573,0.4200000464916229,0.9999999403953552,3.742040007637115e-06,-2.2273377453529974e-06,4.589223294715339e-07,0.00026475079357624054,0.00026671396335586905,-0.0001045342069119215,-0.001718980842269957,0.004165731370449066,-0.00013019278412684798,-0.3743714988231659,0.6747041940689087,0.9224420785903931,-1.135746955871582,3.6333179473876953,-5.557619094848633,0.3620436489582062,0.7588295340538025,0.42000001668930054,-0.9339649677276611,2.999998092651367,-0.49000218510627747,-2.9999992847442627,-0.06930901855230331,-0.0791710838675499,-0.08713053166866302,-0.09376747161149979,-0.969386100769043,-0.960303544998169,-0.9543132185935974,-0.9077165126800537
0.25,0.0794362798333168,0.174322247505188,0.0,0.9396983981132507,0.0,0.0,-0.34200432896614075,0.16133876144886017,0.43601498007774353,0.0,0.0,0.0,-0.3871496915817261,-0.3869991600513458,0.7747305631637573,0.4200000464916229,1.0,3.3941641959245317e-06,-2.2818860543338815e-06,1.336301380661098e-07,0.0002667922817636281,0.0002679384488146752,-0.00010439474135637283,-0.0017417253693565726,0.004206556361168623,-0.00012884114403277636,-0.39440736174583435,0.7266896963119507,0.8252525329589844,-0.970075249671936,2.659541130065918,-6.15107536315918,0.3620436489582062,0.7588295340538025,0.42000001668930054,-0.883955180644989,2.9999959468841553,-0.5400311946868896,-2.9999988079071045,-0.08306262642145157,-0.09251222759485245,-0.09997154027223587,-0.10562333464622498,-0.9796351194381714,-0.9766320586204529,-0.9008011817932129,-0.79999840259552
0.26666666666666666,0.07742486894130707,0.18001559376716614,0.0,0.9308025240898132,0.0,0.0,-0.3655223846435547,-0.2173261046409607,0.28912851214408875,0.0,0.0,0.0,-3.8949992656707764,-0.3869991600513458,0.7747306227684021,0.4200000464916229,1.0,3.683193199321977e-06,-2.309913497811067e-06,2.101072880122956e-07,0.0002647913643158972,0.0002662580809555948,-0.00010421057231724262,-0.0017168582417070866,0.0041689565405249596,-0.00012909348879475147,-0.4063069224357605,0.7622164487838745,0.7166321873664856,-0.40342918038368225,1.6364458799362183,-6.679865837097168,0.3620436489582062,0.7588295340538025,0.42000001668930054,-0.8339449763298035,3.0,-0.5900609493255615,-2.999999761581421,-0.09989918023347855,-0.10921135544776917,-0.11656327545642853,-0.1221303641796112,-0.9928507804870605,-0.9943556785583496,-0.9945071935653687,-0.9912025928497314
0.2833333333333333,0.07908448576927185,0.18155695497989655,0.0,0.9284071922302246,0.0,0.0,-0.3715643584728241,0.06357181072235107,0.034356046468019485,0.0,0.0,0.0,0.14826998114585876,-0.3869991600513458,0.7747305631637573,0.4200000464916229,1.0,3.3066860396502307e-06,-2.2123508642835077e-06,2.6256594765072805e-07,0.00026660787989385426,0.00026745101786218584,-0.00010424572974443436,-0.0017352577997371554,0.004204442724585533,-0.00012828593025915325,-0.4119555950164795,0.7801802158355713,0.6042368412017822,-0.10630864650011063,0.42863771319389343,-6.795086860656738,0.3620436489582062,0.7588295340538025,0.42000001668930054,-0.7839361429214478,2.9999871253967285,-0.6400907039642334,-2.999999761581421,-0.11592892557382584,-0.12499039620161057,-0.13222546875476837,-0.13770954310894012,-1.0000004768371582,-0.999801516532898,-0.9995154142379761,-0.9989700317382812
0.3,0.07608181238174438,0.18084323406219482,0.0,0.9208354353904724,0.0,0.0,-0.3899514377117157,-0.2642488181591034,-0.07847525924444199,0.0,0.0,0.0,-3.2792739868164062,-0.3869991600513458,0.7747305631637573,0.4200000464916229,1.0,3.641024932221626e-06,-2.377741111558862e-06,-4.1939159700632445e-07,0.0002661148027982563,0.00026725901989266276,-0.00010423362255096436,-0.0017336049349978566,0.004194726701825857,-0.0001285561011172831,-0.4072452783584595,0.7809305191040039,0.4955902397632599,0.6812828779220581,-0.2961678206920624,-6.089482307434082,0.3620436489582062,0.7588295340538025,0.42000001668930054,-0.7339274287223816,2.999999761581421,-0.6901184320449829,-3.000002861022949,-0.1340496987104416,-0.14277338981628418,-0.14975303411483765,-0.1550348699092865,-1.0180000066757202,-1.0136054754257202,-1.0102487802505493,-1.007562518119812
0.31666666666666665,0.06908854097127914,0.1786365509033203,0.0,0.9201714396476746,0.0,0.0,-0.3915156126022339,-0.46132346987724304,-0.1654803454875946,0.0,0.0,0.0,0.7388399243354797,-0.3869991600513458,0.7747306227684021,0.4200000464916229,1.0,3.621596988523379e-06,-2.2888571038492955e-06,1.9691172781222122e-07,0.0002673400449566543,0.0002680283214431256,-0.00010420801118016243,-0.0017466888530179858,0.00421897554770112,-0.00012793613132089376,-0.3939959704875946,0.7728996276855469,0.4029195308685303,0.9865248203277588,-0.7002257108688354,-5.172995090484619,0.3620436489582062,0.7588295340538025,0.42000001668930054,-0.6839205026626587,3.000001907348633,-0.7401441335678101,-2.999999523162842,-0.15169084072113037,-0.16018763184547424,-0.16699901223182678,-0.17214971780776978,-1.011015772819519,-1.008374810218811,-1.006349802017212,-1.004717469215393
0.3333333333333333,0.06046202406287193,0.17383378744125366,0.0,0.9300240278244019,0.0,0.0,-0.3674987256526947,-0.48598796129226685,-0.3711684048175812,0.0,0.0,0.0,3.9746410846710205,-0.38714805245399475,0.7741463780403137,0.4203353822231293,0.9999626874923706,0.007758522871881723,-0.0007136717904359102,-0.003715293947607279,0.0031999126076698303,0.00669551407918334,-0.009087854065001011,0.22310346364974976,0.6681832075119019,0.5807471871376038,-0.3971409499645233,0.7771813869476318,0.4266960322856903,-0.19185547530651093,0.4046093225479126,-0.10706663131713867,0.3620436489582062,0.7588295340538025,0.42000001668930054,-0.6341265439987183,3.0000014305114746,-0.7904736399650574,-2.993990182876587,-0.1509542167186737,-0.1614905148744583,-0.16990482807159424,-0.17608530819416046,0.06425803899765015,-0.07142233103513718,-0.1887844204902649,-0.2798447608947754
0.35,0.050647884607315063,0.16612353920936584,0.0,0.9329478740692139,0.0,0.0,-0.3600115478038788,-0.6289970874786377,-0.5011664628982544,0.0,0.0,0.0,-0.020406559109687805,-0.3871101140975952,0.7741183042526245,0.4200023114681244,0.9996973276138306,0.00011823778186226264,-5.111524660605937e-05,-0.02460033819079399,0.09195268154144287,-0.15395894646644592,-0.0059574805200099945,-0.28651508688926697,0.12959431111812592,-7.507064342498779,-0.39793503284454346,0.7779604196548462,0.4244191646575928,0.13283579051494598,-0.12830257415771484,-0.10316243022680283,0.3620436489582062,0.7588295340538025,0.42000001668930054,-0.5841209888458252,2.998260498046875,-0.8405030965805054,-3.0000009536743164,-0.1530972123146057,-0.16439631581306458,-0.17329220473766327,-0.1795864850282669,-0.26739150285720825,-0.23510034382343292,-0.18894153833389282,-0.12606754899024963
0.36666666666666664,0.038466233760118484,0.1562209278345108,0.0,0.9248778223991394,0.0,0.0,-0.38026443123817444,-0.7792256474494934,-0.6339712142944336,0.0,0.0,0.0,-3.606680154800415,-0.3833323121070862,0.7743491530418396,0.42000019550323486,0.9961103200912476,-5.343434622773202e-06,-1.8758240912575275e-05,-0.088113933801651,0.3489125072956085,0.18277983367443085,-0.0004866915987804532,0.01039518415927887,0.014699913561344147,-12.84083366394043,-0.39267244935035706,0.7794619798660278,0.4220629334449768,0.5073755383491516,0.29110169410705566,-0.09966208785772324,0.3620436489582062,0.7588295340538025,0.42000001668930054,-0.5341160893440247,3.000001907348633,-0.8905328512191772,-3.000002384185791,-0.15864676237106323,-0.1688297539949417,-0.1763596534729004,-0.18101181089878082,-0.3558273911476135,-0.26019808650016785,-0.1502537578344345,-0.025440575554966927
0.3833333333333333,0.02806883677840233,0.14354760944843292,0.0,0.9058696031570435,0.0,0.0,-0.4235566556453705,-0.5790190100669861,-0.8101416826248169,0.0,0.0,0.0,-6.590836524963379,-0.3735770285129547,0.7810970544815063,0.42014002799987793,0.9731478095054626,0.003447542665526271,-0.00040845730109140277,-0.23015457391738892,0.7637403011322021,0.5645618438720703,0.05265430733561516,2.61419677734375,-0.9519698023796082,-22.547449111938477,-0.3815486431121826,0.7879829406738281,0.4216357469558716,0.93495774269104,0.8252555131912231,0.03319524973630905,0.3620436489582062,0.7588295340538025,0.42000001668930054,-0.4841115176677704,3.000000476837158,-0.9405713677406311,-2.9999215602874756,-0.16585330665111542,-0.173858642578125,-0.17895978689193726,-0.18094807863235474,-0.4570905268192291,-0.30419182777404785,-0.1372951716184616,0.041678447276353836
0.4,0.021476291120052338,0.12789471447467804,0.0,0.8725660443305969,0.0,0.0,-0.48849618434906006,-0.3214120864868164,-0.9904404282569885,0.0,0.0,0.0,-9.492844581604004,-0.3436179459095001,0.8075366020202637,0.4220481812953949,0.9691520929336548,0.005684904288500547,-0.02343972772359848,-0.24528007209300995,2.695812463760376,2.2695515155792236,0.13665898144245148,-1.2350492477416992,-2.8443894386291504,-7.16167688369751,-0.34996604919433594,0.8113563656806946,0.42329996824264526,2.9127352237701416,2.0890755653381348,0.21492275595664978,0.3620436489582062,0.7588295340538025,0.42000001668930054,-0.43411576747894287,3.0000007152557373,-0.9906017184257507,-2.9999446868896484,-0.17572912573814392,-0.1802336871623993,-0.181685209274292,-0.17994681000709534,-0.6409091353416443,-0.40165314078330994,-0.15871259570121765,0.08232752233743668
0.4166666666666667,0.012301696464419365,0.11800683289766312,0.0,0.8206544518470764,0.0,0.0,-0.5714247822761536,-0.7146909832954407,-0.5427533388137817,0.0,0.0,0.0,-12.375224113464355,-0.2691282629966736,0.8458703756332397,0.4274286925792694,0.9501103758811951,0.052855752408504486,-0.052592046558856964,-0.3028704822063446,5.774873733520508,2.8746721744537354,0.308634489774704,28.361398696899414,-17.304162979125977,1.8162893056869507,-0.2752702832221985,0.8514732718467712,0.4285067021846771,5.574845790863037,2.762953042984009,0.4876978397369385,0.3620436489582062,0.7588295340538025,0.42000001668930054,-0.3950836658477783,1.3441191911697388,-0.9531325697898865,2.9963929653167725,-0.1918984055519104,-0.19417975842952728,-0.19029751420021057,-0.18314650654792786,-0.7606160044670105,-0.8008620142936707,-0.5584955811500549,-0.27349406480789185
0.43333333333333335,0.006060493178665638,0.10849717259407043,0.0,0.7762712240219116,0.0,0.0,-0.6303991079330444,-0.3037210702896118,-0.5267565846443176,0.0,0.0,0.0,-7.717199802398682,-0.1730518639087677,0.8891632556915283,0.43552348017692566,0.9141821265220642,0.08932261914014816,-0.07120837271213531,-0.38887250423431396,6.274841785430908,1.7912451028823853,0.5122610330581665,3.3302512168884277,-8.755473136901855,18.110082626342773,-0.1780523955821991,0.8968677520751953,0.43655145168304443,6.0759782791137695,2.400331974029541,0.5179592370986938,0.3620436489582062,0.7588295340538025,0.42000001668930054,-0.3787967264652252,0.7241619825363159,-0.9782282710075378,-3.000000476837158,-0.2036009281873703,-0.2057172954082489,-0.19809147715568542,-0.18681959807872772,-0.6970883011817932,-0.6462398767471313,-0.43559393286705017,-0.21754460036754608
0.45,0.003565858118236065,0.10116828978061676,0.0,0.7525293827056885,0.0,0.0,-0.6585586667060852,-0.09357900172472,-0.3083643615245819,0.0,0.0,0.0,-3.18015456199646,-0.07159844785928726,0.9161940217018127,0.4439373314380646,0.8487703800201416,0.10419832170009613,-0.07816559821367264,-0.5124662518501282,5.918104648590088,0.1508519947528839,0.5212092995643616,-10.947562217712402,7.05672550201416,10.922703742980957,-0.07779904454946518,0.9255224466323853,0.44396501779556274,6.138852119445801,1.0447263717651367,0.49020665884017944,0.3620436489582062,0.7588295340538025,0.42000001668930054,-0.3654225766658783,0.7781057953834534,-1.0282505750656128,-2.998932123184204,-0.21693816781044006,-0.21665558218955994,-0.2047387808561325,-0.18924126029014587,-0.8758350610733032,-0.6657944321632385,-0.3809303343296051,-0.10768858343362808
0.4666666666666667,7.556797936558723e-05,0.09314868599176407,0.0,0.7300276756286621,0.0,0.0,-0.683417558670044,-0.2586652338504791,-0.5149564146995544,0.0,0.0,0.0,-4.451995849609375,0.025546908378601074,0.919515073299408,0.44774165749549866,0.7893576622009277,0.07117867469787598,-0.10060394555330276,-0.6014372706413269,5.5652031898498535,-0.7567179203033447,0.1928192526102066,-6.2891435623168945,6.41421365737915,-1.0451319217681885,0.019541198387742043,0.93129563331604,0.4495235085487366,5.752254962921143,-0.3411964774131775,0.28726062178611755,0.3620436489582062,0.7588295340538025,0.42000001668930054,-0.3524344265460968,0.7025803327560425,-1.0782727003097534,-2.9995954036712646,-0.23187808692455292,-0.22739766538143158,-0.21010564267635345,-0.18959079682826996,-0.8860357999801636,-0.6148625016212463,-0.27644479274749756,0.033772822469472885
0.48333333333333334,-0.0016500848578289151,0.08906318992376328,0.0,0.7227306962013245,0.0,0.0,-0.6911298036575317,-0.033199798315763474,-0.14532992243766785,0.0,0.0,0.0,-0.21419426798820496,0.11221281439065933,0.9051567912101746,0.4480077028274536,0.7124834060668945,0.03155623748898506,-0.09734003990888596,-0.694187581539154,4.411046504974365,-1.8005483150482178,-0.18983545899391174,-22.58576202392578,11.629569053649902,8.829266548156738,0.10637921094894409,0.9188119173049927,0.4512178301811218,4.8718695640563965,-1.1134554147720337,0.010803159326314926,0.3620436489582062,0.7588295340538025,0.42000001668930054,-0.34202703833580017,0.4862763583660126,-1.128294825553894,-2.998673677444458,-0.23996420204639435,-0.23905977606773376,-0.2165282666683197,-0.19138666987419128,-0.0220110472291708,-0.6280656456947327,-0.375983864068985,-0.16235285997390747
0.5,0.0002783572126645595,0.08140213042497635,0.0,0.7064477205276489,0.0,0.0,-0.7077652215957642,0.14386272430419922,-0.5064272284507751,0.0,0.0,0.0,-3.6293587684631348,0.18477055430412292,0.8837998509407043,0.4429066777229309,0.6639488935470581,-0.009538991376757622,-0.07743112742900848,-0.743696928024292,4.296682834625244,-2.115567445755005,-0.126516193151474,-9.56784725189209,-1.194844126701355,9.116887092590332,0.18073365092277527,0.8983798027038574,0.4470292627811432,4.060131072998047,-1.502514362335205,-0.38250163197517395,0.3620436489582062,0.7588295340538025,0.42000001668930054,-0.33509135246276855,0.28465208411216736,-1.1783168315887451,-3.0000016689300537,-0.23683056235313416,-0.23994162678718567,-0.21893632411956787,-0.19151568412780762,0.16166095435619354,0.02637200988829136,-0.059915199875831604,0.04733439162373543
0.5166666666666666,0.0008134365198202431,0.0785466730594635,0.0,0.7025591135025024,0.0,0.0,-0.7116253972053528,0.027437245473265648,-0.11061570793390274,0.0,0.0,0.0,0.2712409198284149,0.24827760457992554,0.8535308241844177,0.4356512725353241,0.6076663136482239,-0.04196463152766228,-0.057588037103414536,-0.7909892797470093,3.4915904998779297,-2.312866449356079,-0.21846480667591095,-2.6658201217651367,15.326325416564941,-1.1594834327697754,0.2456165850162506,0.8681865930557251,0.4402579069137573,3.6451809406280518,-1.9409847259521484,-0.5369378328323364,0.3620436489582062,0.7588295340538025,0.42000001668930054,-0.3272142708301544,0.528989851474762,-1.2283389568328857,-2.9988343715667725,-0.2382911592721939,-0.23994335532188416,-0.2218577265739441,-0.19304418563842773,0.028477683663368225,-0.00583905354142189,-0.08539744466543198,-0.07951170206069946
0.5333333333333333,0.0031701456755399704,0.07217403501272202,0.0,0.6894165873527527,0.0,0.0,-0.7243651151657104,0.1675843596458435,-0.42064324021339417,0.0,0.0,0.0,-3.049426794052124,0.3018577992916107,0.8239122629165649,0.42319297790527344,0.5675116181373596,-0.0741986557841301,-0.04343657195568085,-0.8188639879226685,2.636557102203369,-1.6076291799545288,-0.32787084579467773,28.653911590576172,14.840635299682617,-2.8711013793945312,0.3003327548503876,0.838162899017334,0.4281393885612488,2.825809955596924,-1.7937290668487549,-0.7746798992156982,0.3620436489582062,0.7588295340538025,0.42000001668930054,-0.31478044390678406,0.9328557252883911,-1.2783596515655518,-2.997251510620117,-0.23363979160785675,-0.2362097203731537,-0.22035230696201324,-0.1929086148738861,0.3122318685054779,0.277552992105484,0.13265599310398102,0.0044777411967515945
0.55,0.007920143194496632,0.06902259588241577,0.0,0.6886125802993774,0.0,0.0,-0.7251294255256653,0.3147103488445282,-0.14350351691246033,0.0,0.0,0.0,0.7403820753097534,0.3378598988056183,0.8010713458061218,0.42277035117149353,0.5404658913612366,-0.050156980752944946,0.011207128874957561,-0.8397948145866394,1.737673282623291,-1.9320036172866821,0.09831436723470688,-2.9120171070098877,2.761775016784668,12.04720401763916,0.33628880977630615,0.81294846534729,0.4265824556350708,1.7628116607666016,-1.3239730596542358,0.10596027970314026,0.3620436489582062,0.7588295340538025,0.42000001668930054,-0.2962752878665924,1.0200214385986328,-1.3283590078353882,-2.999819278717041,-0.2296314686536789,-0.23246677219867706,-0.21900102496147156,-0.1940789818763733,0.31377992033958435,0.2889304757118225,0.12233249098062515,-0.07227736711502075
0.5666666666666667,0.011745926924049854,0.06312769651412964,0.0,0.6776690483093262,0.0,0.0,-0.7353670001029968,0.17145724594593048,-0.40672221779823303,0.0,0.0,0.0,-2.6161534786224365,0.36179158091545105,0.7828309535980225,0.4218043088912964,0.5427685379981995,-0.03184473514556885,0.007783280219882727,-0.8392422199249268,0.9448840618133545,-1.5428311824798584,0.11293908953666687,-8.63914680480957,1.3466129302978516,16.810827255249023,0.3593704104423523,0.7938507199287415,0.4259260892868042,0.930604100227356,-0.9779464602470398,0.07524528354406357,0.3620436489582062,0.7588295340538025,0.42000001668930054,-0.28393951058387756,0.48445743322372437,-1.2900866270065308,2.999276638031006,-0.22226430475711823,-0.22560860216617584,-0.21516643464565277,-0.1940176784992218,0.4123191237449646,0.4090926945209503,0.24668866395950317,0.02189840003848076
0.5833333333333334,0.016461966559290886,0.060578521341085434,0.0,0.6786906123161316,0.0,0.0,-0.7344242930412292,0.31196585297584534,-0.1141320988535881,0.0,0.0,0.0,0.9625330567359924,0.37237754464149475,0.767526388168335,0.42224007844924927,0.5454741716384888,-0.03730546683073044,0.020224906504154205,-0.837052583694458,0.24738025665283203,-1.041283369064331,0.18920095264911652,-4.414012432098389,5.9757795333862305,8.199990272521973,0.36943119764328003,0.7776925563812256,0.42692244052886963,0.27856433391571045,-0.7261786460876465,0.2552981376647949,0.3620436489582062,0.7588295340538025,0.42000001668930054,-0.2755267322063446,0.5417134165763855,-1.3100731372833252,-2.998783588409424,-0.21698150038719177,-0.22015954554080963,-0.21222317218780518,-0.1948082447052002,0.3949265480041504,0.3857094943523407,0.22052450478076935,-0.022401275113224983
0.6,0.02336234226822853,0.057986751198768616,0.0,0.6683512330055237,0.0,0.0,-0.7438458800315857,0.4621936082839966,-0.1540367603302002,0.0,0.0,0.0,-2.6181845664978027,0.3749637007713318,0.76133131980896,0.42132246494293213,0.5666264891624451,-0.019098088145256042,0.023845840245485306,-0.8234082460403442,-0.11327879130840302,-0.43055465817451477,0.11142438650131226,-1.0003057718276978,4.802204608917236,13.313715934753418,0.3710252046585083,0.7705263495445251,0.4257866144180298,-0.14969295263290405,-0.16313499212265015,-0.013775592669844627,0.3620436489582062,0.7588295340538025,0.42000001668930054,-0.26873257756233215,0.24378028512001038,-1.271860957145691,3.000004768371582,-0.2066422700881958,-0.21092578768730164,-0.20653700828552246,-0.19393210113048553,0.6804285645484924,0.6065160632133484,0.39239951968193054,0.10046365857124329
0.6166666666666667,0.02793707698583603,0.057801175862550735,0.0,0.6699668169021606,0.0,0.0,-0.742391049861908,0.20871171355247498,0.05189923197031021,0.0,0.0,0.0,1.0850095748901367,0.37220630049705505,0.7557648420333862,0.42098379135131836,0.5996518731117249,-0.015201684087514877,0.020128687843680382,-0.7998632788658142,-0.2515120208263397,-0.3350311517715454,-0.017273301258683205,-0.2897670567035675,-0.8713619709014893,2.3667612075805664,0.3674309253692627,0.7661997079849243,0.426605224609375,-0.28965967893600464,-0.19788230955600739,0.1727713793516159,0.3620436489582062,0.7588295340538025,0.42000001668930054,-0.30566155910491943,-3.000000238418579,-1.2919962406158447,-2.999656915664673,-0.19705535471439362,-0.2021973431110382,-0.20086735486984253,-0.19265209138393402,0.5310516357421875,0.4917439818382263,0.32767045497894287,0.08248716592788696
0.6333333333333333,0.032774485647678375,0.06011895462870598,0.0,0.6604505777359009,0.0,0.0,-0.7508695125579834,0.3239162564277649,0.2608318030834198,0.0,0.0,0.0,-2.3995938301086426,0.3710494935512543,0.7533857226371765,0.4219288229942322,0.5923778414726257,-0.03261061757802963,0.01739736646413803,-0.804811954498291,0.04417496174573898,-0.011035059578716755,0.12866349518299103,-2.7404744625091553,3.80437970161438,-2.9237537384033203,0.3667358160018921,0.7679542303085327,0.42965903878211975,0.010849101468920708,0.2555132210254669,0.1971036195755005,0.3620436489582062,0.7588295340538025,0.42000001668930054,-0.34462764859199524,-1.7105058431625366,-1.3419361114501953,-2.998525619506836,-0.18640370666980743,-0.19286076724529266,-0.19463732838630676,-0.1907094568014145,0.653110682964325,0.5651113390922546,0.3812190890312195,0.1311974674463272
0.65,0.03961792588233948,0.0597708560526371,0.0,0.6633522510528564,0.0,0.0,-0.7483072876930237,0.437020868062973,-0.03553023561835289,0.0,0.0,0.0,1.3345352411270142,0.3708451986312866,0.7539454698562622,0.4228339195251465,0.6088566780090332,-0.04557088762521744,0.01413687877357006,-0.7918439507484436,-0.15092521905899048,0.07520531117916107,0.0873902440071106,-2.0831499099731445,-3.9404587745666504,2.175767660140991,0.3652191758155823,0.7713456153869629,0.43291181325912476,-0.21758925914764404,0.12768852710723877,0.19940407574176788,0.3620436489582062,0.7588295340538025,0.42000001668930054,-0.3923884928226471,-2.999988555908203,-1.391938328742981,-2.999880075454712,-0.17522692680358887,-0.18287639319896698,-0.18735149502754211,-0.18724897503852844,0.4542779326438904,0.43613186478614807,0.33078664541244507,0.15355050563812256
0.6666666666666666,0.04840278998017311,0.056185513734817505,0.0,0.6839336156845093,0.0,0.0,-0.7295442223548889,0.5780379772186279,-0.29007863998413086,0.0,0.0,0.0,4.566877365112305,0.3683297038078308,0.7551985383033752,0.42224687337875366,0.622343897819519,-0.0303634200245142,-0.0204125065356493,-0.7818883657455444,-0.15093041956424713,0.07518330961465836,-0.07609547674655914,-2.081458330154419,-3.9383068084716797,2.172197103500366,0.3631284832954407,0.7727940082550049,0.43671610951423645,-0.16527649760246277,0.08486218750476837,0.2647034823894501,0.3620436489582062,0.7588295340538025,0.42000001668930054,-0.4424028992652893,-2.9997880458831787,-1.4419068098068237,-2.9995172023773193,-0.16988229751586914,-0.1768535077571869,-0.18186703324317932,-0.1833864003419876,0.27410057187080383,0.34942692518234253,0.3638507127761841,0.3198298513889313
0.6833333333333333,0.0598863810300827,0.051729340106248856,0.0,0.6933028101921082,0.0,0.0,-0.7206463813781738,0.724270761013031,-0.28985103964805603,0.0,0.0,0.0,0.5095341205596924,0.3661821484565735,0.7559454441070557,0.4205285608768463,0.6257875561714172,-0.0017870417796075344,-0.008861632086336613,-0.7799410820007324,-0.1251007467508316,0.031019411981105804,-0.10221033543348312,5.275918006896973,-1.1042759418487549,-0.3297075629234314,0.36190274357795715,0.7753574848175049,0.441694974899292,-0.04566548019647598,0.14057865738868713,0.3098556399345398,0.3620436489582062,0.7588295340538025,0.42000001668930054,-0.49241122603416443,-2.999826669692993,-1.4919099807739258,-2.9998703002929688,-0.16738158464431763,-0.17258478701114655,-0.17663250863552094,-0.17802773416042328,0.1267189085483551,0.24518482387065887,0.3263063132762909,0.3641219735145569
0.7,0.0730874091386795,0.04453609138727188,0.0,0.680743396282196,0.0,0.0,-0.7325219511985779,0.8247410655021667,-0.5006766319274902,0.0,0.0,0.0,-2.9595370292663574,0.36554908752441406,0.7559550404548645,0.4200001060962677,0.6254724860191345,1.907887281049625e-06,-1.5262688748407527e-06,-0.7802461981773376,0.0007047330145724118,-7.341524178627878e-05,-0.00014059216482564807,1.3262089851195924e-05,0.00703929178416729,0.004456590861082077,0.36435431241989136,0.7788295149803162,0.4531322121620178,0.3350745737552643,0.22199901938438416,1.161965012550354,0.3620436489582062,0.7588295340538025,0.42000001668930054,-0.5424237251281738,-2.9999802112579346,-1.5419281721115112,-2.999999523162842,-0.16753244400024414,-0.1705377846956253,-0.17285001277923584,-0.17312383651733398,-0.07406969368457794,0.06435839086771011,0.1828867495059967,0.27001750469207764
0.7166666666666667,0.08978746831417084,0.04237768426537514,0.0,0.6462193727493286,0.0,0.0,-0.7631517052650452,0.9420560002326965,-0.1630886197090149,0.0,0.0,0.0,-6.2856125831604,0.3655487298965454,0.7559552788734436,0.42000001668930054,0.6254727244377136,1.604859676263004e-06,-4.613104465533979e-06,-0.7802459597587585,0.0002988459018524736,-0.0003000528085976839,-0.00013645505532622337,0.005559682380408049,0.0007135174819268286,-0.0008255088469013572,0.3804703950881958,0.7762393951416016,0.4785838723182678,1.6434452533721924,-0.26810422539711,1.9775880575180054,0.3620436489582062,0.7588295340538025,0.42000001668930054,-0.5924354195594788,-2.9999990463256836,-1.5919438600540161,-3.000000238418579,-0.17670942842960358,-0.17593878507614136,-0.1747758686542511,-0.17213410139083862,-0.40063005685806274,-0.21550729870796204,-0.036838024854660034,0.11916957795619965
0.7333333333333333,0.10271219909191132,0.04158271476626396,0.0,0.6263313889503479,0.0,0.0,-0.779556930065155,0.7233629822731018,-0.05994651839137077,0.0,0.0,0.0,-1.953886866569519,0.36554887890815735,0.7559552788734436,0.4200000464916229,0.6254725456237793,6.793819693484693e-07,-3.542545755408355e-06,-0.7802461385726929,0.00017736545123625547,-0.0002817189088091254,-0.00010089483112096786,0.005811894778162241,-0.0005329636624082923,-0.0005532270879484713,0.40871405601501465,0.7757329940795898,0.5132434368133545,1.7103960514068604,0.18868446350097656,2.1360268592834473,0.3620436489582062,0.7588295340538025,0.42000001668930054,-0.6116978526115417,0.4079592823982239,-1.6419583559036255,-2.999999523162842,-0.1817939281463623,-0.17898309230804443,-0.17586113512516022,-0.17160294950008392,-0.1258678138256073,-0.08008705824613571,-0.03635745868086815,-0.008903819136321545
0.75,0.11133933812379837,0.0425957590341568,0.0,0.6319155097007751,0.0,0.0,-0.7750372886657715,0.4418325424194336,0.10915300995111465,0.0,0.0,0.0,1.7351083755493164,0.36554887890815735,0.7559552788734436,0.4200000464916229,0.6254725456237793,5.462102308229078e-07,-3.375163259988767e-06,-0.7802461385726929,0.00017720938194543123,-0.0002815746411215514,-0.00010099168866872787,0.005808960180729628,-0.0005376060726121068,-0.0005530831404030323,0.43190306425094604,0.7789154052734375,0.5432338714599609,1.013962745666504,0.21044811606407166,1.5219736099243164,0.3620436489582062,0.7588295340538025,0.42000001668930054,-0.5829071402549744,2.8124256134033203,-1.602826714515686,3.0,-0.1825965791940689,-0.17924106121063232,-0.17556895315647125,-0.17099271714687347,0.034538865089416504,0.05422133207321167,0.07499756664037704,0.08277174085378647
0.7666666666666666,0.11551889032125473,0.03931741416454315,0.0,0.6260895729064941,0.0,0.0,-0.7797511219978333,0.22789721190929413,-0.2442888766527176,0.0,0.0,0.0,-1.7435933351516724,0.36554887890815735,0.7559552788734436,0.4200000464916229,0.6254724860191345,5.54207076675084e-07,-3.3841981803561794e-06,-0.7802461981773376,0.00017722652410157025,-0.000281502609141171,-0.00010101194493472576,0.005807133391499519,-0.0005373532185330987,-0.000553125748410821,0.44114071130752563,0.7831735610961914,0.5614256858825684,0.07035048305988312,0.15345852077007294,0.8152554035186768,0.3620436489582062,0.7588295340538025,0.42000001668930054,-0.5442741513252258,1.8740078210830688,-1.5527702569961548,3.0000009536743164,-0.17887763679027557,-0.17562460899353027,-0.17202506959438324,-0.1677069514989853,0.1316353976726532,0.15207120776176453,0.1707981824874878,0.17480193078517914
0.7833333333333333,0.11657994985580444,0.04129112511873245,0.0,0.632648766040802,0.0,0.0,-0.7744388580322266,0.0197333712130785,0.10284437239170074,0.0,0.0,0.0,1.7509006261825562,0.36554887890815735,0.7559552788734436,0.4200000464916229,0.6254727244377136,6.115866426625871e-07,-3.3639958019193728e-06,-0.7802460193634033,0.0001746874040691182,-0.00028224734705872834,-0.0001003076322376728,0.005837808828800917,-0.0005713975988328457,-0.0005477634840644896,0.4376376271247864,0.784302830696106,0.572594165802002,-0.34341439604759216,0.1760990172624588,0.5418642163276672,0.3620436489582062,0.7588295340538025,0.42000001668930054,-0.5013324022293091,2.9999992847442627,-1.5027519464492798,3.0,-0.18132634460926056,-0.176871657371521,-0.17218652367591858,-0.16712789237499237,0.04407139867544174,0.060958024114370346,0.07574494183063507,0.07709094136953354
0.8,0.11536388099193573,0.03936515748500824,0.0,0.6270772218704224,0.0,0.0,-0.7789570689201355,-0.1509583443403244,-0.09908191859722137,0.0,0.0,0.0,-1.5849121809005737,0.36554887890815735,0.7559552788734436,0.4200000464916229,0.6254726648330688,6.33397121418966e-07,-3.727683861143305e-06,-0.7802460193634033,0.00017707108054310083,-0.0002833384205587208,-0.00010069133713841438,0.005851857364177704,-0.0005422336980700493,-0.0005529371555894613,0.42594438791275024,0.7862512469291687,0.5765141248703003,-1.1056888103485107,0.020995989441871643,0.09898900240659714,0.3620436489582062,0.7588295340538025,0.42000001668930054,-0.4812406897544861,-0.31988880038261414,-1.452695608139038,2.9999992847442627,-0.17955350875854492,-0.1749524027109146,-0.17010967433452606,-0.1650542914867401,0.0014388351701200008,0.03549344092607498,0.06964987516403198,0.09386186301708221
0.8166666666666667,0.11561672389507294,0.04236886650323868,0.0,0.6340295672416687,0.0,0.0,-0.7733087539672852,0.047424789518117905,0.15541890263557434,0.0,0.0,0.0,1.684815764427185,0.36554887890815735,0.7559552788734436,0.4200000464916229,0.6254724860191345,5.687176098945201e-07,-3.5780951748165535e-06,-0.7802462577819824,0.00017648960056249052,-0.0002814711187966168,-0.00010082311928272247,0.005810385104268789,-0.0005460598040372133,-0.0005514966323971748,0.41116344928741455,0.7866415977478027,0.5779634714126587,-0.6234763264656067,0.18380388617515564,0.10388931632041931,0.3620436489582062,0.7588295340538025,0.42000001668930054,-0.4752115309238434,0.931180477142334,-1.4698268175125122,-2.9999992847442627,-0.1815713793039322,-0.17624399065971375,-0.17060133814811707,-0.16483242809772491,0.0879724845290184,0.07182823866605759,0.07019918411970139,0.0754147469997406
0.8333333333333334,0.11773118376731873,0.04089794307947159,0.0,0.6276959180831909,0.0,0.0,-0.7784586548805237,0.16157351434230804,-0.106028713285923,0.0,0.0,0.0,-1.8818175792694092,0.36554887890815735,0.7559552788734436,0.4200000464916229,0.6254724264144897,5.717544695471588e-07,-3.5925975225836737e-06,-0.7802462577819824,0.00017661646415945143,-0.0002815124171320349,-0.00010083871893584728,0.005810559261590242,-0.0005444450653158128,-0.0005517649697139859,0.4021374583244324,0.7893615365028381,0.5769717693328857,-0.4891904592514038,0.0653291791677475,-0.059947945177555084,0.3620436489582062,0.7588295340538025,0.42000001668930054,-0.5018485188484192,-3.0000007152557373,-1.4311845302581787,3.000000238418579,-0.17783355712890625,-0.17319373786449432,-0.1679326444864273,-0.16233961284160614,0.1451723873615265,0.12705035507678986,0.12591509521007538,0.1362561732530594
0.85,0.12232708930969238,0.04091032221913338,0.0,0.6331852078437805,0.0,0.0,-0.7740002870559692,0.308404803276062,0.026865258812904358,0.0,0.0,0.0,1.7657968997955322,0.36554887890815735,0.7559552788734436,0.4200000464916229,0.625472366809845,5.451860261018737e-07,-3.608415681810584e-06,-0.7802462577819824,0.0001766287168720737,-0.00028155712061561644,-0.00010083592496812344,0.005811651702970266,-0.0005443794070743024,-0.0005517898825928569,0.398287296295166,0.790081262588501,0.5784423351287842,0.00908394530415535,0.0833502933382988,0.2700001001358032,0.3620436489582062,0.7588295340538025,0.42000001668930054,-0.5445055365562439,-2.1567087173461914,-1.44873046875,-2.999999523162842,-0.17659282684326172,-0.1720156967639923,-0.16649743914604187,-0.16041357815265656,0.1519276201725006,0.13135619461536407,0.1335800290107727,0.15452836453914642
0.8666666666666667,0.1284491866827011,0.0387704111635685,0.0,0.627188503742218,0.0,0.0,-0.7788674831390381,0.3999963402748108,-0.19418290257453918,0.0,0.0,0.0,-1.8379470109939575,0.36554884910583496,0.7559552788734436,0.4200000464916229,0.6254724860191345,5.505311833076121e-07,-3.4571792184578953e-06,-0.7802462577819824,0.00017611475777812302,-0.0002815217594616115,-0.00010072067379951477,0.005813527386635542,-0.000550869619473815,-0.000550681899767369,0.401276171207428,0.7889350652694702,0.578167200088501,0.35527071356773376,-0.2061406522989273,-0.1022389680147171,0.3620436489582062,0.7588295340538025,0.42000001668930054,-0.5914302468299866,-2.9998879432678223,-1.4611934423446655,1.1545156240463257,-0.1752266138792038,-0.17047899961471558,-0.1644081026315689,-0.15745870769023895,0.07542942464351654,0.1075340211391449,0.16127903759479523,0.2328486442565918
0.8833333333333333,0.13723880052566528,0.03915531560778618,0.0,0.5995800495147705,0.0,0.0,-0.8003147840499878,0.5665821433067322,0.06813275814056396,0.0,0.0,0.0,-5.0514702796936035,0.36554887890815735,0.7559552788734436,0.4200000464916229,0.6254727840423584,6.017057216922694e-07,-3.4370327739452478e-06,-0.7802460193634033,0.000174774308106862,-0.0002822217938955873,-0.00010028993710875511,0.00583697808906436,-0.0005691757542081177,-0.0005478717503137887,0.41033297777175903,0.7845408916473389,0.5780539512634277,0.7404288053512573,-0.25029507279396057,0.2314605414867401,0.3620436489582062,0.7588295340538025,0.42000001668930054,-0.6176797747612,-0.35743317008018494,-1.4948475360870361,-2.999999761581421,-0.17530731856822968,-0.17036111652851105,-0.1637762039899826,-0.1560421884059906,0.05482207611203194,0.03336683660745621,0.028614146634936333,0.03940374404191971
0.9,0.14331936836242676,0.04169216752052307,0.0,0.5867418646812439,0.0,0.0,-0.8097740411758423,0.28384533524513245,0.18938706815242767,0.0,0.0,0.0,-0.8939163684844971,0.36554887890815735,0.7559552788734436,0.4200000464916229,0.6254727244377136,6.690762575090048e-07,-3.4507340842537815e-06,-0.7802460193634033,0.00017539893451612443,-0.00028259633108973503,-0.00010040914639830589,0.005843010731041431,-0.0005621819873340428,-0.0005493090720847249,0.41908448934555054,0.7835414409637451,0.5818766355514526,0.2866708040237427,0.051738765090703964,0.19178198277950287,0.3620436489582062,0.7588295340538025,0.42000001668930054,-0.5993167161941528,2.3129918575286865,-1.4589378833770752,3.0,-0.172378808259964,-0.1682484894990921,-0.16227544844150543,-0.1549479067325592,0.24808652698993683,0.18145810067653656,0.12143827974796295,0.06940113753080368
