vladlanda/robotic-transformer/data/env_000_episode_0256.csv
sim_time_s,robot_box_x,robot_box_y,robot_box_z,robot_box_quat_w,robot_box_quat_x,robot_box_quat_y,robot_box_quat_z,robot_box_linvel_x,robot_box_linvel_y,robot_box_linvel_z,robot_box_angvel_x,robot_box_angvel_y,robot_box_angvel_z,cube_world_x,cube_world_y,cube_world_z,cube_quat_w,cube_quat_x,cube_quat_y,cube_quat_z,cube_linvel_x,cube_linvel_y,cube_linvel_z,cube_angvel_x,cube_angvel_y,cube_angvel_z,endpoint_world_x,endpoint_world_y,endpoint_world_z,endpoint_linvel_x,endpoint_linvel_y,endpoint_linvel_z,target_cube_world_x,target_cube_world_y,target_cube_world_z,gripper_actual_pos_rad_gp_leftgearjoint,gripper_actual_vel_rad_s_gp_leftgearjoint,gripper_actual_pos_rad_gp_rotatingjoint,gripper_actual_vel_rad_s_gp_rotatingjoint,motor_angle_rad_joint1,motor_angle_rad_joint2,motor_angle_rad_joint3,motor_angle_rad_joint4,motor_speed_rad_s_joint1,motor_speed_rad_s_joint2,motor_speed_rad_s_joint3,motor_speed_rad_s_joint4
0.0,0.0,0.0,0.0,1.0,0.0,0.0,0.0,0.0,0.0,0.0,0.0,0.0,0.0,-0.3277514576911926,0.7033318877220154,0.41999998688697815,1.0,0.0,0.0,0.0,0.0,0.0,0.0,0.0,0.0,0.0,3.42540442943573e-06,-0.005000244826078415,1.313499927520752,0.0,0.0,0.0,0.4674279987812042,0.7025449275970459,0.42000001668930054,-1.5707999467849731,0.0,0.0,0.0,0.0,0.0,0.0,0.0,0.0,0.0,0.0,0.0
0.016666666666666666,0.002864851150661707,0.002161784330382943,0.0,0.9998148679733276,0.0,0.0,-0.019240912050008774,0.238947793841362,0.18031729757785797,0.0,0.0,0.0,-3.146186590194702,-0.3277515769004822,0.7033315896987915,0.41999998688697815,1.0,3.2799905511637917e-06,-8.339794135281409e-07,8.465515577427141e-08,-1.9833774786093272e-05,0.00017983047291636467,-6.132945418357849e-05,0.0009432245860807598,-0.004689525347203016,-0.00031981084612198174,-0.00697731226682663,0.004110739566385746,1.315924882888794,-0.7931053042411804,1.0453011989593506,0.17913596332073212,0.4674279987812042,0.7025449275970459,0.42000001668930054,-1.5301092863082886,3.000002145767212,-0.045871853828430176,-3.000000476837158,0.0008638073923066258,0.0007904432713985443,0.0007049643318168819,0.0006047682254575193,0.11026503145694733,0.09683730453252792,0.08254831284284592,0.06737302243709564
0.03333333333333333,0.008870800957083702,0.006778393406420946,0.0,0.9997929334640503,0.0,0.0,-0.020349839702248573,0.40256690979003906,0.31492137908935547,0.0,0.0,0.0,0.8796188235282898,-0.32775169610977173,0.7033315300941467,0.4200000464916229,1.0,3.3908531804627273e-06,-2.132488134520827e-06,-3.710428941872124e-08,0.0002635785494931042,0.0002693783608265221,-0.00010509602725505829,-0.0017707846127450466,0.004130862653255463,-0.00013547409616876394,-0.026353316381573677,0.026095671579241753,1.3167426586151123,-1.466364860534668,1.6167455911636353,-0.060350917279720306,0.4674279987812042,0.7025449275970459,0.42000001668930054,-1.4800901412963867,3.0000014305114746,-0.09591162949800491,-3.0000011920928955,0.0029174715746194124,0.0025745551101863384,0.0021939093712717295,0.0017721002222970128,0.1586250513792038,0.13397550582885742,0.10783993452787399,0.08012719452381134
0.05,0.017513686791062355,0.01359422504901886,0.0,0.9993765354156494,0.0,0.0,-0.03530588001012802,0.580853283405304,0.45146602392196655,0.0,0.0,0.0,-2.6268117427825928,-0.3277517259120941,0.7033315896987915,0.4200000464916229,1.0,3.7651284401363228e-06,-2.2118861124909017e-06,5.622759147172474e-09,0.00026530996547080576,0.00026691515813581645,-0.00010440382175147533,-0.00172425655182451,0.004177390597760677,-0.00012948956282343715,-0.051325466483831406,0.05846794322133064,1.3127353191375732,-1.5198171138763428,2.2244489192962646,-0.3865038752555847,0.4674279987812042,0.7025449275970459,0.42000001668930054,-1.4300718307495117,2.999999761581421,-0.14592862129211426,-3.0000016689300537,0.005106314085423946,0.00414839293807745,0.0031191466841846704,0.0020123652648180723,0.13511019945144653,0.08239702135324478,0.0278033334761858,-0.028709303587675095
0.06666666666666667,0.029675135388970375,0.0228889063000679,0.0,0.9970242381095886,0.0,0.0,-0.07708829641342163,0.7894591093063354,0.6025673747062683,0.0,0.0,0.0,-5.850722789764404,-0.3277517259120941,0.7033315300941467,0.4200000464916229,0.9999999403953552,3.406779342185473e-06,-2.285526988998754e-06,4.300881926155853e-07,0.00026702668401412666,0.00026791810523718596,-0.00010437914170324802,-0.0017406379338353872,0.004211799707263708,-0.00012850595521740615,-0.07794694602489471,0.09900771826505661,1.3039189577102661,-1.6583178043365479,2.601635456085205,-0.6723833084106445,0.4674279987812042,0.7025449275970459,0.42000001668930054,-1.3800493478775024,2.999997615814209,-0.11242267489433289,3.000001907348633,0.00695877056568861,0.005084775388240814,0.003100245725363493,0.0009991173865273595,0.10591676086187363,0.045309316366910934,-0.01736896112561226,-0.08211619406938553
0.08333333333333333,0.03600917384028435,0.03691711649298668,0.0,0.9947661757469177,0.0,0.0,-0.10217756778001785,0.3006560504436493,0.8942505121231079,0.0,0.0,0.0,-1.86053466796875,-0.3277517259120941,0.7033315300941467,0.4200000464916229,0.9999999403953552,3.6260987599234795e-06,-2.3352677089860663e-06,3.032194797469856e-07,0.00026614003581926227,0.0002668494707904756,-0.00010405294597148895,-0.001728319562971592,0.004196429159492254,-0.00012790538312401623,-0.10823670774698257,0.13941505551338196,1.2900149822235107,-1.7781076431274414,2.475757598876953,-0.8769829273223877,0.4674279987812042,0.7025449275970459,0.42000001668930054,-1.3300507068634033,2.999971389770508,-0.14441227912902832,-3.000000476837158,0.002528683515265584,1.1419968359405175e-05,-0.002668991917744279,-0.0055220224894583225,-0.27857884764671326,-0.33406487107276917,-0.39139610528945923,-0.45076948404312134
0.1,0.04716569930315018,0.04769638180732727,0.0,0.9903373718261719,0.0,0.0,-0.13867910206317902,0.6911877989768982,0.6452414393424988,0.0,0.0,0.0,-4.982844829559326,-0.3277517259120941,0.7033315300941467,0.4200000464916229,1.0,3.422146846787655e-06,-2.30855562222132e-06,1.7962889842237928e-07,0.0002668158267624676,0.00026800387422554195,-0.00010440708138048649,-0.001743036205880344,0.00420708442106843,-0.00012890443031210452,-0.13495281338691711,0.18446874618530273,1.2752231359481812,-1.470080852508545,3.0644726753234863,-0.9698411226272583,0.4674279987812042,0.7025449275970459,0.42000001668930054,-1.2800360918045044,3.000001907348633,-0.17158068716526031,-0.4538708031177521,0.002540989313274622,-0.0016567911952733994,-0.006007513962686062,-0.01052006147801876,-0.1600458025932312,-0.24878592789173126,-0.33786600828170776,-0.42717793583869934
0.11666666666666667,0.05562964826822281,0.060186102986335754,0.0,0.9802238941192627,0.0,0.0,-0.19789175689220428,0.4583340287208557,0.8203936815261841,0.0,0.0,0.0,-7.946178436279297,-0.3277517259120941,0.7033315896987915,0.4200000464916229,1.0,3.7115689792699413e-06,-2.332697931706207e-06,2.574186908077536e-07,0.0002648586523719132,0.0002663538616616279,-0.00010423408821225166,-0.001718218787573278,0.004170075990259647,-0.00012914866965729743,-0.16068467497825623,0.23772209882736206,1.2577459812164307,-1.5389090776443481,3.390760660171509,-1.1235783100128174,0.4674279987812042,0.7025449275970459,0.42000001668930054,-1.2325234413146973,2.6875431537628174,-0.18333294987678528,-0.9047884941101074,-0.0007143337861634791,-0.006475550588220358,-0.012369118630886078,-0.018401701003313065,-0.19235780835151672,-0.28826865553855896,-0.3818332552909851,-0.47288778424263
0.13333333333333333,0.06194831803441048,0.07081705331802368,0.0,0.9717932939529419,0.0,0.0,-0.2358342856168747,0.32591718435287476,0.5655115842819214,0.0,0.0,0.0,-3.5537445545196533,-0.3277517259120941,0.7033315300941467,0.4200000464916229,0.9999999403953552,3.4248023439431563e-06,-2.3019676973490277e-06,1.55990974803899e-07,0.00026707074721343815,0.00026811487623490393,-0.0001044438686221838,-0.0017434153705835342,0.004212110303342342,-0.0001287730992771685,-0.19280308485031128,0.29247087240219116,1.2345689535140991,-1.9098148345947266,3.531327247619629,-1.641582727432251,0.4674279987812042,0.7025449275970459,0.42000001668930054,-1.185624122619629,2.886690139770508,-0.22967861592769623,-2.9999992847442627,-0.003463190980255604,-0.010808359831571579,-0.018225859850645065,-0.025719966739416122,-0.1970389038324356,-0.2818804979324341,-0.36289867758750916,-0.4400111436843872
0.15,0.07250384241342545,0.07701397687196732,0.0,0.9586097598075867,0.0,0.0,-0.2847232222557068,0.6343455910682678,0.3082827627658844,0.0,0.0,0.0,-6.624343395233154,-0.3277517259120941,0.7033315300941467,0.4200000464916229,1.0,3.7139620872039814e-06,-2.2077986159274587e-06,-1.6908892064293468e-07,0.0002635350974742323,0.0002653622650541365,-0.00010421848855912685,-0.0017012546304613352,0.004144175443798304,-0.00012960522144567221,-0.22243493795394897,0.35620319843292236,1.201838731765747,-1.5802769660949707,4.168270111083984,-2.2586660385131836,0.4674279987812042,0.7025449275970459,0.42000001668930054,-1.135671854019165,2.9999945163726807,-0.19573205709457397,3.000000238418579,-0.005826083943247795,-0.014528882689774036,-0.023242009803652763,-0.03196849301457405,-0.3469024896621704,-0.39600276947021484,-0.4431571960449219,-0.48825475573539734
0.16666666666666666,0.07672758400440216,0.08681169897317886,0.0,0.949548065662384,0.0,0.0,-0.31362149119377136,0.1567062884569168,0.5635199546813965,0.0,0.0,0.0,-2.4761335849761963,-0.3277517259120941,0.7033315300941467,0.4200000464916229,0.9999999403953552,3.63843651030038e-06,-2.278771944475011e-06,2.7007371272702585e-07,0.0002668274973984808,0.0002675004070624709,-0.00010410207323729992,-0.0017399153439328074,0.004210097715258598,-0.00012781354598701,-0.2521868348121643,0.42151162028312683,1.1545748710632324,-1.6164599657058716,4.066622734069824,-3.1758956909179688,0.4674279987812042,0.7025449275970459,0.42000001668930054,-1.085679054260254,3.000000476837158,-0.22718167304992676,-3.0000014305114746,-0.018742479383945465,-0.027546554803848267,-0.036334436386823654,-0.04487906023859978,-0.721833348274231,-0.7573701739311218,-0.7872321605682373,-0.782463014125824
0.18333333333333332,0.08567255735397339,0.09560786187648773,0.0,0.9352922439575195,0.0,0.0,-0.3538762331008911,0.5985898971557617,0.564271867275238,0.0,0.0,0.0,-6.002596378326416,-0.3277517259120941,0.7033315300941467,0.4200000464916229,1.0,3.3865092063933844e-06,-2.3002239686320536e-06,1.4393610570095916e-07,0.00026674469700083137,0.0002678720047697425,-0.00010436843149363995,-0.0017412101151421666,0.004205914679914713,-0.0001287828345084563,-0.277046799659729,0.49196648597717285,1.094517469406128,-1.2359107732772827,4.333868026733398,-4.037115573883057,0.4674279987812042,0.7025449275970459,0.42000001668930054,-1.0356758832931519,3.000000238418579,-0.27720907330513,-3.0,-0.027387188747525215,-0.03689465671777725,-0.04628283530473709,-0.05493233725428581,-0.594441831111908,-0.6095604300498962,-0.620161235332489,-0.607670247554779
0.2,0.09181928634643555,0.10247181355953217,0.0,0.9271886944770813,0.0,0.0,-0.37459462881088257,0.3077223002910614,0.3395451307296753,0.0,0.0,0.0,-1.545607089996338,-0.3277517259120941,0.7033315896987915,0.4200000464916229,1.0,3.675592324725585e-06,-2.326503590666107e-06,2.2113523812095082e-07,0.00026484555564820766,0.0002663125633262098,-0.00010421546176075935,-0.0017177078407257795,0.004169898107647896,-0.00012909245560877025,-0.2993527054786682,0.5581095218658447,1.0186083316802979,-1.0678855180740356,3.844283103942871,-4.960697174072266,0.4674279987812042,0.7025449275970459,0.42000001668930054,-0.9856690168380737,2.999999761581421,-0.32723501324653625,-3.0000007152557373,-0.04186058044433594,-0.050643447786569595,-0.05928880348801613,-0.06695226579904556,-0.9306105971336365,-0.8672464489936829,-0.8040356636047363,-0.7315913438796997
0.21666666666666667,0.09382669627666473,0.11050545424222946,0.0,0.9144871234893799,0.0,0.0,-0.40461501479148865,0.04689539596438408,0.5337215662002563,0.0,0.0,0.0,-4.739951133728027,-0.3277517259120941,0.7033315300941467,0.4200000464916229,1.0,3.322369366287603e-06,-2.2079589143686462e-06,2.742768288044317e-07,0.00026662732125259936,0.0002674952265806496,-0.00010426435619592667,-0.0017357958713546395,0.004204710014164448,-0.0001283393648918718,-0.3157700002193451,0.61870276927948,0.928597092628479,-0.7574911713600159,3.3705568313598633,-5.733051300048828,0.4674279987812042,0.7025449275970459,0.42000001668930054,-0.935660183429718,2.999997138977051,-0.3772633671760559,-3.000002145767212,-0.05795125663280487,-0.0667317658662796,-0.0750485509634018,-0.08149094879627228,-0.9865881204605103,-0.9808763265609741,-0.9702695608139038,-0.9134928584098816
0.23333333333333334,0.09821803122758865,0.12005209177732468,0.0,0.9086432456970215,0.0,0.0,-0.41757336258888245,0.33951279520988464,0.5993142127990723,0.0,0.0,0.0,-0.7229834198951721,-0.3277517259120941,0.7033315300941467,0.4200000464916229,1.0,3.6565743357641622e-06,-2.3733584839646937e-06,-4.0767665154817223e-07,0.00026611756766214967,0.0002672596601769328,-0.00010423432104289532,-0.0017335788579657674,0.004194698762148619,-0.00012854607484769076,-0.3315475881099701,0.6649702191352844,0.8301912546157837,-0.7952011823654175,2.298687219619751,-6.079967498779297,0.4674279987812042,0.7025449275970459,0.42000001668930054,-0.8856498003005981,2.9999990463256836,-0.42729368805885315,-3.0000009536743164,-0.07343131303787231,-0.08226749300956726,-0.09049767255783081,-0.09583841264247894,-0.9098958969116211,-0.9066723585128784,-0.911760151386261,-0.8442056179046631
0.25,0.10042230039834976,0.1268192082643509,0.0,0.9150069952011108,0.0,0.0,-0.403438001871109,0.06516823172569275,0.3815436065196991,0.0,0.0,0.0,2.6875698566436768,-0.3277517259120941,0.7033315896987915,0.4200000464916229,1.0,3.6305725643615006e-06,-2.2425567749451147e-06,1.1221782614256881e-08,0.0002667990338522941,0.0002670611720532179,-0.00010390859097242355,-0.0017342250794172287,0.004210473503917456,-0.00012702550156973302,-0.35020288825035095,0.6911838054656982,0.728503406047821,-1.1527971029281616,0.9070827960968018,-6.14105224609375,0.4674279987812042,0.7025449275970459,0.42000001668930054,-0.8356401920318604,2.9999725818634033,-0.47732463479042053,-3.0000033378601074,-0.08995547890663147,-0.09861519187688828,-0.10652870684862137,-0.11103004962205887,-0.9903420805931091,-0.9893184900283813,-0.981218159198761,-0.9784362316131592
0.26666666666666666,0.09902212768793106,0.13010342419147491,0.0,0.9144054651260376,0.0,0.0,-0.40479952096939087,-0.14150460064411163,0.13895250856876373,0.0,0.0,0.0,-1.0188127756118774,-0.32775169610977173,0.7033315300941467,0.4200000464916229,0.9999999403953552,3.740199190360727e-06,-2.2362416984833544e-06,4.4997000259172637e-07,0.0002647960209287703,0.0002667310182005167,-0.00010454165749251842,-0.0017190045909956098,0.004166723228991032,-0.00013016752200201154,-0.3617277145385742,0.7021284103393555,0.621846079826355,-0.3706522583961487,0.17860205471515656,-6.400595188140869,0.4674279987812042,0.7025449275970459,0.42000001668930054,-0.7856313586235046,2.9999947547912598,-0.5273548364639282,-2.9999992847442627,-0.10709638148546219,-0.115613654255867,-0.12342130392789841,-0.12784117460250854,-1.000006914138794,-1.0000046491622925,-1.000002384185791,-1.0000005960464478
0.2833333333333333,0.09533390402793884,0.1304798722267151,0.0,0.9169058203697205,0.0,0.0,-0.39910367131233215,-0.2712773382663727,-0.019907057285308838,0.0,0.0,0.0,1.6117810010910034,-0.3277517259120941,0.7033315300941467,0.4200000464916229,1.0,3.3916567190317437e-06,-2.2910930965736043e-06,1.2460451159768127e-07,0.0002667719090823084,0.00026789281400851905,-0.00010437355376780033,-0.0017412637826055288,0.004206368234008551,-0.0001287830382352695,-0.3638535737991333,0.7044501304626465,0.5211336612701416,0.12045599520206451,-0.003798399120569229,-5.643039703369141,0.4674279987812042,0.7025449275970459,0.42000001668930054,-0.7356225848197937,3.000002861022949,-0.5773835778236389,-2.9999992847442627,-0.12461864948272705,-0.1329488307237625,-0.1406167447566986,-0.14492732286453247,-1.0159251689910889,-1.012030005455017,-1.0090521574020386,-1.0066702365875244
0.3,0.0894196480512619,0.1283697783946991,0.0,0.9131929874420166,0.0,0.0,-0.4075273275375366,-0.4094068706035614,-0.17073708772659302,0.0,0.0,0.0,-1.9598885774612427,-0.3277517259120941,0.7033315896987915,0.4200000464916229,1.0,3.68071960110683e-06,-2.3190264073491562e-06,2.0110041987209115e-07,0.00026479086955077946,0.00026625796454027295,-0.00010421173647046089,-0.0017167659243568778,0.004168913699686527,-0.0001290974614676088,-0.3541194200515747,0.7059705257415771,0.42849838733673096,0.9966289401054382,0.08656036853790283,-5.338482856750488,0.4674279987812042,0.7025449275970459,0.42000001668930054,-0.6856154799461365,3.0000007152557373,-0.6274102926254272,-3.0000014305114746,-0.14211416244506836,-0.1502549946308136,-0.15777933597564697,-0.16197623312473297,-1.012575626373291,-1.0095407962799072,-1.0072118043899536,-1.005337119102478
0.31666666666666665,0.08125641942024231,0.12374961376190186,0.0,0.9161524772644043,0.0,0.0,-0.400829941034317,-0.5323530435562134,-0.3177032172679901,0.0,0.0,0.0,1.7549546957015991,-0.32757529616355896,0.7016865611076355,0.4200000464916229,0.9996446371078491,-6.86471992139559e-07,-1.605422085049213e-06,-0.026655348017811775,0.007069229148328304,-0.10734323412179947,-9.171897545456886e-06,0.0004488413396757096,2.871929893899505e-07,-2.9153857231140137,-0.3538571000099182,0.7098526954650879,0.4251120984554291,0.11573375761508942,0.21358537673950195,-0.28477880358695984,0.4674279987812042,0.7025449275970459,0.42000001668930054,-0.635610818862915,2.999983310699463,-0.6778473854064941,-3.0000011920928955,-0.15186546742916107,-0.15919727087020874,-0.16564969718456268,-0.1685631275177002,-0.6198256611824036,-0.5398586392402649,-0.4480469226837158,-0.35383525490760803
0.3333333333333333,0.07092195004224777,0.1167382225394249,0.0,0.9126992225646973,0.0,0.0,-0.4086320698261261,-0.665488600730896,-0.4610966145992279,0.0,0.0,0.0,-1.9432764053344727,-0.32527366280555725,0.7035403251647949,0.4200003445148468,0.9985373616218567,-1.5778328815940768e-05,1.0979623766615987e-05,-0.05406413599848747,0.29255566000938416,0.3148205578327179,-0.0006211487343534827,0.03149218484759331,-0.0027124497573822737,-5.539896488189697,-0.3493712246417999,0.7134891152381897,0.42132169008255005,0.433882474899292,0.30756592750549316,-0.181951105594635,0.4674279987812042,0.7025449275970459,0.42000001668930054,-0.585605800151825,2.9999747276306152,-0.7279184460639954,-2.999957799911499,-0.16299724578857422,-0.16846835613250732,-0.17279349267482758,-0.17356055974960327,-0.6454898715019226,-0.5161374807357788,-0.3691233992576599,-0.22333566844463348
0.35,0.06389487534761429,0.10693353414535522,0.0,0.9156610369682312,0.0,0.0,-0.40195131301879883,-0.33134639263153076,-0.6354764103889465,0.0,0.0,0.0,1.7548633813858032,-0.31935811042785645,0.7100439071655273,0.4200001358985901,0.9932428002357483,-9.382197276863735e-06,1.4459480553341564e-05,-0.11605468392372131,0.4266795814037323,0.46669554710388184,-0.0004593688063323498,0.027471359819173813,-0.010457761585712433,-9.408733367919922,-0.34095433354377747,0.7203015089035034,0.41858723759651184,0.6349043846130371,0.5153082013130188,-0.12817326188087463,0.4674279987812042,0.7025449275970459,0.42000001668930054,-0.5355998873710632,2.9999825954437256,-0.7779614925384521,-2.9999959468841553,-0.17402565479278564,-0.1767575591802597,-0.17804516851902008,-0.1758570522069931,-0.617984414100647,-0.44025057554244995,-0.2447875440120697,-0.05687406286597252
0.36666666666666664,0.055021245032548904,0.09561748802661896,0.0,0.9120229482650757,0.0,0.0,-0.41013914346694946,-0.6085734963417053,-0.7031025886535645,0.0,0.0,0.0,-2.0411503314971924,-0.3115957975387573,0.718463122844696,0.420002818107605,0.9802536964416504,1.0519774150452577e-05,0.00012890509970020503,-0.19774381816387177,0.6798596382141113,0.7307716012001038,-0.0034695907961577177,-0.0445278137922287,-0.16033634543418884,-4.260515213012695,-0.32832151651382446,0.7290623188018799,0.4193580746650696,0.9128689765930176,0.6410263776779175,0.07201273739337921,0.4674279987812042,0.7025449275970459,0.42000001668930054,-0.48553475737571716,3.0000007152557373,-0.827960729598999,-2.9999847412109375,-0.1857687532901764,-0.18508873879909515,-0.1826690137386322,-0.17693720757961273,-0.647817850112915,-0.4468204081058502,-0.22866463661193848,-0.02167256735265255
0.3833333333333333,0.049135275185108185,0.08153612911701202,0.0,0.8957170248031616,0.0,0.0,-0.44462451338768005,-0.30266112089157104,-0.8867645859718323,0.0,0.0,0.0,-5.408252239227295,-0.296125203371048,0.7344542145729065,0.42103588581085205,0.9708048701286316,-0.025661591440439224,0.005876794923096895,-0.2384212464094162,1.1090916395187378,1.1014108657836914,0.11203613877296448,-5.177801132202148,2.4163618087768555,-6.532005786895752,-0.3097849488258362,0.7422334551811218,0.4211544692516327,1.379164218902588,0.960068941116333,0.1481000781059265,0.4674279987812042,0.7025449275970459,0.42000001668930054,-0.4354696571826935,2.9999992847442627,-0.8779662251472473,-2.9999752044677734,-0.19391021132469177,-0.19011037051677704,-0.18419256806373596,-0.1750628650188446,-0.416856050491333,-0.2269812375307083,-0.013108039274811745,0.19575315713882446
0.4,0.04683718830347061,0.0643170028924942,0.0,0.8654966950416565,0.0,0.0,-0.5009145736694336,-0.05820315703749657,-1.1012531518936157,0.0,0.0,0.0,-8.438321113586426,-0.2605077624320984,0.7551344633102417,0.4253637492656708,0.9568018317222595,-0.03559036925435066,-0.026245972141623497,-0.2873580753803253,2.984560489654541,1.651311993598938,0.30915287137031555,37.3021240234375,-7.198094367980957,-5.608113765716553,-0.27360302209854126,0.7648497819900513,0.4242267310619354,3.0626540184020996,1.8002526760101318,0.3891129493713379,0.4674279987812042,0.7025449275970459,0.42000001668930054,-0.3917074501514435,1.728892207145691,-0.9279887080192566,-3.000002145767212,-0.20183363556861877,-0.19454701244831085,-0.18482309579849243,-0.17205747961997986,-0.46745580434799194,-0.251728892326355,-0.02251633070409298,0.19176657497882843
0.4166666666666667,0.046709008514881134,0.051953524351119995,0.0,0.8180449604988098,0.0,0.0,-0.5751543045043945,0.03152547776699066,-0.6093299388885498,0.0,0.0,0.0,-11.386651039123535,-0.18276773393154144,0.7869603037834167,0.4315875470638275,0.9277287125587463,0.028026245534420013,-0.07782495021820068,-0.36397406458854675,6.016473293304443,1.9723458290100098,0.4583266079425812,-4.96577787399292,-5.834622383117676,10.729973793029785,-0.19569948315620422,0.7986302375793457,0.42951634526252747,5.9565749168396,2.3710618019104004,0.40910816192626953,0.4674279987812042,0.7025449275970459,0.42000001668930054,-0.36384841799736023,1.4049961566925049,-0.890813946723938,2.999432325363159,-0.21628674864768982,-0.20465600490570068,-0.18985280394554138,-0.1726403385400772,-0.865852952003479,-0.6688503623008728,-0.38038361072540283,-0.13980816304683685
0.43333333333333335,0.0430104024708271,0.04758376628160477,0.0,0.7769855856895447,0.0,0.0,-0.6295183897018433,-0.3646361827850342,-0.2943212687969208,0.0,0.0,0.0,-6.840817928314209,-0.08568847179412842,0.8148121237754822,0.4417665898799896,0.8799806237220764,0.059895265847444534,-0.101969875395298,-0.46005305647850037,6.360849380493164,1.2512387037277222,0.6896386742591858,9.398163795471191,-7.911554336547852,1.257011890411377,-0.09573563933372498,0.8306852579116821,0.4394696354866028,5.938274383544922,1.5618300437927246,0.709625244140625,0.4674279987812042,0.7025449275970459,0.42000001668930054,-0.35083115100860596,0.6471482515335083,-0.9168458580970764,-3.0000009536743164,-0.23055903613567352,-0.21918439865112305,-0.20080722868442535,-0.17930033802986145,-0.5291589498519897,-0.6172289252281189,-0.5617202520370483,-0.3848192095756531
0.45,0.04282395914196968,0.03535502403974533,0.0,0.7567465901374817,0.0,0.0,-0.6537083387374878,0.14420299232006073,-0.9104668498039246,0.0,0.0,0.0,-2.7001121044158936,0.016861427575349808,0.8332488536834717,0.4524051249027252,0.8128572702407837,0.06691683083772659,-0.10572011023759842,-0.5688657760620117,6.5892415046691895,0.058170054107904434,0.667447030544281,9.386558532714844,-4.213332176208496,4.286022186279297,0.009130335412919521,0.8510687947273254,0.4499817192554474,6.4213714599609375,0.678245484828949,0.7002546787261963,0.4674279987812042,0.7025449275970459,0.42000001668930054,-0.3404659628868103,0.5455732345581055,-0.9668698310852051,-2.999999761581421,-0.23321831226348877,-0.22310224175453186,-0.20416566729545593,-0.18047162890434265,-0.009551648050546646,-0.05469426140189171,-0.021504249423742294,0.08700372278690338
0.4666666666666667,0.041899725794792175,0.02480386383831501,0.0,0.7284178733825684,0.0,0.0,-0.6851330995559692,-0.10102798789739609,-0.5698190331459045,0.0,0.0,0.0,-5.818663120269775,0.12041778862476349,0.8346049189567566,0.46110954880714417,0.7304612398147583,0.0682307779788971,-0.11706826835870743,-0.6693772077560425,5.809582233428955,-1.2635931968688965,0.5971907377243042,-13.705011367797852,13.223562240600586,12.768709182739258,0.11459177732467651,0.8547152280807495,0.45970332622528076,6.452706336975098,-0.1982959657907486,0.6038297414779663,0.4674279987812042,0.7025449275970459,0.42000001668930054,-0.3329736888408661,0.26474183797836304,-1.0168932676315308,-2.998419761657715,-0.23580406606197357,-0.22592435777187347,-0.20650756359100342,-0.18154287338256836,-0.12237662076950073,-0.13633401691913605,-0.1354745328426361,-0.10820680856704712
0.48333333333333334,0.04242577403783798,0.01920609548687935,0.0,0.7154427766799927,0.0,0.0,-0.6986713409423828,0.09141768515110016,-0.2620046138763428,0.0,0.0,0.0,-1.106492042541504,0.21426968276500702,0.8210935592651367,0.4666648507118225,0.658058762550354,0.06504163891077042,-0.10442247986793518,-0.7428486347198486,4.712376117706299,-2.0726194381713867,0.14221090078353882,-14.554917335510254,-5.238107681274414,30.053977966308594,0.21190188825130463,0.8422880172729492,0.4658453166484833,5.592270851135254,-1.2423458099365234,0.30946388840675354,0.4674279987812042,0.7025449275970459,0.42000001668930054,-0.33266931772232056,-0.24418629705905914,-1.0669153928756714,-2.999704599380493,-0.23999647796154022,-0.22961626946926117,-0.20978325605392456,-0.1843419075012207,-0.006612057331949472,-0.24616724252700806,-0.2149762660264969,-0.19868884980678558
0.5,0.045984361320734024,0.017370738089084625,0.0,0.6954081654548645,0.0,0.0,-0.7186149954795837,0.2631057798862457,-0.04471956193447113,0.0,0.0,0.0,-4.2784552574157715,0.2947574853897095,0.799580991268158,0.46398964524269104,0.6007346510887146,0.05415438488125801,-0.09565693885087967,-0.7918552756309509,3.7767059803009033,-2.244335651397705,-0.3259011507034302,-13.639610290527344,-2.439383029937744,31.668306350708008,0.2934865355491638,0.8193522691726685,0.4637572467327118,4.619902610778809,-1.6513035297393799,-0.2898915708065033,0.4674279987812042,0.7025449275970459,0.42000001668930054,-0.3393803536891937,-0.6573759317398071,-1.116937518119812,-2.9994821548461914,-0.23881636559963226,-0.23217502236366272,-0.21256032586097717,-0.18766531348228455,0.08683944493532181,-0.09320108592510223,-0.12026345729827881,-0.17664366960525513
0.5166666666666666,0.052095457911491394,0.019062688574194908,0.0,0.6890188455581665,0.0,0.0,-0.7247434258460999,0.39925214648246765,0.16118590533733368,0.0,0.0,0.0,-0.10545410215854645,0.3604324758052826,0.7716695070266724,0.45404160022735596,0.5352516770362854,0.03848271444439888,-0.08591606467962265,-0.8394302129745483,3.3435263633728027,-1.8492382764816284,-0.7346682548522949,0.260199636220932,4.638361930847168,-6.747964859008789,0.3586158752441406,0.790338933467865,0.45430710911750793,3.4161760807037354,-1.8627207279205322,-0.7394429445266724,0.4674279987812042,0.7025449275970459,0.42000001668930054,-0.3443596065044403,0.27785927057266235,-1.1669596433639526,-2.9999992847442627,-0.23706308007240295,-0.23291027545928955,-0.21409989893436432,-0.19059737026691437,0.1594378799200058,0.03232157602906227,-0.040372226387262344,-0.1537376493215561
0.5333333333333333,0.05568868666887283,0.015379425138235092,0.0,0.6718681454658508,0.0,0.0,-0.7406707406044006,0.2281188666820526,-0.2241915911436081,0.0,0.0,0.0,-3.5534515380859375,0.4118179976940155,0.7456113696098328,0.43563488125801086,0.506978452205658,0.002468259073793888,-0.07354848086833954,-0.858811616897583,2.6265265941619873,-1.9534605741500854,-1.2460366487503052,-1.0567253828048706,2.4235644340515137,-0.3898234963417053,0.4110107421875,0.7634142637252808,0.43621090054512024,2.7240583896636963,-1.7344450950622559,-1.259009599685669,0.4674279987812042,0.7025449275970459,0.42000001668930054,-0.32873791456222534,1.3460038900375366,-1.2169817686080933,-2.9999454021453857,-0.22798728942871094,-0.22659966349601746,-0.21026186645030975,-0.18985693156719208,0.35910090804100037,0.2669354975223541,0.15144550800323486,-0.011904784478247166
0.55,0.06180499121546745,0.01667644828557968,0.0,0.6675665378570557,0.0,0.0,-0.7445501089096069,0.32622990012168884,0.07396101206541061,0.0,0.0,0.0,0.21159988641738892,0.44470030069351196,0.7198420166969299,0.4219377636909485,0.48477545380592346,-0.018242713063955307,-0.02868920937180519,-0.8739776015281677,1.1147993803024292,-1.8424245119094849,0.24297557771205902,-10.224340438842773,-0.9075453877449036,22.25645637512207,0.4447323977947235,0.7366316318511963,0.4224153161048889,1.2553062438964844,-0.9689946174621582,0.07702101022005081,0.4674279987812042,0.7025449275970459,0.42000001668930054,-0.30937695503234863,0.8481564521789551,-1.2670693397521973,-2.754516363143921,-0.22578103840351105,-0.22508035600185394,-0.21032224595546722,-0.19235064089298248,0.30421745777130127,0.21421805024147034,0.058361027389764786,-0.1359635889530182
0.5666666666666667,0.0688045546412468,0.013670745305716991,0.0,0.6527580618858337,0.0,0.0,-0.7575664520263672,0.45839840173721313,-0.18416564166545868,0.0,0.0,0.0,-3.166428565979004,0.4632432162761688,0.7105456590652466,0.4215106666088104,0.5071969032287598,0.0023965267464518547,-0.028897278010845184,-0.861342191696167,0.7285552024841309,-0.8288397192955017,0.1570228636264801,-7.635991096496582,3.526212215423584,12.824250221252441,0.4611421823501587,0.7260353565216064,0.42250895500183105,0.621635913848877,-0.49865204095840454,0.03569816052913666,0.4674279987812042,0.7025449275970459,0.42000001668930054,-0.30695977807044983,-0.23942328989505768,-1.228039264678955,2.992612838745117,-0.2169269621372223,-0.21818968653678894,-0.20670025050640106,-0.19249995052814484,0.3955652415752411,0.33094027638435364,0.17122484743595123,-0.02102068066596985
0.5833333333333334,0.07349434494972229,0.013962844386696815,0.0,0.6513820886611938,0.0,0.0,-0.7587499022483826,0.21181996166706085,0.03364986926317215,0.0,0.0,0.0,0.6648041009902954,0.47139090299606323,0.6995636820793152,0.42132630944252014,0.5260900855064392,-0.020244453102350235,-0.019833099097013474,-0.8499565124511719,0.360657662153244,-0.5372281074523926,0.024739611893892288,-0.4739556908607483,-1.6145188808441162,2.3556466102600098,0.4678964614868164,0.7156800031661987,0.4220793545246124,0.20356610417366028,-0.48209309577941895,0.1457156240940094,0.4674279987812042,0.7025449275970459,0.42000001668930054,-0.3360641300678253,-2.9768478870391846,-1.2491148710250854,-2.9991374015808105,-0.21233291923999786,-0.21409091353416443,-0.20486120879650116,-0.19345976412296295,0.3607219159603119,0.31790560483932495,0.16545070707798004,-0.01331691537052393
0.6,0.07890146970748901,0.01733657531440258,0.0,0.6410811543464661,0.0,0.0,-0.7674731016159058,0.3402463495731354,0.24773412942886353,0.0,0.0,0.0,-2.8388288021087646,0.47409820556640625,0.6945796012878418,0.42084023356437683,0.5512698292732239,0.0007012079586274922,-0.015524124726653099,-0.8341822028160095,0.03295520693063736,-0.13246092200279236,-0.03473339602351189,2.188131093978882,-2.214099884033203,4.305549144744873,0.47047096490859985,0.7139484882354736,0.42476528882980347,0.16459456086158752,0.13911207020282745,0.18834154307842255,0.4674279987812042,0.7025449275970459,0.42000001668930054,-0.36476022005081177,-0.6648992896080017,-1.2990609407424927,-2.99835205078125,-0.20500478148460388,-0.2080868035554886,-0.2019263058900833,-0.19384703040122986,0.5800168514251709,0.4685762822628021,0.2551625967025757,0.03398458659648895
0.6166666666666667,0.08583296835422516,0.01645663194358349,0.0,0.6412570476531982,0.0,0.0,-0.7673261165618896,0.4383319318294525,-0.0588301457464695,0.0,0.0,0.0,0.8805184960365295,0.4738159775733948,0.6936584115028381,0.42006874084472656,0.5673433542251587,0.0009288382134400308,-0.001436465186998248,-0.8234795331954956,-0.1496703028678894,0.0500715933740139,0.025184106081724167,-0.4464380145072937,-1.2334023714065552,2.66841983795166,0.4695982038974762,0.7160732746124268,0.42785340547561646,-0.26891443133354187,0.06164640188217163,0.19841423630714417,0.4674279987812042,0.7025449275970459,0.42000001668930054,-0.4065064489841461,-2.999969005584717,-1.3490548133850098,-2.999742269515991,-0.19334226846694946,-0.19830265641212463,-0.19574564695358276,-0.19139575958251953,0.5120189189910889,0.4519197642803192,0.2845522463321686,0.10429050773382187
0.6333333333333333,0.09542304277420044,0.01997154951095581,0.0,0.6635593175888062,0.0,0.0,-0.7481236457824707,0.5956472754478455,0.21033182740211487,0.0,0.0,0.0,4.325791358947754,0.4712795913219452,0.694331705570221,0.41999897360801697,0.5700682401657104,4.742750752484426e-05,-4.154806083533913e-05,-0.8215972781181335,-0.11532513052225113,0.03475147858262062,-0.000747525948099792,0.054407160729169846,0.026778891682624817,0.3284250795841217,0.46620598435401917,0.7171197533607483,0.43087995052337646,-0.13305026292800903,0.17914436757564545,0.20401228964328766,0.4674279987812042,0.7025449275970459,0.42000001668930054,-0.4565277397632599,-2.9949593544006348,-1.399019479751587,-2.9997782707214355,-0.18788081407546997,-0.19327358901500702,-0.19286896288394928,-0.19087877869606018,0.46533963084220886,0.4057296812534332,0.25209516286849976,0.09307073056697845
0.65,0.10656827688217163,0.019117040559649467,0.0,0.6722384691238403,0.0,0.0,-0.740334689617157,0.6924635767936707,-0.06722790747880936,0.0,0.0,0.0,0.34235554933547974,0.4694766104221344,0.6952962279319763,0.42020440101623535,0.5684294104576111,0.0029181819409132004,-0.0041855573654174805,-0.8227161169052124,-0.10830800235271454,0.058427177369594574,0.019652029499411583,-0.36742326617240906,-0.9283722043037415,-0.5785512924194336,0.46488386392593384,0.72226482629776,0.43559813499450684,-0.1026126891374588,0.23477256298065186,0.3268201947212219,0.4674279987812042,0.7025449275970459,0.42000001668930054,-0.5065443515777588,-2.999955892562866,-1.448988437652588,-2.999614715576172,-0.17770211398601532,-0.18406128883361816,-0.1859680712223053,-0.18623922765254974,0.4812018871307373,0.47860321402549744,0.4025449752807617,0.32992228865623474
0.6666666666666666,0.1191391795873642,0.015319806523621082,0.0,0.658245861530304,0.0,0.0,-0.7528029680252075,0.7857913374900818,-0.29802924394607544,0.0,0.0,0.0,-3.1635897159576416,0.46833816170692444,0.6959238052368164,0.4200001358985901,0.5662392973899841,-1.0742917311290512e-06,-3.7023230561317177e-06,-0.8242409229278564,-0.04514213651418686,0.024792635813355446,-3.650505095720291e-05,0.004699198994785547,0.0005976788233965635,-0.18185871839523315,0.46760255098342896,0.7277233600616455,0.44624972343444824,0.4126579165458679,0.3554651439189911,1.0516129732131958,0.4674279987812042,0.7025449275970459,0.42000001668930054,-0.5565568208694458,-2.9999701976776123,-1.4990066289901733,-2.9999990463256836,-0.17221586406230927,-0.17816206812858582,-0.18072186410427094,-0.18154765665531158,0.2307826280593872,0.2776883542537689,0.2685115337371826,0.2665509283542633
0.6833333333333333,0.13479039072990417,0.015994513407349586,0.0,0.6289807558059692,0.0,0.0,-0.7774208784103394,0.9099712371826172,0.06769046187400818,0.0,0.0,0.0,-5.113339900970459,0.46824130415916443,0.6959769129753113,0.4199999272823334,0.5661295652389526,6.219561328180134e-06,-8.09023367764894e-06,-0.8243162035942078,0.0007385060889646411,6.876108091091737e-05,-0.0002441799733787775,-0.01405729167163372,0.010978699661791325,-0.0009631428401917219,0.4786985218524933,0.7319647669792175,0.4700874090194702,0.9790829420089722,0.2918977439403534,1.8618029356002808,0.4674279987812042,0.7025449275970459,0.42000001668930054,-0.6065681576728821,-2.9997270107269287,-1.5490248203277588,-2.999969482421875,-0.17462313175201416,-0.17880362272262573,-0.1804351806640625,-0.18025875091552734,-0.10270307213068008,-0.018210208043456078,0.026939788833260536,0.08145704120397568
0.7,0.14674486219882965,0.017953868955373764,0.0,0.616139829158783,0.0,0.0,-0.7876367568969727,0.6406253576278687,0.14191830158233643,0.0,0.0,0.0,-0.9524766206741333,0.46824175119400024,0.6959766745567322,0.4200000464916229,0.5661298632621765,2.9526819389502634e-07,-2.8641052267630585e-06,-0.8243159651756287,7.406201621051878e-05,-0.0002597193524707109,-8.318852633237839e-05,0.006447546649724245,-0.001778631005436182,-0.0006972071132622659,0.49605363607406616,0.7385891079902649,0.5009168386459351,1.010253667831421,0.5099047422409058,1.868809700012207,0.4674279987812042,0.7025449275970459,0.42000001668930054,-0.6250610947608948,0.4791671335697174,-1.5990424156188965,-3.000000238418579,-0.17521314322948456,-0.17852117121219635,-0.17987604439258575,-0.17931415140628815,0.021489227190613747,0.047545019537210464,0.039312493056058884,0.03374028950929642
0.7166666666666667,0.1541442573070526,0.015289656817913055,0.0,0.627685010433197,0.0,0.0,-0.7784674167633057,0.40362876653671265,-0.22369453310966492,0.0,0.0,0.0,2.582017183303833,0.46824175119400024,0.6959766745567322,0.4200000464916229,0.5661299228668213,2.9577597615570994e-07,-2.8693891636066837e-06,-0.8243159055709839,7.844151696190238e-05,-0.00025870135868899524,-8.443044498562813e-05,0.006399580743163824,-0.0017279157182201743,-0.0007053865119814873,0.5097870230674744,0.7455472350120544,0.525511622428894,0.5751223564147949,0.3067052960395813,1.1608877182006836,0.4674279987812042,0.7025449275970459,0.42000001668930054,-0.6116146445274353,1.0700010061264038,-1.5600323677062988,3.000000238418579,-0.1732964664697647,-0.17586015164852142,-0.17703013122081757,-0.17633940279483795,0.0449054054915905,0.1235121414065361,0.16826581954956055,0.20279265940189362
0.7333333333333333,0.15800556540489197,0.017526594921946526,0.0,0.6260539293289185,0.0,0.0,-0.7797797918319702,0.1651318073272705,0.2950160503387451,0.0,0.0,0.0,-1.2566611766815186,0.46824172139167786,0.6959766745567322,0.4200000464916229,0.5661296844482422,5.5203571491801995e-08,-3.1566867164656287e-06,-0.8243160843849182,7.854933937778696e-05,-0.00025725815794430673,-8.443836122751236e-05,0.006362332496792078,-0.0017191125079989433,-0.0007026278181001544,0.5129907131195068,0.7486441135406494,0.539264440536499,-0.09920784085988998,0.11116203665733337,0.6256256699562073,0.4674279987812042,0.7025449275970459,0.42000001668930054,-0.6088666915893555,-0.5963795185089111,-1.5099759101867676,3.0000009536743164,-0.1775602102279663,-0.17790712416172028,-0.17745451629161835,-0.17545638978481293,-0.32416969537734985,-0.18185195326805115,-0.07397467643022537,0.011243884451687336
0.75,0.1635509580373764,0.017260482534766197,0.0,0.6355345845222473,0.0,0.0,-0.7720723748207092,0.3122729957103729,-0.057339541614055634,0.0,0.0,0.0,2.156399965286255,0.46824175119400024,0.695976734161377,0.4200000464916229,0.5661298036575317,3.155979584335e-07,-3.2926407129707513e-06,-0.8243160843849182,7.334348629228771e-05,-0.0002618604921735823,-8.328957483172417e-05,0.006508312188088894,-0.0018017591210082173,-0.0006995827425271273,0.5105943083763123,0.7503998279571533,0.5477319955825806,-0.29327699542045593,0.11950594186782837,0.44781529903411865,0.4674279987812042,0.7025449275970459,0.42000001668930054,-0.6001891493797302,1.4495906829833984,-1.525912880897522,-2.9999632835388184,-0.18016278743743896,-0.178604394197464,-0.17671048641204834,-0.17360296845436096,-0.18217350542545319,-0.06654036045074463,0.025728989392518997,0.09855731576681137
0.7666666666666666,0.1654602587223053,0.013670354150235653,0.0,0.6327241063117981,0.0,0.0,-0.7743773460388184,0.059759631752967834,-0.2902574837207794,0.0,0.0,0.0,-1.3218461275100708,0.46824175119400024,0.695976734161377,0.4200000464916229,0.5661299824714661,4.118008689601993e-07,-2.939741762020276e-06,-0.8243160247802734,7.289042696356773e-05,-0.00026197638362646103,-8.317967876791954e-05,0.006514647975564003,-0.001806658343411982,-0.000698660034686327,0.5061410069465637,0.7502100467681885,0.550357460975647,-0.22659696638584137,-0.12423381209373474,0.04210134595632553,0.4674279987812042,0.7025449275970459,0.42000001668930054,-0.6099070310592651,-2.283945322036743,-1.4871137142181396,3.0,-0.18350613117218018,-0.17990288138389587,-0.1762210726737976,-0.17158478498458862,-0.15772035717964172,-0.0393189862370491,0.0700756087899208,0.16740143299102783
0.7833333333333333,0.16847734153270721,0.012881329283118248,0.0,0.639833390712738,0.0,0.0,-0.7685136198997498,0.22134335339069366,0.0012987315421923995,0.0,0.0,0.0,2.056462526321411,0.46824175119400024,0.6959766745567322,0.4200000464916229,0.5661296248435974,3.7479435377463233e-07,-2.88306091533741e-06,-0.824316143989563,7.691915379837155e-05,-0.0002616842684801668,-8.405838161706924e-05,0.006484977435320616,-0.0017586175817996264,-0.0007071774452924728,0.5055023431777954,0.7482266426086426,0.5546871423721313,0.14769130945205688,-0.04613480716943741,0.5166836977005005,0.4674279987812042,0.7025449275970459,0.42000001668930054,-0.6238537430763245,0.3897648751735687,-1.5035532712936401,-3.000000476837158,-0.1873786747455597,-0.1820126175880432,-0.1765688806772232,-0.17026931047439575,-0.15206919610500336,-0.08164913952350616,-0.0028245113790035248,0.07726546376943588
0.8,0.17364121973514557,0.008727635256946087,0.0,0.6357164978981018,0.0,0.0,-0.7719225883483887,0.33190789818763733,-0.2710316777229309,0.0,0.0,0.0,-1.5684702396392822,0.46824175119400024,0.6959766745567322,0.4200000464916229,0.566129744052887,2.55803570325952e-07,-2.8745234885718673e-06,-0.824316143989563,7.923562952782959e-05,-0.0002584397152531892,-8.461601100862026e-05,0.006388564594089985,-0.001717678620480001,-0.0007067043916322291,0.5089907646179199,0.7475252747535706,0.561188280582428,0.21737778186798096,-0.16819888353347778,0.414183109998703,0.4674279987812042,0.7025449275970459,0.42000001668930054,-0.6478409171104431,-2.9572417736053467,-1.4648182392120361,3.0000009536743164,-0.18683795630931854,-0.1808784008026123,-0.17459052801132202,-0.16732943058013916,-0.010417907498776913,0.04204924404621124,0.11024563014507294,0.18449021875858307
0.8166666666666667,0.1808508187532425,0.00806454848498106,0.0,0.6386395692825317,0.0,0.0,-0.76950603723526,0.46250131726264954,0.004223290830850601,0.0,0.0,0.0,1.5009288787841797,0.46824175119400024,0.695976734161377,0.4200000464916229,0.5661299228668213,2.3943701421558217e-07,-3.2277932859869907e-06,-0.8243159651756287,7.790910603944212e-05,-0.0002589500218164176,-8.431216701865196e-05,0.0064086769707500935,-0.0017354052979499102,-0.0007046558312140405,0.5158737301826477,0.7450641393661499,0.5725420713424683,0.595130205154419,-0.08601878583431244,0.9910358786582947,0.4674279987812042,0.7025449275970459,0.42000001668930054,-0.6699779629707336,0.057485952973365784,-1.4817190170288086,-3.000000476837158,-0.18798720836639404,-0.18138472735881805,-0.17410796880722046,-0.16569148004055023,0.0034461745526641607,0.013561655767261982,0.04849478602409363,0.09739089757204056
0.8333333333333334,0.18565484881401062,0.003459102939814329,0.0,0.6627682447433472,0.0,0.0,-0.7488245964050293,0.23616859316825867,-0.3146657645702362,0.0,0.0,0.0,4.654061794281006,0.46824175119400024,0.6959766745567322,0.4200000464916229,0.5661296844482422,2.3522366632278136e-07,-2.8987935820623534e-06,-0.824316143989563,7.532461313530803e-05,-0.0002603355678729713,-8.369516581296921e-05,0.006459373515099287,-0.0017700191820040345,-0.000700923555996269,0.5240589380264282,0.7406611442565918,0.5875786542892456,0.35184377431869507,-0.427395761013031,0.8751872777938843,0.4674279987812042,0.7025449275970459,0.42000001668930054,-0.6806844472885132,-1.2243458032608032,-1.4430418014526367,2.999999761581421,-0.18614345788955688,-0.17921899259090424,-0.17127002775669098,-0.16201810538768768,0.04749349504709244,0.09361894428730011,0.1557977944612503,0.22219602763652802
0.85,0.18723347783088684,0.002577373059466481,0.0,0.6724159121513367,0.0,0.0,-0.7401735186576843,0.05325078219175339,0.011631956323981285,0.0,0.0,0.0,0.28880923986434937,0.46824175119400024,0.6959766745567322,0.4200000464916229,0.5661296248435974,4.193458025270047e-08,-3.1805786875338526e-06,-0.8243162035942078,7.96273016021587e-05,-0.0002574893878772855,-8.465070277452469e-05,0.006362495478242636,-0.001707065268419683,-0.0007055604364722967,0.5297262668609619,0.7334515452384949,0.598669171333313,0.4228827655315399,-0.42079487442970276,0.5180053114891052,0.4674279987812042,0.7025449275970459,0.42000001668930054,-0.6894301772117615,0.07170028984546661,-1.460340142250061,-3.000000238418579,-0.1878809779882431,-0.17989951372146606,-0.17068777978420258,-0.1601683497428894,0.019825022667646408,0.045367531478405,0.08514343947172165,0.12815234065055847
0.8666666666666667,0.19026271998882294,-0.0014720238978043199,0.0,0.6883528232574463,0.0,0.0,-0.7253760695457458,0.21491076052188873,-0.26357966661453247,0.0,0.0,0.0,3.60227632522583,0.46824175119400024,0.695976734161377,0.4200000464916229,0.5661299228668213,3.8825811543574673e-07,-2.706017312448239e-06,-0.8243159651756287,7.484021625714377e-05,-0.000261801527813077,-8.363858796656132e-05,0.006498231086879969,-0.0017848557326942682,-0.0007030449924059212,0.5336297154426575,0.7268954515457153,0.6085253953933716,0.051409557461738586,-0.39218318462371826,0.6632260680198669,0.4674279987812042,0.7025449275970459,0.42000001668930054,-0.6748306155204773,1.5404226779937744,-1.4220300912857056,2.999999523162842,-0.18482859432697296,-0.1768549084663391,-0.1674911230802536,-0.1568172723054886,0.13943935930728912,0.1429619938135147,0.15031661093235016,0.1528080552816391
