vladlanda/robotic-transformer/data/env_000_episode_0057.csv
sim_time_s,robot_box_x,robot_box_y,robot_box_z,robot_box_quat_w,robot_box_quat_x,robot_box_quat_y,robot_box_quat_z,robot_box_linvel_x,robot_box_linvel_y,robot_box_linvel_z,robot_box_angvel_x,robot_box_angvel_y,robot_box_angvel_z,cube_world_x,cube_world_y,cube_world_z,cube_quat_w,cube_quat_x,cube_quat_y,cube_quat_z,cube_linvel_x,cube_linvel_y,cube_linvel_z,cube_angvel_x,cube_angvel_y,cube_angvel_z,endpoint_world_x,endpoint_world_y,endpoint_world_z,endpoint_linvel_x,endpoint_linvel_y,endpoint_linvel_z,target_cube_world_x,target_cube_world_y,target_cube_world_z,gripper_actual_pos_rad_gp_leftgearjoint,gripper_actual_vel_rad_s_gp_leftgearjoint,gripper_actual_pos_rad_gp_rotatingjoint,gripper_actual_vel_rad_s_gp_rotatingjoint,motor_angle_rad_joint1,motor_angle_rad_joint2,motor_angle_rad_joint3,motor_angle_rad_joint4,motor_speed_rad_s_joint1,motor_speed_rad_s_joint2,motor_speed_rad_s_joint3,motor_speed_rad_s_joint4
0.0,0.0,0.0,0.0,1.0,0.0,0.0,0.0,0.0,0.0,0.0,0.0,0.0,0.0,-0.32769978046417236,0.6904392242431641,0.41999998688697815,1.0,0.0,0.0,0.0,0.0,0.0,0.0,0.0,0.0,0.0,3.42540442943573e-06,-0.005000244826078415,1.313499927520752,0.0,0.0,0.0,0.3697093725204468,0.6860030889511108,0.42000001668930054,-1.5707999467849731,0.0,0.0,0.0,0.0,0.0,0.0,0.0,0.0,0.0,0.0,0.0
0.016666666666666666,0.0028729040641337633,0.0021529023069888353,0.0,0.9998306632041931,0.0,0.0,-0.018400995060801506,0.2392309308052063,0.18005317449569702,0.0,0.0,0.0,-3.145854949951172,-0.3276998996734619,0.6904389262199402,0.41999998688697815,1.0,3.2799905511637917e-06,-8.339794135281409e-07,8.465515577427141e-08,-1.9833774786093272e-05,0.00017983047291636467,-6.132945418357849e-05,0.0009432245860807598,-0.004689525347203016,-0.00031981084612198174,-0.006982998922467232,0.004094856325536966,1.3159270286560059,-0.7937918901443481,1.044748306274414,0.17924034595489502,0.3697093725204468,0.6860030889511108,0.42000001668930054,-1.5301092863082886,3.000002861022949,-0.045870061963796616,-3.0000011920928955,0.0008646759088151157,0.0007913602748885751,0.000705923477653414,0.0006062124157324433,0.11038850992918015,0.09695126861333847,0.08265276253223419,0.06745695322751999
0.03333333333333333,0.008874693885445595,0.006734343711286783,0.0,0.9998162984848022,0.0,0.0,-0.01916787587106228,0.4026341736316681,0.31391507387161255,0.0,0.0,0.0,0.8634613156318665,-0.32770001888275146,0.6904388666152954,0.4200000464916229,1.0,3.3908531804627273e-06,-2.132488134520827e-06,-3.710428941872124e-08,0.0002635785494931042,0.0002693783608265221,-0.00010509602725505829,-0.0017707846127450466,0.004130862653255463,-0.00013547409616876394,-0.026429586112499237,0.025461014360189438,1.3168210983276367,-1.4729127883911133,1.5514692068099976,-0.05048876255750656,0.3697093725204468,0.6860030889511108,0.42000001668930054,-1.4800900220870972,3.0000033378601074,-0.09590983390808105,-3.000000476837158,0.002919209422543645,0.0025762796867638826,0.0021956157870590687,0.0017742592608556151,0.15882572531700134,0.13416488468647003,0.10801786184310913,0.08028008043766022
0.05,0.017527969554066658,0.013533657416701317,0.0,0.9994137287139893,0.0,0.0,-0.0342380590736866,0.581566572189331,0.45056453347206116,0.0,0.0,0.0,-2.639967441558838,-0.32770004868507385,0.6904389262199402,0.4200000464916229,1.0,3.7651284401363228e-06,-2.2118861124909017e-06,5.622759147172474e-09,0.00026530996547080576,0.00026691515813581645,-0.00010440382175147533,-0.00172425655182451,0.004177390597760677,-0.00012948956282343715,-0.05195024982094765,0.05703498423099518,1.312995195388794,-1.5753324031829834,2.1899876594543457,-0.37759876251220703,0.3697093725204468,0.6860030889511108,0.42000001668930054,-1.4300717115402222,3.000000476837158,-0.14591489732265472,-2.999999761581421,0.00515460129827261,0.004211490973830223,0.003196512581780553,0.0021052772644907236,0.14030002057552338,0.08913971483707428,0.036110322922468185,-0.018875641748309135
0.06666666666666667,0.0297042578458786,0.022811274975538254,0.0,0.997113049030304,0.0,0.0,-0.07593155652284622,0.7904064059257507,0.6015962362289429,0.0,0.0,0.0,-5.863661289215088,-0.32770004868507385,0.6904388666152954,0.4200000464916229,0.9999999403953552,3.406779342185473e-06,-2.285526988998754e-06,4.300881926155853e-07,0.00026702668401412666,0.00026791810523718596,-0.00010437914170324802,-0.0017406379338353872,0.004211799707263708,-0.00012850595521740615,-0.07979363203048706,0.09702885150909424,1.3041319847106934,-1.7440659999847412,2.5715575218200684,-0.6832262277603149,0.3697093725204468,0.6860030889511108,0.42000001668930054,-1.3800488710403442,2.999997615814209,-0.11240849643945694,2.9999988079071045,0.007122053299099207,0.005291365552693605,0.003349336562678218,0.0012922479072585702,0.11462700366973877,0.05573326349258423,-0.005202207714319229,-0.06827963888645172
0.08333333333333333,0.036093004047870636,0.036672621965408325,0.0,0.9949586391448975,0.0,0.0,-0.1002858430147171,0.24647065997123718,0.9318545460700989,0.0,0.0,0.0,-1.9087826013565063,-0.32770004868507385,0.6904388666152954,0.4200000464916229,1.0,3.6973510759708006e-06,-2.1889595700486097e-06,-2.632473012909031e-07,0.00026389595586806536,0.0002658632874954492,-0.0001043388620018959,-0.0017081330297514796,0.004150238819420338,-0.00012991279072593898,-0.11186634004116058,0.13665813207626343,1.289720892906189,-1.9072504043579102,2.438065528869629,-0.9539936780929565,0.3697093725204468,0.6860030889511108,0.42000001668930054,-1.3300490379333496,3.0,-0.14439651370048523,-2.9999992847442627,0.002947296481579542,0.000501559698022902,-0.0021071801893413067,-0.004887596238404512,-0.35936006903648376,-0.40034639835357666,-0.4439409077167511,-0.4904748201370239
0.1,0.04714909568428993,0.04650144651532173,0.0,0.9905972480773926,0.0,0.0,-0.13681040704250336,0.6938706040382385,0.5858070254325867,0.0,0.0,0.0,-4.968379497528076,-0.32770004868507385,0.6904388666152954,0.4200000464916229,0.9999999403953552,3.62046125701454e-06,-2.2652770894637797e-06,1.745990232393524e-07,0.0002667673397809267,0.00026740715838968754,-0.0001040794886648655,-0.0017385382670909166,0.004209098871797323,-0.0001277524424949661,-0.14007091522216797,0.1811048686504364,1.2741115093231201,-1.5336439609527588,3.0256094932556152,-0.9936837553977966,0.3697093725204468,0.6860030889511108,0.42000001668930054,-1.2800383567810059,3.0000030994415283,-0.19440153241157532,-3.0,0.0027989267837256193,-0.0012704146793112159,-0.005501147825270891,-0.009897317737340927,-0.154028058052063,-0.24343758821487427,-0.33380478620529175,-0.4244902431964874
0.11666666666666667,0.056055791676044464,0.05588911101222038,0.0,0.9840449094772339,0.0,0.0,-0.1779204159975052,0.4996737241744995,0.5385549068450928,0.0,0.0,0.0,-5.022762775421143,-0.32770004868507385,0.6904388666152954,0.4200000464916229,1.0,3.7984573282301426e-06,-2.262856924062362e-06,-1.5021495869405044e-07,0.00026374036679044366,0.000265661277808249,-0.00010429229587316513,-0.001705389702692628,0.004147546831518412,-0.000129798921989277,-0.1689763069152832,0.23303338885307312,1.2541766166687012,-1.7720715999603271,3.3281283378601074,-1.3685672283172607,0.3697093725204468,0.6860030889511108,0.42000001668930054,-1.2306185960769653,2.897512197494507,-0.16062505543231964,3.000001907348633,-2.568701802374562e-07,-0.0055924830958247185,-0.011334110982716084,-0.01722021773457527,-0.15213951468467712,-0.24326243996620178,-0.33253249526023865,-0.4194996654987335
0.13333333333333333,0.06241234019398689,0.06247711181640625,0.0,0.9737499952316284,0.0,0.0,-0.22762012481689453,0.3341423571109772,0.32945290207862854,0.0,0.0,0.0,-6.577906608581543,-0.32770004868507385,0.6904389262199402,0.4200000464916229,0.9999999403953552,3.5505674986779923e-06,-2.2298811472865054e-06,2.928988749317796e-07,0.0002670325629878789,0.0002677947923075408,-0.00010417005978524685,-0.0017441295785829425,0.004213639069348574,-0.00012800269178114831,-0.19840869307518005,0.289638489484787,1.2288367748260498,-1.5676138401031494,3.6502585411071777,-1.674513339996338,0.3697093725204468,0.6860030889511108,0.42000001668930054,-1.1806988716125488,2.999999761581421,-0.19234773516654968,-3.0,-0.002950650407001376,-0.010157318785786629,-0.017462952062487602,-0.024856721982359886,-0.22713486850261688,-0.31987109780311584,-0.4092683792114258,-0.49508044123649597
0.15,0.06562107801437378,0.07003240287303925,0.0,0.9674571752548218,0.0,0.0,-0.25303488969802856,0.06571576744318008,0.5031151175498962,0.0,0.0,0.0,-1.9515107870101929,-0.32770001888275146,0.6904388666152954,0.4200000464916229,1.0,3.3323158277198672e-06,-2.1020741769461893e-06,1.3129495357588894e-07,0.00026730698300525546,0.0002685973886400461,-0.00010459753684699535,-0.0017497893422842026,0.0042156679555773735,-0.00012928378419019282,-0.23182514309883118,0.34807729721069336,1.1934669017791748,-1.9550564289093018,3.7108564376831055,-2.5238635540008545,0.3697093725204468,0.6860030889511108,0.42000001668930054,-1.1353946924209595,2.4479410648345947,-0.15855512022972107,3.0,-0.008071488700807095,-0.016498850658535957,-0.02495754510164261,-0.033435650169849396,-0.3870784044265747,-0.43993109464645386,-0.48873451352119446,-0.5335730314254761
0.16666666666666666,0.07244264334440231,0.07446008175611496,0.0,0.9569679498672485,0.0,0.0,-0.2901936173439026,0.42768973112106323,0.20477882027626038,0.0,0.0,0.0,-5.186896324157715,-0.32770004868507385,0.6904388666152954,0.4200000464916229,1.0,3.7374031762738014e-06,-2.2332269509206526e-06,-1.876583866078363e-07,0.00026432963204570115,0.000266269693383947,-0.00010446016676723957,-0.0017119431868195534,0.004157555289566517,-0.00013001271872781217,-0.26088565587997437,0.413193941116333,1.147676706314087,-1.5022709369659424,4.096745491027832,-3.0003647804260254,0.3697093725204468,0.6860030889511108,0.42000001668930054,-1.0861427783966064,3.0000007152557373,-0.19030195474624634,-3.0000009536743164,-0.012395688332617283,-0.021851710975170135,-0.031267713755369186,-0.04063408449292183,-0.4662831723690033,-0.4974639117717743,-0.5262936949729919,-0.5529292225837708
0.18333333333333332,0.07375974953174591,0.081961989402771,0.0,0.9510399699211121,0.0,0.0,-0.3090679943561554,0.07254074513912201,0.42911940813064575,0.0,0.0,0.0,-0.9893233776092529,-0.32770004868507385,0.6904389262199402,0.4200000464916229,0.9999999403953552,3.6603628359443974e-06,-2.302359689565492e-06,2.52847314641258e-07,0.0002669092209544033,0.00026760256150737405,-0.0001041253563016653,-0.0017412835732102394,0.004211553372442722,-0.00012787102605216205,-0.287924587726593,0.47674089670181274,1.087345004081726,-1.4589080810546875,3.8321824073791504,-3.990744113922119,0.3697093725204468,0.6860030889511108,0.42000001668930054,-1.0361400842666626,3.00000262260437,-0.24032944440841675,-2.9999992847442627,-0.02561897598206997,-0.035079263150691986,-0.04447976127266884,-0.053797606378793716,-0.5965849757194519,-0.6440932750701904,-0.6893700957298279,-0.7302902936935425
0.2,0.07960569858551025,0.08809101581573486,0.0,0.9409573078155518,0.0,0.0,-0.33852529525756836,0.34906134009361267,0.3769141733646393,0.0,0.0,0.0,-4.558259963989258,-0.32770004868507385,0.6904388666152954,0.4200000464916229,1.0,3.5909113194065867e-06,-2.3004156446404522e-06,1.3872801218894892e-07,0.00026654769317246974,0.0002673235139809549,-0.00010424060747027397,-0.0017326237866654992,0.004203386604785919,-0.00012819955009035766,-0.3099120855331421,0.5409908294677734,1.013568639755249,-1.1043118238449097,3.7533607482910156,-4.82144832611084,0.3697093725204468,0.6860030889511108,0.42000001668930054,-0.9861337542533875,3.0000016689300537,-0.29035595059394836,-2.999999523162842,-0.03513403609395027,-0.04509515315294266,-0.05497036501765251,-0.064712293446064,-0.7517929077148438,-0.7417236566543579,-0.731991708278656,-0.7217172384262085
0.21666666666666667,0.0816216841340065,0.09677139669656754,0.0,0.9368214011192322,0.0,0.0,-0.34980809688568115,0.06824995577335358,0.5633851289749146,0.0,0.0,0.0,-0.3756837248802185,-0.32770004868507385,0.6904389262199402,0.4200000464916229,1.0,3.607003463912406e-06,-2.2610099676967366e-06,1.9621262836722053e-08,0.0002644715132191777,0.00026558490935713053,-0.00010396563448011875,-0.0017088435124605894,0.004164247307926416,-0.00012832065112888813,-0.32998186349868774,0.5950801372528076,0.9275071620941162,-1.0238895416259766,2.9467945098876953,-5.406291961669922,0.3697093725204468,0.6860030889511108,0.42000001668930054,-0.936124861240387,2.999998092651367,-0.34038498997688293,-2.9999992847442627,-0.04958505928516388,-0.05967312306165695,-0.06962752342224121,-0.07888586819171906,-0.8811293244361877,-0.8772357106208801,-0.8715524077415466,-0.8369112610816956
0.23333333333333334,0.08703403919935226,0.10127643495798111,0.0,0.9280492067337036,0.0,0.0,-0.3724575936794281,0.3699288070201874,0.18886123597621918,0.0,0.0,0.0,-3.61604905128479,-0.32770001888275146,0.6904388666152954,0.4200000464916229,0.9999999403953552,3.742284661711892e-06,-2.2275266928772908e-06,4.589204536387115e-07,0.00026475160848349333,0.00026671282830648124,-0.00010453304275870323,-0.00171882554423064,0.004165722988545895,-0.0001301881711697206,-0.3447415232658386,0.6419957876205444,0.8310222625732422,-0.6577403545379639,2.4807300567626953,-6.049564361572266,0.3697093725204468,0.6860030889511108,0.42000001668930054,-0.8861148953437805,2.999997854232788,-0.3904156982898712,-2.9999992847442627,-0.06401477754116058,-0.07406748831272125,-0.08397871255874634,-0.09260097146034241,-0.9755387306213379,-0.9637361168861389,-0.9521699547767639,-0.9002612233161926
0.25,0.08739577978849411,0.1098586916923523,0.0,0.9258203506469727,0.0,0.0,-0.3779639005661011,0.026753470301628113,0.45659318566322327,0.0,0.0,0.0,0.2233913689851761,-0.32770004868507385,0.6904388666152954,0.4200000464916229,1.0,3.3944668302865466e-06,-2.2821172933618072e-06,1.336286601372194e-07,0.00026679367874749005,0.0002679389144759625,-0.00010439474135637283,-0.0017417257186025381,0.004206514917314053,-0.00012883533781860024,-0.3543204665184021,0.6677303910255432,0.7302383184432983,-0.37647438049316406,0.9249905943870544,-5.901736259460449,0.3697093725204468,0.6860030889511108,0.42000001668930054,-0.836105227470398,2.9999988079071045,-0.4404473602771759,-3.0,-0.08121122419834137,-0.0910637229681015,-0.10084695369005203,-0.109388068318367,-0.666135847568512,-0.7293555736541748,-0.7877748608589172,-0.8406415581703186
0.26666666666666666,0.0916643962264061,0.11263755708932877,0.0,0.9180538654327393,0.0,0.0,-0.3964556157588959,0.31127065420150757,0.09786912798881531,0.0,0.0,0.0,-2.95229434967041,-0.32770004868507385,0.6904389262199402,0.4200000464916229,1.0,3.683521072161966e-06,-2.3101358692656504e-06,2.1009377348946146e-07,0.0002647914516273886,0.0002662584010977298,-0.00010421173647046089,-0.0017169081838801503,0.004168983548879623,-0.00012909200449939817,-0.3584170341491699,0.6831725835800171,0.6300545930862427,-0.0065294429659843445,0.6745160818099976,-5.9605255126953125,0.3697093725204468,0.6860030889511108,0.42000001668930054,-0.7860963940620422,2.9999966621398926,-0.49047815799713135,-2.9999990463256836,-0.09305492788553238,-0.10361151397228241,-0.11404971033334732,-0.12323129922151566,-0.9658211469650269,-0.9603946208953857,-0.9544720649719238,-0.9528523683547974
0.2833333333333333,0.09286942332983017,0.11267061531543732,0.0,0.9182679653167725,0.0,0.0,-0.3959594964981079,-0.011092844419181347,-0.028742637485265732,0.0,0.0,0.0,0.9195861220359802,-0.32770004868507385,0.6904388666152954,0.4200000464916229,1.0,3.307066890556598e-06,-2.212535264334292e-06,2.6255446528011817e-07,0.00026660817093215883,0.0002674499119166285,-0.00010424223728477955,-0.0017352099530398846,0.004204348661005497,-0.0001282771409023553,-0.3568238615989685,0.6913260221481323,0.5379095673561096,0.338134229183197,0.30397510528564453,-5.073992729187012,0.3697093725204468,0.6860030889511108,0.42000001668930054,-0.7360876202583313,2.999999761581421,-0.5405077338218689,-3.0000009536743164,-0.11080296337604523,-0.12111852318048477,-0.1313786804676056,-0.1404224932193756,-1.0203096866607666,-1.0153169631958008,-1.0115107297897339,-1.0084760189056396
0.3,0.0899476557970047,0.11093393713235855,0.0,0.912555992603302,0.0,0.0,-0.4089517295360565,-0.15607096254825592,-0.17832256853580475,0.0,0.0,0.0,-2.5372257232666016,-0.32770004868507385,0.6904388666152954,0.4200000464916229,1.0,3.6565252230502665e-06,-2.2969290967012057e-06,-2.4498103812220506e-07,0.0002653322007972747,0.0002659547026269138,-0.00010385178029537201,-0.001716420752927661,0.004181907512247562,-0.000127459890791215,-0.34551194310188293,0.692851185798645,0.45499372482299805,0.9740195274353027,-0.03125237673521042,-4.863936424255371,0.3697093725204468,0.6860030889511108,0.42000001668930054,-0.6860805749893188,2.999993085861206,-0.5905354022979736,-3.000002384185791,-0.1277349442243576,-0.13794638216495514,-0.14815746247768402,-0.1571616232395172,-0.8665856122970581,-0.8900009393692017,-0.9128493070602417,-0.9305490255355835
0.31666666666666665,0.08578889816999435,0.10648173838853836,0.0,0.913782000541687,0.0,0.0,-0.4062049686908722,-0.28925591707229614,-0.30446791648864746,0.0,0.0,0.0,1.2717714309692383,-0.32764485478401184,0.6906028985977173,0.4200515151023865,0.9999943971633911,-9.756207873579115e-05,0.0012092895340174437,-0.003091790247708559,-0.005377311259508133,-0.010738350450992584,-0.0470564179122448,0.1721498668193817,-2.1823630332946777,1.2352709770202637,-0.33680009841918945,0.6943120360374451,0.42542508244514465,-0.002402251586318016,-0.018733397126197815,-0.11416257917881012,0.3697093725204468,0.6860030889511108,0.42000001668930054,-0.6361491084098816,2.996450185775757,-0.6409743428230286,-2.9588468074798584,-0.13742780685424805,-0.14780424535274506,-0.15799792110919952,-0.1667831689119339,-0.3648873567581177,-0.35256001353263855,-0.3224615752696991,-0.27152490615844727
0.3333333333333333,0.07929915934801102,0.099903404712677,0.0,0.9088006615638733,0.0,0.0,-0.41723060607910156,-0.4354569613933563,-0.43286508321762085,0.0,0.0,0.0,-2.4000089168548584,-0.32793548703193665,0.6910756826400757,0.4200000464916229,0.9999233484268188,9.027917258208618e-07,2.022646583554888e-07,-0.012373757548630238,-0.019669974222779274,0.03495239466428757,-2.0696432329714298e-05,-0.0010939596686512232,0.0006795724621042609,-1.1905635595321655,-0.3358854055404663,0.6949184536933899,0.42321038246154785,0.23997582495212555,0.016359377652406693,-0.15404030680656433,0.3697093725204468,0.6860030889511108,0.42000001668930054,-0.5861439108848572,2.999981164932251,-0.6910321712493896,-2.999966621398926,-0.14498156309127808,-0.15436379611492157,-0.1632576882839203,-0.17045263946056366,-0.5170800685882568,-0.41553881764411926,-0.29710352420806885,-0.16602395474910736
0.35,0.07057742029428482,0.09114795923233032,0.0,0.9104888439178467,0.0,0.0,-0.41353365778923035,-0.5625,-0.5639039874076843,0.0,0.0,0.0,1.421934962272644,-0.3248286545276642,0.6956315040588379,0.42002519965171814,0.9989993572235107,0.0006047628703527153,-1.3640214092447422e-05,-0.04472024738788605,0.2820199728012085,0.37617018818855286,0.010127373039722443,0.5847100615501404,-0.0794878825545311,-5.2275471687316895,-0.33155882358551025,0.6979674100875854,0.4209054112434387,0.3307156562805176,0.3354220390319824,-0.10376856476068497,0.3697093725204468,0.6860030889511108,0.42000001668930054,-0.5361389517784119,2.9999797344207764,-0.7410757541656494,-3.000000476837158,-0.15416967868804932,-0.16142688691616058,-0.1679137796163559,-0.17253535985946655,-0.5260436534881592,-0.388779878616333,-0.2348390817642212,-0.07295426726341248
0.36666666666666664,0.059530556201934814,0.08018649369478226,0.0,0.9057758450508118,0.0,0.0,-0.4237571954727173,-0.707878589630127,-0.6976957321166992,0.0,0.0,0.0,-2.286219358444214,-0.31993091106414795,0.701023519039154,0.4200000464916229,0.9923397898674011,3.7887848520767875e-06,5.207472781876277e-07,-0.12353849411010742,0.3369225263595581,0.37522807717323303,-6.299238884821534e-05,-0.0030838774982839823,0.006034698337316513,-11.518301963806152,-0.3236161768436432,0.7033925652503967,0.4202576279640198,0.5843476057052612,0.3903670012950897,0.08719808608293533,0.3697093725204468,0.6860030889511108,0.42000001668930054,-0.48610880970954895,2.9999990463256836,-0.7911027073860168,-2.9999711513519287,-0.16314597427845,-0.16789790987968445,-0.17153196036815643,-0.17312981188297272,-0.503961443901062,-0.3469727337360382,-0.16775500774383545,0.021895654499530792
0.3833333333333333,0.049833353608846664,0.0667155459523201,0.0,0.8881767988204956,0.0,0.0,-0.45950189232826233,-0.48112958669662476,-0.8661971688270569,0.0,0.0,0.0,-5.619030475616455,-0.30929073691368103,0.7119131088256836,0.4205065369606018,0.9752681255340576,-0.012450545094907284,0.0021877274848520756,-0.2206631898880005,0.9859203696250916,0.9711071252822876,0.086006760597229,-4.029941558837891,1.695145845413208,-5.677822113037109,-0.31018486618995667,0.7131519317626953,0.422135591506958,1.0531680583953857,0.8261991739273071,0.14116017520427704,0.3697093725204468,0.6860030889511108,0.42000001668930054,-0.4360571801662445,2.999938488006592,-0.841110348701477,-2.999973773956299,-0.1712668538093567,-0.17324884235858917,-0.17367449402809143,-0.17184066772460938,-0.40523937344551086,-0.2407679259777069,-0.048329807817935944,0.15871375799179077
0.4,0.0446244552731514,0.0500374510884285,0.0,0.8560484647750854,0.0,0.0,-0.516895592212677,-0.23043601214885712,-1.062630534172058,0.0,0.0,0.0,-8.66733169555664,-0.27518489956855774,0.7337136268615723,0.4235392212867737,0.9628520607948303,-0.01591818407177925,-0.030413897708058357,-0.2678382098674774,3.124940872192383,1.7183583974838257,0.06471195816993713,31.25397300720215,-18.135360717773438,-1.5720309019088745,-0.27624017000198364,0.7351112365722656,0.424780011177063,3.0184192657470703,1.8591420650482178,0.385678768157959,0.3697093725204468,0.6860030889511108,0.42000001668930054,-0.39233627915382385,1.7652337551116943,-0.8911330103874207,-3.0000016689300537,-0.17975427210330963,-0.1783367544412613,-0.17497019469738007,-0.1691994071006775,-0.5336549878120422,-0.3099311888217926,-0.06745701283216476,0.17831739783287048
0.4166666666666667,0.041980642825365067,0.03858288750052452,0.0,0.8063915371894836,0.0,0.0,-0.5913819670677185,-0.11046203970909119,-0.5515943765640259,0.0,0.0,0.0,-11.521642684936523,-0.19855685532093048,0.7685501575469971,0.4282427132129669,0.9422903060913086,0.0474228635430336,-0.07780741155147552,-0.3221582770347595,6.160287857055664,2.0334317684173584,0.4167101979255676,17.476228713989258,-15.751134872436523,19.38454818725586,-0.199555903673172,0.7702224254608154,0.42992809414863586,5.7798943519592285,2.4816880226135254,0.4055297374725342,0.3697093725204468,0.6860030889511108,0.42000001668930054,-0.37282195687294006,0.8932321071624756,-0.854027271270752,2.9970479011535645,-0.19474931061267853,-0.1896519958972931,-0.18107083439826965,-0.17039744555950165,-0.8795474767684937,-0.7570075392723083,-0.45868903398513794,-0.18926438689231873
0.43333333333333335,0.035622648894786835,0.03370020166039467,0.0,0.7653495669364929,0.0,0.0,-0.6436148285865784,-0.3163067400455475,-0.35417407751083374,0.0,0.0,0.0,-6.418455600738525,-0.1050504595041275,0.801368236541748,0.4391840398311615,0.9039685130119324,0.07617060095071793,-0.09813455492258072,-0.4091557264328003,5.619584083557129,1.5402063131332397,0.8191579580307007,17.83565902709961,-7.135401725769043,-3.914440870285034,-0.10630322247743607,0.8038983345031738,0.44044578075408936,5.616915225982666,1.7466609477996826,0.7056615352630615,0.3697093725204468,0.6860030889511108,0.42000001668930054,-0.35688304901123047,1.1384868621826172,-0.8805911540985107,-2.999854326248169,-0.208772674202919,-0.20379981398582458,-0.19191724061965942,-0.1768183410167694,-0.5439021587371826,-0.6001668572425842,-0.4928114414215088,-0.32067519426345825
0.45,0.03445363789796829,0.021161122247576714,0.0,0.7461763620376587,0.0,0.0,-0.6657482981681824,0.032635100185871124,-0.8950004577636719,0.0,0.0,0.0,-2.558985471725464,-0.009732604026794434,0.8227254748344421,0.451009064912796,0.8429962992668152,0.09368767589330673,-0.09685429185628891,-0.5207676291465759,5.702143669128418,-0.007474083453416824,0.8864625692367554,-5.719457149505615,5.477001190185547,7.2632975578308105,-0.012482753954827785,0.8260084390640259,0.4515645503997803,5.747032165527344,0.7718719840049744,0.7100038528442383,0.3697093725204468,0.6860030889511108,0.42000001668930054,-0.3373308479785919,1.0747889280319214,-0.9306151866912842,-2.999790906906128,-0.21397465467453003,-0.20919139683246613,-0.19541336596012115,-0.1776023805141449,-0.25992852449417114,-0.21395890414714813,-0.07804851979017258,0.09112535417079926
0.4666666666666667,0.03004102036356926,0.011773492209613323,0.0,0.7177683711051941,0.0,0.0,-0.696281909942627,-0.2592372000217438,-0.5404121279716492,0.0,0.0,0.0,-5.80539608001709,0.08152985572814941,0.8250545263290405,0.4612557888031006,0.7905709147453308,0.08719626069068909,-0.08692028373479843,-0.5998659133911133,5.304966449737549,-0.7747554183006287,0.5142680406570435,-0.7338204383850098,-14.582215309143066,20.994657516479492,0.07807697355747223,0.8303439021110535,0.4621897339820862,5.4457807540893555,-0.09879717975854874,0.6230928301811218,0.3697093725204468,0.6860030889511108,0.42000001668930054,-0.3221266269683838,0.696980357170105,-0.9806392192840576,-3.000002384185791,-0.2222120463848114,-0.21562045812606812,-0.1991959810256958,-0.17854946851730347,-0.35919269919395447,-0.2754110097885132,-0.1658136546611786,-0.05228736996650696
0.48333333333333334,0.028162242844700813,0.006028523202985525,0.0,0.7040179371833801,0.0,0.0,-0.7101821899414062,-0.04775868356227875,-0.2600663900375366,0.0,0.0,0.0,-1.177223563194275,0.1639758050441742,0.8176501989364624,0.4673970639705658,0.7533004879951477,0.07923685759305954,-0.07295290380716324,-0.6487970352172852,4.4762282371521,-1.4620558023452759,0.18440337479114532,-6.449220657348633,-4.684807777404785,15.203971862792969,0.16175171732902527,0.822751522064209,0.46870559453964233,4.781316757202148,-0.854324460029602,0.31952205300331116,0.3697093725204468,0.6860030889511108,0.42000001668930054,-0.312504380941391,0.5017808079719543,-1.0306620597839355,-3.000001907348633,-0.22853367030620575,-0.22023330628871918,-0.2021196037530899,-0.1799388825893402,-0.35520997643470764,-0.24074198305606842,-0.15150776505470276,-0.08328142762184143
0.5,0.025261742994189262,0.004402658436447382,0.0,0.6833075284957886,0.0,0.0,-0.730130672454834,-0.22215238213539124,-0.012370296753942966,0.0,0.0,0.0,-4.308437824249268,0.23535048961639404,0.7991965413093567,0.4667508602142334,0.7136763334274292,0.0636858269572258,-0.05643778666853905,-0.6952875852584839,3.6419081687927246,-1.730265498161316,-0.03371305763721466,8.165992736816406,-1.7865711450576782,15.485156059265137,0.23317855596542358,0.8045058846473694,0.46866264939308167,4.005861282348633,-1.3955519199371338,-0.1841970533132553,0.3697093725204468,0.6860030889511108,0.42000001668930054,-0.3010631501674652,0.7684323191642761,-1.0806841850280762,-3.0000014305114746,-0.23350569605827332,-0.22351352870464325,-0.20431604981422424,-0.18142521381378174,-0.24579337239265442,-0.14551584422588348,-0.09445972740650177,-0.07010293006896973
0.5166666666666666,0.024215342476963997,0.0007585117709822953,0.0,0.6755872368812561,0.0,0.0,-0.7372800707817078,-0.014282484538853168,-0.22070294618606567,0.0,0.0,0.0,-0.2658717632293701,0.29222384095191956,0.7748391628265381,0.460780531167984,0.6864687204360962,0.03417259454727173,-0.03430772200226784,-0.7255452275276184,2.6589605808258057,-2.086636781692505,-0.4325571060180664,4.230817794799805,-2.0542688369750977,17.32977867126465,0.2908640503883362,0.779483437538147,0.4631138741970062,3.047278881072998,-1.6742140054702759,-0.4551160931587219,0.3697093725204468,0.6860030889511108,0.42000001668930054,-0.28681376576423645,0.810142457485199,-1.1307063102722168,-3.000002145767212,-0.2354860007762909,-0.22391961514949799,-0.2042347937822342,-0.18144121766090393,-0.11391246318817139,-0.015246824361383915,0.00476812943816185,-0.018162472173571587
0.5333333333333333,0.02615760825574398,0.00025352396187372506,0.0,0.6596046090126038,0.0,0.0,-0.7516127824783325,0.17391636967658997,0.025112062692642212,0.0,0.0,0.0,-3.404472827911377,0.33526676893234253,0.7494998574256897,0.44717466831207275,0.6583243608474731,-5.37700361746829e-05,-0.012687932699918747,-0.7526273727416992,1.871871829032898,-1.9407391548156738,-0.9302055835723877,3.370826005935669,-2.1699342727661133,21.70696258544922,0.3337562084197998,0.7535688877105713,0.44983041286468506,2.306580066680908,-1.5310173034667969,-0.9915540218353271,0.3697093725204468,0.6860030889511108,0.42000001668930054,-0.2737049162387848,0.6673769354820251,-1.1807284355163574,-3.000001907348633,-0.23528897762298584,-0.22317762672901154,-0.20422671735286713,-0.1827685832977295,0.12928758561611176,0.12009590119123459,0.03288143873214722,-0.08805283904075623
0.55,0.03071415424346924,-0.003396311542019248,0.0,0.6568695306777954,0.0,0.0,-0.7540042996406555,0.3112432360649109,-0.21122318506240845,0.0,0.0,0.0,0.5055074095726013,0.3656337857246399,0.7255210280418396,0.4274756610393524,0.630226194858551,-0.050008438527584076,0.0033508376218378544,-0.7747920751571655,1.2323970794677734,-1.7114614248275757,-1.3955110311508179,-7.679312705993652,0.5787135362625122,5.862357139587402,0.3638218641281128,0.7286274433135986,0.4308632016181946,1.3807802200317383,-1.5184720754623413,-1.1841692924499512,0.3697093725204468,0.6860030889511108,0.42000001668930054,-0.2609350383281708,0.781258225440979,-1.230750560760498,-3.0000016689300537,-0.23041462898254395,-0.21888335049152374,-0.20186372101306915,-0.18291117250919342,0.21811605989933014,0.19620728492736816,0.08919261395931244,-0.056055355817079544
0.5666666666666667,0.03728244826197624,-0.0035946681164205074,0.0,0.6446723341941833,0.0,0.0,-0.7644590139389038,0.45857900381088257,0.027238262817263603,0.0,0.0,0.0,-2.7576515674591064,0.3790491223335266,0.7125630378723145,0.421001136302948,0.6124469041824341,-0.018161697313189507,0.0009609374683350325,-0.7903023958206177,0.31333309412002563,-0.5705617666244507,0.038621656596660614,-3.1206986904144287,0.8781871795654297,3.881479263305664,0.37511321902275085,0.7140029668807983,0.4247625470161438,0.3714785575866699,-0.5639514923095703,-0.11864857375621796,0.3697093725204468,0.6860030889511108,0.42000001668930054,-0.24007061123847961,1.4106467962265015,-1.198630690574646,2.994230031967163,-0.2255721241235733,-0.21542994678020477,-0.20095005631446838,-0.18491245806217194,0.4198884963989258,0.28720247745513916,0.0938388854265213,-0.11368583142757416
0.5833333333333334,0.04163738340139389,-0.007512198761105537,0.0,0.6452701091766357,0.0,0.0,-0.7639545202255249,0.18181638419628143,-0.26083701848983765,0.0,0.0,0.0,0.9411993026733398,0.3819675147533417,0.7035443186759949,0.42079484462738037,0.6367790699005127,-0.01278363075107336,0.015594019554555416,-0.7707825303077698,0.02142166532576084,-0.5442444682121277,0.025746982544660568,0.24433661997318268,1.3657610416412354,2.518033266067505,0.377773255109787,0.7045584917068481,0.42534565925598145,-0.0829777717590332,-0.5923526883125305,0.10491584241390228,0.3697093725204468,0.6860030889511108,0.42000001668930054,-0.26044219732284546,-2.999990940093994,-1.2198442220687866,-2.9996843338012695,-0.21773742139339447,-0.2095140963792801,-0.19793815910816193,-0.18505725264549255,0.38144707679748535,0.29541313648223877,0.15091639757156372,-0.01110878400504589
0.6,0.04690081253647804,-0.006996758747845888,0.0,0.6417461633682251,0.0,0.0,-0.7669171094894409,0.3320029079914093,0.027518441900610924,0.0,0.0,0.0,-1.2355215549468994,0.37991201877593994,0.6960464119911194,0.4206070005893707,0.6579061150550842,-0.01018722914159298,0.01149581465870142,-0.752943217754364,-0.07386504858732224,-0.2187308669090271,0.062389347702264786,0.5042098760604858,3.1522815227508545,2.0353071689605713,0.37596189975738525,0.6995740532875061,0.427107572555542,-0.0207610372453928,-0.010628949850797653,0.11175902932882309,0.3697093725204468,0.6860030889511108,0.42000001668930054,-0.29227131605148315,-0.9825130701065063,-1.2697936296463013,-2.9932913780212402,-0.2127627283334732,-0.20605751872062683,-0.19681808352470398,-0.18646210432052612,0.48344776034355164,0.3420606255531311,0.16334255039691925,-0.01655275747179985
0.6166666666666667,0.0539250411093235,-0.010798610746860504,0.0,0.6513962745666504,0.0,0.0,-0.7587376832962036,0.4640105366706848,-0.2352895438671112,0.0,0.0,0.0,2.2765824794769287,0.3790165185928345,0.6931069493293762,0.42059755325317383,0.6674256324768066,-0.010141883976757526,0.011271270923316479,-0.744521975517273,-0.06668776273727417,-0.18736428022384644,-0.03505735844373703,-0.21736782789230347,-1.8050696849822998,1.5506556034088135,0.37475237250328064,0.699657678604126,0.4293925166130066,-0.20502889156341553,-0.033197592943906784,0.1609857678413391,0.3697093725204468,0.6860030889511108,0.42000001668930054,-0.3370150923728943,-2.999875545501709,-1.3197623491287231,-2.9976468086242676,-0.20329594612121582,-0.19879542291164398,-0.19233651459217072,-0.18478789925575256,0.41569480299949646,0.331734836101532,0.21273212134838104,0.08732103556394577
0.6333333333333333,0.06210184097290039,-0.010991482995450497,0.0,0.6483855843544006,0.0,0.0,-0.7613121271133423,0.5181076526641846,0.027134709060192108,0.0,0.0,0.0,-1.45805823802948,0.3779951333999634,0.6909477114677429,0.41999998688697815,0.6725485920906067,-6.161928922665538e-06,-3.2800653571030125e-06,-0.7400528788566589,-0.051092904061079025,-0.09428421407938004,-0.00023689423687756062,0.00853722169995308,-0.0035946352872997522,0.4715619683265686,0.37379181385040283,0.7004525065422058,0.43288615345954895,-0.015229372307658195,0.10399942845106125,0.25981658697128296,0.3697093725204468,0.6860030889511108,0.42000001668930054,-0.3870137333869934,-2.9981517791748047,-1.369727611541748,-2.999718189239502,-0.1968131810426712,-0.1936994194984436,-0.18898162245750427,-0.1831178218126297,0.48882099986076355,0.39173054695129395,0.2837750315666199,0.18678413331508636
0.65,0.07210301607847214,-0.014553526416420937,0.0,0.6563873887062073,0.0,0.0,-0.754423975944519,0.63160240650177,-0.23645246028900146,0.0,0.0,0.0,2.1903879642486572,0.3776119351387024,0.6902489066123962,0.42000001668930054,0.6740689277648926,-1.952594857357326e-06,-1.0419850013931864e-06,-0.7386683821678162,-0.012556054629385471,-0.022545624524354935,-6.923620821908116e-05,0.002580227330327034,-0.0009276861674152315,0.14961852133274078,0.372570663690567,0.7025014162063599,0.44334515929222107,-0.16246700286865234,0.08707727491855621,1.025264024734497,0.3697093725204468,0.6860030889511108,0.42000001668930054,-0.437027245759964,-3.0000009536743164,-1.4197460412979126,-3.0000007152557373,-0.18876716494560242,-0.186921164393425,-0.18356047570705414,-0.17883729934692383,0.3217410147190094,0.28990015387535095,0.2554955780506134,0.23301902413368225
0.6666666666666666,0.08386263996362686,-0.020298058167099953,0.0,0.652621328830719,0.0,0.0,-0.7576842308044434,0.7348062992095947,-0.4112737476825714,0.0,0.0,0.0,-1.5717259645462036,0.37761190533638,0.6902487874031067,0.42000001668930054,0.6740686893463135,6.656217692579958e-07,1.5466242757611326e-06,-0.7386686205863953,-7.637490489287302e-05,0.00010439711331855506,-2.4291453883051872e-05,-0.003911703824996948,-0.0034155352041125298,-2.7546146156964824e-05,0.3749973177909851,0.7040832042694092,0.4571380615234375,0.43583303689956665,0.08614577353000641,0.8070835471153259,0.3697093725204468,0.6860030889511108,0.42000001668930054,-0.4870401918888092,-2.9999992847442627,-1.4697643518447876,-3.0000007152557373,-0.1843605488538742,-0.18268698453903198,-0.17943617701530457,-0.17457488179206848,0.2677356004714966,0.2711566984653473,0.282777339220047,0.3111039102077484
0.6833333333333333,0.0982491597533226,-0.02374688722193241,0.0,0.6263899207115173,0.0,0.0,-0.7795099020004272,0.8935191035270691,-0.179253950715065,0.0,0.0,0.0,-4.849599361419678,0.37761154770851135,0.6902490854263306,0.4200000464916229,0.6740689277648926,5.928028485868708e-07,-4.071642251801677e-06,-0.7386684417724609,0.0002399989461991936,-0.00030718641937710345,-0.00010721082799136639,0.005522172432392836,0.0005936052184551954,-0.00030740239890292287,0.38644230365753174,0.7029039859771729,0.47761696577072144,1.0151395797729492,-0.09742242842912674,1.7293624877929688,0.3697093725204468,0.6860030889511108,0.42000001668930054,-0.5370528101921082,-2.999999523162842,-1.5197826623916626,-2.999999523162842,-0.18391208350658417,-0.18160295486450195,-0.17758198082447052,-0.17172536253929138,0.07692945003509521,0.09072531759738922,0.11754953116178513,0.16139809787273407
0.7,0.10992254316806793,-0.024783100932836533,0.0,0.6149710416793823,0.0,0.0,-0.7885496616363525,0.6206709146499634,-0.00830637477338314,0.0,0.0,0.0,-0.7542710900306702,0.37761157751083374,0.6902490854263306,0.4200000464916229,0.6740691661834717,8.422965152021789e-07,-4.152312612859532e-06,-0.7386682033538818,0.00023604284797329456,-0.00027849723119288683,-0.0001048617996275425,0.0048818145878612995,0.0006957732839509845,-0.00031934003345668316,0.40450209379196167,0.7054046988487244,0.5084881782531738,1.0476701259613037,0.34880027174949646,1.9636600017547607,0.3697093725204468,0.6860030889511108,0.42000001668930054,-0.5584248304367065,0.17594397068023682,-1.5698004961013794,-3.000000476837158,-0.18160665035247803,-0.17968516051769257,-0.17591150104999542,-0.17010578513145447,0.20349359512329102,0.14668746292591095,0.09323805570602417,0.04636722430586815
0.7166666666666667,0.11690530180931091,-0.023285631090402603,0.0,0.627650260925293,0.0,0.0,-0.7784954309463501,0.3516106605529785,0.15184319019317627,0.0,0.0,0.0,2.7767553329467773,0.37761157751083374,0.6902490854263306,0.4200000464916229,0.6740691065788269,8.428214641753584e-07,-4.158309820923023e-06,-0.7386682629585266,0.00024148437660187483,-0.0002792008453980088,-0.00010659219697117805,0.0048738266341388226,0.0007633533678017557,-0.00032977614318951964,0.4206015169620514,0.7108864784240723,0.535576343536377,0.8030171990394592,0.2995173931121826,1.3509821891784668,0.3697093725204468,0.6860030889511108,0.42000001668930054,-0.5479934811592102,0.9944694638252258,-1.5308732986450195,2.9999988079071045,-0.17723309993743896,-0.17621049284934998,-0.1733156144618988,-0.16834016144275665,0.2867984473705292,0.2420586794614792,0.19478905200958252,0.1455775499343872
0.7333333333333333,0.11983087658882141,-0.02539210207760334,0.0,0.6270424723625183,0.0,0.0,-0.7789850831031799,0.13240522146224976,-0.19375139474868774,0.0,0.0,0.0,-1.0574485063552856,0.37761157751083374,0.6902490854263306,0.4200000464916229,0.674068808555603,9.907918183671427e-07,-4.0954078031063545e-06,-0.7386685609817505,0.00023991397756617516,-0.00027888212935067713,-0.00010612397454679012,0.004873649217188358,0.0007438638131134212,-0.00032681002630852163,0.4280139207839966,0.7139003276824951,0.5513587594032288,0.08496958762407303,0.018240228295326233,0.7195522785186768,0.3697093725204468,0.6860030889511108,0.42000001668930054,-0.5542572736740112,-1.5225934982299805,-1.4808193445205688,2.999999523162842,-0.1712873876094818,-0.17090539634227753,-0.16875410079956055,-0.16462963819503784,0.29055356979370117,0.28112104535102844,0.260075181722641,0.22595052421092987
0.75,0.11962205916643143,-0.022228257730603218,0.0,0.6377086043357849,0.0,0.0,-0.7702776789665222,-0.04459366202354431,0.16047902405261993,0.0,0.0,0.0,2.371210813522339,0.37761157751083374,0.6902490854263306,0.4200000464916229,0.6740690469741821,6.850451654827339e-07,-3.885950263793347e-06,-0.7386683225631714,0.00024188734823837876,-0.0002792258164845407,-0.00010672537609934807,0.004872946068644524,0.0007686534081585705,-0.00033052562503144145,0.4303809404373169,0.7125177383422852,0.5588051676750183,0.3119664192199707,0.013023197650909424,0.19869187474250793,0.3697093725204468,0.6860030889511108,0.42000001668930054,-0.5543217062950134,1.2751270532608032,-1.4973466396331787,-2.9999992847442627,-0.1719551980495453,-0.1704884171485901,-0.1675737351179123,-0.16306687891483307,0.16094082593917847,0.17851148545742035,0.18129697442054749,0.16618910431861877
0.7666666666666666,0.12062102556228638,-0.022714653983712196,0.0,0.6346500515937805,0.0,0.0,-0.7727996706962585,0.08900722116231918,-0.05238288268446922,0.0,0.0,0.0,-1.4449281692504883,0.37761154770851135,0.6902490854263306,0.4200000464916229,0.6740691661834717,6.93103288540442e-07,-4.017157152702566e-06,-0.7386682033538818,0.00024105733609758317,-0.00027892194339074194,-0.00010650814510881901,0.004869785625487566,0.000758317590225488,-0.0003291663888376206,0.43073153495788574,0.7125218510627747,0.5572043657302856,-0.24951887130737305,-0.03497357666492462,-0.2077905833721161,0.3697093725204468,0.6860030889511108,0.42000001668930054,-0.5563179850578308,-1.290523886680603,-1.4586292505264282,3.0,-0.16904419660568237,-0.16749617457389832,-0.16474860906600952,-0.16070769727230072,0.10902883112430573,0.12030626833438873,0.11502417922019958,0.08992911875247955
0.7833333333333333,0.1239718422293663,-0.02235950343310833,0.0,0.6422116756439209,0.0,0.0,-0.7665272951126099,0.2372782975435257,0.02466006763279438,0.0,0.0,0.0,1.9530810117721558,0.37761157751083374,0.6902490854263306,0.4200000464916229,0.6740689873695374,7.17040563813498e-07,-3.9587262108398136e-06,-0.7386683821678162,0.00024260251666419208,-0.00028025885694660246,-0.00010662013664841652,0.004893400706350803,0.0007809582748450339,-0.0003306467260699719,0.4296441078186035,0.7113881707191467,0.5537102222442627,0.12189604341983795,-0.03838731348514557,-0.17309117317199707,0.3697093725204468,0.6860030889511108,0.42000001668930054,-0.5750411748886108,-0.9684933423995972,-1.4756317138671875,-2.999999761581421,-0.16793464124202728,-0.16599629819393158,-0.1630304455757141,-0.15900856256484985,0.15240724384784698,0.15895505249500275,0.16245731711387634,0.15919700264930725
0.8,0.12487903982400894,-0.024806899949908257,0.0,0.6380581259727478,0.0,0.0,-0.7699882388114929,-0.017153088003396988,-0.21608074009418488,0.0,0.0,0.0,-1.5184814929962158,0.37761154770851135,0.6902490854263306,0.4200000464916229,0.6740691065788269,7.025489594525425e-07,-4.096684733667644e-06,-0.7386682629585266,0.00024128738732542843,-0.0002790106227621436,-0.00010656658560037613,0.0048707700334489346,0.0007611819310113788,-0.0003295370261184871,0.43306440114974976,0.7076770067214966,0.546937108039856,0.28634682297706604,-0.35266977548599243,-0.4549115300178528,0.3697093725204468,0.6860030889511108,0.42000001668930054,-0.6135666370391846,-3.000002384185791,-1.4398308992385864,3.000000238418579,-0.16681376099586487,-0.16432684659957886,-0.16082040965557098,-0.15634016692638397,0.04775272682309151,0.09594880789518356,0.14505349099636078,0.19048592448234558
0.8166666666666667,0.12719592452049255,-0.02341809682548046,0.0,0.6120448112487793,0.0,0.0,-0.7908231019973755,0.18084467947483063,0.09743887931108475,0.0,0.0,0.0,-4.754763126373291,0.37761154770851135,0.6902490854263306,0.4200000464916229,0.6740690469741821,9.384002623846754e-07,-3.901492164004594e-06,-0.7386683225631714,0.0002417096693534404,-0.00027971999952569604,-0.00010645273141562939,0.00488493824377656,0.0007691062637604773,-0.00032947430736385286,0.44015467166900635,0.7010360956192017,0.5429657697677612,0.640645444393158,-0.35184723138809204,0.09478722512722015,0.3697093725204468,0.6860030889511108,0.42000001668930054,-0.6555813550949097,-2.0846924781799316,-1.4572389125823975,-2.999999523162842,-0.16934135556221008,-0.16593295335769653,-0.16143959760665894,-0.15598279237747192,-0.053296737372875214,-0.03665214776992798,-0.009646832942962646,0.023812687024474144
0.8333333333333334,0.13186833262443542,-0.019385462626814842,0.0,0.6020159125328064,0.0,0.0,-0.7984840869903564,0.31865763664245605,0.2896729111671448,0.0,0.0,0.0,-0.5192819833755493,0.37761157751083374,0.6902490854263306,0.4200000464916229,0.6740691065788269,8.120056236293749e-07,-3.8035179841244826e-06,-0.7386683225631714,0.00024232886789832264,-0.00028023854247294366,-0.00010651280172169209,0.004894096404314041,0.0007780801970511675,-0.000330068520270288,0.447834849357605,0.6991442441940308,0.5461823344230652,0.2847691774368286,0.06526949256658554,0.27835339307785034,0.3697093725204468,0.6860030889511108,0.42000001668930054,-0.659817099571228,1.2879960536956787,-1.5072572231292725,-3.0000007152557373,-0.1694016456604004,-0.16631312668323517,-0.16199316084384918,-0.1566118746995926,0.053349606692790985,0.005991110112518072,-0.03593786433339119,-0.07433844357728958
0.85,0.1331193745136261,-0.020801575854420662,0.0,0.6170098185539246,0.0,0.0,-0.7869554758071899,0.11179977655410767,-0.12681125104427338,0.0,0.0,0.0,2.910165786743164,0.37761154770851135,0.6902490854263306,0.4200000464916229,0.6740691065788269,8.341395414390718e-07,-4.1106604840024374e-06,-0.7386682033538818,0.00024255269090645015,-0.00027990093803964555,-0.00010678870603442192,0.004885049071162939,0.0007773680845275521,-0.0003311246109660715,0.4501218795776367,0.704998254776001,0.550462007522583,-0.029700584709644318,0.4055786728858948,0.20685943961143494,0.3697093725204468,0.6860030889511108,0.42000001668930054,-0.6276188492774963,2.4516351222991943,-1.4685090780258179,3.0,-0.16242863237857819,-0.1611098051071167,-0.15849155187606812,-0.15474119782447815,0.2638397812843323,0.18666714429855347,0.10704538226127625,0.024997860193252563
0.8666666666666667,0.13284070789813995,-0.019073719158768654,0.0,0.6171477437019348,0.0,0.0,-0.7868472933769226,-0.06815528869628906,0.13204209506511688,0.0,0.0,0.0,-0.8592351078987122,0.37761154770851135,0.6902490854263306,0.4200000464916229,0.6740691065788269,8.397198030252184e-07,-4.137295036343858e-06,-0.7386682629585266,0.00024249927082564682,-0.0002798564382828772,-0.0001067034900188446,0.004885053727775812,0.0007792185642756522,-0.00033090697252191603,0.44418251514434814,0.709324061870575,0.5510064363479614,-0.5471183657646179,0.2633186876773834,0.009746283292770386,0.3697093725204468,0.6860030889511108,0.42000001668930054,-0.6091921925544739,-0.03927488997578621,-1.4184564352035522,3.0,-0.1629149168729782,-0.16194847226142883,-0.15977270901203156,-0.15657083690166473,0.0668768510222435,0.022967346012592316,-0.022635765373706818,-0.06998705863952637
