vladlanda/robotic-transformer/data/env_000_episode_0164.csv
sim_time_s,robot_box_x,robot_box_y,robot_box_z,robot_box_quat_w,robot_box_quat_x,robot_box_quat_y,robot_box_quat_z,robot_box_linvel_x,robot_box_linvel_y,robot_box_linvel_z,robot_box_angvel_x,robot_box_angvel_y,robot_box_angvel_z,cube_world_x,cube_world_y,cube_world_z,cube_quat_w,cube_quat_x,cube_quat_y,cube_quat_z,cube_linvel_x,cube_linvel_y,cube_linvel_z,cube_angvel_x,cube_angvel_y,cube_angvel_z,endpoint_world_x,endpoint_world_y,endpoint_world_z,endpoint_linvel_x,endpoint_linvel_y,endpoint_linvel_z,target_cube_world_x,target_cube_world_y,target_cube_world_z,gripper_actual_pos_rad_gp_leftgearjoint,gripper_actual_vel_rad_s_gp_leftgearjoint,gripper_actual_pos_rad_gp_rotatingjoint,gripper_actual_vel_rad_s_gp_rotatingjoint,motor_angle_rad_joint1,motor_angle_rad_joint2,motor_angle_rad_joint3,motor_angle_rad_joint4,motor_speed_rad_s_joint1,motor_speed_rad_s_joint2,motor_speed_rad_s_joint3,motor_speed_rad_s_joint4
0.0,0.0,0.0,0.0,1.0,0.0,0.0,0.0,0.0,0.0,0.0,0.0,0.0,0.0,-0.37807655334472656,0.6342376470565796,0.41999998688697815,1.0,0.0,0.0,0.0,0.0,0.0,0.0,0.0,0.0,0.0,3.42540442943573e-06,-0.005000244826078415,1.313499927520752,0.0,0.0,0.0,0.44997647404670715,0.6874487996101379,0.42000001668930054,-1.5707999467849731,0.0,0.0,0.0,0.0,0.0,0.0,0.0,0.0,0.0,0.0,0.0
0.016666666666666666,0.002879247535020113,0.002179116941988468,0.0,0.9998114109039307,0.0,0.0,0.01942010037600994,0.24091339111328125,0.182350754737854,0.0,0.0,0.0,3.1418347358703613,-0.3780766725540161,0.6342373490333557,0.41999998688697815,1.0,3.279964630564791e-06,-8.339746386809566e-07,8.465587342243452e-08,-1.9833529222523794e-05,0.00017983045836444944,-6.132945418357849e-05,0.0009432713268324733,-0.004689474124461412,-0.00031981561915017664,-0.007109852507710457,0.0033837470691651106,1.3159376382827759,-0.8141897320747375,0.9870303869247437,0.1809568703174591,0.44997647404670715,0.6874487996101379,0.42000001668930054,-1.5301095247268677,3.0000007152557373,-0.045848309993743896,-3.000000238418579,0.0008698662859387696,0.0007965212571434677,0.00071106874383986,0.0006109219393692911,0.11094058305025101,0.09757880866527557,0.08335649967193604,0.06825108081102371
0.03333333333333333,0.008962654508650303,0.006799434311687946,0.0,0.999799370765686,0.0,0.0,0.02003038115799427,0.40703895688056946,0.3152545392513275,0.0,0.0,0.0,-0.86910080909729,-0.37807679176330566,0.6342372894287109,0.4200000464916229,1.0,3.3908354453160428e-06,-2.1324485715012997e-06,-3.710144014235084e-08,0.00026357831666246057,0.00026937946677207947,-0.00010509486310184002,-0.0017707672668620944,0.004130808170884848,-0.000135478752781637,-0.027540748938918114,0.02599928341805935,1.3166286945343018,-1.5909788608551025,1.6134799718856812,-0.0812411829829216,0.44997647404670715,0.6874487996101379,0.42000001668930054,-1.4800902605056763,3.000000238418579,-0.09588813781738281,-3.0000007152557373,0.002990497974678874,0.002652784576639533,0.002277329098433256,0.001860816148109734,0.16419842839241028,0.1397564858198166,0.11381996423006058,0.08630393445491791
0.05,0.018453335389494896,0.013868942856788635,0.0,0.9999820590019226,0.0,0.0,-0.005995423533022404,0.636013925075531,0.4713442027568817,0.0,0.0,0.0,-4.078683376312256,-0.37807682156562805,0.6342373490333557,0.4200000464916229,1.0,3.7651125239790417e-06,-2.211879063906963e-06,5.622505128144439e-09,0.000265308452071622,0.0002669153327587992,-0.00010440615005791187,-0.001724260626360774,0.004177352879196405,-0.00012949221127200872,-0.057294927537441254,0.056409575045108795,1.3121652603149414,-1.959252119064331,1.9759992361068726,-0.43283015489578247,0.44997647404670715,0.6874487996101379,0.42000001668930054,-1.4300719499588013,3.000000476837158,-0.1459190845489502,-3.000002384185791,0.0060048773884773254,0.005167020950466394,0.004256835673004389,0.003269992070272565,0.2071930170059204,0.1668822169303894,0.12464667111635208,0.0804099589586258
0.06666666666666667,0.03075779601931572,0.02333941124379635,0.0,0.9998956918716431,0.0,0.0,-0.014445045962929726,0.7723840475082397,0.6150803565979004,0.0,0.0,0.0,-0.04380933940410614,-0.37807682156562805,0.6342372894287109,0.4200000464916229,0.9999999403953552,3.4066883927152958e-06,-2.285532218593289e-06,4.300976286231162e-07,0.0002670241810847074,0.00026791772688739,-0.00010438147000968456,-0.00174069800414145,0.00421178387477994,-0.00012850729399360716,-0.09524986147880554,0.08806897699832916,1.3016188144683838,-2.432004928588867,1.9997084140777588,-0.8200799822807312,0.44997647404670715,0.6874487996101379,0.42000001668930054,-1.3800444602966309,3.0,-0.1286175549030304,3.000000476837158,0.008784961886703968,0.007253754418343306,0.005610019899904728,0.0038486060220748186,0.15716864168643951,0.10841207951307297,0.05752065032720566,0.004421146120876074
0.08333333333333333,0.04553426057100296,0.030949020758271217,0.0,0.9993084073066711,0.0,0.0,-0.03718523681163788,0.9507042169570923,0.374301016330719,0.0,0.0,0.0,-3.5453193187713623,-0.37807682156562805,0.6342372894287109,0.4200000464916229,1.0,3.6972253383282805e-06,-2.188838152505923e-06,-2.632317830375541e-07,0.00026389729464426637,0.00026586424792185426,-0.00010433932766318321,-0.0017081560799852014,0.004150177352130413,-0.0001299097202718258,-0.1310003399848938,0.12598340213298798,1.2872734069824219,-1.9019684791564941,2.526963233947754,-0.8886711597442627,0.44997647404670715,0.6874487996101379,0.42000001668930054,-1.3300368785858154,3.0000014305114746,-0.1605486273765564,-3.0000011920928955,0.009962716139853,0.007325542625039816,0.004532411228865385,0.0015791341429576278,0.019700728356838226,-0.06467007100582123,-0.15131783485412598,-0.24019072949886322
0.1,0.05444485694169998,0.040651530027389526,0.0,0.9973441958427429,0.0,0.0,-0.07283215969800949,0.3959730267524719,0.6649501919746399,0.0,0.0,0.0,-4.523879528045654,-0.37807682156562805,0.6342372894287109,0.4200000464916229,0.9999999403953552,3.620277084337431e-06,-2.2651142899121623e-06,1.7461523782458244e-07,0.0002667682128958404,0.0002674072457011789,-0.0001040794886648655,-0.0017386354738846421,0.004209177568554878,-0.00012775110371876508,-0.1661762297153473,0.1690475195646286,1.266557216644287,-2.206334114074707,2.7198596000671387,-1.5036978721618652,0.44997647404670715,0.6874487996101379,0.42000001668930054,-1.2800180912017822,2.999993085861206,-0.12695099413394928,3.000002384185791,0.0038735715206712484,0.00048195719136856496,-0.0031182277016341686,-0.00693480484187603,-0.47812366485595703,-0.5138795375823975,-0.5521407127380371,-0.5932148098945618
0.11666666666666667,0.05840925872325897,0.05227281525731087,0.0,0.9946969747543335,0.0,0.0,-0.10284902900457382,0.21774759888648987,0.6338618397712708,0.0,0.0,0.0,-3.151207685470581,-0.37807682156562805,0.6342372894287109,0.4200000464916229,1.0,3.798308171099052e-06,-2.262737325509079e-06,-1.5021218757738097e-07,0.0002637405996210873,0.000265660259174183,-0.00010428996756672859,-0.0017054072814062238,0.00414755754172802,-0.000129801788716577,-0.20542959868907928,0.2103443741798401,1.2403926849365234,-2.3428711891174316,2.514774799346924,-1.5759329795837402,0.44997647404670715,0.6874487996101379,0.42000001668930054,-1.2300186157226562,2.999999761581421,-0.15887096524238586,-3.000000476837158,-0.004116636700928211,-0.00842510350048542,-0.012948872521519661,-0.017699899151921272,-0.3691076636314392,-0.44967108964920044,-0.5284527540206909,-0.6055622696876526
0.13333333333333333,0.07057620584964752,0.05964089184999466,0.0,0.9888003468513489,0.0,0.0,-0.14924445748329163,0.7952308654785156,0.5209962725639343,0.0,0.0,0.0,-6.243042469024658,-0.37807682156562805,0.6342373490333557,0.4200000464916229,0.9999999403953552,3.55037650479062e-06,-2.229731535408064e-06,2.929058098288806e-07,0.0002670335816219449,0.0002677934826351702,-0.00010417238809168339,-0.0017440745141357183,0.004213663749396801,-0.0001280020660487935,-0.2419511377811432,0.26025018095970154,1.2108385562896729,-2.022249221801758,3.471104621887207,-2.0534749031066895,0.44997647404670715,0.6874487996101379,0.42000001668930054,-1.1799993515014648,2.999634027481079,-0.1409721076488495,3.000000238418579,-0.0035430097486823797,-0.010008875280618668,-0.016605058684945107,-0.02334117516875267,-0.13147403299808502,-0.236275777220726,-0.3372400403022766,-0.4342224597930908
0.15,0.07944033294916153,0.06577805429697037,0.0,0.9846165776252747,0.0,0.0,-0.17472876608371735,0.47994285821914673,0.2980419099330902,0.0,0.0,0.0,-1.9475160837173462,-0.37807679176330566,0.6342372894287109,0.4200000464916229,1.0,3.332105279696407e-06,-2.1019018277002033e-06,1.3129569254033413e-07,0.0002673073613550514,0.00026859616627916694,-0.00010459683835506439,-0.0017497853841632605,0.004215648397803307,-0.00012928245996590704,-0.27867770195007324,0.31331390142440796,1.1704440116882324,-2.060030937194824,3.361067295074463,-2.721320867538452,0.44997647404670715,0.6874487996101379,0.42000001668930054,-1.1300060749053955,3.0000009536743164,-0.17279039323329926,-2.9999992847442627,-0.009841437451541424,-0.017433112487196922,-0.025107260793447495,-0.03287622705101967,-0.4182756841182709,-0.47510164976119995,-0.5288538932800293,-0.5797557830810547
0.16666666666666666,0.08367910236120224,0.07415226846933365,0.0,0.977595865726471,0.0,0.0,-0.2104906141757965,0.226768359541893,0.47556746006011963,0.0,0.0,0.0,-4.977648735046387,-0.37807682156562805,0.6342372894287109,0.4200000464916229,1.0,3.737186489161104e-06,-2.233031182186096e-06,-1.876633604069866e-07,0.0002643294574227184,0.00026626838371157646,-0.00010445830412209034,-0.0017118845134973526,0.004157516174018383,-0.00013001053594052792,-0.31220054626464844,0.3719814419746399,1.1166245937347412,-1.8964948654174805,3.6905317306518555,-3.5651540756225586,0.44997647404670715,0.6874487996101379,0.42000001668930054,-1.0799992084503174,2.9999983310699463,-0.18157151341438293,1.5607632398605347,-0.02039642073214054,-0.02847975492477417,-0.03659646213054657,-0.044766541570425034,-0.5756480097770691,-0.6109029650688171,-0.6417989134788513,-0.6686325669288635
0.18333333333333332,0.09176894277334213,0.0829889252781868,0.0,0.9626441597938538,0.0,0.0,-0.2707696557044983,0.6710182428359985,0.5952648520469666,0.0,0.0,0.0,-8.561098098754883,-0.37807682156562805,0.6342373490333557,0.4200000464916229,0.9999999403953552,3.660124548332533e-06,-2.302147322552628e-06,2.52845069326213e-07,0.0002669083187356591,0.0002676025324035436,-0.00010412652045488358,-0.0017412957968190312,0.004211513791233301,-0.0001278699201066047,-0.3404836654663086,0.43846631050109863,1.0496327877044678,-1.3277549743652344,4.247071266174316,-4.364912986755371,0.44997647404670715,0.6874487996101379,0.42000001668930054,-1.0299923419952393,3.0000009536743164,-0.22096474468708038,-3.0,-0.02925056405365467,-0.03789405897259712,-0.046497877687215805,-0.05508768558502197,-0.4941486418247223,-0.5251633524894714,-0.5518674850463867,-0.5745295882225037
0.2,0.09765441715717316,0.089908666908741,0.0,0.9496251940727234,0.0,0.0,-0.3133879601955414,0.29165077209472656,0.39231786131858826,0.0,0.0,0.0,-4.041000843048096,-0.37807682156562805,0.6342372894287109,0.4200000464916229,1.0,3.5906891753256787e-06,-2.300306277902564e-06,1.3872099202671961e-07,0.0002665471110958606,0.00026732077822089195,-0.00010423827916383743,-0.0017326769884675741,0.004203524440526962,-0.00012820553092751652,-0.364215224981308,0.49951863288879395,0.9691174030303955,-1.037437915802002,3.6192314624786377,-5.228798866271973,0.44997647404670715,0.6874487996101379,0.42000001668930054,-0.9799854755401611,2.9999794960021973,-0.27099308371543884,-2.9999988079071045,-0.042441077530384064,-0.05101723596453667,-0.05954558774828911,-0.06800717115402222,-0.8102298974990845,-0.829543948173523,-0.8475949764251709,-0.8632835149765015
0.21666666666666667,0.09915697574615479,0.09787050634622574,0.0,0.947344958782196,0.0,0.0,-0.32021474838256836,0.014037651009857655,0.5212587714195251,0.0,0.0,0.0,0.10738992691040039,-0.37807682156562805,0.6342373490333557,0.4200000464916229,1.0,3.6067892779101385e-06,-2.2609169718634803e-06,1.961327633637211e-08,0.00026447148411534727,0.0002655840653460473,-0.00010396447032690048,-0.0017088138265535235,0.0041642808355391026,-0.00012832574429921806,-0.38628089427948,0.5470728278160095,0.8799818754196167,-1.1317452192306519,2.4733386039733887,-5.534375190734863,0.44997647404670715,0.6874487996101379,0.42000001668930054,-0.9299749732017517,2.9999969005584717,-0.3210238516330719,-3.0,-0.058205001056194305,-0.06676033139228821,-0.07513747364282608,-0.083345428109169,-0.9869959950447083,-0.9878032207489014,-0.9680801630020142,-0.9359468817710876
0.23333333333333334,0.09855009615421295,0.10226893424987793,0.0,0.9404143691062927,0.0,0.0,-0.3400306701660156,-0.14327524602413177,0.239200159907341,0.0,0.0,0.0,-3.3112285137176514,-0.37807679176330566,0.6342372894287109,0.4200000464916229,0.9999999403953552,3.742087073987932e-06,-2.227409822808113e-06,4.589062712057057e-07,0.00026475198683328927,0.00026671282830648124,-0.0001045342069119215,-0.0017188993515446782,0.0041658165864646435,-0.00013019447214901447,-0.40203729271888733,0.586931049823761,0.7822970151901245,-0.6427598595619202,2.057974100112915,-6.063340187072754,0.44997647404670715,0.6874487996101379,0.42000001668930054,-0.879964292049408,2.999997854232788,-0.3710555136203766,-2.9999985694885254,-0.07430660724639893,-0.08288659900426865,-0.09107137471437454,-0.09871277958154678,-0.9855117201805115,-0.9852780103683472,-0.9860032796859741,-0.9872016310691833
0.25,0.10022405534982681,0.10405362397432327,0.0,0.9392996430397034,0.0,0.0,-0.34309789538383484,0.11979217827320099,-0.009321777150034904,0.0,0.0,0.0,0.3448348045349121,-0.37807682156562805,0.6342372894287109,0.4200000464916229,1.0,3.394239683984779e-06,-2.282012019350077e-06,1.3362385686832567e-07,0.0002667936496436596,0.0002679401950445026,-0.00010439474135637283,-0.0017418229253962636,0.00420664856210351,-0.00012884348689112812,-0.4132993221282959,0.6124582290649414,0.6809340715408325,-0.4990048110485077,0.9915140867233276,-6.09719181060791,0.44997647404670715,0.6874487996101379,0.42000001668930054,-0.8299547433853149,2.9999916553497314,-0.4210871756076813,-2.9999966621398926,-0.09049297124147415,-0.09905599802732468,-0.10719750076532364,-0.11478941887617111,-0.9920613169670105,-0.9936374425888062,-0.9948650002479553,-0.9907897114753723
0.26666666666666666,0.09778004884719849,0.1029743179678917,0.0,0.9327169060707092,0.0,0.0,-0.3606094419956207,-0.2322397530078888,-0.11376339942216873,0.0,0.0,0.0,-3.105095386505127,-0.37807682156562805,0.6342373490333557,0.4200000464916229,1.0,3.6832336718362058e-06,-2.31005606110557e-06,2.1009948625305697e-07,0.0002647906949277967,0.00026625851751305163,-0.00010421290062367916,-0.0017168435733765364,0.004168881103396416,-0.00012909741781186312,-0.4133284091949463,0.6221421360969543,0.5804657936096191,0.4372404217720032,0.19183532893657684,-5.749317169189453,0.44997647404670715,0.6874487996101379,0.42000001668930054,-0.779945969581604,3.0,-0.47111761569976807,-2.999999761581421,-0.10871433466672897,-0.1168975830078125,-0.1247498095035553,-0.13211314380168915,-1.010491132736206,-1.007896065711975,-1.0059176683425903,-1.0043452978134155
0.2833333333333333,0.0917014628648758,0.09994950890541077,0.0,0.9324243068695068,0.0,0.0,-0.36136528849601746,-0.3012009263038635,-0.2531183958053589,0.0,0.0,0.0,0.8096326589584351,-0.37807682156562805,0.6342372894287109,0.4200000464916229,1.0,3.3067506137740565e-06,-2.2124868337414227e-06,2.625712340886821e-07,0.0002666061627678573,0.0002674513962119818,-0.00010424340143799782,-0.0017352820141240954,0.004204321652650833,-0.00012828712351620197,-0.4054374396800995,0.6261419653892517,0.4951387345790863,0.5708461403846741,0.35283803939819336,-4.671907901763916,0.44997647404670715,0.6874487996101379,0.42000001668930054,-0.7299373149871826,2.999993085861206,-0.5211461782455444,-3.000000476837158,-0.12548264861106873,-0.1336689591407776,-0.1415625661611557,-0.14898216724395752,-0.805919349193573,-0.8612850308418274,-0.9126091599464417,-0.9590052962303162
0.3,0.08489765226840973,0.09421718865633011,0.0,0.9267268776893616,0.0,0.0,-0.37573564052581787,-0.45735764503479004,-0.3837241232395172,0.0,0.0,0.0,-2.7348403930664062,-0.37807682156562805,0.6342372894287109,0.4200000464916229,1.0,3.6407882362254895e-06,-2.3779157345416024e-06,-4.194236282728525e-07,0.0002660918398760259,0.00026721289032138884,-0.00010421476326882839,-0.0017330169212073088,0.004194211680442095,-0.00012849405175074935,-0.3905555009841919,0.6333600282669067,0.4142957031726837,1.2249233722686768,0.38329946994781494,-4.743442535400391,0.44997647404670715,0.6874487996101379,0.42000001668930054,-0.6799304485321045,3.0000007152557373,-0.5711730718612671,-2.999999761581421,-0.14252248406410217,-0.15062673389911652,-0.1584559679031372,-0.1658235341310501,-1.0079149007797241,-1.0060149431228638,-1.004555344581604,-1.0033807754516602
0.31666666666666665,0.07594188302755356,0.0863729789853096,0.0,0.9274029731750488,0.0,0.0,-0.37406376004219055,-0.5738396644592285,-0.5074546933174133,0.0,0.0,0.0,1.1539560556411743,-0.37807682156562805,0.6342373490333557,0.4200000464916229,1.0,3.6215142245055176e-06,-2.2889792035130085e-06,1.9687607277774077e-07,0.00026734027778729796,0.00026802680804394186,-0.00010420684702694416,-0.0017466372810304165,0.004219007212668657,-0.00012793985661119223,-0.39190876483917236,0.6362545490264893,0.4244217872619629,-0.1882338970899582,0.1326625645160675,-0.15464872121810913,0.44997647404670715,0.6874487996101379,0.42000001668930054,-0.6300312876701355,2.9999780654907227,-0.6216487288475037,-3.000000238418579,-0.14931444823741913,-0.15661343932151794,-0.16327302157878876,-0.16906216740608215,-0.5190577507019043,-0.43015149235725403,-0.3254643976688385,-0.20415015518665314
0.3333333333333333,0.06475236266851425,0.07637105882167816,0.0,0.9223013520240784,0.0,0.0,-0.3864715099334717,-0.7232173085212708,-0.6438211798667908,0.0,0.0,0.0,-2.4337499141693115,-0.37807682156562805,0.6342372894287109,0.4200000464916229,1.0,3.4140809930249816e-06,-2.2854296730656642e-06,2.506908458599355e-07,0.000267003575572744,0.00026794185396283865,-0.00010437308810651302,-0.0017414140747860074,0.0042112586088478565,-0.00012855355453211814,-0.39092206954956055,0.6372689604759216,0.42191553115844727,0.2061099112033844,0.05679946392774582,-0.1509740799665451,0.44997647404670715,0.6874487996101379,0.42000001668930054,-0.5800262689590454,2.9999847412109375,-0.6717040538787842,-2.999955177307129,-0.158493310213089,-0.16386955976486206,-0.16832442581653595,-0.1716373860836029,-0.5583546757698059,-0.4251326620578766,-0.2745007276535034,-0.10833273828029633
0.35,0.05651167035102844,0.06371241807937622,0.0,0.9237349629402161,0.0,0.0,-0.38303226232528687,-0.3911494016647339,-0.8077373504638672,0.0,0.0,0.0,1.378313660621643,-0.37571826577186584,0.6375217437744141,0.4200305640697479,0.9996940493583679,0.000746440957300365,5.414602583186934e-06,-0.024722568690776825,0.2814251184463501,0.3814851641654968,0.01691971719264984,0.9312750101089478,-0.0556628443300724,-5.805986404418945,-0.3875036835670471,0.6409890055656433,0.4199703335762024,0.2575809359550476,0.3854488730430603,-0.07252363860607147,0.44997647404670715,0.6874487996101379,0.42000001668930054,-0.5300213694572449,2.9999749660491943,-0.7217468023300171,-3.0000271797180176,-0.16773192584514618,-0.17055447399616241,-0.17215847969055176,-0.17237605154514313,-0.48840993642807007,-0.33469274640083313,-0.16305819153785706,0.02285672351717949
0.36666666666666664,0.04630992189049721,0.04981723800301552,0.0,0.9190546274185181,0.0,0.0,-0.3941301703453064,-0.6819721460342407,-0.8757152557373047,0.0,0.0,0.0,-2.408205270767212,-0.3700035512447357,0.6446582078933716,0.4200003147125244,0.9944708943367004,4.93119728162128e-07,7.787983122398145e-06,-0.10501191765069962,0.4304496943950653,0.5383710265159607,-0.00047112914035096765,0.017229417338967323,-0.00874965451657772,-14.987977027893066,-0.3794291019439697,0.6488164663314819,0.4203158915042877,0.6829389333724976,0.6604950428009033,0.10334444046020508,0.44997647404670715,0.6874487996101379,0.42000001668930054,-0.47999218106269836,2.9999988079071045,-0.771776556968689,-2.9999682903289795,-0.17800596356391907,-0.17772512137889862,-0.17593230307102203,-0.17254458367824554,-0.5750036239624023,-0.3902253806591034,-0.1878000944852829,0.026770001277327538
0.3833333333333333,0.039405565708875656,0.032930172979831696,0.0,0.9019308686256409,0.0,0.0,-0.431880384683609,-0.36696332693099976,-1.0540196895599365,0.0,0.0,0.0,-5.810159206390381,-0.35797378420829773,0.6588929295539856,0.4210261106491089,0.9860975742340088,-0.02518925443291664,0.004915119614452124,-0.16417337954044342,0.8686121106147766,0.960521936416626,0.12545453011989594,-5.804316997528076,2.3655712604522705,9.97359848022461,-0.36313819885253906,0.663497805595398,0.4223306179046631,1.3552381992340088,1.077942132949829,0.14570993185043335,0.44997647404670715,0.6874487996101379,0.42000001668930054,-0.4299582242965698,2.993206262588501,-0.8217907547950745,-3.000000476837158,-0.18514469265937805,-0.18204443156719208,-0.17705848813056946,-0.17020297050476074,-0.4166954457759857,-0.2396046221256256,-0.041240643709897995,0.17179706692695618
0.4,0.034594498574733734,0.020363258197903633,0.0,0.8701821565628052,0.0,0.0,-0.49273017048835754,-0.24887913465499878,-0.6286671757698059,0.0,0.0,0.0,-9.067302703857422,-0.31718531250953674,0.6833639144897461,0.42641714215278625,0.9693847298622131,0.025740111246705055,-0.046340446919202805,-0.23975664377212524,3.622711658477783,2.1210036277770996,0.45419445633888245,24.34642791748047,-17.363374710083008,9.498167991638184,-0.32342618703842163,0.6874747276306152,0.4272305369377136,3.4075608253479004,1.961083173751831,0.48984062671661377,0.44997647404670715,0.6874487996101379,0.42000001668930054,-0.3897518813610077,1.53407883644104,-0.7944636940956116,2.995424270629883,-0.19767773151397705,-0.19035038352012634,-0.1809290200471878,-0.1695803999900818,-0.8123454451560974,-0.5448780655860901,-0.27072080969810486,0.0004842177440878004
0.4166666666666667,0.03362184017896652,0.01059588324278593,0.0,0.8219726085662842,0.0,0.0,-0.5695269703865051,0.009903091937303543,-0.5519740581512451,0.0,0.0,0.0,-11.659945487976074,-0.23888088762760162,0.7250871658325195,0.4340663254261017,0.9460506439208984,0.06067652627825737,-0.08281770348548889,-0.30732351541519165,6.161110877990723,2.6853065490722656,0.5660257935523987,10.417065620422363,-12.316756248474121,9.963011741638184,-0.24410679936408997,0.7302405834197998,0.43459779024124146,5.838822841644287,3.0333549976348877,0.570001482963562,0.44997647404670715,0.6874487996101379,0.42000001668930054,-0.3718339502811432,0.9686803221702576,-0.8214490413665771,-3.000002145767212,-0.20767445862293243,-0.1971389651298523,-0.18423908948898315,-0.16953632235527039,-0.49442723393440247,-0.34004172682762146,-0.1798664778470993,-0.03375600278377533
0.43333333333333335,0.02944217436015606,0.0060184067115187645,0.0,0.7817855477333069,0.0,0.0,-0.6235474348068237,-0.21276123821735382,-0.2531983554363251,0.0,0.0,0.0,-6.683991432189941,-0.14101362228393555,0.7689569592475891,0.44573014974594116,0.9017508625984192,0.12640564143657684,-0.11968899518251419,-0.3956531286239624,6.303905010223389,1.7078653573989868,0.9232560396194458,-5.187509536743164,-3.183095932006836,3.179671287536621,-0.14594833552837372,0.7757081985473633,0.44599151611328125,6.117824554443359,2.468564510345459,0.7025828957557678,0.44997647404670715,0.6874487996101379,0.42000001668930054,-0.35652318596839905,0.849881112575531,-0.78448486328125,3.000001907348633,-0.21971619129180908,-0.20608378946781158,-0.19024111330509186,-0.17303982377052307,-0.5665462017059326,-0.42951375246047974,-0.3035247027873993,-0.20264682173728943
0.45,0.02927570417523384,0.0001265514292754233,0.0,0.7629178762435913,0.0,0.0,-0.6464954018592834,0.05353742092847824,-0.3821644186973572,0.0,0.0,0.0,-2.501572370529175,-0.03711553290486336,0.7995104193687439,0.4588503837585449,0.8312829732894897,0.1486712098121643,-0.13579468429088593,-0.5180977582931519,6.305661201477051,0.6439453363418579,0.9512344002723694,13.952703475952148,-7.590128421783447,21.336103439331055,-0.04279067739844322,0.8076760768890381,0.4581303596496582,6.368130683898926,1.3107165098190308,0.8633840084075928,0.44997647404670715,0.6874487996101379,0.42000001668930054,-0.34297680854797363,0.751290500164032,-0.8112200498580933,-3.0000016689300537,-0.2274499088525772,-0.21143759787082672,-0.19342194497585297,-0.17445994913578033,-0.4135037958621979,-0.2671946585178375,-0.13412640988826752,-0.025018857792019844
0.4666666666666667,0.02710779756307602,-0.0023999903351068497,0.0,0.7363154888153076,0.0,0.0,-0.6766383647918701,-0.16390030086040497,-0.09164261072874069,0.0,0.0,0.0,-5.616878032684326,0.06792093813419342,0.808803915977478,0.4691576063632965,0.741935670375824,0.1358073353767395,-0.18138821423053741,-0.6310197710990906,6.164113998413086,-0.7168271541595459,0.5046598315238953,-23.272953033447266,1.3312212228775024,-7.869810581207275,0.06042107939720154,0.8201946020126343,0.47029316425323486,6.288580417633057,0.20561671257019043,0.7621285915374756,0.44997647404670715,0.6874487996101379,0.42000001668930054,-0.3311227560043335,0.5766411423683167,-0.8612459897994995,-2.999737501144409,-0.2359650731086731,-0.21736612915992737,-0.1969507485628128,-0.17594759166240692,-0.46223771572113037,-0.31959304213523865,-0.18607351183891296,-0.07059427350759506
0.48333333333333334,0.02751847729086876,-0.009382483549416065,0.0,0.7215442657470703,0.0,0.0,-0.6923683285713196,0.004869477357715368,-0.3759937584400177,0.0,0.0,0.0,-1.3376497030258179,0.16576246917247772,0.8034788370132446,0.47672462463378906,0.6695437431335449,0.11904147267341614,-0.1707867681980133,-0.7130021452903748,5.558602809906006,-1.353617787361145,0.5100125670433044,-3.9699392318725586,-1.6509813070297241,-0.11205731332302094,0.16012172400951385,0.816367506980896,0.4783342778682709,5.650968551635742,-0.8361323475837708,0.3628857433795929,0.44997647404670715,0.6874487996101379,0.42000001668930054,-0.323944628238678,0.43029332160949707,-0.9112716317176819,-3.0000014305114746,-0.23885519802570343,-0.21846456825733185,-0.19649171829223633,-0.17426054179668427,-0.341139554977417,-0.1894555240869522,-0.062188711017370224,0.035364292562007904
0.5,0.02974267117679119,-0.011169462464749813,0.0,0.6989187598228455,0.0,0.0,-0.7152010202407837,0.18103274703025818,-0.055686112493276596,0.0,0.0,0.0,-4.730048656463623,0.2503192126750946,0.7851247191429138,0.47699567675590515,0.6266951560974121,0.10231316834688187,-0.16859738528728485,-0.7538965940475464,4.632879734039307,-1.445609211921692,0.0057483213022351265,-7.521158218383789,7.363744258880615,-8.814179420471191,0.2467249035835266,0.7982081174850464,0.4797990322113037,4.842441558837891,-1.3735244274139404,-0.181074321269989,0.44997647404670715,0.6874487996101379,0.42000001668930054,-0.3145929276943207,0.6018458604812622,-0.9612958431243896,-3.0000011920928955,-0.2398688793182373,-0.2233128696680069,-0.19956809282302856,-0.1760384440422058,0.07029889523983002,-0.16107845306396484,-0.11239741742610931,-0.08671006560325623
0.5166666666666666,0.0350978821516037,-0.010279594920575619,0.0,0.6908408999443054,0.0,0.0,-0.7230068445205688,0.3543164134025574,0.11604010313749313,0.0,0.0,0.0,-0.3572464883327484,0.3232018053531647,0.758970320224762,0.4694101810455322,0.541725754737854,0.04483300819993019,-0.18193422257900238,-0.8194040656089783,3.794450521469116,-2.0988664627075195,-0.41573643684387207,-1.4253860712051392,5.381247520446777,2.2101075649261475,0.3196428716182709,0.7734904289245605,0.47412216663360596,3.9618518352508545,-1.6639320850372314,-0.5335716605186462,0.44997647404670715,0.6874487996101379,0.42000001668930054,-0.3016442358493805,0.8483799695968628,-1.0113197565078735,-2.999999761581421,-0.23763981461524963,-0.2246423363685608,-0.20078304409980774,-0.1774297058582306,0.18787741661071777,-0.004743811674416065,-0.0337204709649086,-0.07814917713403702
0.5333333333333333,0.042704954743385315,-0.012506581842899323,0.0,0.6731078028678894,0.0,0.0,-0.7395443916320801,0.4933162033557892,-0.17668834328651428,0.0,0.0,0.0,-3.704695463180542,0.3808774948120117,0.7341956496238708,0.45496129989624023,0.5097634196281433,0.012155773118138313,-0.1668335199356079,-0.843895673751831,2.885169267654419,-1.6884052753448486,-0.8044748902320862,-7.442905426025391,10.376328468322754,-1.6783291101455688,0.3785163462162018,0.7481868267059326,0.46016743779182434,3.0701828002929688,-1.5742571353912354,-1.0703433752059937,0.44997647404670715,0.6874487996101379,0.42000001668930054,-0.2885821759700775,0.6499146223068237,-1.0613418817520142,-2.9986307621002197,-0.23126760125160217,-0.22169014811515808,-0.19934503734111786,-0.17765867710113525,0.33243146538734436,0.16371746361255646,0.06116706132888794,-0.05152255669236183
0.55,0.04857267439365387,-0.011594366282224655,0.0,0.668655276298523,0.0,0.0,-0.7435725331306458,0.2400086224079132,0.0611630380153656,0.0,0.0,0.0,0.24079085886478424,0.42233791947364807,0.7067409157752991,0.4355366826057434,0.48179304599761963,-0.027217630296945572,-0.14656619727611542,-0.8635119199752808,1.902072548866272,-1.90461266040802,-1.0606260299682617,-4.349971294403076,7.960422039031982,-0.9335959553718567,0.42060279846191406,0.7198176383972168,0.4410257339477539,2.0927963256835938,-1.6994030475616455,-1.307350516319275,0.44997647404670715,0.6874487996101379,0.42000001668930054,-0.27838751673698425,0.539308488368988,-1.1113640069961548,-2.9988744258880615,-0.22781001031398773,-0.22024723887443542,-0.19952130317687988,-0.1796388328075409,0.3253440856933594,0.19218285381793976,0.051797449588775635,-0.09371022880077362
0.5666666666666667,0.05459998548030853,-0.009009291417896748,0.0,0.6539438962936401,0.0,0.0,-0.7565430402755737,0.38183385133743286,0.2514286935329437,0.0,0.0,0.0,-3.215909957885742,0.44810590147972107,0.6896896958351135,0.42155322432518005,0.4804968237876892,-0.017025744542479515,0.0002530932251829654,-0.8768311142921448,1.0279420614242554,-0.456596314907074,-0.0030802488327026367,-10.5960111618042,-3.7634198665618896,5.486576080322266,0.4473820924758911,0.6998291015625,0.426385760307312,0.837754487991333,-0.6495563983917236,-0.24962615966796875,0.44997647404670715,0.6874487996101379,0.42000001668930054,-0.2711336612701416,0.33012551069259644,-1.1613943576812744,-3.003549814224243,-0.21953216195106506,-0.2150488942861557,-0.19779515266418457,-0.1812126189470291,0.6298804879188538,0.4133809506893158,0.1589924842119217,-0.07327178865671158
0.5833333333333334,0.06236175075173378,-0.009113742969930172,0.0,0.6521520614624023,0.0,0.0,-0.7580881714820862,0.4931490421295166,-0.03577595576643944,0.0,0.0,0.0,0.6444268226623535,0.45799678564071655,0.682748019695282,0.42192342877388,0.47856050729751587,-0.023799525573849678,0.044107381254434586,-0.8766229152679443,0.23713217675685883,-0.36275094747543335,0.09455819427967072,2.7837204933166504,4.158784866333008,2.3711493015289307,0.45551005005836487,0.6919147968292236,0.42570585012435913,0.17386116087436676,-0.3658357262611389,0.17988081276416779,0.44997647404670715,0.6874487996101379,0.42000001668930054,-0.28668710589408875,-1.8105206489562988,-1.2113747596740723,-2.9988367557525635,-0.20780833065509796,-0.2065606713294983,-0.19350887835025787,-0.1807580441236496,0.6029815673828125,0.4519678056240082,0.2248363345861435,0.017259908840060234
0.6,0.07213019579648972,-0.005889497697353363,0.0,0.6393487453460693,0.0,0.0,-0.7689169049263,0.6189009547233582,0.21594399213790894,0.0,0.0,0.0,-2.9440999031066895,0.4610506296157837,0.6780445575714111,0.4220244288444519,0.5143958926200867,-0.028485583141446114,0.041819293051958084,-0.8560587763786316,0.14853398501873016,-0.21794472634792328,-0.03215809538960457,-2.49042010307312,-2.0580499172210693,6.184935569763184,0.4590487778186798,0.6905158162117004,0.42832714319229126,0.25260382890701294,0.08668895810842514,0.1695789098739624,0.44997647404670715,0.6874487996101379,0.42000001668930054,-0.31386619806289673,-1.4536855220794678,-1.261319637298584,-2.99820876121521,-0.1980164349079132,-0.19949792325496674,-0.19053329527378082,-0.1814373880624771,0.7156726121902466,0.5253568291664124,0.24981515109539032,0.005730401258915663
0.6166666666666667,0.08337831497192383,-0.006403239443898201,0.0,0.6389936804771423,0.0,0.0,-0.769212007522583,0.7279753088951111,-0.05555383116006851,0.0,0.0,0.0,0.8788605332374573,0.46329066157341003,0.6751521229743958,0.42049720883369446,0.5461685061454773,-0.007299208082258701,0.007441485766321421,-0.8376103639602661,0.08555565774440765,-0.13319380581378937,-0.14604492485523224,-4.991090774536133,-7.773286819458008,2.784661293029785,0.4590737819671631,0.6912293434143066,0.4308314919471741,-0.19500911235809326,0.015027390792965889,0.15675801038742065,0.44997647404670715,0.6874487996101379,0.42000001668930054,-0.360078901052475,-2.9998514652252197,-1.3000082969665527,-1.7220045328140259,-0.18571963906288147,-0.18984510004520416,-0.1850891262292862,-0.17975538969039917,0.6009373068809509,0.49162665009498596,0.2808988094329834,0.09064719080924988
0.6333333333333333,0.09266099333763123,-0.0042203497141599655,0.0,0.6611489653587341,0.0,0.0,-0.7502546310424805,0.4926169216632843,0.15050779283046722,0.0,0.0,0.0,4.305304527282715,0.4615923762321472,0.6747573614120483,0.4202442467212677,0.5570579767227173,0.0033846735022962093,-0.005123778246343136,-0.8304508924484253,-0.09738542884588242,0.06607117503881454,0.026153767481446266,-0.47609394788742065,-1.242100715637207,-0.7904855608940125,0.4569057822227478,0.6913590431213379,0.43399912118911743,-0.14740517735481262,0.11726071685552597,0.18994468450546265,0.44997647404670715,0.6874487996101379,0.42000001668930054,-0.4100962281227112,-2.999897003173828,-1.3486422300338745,-2.9987194538116455,-0.1778925359249115,-0.18324172496795654,-0.18139782547950745,-0.17867010831832886,0.5135504007339478,0.43872782588005066,0.265016108751297,0.10997246950864792
0.65,0.10230382531881332,-0.005070927552878857,0.0,0.6692901253700256,0.0,0.0,-0.7430011630058289,0.5893163681030273,-0.10029224306344986,0.0,0.0,0.0,0.2457164227962494,0.46053633093833923,0.6754900813102722,0.420000821352005,0.5538082718849182,-4.514081865636399e-06,-1.994368176383432e-06,-0.8326441645622253,-0.04040076211094856,0.028607593849301338,-5.1796785555779934e-05,-0.00034342234721407294,-0.0021022940054535866,-0.2771492302417755,0.4562528133392334,0.6936100721359253,0.43800610303878784,-0.043264199048280716,0.11873850226402283,0.24926596879959106,0.44997647404670715,0.6874487996101379,0.42000001668930054,-0.4601341485977173,-2.996567964553833,-1.3986091613769531,-3.0001864433288574,-0.16963820159435272,-0.17570549249649048,-0.1760859489440918,-0.1752282679080963,0.40228691697120667,0.4060840606689453,0.3247967064380646,0.26333990693092346
0.6666666666666666,0.1132209524512291,-0.009373840875923634,0.0,0.6549128890037537,0.0,0.0,-0.7557043433189392,0.6893593072891235,-0.3286994695663452,0.0,0.0,0.0,-3.196763753890991,0.46045878529548645,0.6755446791648865,0.4200000762939453,0.5536602139472961,-2.928470394181204e-06,-1.0801288226502948e-05,-0.8327425718307495,0.00023165298625826836,-0.0006092272233217955,-0.00010569416917860508,0.011683771386742592,-0.013775249943137169,-0.0026987753808498383,0.458892822265625,0.6963508129119873,0.4456551671028137,0.3468698263168335,0.16896244883537292,0.7915647029876709,0.44997647404670715,0.6874487996101379,0.42000001668930054,-0.5101470947265625,-2.999983549118042,-1.4486274719238281,-2.999999523162842,-0.16527670621871948,-0.17075884342193604,-0.1718297004699707,-0.17132526636123657,0.178048238158226,0.23864921927452087,0.2298402637243271,0.2405560463666916
0.6833333333333333,0.12765458226203918,-0.008903318084776402,0.0,0.617919385433197,0.0,0.0,-0.7862414717674255,0.8294499516487122,0.03840357065200806,0.0,0.0,0.0,-6.603612899780273,0.4604594111442566,0.675544261932373,0.41999998688697815,0.5536594390869141,-2.93147695629159e-06,-3.741457703654305e-06,-0.8327431082725525,-1.8643459043232724e-05,-0.0003313035413157195,-9.216670878231525e-05,0.00857313722372055,-0.003370247082784772,-0.0007469105185009539,0.4726186990737915,0.6948082447052002,0.46546775102615356,1.3925142288208008,-0.18522074818611145,1.6551966667175293,0.44997647404670715,0.6874487996101379,0.42000001668930054,-0.5601596236228943,-2.9999406337738037,-1.4986457824707031,-2.999995231628418,-0.1697540283203125,-0.1728830188512802,-0.17270053923130035,-0.17073675990104675,-0.22258391976356506,-0.09590091556310654,-0.024814825505018234,0.06105676293373108
0.7,0.13863222301006317,-0.0068735419772565365,0.0,0.5952321290969849,0.0,0.0,-0.8035538196563721,0.5761066675186157,0.11147510260343552,0.0,0.0,0.0,-2.321436643600464,0.4604594111442566,0.675544261932373,0.41999998688697815,0.5536594986915588,-2.904358325395151e-06,-4.129864464630373e-06,-0.8327431678771973,-2.1827738237334415e-05,-0.0003327851591166109,-9.252713061869144e-05,0.008637018501758575,-0.003460269421339035,-0.0007441333727911115,0.4959923028945923,0.696069598197937,0.495151162147522,1.370383381843567,0.30980125069618225,1.8491562604904175,0.44997647404670715,0.6874487996101379,0.42000001668930054,-0.5806632041931152,0.27036547660827637,-1.5486640930175781,-2.9999992847442627,-0.17193758487701416,-0.17380140721797943,-0.1732308566570282,-0.17068542540073395,0.009624100290238857,0.026694579049944878,-0.005207609385251999,-0.027244221419095993
0.7166666666666667,0.14466407895088196,-0.0035949326120316982,0.0,0.5986400842666626,0.0,0.0,-0.8010181188583374,0.28858622908592224,0.24139507114887238,0.0,0.0,0.0,1.3698631525039673,0.4604594111442566,0.6755443215370178,0.41999998688697815,0.5536593198776245,-2.9672748951270478e-06,-4.39334507973399e-06,-0.8327431678771973,-2.336375109734945e-05,-0.00033298454945906997,-9.344262070953846e-05,0.00862833671271801,-0.0034675169736146927,-0.000742491683922708,0.5148316621780396,0.7024398446083069,0.5202683806419373,0.8280116319656372,0.43718937039375305,1.2117154598236084,0.44997647404670715,0.6874487996101379,0.42000001668930054,-0.5549488663673401,2.5910351276397705,-1.5097987651824951,3.000000238418579,-0.17046311497688293,-0.17215511202812195,-0.1721344143152237,-0.17003139853477478,0.1349468231201172,0.14377497136592865,0.11282636970281601,0.08382786065340042
0.7333333333333333,0.14702476561069489,-0.004399741534143686,0.0,0.5911665558815002,0.0,0.0,-0.8065494894981384,0.10428076982498169,-0.13146355748176575,0.0,0.0,0.0,-2.023632287979126,0.4604594111442566,0.6755443215370178,0.41999998688697815,0.5536595582962036,-2.9989232643856667e-06,-4.220731170789804e-06,-0.8327430486679077,-2.4350234525627457e-05,-0.00033275055466219783,-9.372225031256676e-05,0.008619558066129684,-0.0034725749865174294,-0.0007403407944366336,0.5214235782623291,0.7089629769325256,0.5334994792938232,-0.056151315569877625,0.3429766893386841,0.555658757686615,0.44997647404670715,0.6874487996101379,0.42000001668930054,-0.5349574685096741,0.013440106064081192,-1.4597461223602295,2.9999992847442627,-0.1676049679517746,-0.1690516620874405,-0.1693958193063736,-0.1677083820104599,0.14832603931427002,0.17817097902297974,0.1728532761335373,0.1585732102394104
0.75,0.1465567946434021,-0.0009023118182085454,0.0,0.5965900421142578,0.0,0.0,-0.8025461435317993,-0.07069973647594452,0.35171714425086975,0.0,0.0,0.0,1.6847641468048096,0.460459440946579,0.6755443215370178,0.41999998688697815,0.5536596179008484,-3.0841340503684478e-06,-4.407828328112373e-06,-0.8327430486679077,-2.3338114260695875e-05,-0.0003328324528411031,-9.3469163402915e-05,0.008622361347079277,-0.0034660575911402702,-0.0007423924398608506,0.5180983543395996,0.7138144969940186,0.5394655466079712,-0.31865420937538147,0.33464616537094116,0.18914136290550232,0.44997647404670715,0.6874487996101379,0.42000001668930054,-0.5145128965377808,2.2307071685791016,-1.4767134189605713,-2.9999990463256836,-0.17036955058574677,-0.1702442467212677,-0.16963981091976166,-0.1673291176557541,-0.23349595069885254,-0.13207879662513733,-0.06594149768352509,-0.023154234513640404
0.7666666666666666,0.1472073495388031,0.0008746754028834403,0.0,0.5902955532073975,0.0,0.0,-0.8071871995925903,0.06947478652000427,0.048587992787361145,0.0,0.0,0.0,-1.8320320844650269,0.4604594111442566,0.6755443215370178,0.41999998688697815,0.5536596775054932,-3.0210580916900653e-06,-4.359285412647296e-06,-0.8327429890632629,-2.3752872948534787e-05,-0.0003329251485411078,-9.356997907161713e-05,0.00862546544522047,-0.0034693158231675625,-0.0007416724693030119,0.5051465034484863,0.7185236215591431,0.5357633829116821,-1.176313042640686,0.20793543756008148,-0.43197131156921387,0.44997647404670715,0.6874487996101379,0.42000001668930054,-0.5149497985839844,-1.9214990139007568,-1.4380534887313843,3.000000238418579,-0.17319194972515106,-0.17168448865413666,-0.1701819747686386,-0.16734257340431213,-0.16676212847232819,-0.08593759685754776,-0.030389390885829926,0.0021534075494855642
0.7833333333333333,0.1504591852426529,0.001548681640997529,0.0,0.5968263149261475,0.0,0.0,-0.8023704886436462,0.2341223955154419,-0.014949558302760124,0.0,0.0,0.0,1.8195462226867676,0.4604594111442566,0.6755443215370178,0.41999998688697815,0.5536595582962036,-3.037383294213214e-06,-4.3036243368987925e-06,-0.8327430486679077,-2.3807704565115273e-05,-0.00033285177778452635,-9.35923308134079e-05,0.00862274132668972,-0.003468089736998081,-0.0007414141437038779,0.49033883213996887,0.7216614484786987,0.5296638011932373,-0.6307865381240845,0.23188118636608124,-0.2726176679134369,0.44997647404670715,0.6874487996101379,0.42000001668930054,-0.5381128787994385,-0.925753116607666,-1.4554630517959595,-2.9999992847442627,-0.1776694506406784,-0.17446237802505493,-0.17153358459472656,-0.16758236289024353,-0.23070044815540314,-0.139508917927742,-0.05513126775622368,0.016701890155673027
0.8,0.15515969693660736,-0.0013693959917873144,0.0,0.5912285447120667,0.0,0.0,-0.8065040707588196,0.30837786197662354,-0.25320348143577576,0.0,0.0,0.0,-1.7203457355499268,0.460459440946579,0.6755443215370178,0.41999998688697815,0.5536596179008484,-3.1108554594538873e-06,-4.289098342269426e-06,-0.8327430486679077,-2.3094700736692175e-05,-0.0003328645834699273,-9.338953532278538e-05,0.008624184876680374,-0.0034653551410883665,-0.0007429083343595266,0.4832454323768616,0.7228299379348755,0.5215779542922974,-0.20245954394340515,-0.058084845542907715,-0.4995529055595398,0.44997647404670715,0.6874487996101379,0.42000001668930054,-0.5807670950889587,-3.000000238418579,-1.4270154237747192,3.0000007152557373,-0.18124453723430634,-0.17656055092811584,-0.1720731556415558,-0.16663317382335663,-0.17283403873443604,-0.08340279012918472,0.018645700067281723,0.12171784788370132
0.8166666666666667,0.1623314768075943,-0.003089996287599206,0.0,0.5645641684532166,0.0,0.0,-0.8253891468048096,0.4845680296421051,0.0005725453374907374,0.0,0.0,0.0,-4.771282196044922,0.4604594111442566,0.6755443215370178,0.41999998688697815,0.5536596775054932,-3.03468800666451e-06,-4.263462415110553e-06,-0.8327429890632629,-2.397257776465267e-05,-0.000332929688738659,-9.365659207105637e-05,0.008624703623354435,-0.003470847848802805,-0.0007413203711621463,0.48388099670410156,0.7202898263931274,0.5188096761703491,0.27535200119018555,-0.21968671679496765,0.28419411182403564,0.44997647404670715,0.6874487996101379,0.42000001668930054,-0.6307831406593323,-2.9999799728393555,-1.4446678161621094,-3.0,-0.18449893593788147,-0.17889340221881866,-0.17313098907470703,-0.16627787053585052,-0.20573027431964874,-0.17118005454540253,-0.11078546941280365,-0.038528211414813995
0.8333333333333334,0.1718897670507431,-0.00047548545990139246,0.0,0.5533549189567566,0.0,0.0,-0.8329455852508545,0.6101990342140198,0.21924865245819092,0.0,0.0,0.0,-0.6322658061981201,0.4604594111442566,0.6755443215370178,0.41999998688697815,0.5536595582962036,-3.031584583368385e-06,-4.210437964502489e-06,-0.8327430486679077,-2.3585580493090674e-05,-0.0003329020692035556,-9.351060725748539e-05,0.008625115267932415,-0.003467726521193981,-0.0007419182802550495,0.4894895851612091,0.7214394807815552,0.525410532951355,0.33244895935058594,0.25975915789604187,0.48612329363822937,0.44997647404670715,0.6874487996101379,0.42000001668930054,-0.6485675573348999,0.5702611804008484,-1.4946861267089844,-3.0,-0.1868487000465393,-0.18147149682044983,-0.17552906274795532,-0.16831649839878082,-0.06977056711912155,-0.1208370104432106,-0.15108637511730194,-0.17344847321510315
0.85,0.17729929089546204,-0.0031999305356293917,0.0,0.5685200095176697,0.0,0.0,-0.8226694464683533,0.3329240679740906,-0.22291822731494904,0.0,0.0,0.0,2.859375476837158,0.460459440946579,0.6755443215370178,0.41999998688697815,0.5536596179008484,-3.0870501177560072e-06,-4.398723376652924e-06,-0.8327430486679077,-2.333777410967741e-05,-0.0003328429302200675,-9.347102604806423e-05,0.008622610941529274,-0.003466351656243205,-0.000742423115298152,0.4949824810028076,0.7279895544052124,0.5288857817649841,0.26443183422088623,0.2827783524990082,-0.08286953717470169,0.44997647404670715,0.6874487996101379,0.42000001668930054,-0.6425601243972778,0.1809287965297699,-1.4559712409973145,3.000000238418579,-0.18140222132205963,-0.17761504650115967,-0.1729484498500824,-0.16688741743564606,0.18826113641262054,0.1420222967863083,0.106765016913414,0.07012186199426651
0.8666666666666667,0.17964382469654083,-0.008309523575007915,0.0,0.5696064829826355,0.0,0.0,-0.8219175338745117,0.022276151925325394,-0.32811492681503296,0.0,0.0,0.0,-0.9399909377098083,0.4604594111442566,0.6755443215370178,0.41999998688697815,0.5536596775054932,-3.03210777019558e-06,-4.350603830971522e-06,-0.8327429890632629,-2.3655091354157776e-05,-0.00033294735476374626,-9.35443677008152e-05,0.008626166731119156,-0.0034695507492870092,-0.0007419383036904037,0.49923190474510193,0.7301062345504761,0.5240402221679688,0.22216518223285675,0.01807333715260029,-0.3409354090690613,0.44997647404670715,0.6874487996101379,0.42000001668930054,-0.661697268486023,-2.251878499984741,-1.4059185981750488,3.0,-0.18017075955867767,-0.17666389048099518,-0.17214421927928925,-0.1663072109222412,-0.0170084647834301,-0.01120792981237173,-2.938613761216402e-06,0.003496602177619934
