vladlanda/robotic-transformer/data/env_000_episode_0006.csv
sim_time_s,robot_box_x,robot_box_y,robot_box_z,robot_box_quat_w,robot_box_quat_x,robot_box_quat_y,robot_box_quat_z,robot_box_linvel_x,robot_box_linvel_y,robot_box_linvel_z,robot_box_angvel_x,robot_box_angvel_y,robot_box_angvel_z,cube_world_x,cube_world_y,cube_world_z,cube_quat_w,cube_quat_x,cube_quat_y,cube_quat_z,cube_linvel_x,cube_linvel_y,cube_linvel_z,cube_angvel_x,cube_angvel_y,cube_angvel_z,endpoint_world_x,endpoint_world_y,endpoint_world_z,endpoint_linvel_x,endpoint_linvel_y,endpoint_linvel_z,target_cube_world_x,target_cube_world_y,target_cube_world_z,gripper_actual_pos_rad_gp_leftgearjoint,gripper_actual_vel_rad_s_gp_leftgearjoint,gripper_actual_pos_rad_gp_rotatingjoint,gripper_actual_vel_rad_s_gp_rotatingjoint,motor_angle_rad_joint1,motor_angle_rad_joint2,motor_angle_rad_joint3,motor_angle_rad_joint4,motor_speed_rad_s_joint1,motor_speed_rad_s_joint2,motor_speed_rad_s_joint3,motor_speed_rad_s_joint4
0.0,0.0,0.0,0.0,1.0,0.0,0.0,0.0,0.0,0.0,0.0,0.0,0.0,0.0,-0.3349571228027344,0.6497254371643066,0.41999998688697815,1.0,0.0,0.0,0.0,0.0,0.0,0.0,0.0,0.0,0.0,3.42540442943573e-06,-0.005000244826078415,1.313499927520752,0.0,0.0,0.0,0.42259448766708374,0.7755463123321533,0.42000001668930054,-1.5707999467849731,0.0,0.0,0.0,0.0,0.0,0.0,0.0,0.0,0.0,0.0,0.0
0.016666666666666666,0.0028905326034873724,0.0021213435102254152,0.0,0.999868631362915,0.0,0.0,-0.016209373250603676,0.23970790207386017,0.17933768033981323,0.0,0.0,0.0,-3.1456985473632812,-0.3349572420120239,0.6497251391410828,0.41999998688697815,1.0,3.2799905511637917e-06,-8.339794135281409e-07,8.465515577427141e-08,-1.9833774786093272e-05,0.00017983047291636467,-6.132945418357849e-05,0.0009432245860807598,-0.004689525347203016,-0.00031981084612198174,-0.006993912160396576,0.0040574707090854645,1.3159337043762207,-0.7952537536621094,1.0435786247253418,0.1793779730796814,0.42259448766708374,0.7755463123321533,0.42000001668930054,-1.5301095247268677,3.0000033378601074,-0.045866064727306366,-3.0000014305114746,0.0008728003012947738,0.0007987892604433,0.0007127224234864116,0.0006131443078629673,0.11052048951387405,0.09708653390407562,0.08278842270374298,0.06757374852895737
0.03333333333333333,0.008899959735572338,0.006680037826299667,0.0,0.9998576045036316,0.0,0.0,-0.0168760959059,0.40298986434936523,0.31310611963272095,0.0,0.0,0.0,0.8600684404373169,-0.3349573612213135,0.649725079536438,0.4200000464916229,1.0,3.3908531804627273e-06,-2.132488134520827e-06,-3.710428941872124e-08,0.0002635785494931042,0.0002693783608265221,-0.00010509602725505829,-0.0017707846127450466,0.004130862653255463,-0.00013547409616876394,-0.026524193584918976,0.025384139269590378,1.3168243169784546,-1.4787213802337646,1.550747275352478,-0.05131125450134277,0.42259448766708374,0.7755463123321533,0.42000001668930054,-1.4800901412963867,3.0000016689300537,-0.09590582549571991,-2.999999523162842,0.0029319182503968477,0.0025882369372993708,0.0022068347316235304,0.001785000553354621,0.15905559062957764,0.13439862430095673,0.10825223475694656,0.08050238341093063
0.05,0.017563963308930397,0.013465140014886856,0.0,0.9994885921478271,0.0,0.0,-0.031976811587810516,0.5823491811752319,0.44976359605789185,0.0,0.0,0.0,-2.643031597137451,-0.33495739102363586,0.6497251391410828,0.4200000464916229,1.0,3.7651284401363228e-06,-2.2118861124909017e-06,5.622759147172474e-09,0.00026530996547080576,0.00026691515813581645,-0.00010440382175147533,-0.00172425655182451,0.004177390597760677,-0.00012948956282343715,-0.05445815995335579,0.056743938475847244,1.3123779296875,-1.836694598197937,2.170098066329956,-0.4521969258785248,0.42259448766708374,0.7755463123321533,0.42000001668930054,-1.4300718307495117,3.0000009536743164,-0.1459256410598755,-3.0000009536743164,0.0054304711520671844,0.0045767431147396564,0.003651208011433482,0.002649436006322503,0.17138834297657013,0.12945930659770966,0.08566900342702866,0.0399070642888546
0.06666666666666667,0.029750073328614235,0.022700466215610504,0.0,0.997560977935791,0.0,0.0,-0.06980004161596298,0.7915744185447693,0.598541796207428,0.0,0.0,0.0,-5.874222755432129,-0.33495739102363586,0.649725079536438,0.4200000464916229,0.9999999403953552,3.406779342185473e-06,-2.285526988998754e-06,4.300881926155853e-07,0.00026702668401412666,0.00026791810523718596,-0.00010437914170324802,-0.0017406379338353872,0.004211799707263708,-0.00012850595521740615,-0.08665353804826736,0.09638214111328125,1.3014487028121948,-1.9651411771774292,2.5841264724731445,-0.8408828973770142,0.42259448766708374,0.7755463123321533,0.42000001668930054,-1.3800450563430786,3.000000476837158,-0.11997774243354797,3.0000016689300537,0.008001682348549366,0.006378586404025555,0.004644789732992649,0.002794794039800763,0.1561230719089508,0.1015753522515297,0.044971104711294174,-0.013756364583969116
0.08333333333333333,0.04485684633255005,0.03438450023531914,0.0,0.9957711696624756,0.0,0.0,-0.09186810255050659,0.9438924193382263,0.7490305304527283,0.0,0.0,0.0,-1.653535008430481,-0.33495739102363586,0.649725079536438,0.4200000464916229,1.0,3.6973510759708006e-06,-2.1889595700486097e-06,-2.632473012909031e-07,0.00026389595586806536,0.0002658632874954492,-0.0001043388620018959,-0.0017081330297514796,0.004150238819420338,-0.00012991279072593898,-0.12200802564620972,0.1352909505367279,1.2869582176208496,-2.0652265548706055,2.399381637573242,-0.9122235774993896,0.42259448766708374,0.7755463123321533,0.42000001668930054,-1.330038070678711,3.0000009536743164,-0.15191657841205597,-3.0000007152557373,0.009197311475872993,0.006549053359776735,0.003749213879927993,0.0007918613846413791,0.022754134610295296,-0.048870183527469635,-0.12265057116746902,-0.19855967164039612
0.1,0.05409873649477959,0.04398864135146141,0.0,0.9917224049568176,0.0,0.0,-0.12840043008327484,0.4276103973388672,0.5171605944633484,0.0,0.0,0.0,-5.345202445983887,-0.33495739102363586,0.649725079536438,0.4200000464916229,0.9999999403953552,3.62046125701454e-06,-2.2652770894637797e-06,1.745990232393524e-07,0.0002667673397809267,0.00026740715838968754,-0.0001040794886648655,-0.0017385382670909166,0.004209098871797323,-0.0001277524424949661,-0.15401454269886017,0.17929959297180176,1.2689666748046875,-1.7315638065338135,2.936469316482544,-1.1869432926177979,0.42259448766708374,0.7755463123321533,0.42000001668930054,-1.2800120115280151,2.999998092651367,-0.11837118119001389,3.000000238418579,0.003724865149706602,0.0002051828778348863,-0.003517421893775463,-0.007451171986758709,-0.44454267621040344,-0.5004509091377258,-0.5588640570640564,-0.6199483871459961
0.11666666666666667,0.06668737530708313,0.056688591837882996,0.0,0.9887712001800537,0.0,0.0,-0.14943714439868927,0.8566349744796753,0.8305944204330444,0.0,0.0,0.0,-1.3970181941986084,-0.33495739102363586,0.649725079536438,0.4200000464916229,1.0,3.7984573282301426e-06,-2.262856924062362e-06,-1.5021495869405044e-07,0.00026374036679044366,0.000265661277808249,-0.00010429229587316513,-0.001705389702692628,0.004147546831518412,-0.000129798921989277,-0.18830233812332153,0.22479692101478577,1.2441632747650146,-2.2033329010009766,2.772826910018921,-1.7341372966766357,0.42259448766708374,0.7755463123321533,0.42000001668930054,-1.2300195693969727,2.999835729598999,-0.15032759308815002,-2.9999661445617676,-0.0012286920100450516,-0.0058613610453903675,-0.010705101303756237,-0.01577082835137844,-0.2780706286430359,-0.34207308292388916,-0.4056749641895294,-0.4690410792827606
0.13333333333333333,0.07786005735397339,0.0658411979675293,0.0,0.984006941318512,0.0,0.0,-0.17813022434711456,0.6561397314071655,0.4592810571193695,0.0,0.0,0.0,-4.223509311676025,-0.33495739102363586,0.6497251391410828,0.4200000464916229,0.9999999403953552,3.5505674986779923e-06,-2.2298811472865054e-06,2.928988749317796e-07,0.0002670325629878789,0.0002677947923075408,-0.00010417005978524685,-0.0017441295785829425,0.004213639069348574,-0.00012800269178114831,-0.22330191731452942,0.27548402547836304,1.2139040231704712,-1.9157862663269043,3.3124656677246094,-1.939894676208496,0.42259448766708374,0.7755463123321533,0.42000001668930054,-1.180008888244629,3.000001907348633,-0.19834424555301666,-2.742706537246704,-0.006230024620890617,-0.012189950793981552,-0.018326779827475548,-0.02465074695646763,-0.2641405463218689,-0.35616806149482727,-0.4448544383049011,-0.5300858020782471
0.15,0.08649155497550964,0.07112762331962585,0.0,0.972683310508728,0.0,0.0,-0.2321360558271408,0.4646041691303253,0.25643154978752136,0.0,0.0,0.0,-7.473594665527344,-0.3349573612213135,0.649725079536438,0.4200000464916229,1.0,3.3323158277198672e-06,-2.1020741769461893e-06,1.3129495357588894e-07,0.00026730698300525546,0.0002685973886400461,-0.00010459753684699535,-0.0017497893422842026,0.0042156679555773735,-0.00012928378419019282,-0.25397616624832153,0.33700597286224365,1.1741176843643188,-1.6592800617218018,4.020959854125977,-2.7905495166778564,0.42259448766708374,0.7755463123321533,0.42000001668930054,-1.129999041557312,2.9999990463256836,-0.16368599236011505,3.0000007152557373,-0.011888903565704823,-0.019154787063598633,-0.026532234624028206,-0.034031759947538376,-0.4007416069507599,-0.46221694350242615,-0.5198388695716858,-0.5737283229827881
0.16666666666666666,0.09142381697893143,0.07771549373865128,0.0,0.9645273089408875,0.0,0.0,-0.2639830708503723,0.1894928216934204,0.4546363949775696,0.0,0.0,0.0,-2.7233312129974365,-0.33495739102363586,0.649725079536438,0.4200000464916229,1.0,3.7374031762738014e-06,-2.2332269509206526e-06,-1.876583866078363e-07,0.00026432963204570115,0.000266269693383947,-0.00010446016676723957,-0.0017119431868195534,0.004157555289566517,-0.00013001271872781217,-0.2855399549007416,0.399814635515213,1.1201815605163574,-1.667755126953125,3.9060182571411133,-3.6390316486358643,0.42259448766708374,0.7755463123321533,0.42000001668930054,-1.0799990892410278,2.9999985694885254,-0.1953526735305786,-2.999999761581421,-0.020482152700424194,-0.028431465849280357,-0.036421358585357666,-0.0444672666490078,-0.5908159613609314,-0.6147278547286987,-0.6345627307891846,-0.6507000923156738
0.18333333333333332,0.09938684850931168,0.08424882590770721,0.0,0.9515650272369385,0.0,0.0,-0.3074475824832916,0.500948429107666,0.37942472100257874,0.0,0.0,0.0,-6.260532855987549,-0.33495739102363586,0.6497251391410828,0.4200000464916229,0.9999999403953552,3.6603628359443974e-06,-2.302359689565492e-06,2.52847314641258e-07,0.0002669092209544033,0.00026760256150737405,-0.0001041253563016653,-0.0017412835732102394,0.004211553372442722,-0.00012787102605216205,-0.3109864592552185,0.46649086475372314,1.0517890453338623,-1.233092188835144,4.059412002563477,-4.509997367858887,0.42259448766708374,0.7755463123321533,0.42000001668930054,-1.0299922227859497,3.0000011920928955,-0.2453797310590744,-3.0000009536743164,-0.029542559757828712,-0.037765566259622574,-0.045971110463142395,-0.054182637482881546,-0.6726968288421631,-0.6624104976654053,-0.6502370834350586,-0.6367335319519043
0.2,0.10430867224931717,0.09112796187400818,0.0,0.9434049129486084,0.0,0.0,-0.33164313435554504,0.26027825474739075,0.3791119456291199,0.0,0.0,0.0,-1.8895055055618286,-0.33495739102363586,0.649725079536438,0.4200000464916229,1.0,3.5909113194065867e-06,-2.3004156446404522e-06,1.3872801218894892e-07,0.00026654769317246974,0.0002673235139809549,-0.00010424060747027397,-0.0017326237866654992,0.004203386604785919,-0.00012819955009035766,-0.33243340253829956,0.5261107683181763,0.969734787940979,-1.0001497268676758,3.4030027389526367,-5.217108249664307,0.42259448766708374,0.7755463123321533,0.42000001668930054,-0.979982316493988,3.0,-0.2954079806804657,-2.9999988079071045,-0.044087234884500504,-0.05205020308494568,-0.05935627222061157,-0.06669151782989502,-0.8640670776367188,-0.849902868270874,-0.79413902759552,-0.7394524216651917
0.21666666666666667,0.10555106401443481,0.09948383271694183,0.0,0.9311350584030151,0.0,0.0,-0.36467456817626953,0.00019693518697749823,0.5557922720909119,0.0,0.0,0.0,-5.0619964599609375,-0.33495739102363586,0.6497251391410828,0.4200000464916229,1.0,3.607003463912406e-06,-2.2610099676967366e-06,1.9621262836722053e-08,0.0002644715132191777,0.00026558490935713053,-0.00010396563448011875,-0.0017088435124605894,0.004164247307926416,-0.00012832065112888813,-0.3474051356315613,0.5801385045051575,0.8763367533683777,-0.6145142912864685,2.9926815032958984,-5.861405372619629,0.42259448766708374,0.7755463123321533,0.42000001668930054,-0.9299716353416443,2.999997854232788,-0.34543824195861816,-3.0,-0.060393646359443665,-0.06813971698284149,-0.07487627863883972,-0.08138906210660934,-0.987104594707489,-0.9858517050743103,-0.9814127683639526,-0.9488589763641357
0.23333333333333334,0.11022812873125076,0.10351251810789108,0.0,0.924818754196167,0.0,0.0,-0.38040807843208313,0.288757860660553,0.16423900425434113,0.0,0.0,0.0,-0.911199688911438,-0.3349573612213135,0.649725079536438,0.4200000464916229,0.9999999403953552,3.742284661711892e-06,-2.2275266928772908e-06,4.589204536387115e-07,0.00026475160848349333,0.00026671282830648124,-0.00010453304275870323,-0.00171882554423064,0.004165722988545895,-0.0001301881711697206,-0.36008280515670776,0.6206315159797668,0.7776166200637817,-0.5517618060112,1.9483532905578613,-6.031678199768066,0.42259448766708374,0.7755463123321533,0.42000001668930054,-0.8799609541893005,2.99999737739563,-0.39546990394592285,-2.9999969005584717,-0.07525017112493515,-0.08293940126895905,-0.08961087465286255,-0.09554591029882431,-0.9889064431190491,-0.9908299446105957,-0.9923518896102905,-0.949850857257843
0.25,0.10941077768802643,0.11137104034423828,0.0,0.9156761169433594,0.0,0.0,-0.4019169807434082,-0.053461551666259766,0.4374578893184662,0.0,0.0,0.0,-3.508906364440918,-0.33495739102363586,0.649725079536438,0.4200000464916229,1.0,3.3944668302865466e-06,-2.2821172933618072e-06,1.336286601372194e-07,0.00026679367874749005,0.0002679389144759625,-0.00010439474135637283,-0.0017417257186025381,0.004206514917314053,-0.00012883533781860024,-0.3630157709121704,0.640317440032959,0.6751004457473755,0.17401890456676483,0.6174101233482361,-6.011905670166016,0.42259448766708374,0.7755463123321533,0.42000001668930054,-0.8299508690834045,3.0000009536743164,-0.4455013871192932,-2.9999983310699463,-0.09290795028209686,-0.100293830037117,-0.10675964504480362,-0.11255097389221191,-0.6983538269996643,-0.7573689222335815,-0.8137660622596741,-0.8652156591415405
0.26666666666666666,0.11271128803491592,0.1134495735168457,0.0,0.9134102463722229,0.0,0.0,-0.40704023838043213,0.18727616965770721,0.06293054670095444,0.0,0.0,0.0,0.1953294724225998,-0.33495739102363586,0.6497251391410828,0.4200000464916229,1.0,3.683521072161966e-06,-2.3101358692656504e-06,2.1009377348946146e-07,0.0002647914516273886,0.0002662584010977298,-0.00010421173647046089,-0.0017169081838801503,0.004168983548879623,-0.00012909200449939817,-0.36401498317718506,0.6446839570999146,0.5782265663146973,0.05975888669490814,-0.186687171459198,-5.654845237731934,0.42259448766708374,0.7755463123321533,0.42000001668930054,-0.7799420952796936,2.9999940395355225,-0.4955316185951233,-3.000000476837158,-0.10473128408193588,-0.1125015914440155,-0.11939435452222824,-0.12561863660812378,-0.958779513835907,-0.9278423190116882,-0.9039661288261414,-0.8854155540466309
0.2833333333333333,0.11208587139844894,0.11319024115800858,0.0,0.9181719422340393,0.0,0.0,-0.3961821496486664,-0.1150556206703186,-0.039740126579999924,0.0,0.0,0.0,2.1213903427124023,-0.33495739102363586,0.649725079536438,0.4200000464916229,1.0,3.307066890556598e-06,-2.212535264334292e-06,2.6255446528011817e-07,0.00026660817093215883,0.0002674499119166285,-0.00010424223728477955,-0.0017352099530398846,0.004204348661005497,-0.0001282771409023553,-0.36217382550239563,0.6436586380004883,0.4889594316482544,0.26505792140960693,-0.0945490226149559,-4.854910850524902,0.42259448766708374,0.7755463123321533,0.42000001668930054,-0.7299336194992065,3.0000007152557373,-0.5455597043037415,-3.000002384185791,-0.1223052591085434,-0.12988218665122986,-0.1366349309682846,-0.14275287091732025,-1.0232911109924316,-1.0176339149475098,-1.0133020877838135,-1.0098350048065186
0.3,0.10775632411241531,0.11118253320455551,0.0,0.9157586097717285,0.0,0.0,-0.4017289876937866,-0.23091472685337067,-0.1965356320142746,0.0,0.0,0.0,-1.5625101327896118,-0.33495739102363586,0.649725079536438,0.4200000464916229,1.0,3.6565252230502665e-06,-2.2969290967012057e-06,-2.4498103812220506e-07,0.0002653322007972747,0.0002659547026269138,-0.00010385178029537201,-0.001716420752927661,0.004181907512247562,-0.000127459890791215,-0.3496728539466858,0.6425433158874512,0.40928781032562256,1.1200237274169922,-0.01955306902527809,-4.657205581665039,0.42259448766708374,0.7755463123321533,0.42000001668930054,-0.6799266934394836,2.9999964237213135,-0.5955857038497925,-2.9999988079071045,-0.13953737914562225,-0.14696204662322998,-0.15361584722995758,-0.15966475009918213,-0.8348010182380676,-0.8693364858627319,-0.9022391438484192,-0.9320240020751953
0.31666666666666665,0.10238365828990936,0.10633262991905212,0.0,0.9197958707809448,0.0,0.0,-0.3923971354961395,-0.36585596203804016,-0.33029744029045105,0.0,0.0,0.0,2.0930016040802,-0.3353346586227417,0.6455415487289429,0.421326607465744,0.9945510625839233,0.026013383641839027,-0.008693697862327099,-0.10057783871889114,0.009042073972523212,-0.25356030464172363,0.09676405787467957,4.009220123291016,-1.1768479347229004,-13.84774112701416,-0.3486163914203644,0.6442285180091858,0.42192310094833374,0.03399632126092911,0.05102255940437317,-0.2091234177350998,0.42259448766708374,0.7755463123321533,0.42000001668930054,-0.6300787925720215,3.0000009536743164,-0.6461126804351807,-2.999969244003296,-0.14110338687896729,-0.1491709053516388,-0.15606294572353363,-0.16177281737327576,-0.1480109691619873,-0.166983500123024,-0.1700296401977539,-0.1483541578054428
0.3333333333333333,0.09468699991703033,0.09927722811698914,0.0,0.9173852801322937,0.0,0.0,-0.3980003595352173,-0.5041428208351135,-0.46262505650520325,0.0,0.0,0.0,-1.6710582971572876,-0.3351078927516937,0.6414077877998352,0.42156773805618286,0.9790624976158142,0.040058255195617676,-0.008124714717268944,-0.19941382110118866,0.017394190654158592,-0.24270570278167725,0.0022979045752435923,0.11906176060438156,-0.038123778998851776,-10.788305282592773,-0.3448278307914734,0.6499072909355164,0.42104554176330566,0.40925538539886475,0.6900466680526733,-0.0006385743618011475,0.42259448766708374,0.7755463123321533,0.42000001668930054,-0.5800629258155823,3.000002145767212,-0.6961127519607544,-2.9999594688415527,-0.14478997886180878,-0.15284696221351624,-0.15947194397449493,-0.16453704237937927,-0.24732443690299988,-0.23454049229621887,-0.20876425504684448,-0.1639104187488556
0.35,0.08473938703536987,0.09001930803060532,0.0,0.9210966229438782,0.0,0.0,-0.3893340229988098,-0.6431452035903931,-0.5953692197799683,0.0,0.0,0.0,1.988448977470398,-0.33475184440612793,0.656143844127655,0.42063549160957336,0.993943989276886,0.014357048086822033,-0.00044224620796740055,-0.10894498229026794,0.20412789285182953,0.983436107635498,0.049325767904520035,3.9813404083251953,-2.8968472480773926,-1.8965615034103394,-0.3377830386161804,0.6615567207336426,0.4212912321090698,0.5378721356391907,0.8218558430671692,0.044688306748867035,0.42259448766708374,0.7755463123321533,0.42000001668930054,-0.5300373435020447,2.9998257160186768,-0.7461300492286682,-2.999969482421875,-0.1497582048177719,-0.15698345005512238,-0.1625361144542694,-0.1662190556526184,-0.3320881426334381,-0.2524614930152893,-0.1571660041809082,-0.043635282665491104
0.36666666666666664,0.07796987891197205,0.07808059453964233,0.0,0.9184384346008301,0.0,0.0,-0.3955639898777008,-0.3226412236690521,-0.7631202936172485,0.0,0.0,0.0,-1.7309743165969849,-0.33007460832595825,0.6738926768302917,0.42034170031547546,0.9872583746910095,0.008163109421730042,-0.0015764975687488914,-0.15890787541866302,0.3259071409702301,1.116211175918579,-0.04674369469285011,-1.595908522605896,0.27064862847328186,-8.332245826721191,-0.32548457384109497,0.6745831966400146,0.42259833216667175,0.9682437181472778,0.8747628927230835,0.08072233945131302,0.42259448766708374,0.7755463123321533,0.42000001668930054,-0.4799889624118805,3.0000030994415283,-0.7961414456367493,-2.999978542327881,-0.15574367344379425,-0.16115933656692505,-0.16462089121341705,-0.16591688990592957,-0.35527363419532776,-0.22590051591396332,-0.08092379570007324,0.07931671291589737
0.3833333333333333,0.06888531893491745,0.06473705172538757,0.0,0.9031890034675598,0.0,0.0,-0.4292430877685547,-0.6192559003829956,-0.8343650698661804,0.0,0.0,0.0,-5.373508453369141,-0.3171486556529999,0.6989657878875732,0.42068740725517273,0.9733099937438965,-0.017221545800566673,0.0033991762902587652,-0.22882188856601715,1.3395153284072876,1.7019456624984741,0.17025314271450043,-7.999233722686768,3.375330924987793,-9.140152931213379,-0.3045973479747772,0.6935963034629822,0.4240923225879669,1.5484964847564697,1.4417030811309814,0.10508628189563751,0.42259448766708374,0.7755463123321533,0.42000001668930054,-0.4299483001232147,2.9844584465026855,-0.8461561799049377,-3.0000460147857666,-0.1637398898601532,-0.1666056215763092,-0.16726616024971008,-0.16553856432437897,-0.4782455861568451,-0.32452327013015747,-0.15740729868412018,0.020744046196341515
0.4,0.06288004666566849,0.048338353633880615,0.0,0.8734756708145142,0.0,0.0,-0.4868678152561188,-0.3126685321331024,-1.0354325771331787,0.0,0.0,0.0,-8.542943954467773,-0.2775925397872925,0.7304799556732178,0.42452242970466614,0.9579641222953796,-0.0007298041018657386,-0.032568078488111496,-0.28503233194351196,3.327383279800415,2.020355224609375,0.24825645983219147,21.641477584838867,-15.985149383544922,7.5055832862854,-0.26571470499038696,0.7243639826774597,0.42812275886535645,3.1179676055908203,2.2525062561035156,0.5957488417625427,0.42259448766708374,0.7755463123321533,0.42000001668930054,-0.3890107274055481,1.7149187326431274,-0.8961785435676575,-3.0000014305114746,-0.1723676472902298,-0.17224206030368805,-0.16972056031227112,-0.16468459367752075,-0.6118491291999817,-0.3972301483154297,-0.17451444268226624,0.05087139457464218
0.4166666666666667,0.059065163135528564,0.03682916238903999,0.0,0.8264695405960083,0.0,0.0,-0.5629814267158508,-0.18261383473873138,-0.5689091086387634,0.0,0.0,0.0,-11.554856300354004,-0.19728945195674896,0.7723487019538879,0.43115952610969543,0.9352466464042664,0.06736978888511658,-0.08180820196866989,-0.33776089549064636,6.188549518585205,2.223188877105713,0.388296514749527,17.47555923461914,-18.589628219604492,14.89747142791748,-0.18714338541030884,0.7645779848098755,0.4358412027359009,5.963681221008301,2.7545413970947266,0.6060950756072998,0.42259448766708374,0.7755463123321533,0.42000001668930054,-0.3674250841140747,1.0071178674697876,-0.8591429591178894,2.995168685913086,-0.18814654648303986,-0.18527354300022125,-0.1775422841310501,-0.16761822998523712,-0.906360924243927,-0.8864145278930664,-0.5694670677185059,-0.28243541717529297
0.43333333333333335,0.05839584395289421,0.02815277688205242,0.0,0.7879183292388916,0.0,0.0,-0.6157797574996948,0.021159298717975616,-0.47169730067253113,0.0,0.0,0.0,-6.707099914550781,-0.09716765582561493,0.8133158683776855,0.441690057516098,0.8893944025039673,0.09487958997488022,-0.11045124381780624,-0.43333128094673157,6.013110160827637,1.8745362758636475,0.49963414669036865,-5.785170555114746,-9.46792984008789,-4.372492790222168,-0.09009581804275513,0.8043665885925293,0.4456179738044739,5.941683292388916,1.9612512588500977,0.6677844524383545,0.42259448766708374,0.7755463123321533,0.42000001668930054,-0.3469260632991791,1.496726155281067,-0.8853281140327454,-3.0000016689300537,-0.20032347738742828,-0.19794057309627533,-0.18587465584278107,-0.17207632958889008,-0.6722337007522583,-0.6693017482757568,-0.4422181248664856,-0.24564683437347412
0.45,0.055976834148168564,0.02417180873453617,0.0,0.7706335783004761,0.0,0.0,-0.6372784972190857,-0.14226917922496796,-0.1982784867286682,0.0,0.0,0.0,-2.006885051727295,0.004557933658361435,0.8378921151161194,0.45248469710350037,0.8202969431877136,0.11268378049135208,-0.10677304863929749,-0.5504677295684814,5.967666149139404,0.5402017831802368,0.42240965366363525,-1.5494921207427979,-16.66473388671875,7.0153889656066895,0.00801269430667162,0.8287471532821655,0.4545934796333313,6.020535945892334,1.0798916816711426,0.6810452938079834,0.42259448766708374,0.7755463123321533,0.42000001668930054,-0.3186202645301819,1.5818883180618286,-0.935352087020874,-3.0000040531158447,-0.21399487555027008,-0.21039462089538574,-0.19441069662570953,-0.17727017402648926,-0.7127084136009216,-0.6380525231361389,-0.44999241828918457,-0.2928909957408905
0.4666666666666667,0.05631716176867485,0.022252675145864487,0.0,0.7465801239013672,0.0,0.0,-0.6652955412864685,0.0747024342417717,-0.004954991862177849,0.0,0.0,0.0,-5.265213489532471,0.10186570882797241,0.8463476896286011,0.4590130150318146,0.7713907957077026,0.10624966025352478,-0.1082933098077774,-0.6180127263069153,5.482603549957275,-0.5062381029129028,0.19225606322288513,-7.1746015548706055,-17.314678192138672,9.812516212463379,0.10361507534980774,0.8373340368270874,0.46103572845458984,5.6942644119262695,-0.032862842082977295,0.41689765453338623,0.42259448766708374,0.7755463123321533,0.42000001668930054,-0.2970118224620819,1.0069063901901245,-0.9853760600090027,-3.0000040531158447,-0.22465354204177856,-0.21952421963214874,-0.20076884329319,-0.18123413622379303,-0.6177189946174622,-0.4990195631980896,-0.34061530232429504,-0.1995081901550293
0.48333333333333334,0.060016702860593796,0.0207639392465353,0.0,0.7344162464141846,0.0,0.0,-0.6786993145942688,0.2686629593372345,-0.09595972299575806,0.0,0.0,0.0,-1.136050820350647,0.19058021903038025,0.8400648236274719,0.461302250623703,0.7345976829528809,0.11669480800628662,-0.12249733507633209,-0.6570714712142944,4.981318950653076,-0.6246220469474792,-0.020800497382879257,1.7616146802902222,-5.071532249450684,-5.511742115020752,0.19119983911514282,0.8321965932846069,0.4640548825263977,4.9423418045043945,-0.6785227656364441,0.08948079496622086,0.42259448766708374,0.7755463123321533,0.42000001668930054,-0.2778446078300476,1.4682159423828125,-1.0353987216949463,-3.0000011920928955,-0.2317725121974945,-0.22482256591320038,-0.2042294144630432,-0.18316204845905304,-0.2871916592121124,-0.1894385665655136,-0.12295452505350113,-0.0749836266040802
0.5,0.062012679874897,0.02221720851957798,0.0,0.714651346206665,0.0,0.0,-0.6994808316230774,0.07754543423652649,0.14402222633361816,0.0,0.0,0.0,-4.294381618499756,0.26701512932777405,0.8263331651687622,0.4587344229221344,0.6844879388809204,0.0973697304725647,-0.10052049160003662,-0.7154655456542969,3.9612784385681152,-1.6034754514694214,-0.32784584164619446,-4.283935070037842,-12.36456298828125,23.658851623535156,0.26651233434677124,0.8193374276161194,0.46100175380706787,4.227991580963135,-0.9285843372344971,-0.251926064491272,0.42259448766708374,0.7755463123321533,0.42000001668930054,-0.2620353102684021,0.44430944323539734,-1.085420846939087,-3.000002861022949,-0.2358633428812027,-0.22769513726234436,-0.20678091049194336,-0.18563507497310638,-0.16014203429222107,-0.10731913149356842,-0.12866920232772827,-0.1625949889421463
0.5166666666666666,0.06499540060758591,0.02634504996240139,0.0,0.7082515358924866,0.0,0.0,-0.7059601545333862,0.21639515459537506,0.30202510952949524,0.0,0.0,0.0,-0.12712225317955017,0.3260102868080139,0.8061763644218445,0.45013904571533203,0.6976094841957092,0.10051596909761429,-0.07793019711971283,-0.7050987482070923,3.1053884029388428,-1.7568391561508179,-0.7013136744499207,-1.7752361297607422,-15.510127067565918,12.729430198669434,0.32745561003685,0.801423192024231,0.4524291157722473,3.0663723945617676,-1.165338158607483,-0.6241559982299805,0.42259448766708374,0.7755463123321533,0.42000001668930054,-0.25034019351005554,0.5593634843826294,-1.1354429721832275,-3.000001907348633,-0.2371348738670349,-0.22837452590465546,-0.2083386480808258,-0.18823112547397614,0.005479832645505667,0.025211483240127563,-0.055125489830970764,-0.14332044124603271
0.5333333333333333,0.07197705656290054,0.02462693676352501,0.0,0.691106379032135,0.0,0.0,-0.7227530479431152,0.4925297796726227,-0.2384471744298935,0.0,0.0,0.0,-3.914149284362793,0.37408047914505005,0.79053795337677,0.4326659142971039,0.6737000942230225,0.06949710100889206,-0.06287983804941177,-0.7330377101898193,2.295975685119629,-1.7328243255615234,-1.0969974994659424,1.2793760299682617,-12.381576538085938,24.53122329711914,0.3749758005142212,0.7858057618141174,0.4348989427089691,2.552872657775879,-0.8591231107711792,-1.2339510917663574,0.42259448766708374,0.7755463123321533,0.42000001668930054,-0.24049217998981476,0.2777188718318939,-1.1854650974273682,-3.000002861022949,-0.2290685921907425,-0.2216392457485199,-0.20462338626384735,-0.18748605251312256,0.6114551424980164,0.5134748220443726,0.30776309967041016,0.10558632016181946
0.55,0.07522370666265488,0.026049183681607246,0.0,0.6852228045463562,0.0,0.0,-0.7283334732055664,0.16223040223121643,0.04220638796687126,0.0,0.0,0.0,-0.013790402561426163,0.39994364976882935,0.7759579420089722,0.42591968178749084,0.6954905390739441,0.11316978931427002,-0.07164730131626129,-0.7059405446052551,0.5177485942840576,-0.32446739077568054,0.5341436266899109,24.9062557220459,-22.523101806640625,46.7794075012207,0.4022393822669983,0.7776817083358765,0.4318636655807495,1.1540186405181885,-0.31922653317451477,0.1612088978290558,0.42259448766708374,0.7755463123321533,0.42000001668930054,-0.23220758140087128,0.34744855761528015,-1.2355570793151855,-3.0000040531158447,-0.22203877568244934,-0.21554727852344513,-0.20128938555717468,-0.18686123192310333,0.595004141330719,0.4913412928581238,0.2843433916568756,0.08800259977579117
0.5666666666666667,0.07963946461677551,0.0294363833963871,0.0,0.6712406873703003,0.0,0.0,-0.7412394285202026,0.31182342767715454,0.2896147072315216,0.0,0.0,0.0,-3.114802598953247,0.4120995104312897,0.7778828740119934,0.42395007610321045,0.7349229454994202,0.07170512527227402,-0.010985457338392735,-0.6742594242095947,0.672589898109436,-0.3277227580547333,-0.3115728795528412,-23.463525772094727,-9.738983154296875,23.77155876159668,0.4155735671520233,0.7767766714096069,0.4294470250606537,0.4674292206764221,0.13624945282936096,-0.1461992710828781,0.42259448766708374,0.7755463123321533,0.42000001668930054,-0.22921113669872284,0.12660536170005798,-1.20066499710083,2.9913265705108643,-0.21056753396987915,-0.20659612119197845,-0.1964222937822342,-0.1857641488313675,0.7102197408676147,0.5503857731819153,0.3012904226779938,0.07274837046861649
0.5833333333333334,0.08563072979450226,0.031727246940135956,0.0,0.6716228127479553,0.0,0.0,-0.7408932447433472,0.39043256640434265,0.0713706985116005,0.0,0.0,0.0,0.935344398021698,0.4161001741886139,0.7785587906837463,0.4200243353843689,0.7648812532424927,-0.000714546418748796,5.097010944155045e-05,-0.6441708207130432,0.019230326637625694,0.004171529319137335,-0.03041904978454113,-0.03600173071026802,-1.12110435962677,-0.03071674145758152,0.4183102548122406,0.7754114270210266,0.42479804158210754,-0.10970869660377502,-0.1363387256860733,-0.5156688690185547,0.42259448766708374,0.7755463123321533,0.42000001668930054,-0.2504793703556061,-2.2673850059509277,-1.2223186492919922,-2.999999523162842,-0.2031099647283554,-0.20052112638950348,-0.19323986768722534,-0.18528488278388977,0.40591856837272644,0.34231793880462646,0.18958085775375366,0.04376666992902756
0.6,0.09390214830636978,0.037912480533123016,0.0,0.660606324672699,0.0,0.0,-0.7507324814796448,0.5306435227394104,0.35522276163101196,0.0,0.0,0.0,-2.6480212211608887,0.41607996821403503,0.7785382866859436,0.4200000762939453,0.7648814916610718,1.7188117453770246e-06,-1.7621138113099732e-06,-0.6441710591316223,0.0001408718671882525,4.24362369813025e-05,-6.304541602730751e-05,-0.004421822726726532,-0.0016437488375231624,9.867323569778819e-06,0.42082643508911133,0.7767802476882935,0.42584094405174255,0.2929340600967407,0.23913121223449707,0.17910757660865784,0.42259448766708374,0.7755463123321533,0.42000001668930054,-0.28783729672431946,-2.131535768508911,-1.2722382545471191,-2.9990620613098145,-0.19677400588989258,-0.1955879032611847,-0.1909627765417099,-0.18543113768100739,0.615731418132782,0.469959020614624,0.2631179690361023,0.0789506733417511
0.6166666666666667,0.10393071174621582,0.03914492204785347,0.0,0.6620274186134338,0.0,0.0,-0.7494795918464661,0.6395120620727539,0.0498565174639225,0.0,0.0,0.0,1.1370941400527954,0.41623279452323914,0.7787472605705261,0.42000213265419006,0.7675701379776001,-3.9922269934322685e-05,-0.00013962168304715306,-0.6409648656845093,0.010910305194556713,-0.004540778696537018,-0.00457767816260457,0.08576054871082306,0.14498551189899445,-0.018953407183289528,0.42154818773269653,0.7796646356582642,0.42903172969818115,-0.11065991967916489,0.06452373415231705,0.21810531616210938,0.42259448766708374,0.7755463123321533,0.42000001668930054,-0.3369334638118744,-2.9999260902404785,-1.3222295045852661,-2.9994263648986816,-0.1854531615972519,-0.1864081472158432,-0.18487882614135742,-0.18213984370231628,0.5183225870132446,0.4412052035331726,0.30809712409973145,0.18547677993774414
0.6333333333333333,0.11174421012401581,0.04337048530578613,0.0,0.6849461793899536,0.0,0.0,-0.728593647480011,0.409932941198349,0.27618885040283203,0.0,0.0,0.0,4.582375526428223,0.4162382185459137,0.7787400484085083,0.4200000762939453,0.7675737738609314,1.8167519328926574e-06,-6.441241140464626e-08,-0.6409606337547302,6.004146416671574e-05,0.00011855873162858188,-5.924212746322155e-05,-0.0053241257555782795,-0.002003538189455867,-8.651323878439143e-05,0.4200134873390198,0.778458297252655,0.43299365043640137,-0.06149318814277649,-0.06881873309612274,0.26842209696769714,0.42259448766708374,0.7755463123321533,0.42000001668930054,-0.3869355320930481,-2.999985933303833,-1.3722087144851685,-2.9996652603149414,-0.1798725426197052,-0.1811751127243042,-0.18076704442501068,-0.17898258566856384,0.39452600479125977,0.37480512261390686,0.31993234157562256,0.27869611978530884
0.65,0.12022966146469116,0.044181376695632935,0.0,0.6941138505935669,0.0,0.0,-0.7198652625083923,0.5117162466049194,-0.007108557969331741,0.0,0.0,0.0,0.42809009552001953,0.416238009929657,0.778740406036377,0.42000001668930054,0.7675737738609314,7.286879508683342e-07,-4.648427875508787e-06,-0.6409605741500854,0.0002915096119977534,-0.0003088833764195442,-9.092944674193859e-05,0.004687733948230743,0.0037184038665145636,0.0005072421045042574,0.4196256399154663,0.7779840230941772,0.4382798969745636,-0.04550383612513542,-0.10534488409757614,0.3285388946533203,0.42259448766708374,0.7755463123321533,0.42000001668930054,-0.4369434416294098,-2.999964475631714,-1.4222100973129272,-2.9999148845672607,-0.17364291846752167,-0.17478378117084503,-0.17460983991622925,-0.17278467118740082,0.3037241995334625,0.3494884967803955,0.3791789710521698,0.4251978397369385
0.6666666666666666,0.12979918718338013,0.04109638184309006,0.0,0.6812850832939148,0.0,0.0,-0.7320181727409363,0.6086613535881042,-0.25802791118621826,0.0,0.0,0.0,-3.001784324645996,0.416238009929657,0.778740406036377,0.42000001668930054,0.7675737738609314,6.2775694686934e-07,-4.584623184200609e-06,-0.6409606337547302,0.0002942887949757278,-0.00031353349913842976,-9.082886390388012e-05,0.004793207626789808,0.0037803531158715487,0.0005136012332513928,0.42358216643333435,0.7790977358818054,0.4513510465621948,0.4785323143005371,0.18239296972751617,1.3041131496429443,0.42259448766708374,0.7755463123321533,0.42000001668930054,-0.48695653676986694,-2.9999845027923584,-1.4722284078598022,-3.000000238418579,-0.17036747932434082,-0.1706211417913437,-0.16973525285720825,-0.1669473946094513,0.14523431658744812,0.2017902135848999,0.2518908381462097,0.3153055012226105
0.6833333333333333,0.1431979387998581,0.043446917086839676,0.0,0.6461477875709534,0.0,0.0,-0.7632123231887817,0.8692143559455872,0.24723206460475922,0.0,0.0,0.0,-6.65432596206665,0.416238009929657,0.778740406036377,0.42000001668930054,0.7675737738609314,4.933444301968848e-07,-4.507366611505859e-06,-0.6409605145454407,0.0002949912450276315,-0.000314535282086581,-9.099533781409264e-05,0.00480891577899456,0.003792407223954797,0.0005152838421054184,0.44033288955688477,0.7790913581848145,0.478758305311203,1.6028568744659424,-0.12314550578594208,2.0948004722595215,0.42259448766708374,0.7755463123321533,0.42000001668930054,-0.5369691252708435,-3.000000476837158,-1.5222467184066772,-2.999972343444824,-0.1756550818681717,-0.1736941784620285,-0.17072361707687378,-0.1657741218805313,-0.40972331166267395,-0.2655501365661621,-0.12614481151103973,0.01583230495452881
0.7,0.15221108496189117,0.04801470413804054,0.0,0.6242758631706238,0.0,0.0,-0.7812039852142334,0.4806179106235504,0.20772652328014374,0.0,0.0,0.0,-2.2499935626983643,0.416238009929657,0.778740406036377,0.42000001668930054,0.767573893070221,4.213298723243497e-07,-4.259640718373703e-06,-0.6409603953361511,0.00029435360920615494,-0.0003138196771033108,-9.097950533032417e-05,0.004798457957804203,0.0037747430615127087,0.0005139150889590383,0.4633750319480896,0.781198263168335,0.513768196105957,1.2108988761901855,0.25526440143585205,2.085902214050293,0.42259448766708374,0.7755463123321533,0.42000001668930054,-0.5584675669670105,0.1666305810213089,-1.5722650289535522,-3.000000238418579,-0.17792469263076782,-0.17482875287532806,-0.17074647545814514,-0.1646357923746109,0.09400996565818787,0.09386152029037476,0.0943305492401123,0.09761662781238556
0.7166666666666667,0.15696239471435547,0.05284316465258598,0.0,0.6279414892196655,0.0,0.0,-0.7782605290412903,0.21906067430973053,0.34062859416007996,0.0,0.0,0.0,1.4092057943344116,0.416238009929657,0.778740406036377,0.42000001668930054,0.7675737142562866,5.755387064709794e-07,-4.667213033826556e-06,-0.6409605741500854,0.00029494246700778604,-0.0003146372037008405,-9.097740985453129e-05,0.004810326732695103,0.0037923711352050304,0.0005154958926141262,0.4801599383354187,0.78682941198349,0.5427651405334473,0.708641529083252,0.3650081753730774,1.4637279510498047,0.42259448766708374,0.7755463123321533,0.42000001668930054,-0.5350326299667358,2.4283716678619385,-1.5552136898040771,3.000000476837158,-0.17466405034065247,-0.1718348264694214,-0.16800323128700256,-0.16214227676391602,0.25673550367355347,0.23286737501621246,0.20834624767303467,0.17986609041690826
0.7333333333333333,0.15815258026123047,0.053378693759441376,0.0,0.6207997798919678,0.0,0.0,-0.7839691638946533,0.057181768119335175,-0.03384937345981598,0.0,0.0,0.0,-1.9427380561828613,0.416238009929657,0.778740406036377,0.42000001668930054,0.7675737738609314,4.232703076922917e-07,-4.219762104185065e-06,-0.6409605145454407,0.00029471568996086717,-0.00031412113457918167,-9.092944674193859e-05,0.004803398158401251,0.003786770161241293,0.0005144814494997263,0.4848266541957855,0.7937553524971008,0.5616824626922607,-0.16075631976127625,0.37247902154922485,0.9589046239852905,0.42259448766708374,0.7755463123321533,0.42000001668930054,-0.5053279995918274,1.2166473865509033,-1.505157232284546,3.000000476837158,-0.16829369962215424,-0.16615277528762817,-0.16304366290569305,-0.15802167356014252,0.31252506375312805,0.28932684659957886,0.25992533564567566,0.217373326420784
0.75,0.15692023932933807,0.058725953102111816,0.0,0.6265870332717896,0.0,0.0,-0.7793514132499695,-0.1237993910908699,0.4664889872074127,0.0,0.0,0.0,1.7817133665084839,0.41623803973197937,0.7787403464317322,0.42000001668930054,0.767573893070221,1.0909577667916892e-06,-3.8631715142400935e-06,-0.6409604549407959,0.00027180928736925125,-0.00022552238078787923,-8.686934597790241e-05,0.0032748240046203136,0.0034679861273616552,0.00034521674388088286,0.4788210988044739,0.798189640045166,0.575133204460144,-0.5182581543922424,0.2622114419937134,0.6801611185073853,0.42259448766708374,0.7755463123321533,0.42000001668930054,-0.4756799340248108,2.2290079593658447,-1.496235966682434,-1.5438339710235596,-0.16830047965049744,-0.16550128161907196,-0.1619606763124466,-0.15689170360565186,-0.06933867186307907,-0.022504009306430817,0.008589721284806728,0.013490601442754269
0.7666666666666666,0.15754038095474243,0.061801567673683167,0.0,0.62110835313797,0.0,0.0,-0.7837246656417847,0.038856178522109985,0.18772533535957336,0.0,0.0,0.0,-1.5431170463562012,0.41623803973197937,0.7787402868270874,0.42000001668930054,0.7675735354423523,1.033926537274965e-06,-4.107770109840203e-06,-0.6409607529640198,0.00027150227106176317,-0.0002308544935658574,-8.657597936689854e-05,0.003368996549397707,0.0034331083297729492,0.00035536056384444237,0.4639037847518921,0.8017041683197021,0.5796952843666077,-1.3144782781600952,0.10993972420692444,0.057485975325107574,0.42259448766708374,0.7755463123321533,0.42000001668930054,-0.4714413285255432,-1.4104658365249634,-1.4525221586227417,3.000000238418579,-0.1672450453042984,-0.16411615908145905,-0.16045895218849182,-0.1556602120399475,-0.03649822995066643,0.0029479986988008022,0.028996141627430916,0.030323924496769905
0.7833333333333333,0.1594996452331543,0.06187359616160393,0.0,0.6277357339859009,0.0,0.0,-0.7784265279769897,0.15500353276729584,-0.06823083013296127,0.0,0.0,0.0,1.8144948482513428,0.41623803973197937,0.7787403464317322,0.42000001668930054,0.7675737142562866,9.958245072994032e-07,-4.383175564726116e-06,-0.640960693359375,0.000271124328719452,-0.00023104631691239774,-8.646119385957718e-05,0.0033721241634339094,0.0034236020874232054,0.00035586682497523725,0.44844362139701843,0.8033841848373413,0.5785791873931885,-0.5933837294578552,0.12665142118930817,-0.12374567985534668,0.42259448766708374,0.7755463123321533,0.42000001668930054,-0.4760444760322571,0.6800302863121033,-1.4696460962295532,-3.000000476837158,-0.16826514899730682,-0.16423818469047546,-0.15981711447238922,-0.1545894891023636,-0.030881723389029503,0.02061857096850872,0.06892858445644379,0.10214170813560486
0.8,0.16256065666675568,0.058715324848890305,0.0,0.6224133372306824,0.0,0.0,-0.7826887369155884,0.24094969034194946,-0.25067242980003357,0.0,0.0,0.0,-1.6691088676452637,0.41623803973197937,0.7787402868270874,0.42000001668930054,0.7675735354423523,1.0076066701003583e-06,-4.208363861835096e-06,-0.6409607529640198,0.0002714065194595605,-0.00023115909425541759,-8.65105539560318e-05,0.0033752876333892345,0.0034311101771891117,0.0003559729375410825,0.44226914644241333,0.802525520324707,0.5735218524932861,-0.13574568927288055,-0.18084555864334106,-0.28718116879463196,0.42259448766708374,0.7755463123321533,0.42000001668930054,-0.505326509475708,-3.0000007152557373,-1.4310054779052734,3.000000238418579,-0.16998730599880219,-0.16485945880413055,-0.15929502248764038,-0.15308324992656708,-0.10226036608219147,-0.030808918178081512,0.04745087772607803,0.12057748436927795
0.8166666666666667,0.16863076388835907,0.057569485157728195,0.0,0.5971187353134155,0.0,0.0,-0.8021528720855713,0.41651952266693115,-0.0017330126138404012,0.0,0.0,0.0,-4.702564716339111,0.41623803973197937,0.7787403464317322,0.42000001668930054,0.7675737142562866,9.908673064273898e-07,-4.271587386028841e-06,-0.640960693359375,0.0002712323912419379,-0.00023122126003727317,-8.64681787788868e-05,0.003375543048605323,0.0034257215447723866,0.0003561218036338687,0.4452197551727295,0.7975473403930664,0.5688507556915283,0.46264833211898804,-0.41480588912963867,-0.10868276655673981,0.42259448766708374,0.7755463123321533,0.42000001668930054,-0.5486540794372559,-2.230356454849243,-1.4485596418380737,-2.9999988079071045,-0.17191290855407715,-0.16601379215717316,-0.15944160521030426,-0.15217462182044983,-0.10396035760641098,-0.06730122864246368,-0.013969667255878448,0.045378345996141434
0.8333333333333334,0.17707249522209167,0.06005032733082771,0.0,0.5869230031967163,0.0,0.0,-0.8096427321434021,0.5418367981910706,0.212320476770401,0.0,0.0,0.0,-0.5273337364196777,0.41623803973197937,0.7787402868270874,0.42000001668930054,0.7675734758377075,9.267262157663936e-07,-4.104537310922751e-06,-0.6409608125686646,0.0002666088112164289,-0.0002234640414826572,-8.559133857488632e-05,0.0032312078401446342,0.003354146843776107,0.00034369193599559367,0.45266449451446533,0.7942709922790527,0.5686317682266235,0.41581064462661743,-0.0680670216679573,0.04778949171304703,0.42259448766708374,0.7755463123321533,0.42000001668930054,-0.5588698387145996,0.7537018656730652,-1.4985779523849487,-3.0,-0.17235009372234344,-0.16658592224121094,-0.15989527106285095,-0.1524045765399933,0.04463601112365723,0.002654222073033452,-0.027518756687641144,-0.05317163094878197
0.85,0.18167170882225037,0.057189811021089554,0.0,0.6022765636444092,0.0,0.0,-0.7982875108718872,0.2917398512363434,-0.22134023904800415,0.0,0.0,0.0,2.9309210777282715,0.41623803973197937,0.7787403464317322,0.42000001668930054,0.7675736546516418,9.77051286099595e-07,-4.353884378360817e-06,-0.6409607529640198,0.00027100133593194187,-0.00023073612828738987,-8.644908666610718e-05,0.003366363700479269,0.0034218879882246256,0.00035536306677386165,0.45949792861938477,0.7972206473350525,0.5688141584396362,0.4138743281364441,0.1657363474369049,-0.07494410872459412,0.42259448766708374,0.7755463123321533,0.42000001668930054,-0.5507082939147949,0.2645447552204132,-1.4598515033721924,2.999999523162842,-0.16494224965572357,-0.1609419584274292,-0.15584488213062286,-0.1498527079820633,0.30461424589157104,0.22775550186634064,0.15384726226329803,0.078853540122509
0.8666666666666667,0.1839563250541687,0.058271367102861404,0.0,0.6029455661773682,0.0,0.0,-0.797782301902771,0.07028380781412125,0.09271738678216934,0.0,0.0,0.0,-0.8016475439071655,0.41623803973197937,0.7787403464317322,0.42000001668930054,0.7675738334655762,9.388814419253322e-07,-4.246109256200725e-06,-0.6409603953361511,0.00026949512539431453,-0.00022789326612837613,-8.622300811111927e-05,0.0033133525867015123,0.0033985483460128307,0.0003506039211060852,0.4659141004085541,0.7967265844345093,0.5627326369285583,0.41720283031463623,-0.07783468067646027,-0.49276530742645264,0.42259448766708374,0.7755463123321533,0.42000001668930054,-0.5631429553031921,-1.586456060409546,-1.4098026752471924,3.0,-0.1640215814113617,-0.1606149673461914,-0.15612487494945526,-0.1508195698261261,0.10801825672388077,0.05905492976307869,0.009947458282113075,-0.04220043495297432
