vladlanda/robotic-transformer/data/env_000_episode_0165.csv
sim_time_s,robot_box_x,robot_box_y,robot_box_z,robot_box_quat_w,robot_box_quat_x,robot_box_quat_y,robot_box_quat_z,robot_box_linvel_x,robot_box_linvel_y,robot_box_linvel_z,robot_box_angvel_x,robot_box_angvel_y,robot_box_angvel_z,cube_world_x,cube_world_y,cube_world_z,cube_quat_w,cube_quat_x,cube_quat_y,cube_quat_z,cube_linvel_x,cube_linvel_y,cube_linvel_z,cube_angvel_x,cube_angvel_y,cube_angvel_z,endpoint_world_x,endpoint_world_y,endpoint_world_z,endpoint_linvel_x,endpoint_linvel_y,endpoint_linvel_z,target_cube_world_x,target_cube_world_y,target_cube_world_z,gripper_actual_pos_rad_gp_leftgearjoint,gripper_actual_vel_rad_s_gp_leftgearjoint,gripper_actual_pos_rad_gp_rotatingjoint,gripper_actual_vel_rad_s_gp_rotatingjoint,motor_angle_rad_joint1,motor_angle_rad_joint2,motor_angle_rad_joint3,motor_angle_rad_joint4,motor_speed_rad_s_joint1,motor_speed_rad_s_joint2,motor_speed_rad_s_joint3,motor_speed_rad_s_joint4
0.0,0.0,0.0,0.0,1.0,0.0,0.0,0.0,0.0,0.0,0.0,0.0,0.0,0.0,-0.4584506154060364,0.7031590938568115,0.41999998688697815,1.0,0.0,0.0,0.0,0.0,0.0,0.0,0.0,0.0,0.0,3.42540442943573e-06,-0.005000244826078415,1.313499927520752,0.0,0.0,0.0,0.3572338819503784,0.7156800627708435,0.42000001668930054,-1.5707999467849731,0.0,0.0,0.0,0.0,0.0,0.0,0.0,0.0,0.0,0.0,0.0
0.016666666666666666,0.0028778850100934505,0.0021806680597364902,0.0,0.9998081922531128,0.0,0.0,0.019586581736803055,0.24087215960025787,0.18240931630134583,0.0,0.0,0.0,3.1418697834014893,-0.4584507346153259,0.7031587958335876,0.41999998688697815,1.0,3.2799832752061775e-06,-8.339598593920527e-07,8.465660528145236e-08,-1.9833856640616432e-05,0.00017983021098189056,-6.132945418357849e-05,0.0009432561928406358,-0.004689492750912905,-0.0003198107879143208,-0.007110234349966049,0.003379564033821225,1.3159373998641968,-0.8143353462219238,0.9868683815002441,0.18095196783542633,0.3572338819503784,0.7156800627708435,0.42000001668930054,-1.5301095247268677,3.0000011920928955,-0.04584788903594017,-2.9999992847442627,0.0008691533003002405,0.0007963840034790337,0.0007110277656465769,0.0006108740926720202,0.11094217747449875,0.09756709635257721,0.08334315568208694,0.06823883205652237
0.03333333333333333,0.008960971608757973,0.006801900453865528,0.0,0.9997960329055786,0.0,0.0,0.020196840167045593,0.40702101588249207,0.3153079152107239,0.0,0.0,0.0,-0.86913001537323,-0.4584508538246155,0.7031587362289429,0.4200000464916229,1.0,3.3908236218849197e-06,-2.1324740373529494e-06,-3.7087911408661967e-08,0.0002635786950122565,0.00026937879738397896,-0.00010509719140827656,-0.0017707741353660822,0.004130927845835686,-0.00013548358401749283,-0.027548279613256454,0.026000605896115303,1.3166265487670898,-1.5914814472198486,1.6135284900665283,-0.08148665726184845,0.3572338819503784,0.7156800627708435,0.42000001668930054,-1.4800903797149658,3.000000238418579,-0.09588772058486938,-3.000000238418579,0.0029901533853262663,0.0026527841109782457,0.0022773747332394123,0.0018608486279845238,0.16422349214553833,0.139768585562706,0.11382904648780823,0.08631246536970139
0.05,0.017759639769792557,0.013773089274764061,0.0,0.9993746876716614,0.0,0.0,0.03535890206694603,0.5939801931381226,0.4651670753955841,0.0,0.0,0.0,2.6474595069885254,-0.45845088362693787,0.7031587958335876,0.4200000464916229,1.0,3.7651166167051997e-06,-2.2119024833955336e-06,5.637348365894468e-09,0.0002653102274052799,0.00026691530365496874,-0.0001044049859046936,-0.0017243424663320184,0.004177475813776255,-0.00012949523807037622,-0.05968368798494339,0.05374995619058609,1.3116974830627441,-2.1876611709594727,1.7506437301635742,-0.47197896242141724,0.3572338819503784,0.7156800627708435,0.42000001668930054,-1.4300720691680908,3.00000262260437,-0.145926371216774,-2.999999761581421,0.005712027661502361,0.004919835831969976,0.00405551353469491,0.003114609746262431,0.19274893403053284,0.1558523029088974,0.117080919444561,0.07634074240922928
0.06666666666666667,0.029077688232064247,0.02306797169148922,0.0,0.9994471669197083,0.0,0.0,0.03324645012617111,0.7205346822738647,0.5952872633934021,0.0,0.0,0.0,-1.2118011713027954,-0.45845088362693787,0.7031587362289429,0.4200000464916229,0.9999999403953552,3.4067338674503844e-06,-2.2856738723930903e-06,4.301002434203838e-07,0.0002670263347681612,0.0002679180761333555,-0.00010437914170324802,-0.001740648876875639,0.004211838357150555,-0.00012851078645326197,-0.09812451899051666,0.08785499632358551,1.2991602420806885,-2.4418182373046875,2.227095603942871,-1.0069470405578613,0.3572338819503784,0.7156800627708435,0.42000001668930054,-1.3800537586212158,3.000000238418579,-0.19596371054649353,-3.0000014305114746,0.00829789787530899,0.006817707791924477,0.005227277055382729,0.003518812358379364,0.15202678740024567,0.10123693943023682,0.048399779945611954,-0.0065232268534600735
0.08333333333333333,0.03500829637050629,0.03561780974268913,0.0,0.9999669194221497,0.0,0.0,0.008132301270961761,0.18435196578502655,0.8261826634407043,0.0,0.0,0.0,-3.885162591934204,-0.45845088362693787,0.7031587362289429,0.4200000464916229,1.0,3.6972542147850618e-06,-2.189012548114988e-06,-2.632233417898533e-07,0.0002638970036059618,0.00026586418971419334,-0.00010433932766318321,-0.0017081733094528317,0.004150197375565767,-0.0001299117284361273,-0.137776181101799,0.1282239854335785,1.2775905132293701,-2.3206262588500977,2.5644192695617676,-1.4963074922561646,0.3572338819503784,0.7156800627708435,0.42000001668930054,-1.3300288915634155,2.9999990463256836,-0.2165355682373047,0.2669603228569031,0.005607161205261946,0.0035465750843286514,0.0013259408297017217,-0.0010659816907718778,-0.2814367711544037,-0.3196999728679657,-0.3605964183807373,-0.404391348361969
0.1,0.04417099058628082,0.049538906663656235,0.0,0.9999991655349731,0.0,0.0,0.0013013462303206325,0.6656374335289001,0.8410716652870178,0.0,0.0,0.0,0.20105017721652985,-0.45845088362693787,0.7031587362289429,0.4200000464916229,0.9999999403953552,3.620308916651993e-06,-2.2652425286651123e-06,1.7463578672050062e-07,0.00026676832931116223,0.0002674081770237535,-0.0001040799543261528,-0.0017385705141350627,0.004209125880151987,-0.0001277521369047463,-0.1786668598651886,0.1667729616165161,1.2534973621368408,-2.4229259490966797,2.3552145957946777,-1.4578500986099243,0.3572338819503784,0.7156800627708435,0.42000001668930054,-1.2800217866897583,3.0000014305114746,-0.26111143827438354,-2.999999761581421,0.005607438739389181,0.002110244706273079,-0.001546105952002108,-0.00537452707067132,0.06043233349919319,-0.04382142797112465,-0.1471051424741745,-0.24932004511356354
0.11666666666666667,0.05156436562538147,0.06313087791204453,0.0,0.999822735786438,0.0,0.0,-0.018828071653842926,0.43071362376213074,0.8144263625144958,0.0,0.0,0.0,-3.1410529613494873,-0.45845088362693787,0.7031587362289429,0.4200000464916229,1.0,3.798331817961298e-06,-2.2628737497143447e-06,-1.5019459453924355e-07,0.0002637395809870213,0.00026566043379716575,-0.00010428996756672859,-0.0017054103082045913,0.0041475603356957436,-0.0001298010174650699,-0.2152147889137268,0.21278339624404907,1.228665828704834,-2.002514123916626,3.09310245513916,-1.4859697818756104,0.3572338819503784,0.7156800627708435,0.42000001668930054,-1.2299957275390625,2.999992609024048,-0.2270035296678543,3.0000009536743164,0.004677079617977142,-0.0007493245648220181,-0.006304260343313217,-0.011999082751572132,-0.022420767694711685,-0.15838752686977386,-0.29125306010246277,-0.4207652509212494
0.13333333333333333,0.05609322339296341,0.07846162468194962,0.0,0.9979134798049927,0.0,0.0,-0.06456491351127625,0.20663996040821075,0.9711378216743469,0.0,0.0,0.0,-6.293666839599609,-0.45845088362693787,0.7031587958335876,0.4200000464916229,0.9999999403953552,3.5504490369930863e-06,-2.2298452222457854e-06,2.929317872713e-07,0.0002670326502993703,0.00026779386098496616,-0.00010417005978524685,-0.0017441416857764125,0.004213591571897268,-0.00012799994146917015,-0.2487238049507141,0.2657647132873535,1.2041301727294922,-2.0058364868164062,3.246094226837158,-1.530914068222046,0.3572338819503784,0.7156800627708435,0.42000001668930054,-1.1897468566894531,1.8909908533096313,-0.25828567147254944,-3.000000238418579,0.0031591879669576883,-0.004508586600422859,-0.01223812811076641,-0.020035944879055023,-0.16504231095314026,-0.2880607843399048,-0.40693050622940063,-0.5213900804519653
0.15,0.057375434786081314,0.0917980968952179,0.0,0.9959549307823181,0.0,0.0,-0.08985380828380585,0.022416265681385994,0.7233964204788208,0.0,0.0,0.0,-1.988707184791565,-0.45845088362693787,0.7031587362289429,0.4200000464916229,0.9999999403953552,3.338018132126308e-06,-2.242906248284271e-06,-2.799748166637528e-08,0.0002667450753506273,0.00026758169406093657,-0.00010427739471197128,-0.0017367200925946236,0.004206815734505653,-0.0001283115561818704,-0.2881690263748169,0.3169397711753845,1.173408031463623,-2.3748772144317627,3.2274038791656494,-2.1151230335235596,0.3572338819503784,0.7156800627708435,0.42000001668930054,-1.1447137594223022,2.999990463256836,-0.22441306710243225,3.0000009536743164,-0.0004905534442514181,-0.00992296077311039,-0.019338086247444153,-0.02873983047902584,-0.2832028269767761,-0.3695376217365265,-0.4513108730316162,-0.528486430644989
0.16666666666666666,0.06170841306447983,0.10587036609649658,0.0,0.991641104221344,0.0,0.0,-0.1290265917778015,0.24832573533058167,0.85098797082901,0.0,0.0,0.0,-5.523799896240234,-0.45845088362693787,0.7031587958335876,0.4200000464916229,0.9999999403953552,3.6477504181675613e-06,-2.3073262127581984e-06,3.529927994350146e-08,0.0002672697592061013,0.00026801438070833683,-0.00010418915189802647,-0.0017472587060183287,0.004217675421386957,-0.0001279834541492164,-0.3249165117740631,0.37491798400878906,1.1360721588134766,-2.0322375297546387,3.698042869567871,-2.4153897762298584,0.3572338819503784,0.7156800627708435,0.42000001668930054,-1.0980151891708374,2.5948851108551025,-0.25570327043533325,-3.000000238418579,-0.004249735735356808,-0.01524050347507,-0.026127466931939125,-0.036914464086294174,-0.48186343908309937,-0.5362950563430786,-0.5879502892494202,-0.6369085311889648
0.18333333333333332,0.06294985115528107,0.1170603558421135,0.0,0.9887751340866089,0.0,0.0,-0.1494113951921463,0.03023240715265274,0.6011342406272888,0.0,0.0,0.0,-1.3052886724472046,-0.45845088362693787,0.7031587362289429,0.4200000464916229,0.9999999403953552,3.290481799922418e-06,-2.1939410999038955e-06,-2.792170334942057e-07,0.0002667806693352759,0.000267760653514415,-0.0001043418888002634,-0.0017390813445672393,0.004206993617117405,-0.00012845630408264697,-0.3619384765625,0.433099627494812,1.087599277496338,-2.088386058807373,3.61830472946167,-3.3290646076202393,0.3572338819503784,0.7156800627708435,0.42000001668930054,-1.0582458972930908,2.180676221847534,-0.3057315945625305,-3.0000009536743164,-0.014470345340669155,-0.02571110986173153,-0.03681204840540886,-0.047785546630620956,-0.6780144572257996,-0.6681050658226013,-0.6565625667572021,-0.6440069675445557
0.2,0.06046595051884651,0.1288185715675354,0.0,0.9834392666816711,0.0,0.0,-0.18123798072338104,-0.20989322662353516,0.7338176965713501,0.0,0.0,0.0,-4.7167792320251465,-0.45845088362693787,0.7031587362289429,0.4200000464916229,1.0,3.2807049592520343e-06,-2.2192427877598675e-06,1.5948727138948016e-07,0.00026627813349477947,0.0002674008428584784,-0.00010425341315567493,-0.001735740341246128,0.0041978247463703156,-0.00012865380267612636,-0.3957821726799011,0.49522221088409424,1.026231288909912,-1.849074125289917,3.7955822944641113,-3.977461814880371,0.3572338819503784,0.7156800627708435,0.42000001668930054,-1.009831190109253,3.0000016689300537,-0.35575801134109497,-3.0000007152557373,-0.02847413159906864,-0.03928215056657791,-0.04992291331291199,-0.06042087823152542,-0.8986738920211792,-0.8630185127258301,-0.825890839099884,-0.7879670858383179
0.21666666666666667,0.06143902614712715,0.14239393174648285,0.0,0.9709646701812744,0.0,0.0,-0.2392229288816452,0.07051464170217514,0.8428694009780884,0.0,0.0,0.0,-8.18554401397705,-0.45845088362693787,0.7031587958335876,0.4200000464916229,1.0,3.613112085076864e-06,-2.270147660965449e-06,2.2102811669810762e-07,0.00026712531689554453,0.00026781708584167063,-0.00010414118878543377,-0.0017444660188630223,0.004215197172015905,-0.00012786770821548998,-0.42525923252105713,0.5610240697860718,0.9513216018676758,-1.4686954021453857,4.02176570892334,-4.916832447052002,0.3572338819503784,0.7156800627708435,0.42000001668930054,-0.9598281383514404,3.0000007152557373,-0.4057859480381012,-2.9999992847442627,-0.043228112161159515,-0.05370970442891121,-0.06362556666135788,-0.07331394404172897,-0.9865555763244629,-0.988620400428772,-0.936586856842041,-0.8592929840087891
0.23333333333333334,0.059136517345905304,0.15356172621250153,0.0,0.9601705074310303,0.0,0.0,-0.27941465377807617,-0.16637681424617767,0.60690838098526,0.0,0.0,0.0,-3.820464849472046,-0.45845088362693787,0.7031587362289429,0.4200000464916229,1.0,3.3818200790847186e-06,-2.2909732706466457e-06,2.7281285497338104e-07,0.0002669145178515464,0.000267800351139158,-0.00010433257557451725,-0.0017395960167050362,0.004209770355373621,-0.00012843783770222217,-0.45036202669143677,0.6164473295211792,0.8626088500022888,-1.1414146423339844,3.158691883087158,-5.689611434936523,0.3572338819503784,0.7156800627708435,0.42000001668930054,-0.9098193645477295,2.999999523162842,-0.4558156728744507,-2.9999992847442627,-0.05948100611567497,-0.06979818642139435,-0.07957015931606293,-0.08907845616340637,-0.9880629181861877,-0.962705671787262,-0.9355834126472473,-0.9085087776184082
0.25,0.06055021286010742,0.15979768335819244,0.0,0.9584711194038391,0.0,0.0,-0.285189688205719,0.1378881335258484,0.24192672967910767,0.0,0.0,0.0,0.25130289793014526,-0.4584508538246155,0.7031587362289429,0.4200000464916229,0.9999999403953552,3.7065428841742687e-06,-2.2230481135920854e-06,-2.255024185160437e-07,0.000264246977167204,0.0002665663487277925,-0.00010457751341164112,-0.0017169496277347207,0.0041555920615792274,-0.0001306297053815797,-0.47205591201782227,0.6564148664474487,0.7660588622093201,-1.0992072820663452,1.9287877082824707,-5.981865406036377,0.3572338819503784,0.7156800627708435,0.42000001668930054,-0.8598086833953857,2.9999983310699463,-0.505846381187439,-2.999998092651367,-0.07553508877754211,-0.08572203665971756,-0.09544003009796143,-0.10445700585842133,-0.989014744758606,-0.9850730895996094,-0.9676523208618164,-0.9524849653244019
0.26666666666666666,0.05689806863665581,0.16692449152469635,0.0,0.9520674347877502,0.0,0.0,-0.30588817596435547,-0.35001853108406067,0.5469681024551392,0.0,0.0,0.0,-3.5881659984588623,-0.45845088362693787,0.7031587362289429,0.4200000464916229,0.9999999403953552,3.719666437973501e-06,-2.403525968475151e-06,-1.8307196114619728e-07,0.00026623360463418067,0.00026729219825938344,-0.00010425853542983532,-0.0017326456727460027,0.004196504596620798,-0.00012850768689531833,-0.4830119013786316,0.6795578598976135,0.6649067401885986,-0.17208969593048096,0.8450909852981567,-5.909915924072266,0.3572338819503784,0.7156800627708435,0.42000001668930054,-0.8097991347312927,2.999999523162842,-0.555876612663269,-3.000000476837158,-0.09357407689094543,-0.1034027636051178,-0.11285042762756348,-0.1216561421751976,-1.015477180480957,-1.0115957260131836,-1.0086476802825928,-1.0063159465789795
0.2833333333333333,0.05649685859680176,0.1710585504770279,0.0,0.9504101872444153,0.0,0.0,-0.31099918484687805,0.02637844905257225,0.1310967653989792,0.0,0.0,0.0,0.20440717041492462,-0.45845088362693787,0.7031587958335876,0.4200000464916229,0.9999999403953552,3.584083515306702e-06,-2.3155100734584266e-06,7.405373736446563e-08,0.0002652202092576772,0.00026455355691723526,-0.00010317121632397175,-0.001702261040918529,0.004185176454484463,-0.0001249932829523459,-0.486041396856308,0.6905052661895752,0.5702426433563232,0.05582504719495773,0.42666512727737427,-5.580924034118652,0.3572338819503784,0.7156800627708435,0.42000001668930054,-0.7597903609275818,2.9999983310699463,-0.6059062480926514,-3.000002384185791,-0.10909423232078552,-0.11891187727451324,-0.12832769751548767,-0.13702821731567383,-0.9973449110984802,-0.9981269836425781,-0.9987623691558838,-0.9992924928665161
0.3,0.05319683626294136,0.17149674892425537,0.0,0.9442539811134338,0.0,0.0,-0.32921791076660156,-0.1979084461927414,-0.041173722594976425,0.0,0.0,0.0,-3.1024208068847656,-0.45845088362693787,0.7031587362289429,0.4200000464916229,1.0,3.7243050883262185e-06,-2.2719725620845566e-06,9.636089259856817e-08,0.0002631232200656086,0.0002652576076798141,-0.00010438100434839725,-0.0016960796201601624,0.004134746268391609,-0.00013027872773818672,-0.47769343852996826,0.6970409750938416,0.4795548915863037,0.8486879467964172,0.4861825406551361,-5.21986198425293,0.3572338819503784,0.7156800627708435,0.42000001668930054,-0.7097821235656738,2.9999969005584717,-0.6559339761734009,-3.0000030994415283,-0.12624114751815796,-0.13593517243862152,-0.1452973484992981,-0.1539786159992218,-0.8832858204841614,-0.9114918112754822,-0.9402685761451721,-0.9675453901290894
0.31666666666666665,0.0481124110519886,0.1691361665725708,0.0,0.944077730178833,0.0,0.0,-0.32972294092178345,-0.3451360762119293,-0.18095265328884125,0.0,0.0,0.0,0.8304461240768433,-0.45845088362693787,0.7031587362289429,0.4200000464916229,1.0,3.6662634101958247e-06,-2.392624537606025e-06,1.6800159130525572e-07,0.0002660219615790993,0.0002670693211257458,-0.00010418472811579704,-0.0017311072442680597,0.004193564876914024,-0.00012849668564740568,-0.47134706377983093,0.7028533220291138,0.428754985332489,0.07317676395177841,0.01277177408337593,-0.2754923701286316,0.3572338819503784,0.7156800627708435,0.42000001668930054,-0.6597771644592285,3.0000007152557373,-0.7063374519348145,-2.999303102493286,-0.13952071964740753,-0.14946474134922028,-0.15867215394973755,-0.16702474653720856,-0.4162742495536804,-0.46638503670692444,-0.45885178446769714,-0.4282085597515106
0.3333333333333333,0.04050464555621147,0.16437986493110657,0.0,0.9392277002334595,0.0,0.0,-0.34329473972320557,-0.5134550333023071,-0.33315303921699524,0.0,0.0,0.0,-2.5199108123779297,-0.45845088362693787,0.7031587958335876,0.4200000464916229,1.0,3.5338491670700023e-06,-2.218376039309078e-06,-1.310199024828762e-07,0.0002669862878974527,0.0002675936557352543,-0.00010410253889858723,-0.0017412315355613828,0.004213185515254736,-0.00012772632180713117,-0.47030800580978394,0.7053955793380737,0.42539578676223755,0.2070998251438141,0.17083165049552917,-0.20592673122882843,0.3572338819503784,0.7156800627708435,0.42000001668930054,-0.609771192073822,2.999981164932251,-0.7564230561256409,-2.999924898147583,-0.14711250364780426,-0.15715284645557404,-0.16557063162326813,-0.1727392077445984,-0.5117506980895996,-0.47151613235473633,-0.3853120505809784,-0.27820414304733276
0.35,0.030491117388010025,0.15720093250274658,0.0,0.9402841329574585,0.0,0.0,-0.34039056301116943,-0.6406279802322388,-0.46967005729675293,0.0,0.0,0.0,1.2900160551071167,-0.4567200839519501,0.7060143947601318,0.4200001060962677,0.9995532631874084,-6.148841293907026e-06,1.1165686373715289e-05,-0.02988465689122677,0.19874250888824463,0.32390162348747253,-0.0003556302981451154,0.02183707058429718,-0.00419037276878953,-6.921252250671387,-0.4661202132701874,0.7100231051445007,0.4219173192977905,0.3135716915130615,0.35118287801742554,-0.1816568672657013,0.3572338819503784,0.7156800627708435,0.42000001668930054,-0.5597661733627319,2.9999725818634033,-0.8064690232276917,-2.9999983310699463,-0.1567971408367157,-0.1654445230960846,-0.1718214452266693,-0.17665047943592072,-0.5713697075843811,-0.46508753299713135,-0.32668986916542053,-0.17292623221874237
0.36666666666666664,0.018251975998282433,0.147712841629982,0.0,0.9360613226890564,0.0,0.0,-0.3518369197845459,-0.7791006565093994,-0.6090006828308105,0.0,0.0,0.0,-2.3785364627838135,-0.4527799189090729,0.7121360301971436,0.42000019550323486,0.9954622387886047,-1.4958809515519533e-05,1.9475879525998607e-05,-0.09515651315450668,0.3092588782310486,0.45903530716896057,-0.0007476222817786038,0.043231651186943054,-0.01253295037895441,-10.444875717163086,-0.4592207670211792,0.716478168964386,0.41951391100883484,0.5354889631271362,0.5030203461647034,-0.12178637832403183,0.3572338819503784,0.7156800627708435,0.42000001668930054,-0.5097612142562866,2.99998140335083,-0.8565223813056946,-2.999976396560669,-0.16628962755203247,-0.17291215062141418,-0.17677512764930725,-0.17881718277931213,-0.5331568121910095,-0.40040501952171326,-0.24325810372829437,-0.07114630937576294
0.3833333333333333,0.006750846281647682,0.1357041299343109,0.0,0.9215238094329834,0.0,0.0,-0.3883219063282013,-0.6132981181144714,-0.777161717414856,0.0,0.0,0.0,-5.595247268676758,-0.4443989396095276,0.7238653302192688,0.42047762870788574,0.9909791350364685,-0.011868651956319809,0.0014288736274465919,-0.13348150253295898,0.7154643535614014,0.9808405637741089,0.0884152203798294,-4.360074043273926,1.168977975845337,-4.015365123748779,-0.44986701011657715,0.7269265055656433,0.4205034375190735,0.6895700693130493,0.8802231550216675,0.09607195109128952,0.3572338819503784,0.7156800627708435,0.42000001668930054,-0.45969313383102417,2.999955177307129,-0.9065230488777161,-2.9999778270721436,-0.17501315474510193,-0.17918726801872253,-0.1802072376012802,-0.17912179231643677,-0.44631674885749817,-0.29986411333084106,-0.132243350148201,0.05272466689348221
0.4,-0.003842329839244485,0.12110590189695358,0.0,0.8934707045555115,0.0,0.0,-0.44912150502204895,-0.6435846090316772,-0.9178507328033447,0.0,0.0,0.0,-8.896181106567383,-0.4214920103549957,0.7486957311630249,0.4224831163883209,0.9846042990684509,-0.025737781077623367,-0.015338581055402756,-0.1722107231616974,1.7629494667053223,2.3603579998016357,0.11866993457078934,16.9492130279541,-11.6011323928833,-12.07463264465332,-0.427684485912323,0.7516043782234192,0.42248713970184326,2.1636669635772705,2.147268295288086,0.2032405287027359,0.3572338819503784,0.7156800627708435,0.42000001668930054,-0.4098537862300873,2.8607988357543945,-0.9565305113792419,-3.000000476837158,-0.18416550755500793,-0.1852719485759735,-0.18294061720371246,-0.17826621234416962,-0.5667353272438049,-0.3604304790496826,-0.14232797920703888,0.08610791712999344
0.4166666666666667,-0.011572465300559998,0.10380673408508301,0.0,0.8490180373191833,0.0,0.0,-0.5283638834953308,-0.3828093707561493,-1.09736168384552,0.0,0.0,0.0,-11.559690475463867,-0.3613786995410919,0.7933752536773682,0.4268444776535034,0.9689044952392578,0.040004029870033264,-0.05300459265708923,-0.23835724592208862,5.043727397918701,2.7873144149780273,0.5237197875976562,-5.752238750457764,-1.7754852771759033,15.870359420776367,-0.3671404719352722,0.7971600294113159,0.4266868829727173,4.69111442565918,3.266293525695801,0.38240957260131836,0.3572338819503784,0.7156800627708435,0.42000001668930054,-0.37808066606521606,1.207109808921814,-0.9194374084472656,3.000002145767212,-0.19734179973602295,-0.19371731579303741,-0.18670953810214996,-0.17745518684387207,-0.8022762537002563,-0.5135993957519531,-0.2379177212715149,0.02332533523440361
0.43333333333333335,-0.016383947804570198,0.09206093102693558,0.0,0.7852321267127991,0.0,0.0,-0.6192015409469604,-0.23755991458892822,-0.5706773996353149,0.0,0.0,0.0,-14.191202163696289,-0.2612922191619873,0.8408901691436768,0.4355946481227875,0.9397231936454773,0.1136322170495987,-0.08694882690906525,-0.3105603754520416,7.460517883300781,2.093750238418579,0.5076122879981995,17.407922744750977,-17.963035583496094,21.888193130493164,-0.26700693368911743,0.8465630412101746,0.43536216020584106,7.142836570739746,2.809018135070801,0.6280104517936707,0.3572338819503784,0.7156800627708435,0.42000001668930054,-0.36303025484085083,0.8514091968536377,-0.8693946599960327,2.995102882385254,-0.21340318024158478,-0.20850254595279694,-0.197108656167984,-0.1821976751089096,-0.9194914698600769,-0.9029680490493774,-0.7350932359695435,-0.3888782858848572
0.45,-0.024012479931116104,0.08557946234941483,0.0,0.7279884219169617,0.0,0.0,-0.6855894327163696,-0.4160047471523285,-0.41280269622802734,0.0,0.0,0.0,-9.094600677490234,-0.1451488733291626,0.8713929057121277,0.4461968243122101,0.8973202109336853,0.14338405430316925,-0.09593649953603745,-0.406267911195755,7.059248924255371,0.7041631937026978,0.719261646270752,-8.645837783813477,0.3955307900905609,7.454296588897705,-0.15044111013412476,0.8793244361877441,0.4456676244735718,7.012334823608398,1.3903372287750244,0.6527568697929382,0.3572338819503784,0.7156800627708435,0.42000001668930054,-0.34982720017433167,0.7287838459014893,-0.8955784440040588,-2.999971628189087,-0.22632147371768951,-0.22198902070522308,-0.21117043495178223,-0.19154632091522217,-0.5684928894042969,-0.6422547101974487,-0.717056155204773,-0.5096535682678223
0.4666666666666667,-0.027751537039875984,0.07787483185529709,0.0,0.6928001642227173,0.0,0.0,-0.7211296558380127,-0.1764562726020813,-0.46218380331993103,0.0,0.0,0.0,-4.928257465362549,-0.029179338365793228,0.8825747966766357,0.45606791973114014,0.8374606966972351,0.1338692307472229,-0.08576568216085434,-0.5228602290153503,6.951436996459961,-0.6857411861419678,0.38923904299736023,-2.1849870681762695,-17.9760684967041,17.34526824951172,-0.036029741168022156,0.8928581476211548,0.4544811248779297,6.7526655197143555,0.07493219524621964,0.5682485103607178,0.3572338819503784,0.7156800627708435,0.42000001668930054,-0.3386325538158417,0.4994408190250397,-0.9456024765968323,-3.0000064373016357,-0.23750315606594086,-0.2323441505432129,-0.22094391286373138,-0.19723224639892578,-0.6716514825820923,-0.5530157089233398,-0.4562072455883026,-0.2067473828792572
0.48333333333333334,-0.03246819227933884,0.07357124984264374,0.0,0.6828456521034241,0.0,0.0,-0.7305626273155212,-0.31474459171295166,-0.18036974966526031,0.0,0.0,0.0,-0.6065543293952942,0.0710785984992981,0.8767837882041931,0.4603974521160126,0.7907449007034302,0.11244002729654312,-0.08128564059734344,-0.5962149500846863,5.214874744415283,-1.7180484533309937,-0.027893831953406334,-8.146990776062012,-10.709003448486328,20.782678604125977,0.06666181981563568,0.8880584239959717,0.4594818353652954,5.5481085777282715,-0.7702204585075378,0.21334198117256165,0.3572338819503784,0.7156800627708435,0.42000001668930054,-0.332710325717926,0.17542944848537445,-0.9956265091896057,-3.00000262260437,-0.24001306295394897,-0.24000951647758484,-0.2301984280347824,-0.20251798629760742,-0.03895358368754387,-0.0268491692841053,-0.5333897471427917,-0.3317878842353821
0.5,-0.034334804862737656,0.06398657709360123,0.0,0.6625348329544067,0.0,0.0,-0.7490310668945312,-0.04281971603631973,-0.7100028395652771,0.0,0.0,0.0,-4.316227912902832,0.15563412010669708,0.8587396144866943,0.45680272579193115,0.6960585117340088,0.05285383760929108,-0.12299909442663193,-0.7053935527801514,4.5422468185424805,-1.7580808401107788,-0.6201499700546265,-29.39642333984375,3.3666460514068604,-7.354381084442139,0.14906983077526093,0.8714113235473633,0.45815011858940125,4.608844757080078,-1.39048171043396,-0.12532059848308563,0.3572338819503784,0.7156800627708435,0.42000001668930054,-0.32661527395248413,0.529143214225769,-1.0456486940383911,-2.9999794960021973,-0.23488734662532806,-0.234980970621109,-0.2326178252696991,-0.2032182216644287,0.4015451669692993,0.4241788685321808,0.06638912856578827,0.12042763829231262
0.5166666666666666,-0.03401002287864685,0.0578869991004467,0.0,0.6552775502204895,0.0,0.0,-0.7553882002830505,0.03895192965865135,-0.20467402040958405,0.0,0.0,0.0,-0.20032605528831482,0.2239132523536682,0.8314837217330933,0.45042529702186584,0.6453009247779846,0.014637796208262444,-0.10356626659631729,-0.7567341327667236,3.844301223754883,-2.265207290649414,-0.4254152774810791,-6.326918125152588,4.837738990783691,4.592406272888184,0.2189716398715973,0.8450988531112671,0.4520413279533386,3.719902992248535,-1.7781851291656494,-0.42739176750183105,0.3572338819503784,0.7156800627708435,0.42000001668930054,-0.31644368171691895,0.6049550175666809,-1.0956708192825317,-2.998844623565674,-0.23203662037849426,-0.23074887692928314,-0.232450932264328,-0.20254799723625183,0.10021901875734329,0.2079685479402542,0.039474569261074066,0.028546156361699104
0.5333333333333333,-0.03157811611890793,0.05109976604580879,0.0,0.6386350393295288,0.0,0.0,-0.7695097327232361,0.1814872771501541,-0.4385388493537903,0.0,0.0,0.0,-3.5116171836853027,0.278085857629776,0.8022786974906921,0.4386419951915741,0.611413836479187,-0.02325292117893696,-0.0851244404911995,-0.7863754034042358,2.781550884246826,-2.15507173538208,-0.7006961107254028,-1.6802045106887817,6.670538425445557,6.087168216705322,0.27413567900657654,0.8157361745834351,0.4407230615615845,2.831923484802246,-1.8047137260437012,-0.8156258463859558,0.3572338819503784,0.7156800627708435,0.42000001668930054,-0.30783477425575256,0.5076696872711182,-1.1456929445266724,-2.9999942779541016,-0.22851721942424774,-0.22576740384101868,-0.22972187399864197,-0.2010793536901474,0.20359376072883606,0.29412633180618286,0.20660632848739624,0.0918220728635788
0.55,-0.026243414729833603,0.04809406399726868,0.0,0.6348016858100891,0.0,0.0,-0.772675096988678,0.348336398601532,-0.15652456879615784,0.0,0.0,0.0,0.30315646529197693,0.31855469942092896,0.7727948427200317,0.4231829345226288,0.58247309923172,-0.059998441487550735,-0.050411149859428406,-0.8090636730194092,1.8798738718032837,-1.7213788032531738,-0.4720819294452667,15.080358505249023,19.086898803710938,0.8622206449508667,0.3153461813926697,0.7851311564445496,0.4253983497619629,2.004574775695801,-1.686560869216919,-0.8094607591629028,0.3572338819503784,0.7156800627708435,0.42000001668930054,-0.2956993877887726,0.8306152820587158,-1.195715069770813,-3.000016689300537,-0.22689256072044373,-0.22264382243156433,-0.22729893028736115,-0.20098650455474854,0.22481903433799744,0.26459839940071106,0.21867045760154724,0.025147566571831703
0.5666666666666667,-0.02116895094513893,0.0424334779381752,0.0,0.6208439469337463,0.0,0.0,-0.7839341759681702,0.2887900173664093,-0.4074980616569519,0.0,0.0,0.0,-2.9623963832855225,0.34076225757598877,0.7544535994529724,0.42260366678237915,0.5815495252609253,-0.05203358456492424,-0.018875425681471825,-0.8116256594657898,1.0242698192596436,-1.589750051498413,0.07301374524831772,-4.303748607635498,0.8651371598243713,14.7482271194458,0.33711063861846924,0.765538215637207,0.42410969734191895,0.8984441757202148,-0.9484721422195435,0.09435191750526428,0.3572338819503784,0.7156800627708435,0.42000001668930054,-0.2811034321784973,0.6700347661972046,-1.2456964254379272,-2.9996907711029053,-0.2215266078710556,-0.21719114482402802,-0.2224777489900589,-0.1998860090970993,0.3092572093009949,0.30884498357772827,0.29538315534591675,0.06001148000359535
0.5833333333333334,-0.018848858773708344,0.03933722898364067,0.0,0.6205755472183228,0.0,0.0,-0.7841466665267944,0.08214370161294937,-0.15249064564704895,0.0,0.0,0.0,0.785156786441803,0.3532326817512512,0.7387630939483643,0.42360231280326843,0.5809041261672974,-0.06718186289072037,0.0031034420244395733,-0.8111888766288757,0.5387417674064636,-1.1873204708099365,0.09658994525671005,-5.030303478240967,2.409336805343628,8.774907112121582,0.3492928147315979,0.7492733001708984,0.4257518947124481,0.5346088409423828,-0.8317800760269165,0.09987512975931168,0.3572338819503784,0.7156800627708435,0.42000001668930054,-0.27367326617240906,0.30720293521881104,-1.295660138130188,-3.0005171298980713,-0.2180345505475998,-0.21351413428783417,-0.2183893471956253,-0.19951529800891876,0.28117233514785767,0.2677607834339142,0.2921937108039856,0.054068244993686676
0.6,-0.015201660804450512,0.03625072166323662,0.0,0.6089346408843994,0.0,0.0,-0.7932204008102417,0.2507166564464569,-0.1862291842699051,0.0,0.0,0.0,-2.588440179824829,0.35914161801338196,0.7297954559326172,0.42234835028648376,0.5924768447875977,-0.042678069323301315,0.003132946789264679,-0.8044500946998596,0.08440637588500977,-0.6184371709823608,0.09182104468345642,-6.050872802734375,1.097676396369934,12.42622184753418,0.3544650673866272,0.7394182682037354,0.4242378771305084,0.03454071283340454,-0.3286855220794678,0.02461891993880272,0.3572338819503784,0.7156800627708435,0.42000001668930054,-0.2665407657623291,0.4731904864311218,-1.2574989795684814,3.0000038146972656,-0.21097761392593384,-0.207536518573761,-0.2124890387058258,-0.19810183346271515,0.44456204771995544,0.3686273694038391,0.36877554655075073,0.10268627852201462
0.6166666666666667,-0.009572255425155163,0.03434529900550842,0.0,0.6112232804298401,0.0,0.0,-0.791458249092102,0.3764479458332062,-0.04772321507334709,0.0,0.0,0.0,1.200705647468567,0.3597796857357025,0.7246595025062561,0.4225037097930908,0.6012879014015198,-0.040529221296310425,0.04033343121409416,-0.7969839572906494,-0.02067277766764164,-0.2504655718803406,0.03178936988115311,5.18414306640625,4.255492687225342,-0.4081409275531769,0.35410720109939575,0.7352322936058044,0.4251583218574524,-0.09898465871810913,-0.13401632010936737,0.13764584064483643,0.3572338819503784,0.7156800627708435,0.42000001668930054,-0.29638007283210754,-3.0,-1.2778595685958862,-2.999685287475586,-0.20380109548568726,-0.20177997648715973,-0.20668137073516846,-0.19658701121807098,0.41915714740753174,0.32985302805900574,0.33619993925094604,0.08842423558235168
0.6333333333333333,-0.001711593009531498,0.036100950092077255,0.0,0.6326503753662109,0.0,0.0,-0.7744375467300415,0.5158482193946838,0.16922254860401154,0.0,0.0,0.0,4.451636791229248,0.35870131850242615,0.7216942310333252,0.4221387803554535,0.597999632358551,-0.026702474802732468,0.04348481073975563,-0.7998702526092529,-0.12380961328744888,-0.12210285663604736,-0.04400908201932907,-0.5309116840362549,-4.055774211883545,-0.839051365852356,0.3522073030471802,0.7360076904296875,0.4278019368648529,-0.1575608253479004,0.15746361017227173,0.19091849029064178,0.3572338819503784,0.7156800627708435,0.42000001668930054,-0.3463565707206726,-2.999641180038452,-1.3278120756149292,-2.9980881214141846,-0.1968400478363037,-0.19650451838970184,-0.20134156942367554,-0.19512814283370972,0.4588281810283661,0.34994441270828247,0.3490919768810272,0.12609559297561646
0.65,0.00792013667523861,0.03393397852778435,0.0,0.6425571441650391,0.0,0.0,-0.7662377953529358,0.5766643285751343,-0.1645922213792801,0.0,0.0,0.0,0.4946187436580658,0.356150358915329,0.7203707098960876,0.42004913091659546,0.6025292873382568,-0.00019832581165246665,0.0002498812391422689,-0.7980966567993164,-0.1487700343132019,-0.013896306976675987,-0.025787148624658585,-0.3608570992946625,-1.3196287155151367,0.26256629824638367,0.350638210773468,0.7408702373504639,0.4323214590549469,-0.0893457904458046,0.2753559350967407,0.32653194665908813,0.3572338819503784,0.7156800627708435,0.42000001668930054,-0.39636749029159546,-2.9997847080230713,-1.3777763843536377,-2.99965500831604,-0.1850011795759201,-0.18688103556632996,-0.19201616942882538,-0.18936951458454132,0.6729199290275574,0.5773863196372986,0.5956080555915833,0.43447062373161316
0.6666666666666666,0.019081108272075653,0.029307516291737556,0.0,0.6291493773460388,0.0,0.0,-0.7772843837738037,0.7041071653366089,-0.33753955364227295,0.0,0.0,0.0,-3.0061075687408447,0.3548355996608734,0.7202525734901428,0.4199998080730438,0.6039420962333679,1.5399277799588162e-06,-4.693012670031749e-06,-0.7970281839370728,-0.05463738739490509,-0.00543547747656703,-9.441282600164413e-06,0.000741111405659467,-0.00022191309835761786,0.0663391649723053,0.3512575626373291,0.7445837259292603,0.4408237338066101,0.17952775955200195,0.1854775995016098,0.8172677755355835,0.3572338819503784,0.7156800627708435,0.42000001668930054,-0.44638189673423767,-2.9999849796295166,-1.4277946949005127,-3.000000238418579,-0.1777791827917099,-0.18034839630126953,-0.18435586988925934,-0.18328076601028442,0.3305107057094574,0.3198230564594269,0.41266247630119324,0.3608098328113556
0.6833333333333333,0.03374077007174492,0.029387667775154114,0.0,0.5971434116363525,0.0,0.0,-0.8021344542503357,0.8392220139503479,0.03973294422030449,0.0,0.0,0.0,-5.680481910705566,0.3546943664550781,0.7202390432357788,0.4199999272823334,0.6040294766426086,-5.3112903515284415e-06,-1.2331584002822638e-05,-0.7969619631767273,0.00016954836610239,-0.0010317843407392502,-0.00019184988923370838,0.0312100388109684,-0.016542445868253708,-0.0026879669167101383,0.3584652543067932,0.7440340518951416,0.4613149166107178,0.8390991687774658,-0.1296187937259674,1.7015632390975952,0.3572338819503784,0.7156800627708435,0.42000001668930054,-0.49639469385147095,-2.999014377593994,-1.4778130054473877,-2.9998939037323,-0.17907078564167023,-0.18064236640930176,-0.1821093112230301,-0.18067848682403564,-0.05545208603143692,-0.0074961138889193535,0.12843696773052216,0.1541314721107483
0.7,0.04419107362627983,0.030498240143060684,0.0,0.5809518098831177,0.0,0.0,-0.8139379620552063,0.545231282711029,0.08466056734323502,0.0,0.0,0.0,-1.3627961874008179,0.3546949625015259,0.720238447189331,0.4200000464916229,0.6040286421775818,6.30248507604847e-07,-3.164750069117872e-06,-0.7969624996185303,0.00015082876780070364,-0.00026739941677078605,-9.599607437849045e-05,0.005852662492543459,-0.0008388209971599281,-0.0006346564623527229,0.37377655506134033,0.7460300922393799,0.48874861001968384,0.8896059989929199,0.2940230369567871,1.6403348445892334,0.3572338819503784,0.7156800627708435,0.42000001668930054,-0.5185442566871643,0.04558764025568962,-1.5278311967849731,-3.000000476837158,-0.17785237729549408,-0.17934630811214447,-0.1794738918542862,-0.1782480925321579,0.15443147718906403,0.12980549037456512,0.16863903403282166,0.12716853618621826
0.7166666666666667,0.05007891729474068,0.027163458988070488,0.0,0.5901566743850708,0.0,0.0,-0.8072887063026428,0.3057347238063812,-0.28649455308914185,0.0,0.0,0.0,2.188710927963257,0.3546949625015259,0.720238447189331,0.4200000464916229,0.6040287613868713,2.8512326366580965e-07,-3.3293456453975523e-06,-0.7969623804092407,0.00014112042845226824,-0.0002764031523838639,-9.555532597005367e-05,0.0061254603788256645,-0.0010442722123116255,-0.000623214291408658,0.3874620497226715,0.7520661354064941,0.509442150592804,0.6730779409408569,0.36970049142837524,0.9183186292648315,0.3572338819503784,0.7156800627708435,0.42000001668930054,-0.5026711821556091,1.699975848197937,-1.4890245199203491,3.000000476837158,-0.17399375140666962,-0.17558422684669495,-0.17498289048671722,-0.1742105782032013,0.204228475689888,0.22410590946674347,0.2802281975746155,0.27306437492370605
0.7333333333333333,0.052636247128248215,0.028666626662015915,0.0,0.5861058235168457,0.0,0.0,-0.8102344870567322,0.09528036415576935,0.23046277463436127,0.0,0.0,0.0,-1.5972601175308228,0.3546949625015259,0.720238447189331,0.4200000464916229,0.6040287613868713,3.5503489925758913e-07,-3.3118517421826255e-06,-0.7969623804092407,0.0001417501480318606,-0.00027669582050293684,-9.568850509822369e-05,0.006129629444330931,-0.001037457725033164,-0.0006247946876101196,0.39221829175949097,0.7556546926498413,0.520780622959137,0.0042136795818805695,0.15807408094406128,0.5661548376083374,0.3572338819503784,0.7156800627708435,0.42000001668930054,-0.48832207918167114,0.1465713083744049,-1.4389718770980835,3.0000014305114746,-0.1761097013950348,-0.17638574540615082,-0.17412899434566498,-0.17269457876682281,-0.2013964205980301,-0.11332354694604874,-0.01557208877056837,0.030190009623765945
0.75,0.05221045762300491,0.027372581884264946,0.0,0.5919157862663269,0.0,0.0,-0.8059998154640198,-0.08557848632335663,-0.10258001834154129,0.0,0.0,0.0,1.5351465940475464,0.3546949625015259,0.720238447189331,0.4200000464916229,0.6040287613868713,3.505935524117376e-07,-3.2917564567469526e-06,-0.7969623804092407,0.00014175924297887832,-0.0002766881952993572,-9.569083340466022e-05,0.006129304878413677,-0.0010373793775215745,-0.0006248102872632444,0.3910640776157379,0.7563234567642212,0.5266050100326538,-0.26397624611854553,-0.07409008592367172,0.2112455815076828,0.3572338819503784,0.7156800627708435,0.42000001668930054,-0.5012471675872803,-1.5446735620498657,-1.456332802772522,-3.000000476837158,-0.1778806746006012,-0.1765882819890976,-0.1727016717195511,-0.17032012343406677,-0.15417258441448212,-0.038910578936338425,0.07349278777837753,0.15285025537014008
0.7666666666666666,0.05290355533361435,0.024396566674113274,0.0,0.5905689001083374,0.0,0.0,-0.8069872260093689,0.07472120225429535,-0.22578653693199158,0.0,0.0,0.0,-0.9474311470985413,0.3546949625015259,0.720238447189331,0.4200000464916229,0.6040288209915161,2.842235744537902e-07,-3.4487204629840562e-06,-0.7969623804092407,0.00014162338629830629,-0.0002767076075542718,-9.56535805016756e-05,0.006130517460405827,-0.0010390677489340305,-0.0006245183758437634,0.388999879360199,0.7539736032485962,0.5245295763015747,0.04105427861213684,-0.19517648220062256,-0.2945851981639862,0.3572338819503784,0.7156800627708435,0.42000001668930054,-0.5232597589492798,-1.115043044090271,-1.506351113319397,-3.000000238418579,-0.18105939030647278,-0.17768153548240662,-0.1717633754014969,-0.16769064962863922,-0.14897765219211578,-0.026547670364379883,0.09219308942556381,0.2015891969203949
0.7833333333333333,0.05608196556568146,0.018503990024328232,0.0,0.5685029625892639,0.0,0.0,-0.8226812481880188,0.23731130361557007,-0.41056007146835327,0.0,0.0,0.0,-4.172731876373291,0.3546949625015259,0.720238447189331,0.4200000464916229,0.6040286421775818,3.5457199487609614e-07,-3.186589083270519e-06,-0.796962559223175,0.0001410178083460778,-0.00027620556647889316,-9.557139128446579e-05,0.006121373735368252,-0.0010452234419062734,-0.0006229592254385352,0.39034929871559143,0.7471984028816223,0.5210059881210327,0.19204798340797424,-0.5587190389633179,0.01585337519645691,0.3572338819503784,0.7156800627708435,0.42000001668930054,-0.5664343237876892,-2.9999685287475586,-1.556369423866272,-2.9999992847442627,-0.18464520573616028,-0.17917121946811676,-0.17121629416942596,-0.165101557970047,-0.21215419471263885,-0.09114744514226913,0.02594853937625885,0.1513361781835556
0.8,0.06228441372513771,0.015996744856238365,0.0,0.5607547163963318,0.0,0.0,-0.8279819488525391,0.36538100242614746,-0.12629692256450653,0.0,0.0,0.0,-0.053911034017801285,0.3546949625015259,0.720238447189331,0.4200000464916229,0.6040286421775818,2.835021746250277e-07,-3.3330968562950147e-06,-0.796962559223175,0.00014120887499302626,-0.00027671249699778855,-9.555462747812271e-05,0.006132906768471003,-0.0010439760517328978,-0.0006236021872609854,0.3926754593849182,0.7418637275695801,0.5254687070846558,0.1236608624458313,-0.06416512280702591,0.4891135096549988,0.3572338819503784,0.7156800627708435,0.42000001668930054,-0.586741030216217,0.29438909888267517,-1.606386661529541,-2.999999523162842,-0.18868756294250488,-0.18196390569210052,-0.17288857698440552,-0.16545315086841583,-0.049653977155685425,-0.05791761726140976,-0.07352709025144577,-0.06945182383060455
0.8166666666666667,0.06530681997537613,0.014929001219570637,0.0,0.5778153538703918,0.0,0.0,-0.8161675333976746,0.13059662282466888,0.018789084628224373,0.0,0.0,0.0,3.2817578315734863,0.3546949625015259,0.720238447189331,0.4200000464916229,0.6040286421775818,4.80259814139572e-07,-3.4903630421467824e-06,-0.796962559223175,0.0001420707703800872,-0.0002768516424112022,-9.573600254952908e-05,0.006131790578365326,-0.0010337067069485784,-0.0006255056941881776,0.3981921970844269,0.7418087720870972,0.5308257937431335,0.44542616605758667,-0.00984269380569458,0.21668460965156555,0.3572338819503784,0.7156800627708435,0.42000001668930054,-0.5865830183029175,-0.23202462494373322,-1.5673552751541138,3.000000238418579,-0.1871490329504013,-0.18096044659614563,-0.1724809855222702,-0.16518893837928772,0.12301095575094223,0.0904800072312355,0.05483512952923775,0.0492081381380558
0.8333333333333334,0.06467851251363754,0.010331520810723305,0.0,0.5805556774139404,0.0,0.0,-0.8142205476760864,-0.021296342834830284,-0.3188205361366272,0.0,0.0,0.0,-0.6987500190734863,0.3546949625015259,0.720238447189331,0.4200000464916229,0.6040286421775818,4.7573331585226697e-07,-3.4704867175605614e-06,-0.796962559223175,0.00014191516675055027,-0.00027690501883625984,-9.568198584020138e-05,0.006133883260190487,-0.0010354402475059032,-0.0006251776940189302,0.4032715857028961,0.7405236959457397,0.5315204858779907,0.16419032216072083,-0.21959508955478668,-0.003257911652326584,0.3572338819503784,0.7156800627708435,0.42000001668930054,-0.6167833209037781,-3.0,-1.5173178911209106,3.000000238418579,-0.18190898001194,-0.17673127353191376,-0.16933956742286682,-0.162615105509758,0.23056858777999878,0.1916646957397461,0.14315271377563477,0.1215900257229805
0.85,0.06678269803524017,0.011460351757705212,0.0,0.5927917957305908,0.0,0.0,-0.8053557276725769,0.1477452516555786,0.07143726944923401,0.0,0.0,0.0,2.3633036613464355,0.3546949625015259,0.720238447189331,0.4200000464916229,0.6040287017822266,5.096148925076704e-07,-3.2701150303182658e-06,-0.796962559223175,0.00014256009308155626,-0.00027675332967191935,-9.585311636328697e-05,0.006126707885414362,-0.0010273604420945048,-0.0006265148986130953,0.40760573744773865,0.7364699840545654,0.532837986946106,0.4477471113204956,-0.12394385039806366,0.15636660158634186,0.3572338819503784,0.7156800627708435,0.42000001668930054,-0.6430010199546814,-0.35212600231170654,-1.5331215858459473,-2.999999523162842,-0.18327079713344574,-0.17786923050880432,-0.17040899395942688,-0.16319110989570618,0.07678041607141495,0.04625557363033295,0.015049904584884644,0.01798470877110958
0.8666666666666667,0.06647404283285141,0.007938810624182224,0.0,0.5907696485519409,0.0,0.0,-0.8068403005599976,-0.05498019605875015,-0.2296367883682251,0.0,0.0,0.0,-1.1384077072143555,0.3546949625015259,0.720238447189331,0.4200000464916229,0.6040287017822266,4.829601607525547e-07,-3.4152992611780064e-06,-0.796962559223175,0.0001418540341546759,-0.0002770601713564247,-9.566685184836388e-05,0.0061378455720841885,-0.0010372267570346594,-0.0006251807208172977,0.4148821234703064,0.7332751750946045,0.5339266061782837,0.3788767457008362,-0.33661073446273804,0.11253990232944489,0.3572338819503784,0.7156800627708435,0.42000001668930054,-0.6756982803344727,-3.000000238418579,-1.5129148960113525,3.000000476837158,-0.17946559190750122,-0.17482693493366241,-0.16811120510101318,-0.161052867770195,0.10277631878852844,0.09245123714208603,0.08080758899450302,0.0995587706565857
