vladlanda/robotic-transformer/data/env_000_episode_0117.csv
sim_time_s,robot_box_x,robot_box_y,robot_box_z,robot_box_quat_w,robot_box_quat_x,robot_box_quat_y,robot_box_quat_z,robot_box_linvel_x,robot_box_linvel_y,robot_box_linvel_z,robot_box_angvel_x,robot_box_angvel_y,robot_box_angvel_z,cube_world_x,cube_world_y,cube_world_z,cube_quat_w,cube_quat_x,cube_quat_y,cube_quat_z,cube_linvel_x,cube_linvel_y,cube_linvel_z,cube_angvel_x,cube_angvel_y,cube_angvel_z,endpoint_world_x,endpoint_world_y,endpoint_world_z,endpoint_linvel_x,endpoint_linvel_y,endpoint_linvel_z,target_cube_world_x,target_cube_world_y,target_cube_world_z,gripper_actual_pos_rad_gp_leftgearjoint,gripper_actual_vel_rad_s_gp_leftgearjoint,gripper_actual_pos_rad_gp_rotatingjoint,gripper_actual_vel_rad_s_gp_rotatingjoint,motor_angle_rad_joint1,motor_angle_rad_joint2,motor_angle_rad_joint3,motor_angle_rad_joint4,motor_speed_rad_s_joint1,motor_speed_rad_s_joint2,motor_speed_rad_s_joint3,motor_speed_rad_s_joint4
0.0,0.0,0.0,0.0,1.0,0.0,0.0,0.0,0.0,0.0,0.0,0.0,0.0,0.0,-0.3866517245769501,0.7639884352684021,0.41999998688697815,1.0,0.0,0.0,0.0,0.0,0.0,0.0,0.0,0.0,0.0,3.42540442943573e-06,-0.005000244826078415,1.313499927520752,0.0,0.0,0.0,0.35589155554771423,0.6234527230262756,0.42000001668930054,-1.5707999467849731,0.0,0.0,0.0,0.0,0.0,0.0,0.0,0.0,0.0,0.0,0.0
0.016666666666666666,0.0028778850100934505,0.0021806680597364902,0.0,0.9998081922531128,0.0,0.0,0.019586581736803055,0.24087215960025787,0.18240931630134583,0.0,0.0,0.0,3.1418697834014893,-0.3866518437862396,0.7639881372451782,0.41999998688697815,1.0,3.279964630564791e-06,-8.339746386809566e-07,8.465587342243452e-08,-1.9833529222523794e-05,0.00017983045836444944,-6.132945418357849e-05,0.0009432713268324733,-0.004689474124461412,-0.00031981561915017664,-0.007110234349966049,0.003379564033821225,1.3159373998641968,-0.8143353462219238,0.9868683815002441,0.18095196783542633,0.35589155554771423,0.6234527230262756,0.42000001668930054,-1.5301095247268677,3.0000011920928955,-0.04584788903594017,-2.9999992847442627,0.0008691533003002405,0.0007963840034790337,0.0007110277656465769,0.0006108740926720202,0.11094217747449875,0.09756709635257721,0.08334315568208694,0.06823883205652237
0.03333333333333333,0.008961145766079426,0.00680210255086422,0.0,0.9997960329055786,0.0,0.0,0.020196959376335144,0.4070484936237335,0.315317302942276,0.0,0.0,0.0,-0.8690980672836304,-0.3866519629955292,0.7639880776405334,0.4200000464916229,1.0,3.3908731893461663e-06,-2.1324503904907033e-06,-3.710378493337885e-08,0.0002635771525092423,0.00026937818620353937,-0.00010509602725505829,-0.0017707280348986387,0.0041307248175144196,-0.00013547952403314412,-0.026844434440135956,0.026311952620744705,1.316685438156128,-1.5112700462341309,1.6205265522003174,-0.07409973442554474,0.35589155554771423,0.6234527230262756,0.42000001668930054,-1.4800903797149658,3.000001907348633,-0.09588771313428879,-3.000000476837158,0.0029134275391697884,0.002548683900386095,0.0021458922419697046,0.0017020220402628183,0.1549704521894455,0.12767545878887177,0.0988951176404953,0.06854192167520523
0.05,0.018473755568265915,0.013908011838793755,0.0,0.9999769926071167,0.0,0.0,-0.006782736629247665,0.6363683938980103,0.4724823534488678,0.0,0.0,0.0,-4.073099136352539,-0.38665199279785156,0.7639881372451782,0.4200000464916229,1.0,3.765210749406833e-06,-2.211951823483105e-06,5.613643327961881e-09,0.00026530795730650425,0.0002669148670975119,-0.00010440382175147533,-0.001724369591102004,0.004177452996373177,-0.00012949664960615337,-0.054478440433740616,0.05753681808710098,1.3126816749572754,-1.8137832880020142,2.0553736686706543,-0.3954700827598572,0.35589155554771423,0.6234527230262756,0.42000001668930054,-1.4300720691680908,3.00000262260437,-0.14592641592025757,-2.9999992847442627,0.005651308689266443,0.004717832896858454,0.0037118541076779366,0.0026293720584362745,0.1834743320941925,0.1390284150838852,0.09266463667154312,0.04431210830807686
0.06666666666666667,0.022391851991415024,0.024976754561066628,0.0,0.999869167804718,0.0,0.0,-0.01617419719696045,0.20540112257003784,0.648518443107605,0.0,0.0,0.0,-0.1223447173833847,-0.38665199279785156,0.7639880776405334,0.4200000464916229,0.9999999403953552,3.4067904834955698e-06,-2.285614755237475e-06,4.3009768546653504e-07,0.00026702461764216423,0.00026791743584908545,-0.00010437914170324802,-0.0017406983533874154,0.004211690742522478,-0.00012850519851781428,-0.08809095621109009,0.09102553129196167,1.3018685579299927,-2.0461251735687256,2.0771522521972656,-0.7387862205505371,0.35589155554771423,0.6234527230262756,0.42000001668930054,-1.3800474405288696,2.999931573867798,-0.11652156710624695,2.999974489212036,0.0032842596992850304,0.0019169733859598637,0.00042534098611213267,-0.0011988966725766659,-0.0485786497592926,-0.1041836142539978,-0.16104890406131744,-0.21939197182655334
0.08333333333333333,0.03087575174868107,0.03665488585829735,0.0,0.9992339015007019,0.0,0.0,-0.039135608822107315,0.5913501977920532,0.7317513227462769,0.0,0.0,0.0,-3.6050591468811035,-0.38665199279785156,0.7639880776405334,0.4200000464916229,0.9999999403953552,3.6261469631426735e-06,-2.335380486329086e-06,3.03218911312797e-07,0.00026613997761160135,0.00026685072225518525,-0.00010405411012470722,-0.00172830477822572,0.004196411930024624,-0.00012791113113053143,-0.11582017689943314,0.13041874766349792,1.2902979850769043,-1.3620789051055908,2.6603310108184814,-0.6826870441436768,0.35589155554771423,0.6234527230262756,0.42000001668930054,-1.330043911933899,3.0000014305114746,-0.14852707087993622,-3.000000238418579,0.0050005000084638596,0.0019446868682280183,-0.001231808797456324,-0.00453929603099823,0.06409434974193573,-0.05440423637628555,-0.17254938185214996,-0.2902626395225525
0.1,0.03687194362282753,0.05112773925065994,0.0,0.9959924817085266,0.0,0.0,-0.08943678438663483,0.3604010343551636,0.9339125752449036,0.0,0.0,0.0,-6.718653678894043,-0.38665199279785156,0.7639880776405334,0.4200000464916229,1.0,3.422160716581857e-06,-2.3086697638063924e-06,1.7963446907742764e-07,0.0002668171364348382,0.00026800541672855616,-0.00010440940968692303,-0.0017430626321583986,0.0042071714997291565,-0.00012891193910036236,-0.13982520997524261,0.17742159962654114,1.2776967287063599,-1.4908084869384766,2.999302387237549,-0.7839264273643494,0.35589155554771423,0.6234527230262756,0.42000001668930054,-1.280030369758606,2.9999897480010986,-0.1150100827217102,3.000000476837158,0.004278798587620258,-0.0006313311751000583,-0.005646463017910719,-0.010775481350719929,0.026353953406214714,-0.09367390722036362,-0.21130484342575073,-0.3264116644859314
0.11666666666666667,0.04065925255417824,0.06389692425727844,0.0,0.9930258393287659,0.0,0.0,-0.11789706349372864,0.17121785879135132,0.6910098195075989,0.0,0.0,0.0,-2.35121750831604,-0.38665199279785156,0.7639881372451782,0.4200000464916229,1.0,3.711574436238152e-06,-2.3327409053308656e-06,2.57429746852722e-07,0.0002648569061420858,0.00026635389076545835,-0.00010423175990581512,-0.001718113082461059,0.00417000986635685,-0.00012916083505842835,-0.16956153512001038,0.22531698644161224,1.262927532196045,-1.8110607862472534,3.0184905529022217,-0.9747451543807983,0.35589155554771423,0.6234527230262756,0.42000001668930054,-1.2352688312530518,2.390124559402466,-0.14698101580142975,-3.0000009536743164,0.004363213200122118,-0.0025530054699629545,-0.009518655017018318,-0.01653958112001419,-0.04227006435394287,-0.1553134322166443,-0.26483970880508423,-0.370677649974823
0.13333333333333333,0.04672088101506233,0.07695773243904114,0.0,0.9874016046524048,0.0,0.0,-0.158234104514122,0.39517754316329956,0.8297918438911438,0.0,0.0,0.0,-5.677996635437012,-0.38665199279785156,0.7639880776405334,0.4200000464916229,1.0,3.335777364554815e-06,-2.2319622985378373e-06,3.113137267973798e-07,0.0002666980435606092,0.0002675949945114553,-0.00010428577661514282,-0.001737120095640421,0.004205959849059582,-0.0001284073368879035,-0.1990165263414383,0.2813243865966797,1.24305260181427,-1.647695779800415,3.7401645183563232,-1.4141417741775513,0.35589155554771423,0.6234527230262756,0.42000001668930054,-1.186592936515808,2.9999918937683105,-0.1134629175066948,2.9999992847442627,0.0024160437751561403,-0.006136558949947357,-0.014692146331071854,-0.02325303480029106,-0.2573964595794678,-0.3324293792247772,-0.40565064549446106,-0.4768918752670288
0.15,0.050602853298187256,0.08874280750751495,0.0,0.9780799746513367,0.0,0.0,-0.20822955667972565,0.198118194937706,0.613427460193634,0.0,0.0,0.0,-6.206126689910889,-0.38665199279785156,0.7639880776405334,0.4200000464916229,1.0,3.518996436469024e-06,-2.2831670776213286e-06,-3.625500255566294e-07,0.0002661844191607088,0.00026735776918940246,-0.0001042571384459734,-0.0017350405687466264,0.004195826128125191,-0.00012860792048741132,-0.22889557480812073,0.34294241666793823,1.2154743671417236,-1.7552237510681152,3.836441993713379,-1.8570597171783447,0.35589155554771423,0.6234527230262756,0.42000001668930054,-1.1546382904052734,0.9824126362800598,-0.14547604322433472,-3.0,-0.0035501199308782816,-0.013106491416692734,-0.022630803287029266,-0.03212477266788483,-0.3914949595928192,-0.44128748774528503,-0.488815575838089,-0.5340808033943176
0.16666666666666666,0.05093862861394882,0.10052205622196198,0.0,0.9727070331573486,0.0,0.0,-0.23203666508197784,-0.05307349935173988,0.7445087432861328,0.0,0.0,0.0,-1.872739553451538,-0.38665199279785156,0.7639880776405334,0.4200000464916229,1.0,3.6666856431111228e-06,-2.3392326511384454e-06,-3.1500661634709104e-07,0.0002659590682014823,0.0002666739746928215,-0.00010403734631836414,-0.001725408830679953,0.004192907828837633,-0.00012778787640854716,-0.2652372717857361,0.40580543875694275,1.1782729625701904,-2.117748737335205,4.006339073181152,-2.605103015899658,0.35589155554771423,0.6234527230262756,0.42000001668930054,-1.1108912229537964,3.000000238418579,-0.19550667703151703,-3.000000238418579,-0.011467808857560158,-0.021539684385061264,-0.03153151646256447,-0.04144682362675667,-0.5301274657249451,-0.5433493256568909,-0.5538491606712341,-0.561848521232605
0.18333333333333332,0.05434984341263771,0.11367608606815338,0.0,0.9631409049034119,0.0,0.0,-0.2689974009990692,0.21137970685958862,0.8477044105529785,0.0,0.0,0.0,-5.450511932373047,-0.38665199279785156,0.7639880776405334,0.4200000464916229,1.0,3.8144271456985734e-06,-2.399574441369623e-06,-2.7028085014535463e-07,0.00026549104950390756,0.0002661106700543314,-0.00010391208343207836,-0.0017177473055198789,0.004184795543551445,-0.00012754145427607,-0.2985127568244934,0.4744374752044678,1.1311602592468262,-1.7651453018188477,4.265159606933594,-3.0725879669189453,0.35589155554771423,0.6234527230262756,0.42000001668930054,-1.060908555984497,2.990814208984375,-0.2455354481935501,-3.0000011920928955,-0.01973840966820717,-0.030071401968598366,-0.04028010740876198,-0.05037273094058037,-0.6558052897453308,-0.6484835743904114,-0.6400123238563538,-0.6307652592658997
0.2,0.054749712347984314,0.1245429739356041,0.0,0.9575668573379517,0.0,0.0,-0.2882113456726074,-0.010808677412569523,0.5754991769790649,0.0,0.0,0.0,-1.2913669347763062,-0.38665199279785156,0.7639880776405334,0.4200000464916229,1.0,3.600128366088029e-06,-2.2912661279406166e-06,-2.201928452905122e-07,0.0002657302829902619,0.0002664499043021351,-0.00010398216545581818,-0.0017227501375600696,0.004188836552202702,-0.00012773204070981592,-0.3302246332168579,0.541850209236145,1.070852279663086,-1.6713848114013672,4.106492042541504,-4.0572052001953125,0.35589155554771423,0.6234527230262756,0.42000001668930054,-1.0151629447937012,2.5021719932556152,-0.2955623269081116,-3.000000238418579,-0.03334280848503113,-0.042850643396377563,-0.052244264632463455,-0.06154557317495346,-0.8458128571510315,-0.7817676067352295,-0.7187396883964539,-0.6575963497161865
0.21666666666666667,0.05128224194049835,0.13685913383960724,0.0,0.9479357004165649,0.0,0.0,-0.3184617757797241,-0.27900779247283936,0.7606192827224731,0.0,0.0,0.0,-4.591329574584961,-0.38665199279785156,0.7639880776405334,0.4200000464916229,0.9999999403953552,3.6396832001628354e-06,-2.2619790343014756e-06,2.2247580488965468e-07,0.000266876129899174,0.0002675456053111702,-0.00010411837138235569,-0.0017403995152562857,0.004211102146655321,-0.0001278344279853627,-0.35584187507629395,0.6098082065582275,0.9966688752174377,-1.3164021968841553,4.022573947906494,-4.739879608154297,0.35589155554771423,0.6234527230262756,0.42000001668930054,-0.9656447172164917,3.000002861022949,-0.345588743686676,-3.000000476837158,-0.04900720342993736,-0.05852022394537926,-0.06717468053102493,-0.07516714185476303,-0.9564311504364014,-0.9534434080123901,-0.9112138152122498,-0.836673378944397
0.23333333333333334,0.0523393414914608,0.14444668591022491,0.0,0.9434592723846436,0.0,0.0,-0.33148854970932007,0.06897271424531937,0.354036808013916,0.0,0.0,0.0,-0.4168514013290405,-0.3866519629955292,0.7639880776405334,0.4200000464916229,1.0,3.4207012049591867e-06,-2.3168170173448743e-06,2.956003584131395e-07,0.00026680107112042606,0.000268039817456156,-0.00010442431084811687,-0.001743763918057084,0.004206912126392126,-0.00012899679131805897,-0.3797357678413391,0.6697367429733276,0.9120219945907593,-1.2333264350891113,3.274331569671631,-5.460660457611084,0.35589155554771423,0.6234527230262756,0.42000001668930054,-0.9156397581100464,2.9999992847442627,-0.39561739563941956,-2.9999990463256836,-0.062242571264505386,-0.07141423970460892,-0.07915342599153519,-0.0858379676938057,-0.9755202531814575,-0.9371906518936157,-0.8385931253433228,-0.7255244851112366
0.25,0.04345334693789482,0.15167319774627686,0.0,0.9379612803459167,0.0,0.0,-0.3467399477958679,-0.7094389200210571,0.3424159586429596,0.0,0.0,0.0,-2.1842100620269775,-0.38665199279785156,0.7639880776405334,0.4200000464916229,0.9999999403953552,3.3475778309366433e-06,-2.2591987089981558e-06,1.80843230168648e-07,0.00026687668287195265,0.0002679106837604195,-0.00010439427569508553,-0.0017404770478606224,0.004208184313029051,-0.00012870125647168607,-0.39682668447494507,0.716597318649292,0.8155748248100281,-0.8612579107284546,2.4778902530670166,-5.911433696746826,0.35589155554771423,0.6234527230262756,0.42000001668930054,-0.8656302094459534,2.9999139308929443,-0.4456479251384735,-2.9999008178710938,-0.07812394201755524,-0.08731628954410553,-0.09509214013814926,-0.10180200636386871,-0.8673017024993896,-0.8840428590774536,-0.89927077293396,-0.9139076471328735
0.26666666666666666,0.03310462459921837,0.15353967249393463,0.0,0.9266821146011353,0.0,0.0,-0.37584608793258667,-0.5991284847259521,0.030773401260375977,0.0,0.0,0.0,-4.213781356811523,-0.38665199279785156,0.7639880776405334,0.4200000464916229,0.9999999403953552,3.5356292755750474e-06,-2.3003199203230906e-06,-1.268551699240561e-07,0.00026601855643093586,0.0002671205438673496,-0.00010419590398669243,-0.0017316712765023112,0.004192938096821308,-0.00012849338236264884,-0.4073494076728821,0.753972053527832,0.7099711894989014,-0.33041825890541077,1.8500727415084839,-6.555530071258545,0.35589155554771423,0.6234527230262756,0.42000001668930054,-0.8156213164329529,2.999699592590332,-0.49567893147468567,-2.999915361404419,-0.09426376968622208,-0.10349030792713165,-0.11129247397184372,-0.11798838526010513,-0.9703968167304993,-0.9744290113449097,-0.9783151745796204,-0.9820544123649597
0.2833333333333333,0.025260239839553833,0.15617990493774414,0.0,0.9232639670372009,0.0,0.0,-0.3841661214828491,-0.4253019094467163,0.27304771542549133,0.0,0.0,0.0,-0.10982421040534973,-0.38665199279785156,0.7639881372451782,0.4200000464916229,1.0,3.593386736611137e-06,-2.262666157548665e-06,-5.653454238085942e-08,0.00026704760966822505,0.0002677501179277897,-0.0001041668001562357,-0.0017431536689400673,0.004214164335280657,-0.0001278952695429325,-0.4139654040336609,0.7715350389480591,0.6006041765213013,-0.1752893030643463,0.37062719464302063,-6.506563186645508,0.35589155554771423,0.6234527230262756,0.42000001668930054,-0.7656125426292419,3.000002384185791,-0.5457094311714172,-3.0000011920928955,-0.11129002273082733,-0.12039382755756378,-0.12810729444026947,-0.13473738729953766,-1.0132362842559814,-1.00994873046875,-1.0074450969696045,-1.0054556131362915
0.3,0.021491151303052902,0.15690509974956512,0.0,0.9155564308166504,0.0,0.0,-0.4021895229816437,-0.23927530646324158,-0.04548458755016327,0.0,0.0,0.0,-2.6313722133636475,-0.3866519629955292,0.7639880776405334,0.4200000464916229,0.9999999403953552,3.7249612887535477e-06,-2.2361150513461325e-06,3.82876550020228e-07,0.0002647988440003246,0.0002667312219273299,-0.00010453863069415092,-0.0017189474310725927,0.004166778642684221,-0.00013016737648285925,-0.4133284091949463,0.7722740173339844,0.4912465512752533,0.3907727003097534,-0.33513304591178894,-6.422158241271973,0.35589155554771423,0.6234527230262756,0.42000001668930054,-0.7156040668487549,2.9995903968811035,-0.5957381129264832,-2.999939441680908,-0.12836699187755585,-0.13733790814876556,-0.14495903253555298,-0.15152300894260406,-0.9854623675346375,-0.9887371063232422,-0.9918279051780701,-0.9945340752601624
0.31666666666666665,0.014522888697683811,0.15522639453411102,0.0,0.9165458083152771,0.0,0.0,-0.3999297618865967,-0.488460898399353,-0.12278380990028381,0.0,0.0,0.0,1.1981016397476196,-0.38665199279785156,0.7639880776405334,0.4200000464916229,0.9999999403953552,3.557703621481778e-06,-2.27888676818111e-06,2.283357218857418e-07,0.000265985174337402,0.0002665847714524716,-0.00010399101302027702,-0.0017240674933418632,0.004193439148366451,-0.00012769292516168207,-0.40979957580566406,0.7709730863571167,0.4287942051887512,0.1645730584859848,-0.06431035697460175,-0.28391867876052856,0.35589155554771423,0.6234527230262756,0.42000001668930054,-0.66559898853302,3.000000238418579,-0.6461405754089355,-3.000223159790039,-0.14363400638103485,-0.15263409912586212,-0.16019128262996674,-0.1663292795419693,-0.4502373933792114,-0.5300714373588562,-0.5837417244911194,-0.5762608051300049
0.3333333333333333,0.0037011969834566116,0.15186326205730438,0.0,0.9113171100616455,0.0,0.0,-0.4117051661014557,-0.7175135016441345,-0.23370321094989777,0.0,0.0,0.0,-2.4556713104248047,-0.38481923937797546,0.7660643458366394,0.4200000464916229,0.9999909996986389,1.5110060758161126e-06,6.363059128489112e-07,-0.004230972845107317,0.16374541819095612,0.1861732304096222,-2.2332806111080572e-05,-0.0012561727780848742,-7.745670700387564e-06,-0.8822396397590637,-0.40515172481536865,0.773844838142395,0.4262564182281494,0.44134658575057983,0.06347756087779999,-0.2181999385356903,0.35589155554771423,0.6234527230262756,0.42000001668930054,-0.6155931949615479,2.9999890327453613,-0.6962361931800842,-2.999532699584961,-0.1531255841255188,-0.1620786190032959,-0.1691848486661911,-0.17400161921977997,-0.6690803170204163,-0.6012863516807556,-0.5143902897834778,-0.38653329014778137
0.35,-0.007776092272251844,0.14547643065452576,0.0,0.9127985239028931,0.0,0.0,-0.4084102213382721,-0.7137717008590698,-0.4297897219657898,0.0,0.0,0.0,1.3623727560043335,-0.38064298033714294,0.7689982056617737,0.42000001668930054,0.9981849193572998,4.264366452844115e-06,9.922777053361642e-07,-0.06022284924983978,0.24025002121925354,0.1501619666814804,-2.658249286469072e-05,-0.0015360855031758547,0.002483498537912965,-7.056601047515869,-0.39601510763168335,0.7755578756332397,0.4221022129058838,0.670495331287384,0.0775967538356781,-0.24072863161563873,0.35589155554771423,0.6234527230262756,0.42000001668930054,-0.5655878782272339,2.999971389770508,-0.746278703212738,-2.999959707260132,-0.1633034199476242,-0.17057660222053528,-0.17571640014648438,-0.17800909280776978,-0.6073281168937683,-0.4697106182575226,-0.3187766969203949,-0.1432572901248932
0.36666666666666664,-0.021173646673560143,0.1366427093744278,0.0,0.907951295375824,0.0,0.0,-0.41907569766044617,-0.8559557795524597,-0.5753403902053833,0.0,0.0,0.0,-2.2593624591827393,-0.3746291995048523,0.7733815312385559,0.4202665090560913,0.9918910264968872,0.006733028218150139,-0.0006251350278034806,-0.12691061198711395,0.4999164342880249,0.3802381157875061,0.007341495715081692,0.50513756275177,-0.2626105546951294,-10.175393104553223,-0.38403600454330444,0.7784201502799988,0.4205054044723511,0.7306954860687256,0.33343929052352905,0.11236226558685303,0.35589155554771423,0.6234527230262756,0.42000001668930054,-0.5155828595161438,3.000000238418579,-0.7963204979896545,-2.999424695968628,-0.173251673579216,-0.178055539727211,-0.1805289089679718,-0.17984193563461304,-0.5316423773765564,-0.3849346339702606,-0.2279360443353653,-0.057187315076589584
0.3833333333333333,-0.03564172983169556,0.12545280158519745,0.0,0.899551272392273,0.0,0.0,-0.43681517243385315,-0.9039188623428345,-0.711497962474823,0.0,0.0,0.0,-2.3925836086273193,-0.36348119378089905,0.7825325727462769,0.4200001657009125,0.9625646471977234,-4.2390522139612585e-05,-5.1668303058249876e-05,-0.2710520029067993,0.7788504958152771,0.64515221118927,-0.0001879540941445157,-0.0060855369083583355,0.01651882939040661,-21.689571380615234,-0.3675980865955353,0.7876417636871338,0.4201585650444031,1.1474947929382324,0.6850153207778931,0.09599101543426514,0.35589155554771423,0.6234527230262756,0.42000001668930054,-0.4655478894710541,2.9999988079071045,-0.8463340997695923,-2.9999735355377197,-0.1824914515018463,-0.18440517783164978,-0.18380506336688995,-0.17987240850925446,-0.4857328236103058,-0.308226615190506,-0.11837530881166458,0.08030910789966583
0.4,-0.04727863147854805,0.11145996302366257,0.0,0.8812737464904785,0.0,0.0,-0.4726061522960663,-0.6243193745613098,-0.8927302956581116,0.0,0.0,0.0,-5.674497604370117,-0.34152764081954956,0.7983877062797546,0.4220602214336395,0.9551896452903748,-0.020315077155828476,-0.006906847003847361,-0.2952156960964203,1.6175943613052368,1.0210795402526855,0.030217712745070457,-2.078967332839966,-3.935218572616577,-8.017193794250488,-0.345265656709671,0.8017560839653015,0.4222942888736725,1.7037250995635986,1.0676617622375488,0.1438981294631958,0.35589155554771423,0.6234527230262756,0.42000001668930054,-0.41564351320266724,2.789304733276367,-0.8963447213172913,-3.0001349449157715,-0.1893942952156067,-0.18840284645557404,-0.18462783098220825,-0.17735333740711212,-0.3438950777053833,-0.17147885262966156,0.016653507947921753,0.2122286707162857
0.4166666666666667,-0.05476345494389534,0.09432053565979004,0.0,0.8478632569313049,0.0,0.0,-0.5302149057388306,-0.3828640282154083,-1.0864256620407104,0.0,0.0,0.0,-8.833739280700684,-0.30143678188323975,0.8196820020675659,0.4262700080871582,0.9345520734786987,-0.01961580291390419,-0.039525844156742096,-0.35307955741882324,3.493969678878784,1.5197017192840576,0.6039164662361145,-0.8168282508850098,-3.353025197982788,1.1232084035873413,-0.3046041429042816,0.8232055902481079,0.4262695908546448,3.3003082275390625,1.5620297193527222,0.4192235469818115,0.35589155554771423,0.6234527230262756,0.42000001668930054,-0.3858003318309784,1.0762709379196167,-0.946367084980011,-2.9999794960021973,-0.19644232094287872,-0.1921570748090744,-0.18490539491176605,-0.17415288090705872,-0.4578443169593811,-0.23898077011108398,-0.014935064129531384,0.20152942836284637
0.43333333333333335,-0.05973430722951889,0.08262158185243607,0.0,0.7963032722473145,0.0,0.0,-0.6048975586891174,-0.251049280166626,-0.557998538017273,0.0,0.0,0.0,-11.709686279296875,-0.22140464186668396,0.8452049493789673,0.4337522089481354,0.9120723605155945,0.024071289226412773,-0.08101531863212585,-0.40122443437576294,6.290024280548096,1.2848947048187256,0.513386070728302,14.717550277709961,-14.693439483642578,13.595839500427246,-0.22403179109096527,0.8496474623680115,0.43348532915115356,6.0569868087768555,1.750573992729187,0.551447868347168,0.35589155554771423,0.6234527230262756,0.42000001668930054,-0.37049511075019836,0.8437700271606445,-0.9090598821640015,2.9982166290283203,-0.2110438495874405,-0.20255176723003387,-0.1901368498802185,-0.17477604746818542,-0.8909592032432556,-0.7136535048484802,-0.40809690952301025,-0.14829988777637482
0.45,-0.06700142472982407,0.07030703127384186,0.0,0.7516487836837769,0.0,0.0,-0.6595635414123535,-0.5124343633651733,-0.9118066430091858,0.0,0.0,0.0,-7.5004377365112305,-0.12405663728713989,0.866301417350769,0.4462186098098755,0.8716803193092346,0.05352819338440895,-0.09466336667537689,-0.4778565466403961,5.902096271514893,0.6295904517173767,0.8678752183914185,8.187236785888672,-10.466216087341309,3.2872519493103027,-0.1260673701763153,0.8723366260528564,0.4457666277885437,5.834301471710205,0.9585285186767578,0.8903814554214478,0.35589155554771423,0.6234527230262756,0.42000001668930054,-0.3549858331680298,1.02977454662323,-0.9349892139434814,-3.000001907348633,-0.22357510030269623,-0.2125389128923416,-0.1955881416797638,-0.17661002278327942,-0.5465774536132812,-0.41867125034332275,-0.2059372067451477,-0.04970009624958038
0.4666666666666667,-0.0723000019788742,0.05994629114866257,0.0,0.7280511260032654,0.0,0.0,-0.6855228543281555,-0.19292348623275757,-0.6085098385810852,0.0,0.0,0.0,-2.6706008911132812,-0.028934568166732788,0.8697177171707153,0.4604722261428833,0.8150357604026794,0.06863665580749512,-0.08537954837083817,-0.5689603686332703,5.176167964935303,-0.945042610168457,0.853875994682312,-10.605094909667969,12.30893325805664,30.013193130493164,-0.03100287914276123,0.8766632080078125,0.4598126709461212,5.770472526550293,-0.2750641107559204,0.886743426322937,0.35589155554771423,0.6234527230262756,0.42000001668930054,-0.3371487259864807,0.9682775139808655,-0.9850132465362549,-2.999999761581421,-0.23614664375782013,-0.2226354330778122,-0.2009349763393402,-0.17819564044475555,-0.5518994331359863,-0.4902833104133606,-0.23498207330703735,-0.025982046499848366
0.48333333333333334,-0.07735718786716461,0.04774163290858269,0.0,0.6991732716560364,0.0,0.0,-0.7149522304534912,-0.35409626364707947,-0.8082560896873474,0.0,0.0,0.0,-5.815922260284424,0.0601641945540905,0.8525298237800598,0.4710923433303833,0.7541694641113281,0.05258217826485634,-0.08099092543125153,-0.6495413780212402,4.785952091217041,-2.3573474884033203,0.754179060459137,6.901792049407959,-8.573570251464844,30.22157096862793,0.05725289508700371,0.8614562749862671,0.47160184383392334,5.182675361633301,-1.4858367443084717,0.6381740570068359,0.35589155554771423,0.6234527230262756,0.42000001668930054,-0.32385554909706116,0.5018977522850037,-1.0350359678268433,-3.000001907348633,-0.24004597961902618,-0.23230552673339844,-0.2058524787425995,-0.17912349104881287,-0.041696034371852875,-0.535741925239563,-0.25404679775238037,-0.014776338823139668
0.5,-0.08057799190282822,0.03872520104050636,0.0,0.6838392615318298,0.0,0.0,-0.7296326756477356,-0.12242662161588669,-0.4681394100189209,0.0,0.0,0.0,-1.376501441001892,0.13749970495700836,0.8220582008361816,0.4781067967414856,0.6985064148902893,0.02295786514878273,-0.06900198012590408,-0.7118991017341614,3.829592704772949,-2.4318089485168457,0.15732580423355103,-12.923391342163086,-0.6962610483169556,27.433006286621094,0.13469840586185455,0.8316249847412109,0.47984570264816284,4.415719032287598,-2.074941873550415,0.41102808713912964,0.35589155554771423,0.6234527230262756,0.42000001668930054,-0.31680747866630554,0.348288893699646,-1.0850580930709839,-3.0000011920928955,-0.23998285830020905,-0.23997826874256134,-0.21087661385536194,-0.1809197962284088,-0.011419801041483879,-0.008559465408325195,-0.2475297451019287,-0.12388880550861359
0.5166666666666666,-0.08015390485525131,0.032121337950229645,0.0,0.6606457233428955,0.0,0.0,-0.7506977915763855,0.08341899514198303,-0.29641595482826233,0.0,0.0,0.0,-4.611141681671143,0.2030639350414276,0.7860013842582703,0.4766570031642914,0.6399377584457397,-0.034053411334753036,-0.07376980781555176,-0.764119029045105,3.4152934551239014,-2.5388033390045166,-0.42141956090927124,-20.332462310791016,8.416253089904785,0.605638325214386,0.1996910572052002,0.7969521284103394,0.4810357093811035,3.5992813110351562,-2.2258706092834473,-0.06305843591690063,0.35589155554771423,0.6234527230262756,0.42000001668930054,-0.3082539141178131,0.6646965742111206,-1.1350802183151245,-2.9998652935028076,-0.23783251643180847,-0.23789580166339874,-0.213230699300766,-0.18262891471385956,0.18892261385917664,0.19761249423027039,-0.07289953529834747,-0.09414102137088776
0.5333333333333333,-0.07633861899375916,0.021528171375393867,0.0,0.6502736210823059,0.0,0.0,-0.7597001194953918,0.2542044222354889,-0.5938568115234375,0.0,0.0,0.0,-0.6939400434494019,0.25697433948516846,0.7493423819541931,0.4710719585418701,0.5961900353431702,-0.07053255289793015,-0.041600730270147324,-0.7986563444137573,2.7955002784729004,-2.310727596282959,-0.3571808934211731,-1.2104036808013916,1.9982527494430542,-5.345401763916016,0.2544049620628357,0.7600300312042236,0.47592875361442566,2.8448519706726074,-2.341526508331299,-0.4363354444503784,0.35589155554771423,0.6234527230262756,0.42000001668930054,-0.2923535108566284,1.0346096754074097,-1.1851023435592651,-3.0000016689300537,-0.22965644299983978,-0.22984176874160767,-0.21011777222156525,-0.18120801448822021,0.37807250022888184,0.4220595955848694,0.16622641682624817,0.048945680260658264
0.55,-0.0745147168636322,0.015546339564025402,0.0,0.6298719048500061,0.0,0.0,-0.7766990065574646,0.06307286024093628,-0.3634358048439026,0.0,0.0,0.0,-3.965954303741455,0.2985002100467682,0.7125856280326843,0.4588669240474701,0.5768230557441711,-0.07466976344585419,-0.04122771695256233,-0.8124037981033325,2.190056324005127,-2.639625072479248,-0.7644059658050537,0.828355610370636,0.2713142931461334,11.144498825073242,0.2960861325263977,0.7223536968231201,0.46409934759140015,2.2056407928466797,-2.1980419158935547,-0.90761798620224,0.35589155554771423,0.6234527230262756,0.42000001668930054,-0.2770644426345825,0.7457683682441711,-1.1499871015548706,3.0000016689300537,-0.22364383935928345,-0.22319431602954865,-0.20771783590316772,-0.1814507693052292,0.4768308401107788,0.48613545298576355,0.21380729973316193,0.0036962865851819515
0.5666666666666667,-0.0717271938920021,0.012605363503098488,0.0,0.6248994469642639,0.0,0.0,-0.7807052731513977,0.19719097018241882,-0.10378141701221466,0.0,0.0,0.0,0.14627088606357574,0.3290499448776245,0.6774247288703918,0.44216465950012207,0.5529094934463501,-0.10633528977632523,-0.02048480324447155,-0.8261744379997253,1.3655060529708862,-2.361978054046631,-0.9610899090766907,2.135120391845703,8.232301712036133,3.1521387100219727,0.3271624445915222,0.6865423321723938,0.4474719166755676,1.4690132141113281,-2.018073797225952,-1.0724453926086426,0.35589155554771423,0.6234527230262756,0.42000001668930054,-0.26695990562438965,0.4877486526966095,-1.1721662282943726,-3.0000009536743164,-0.2161395251750946,-0.21573106944561005,-0.20471572875976562,-0.18240323662757874,0.4690195322036743,0.45126643776893616,0.1834784895181656,-0.08209063112735748
0.5833333333333334,-0.06650455296039581,0.0055549959652125835,0.0,0.6089160442352295,0.0,0.0,-0.793234646320343,0.32870393991470337,-0.41072413325309753,0.0,0.0,0.0,-3.273024559020996,0.3496859073638916,0.6503894925117493,0.4235583543777466,0.550331175327301,-0.06031961739063263,0.021977420896291733,-0.8324747085571289,0.7413825392723083,-1.361342191696167,-0.39004379510879517,17.06968879699707,-12.988408088684082,3.5527477264404297,0.3469873368740082,0.6579231023788452,0.4262081980705261,0.4850962162017822,-1.3127094507217407,-0.7903192043304443,0.35589155554771423,0.6234527230262756,0.42000001668930054,-0.2579100728034973,0.5818679332733154,-1.13436758518219,2.998818874359131,-0.20360468327999115,-0.20465552806854248,-0.19885583221912384,-0.1820002943277359,0.6699163913726807,0.5956666469573975,0.3158927261829376,0.001511122565716505
0.6,-0.059058770537376404,0.003459783736616373,0.0,0.6066421270370483,0.0,0.0,-0.7949750423431396,0.4805735945701599,-0.10213455557823181,0.0,0.0,0.0,0.5335581302642822,0.35666078329086304,0.6381540894508362,0.42191600799560547,0.5552240014076233,-0.024075575172901154,0.04183891415596008,-0.8302987813949585,0.15837183594703674,-1.415587306022644,0.05392998456954956,0.21802745759487152,2.539036512374878,15.815289497375488,0.3536049723625183,0.6433918476104736,0.42827630043029785,0.23824839293956757,-0.5280576348304749,0.41393667459487915,0.35589155554771423,0.6234527230262756,0.42000001668930054,-0.24636487662792206,0.04946509003639221,-1.1556555032730103,-3.000007390975952,-0.19533246755599976,-0.19735008478164673,-0.19550123810768127,-0.18338239192962646,0.5247909426689148,0.4447855055332184,0.20967666804790497,-0.08162613958120346
0.6166666666666667,-0.054287832230329514,-0.0023233271203935146,0.0,0.5929193496704102,0.0,0.0,-0.8052618503570557,0.27727562189102173,-0.4625340700149536,0.0,0.0,0.0,-2.8755574226379395,0.3615378439426422,0.6311195492744446,0.4217406213283539,0.5852478742599487,-0.026766866445541382,0.03701673075556755,-0.8095666170120239,0.20679190754890442,-0.3904225528240204,-0.046919193118810654,-0.9458078742027283,-2.5325441360473633,4.013812065124512,0.3572748303413391,0.6356964707374573,0.4269121587276459,0.12338851392269135,-0.4390721619129181,-0.3868430256843567,0.35589155554771423,0.6234527230262756,0.42000001668930054,-0.24845601618289948,-0.20879803597927094,-1.1178829669952393,2.999979257583618,-0.183183953166008,-0.18710766732692719,-0.18939749896526337,-0.18249355256557465,0.6317116022109985,0.5454239845275879,0.34045326709747314,0.05880054458975792
0.6333333333333333,-0.04790939390659332,-0.004333276301622391,0.0,0.5930376648902893,0.0,0.0,-0.805174708366394,0.390616774559021,-0.09510883688926697,0.0,0.0,0.0,0.8558951020240784,0.36140888929367065,0.6265082359313965,0.42065390944480896,0.5982796549797058,-0.010230354964733124,0.012731782160699368,-0.8011208176612854,0.0126107856631279,-0.22529955208301544,-0.08407919853925705,-1.4652379751205444,-4.250552654266357,3.5619544982910156,0.3577776253223419,0.6320693492889404,0.4261767268180847,0.07507466524839401,-0.019762787967920303,0.06833484768867493,0.35589155554771423,0.6234527230262756,0.42000001668930054,-0.25927138328552246,-1.0192612409591675,-1.1400251388549805,-2.999138116836548,-0.17745716869831085,-0.18203164637088776,-0.18662583827972412,-0.18340599536895752,0.39689901471138,0.3363725543022156,0.19721448421478271,-0.023697184398770332
0.65,-0.04016726091504097,-0.006926477886736393,0.0,0.5824365019798279,0.0,0.0,-0.8128761649131775,0.5117896199226379,-0.1438741683959961,0.0,0.0,0.0,-2.7271411418914795,0.36265644431114197,0.6264891624450684,0.4200168550014496,0.6253224611282349,2.132827285095118e-05,-1.451165462640347e-05,-0.7803663611412048,-0.016106359660625458,-0.1459687352180481,-0.0007162299007177353,-0.033288490027189255,0.036471445113420486,0.6272304654121399,0.3582751750946045,0.6326683163642883,0.42656412720680237,-0.06302790343761444,0.08497412502765656,-0.02456156350672245,0.35589155554771423,0.6234527230262756,0.42000001668930054,-0.303697794675827,-3.0000009536743164,-1.1391545534133911,2.6057069301605225,-0.16826719045639038,-0.17444418370723724,-0.18160474300384521,-0.18223223090171814,0.48067507147789,0.4048733413219452,0.28475722670555115,0.08673426508903503
0.6666666666666666,-0.030370047315955162,-0.006191650405526161,0.0,0.5837953686714172,0.0,0.0,-0.8119008541107178,0.6222166419029236,0.111989825963974,0.0,0.0,0.0,1.112966537475586,0.3624981641769409,0.6250616908073425,0.4200000464916229,0.6272677183151245,-7.247584790093242e-07,-9.491658374827239e-07,-0.7788036465644836,-0.007337434217333794,-0.0645180493593216,-3.606104291975498e-05,0.002507105702534318,0.0001003155775833875,0.1931983232498169,0.35697290301322937,0.6356329917907715,0.4285160005092621,-0.12120601534843445,0.2586102783679962,0.1673600971698761,0.35589155554771423,0.6234527230262756,0.42000001668930054,-0.35368672013282776,-2.999985456466675,-1.1647520065307617,-2.9999349117279053,-0.16217546164989471,-0.169478639960289,-0.17822642624378204,-0.18165463209152222,0.3024069368839264,0.24449217319488525,0.1700945794582367,0.025271093472838402
0.6833333333333333,-0.023657212033867836,-0.009613482281565666,0.0,0.6086411476135254,0.0,0.0,-0.7934455871582031,0.3328065276145935,-0.2485274374485016,0.0,0.0,0.0,4.336906909942627,0.36247462034225464,0.6248460412025452,0.42000019550323486,0.6274541616439819,8.601492481830064e-06,2.259834946016781e-05,-0.7786534428596497,0.00020571777713485062,0.0016003877390176058,-0.0005942115094512701,-0.011051301844418049,0.01790546253323555,-0.0015953313559293747,0.35552388429641724,0.6397122740745544,0.4321526288986206,-0.1501164436340332,0.15463665127754211,0.28173819184303284,0.35589155554771423,0.6234527230262756,0.42000001668930054,-0.40369436144828796,-3.0000081062316895,-1.2147481441497803,-2.9998300075531006,-0.15594112873077393,-0.16355127096176147,-0.17262479662895203,-0.17740893363952637,0.2065727859735489,0.2574869990348816,0.3179703950881958,0.3214118778705597
0.7,-0.016434574499726295,-0.015806112438440323,0.0,0.6168257594108582,0.0,0.0,-0.7870997190475464,0.47088178992271423,-0.4063020944595337,0.0,0.0,0.0,0.21650026738643646,0.3608536124229431,0.6253402233123779,0.42000266909599304,0.6187625527381897,7.180746615631506e-05,-0.00018648752302397043,-0.7855780124664307,0.015153015963733196,-0.010256331413984299,-0.007086587138473988,0.19060975313186646,0.34138718247413635,-0.03382531926035881,0.3564639985561371,0.6417526006698608,0.4373694658279419,0.195522278547287,0.08181573450565338,0.3634544312953949,0.35589155554771423,0.6234527230262756,0.42000001668930054,-0.45370396971702576,-3.0000009536743164,-1.2647637128829956,-2.9999990463256836,-0.15445426106452942,-0.16065678000450134,-0.16800600290298462,-0.1719023883342743,0.04567626491189003,0.1486736536026001,0.2772919535636902,0.36136460304260254
0.7166666666666667,-0.007138348184525967,-0.024421995505690575,0.0,0.6016091704368591,0.0,0.0,-0.7987905740737915,0.5946409106254578,-0.572133481502533,0.0,0.0,0.0,-3.209493398666382,0.36086025834083557,0.6253364086151123,0.42000001668930054,0.6187627911567688,-6.381662842613878e-07,-3.2418229238828644e-06,-0.7855777740478516,5.8243065723218024e-05,-0.00014025199925526977,-2.6988796889781952e-05,0.0002662036567926407,-0.003445046953856945,-0.0004190372710581869,0.3643002212047577,0.6427855491638184,0.450195848941803,0.734455406665802,0.04272457957267761,1.2753636837005615,0.35589155554771423,0.6234527230262756,0.42000001668930054,-0.5037165284156799,-2.9999802112579346,-1.3147820234298706,-2.9999985694885254,-0.1560567021369934,-0.16030815243721008,-0.16521702706813812,-0.1673397421836853,-0.15984505414962769,-0.03606697916984558,0.11937707662582397,0.23880867660045624
0.7333333333333333,0.007027709390968084,-0.02723943255841732,0.0,0.5621675252914429,0.0,0.0,-0.8270233869552612,0.9416327476501465,-0.03849726542830467,0.0,0.0,0.0,-6.923436164855957,0.360860139131546,0.6253365278244019,0.41999995708465576,0.618762731552124,-8.822090649118763e-07,-6.028426014381694e-06,-0.7855778336524963,0.00018075098341796547,-0.000411266868468374,-8.56530386954546e-05,0.009457376785576344,-0.0018458644626662135,-0.000697571667842567,0.38463491201400757,0.6350857019424438,0.47651976346969604,1.8181500434875488,-0.8662600517272949,2.0166015625,0.35589155554771423,0.6234527230262756,0.42000001668930054,-0.5537288784980774,-2.999722480773926,-1.3648003339767456,-2.999966621398926,-0.1673540472984314,-0.16790041327476501,-0.16864706575870514,-0.16726653277873993,-0.8371901512145996,-0.5813150405883789,-0.29888758063316345,-0.05430207401514053
0.75,0.01673123426735401,-0.027669688686728477,0.0,0.5374124646186829,0.0,0.0,-0.8433195352554321,0.4591643810272217,-0.14370261132717133,0.0,0.0,0.0,-2.2811782360076904,0.360860139131546,0.6253365278244019,0.41999995708465576,0.6187628507614136,-7.853182069084141e-07,-5.469366897159489e-06,-0.7855777740478516,0.0001784796331776306,-0.00040894592530094087,-8.55571124702692e-05,0.009382927790284157,-0.0018294298788532615,-0.0006897083949297667,0.4116028845310211,0.6270221471786499,0.5106099843978882,1.4370625019073486,-0.24533149600028992,2.0193097591400146,0.35589155554771423,0.6234527230262756,0.42000001668930054,-0.5744351744651794,0.24310454726219177,-1.4148186445236206,-3.0000007152557373,-0.17461475729942322,-0.17265953123569489,-0.17043370008468628,-0.16657400131225586,-0.08240208029747009,-0.030903732404112816,0.05031416937708855,0.10973621159791946
0.7666666666666666,0.02091134339570999,-0.027879495173692703,0.0,0.5410280823707581,0.0,0.0,-0.8410045504570007,0.21716348826885223,0.09478621929883957,0.0,0.0,0.0,1.3102818727493286,0.360860139131546,0.6253365278244019,0.41999995708465576,0.618762731552124,-7.559060009043606e-07,-5.447353032650426e-06,-0.7855779528617859,0.00017658629803918302,-0.0004083026433363557,-8.546817116439342e-05,0.00936226174235344,-0.0018352611223235726,-0.0006845806492492557,0.4327978491783142,0.6263564825057983,0.5389235019683838,0.9478243589401245,0.021786831319332123,1.4141972064971924,0.35589155554771423,0.6234527230262756,0.42000001668930054,-0.5493612885475159,2.5445399284362793,-1.3999470472335815,2.999999761581421,-0.17468535900115967,-0.17208556830883026,-0.16878369450569153,-0.16419239342212677,-0.06634645909070969,-0.01268671452999115,0.059929490089416504,0.10918056964874268
0.7833333333333333,0.02224626950919628,-0.030763477087020874,0.0,0.5577467083930969,0.0,0.0,-0.8300111889839172,0.030283939093351364,-0.3256993591785431,0.0,0.0,0.0,3.013561964035034,0.360860139131546,0.6253365278244019,0.41999995708465576,0.6187629103660583,-9.234299227500742e-07,-5.959023383184103e-06,-0.7855777144432068,0.00018023897428065538,-0.000410913722589612,-8.572149090468884e-05,0.00944020226597786,-0.0018343086121603847,-0.0006953509873710573,0.44091174006462097,0.6285133361816406,0.5580873489379883,0.018031783401966095,0.2206505388021469,0.9709234833717346,0.35589155554771423,0.6234527230262756,0.42000001668930054,-0.5002220273017883,2.9999961853027344,-1.3499325513839722,2.9999990463256836,-0.1736065149307251,-0.17033377289772034,-0.16612912714481354,-0.16102007031440735,0.1811324506998062,0.2052619457244873,0.2384277582168579,0.24902449548244476
0.8,0.021185070276260376,-0.030172545462846756,0.0,0.5585352182388306,0.0,0.0,-0.8294808268547058,-0.10716207325458527,0.16767708957195282,0.0,0.0,0.0,-0.8838995695114136,0.360860139131546,0.6253365278244019,0.41999995708465576,0.6187628507614136,-9.54908045969205e-07,-5.788100224890513e-06,-0.7855777144432068,0.00017949855828192085,-0.0004110873269382864,-8.574128150939941e-05,0.00944285374134779,-0.0018400815315544605,-0.0006935225101187825,0.43575868010520935,0.6310422420501709,0.5709152221679688,-0.5458446741104126,0.1389351785182953,0.7158368825912476,0.35589155554771423,0.6234527230262756,0.42000001668930054,-0.46053794026374817,1.831709384918213,-1.2998799085617065,2.9999990463256836,-0.17563286423683167,-0.1711215078830719,-0.16559022665023804,-0.15953360497951508,-0.17245209217071533,-0.09242021292448044,-0.007928918115794659,0.057173095643520355
0.8166666666666667,0.017896944656968117,-0.03180382773280144,0.0,0.5696554183959961,0.0,0.0,-0.8218836188316345,-0.24791954457759857,-0.11155501753091812,0.0,0.0,0.0,2.305631399154663,0.360860139131546,0.6253365278244019,0.41999995708465576,0.6187628507614136,-9.803542297959211e-07,-5.8010527936858125e-06,-0.7855778336524963,0.00017961730191018432,-0.0004111309826839715,-8.575106039643288e-05,0.009444179013371468,-0.001840338110923767,-0.0006938847946003079,0.4262312650680542,0.6331989765167236,0.5829727053642273,-0.7072728872299194,0.12646517157554626,0.7536505460739136,0.35589155554771423,0.6234527230262756,0.42000001668930054,-0.44397222995758057,0.27413326501846313,-1.3197697401046753,-3.0,-0.1768248826265335,-0.17106258869171143,-0.16420120000839233,-0.15706287324428558,-0.10469464212656021,-0.02151947095990181,0.0657709538936615,0.14098332822322845
0.8333333333333334,0.017096614465117455,-0.02827921323478222,0.0,0.5673307776451111,0.0,0.0,-0.8234900236129761,-0.023348383605480194,0.15060631930828094,0.0,0.0,0.0,-0.7332114577293396,0.360860139131546,0.6253365278244019,0.41999995708465576,0.6187627911567688,-9.742443580762483e-07,-5.816434168082196e-06,-0.7855778336524963,0.00017962399579118937,-0.00041113633778877556,-8.575012907385826e-05,0.009444302879273891,-0.0018403934082016349,-0.0006939086597412825,0.4147365689277649,0.6336262822151184,0.5886139869689941,-0.446283221244812,0.11152099072933197,0.15307122468948364,0.35589155554771423,0.6234527230262756,0.42000001668930054,-0.44575339555740356,-0.4215095639228821,-1.2815502882003784,2.999999761581421,-0.181367889046669,-0.17393019795417786,-0.16530121862888336,-0.15652641654014587,0.07759162783622742,0.09237007796764374,0.12510192394256592,0.16644516587257385
0.85,0.0183985885232687,-0.03039274364709854,0.0,0.5801762342453003,0.0,0.0,-0.8144909739494324,0.11560363322496414,-0.143531933426857,0.0,0.0,0.0,2.652897357940674,0.360860139131546,0.6253365278244019,0.41999995708465576,0.6187629103660583,-9.171559440801502e-07,-5.9999451877956744e-06,-0.7855777740478516,0.00018119884771294892,-0.000411457906011492,-8.579413406550884e-05,0.009456600062549114,-0.0018342089606449008,-0.0006981751066632569,0.40906184911727905,0.6357523202896118,0.5947263240814209,-0.3401833176612854,0.07335719466209412,0.5665186643600464,0.35589155554771423,0.6234527230262756,0.42000001668930054,-0.4776582717895508,-3.0000007152557373,-1.3017505407333374,-3.0,-0.1764811873435974,-0.16947336494922638,-0.16098621487617493,-0.1521543711423874,0.24255569279193878,0.22424498200416565,0.2185039520263672,0.22260990738868713
0.8666666666666667,0.021702943369746208,-0.03476053103804588,0.0,0.5789305567741394,0.0,0.0,-0.815376877784729,0.2608984708786011,-0.2900453209877014,0.0,0.0,0.0,-1.0878337621688843,0.360860139131546,0.6253365278244019,0.41999995708465576,0.6187628507614136,-8.282932526526565e-07,-5.815780696138972e-06,-0.7855777740478516,0.00017691176617518067,-0.00040863556205295026,-8.551753126084805e-05,0.009371036663651466,-0.0018356508808210492,-0.0006854635430499911,0.40767496824264526,0.6345292329788208,0.5955626964569092,0.1345655471086502,-0.2583713233470917,-0.24408653378486633,0.35589155554771423,0.6234527230262756,0.42000001668930054,-0.5233221054077148,-2.4862515926361084,-1.3382563591003418,-1.4829691648483276,-0.17298978567123413,-0.16577598452568054,-0.1568506509065628,-0.14737311005592346,0.1455841064453125,0.1977004110813141,0.2622808814048767,0.338817834854126
0.8833333333333333,0.028602728620171547,-0.03619552031159401,0.0,0.5549936890602112,0.0,0.0,-0.8318545818328857,0.4418410658836365,-0.026374030858278275,0.0,0.0,0.0,-4.181046962738037,0.360860139131546,0.6253365278244019,0.41999995708465576,0.6187627911567688,-9.709020787340705e-07,-5.8213995544065256e-06,-0.7855778336524963,0.00017970125190913677,-0.0004111423040740192,-8.574733510613441e-05,0.00944478064775467,-0.0018399243708699942,-0.0006940983003005385,0.41340750455856323,0.6264892220497131,0.5920392274856567,0.6114585995674133,-0.5750223994255066,0.005842067301273346,0.35589155554771423,0.6234527230262756,0.42000001668930054,-0.5552743673324585,-1.4137994050979614,-1.3863469362258911,-3.0,-0.17245514690876007,-0.16464079916477203,-0.15497146546840668,-0.14458228647708893,0.14996172487735748,0.13229554891586304,0.12388741970062256,0.12851296365261078
0.9,0.03747548162937164,-0.03393753245472908,0.0,0.547570526599884,0.0,0.0,-0.8367595672607422,0.5663829445838928,0.19794830679893494,0.0,0.0,0.0,-0.09827873110771179,0.360860139131546,0.6253365278244019,0.41999995708465576,0.6187629103660583,-9.140910037785943e-07,-6.001634119456867e-06,-0.7855777740478516,0.0001811161491787061,-0.0004114715557079762,-8.579506538808346e-05,0.009456614032387733,-0.0018343677511438727,-0.0006979473982937634,0.4223969578742981,0.6209622025489807,0.594175398349762,0.4518359899520874,-0.18483510613441467,0.20486858487129211,0.35589155554771423,0.6234527230262756,0.42000001668930054,-0.5539423227310181,1.334717035293579,-1.3607773780822754,3.0,-0.16872185468673706,-0.16187836229801178,-0.15307769179344177,-0.14336222410202026,0.295136958360672,0.20480602979660034,0.11598390340805054,0.03613952919840813
0.9166666666666666,0.04210951551795006,-0.03701400384306908,0.0,0.5665109157562256,0.0,0.0,-0.8240542411804199,0.2934093177318573,-0.249578595161438,0.0,0.0,0.0,3.378528594970703,0.360860139131546,0.6253365278244019,0.41999995708465576,0.6187628507614136,-8.250660812336719e-07,-5.8174464356852695e-06,-0.7855777740478516,0.00017691102402750403,-0.00040863396134227514,-8.551753126084805e-05,0.009370951913297176,-0.0018357272492721677,-0.0006854651728644967,0.42898693680763245,0.6228955984115601,0.5998092889785767,0.31031784415245056,0.16553622484207153,0.35873061418533325,0.35589155554771423,0.6234527230262756,0.42000001668930054,-0.5373067259788513,0.7065693736076355,-1.3107247352600098,3.0,-0.15680980682373047,-0.15260033309459686,-0.14645081758499146,-0.13923680782318115,0.5786910653114319,0.44201916456222534,0.2970016598701477,0.15403330326080322
