vladlanda/robotic-transformer/data/env_000_episode_0048.csv
sim_time_s,robot_box_x,robot_box_y,robot_box_z,robot_box_quat_w,robot_box_quat_x,robot_box_quat_y,robot_box_quat_z,robot_box_linvel_x,robot_box_linvel_y,robot_box_linvel_z,robot_box_angvel_x,robot_box_angvel_y,robot_box_angvel_z,cube_world_x,cube_world_y,cube_world_z,cube_quat_w,cube_quat_x,cube_quat_y,cube_quat_z,cube_linvel_x,cube_linvel_y,cube_linvel_z,cube_angvel_x,cube_angvel_y,cube_angvel_z,endpoint_world_x,endpoint_world_y,endpoint_world_z,endpoint_linvel_x,endpoint_linvel_y,endpoint_linvel_z,target_cube_world_x,target_cube_world_y,target_cube_world_z,gripper_actual_pos_rad_gp_leftgearjoint,gripper_actual_vel_rad_s_gp_leftgearjoint,gripper_actual_pos_rad_gp_rotatingjoint,gripper_actual_vel_rad_s_gp_rotatingjoint,motor_angle_rad_joint1,motor_angle_rad_joint2,motor_angle_rad_joint3,motor_angle_rad_joint4,motor_speed_rad_s_joint1,motor_speed_rad_s_joint2,motor_speed_rad_s_joint3,motor_speed_rad_s_joint4
0.0,0.0,0.0,0.0,1.0,0.0,0.0,0.0,0.0,0.0,0.0,0.0,0.0,0.0,-0.32695716619491577,0.7623347043991089,0.41999998688697815,1.0,0.0,0.0,0.0,0.0,0.0,0.0,0.0,0.0,0.0,3.42540442943573e-06,-0.005000244826078415,1.313499927520752,0.0,0.0,0.0,0.34041768312454224,0.7457162737846375,0.42000001668930054,-1.5707999467849731,0.0,0.0,0.0,0.0,0.0,0.0,0.0,0.0,0.0,0.0,0.0
0.016666666666666666,0.0028684015851467848,0.0021579780150204897,0.0,0.999822199344635,0.0,0.0,-0.018857190385460854,0.23908144235610962,0.1801968216896057,0.0,0.0,0.0,-3.146024465560913,-0.3269572854042053,0.762334406375885,0.41999998688697815,1.0,3.2799905511637917e-06,-8.339794135281409e-07,8.465515577427141e-08,-1.9833774786093272e-05,0.00017983047291636467,-6.132945418357849e-05,0.0009432245860807598,-0.004689525347203016,-0.00031981084612198174,-0.006980106234550476,0.004104087594896555,1.3159258365631104,-0.7934237718582153,1.0450429916381836,0.17918531596660614,0.34041768312454224,0.7457162737846375,0.42000001668930054,-1.5301092863082886,3.0000009536743164,-0.04587102308869362,-3.0000014305114746,0.0008641445892862976,0.0007908207480795681,0.0007054368034005165,0.0006058115395717323,0.11032553017139435,0.0968930795788765,0.08259762823581696,0.06740409135818481
0.03333333333333333,0.008867526426911354,0.0067556374706327915,0.0,0.9998044967651367,0.0,0.0,-0.01977396011352539,0.4025575816631317,0.3143521249294281,0.0,0.0,0.0,0.8697862029075623,-0.3269574046134949,0.7623343467712402,0.4200000464916229,1.0,3.390828396732104e-06,-2.1325054149201605e-06,-3.7090654103622e-08,0.00026357785100117326,0.00026937801158055663,-0.00010509602725505829,-0.0017707275692373514,0.004130777902901173,-0.0001354761334368959,-0.024298222735524178,0.02599857747554779,1.317030906677246,-1.233795404434204,1.604569435119629,-0.024513445794582367,0.34041768312454224,0.7457162737846375,0.42000001668930054,-1.4800899028778076,2.999999523162842,-0.09591080248355865,-3.0000009536743164,0.0026935108471661806,0.002270293887704611,0.0018099982989951968,0.0013089337153360248,0.13176290690898895,0.09883558005094528,0.06440528482198715,0.028400614857673645
0.05,0.017515605315566063,0.013561717234551907,0.0,0.9993943572044373,0.0,0.0,-0.03479798510670662,0.5812438130378723,0.4509148597717285,0.0,0.0,0.0,-2.634568691253662,-0.32695743441581726,0.762334406375885,0.4200000464916229,1.0,3.7651443562936038e-06,-2.2119581899460172e-06,5.627543320230188e-09,0.0002653093251865357,0.00026691475068219006,-0.00010440428741276264,-0.0017243032343685627,0.004177392926067114,-0.00012949187657795846,-0.04520191252231598,0.058185651898384094,1.3142640590667725,-1.2676092386245728,2.2108418941497803,-0.2856595516204834,0.34041768312454224,0.7457162737846375,0.42000001668930054,-1.4300715923309326,3.0000016689300537,-0.14593937993049622,-3.0000007152557373,0.00432739220559597,0.003173486329615116,0.0019484447548165917,0.0006471009110100567,0.0958079844713211,0.03754455968737602,-0.022596223279833794,-0.08464933931827545
0.06666666666666667,0.02968521974980831,0.022846726700663567,0.0,0.9970586895942688,0.0,0.0,-0.07664153724908829,0.7899959087371826,0.6019636392593384,0.0,0.0,0.0,-5.857659339904785,-0.32695743441581726,0.7623343467712402,0.4200000464916229,0.9999999403953552,3.406812083994737e-06,-2.285643404320581e-06,4.300833325032727e-07,0.00026702528703026474,0.00026791769778355956,-0.0001043803058564663,-0.001740696607157588,0.004211715888231993,-0.00012850147322751582,-0.06741762906312943,0.09794466942548752,1.3078463077545166,-1.3876612186431885,2.5350136756896973,-0.4874178469181061,0.34041768312454224,0.7457162737846375,0.42000001668930054,-1.3800511360168457,2.99999737739563,-0.11243445426225662,3.000000476837158,0.005418448243290186,0.003273414447903633,0.0010176404612138867,-0.0013525555841624737,0.05427367985248566,-0.009714318439364433,-0.07573144137859344,-0.14378949999809265
0.08333333333333333,0.036027729511260986,0.0368589349091053,0.0,0.9948543906211853,0.0,0.0,-0.10131525993347168,0.28962117433547974,0.9052168130874634,0.0,0.0,0.0,-1.8802680969238281,-0.32695743441581726,0.7623343467712402,0.4200000464916229,1.0,3.697316969919484e-06,-2.1889948129683034e-06,-2.6323385782234254e-07,0.00026389682898297906,0.00026586538297124207,-0.00010433932766318321,-0.0017081978730857372,0.004150201100856066,-0.0001299120340263471,-0.09419425576925278,0.13729913532733917,1.2972924709320068,-1.6186258792877197,2.409437656402588,-0.6742846965789795,0.34041768312454224,0.7457162737846375,0.42000001668930054,-1.3300561904907227,2.999997615814209,-0.14442625641822815,-2.9999983310699463,0.00016474637959618121,-0.002611822448670864,-0.00555151654407382,-0.008661762811243534,-0.3472892642021179,-0.3961549997329712,-0.4470140337944031,-0.5001006722450256
0.1,0.04702217876911163,0.051227834075689316,0.0,0.9905745387077332,0.0,0.0,-0.13697491586208344,0.7308560609817505,0.8946380615234375,0.0,0.0,0.0,-5.157349586486816,-0.32695743441581726,0.7623343467712402,0.4200000464916229,0.9999999403953552,3.620435109041864e-06,-2.265243438159814e-06,1.746006148550805e-07,0.0002667687658686191,0.000267408526269719,-0.0001040794886648655,-0.001738605904392898,0.004209095146507025,-0.00012774739298038185,-0.11715175211429596,0.18034996092319489,1.2875025272369385,-1.1410093307495117,2.8623600006103516,-0.6134326457977295,0.34041768312454224,0.7457162737846375,0.42000001668930054,-1.280045509338379,3.0000007152557373,-0.19443489611148834,-3.0000007152557373,-0.0007957179914228618,-0.005275323987007141,-0.0099029541015625,-0.014685353264212608,-0.10920748859643936,-0.2168784886598587,-0.32342612743377686,-0.4287686049938202
0.11666666666666667,0.05613057687878609,0.06346622109413147,0.0,0.9870423674583435,0.0,0.0,-0.1604599803686142,0.5098157525062561,0.6843579411506653,0.0,0.0,0.0,-1.6004990339279175,-0.32695743441581726,0.7623343467712402,0.4200000464916229,1.0,3.7984009395586327e-06,-2.262809857711545e-06,-1.502175450696086e-07,0.00026373984292149544,0.00026566023007035255,-0.00010429113171994686,-0.0017054638592526317,0.00414752634242177,-0.00012979596795048565,-0.14202693104743958,0.22853007912635803,1.273952603340149,-1.6580743789672852,3.0719335079193115,-0.946157693862915,0.34041768312454224,0.7457162737846375,0.42000001668930054,-1.2380547523498535,2.0836942195892334,-0.16064777970314026,2.999999523162842,-0.0036419762764126062,-0.009713585488498211,-0.01590116135776043,-0.022210419178009033,-0.16643528640270233,-0.2564835250377655,-0.34379875659942627,-0.4282771646976471
0.13333333333333333,0.06213230639696121,0.07409728318452835,0.0,0.9811083078384399,0.0,0.0,-0.1934591829776764,0.30586281418800354,0.6094199419021606,0.0,0.0,0.0,-4.835596084594727,-0.32695743441581726,0.762334406375885,0.4200000464916229,0.9999999403953552,3.550559767973027e-06,-2.2298067960946355e-06,2.928912579136522e-07,0.00026703201001510024,0.0002677933662198484,-0.00010416889563202858,-0.0017439561197534204,0.004213458392769098,-0.00012800224067177624,-0.1668665111064911,0.28446316719055176,1.2563161849975586,-1.315927267074585,3.656569242477417,-1.2004196643829346,0.34041768312454224,0.7457162737846375,0.42000001668930054,-1.1904853582382202,3.0000040531158447,-0.1923874020576477,-3.000000238418579,-0.007011215668171644,-0.014658581465482712,-0.0223589725792408,-0.0301161278039217,-0.2505347430706024,-0.3402467966079712,-0.4259805381298065,-0.5076395273208618
0.15,0.06971781700849533,0.08605054020881653,0.0,0.9674586653709412,0.0,0.0,-0.25302910804748535,0.5155483484268188,0.769102156162262,0.0,0.0,0.0,-8.164305686950684,-0.3269574046134949,0.7623343467712402,0.4200000464916229,1.0,3.332266942379647e-06,-2.1019711766712135e-06,1.3129518094956438e-07,0.0002673064882401377,0.000268595467787236,-0.00010459520854055882,-0.0017497397493571043,0.004215703811496496,-0.00012928548676427454,-0.192140132188797,0.3489300012588501,1.2302371263504028,-1.5485928058624268,4.115987300872803,-1.9083044528961182,0.34041768312454224,0.7457162737846375,0.42000001668930054,-1.1581814289093018,1.0194439888000488,-0.158643439412117,3.0000009536743164,-0.012553088366985321,-0.021237116307020187,-0.02992084063589573,-0.03860793635249138,-0.43445461988449097,-0.46668651700019836,-0.4967539310455322,-0.5247525572776794
0.16666666666666666,0.07603643089532852,0.09623841941356659,0.0,0.9564894437789917,0.0,0.0,-0.29176685214042664,0.32548847794532776,0.5366520285606384,0.0,0.0,0.0,-3.7250478267669678,-0.32695743441581726,0.7623343467712402,0.4200000464916229,1.0,3.737350198207423e-06,-2.2331155378196854e-06,-1.8765908293971734e-07,0.00026433056336827576,0.0002662677434273064,-0.00010445946827530861,-0.0017118776449933648,0.004157696384936571,-0.00013001573097426444,-0.22420001029968262,0.41660308837890625,1.192219614982605,-1.758986234664917,4.352118492126465,-2.6622471809387207,0.34041768312454224,0.7457162737846375,0.42000001668930054,-1.1140114068984985,3.0000038146972656,-0.19034768640995026,-3.000000476837158,-0.021128542721271515,-0.030015714466571808,-0.03886884078383446,-0.04769594594836235,-0.5658477544784546,-0.5631234645843506,-0.558826208114624,-0.5533142685890198
0.18333333333333332,0.07840357720851898,0.10730869323015213,0.0,0.9405857920646667,0.0,0.0,-0.33955612778663635,0.06871351599693298,0.7159339189529419,0.0,0.0,0.0,-6.867184638977051,-0.32695743441581726,0.762334406375885,0.4200000464916229,0.9999999403953552,3.660316451714607e-06,-2.302264874742832e-06,2.528443587834772e-07,0.00026690890081226826,0.00026760261971503496,-0.00010412419214844704,-0.0017412195447832346,0.004211427178233862,-0.0001278665877180174,-0.25325077772140503,0.490682989358902,1.1412768363952637,-1.45969820022583,4.663597106933594,-3.4399971961975098,0.34041768312454224,0.7457162737846375,0.42000001668930054,-1.064008355140686,3.0,-0.24037794768810272,-2.9999990463256836,-0.03231826052069664,-0.04102036729454994,-0.04965260997414589,-0.05823074281215668,-0.7257100343704224,-0.7057527303695679,-0.6837978363037109,-0.6603379249572754
0.2,0.08383738249540329,0.11870703846216202,0.0,0.9292340278625488,0.0,0.0,-0.3694917857646942,0.31542375683784485,0.736567497253418,0.0,0.0,0.0,-2.7810935974121094,-0.32695743441581726,0.7623343467712402,0.4200000464916229,1.0,3.5908831250708317e-06,-2.3004236027190927e-06,1.387233226068929e-07,0.00026654807152226567,0.0002673218259587884,-0.00010424060747027397,-0.0017326583620160818,0.004203581251204014,-0.00012820535630453378,-0.2799666225910187,0.5651417970657349,1.074765682220459,-1.3263075351715088,4.484311103820801,-4.516043663024902,0.34041768312454224,0.7457162737846375,0.42000001668930054,-1.0140053033828735,3.000000476837158,-0.29040631651878357,-3.0,-0.043397288769483566,-0.05148133262991905,-0.05948217213153839,-0.06742753833532333,-0.8175325393676758,-0.7460814714431763,-0.6760991811752319,-0.6084984540939331
0.21666666666666667,0.08613817393779755,0.12809066474437714,0.0,0.9163213968276978,0.0,0.0,-0.40044358372688293,0.09327352046966553,0.4865901470184326,0.0,0.0,0.0,-4.569813251495361,-0.32695743441581726,0.762334406375885,0.4200000464916229,1.0,3.6070191526960116e-06,-2.2609888219449203e-06,1.9611301027566697e-08,0.00026447110576555133,0.0002655844727996737,-0.00010396447032690048,-0.0017087687738239765,0.004164246376603842,-0.00012832168431486934,-0.3010798692703247,0.6355214715003967,0.9905811548233032,-0.9250569343566895,4.108867645263672,-5.504737377166748,0.34041768312454224,0.7457162737846375,0.42000001668930054,-0.9639955163002014,2.999999523162842,-0.34043318033218384,-2.9999992847442627,-0.05908270180225372,-0.06610830873250961,-0.07244187593460083,-0.07880354672670364,-0.9601404070854187,-0.9151985049247742,-0.8080227375030518,-0.7062647342681885
0.23333333333333334,0.08982633054256439,0.1380648910999298,0.0,0.9111204743385315,0.0,0.0,-0.4121401906013489,0.2657049000263214,0.6229719519615173,0.0,0.0,0.0,-0.5245459675788879,-0.3269574046134949,0.7623343467712402,0.4200000464916229,0.9999999403953552,3.7423060348373838e-06,-2.227485765615711e-06,4.589078628214338e-07,0.00026475157937966287,0.0002667118387762457,-0.00010453304275870323,-0.001718820189125836,0.004165745340287685,-0.00013018945173826069,-0.3193785548210144,0.692775547504425,0.8926745057106018,-0.9125863313674927,2.98598051071167,-6.186383247375488,0.34041768312454224,0.7457162737846375,0.42000001668930054,-0.9139866232872009,3.000000238418579,-0.39046210050582886,-3.0000007152557373,-0.07490413635969162,-0.0818556398153305,-0.08779054135084152,-0.09216180443763733,-0.9562282562255859,-0.9382036328315735,-0.9336760640144348,-0.8271443247795105
0.25,0.09160161763429642,0.14609237015247345,0.0,0.9001520276069641,0.0,0.0,-0.43557584285736084,0.040897853672504425,0.3786621391773224,0.0,0.0,0.0,-3.9599921703338623,-0.32695743441581726,0.7623343467712402,0.4200000464916229,1.0,3.3945277664315654e-06,-2.2820947833679384e-06,1.3361305661874212e-07,0.0002667930966708809,0.0002679400204215199,-0.00010439474135637283,-0.0017418584320694208,0.004206620156764984,-0.0001288379862671718,-0.33137047290802,0.7364850044250488,0.7829512357711792,-0.46728599071502686,2.124739408493042,-6.827698707580566,0.34041768312454224,0.7457162737846375,0.42000001668930054,-0.8639766573905945,2.9999985694885254,-0.4404931366443634,-3.0,-0.09133174270391464,-0.09822622686624527,-0.1040719524025917,-0.10801327973604202,-0.9906982779502869,-0.9918307662010193,-0.9893650412559509,-0.9778357148170471
0.26666666666666666,0.08953989297151566,0.15451927483081818,0.0,0.8971444964408875,0.0,0.0,-0.44173717498779297,-0.17664209008216858,0.5457540154457092,0.0,0.0,0.0,0.13394448161125183,-0.32695743441581726,0.762334406375885,0.4200000464916229,1.0,3.6835906485066516e-06,-2.3101322312868433e-06,2.1008021633406315e-07,0.0002647916553542018,0.00026625857572071254,-0.00010421173647046089,-0.001716896891593933,0.004168967716395855,-0.00012909203360322863,-0.3407505750656128,0.7603973150253296,0.6686275601387024,-0.44439926743507385,0.7741386890411377,-6.86348295211792,0.34041768312454224,0.7457162737846375,0.42000001668930054,-0.8139675259590149,2.9999969005584717,-0.49052464962005615,-2.9999990463256836,-0.10798731446266174,-0.11482477188110352,-0.12060751020908356,-0.12451045215129852,-0.9813333749771118,-0.9819846749305725,-0.9817230105400085,-0.9829443693161011
0.2833333333333333,0.09065020084381104,0.15799930691719055,0.0,0.8956108689308167,0.0,0.0,-0.44483837485313416,0.0948428213596344,0.13987885415554047,0.0,0.0,0.0,-0.6826909184455872,-0.32695743441581726,0.7623343467712402,0.4200000464916229,1.0,3.307126462459564e-06,-2.2125600480649155e-06,2.6254156182403676e-07,0.0002666085201781243,0.0002674504357855767,-0.00010424456559121609,-0.001735339523293078,0.0042045144364237785,-0.0001282824232475832,-0.3473935127258301,0.7673320770263672,0.5536973476409912,-0.18003341555595398,-0.17657041549682617,-6.812401294708252,0.34041768312454224,0.7457162737846375,0.42000001668930054,-0.763958752155304,3.00000262260437,-0.5405545830726624,-2.9999992847442627,-0.12349911034107208,-0.13039882481098175,-0.13616129755973816,-0.14009231328964233,-1.0016907453536987,-1.0012767314910889,-1.000960111618042,-1.0007065534591675
0.3,0.08881516009569168,0.15893396735191345,0.0,0.9022405743598938,0.0,0.0,-0.4312329888343811,-0.18570153415203094,0.026128044351935387,0.0,0.0,0.0,2.6281306743621826,-0.32695743441581726,0.7623343467712402,0.4200000464916229,1.0,3.6565893424267415e-06,-2.2970264126342954e-06,-2.449943394822185e-07,0.0002653300471138209,0.0002659510646481067,-0.00010384945198893547,-0.0017163523007184267,0.004181903786957264,-0.00012745888670906425,-0.3476160764694214,0.7628107070922852,0.4500683546066284,0.1908607929944992,-0.45861732959747314,-5.622953414916992,0.34041768312454224,0.7457162737846375,0.42000001668930054,-0.7139514088630676,3.0000016689300537,-0.5905826687812805,-2.9999990463256836,-0.1415880024433136,-0.1481788158416748,-0.15370990335941315,-0.15745872259140015,-1.0251460075378418,-1.0190684795379639,-1.0144121646881104,-1.0106698274612427
0.31666666666666665,0.08307728916406631,0.15811975300312042,0.0,0.9010842442512512,0.0,0.0,-0.4336441457271576,-0.41070935130119324,-0.08062354475259781,0.0,0.0,0.0,-1.2191319465637207,-0.3292514979839325,0.7584752440452576,0.42114144563674927,0.998587429523468,0.017642410472035408,-0.010654509998857975,-0.04897243157029152,0.015156949870288372,-0.0019910940900444984,0.13281728327274323,2.955145835876465,-3.6854963302612305,0.942626953125,-0.3454115390777588,0.7609919905662537,0.41704124212265015,0.22137349843978882,0.16461139917373657,-0.0013741180300712585,0.34041768312454224,0.7457162737846375,0.42000001668930054,-0.6641808748245239,2.9435031414031982,-0.6410651803016663,-2.8455543518066406,-0.15034055709838867,-0.15757304430007935,-0.1635538637638092,-0.16750282049179077,-0.18510103225708008,-0.2423006147146225,-0.2805294394493103,-0.29575732350349426
0.3333333333333333,0.07469698041677475,0.1550942212343216,0.0,0.9064720869064331,0.0,0.0,-0.4222657382488251,-0.4683437645435333,-0.26953428983688354,0.0,0.0,0.0,2.304644823074341,-0.328492671251297,0.7593604326248169,0.4219588339328766,0.997406005859375,0.0325593464076519,-0.01864052377641201,-0.06143028289079666,0.20579621195793152,0.2659626007080078,0.0722145065665245,3.5128233432769775,-0.5820229053497314,-6.901873588562012,-0.3428170084953308,0.766765832901001,0.4267991781234741,0.30516132712364197,0.35365691781044006,-0.19814427196979523,0.34041768312454224,0.7457162737846375,0.42000001668930054,-0.614173412322998,2.999955177307129,-0.691106379032135,-3.0000007152557373,-0.15421460568904877,-0.1614823192358017,-0.16722504794597626,-0.17065218091011047,-0.22175273299217224,-0.20712237060070038,-0.18041424453258514,-0.1430828869342804
0.35,0.06536652892827988,0.14894188940525055,0.0,0.9045670032501221,0.0,0.0,-0.426331490278244,-0.6006269454956055,-0.40875381231307983,0.0,0.0,0.0,-1.4858253002166748,-0.3249269127845764,0.763969898223877,0.4215599596500397,0.9915246963500977,0.04001263156533241,-0.005043338984251022,-0.12350014597177505,0.25501877069473267,0.33480438590049744,-0.03573615103960037,-1.9172146320343018,0.3463427722454071,-9.899580001831055,-0.33573758602142334,0.7721308469772339,0.42397189140319824,0.5443702936172485,0.3691493570804596,-0.1601807028055191,0.34041768312454224,0.7457162737846375,0.42000001668930054,-0.5641684532165527,2.99998140335083,-0.7411524653434753,-2.9999992847442627,-0.15924280881881714,-0.16585633158683777,-0.17079706490039825,-0.17333278059959412,-0.32801440358161926,-0.2745330333709717,-0.2161242663860321,-0.15769663453102112
0.36666666666666664,0.053954917937517166,0.1404927670955658,0.0,0.9092623591423035,0.0,0.0,-0.41622352600097656,-0.7243890166282654,-0.5461950898170471,0.0,0.0,0.0,2.247647762298584,-0.3176134526729584,0.7724525928497314,0.42038336396217346,0.9773390889167786,0.00878250040113926,-0.002687060507014394,-0.21148046851158142,0.5782099366188049,0.6399756073951721,-0.10169527679681778,-5.055757522583008,1.9032480716705322,-6.559074401855469,-0.3247344493865967,0.7796753644943237,0.42142924666404724,0.7763182520866394,0.513365626335144,-0.1254107505083084,0.34041768312454224,0.7457162737846375,0.42000001668930054,-0.5141634941101074,2.9999747276306152,-0.7911916971206665,-2.9999938011169434,-0.16603921353816986,-0.1710241585969925,-0.1742500364780426,-0.17510148882865906,-0.410138875246048,-0.29055216908454895,-0.16542811691761017,-0.04295406863093376
0.3833333333333333,0.04564722999930382,0.12929914891719818,0.0,0.9072346687316895,0.0,0.0,-0.4206247925758362,-0.441334992647171,-0.7059895396232605,0.0,0.0,0.0,-1.510797381401062,-0.30736011266708374,0.7833071947097778,0.42000025510787964,0.9691860675811768,-2.3258753572008573e-06,7.669847946090158e-06,-0.24632962048053741,0.6789815425872803,0.693055272102356,-0.00048142520245164633,0.008033248595893383,-0.021229920908808708,-3.848742961883545,-0.3103027045726776,0.7869337797164917,0.4202364683151245,0.954729437828064,0.4406367838382721,0.055260173976421356,0.34041768312454224,0.7457162737846375,0.42000001668930054,-0.46413514018058777,2.997995138168335,-0.8412209153175354,-2.963738441467285,-0.1728665828704834,-0.17552083730697632,-0.17627432942390442,-0.17466942965984344,-0.42644304037094116,-0.26850536465644836,-0.10109054297208786,0.06545783579349518
0.4,0.03508862107992172,0.11670084297657013,0.0,0.8919252157211304,0.0,0.0,-0.45218291878700256,-0.7026272416114807,-0.7826956510543823,0.0,0.0,0.0,-5.148983001708984,-0.2888033092021942,0.7968759536743164,0.4214307963848114,0.9569555521011353,-0.016084272414445877,-0.006845605093985796,-0.2897075116634369,1.7902443408966064,0.6690536737442017,-0.04929366707801819,20.227062225341797,-15.512246131896973,5.368355751037598,-0.2897789478302002,0.7982943058013916,0.42197656631469727,1.567929744720459,0.9700058698654175,0.1328296810388565,0.34041768312454224,0.7457162737846375,0.42000001668930054,-0.4144878685474396,2.6977648735046387,-0.8912283182144165,-3.000511407852173,-0.18154491484165192,-0.18113140761852264,-0.1786094605922699,-0.1737111359834671,-0.5041002035140991,-0.3127002418041229,-0.10724839568138123,0.10055740922689438
0.4166666666666667,0.027448559179902077,0.1012345477938652,0.0,0.8618990778923035,0.0,0.0,-0.5070798993110657,-0.40092864632606506,-0.9788109064102173,0.0,0.0,0.0,-8.308431625366211,-0.25179776549339294,0.8163344264030457,0.42454782128334045,0.9378093481063843,-0.006883637979626656,-0.03922276571393013,-0.34485912322998047,3.163975715637207,1.3006703853607178,0.4644516110420227,1.5334784984588623,-2.6401710510253906,3.2413573265075684,-0.2526302635669708,0.817865252494812,0.42513394355773926,2.8677496910095215,1.3883756399154663,0.40151247382164,0.34041768312454224,0.7457162737846375,0.42000001668930054,-0.38595762848854065,1.0746228694915771,-0.9412506818771362,-2.9999494552612305,-0.1897221803665161,-0.18607281148433685,-0.18009957671165466,-0.17173390090465546,-0.5351145267486572,-0.32372763752937317,-0.10255073755979538,0.11605339497327805
0.43333333333333335,0.022697540000081062,0.08984789997339249,0.0,0.8150015473365784,0.0,0.0,-0.5794587135314941,-0.2101532220840454,-0.6871613264083862,0.0,0.0,0.0,-10.998421669006348,-0.17922073602676392,0.8433215618133545,0.430803120136261,0.9159092307090759,0.013681501150131226,-0.06955438107252121,-0.39507627487182617,5.526961326599121,1.5327019691467285,0.3893492519855499,6.167551517486572,-9.72143268585205,13.323884963989258,-0.17978614568710327,0.8451901078224182,0.4312455952167511,5.433556079864502,2.0536434650421143,0.4687153100967407,0.34041768312454224,0.7457162737846375,0.42000001668930054,-0.36927542090415955,1.0269758701324463,-0.9586932063102722,0.5581250190734863,-0.20258834958076477,-0.19558188319206238,-0.1851506382226944,-0.17265939712524414,-0.525635838508606,-0.46107396483421326,-0.2540392577648163,-0.06986671686172485
0.45,0.016987457871437073,0.08242198824882507,0.0,0.7774561047554016,0.0,0.0,-0.6289371848106384,-0.36452776193618774,-0.38634827733039856,0.0,0.0,0.0,-6.151384353637695,-0.09052293002605438,0.8717404007911682,0.4413510262966156,0.8787238597869873,0.046129606664180756,-0.08819249272346497,-0.46683868765830994,5.45903205871582,0.9574942588806152,0.739995002746582,4.710365295410156,-8.87192153930664,9.27461051940918,-0.09073173999786377,0.8751633167266846,0.44166797399520874,5.38521671295166,1.5040215253829956,0.7241851091384888,0.34041768312454224,0.7457162737846375,0.42000001668930054,-0.3500933051109314,1.1989383697509766,-0.991493284702301,-3.000001907348633,-0.21373099088668823,-0.20519647002220154,-0.1915232539176941,-0.17630815505981445,-0.5949717164039612,-0.5186315178871155,-0.36572015285491943,-0.24401047825813293
0.4666666666666667,0.014773082919418812,0.070404052734375,0.0,0.7606223821640015,0.0,0.0,-0.6491945385932922,-0.13219307363033295,-0.7086220979690552,0.0,0.0,0.0,-2.015842914581299,-0.0021473392844200134,0.8879249691963196,0.4527781307697296,0.8179682493209839,0.05548330768942833,-0.08784861862659454,-0.565802276134491,5.099036693572998,-0.42470869421958923,0.8547655344009399,11.366938591003418,-6.642063617706299,17.695293426513672,-0.003291492350399494,0.890938401222229,0.45300859212875366,5.1714935302734375,0.2785269320011139,0.7665767669677734,0.34041768312454224,0.7457162737846375,0.42000001668930054,-0.32956427335739136,1.086695909500122,-1.041515588760376,-2.999537944793701,-0.2206406593322754,-0.21032772958278656,-0.19395975768566132,-0.1765330731868744,-0.5876417756080627,-0.4030836224555969,-0.18531237542629242,-2.0266136857571837e-07
0.48333333333333334,0.00999201275408268,0.06356968730688095,0.0,0.7355870604515076,0.0,0.0,-0.6774302124977112,-0.3005390167236328,-0.38111162185668945,0.0,0.0,0.0,-5.222952842712402,0.07855881750583649,0.8840727806091309,0.4614311158657074,0.7827501893043518,0.04337583854794502,-0.07498665899038315,-0.6162771582603455,4.627837657928467,-1.2855561971664429,0.49509871006011963,5.931613445281982,-6.625481128692627,18.543455123901367,0.07819678634405136,0.8870531916618347,0.4621354937553406,4.802926063537598,-0.6240701675415039,0.43833494186401367,0.34041768312454224,0.7457162737846375,0.42000001668930054,-0.31380346417427063,0.8073669672012329,-1.0915377140045166,-3.0000007152557373,-0.23235853016376495,-0.21854567527770996,-0.19840359687805176,-0.1777132898569107,-0.5497515797615051,-0.3689935505390167,-0.181044802069664,-0.015697479248046875
0.5,0.007712156046181917,0.058451417833566666,0.0,0.7243337631225586,0.0,0.0,-0.6894494891166687,-0.06909798830747604,-0.1901196539402008,0.0,0.0,0.0,-0.8096249103546143,0.15047401189804077,0.8690956234931946,0.4655924439430237,0.746115505695343,0.02685522474348545,-0.0487159788608551,-0.6634886264801025,3.808948278427124,-1.8950101137161255,0.21670395135879517,20.239608764648438,-12.94027042388916,27.130889892578125,0.15084028244018555,0.8723464012145996,0.46604418754577637,4.049919128417969,-1.1620123386383057,0.11411513388156891,0.34041768312454224,0.7457162737846375,0.42000001668930054,-0.29799938201904297,0.7786712646484375,-1.1415598392486572,-3.000005006790161,-0.23899632692337036,-0.22273585200309753,-0.2002895325422287,-0.17766030132770538,-0.32318881154060364,-0.1994260996580124,-0.09856591373682022,-0.019898630678653717
0.5166666666666666,0.00661954190582037,0.05072503536939621,0.0,0.7045366168022156,0.0,0.0,-0.7096676230430603,-0.07103202491998672,-0.4576323628425598,0.0,0.0,0.0,-4.123528480529785,0.21213793754577637,0.848706841468811,0.4606281816959381,0.6989657878875732,-0.0426553450524807,-0.0700812116265297,-0.7104336023330688,3.206005573272705,-1.799098014831543,-0.4493574798107147,-7.103686332702637,-3.6617419719696045,8.218473434448242,0.21148234605789185,0.8516621589660645,0.4638919532299042,3.337193012237549,-1.489264965057373,-0.27405673265457153,0.34041768312454224,0.7457162737846375,0.42000001668930054,-0.2874382734298706,0.6030336618423462,-1.1915819644927979,-3.000002145767212,-0.23946887254714966,-0.2221021056175232,-0.19904521107673645,-0.17607441544532776,-0.07623067498207092,-1.1990778148174286e-08,0.035819631069898605,0.05306059122085571
0.5333333333333333,0.007366989739239216,0.047743119299411774,0.0,0.6983256340026855,0.0,0.0,-0.7157802581787109,0.07082689553499222,-0.11659746617078781,0.0,0.0,0.0,-0.054485321044921875,0.2602153420448303,0.8212296962738037,0.44993025064468384,0.6497220396995544,-0.13314971327781677,-0.09718313068151474,-0.7420834898948669,2.245985984802246,-1.9082950353622437,-0.5318791270256042,3.0653421878814697,5.5559773445129395,8.842089653015137,0.25941985845565796,0.8248562812805176,0.4565048813819885,2.575576066970825,-1.6683998107910156,-0.6434546709060669,0.34041768312454224,0.7457162737846375,0.42000001668930054,-0.27236607670783997,1.0556987524032593,-1.2416040897369385,-2.999922275543213,-0.23974038660526276,-0.22305338084697723,-0.1997986137866974,-0.17692583799362183,0.078109510242939,0.06640748679637909,0.018392836675047874,-0.041956692934036255
0.55,0.010811716318130493,0.040548406541347504,0.0,0.6826450228691101,0.0,0.0,-0.7307501435279846,0.2235502153635025,-0.4764799177646637,0.0,0.0,0.0,-3.447455644607544,0.2968195676803589,0.7977750301361084,0.434631884098053,0.6275666952133179,-0.1598414033651352,-0.06488905102014542,-0.7592102289199829,1.481902003288269,-1.8978663682937622,-0.9930473566055298,-2.7216029167175293,6.685096740722656,23.29327964782715,0.2966312766075134,0.8005045056343079,0.4408087134361267,1.990267038345337,-1.414703130722046,-1.0689550638198853,0.34041768312454224,0.7457162737846375,0.42000001668930054,-0.25507405400276184,0.8241245150566101,-1.291623830795288,-2.999938488006592,-0.232469841837883,-0.21743571758270264,-0.1964942365884781,-0.1759794056415558,0.46189266443252563,0.3505481481552124,0.1906300187110901,0.027964655309915543
0.5666666666666667,0.01675511710345745,0.03775965794920921,0.0,0.6791101694107056,0.0,0.0,-0.7340363264083862,0.37585702538490295,-0.1491727977991104,0.0,0.0,0.0,0.30669742822647095,0.3203917443752289,0.778584361076355,0.42512911558151245,0.6269047856330872,-0.09922458976507187,-0.021382413804531097,-0.7724555730819702,0.6617500185966492,-0.9834002256393433,-0.07830468565225601,7.765174865722656,-0.43602225184440613,31.050064086914062,0.31931987404823303,0.7792196273803711,0.42869192361831665,0.9664713144302368,-0.9210586547851562,-0.09772419929504395,0.34041768312454224,0.7457162737846375,0.42000001668930054,-0.24194763600826263,0.7026948928833008,-1.2534464597702026,2.99836802482605,-0.22697776556015015,-0.21376974880695343,-0.19553720951080322,-0.17775481939315796,0.4864012598991394,0.32000911235809326,0.1066359132528305,-0.09712164849042892
0.5833333333333334,0.020386504009366035,0.03728366270661354,0.0,0.6663462519645691,0.0,0.0,-0.7456424236297607,0.1635388880968094,0.05486319586634636,0.0,0.0,0.0,-2.917257070541382,0.3301587700843811,0.7687514424324036,0.4254542589187622,0.629078209400177,-0.10553018003702164,-0.003752760123461485,-0.7701362371444702,0.20437027513980865,-0.6812151670455933,0.043900277465581894,-1.5899627208709717,1.3689961433410645,10.719091415405273,0.32821762561798096,0.7683944702148438,0.4293407201766968,0.32196807861328125,-0.5321025848388672,0.10265731066465378,0.34041768312454224,0.7457162737846375,0.42000001668930054,-0.22981515526771545,0.6693249344825745,-1.2736793756484985,-3.000316619873047,-0.21768136322498322,-0.2078200727701187,-0.19361816346645355,-0.179563507437706,0.5577691793441772,0.3549075424671173,0.11100056767463684,-0.11327575892210007
0.6,0.024758167564868927,0.03333725780248642,0.0,0.6660341024398804,0.0,0.0,-0.7459213137626648,0.254532128572464,-0.25446608662605286,0.0,0.0,0.0,0.8318548798561096,0.33405768871307373,0.7622708678245544,0.42390814423561096,0.6134097576141357,-0.07329677045345306,-0.003600566415116191,-0.7863479256629944,0.12226039916276932,-0.44520559906959534,-0.23108460009098053,0.6907572150230408,-11.062311172485352,-6.9011077880859375,0.3302331566810608,0.7605633735656738,0.4280804991722107,-0.05531515181064606,-0.39850914478302,-0.1065964624285698,0.34041768312454224,0.7457162737846375,0.42000001668930054,-0.21623727679252625,1.134049415588379,-1.2355637550354004,2.9991073608398438,-0.2053411900997162,-0.19908590614795685,-0.1891757994890213,-0.17907775938510895,0.6736565828323364,0.48557248711586,0.25421908497810364,0.03949662297964096
0.6166666666666667,0.027292447164654732,0.03254183381795883,0.0,0.655977725982666,0.0,0.0,-0.7547802329063416,0.11950083076953888,0.026164764538407326,0.0,0.0,0.0,-2.408503532409668,0.3332585394382477,0.7558243870735168,0.4227904677391052,0.6456372737884521,-0.050895579159259796,0.002838608343154192,-0.7619409561157227,-0.04987219348549843,-0.43970054388046265,-0.1081344485282898,4.327409267425537,-2.2790799140930176,8.021262168884277,0.3298511505126953,0.7547723054885864,0.4270740747451782,0.0022169016301631927,-0.27747854590415955,-0.042628102004528046,0.34041768312454224,0.7457162737846375,0.42000001668930054,-0.23076367378234863,-2.430377960205078,-1.2116707563400269,0.07513941824436188,-0.19822172820568085,-0.19444172084331512,-0.18770869076251984,-0.18054786324501038,0.4169869124889374,0.2642183005809784,0.07286234200000763,-0.10284033417701721
0.6333333333333333,0.030337471514940262,0.034637197852134705,0.0,0.6595614552497864,0.0,0.0,-0.7516506314277649,0.21197375655174255,0.1958988606929779,0.0,0.0,0.0,1.4255614280700684,0.3320711851119995,0.7499046325683594,0.4202851951122284,0.6742663979530334,-0.0014102548593655229,0.00444182101637125,-0.7384733557701111,-0.11707918345928192,-0.3519125282764435,-0.14536601305007935,0.06392601132392883,-8.833727836608887,3.53025221824646,0.32929661870002747,0.752896785736084,0.42879554629325867,-0.08696797490119934,-0.00039290357381105423,0.1359196901321411,0.34041768312454224,0.7457162737846375,0.42000001668930054,-0.2793232798576355,-2.999443531036377,-1.253760576248169,-2.9992167949676514,-0.19099846482276917,-0.18976864218711853,-0.18609139323234558,-0.18165239691734314,0.4219101667404175,0.28072595596313477,0.11271381378173828,-0.03538772091269493
0.65,0.035330820828676224,0.03257199004292488,0.0,0.6517850756645203,0.0,0.0,-0.7584037184715271,0.2929718792438507,-0.16719360649585724,0.0,0.0,0.0,-2.1117260456085205,0.3317852020263672,0.7479480504989624,0.4199995696544647,0.6792107820510864,4.127931606490165e-05,-1.5038048331916798e-05,-0.7339431643486023,-0.09364242851734161,-0.1721252202987671,-0.0014026357093825936,-0.09251328557729721,0.06294947117567062,0.8803707361221313,0.3287879228591919,0.7550762891769409,0.4319809377193451,-0.015378717333078384,0.1467055082321167,0.23418767750263214,0.34041768312454224,0.7457162737846375,0.42000001668930054,-0.3292839229106903,-2.997194528579712,-1.3037313222885132,-2.9997551441192627,-0.1791006326675415,-0.18079930543899536,-0.18031486868858337,-0.17860129475593567,0.6733728051185608,0.5351101160049438,0.38409924507141113,0.2595376968383789
0.6666666666666666,0.04198113828897476,0.028398780152201653,0.0,0.6561334133148193,0.0,0.0,-0.7546449303627014,0.4390243589878082,-0.3064323663711548,0.0,0.0,0.0,1.5738778114318848,0.33070898056030273,0.7459816336631775,0.4199998378753662,0.6832912564277649,-4.860249191551702e-06,-7.616844413860235e-06,-0.7301458716392517,-0.05493973195552826,-0.09974750876426697,-8.499273099005222e-05,0.005838711746037006,0.0011086580343544483,0.5971832871437073,0.32915616035461426,0.7562875151634216,0.44078129529953003,0.08793073892593384,0.08613114058971405,0.8565647602081299,0.34041768312454224,0.7457162737846375,0.42000001668930054,-0.3792974650859833,-3.00000262260437,-1.3537497520446777,-3.000000476837158,-0.17291386425495148,-0.17556466162204742,-0.17621362209320068,-0.17526714503765106,0.2725837826728821,0.24994637072086334,0.21972155570983887,0.2102600336074829
0.6833333333333333,0.05181039497256279,0.026328153908252716,0.0,0.6487035155296326,0.0,0.0,-0.7610412240028381,0.6559299230575562,-0.042314186692237854,0.0,0.0,0.0,-2.1684999465942383,0.3302655816078186,0.7451895475387573,0.42000001668930054,0.6854155659675598,-1.7631464288569987e-06,-1.1500656000862364e-06,-0.7281519770622253,-0.016234273090958595,-0.02836567535996437,-6.241723895072937e-05,0.0026343923527747393,-0.0005148748750798404,0.2483532428741455,0.33402207493782043,0.7559030055999756,0.4525514841079712,0.516692578792572,-0.10824008285999298,0.7207314372062683,0.34041768312454224,0.7457162737846375,0.42000001668930054,-0.42931118607521057,-2.9999988079071045,-1.4037680625915527,-2.999999523162842,-0.17217659950256348,-0.17427022755146027,-0.17443408071994781,-0.17269067466259003,-0.03424786776304245,0.030471689999103546,0.09410440176725388,0.17542488873004913
0.7,0.06328795850276947,0.021344536915421486,0.0,0.6197740435600281,0.0,0.0,-0.7847803235054016,0.7475425004959106,-0.3729865252971649,0.0,0.0,0.0,-5.255882263183594,0.3302648663520813,0.7451899647712708,0.41999995708465576,0.6854156255722046,1.3110103509461624e-06,-8.921513654058799e-06,-0.7281519770622253,0.0004936115583404899,-0.000648158835247159,-0.00013922643847763538,0.014190043322741985,0.0005894009955227375,-0.0005977510008960962,0.344890296459198,0.752483606338501,0.4705864191055298,0.8149536848068237,-0.3448316752910614,1.5534862279891968,0.34041768312454224,0.7457162737846375,0.42000001668930054,-0.47932443022727966,-2.9999594688415527,-1.4537863731384277,-3.0000009536743164,-0.17219585180282593,-0.1731499284505844,-0.17214848101139069,-0.1689624935388565,-0.10637649893760681,-0.009712275117635727,0.08832402527332306,0.1988813430070877
0.7166666666666667,0.07289036363363266,0.01764480024576187,0.0,0.6061451435089111,0.0,0.0,-0.7953540086746216,0.4983803927898407,-0.18360589444637299,0.0,0.0,0.0,-1.0284082889556885,0.33026522397994995,0.7451897263526917,0.4200000464916229,0.6854156851768494,7.200429195108882e-07,-4.10144866691553e-06,-0.7281519770622253,0.00024573662085458636,-0.00027694061282090843,-0.00010441266931593418,0.004693477414548397,0.0009991662809625268,-0.0002521903661545366,0.36070579290390015,0.752680242061615,0.5000715255737305,1.0152883529663086,0.3098585605621338,1.9436438083648682,0.34041768312454224,0.7457162737846375,0.42000001668930054,-0.5028643608093262,-0.06168293580412865,-1.5038046836853027,-3.000000238418579,-0.17318157851696014,-0.17334166169166565,-0.1715887039899826,-0.1675385683774948,0.060995835810899734,0.05038067698478699,0.03451192378997803,0.02164614573121071
0.7333333333333333,0.07816488295793533,0.01690288819372654,0.0,0.6167625188827515,0.0,0.0,-0.7871492505073547,0.2564626634120941,0.006119787693023682,0.0,0.0,0.0,2.4213335514068604,0.33026522397994995,0.7451897263526917,0.4200000464916229,0.6854157447814941,8.726358373678522e-07,-4.077444827998988e-06,-0.728151798248291,0.0002521647256799042,-0.00027574715204536915,-0.00010631559416651726,0.004638106562197208,0.0010937437182292342,-0.00026526834699325264,0.37652596831321716,0.7576487064361572,0.5263737440109253,0.805813193321228,0.2865650951862335,1.2759265899658203,0.34041768312454224,0.7457162737846375,0.42000001668930054,-0.4846336841583252,2.0493712425231934,-1.4650629758834839,3.0000007152557373,-0.1718054562807083,-0.17204634845256805,-0.1704791933298111,-0.16663223505020142,0.1235024482011795,0.12257541716098785,0.11291088163852692,0.09764841198921204
0.75,0.07933831214904785,0.014267686754465103,0.0,0.6144430041313171,0.0,0.0,-0.7889612317085266,0.0012350064935162663,-0.256224662065506,0.0,0.0,0.0,-1.177470088005066,0.33026522397994995,0.7451897263526917,0.4200000464916229,0.6854156255722046,8.594334417466598e-07,-3.92784750147257e-06,-0.7281519174575806,0.000251864199526608,-0.0002755369641818106,-0.00010628416202962399,0.004634426906704903,0.0010888188844546676,-0.0002650090027600527,0.38244348764419556,0.7601444721221924,0.5408163666725159,-0.07096689939498901,0.058512527495622635,0.6434845924377441,0.34041768312454224,0.7457162737846375,0.42000001668930054,-0.4592922031879425,1.0561013221740723,-1.4150103330612183,3.0000007152557373,-0.17061886191368103,-0.17048634588718414,-0.16874796152114868,-0.16492193937301636,0.06603164970874786,0.10165663063526154,0.12209323048591614,0.12611445784568787
0.7666666666666666,0.0776275023818016,0.01501550991088152,0.0,0.6239827871322632,0.0,0.0,-0.7814380526542664,-0.13083292543888092,0.06463725119829178,0.0,0.0,0.0,2.2007579803466797,0.33026522397994995,0.7451897263526917,0.4200000464916229,0.6854157447814941,8.758777880757407e-07,-4.071737748745363e-06,-0.728151798248291,0.00025225087301805615,-0.00027578131994232535,-0.00010635098442435265,0.004638394340872765,0.001094454200938344,-0.00026541476836428046,0.38212233781814575,0.759049117565155,0.5502361059188843,0.06935836374759674,-0.06522487103939056,0.5087070465087891,0.34041768312454224,0.7457162737846375,0.42000001668930054,-0.4479472041130066,0.3572036325931549,-1.432840347290039,-3.0,-0.1731778085231781,-0.17160485684871674,-0.16867536306381226,-0.16397158801555634,-0.0551287941634655,0.012015784159302711,0.06984837353229523,0.11360295861959457
0.7833333333333333,0.07788173854351044,0.013390734791755676,0.0,0.6205534338951111,0.0,0.0,-0.7841641306877136,0.01960616186261177,-0.1696915477514267,0.0,0.0,0.0,-1.3877061605453491,0.33026522397994995,0.7451897263526917,0.4200000464916229,0.6854156255722046,8.624733141004981e-07,-3.922039923054399e-06,-0.7281519174575806,0.000251865858444944,-0.00027553687687031925,-0.00010628602467477322,0.004634445533156395,0.0010889082914218307,-0.0002650061505846679,0.37938207387924194,0.757940411567688,0.5522797107696533,-0.40351489186286926,-0.09167086333036423,-0.07488300651311874,0.34041768312454224,0.7457162737846375,0.42000001668930054,-0.4507964849472046,-0.6137403249740601,-1.3943030834197998,3.0,-0.17169076204299927,-0.1695280820131302,-0.16612398624420166,-0.16114039719104767,0.10583630204200745,0.14221452176570892,0.1710592359304428,0.18687978386878967
0.8,0.08027438074350357,0.014089394360780716,0.0,0.6282387971878052,0.0,0.0,-0.7780205607414246,0.19545242190361023,0.08385590463876724,0.0,0.0,0.0,1.9198120832443237,0.33026522397994995,0.7451897263526917,0.4200000464916229,0.6854157447814941,8.758680110076966e-07,-4.064776021550642e-06,-0.728151798248291,0.00025213402113877237,-0.0002757251786533743,-0.00010631722398102283,0.0046376073732972145,0.0010929026175290346,-0.00026525690918788314,0.3752639591693878,0.7556780576705933,0.5534278154373169,-0.09991355985403061,-0.12835785746574402,0.23295234143733978,0.34041768312454224,0.7457162737846375,0.42000001668930054,-0.4864174723625183,-2.9999988079071045,-1.4125431776046753,-3.000000238418579,-0.17096684873104095,-0.16819778084754944,-0.1642056703567505,-0.15875892341136932,0.09667332470417023,0.11652836203575134,0.14090487360954285,0.1633298099040985
0.8166666666666667,0.08477931469678879,0.011517192237079144,0.0,0.6231493353843689,0.0,0.0,-0.7821028232574463,0.3080122470855713,-0.17266055941581726,0.0,0.0,0.0,-1.6523760557174683,0.33026522397994995,0.7451897263526917,0.4200000464916229,0.6854156255722046,8.626970497971342e-07,-3.915142315236153e-06,-0.7281519174575806,0.00025186457787640393,-0.00027553545078262687,-0.00010628299787640572,0.004634383134543896,0.001088824006728828,-0.00026501386309973896,0.37623631954193115,0.751838207244873,0.5515598654747009,0.15898120403289795,-0.42405712604522705,-0.2686842381954193,0.34041768312454224,0.7457162737846375,0.42000001668930054,-0.5364198684692383,-2.999990940093994,-1.4625614881515503,-2.999999761581421,-0.16769979894161224,-0.16459399461746216,-0.16012626886367798,-0.15417596697807312,0.08216363191604614,0.14537763595581055,0.21573284268379211,0.28562310338020325
0.8333333333333334,0.09207125008106232,0.011585612781345844,0.0,0.5966106057167053,0.0,0.0,-0.8025308847427368,0.4780733585357666,0.08409633487462997,0.0,0.0,0.0,-4.820679664611816,0.33026522397994995,0.7451897263526917,0.4200000464916229,0.6854157447814941,8.760875402913371e-07,-4.057885689690011e-06,-0.728151798248291,0.00025213498156517744,-0.0002757264592219144,-0.00010631722398102283,0.004637653473764658,0.0010929863201454282,-0.0002652556577231735,0.3823069930076599,0.7432940602302551,0.5497691035270691,0.583417534828186,-0.5275577902793884,0.18869389593601227,0.34041768312454224,0.7457162737846375,0.42000001668930054,-0.586421012878418,-2.9999775886535645,-1.5125797986984253,-3.0,-0.167476087808609,-0.16361552476882935,-0.15824922919273376,-0.15137721598148346,0.061892494559288025,0.0761132538318634,0.100895456969738,0.12980113923549652
0.85,0.10148676484823227,0.015438585542142391,0.0,0.5852600336074829,0.0,0.0,-0.810845673084259,0.6008522510528564,0.28924253582954407,0.0,0.0,0.0,-0.6971801519393921,0.33026522397994995,0.7451897263526917,0.4200000464916229,0.6854156255722046,8.603065566603618e-07,-3.9072301660780795e-06,-0.7281519174575806,0.00025187316350638866,-0.00027554298867471516,-0.00010628462769091129,0.004634405951946974,0.0010888772085309029,-0.0002650165988598019,0.38974565267562866,0.7392780780792236,0.5546411275863647,0.31605762243270874,-0.057057786732912064,0.3684875965118408,0.34041768312454224,0.7457162737846375,0.42000001668930054,-0.6059997081756592,0.37476176023483276,-1.5625981092453003,-2.999999523162842,-0.16538242995738983,-0.16194473206996918,-0.15686506032943726,-0.15023304522037506,0.18648001551628113,0.13110984861850739,0.07971969246864319,0.02823701687157154
0.8666666666666667,0.10733408480882645,0.014169813133776188,0.0,0.5992045402526855,0.0,0.0,-0.8005959987640381,0.34636184573173523,-0.12974987924098969,0.0,0.0,0.0,2.7627482414245605,0.33026522397994995,0.7451897263526917,0.4200000464916229,0.6854157447814941,8.737208645470673e-07,-4.0499558053852525e-06,-0.728151798248291,0.0002521357382647693,-0.0002757255861070007,-0.00010631955228745937,0.004637557081878185,0.0010929328855127096,-0.00026525824796408415,0.3935786485671997,0.743839681148529,0.559843897819519,0.16368892788887024,0.36424505710601807,0.23020711541175842,0.34041768312454224,0.7457162737846375,0.42000001668930054,-0.5810091495513916,2.4292452335357666,-1.5236904621124268,3.000000238418579,-0.15642239153385162,-0.15482839941978455,-0.1515619158744812,-0.14674611389636993,0.4232696294784546,0.33512091636657715,0.24221891164779663,0.14278730750083923
0.8833333333333333,0.11044426262378693,0.01658400520682335,0.0,0.5987750887870789,0.0,0.0,-0.8009172081947327,0.10402310639619827,0.1697022020816803,0.0,0.0,0.0,-0.9797489047050476,0.33026522397994995,0.7451897263526917,0.4200000464916229,0.6854156255722046,8.884205726644723e-07,-3.899154762621038e-06,-0.7281519174575806,0.000251787161687389,-0.0002754822198767215,-0.00010627065785229206,0.004633416887372732,0.0010877028107643127,-0.00026493187760934234,0.3930262327194214,0.7478026747703552,0.5625032186508179,-0.12725400924682617,0.290700227022171,0.21866066753864288,0.34041768312454224,0.7457162737846375,0.42000001668930054,-0.5646407604217529,-0.2471824735403061,-1.473635196685791,2.9999992847442627,-0.15449203550815582,-0.15357016026973724,-0.15112467110157013,-0.14731481671333313,0.22546595335006714,0.15134687721729279,0.07167200744152069,-0.014606005512177944
