vladlanda/robotic-transformer/data/env_000_episode_0005.csv
sim_time_s,robot_box_x,robot_box_y,robot_box_z,robot_box_quat_w,robot_box_quat_x,robot_box_quat_y,robot_box_quat_z,robot_box_linvel_x,robot_box_linvel_y,robot_box_linvel_z,robot_box_angvel_x,robot_box_angvel_y,robot_box_angvel_z,cube_world_x,cube_world_y,cube_world_z,cube_quat_w,cube_quat_x,cube_quat_y,cube_quat_z,cube_linvel_x,cube_linvel_y,cube_linvel_z,cube_angvel_x,cube_angvel_y,cube_angvel_z,endpoint_world_x,endpoint_world_y,endpoint_world_z,endpoint_linvel_x,endpoint_linvel_y,endpoint_linvel_z,target_cube_world_x,target_cube_world_y,target_cube_world_z,gripper_actual_pos_rad_gp_leftgearjoint,gripper_actual_vel_rad_s_gp_leftgearjoint,gripper_actual_pos_rad_gp_rotatingjoint,gripper_actual_vel_rad_s_gp_rotatingjoint,motor_angle_rad_joint1,motor_angle_rad_joint2,motor_angle_rad_joint3,motor_angle_rad_joint4,motor_speed_rad_s_joint1,motor_speed_rad_s_joint2,motor_speed_rad_s_joint3,motor_speed_rad_s_joint4
0.0,0.0,0.0,0.0,1.0,0.0,0.0,0.0,0.0,0.0,0.0,0.0,0.0,0.0,-0.35100799798965454,0.6866186857223511,0.41999998688697815,1.0,0.0,0.0,0.0,0.0,0.0,0.0,0.0,0.0,0.0,3.42540442943573e-06,-0.005000244826078415,1.313499927520752,0.0,0.0,0.0,0.3493815064430237,0.7317524552345276,0.42000001668930054,-1.5707999467849731,0.0,0.0,0.0,0.0,0.0,0.0,0.0,0.0,0.0,0.0,0.0
0.016666666666666666,0.002893824363127351,0.002157925395295024,0.0,0.9998441338539124,0.0,0.0,0.017655685544013977,0.24124741554260254,0.1817379891872406,0.0,0.0,0.0,3.1417672634124756,-0.3510081171989441,0.6866183876991272,0.41999998688697815,1.0,3.2799905511637917e-06,-8.339794135281409e-07,8.465515577427141e-08,-1.9833774786093272e-05,0.00017983047291636467,-6.132945418357849e-05,0.0009432245860807598,-0.004689525347203016,-0.00031981084612198174,-0.007102210074663162,0.003427249612286687,1.3159418106079102,-0.8128688335418701,0.9884788990020752,0.18096892535686493,0.3493815064430237,0.7317524552345276,0.42000001668930054,-1.5301096439361572,3.000002145767212,-0.045851994305849075,-2.999999523162842,0.0008724339422769845,0.0007989775040186942,0.0007133778999559581,0.0006135408184491098,0.11085120588541031,0.09749047458171844,0.08327016979455948,0.06815475225448608
0.03333333333333333,0.00897937174886465,0.006769043393433094,0.0,0.9998331665992737,0.0,0.0,0.01826622150838375,0.4071662724018097,0.3146994113922119,0.0,0.0,0.0,-0.8687447309494019,-0.35100823640823364,0.6866183280944824,0.4200000464916229,1.0,3.3908531804627273e-06,-2.132488134520827e-06,-3.710428941872124e-08,0.0002635785494931042,0.0002693783608265221,-0.00010509602725505829,-0.0017707846127450466,0.004130862653255463,-0.00013547409616876394,-0.027467695996165276,0.026363063603639603,1.3165926933288574,-1.585698127746582,1.6228091716766357,-0.08590508252382278,0.3493815064430237,0.7317524552345276,0.42000001668930054,-1.4800903797149658,3.000001907348633,-0.09589183330535889,-3.0000007152557373,0.0029882111120969057,0.002650646725669503,0.00227531255222857,0.0018591862171888351,0.16389013826847076,0.13946454226970673,0.11354435980319977,0.08603418618440628
0.05,0.018488936126232147,0.013869320042431355,0.0,0.99996018409729,0.0,0.0,-0.008926954120397568,0.6359145641326904,0.47188112139701843,0.0,0.0,0.0,-4.073234558105469,-0.35100826621055603,0.6866183876991272,0.4200000464916229,1.0,3.7651284401363228e-06,-2.2118861124909017e-06,5.622759147172474e-09,0.00026530996547080576,0.00026691515813581645,-0.00010440382175147533,-0.00172425655182451,0.004177390597760677,-0.00012948956282343715,-0.05698157101869583,0.05774876847863197,1.311884880065918,-1.943913459777832,2.0685596466064453,-0.46103373169898987,0.3493815064430237,0.7317524552345276,0.42000001668930054,-1.4300720691680908,3.0000014305114746,-0.1459190994501114,-2.9999988079071045,0.006003724876791239,0.005164844915270805,0.004253630992025137,0.003265881445258856,0.20654529333114624,0.16623494029045105,0.12400247156620026,0.07976219058036804
0.06666666666666667,0.030814630910754204,0.02335572987794876,0.0,0.9998446106910706,0.0,0.0,-0.017628422006964684,0.7724753618240356,0.6159583926200867,0.0,0.0,0.0,-0.03376298397779465,-0.35100826621055603,0.6866183280944824,0.4200000464916229,0.9999999403953552,3.406727046240121e-06,-2.285541313540307e-06,4.300959517422598e-07,0.0002670243557076901,0.00026791688287630677,-0.00010437681339681149,-0.0017406673869118094,0.004211694002151489,-0.00012850009079556912,-0.09268741309642792,0.09140212833881378,1.3015468120574951,-2.200403928756714,2.13027286529541,-0.7685312032699585,0.3493815064430237,0.7317524552345276,0.42000001668930054,-1.3800443410873413,2.999998092651367,-0.1243172287940979,2.999999761581421,0.008547225967049599,0.006934426724910736,0.005208426620811224,0.0033654114231467247,0.1295706182718277,0.07296213507652283,0.014196619391441345,-0.046810850501060486
0.08333333333333333,0.04371572658419609,0.031208669766783714,0.0,0.9991734027862549,0.0,0.0,-0.040650624781847,0.8382866382598877,0.37793877720832825,0.0,0.0,0.0,-3.592944622039795,-0.35100826621055603,0.6866183280944824,0.4200000464916229,1.0,3.697249667311553e-06,-2.1888592982577393e-06,-2.632261555390869e-07,0.00026389709091745317,0.00026586506282910705,-0.00010433932766318321,-0.001708121271803975,0.004150144290179014,-0.00012991175753995776,-0.12426237016916275,0.13130003213882446,1.2880737781524658,-1.6412078142166138,2.644324779510498,-0.8181111812591553,0.3493815064430237,0.7317524552345276,0.42000001668930054,-1.3300405740737915,3.00000262260437,-0.15627536177635193,-3.0,0.008484918624162674,0.005711065139621496,0.002781911054626107,-0.0003072093240916729,-0.051179397851228714,-0.13836780190467834,-0.22772735357284546,-0.31924670934677124
0.1,0.050865091383457184,0.04094308987259865,0.0,0.995598316192627,0.0,0.0,-0.09372308105230331,0.2958194315433502,0.666256308555603,0.0,0.0,0.0,-7.3398237228393555,-0.35100826621055603,0.6866183280944824,0.4200000464916229,0.9999999403953552,3.6203455238137394e-06,-2.2651984181720763e-06,1.746214763898024e-07,0.0002667686785571277,0.0002674089337233454,-0.00010408065281808376,-0.001738688675686717,0.0042091673240065575,-0.0001277492119697854,-0.15322554111480713,0.17802873253822327,1.2694758176803589,-1.7911920547485352,2.9599051475524902,-1.3230282068252563,0.3493815064430237,0.7317524552345276,0.42000001668930054,-1.2800242900848389,2.9999918937683105,-0.12271852791309357,3.000002145767212,0.0013307509943842888,-0.0022686629090458155,-0.006074149627238512,-0.01009446382522583,-0.5376057028770447,-0.5777848958969116,-0.6203417181968689,-0.6655969619750977
0.11666666666666667,0.06207987666130066,0.05221257731318474,0.0,0.9919344186782837,0.0,0.0,-0.1267523318529129,0.8067551255226135,0.6693102121353149,0.0,0.0,0.0,-2.7848448753356934,-0.35100826621055603,0.6866183280944824,0.4200000464916229,1.0,3.7983813854225446e-06,-2.262807811348466e-06,-1.5020366106455185e-07,0.0002637406578287482,0.0002656614233274013,-0.00010428880341351032,-0.001705422531813383,0.004147589672356844,-0.00012980026076547801,-0.18853674829006195,0.22289645671844482,1.2472586631774902,-2.1391758918762207,2.8119678497314453,-1.4033416509628296,0.3493815064430237,0.7317524552345276,0.42000001668930054,-1.2300329208374023,3.0,-0.1546468734741211,-2.9999992847442627,-0.0025518997572362423,-0.0075348964892327785,-0.012709406204521656,-0.018084952607750893,-0.1691543012857437,-0.26151779294013977,-0.3519296944141388,-0.4403429925441742
0.13333333333333333,0.07248719036579132,0.06098155304789543,0.0,0.9853585362434387,0.0,0.0,-0.17049501836299896,0.6041349172592163,0.5228578448295593,0.0,0.0,0.0,-5.956546783447266,-0.35100826621055603,0.6866183876991272,0.4200000464916229,0.9999999403953552,3.550472456481657e-06,-2.229846586487838e-06,2.9291268788256275e-07,0.00026703288313001394,0.00026779319159686565,-0.00010417005978524685,-0.001743955654092133,0.004213616251945496,-0.00012800547119695693,-0.2207053005695343,0.2753312289714813,1.2208114862442017,-1.6542555093765259,3.5853805541992188,-1.7186826467514038,0.3493815064430237,0.7317524552345276,0.42000001668930054,-1.1800141334533691,2.999997854232788,-0.12108736485242844,3.000000238418579,-0.007269531488418579,-0.013803224079310894,-0.02048434503376484,-0.027322499081492424,-0.31356868147850037,-0.41112828254699707,-0.505275547504425,-0.5959423184394836
0.15,0.07993418723344803,0.0698486715555191,0.0,0.973534882068634,0.0,0.0,-0.22853851318359375,0.37561988830566406,0.5654436945915222,0.0,0.0,0.0,-7.67009162902832,-0.35100823640823364,0.6866183280944824,0.4200000464916229,1.0,3.3321450700896094e-06,-2.1020127860538196e-06,1.3132850540387153e-07,0.00026730686658993363,0.0002685973304323852,-0.00010459637269377708,-0.001749805873259902,0.004215680528432131,-0.00012928179057780653,-0.2515884339809418,0.33520346879959106,1.1871345043182373,-1.750313639640808,3.8948559761047363,-2.3852314949035645,0.3493815064430237,0.7317524552345276,0.42000001668930054,-1.1432273387908936,1.5135630369186401,-0.15306073427200317,-3.000000238418579,-0.013422491028904915,-0.021407023072242737,-0.029463475570082664,-0.03760107234120369,-0.44085773825645447,-0.5085839033126831,-0.5718088150024414,-0.6305919289588928
0.16666666666666666,0.08463843166828156,0.0765652060508728,0.0,0.9645410180091858,0.0,0.0,-0.2639330327510834,0.24376671016216278,0.3081996440887451,0.0,0.0,0.0,-3.2694926261901855,-0.35100826621055603,0.6866183280944824,0.4200000464916229,1.0,3.7372319638961926e-06,-2.233149643871002e-06,-1.8763658715670317e-07,0.0002643291081767529,0.00026626838371157646,-0.00010445783846080303,-0.0017118019750341773,0.004157478455454111,-0.0001300142175750807,-0.28574877977371216,0.3974151015281677,1.1394834518432617,-1.8699114322662354,3.9832327365875244,-3.310384750366211,0.3493815064430237,0.7317524552345276,0.42000001668930054,-1.0975415706634521,3.0,-0.20309068262577057,-3.0,-0.02113432250916958,-0.029880821704864502,-0.03862297162413597,-0.04737459495663643,-0.48534005880355835,-0.5120788216590881,-0.5346907377243042,-0.5535489916801453
0.18333333333333332,0.08895935863256454,0.08430067449808121,0.0,0.950685441493988,0.0,0.0,-0.31015679240226746,0.27237868309020996,0.505612313747406,0.0,0.0,0.0,-6.586493968963623,-0.35100826621055603,0.6866183876991272,0.4200000464916229,0.9999999403953552,3.6602039017452626e-06,-2.3022923869575607e-06,2.5287019411734946e-07,0.00026690773665905,0.00026760328910313547,-0.00010412652045488358,-0.0017413386376574636,0.0042115263640880585,-0.00012786791194230318,-0.31497958302497864,0.46507325768470764,1.0764658451080322,-1.452817440032959,4.207310199737549,-4.161521911621094,0.3493815064430237,0.7317524552345276,0.42000001668930054,-1.0475385189056396,3.000000476837158,-0.2531178295612335,-3.0000009536743164,-0.03206926956772804,-0.04078149050474167,-0.049444347620010376,-0.058081865310668945,-0.7364274263381958,-0.7179208993911743,-0.6975218057632446,-0.6758527755737305
0.2,0.09119430929422379,0.09082131087779999,0.0,0.9417830109596252,0.0,0.0,-0.3362213373184204,0.07820442318916321,0.3067845404148102,0.0,0.0,0.0,-2.2258622646331787,-0.35100826621055603,0.6866183280944824,0.4200000464916229,1.0,3.590804681152804e-06,-2.3003537990007317e-06,1.387499537486292e-07,0.0002665481297299266,0.0002673249691724777,-0.00010424014180898666,-0.001732735661789775,0.004203468095511198,-0.00012820278061553836,-0.34021884202957153,0.5293623208999634,0.9992510080337524,-1.1693319082260132,3.778003692626953,-5.044844627380371,0.3493815064430237,0.7317524552345276,0.42000001668930054,-0.9975317716598511,3.000000238418579,-0.30314433574676514,-3.0000009536743164,-0.04638686403632164,-0.05423042178153992,-0.062019575387239456,-0.06979401409626007,-0.9259121417999268,-0.8533228039741516,-0.7817987203598022,-0.7123526930809021
0.21666666666666667,0.090080626308918,0.09803810715675354,0.0,0.9283208250999451,0.0,0.0,-0.3717801570892334,-0.19840854406356812,0.5098982453346252,0.0,0.0,0.0,-5.28728723526001,-0.35100826621055603,0.6866183876991272,0.4200000464916229,1.0,3.6069423003937118e-06,-2.26090151045355e-06,1.963344153921298e-08,0.0002644701162353158,0.00026558522949926555,-0.00010396679863333702,-0.0017088270979002118,0.004164249636232853,-0.00012832220818381757,-0.35789987444877625,0.5895522832870483,0.9083651304244995,-0.7466118335723877,3.4125850200653076,-5.7580366134643555,0.3493815064430237,0.7317524552345276,0.42000001668930054,-0.947521984577179,2.9999988079071045,-0.3531736135482788,-2.9999990463256836,-0.06269653141498566,-0.0703037679195404,-0.07730789482593536,-0.08375388383865356,-0.9888929724693298,-0.9903825521469116,-0.9915403723716736,-0.9251265525817871
0.23333333333333334,0.09127997606992722,0.10310830920934677,0.0,0.9213048815727234,0.0,0.0,-0.38884106278419495,0.10748559236526489,0.21726307272911072,0.0,0.0,0.0,-0.9306622743606567,-0.35100823640823364,0.6866183280944824,0.4200000464916229,0.9999999403953552,3.7422239529405488e-06,-2.2273945887718583e-06,4.589346929151361e-07,0.00026474997866898775,0.00026671221712604165,-0.0001045342069119215,-0.0017188844503834844,0.0041657243855297565,-0.00013019047037232667,-0.3719126582145691,0.6370589137077332,0.8094291687011719,-0.5750200748443604,2.4062609672546387,-6.135732650756836,0.3493815064430237,0.7317524552345276,0.42000001668930054,-0.8975113034248352,2.999999523162842,-0.4032047986984253,-2.999997138977051,-0.07793635129928589,-0.08547547459602356,-0.0923803299665451,-0.09764588624238968,-0.9813852310180664,-0.9764877557754517,-0.9706237316131592,-0.9116513729095459
0.25,0.08817031979560852,0.11127814650535583,0.0,0.9094781875610352,0.0,0.0,-0.4157516360282898,-0.22284439206123352,0.5142495632171631,0.0,0.0,0.0,-4.184584140777588,-0.35100826621055603,0.6866183280944824,0.4200000464916229,1.0,3.3943786093004746e-06,-2.281922661495628e-06,1.3365452389280108e-07,0.00026679373695515096,0.00026793996221385896,-0.00010439474135637283,-0.0017417850904166698,0.0042066010646522045,-0.00012883795716334134,-0.3763394355773926,0.6672816872596741,0.7019867897033691,0.0026860088109970093,1.3775157928466797,-6.526989936828613,0.3493815064430237,0.7317524552345276,0.42000001668930054,-0.8475006818771362,2.9999966621398926,-0.45323646068573,-2.9999990463256836,-0.09478995203971863,-0.1021752804517746,-0.1090165376663208,-0.11427188664674759,-0.9307254552841187,-0.9344574213027954,-0.9441230297088623,-0.9572816491127014
0.26666666666666666,0.08910657465457916,0.1142992451786995,0.0,0.9053053259849548,0.0,0.0,-0.42476141452789307,0.05315016955137253,0.10739143937826157,0.0,0.0,0.0,-0.07508773356676102,-0.35100826621055603,0.6866183876991272,0.4200000464916229,1.0,3.6834032925980864e-06,-2.3100083126337267e-06,2.1012857587265898e-07,0.00026479255757294595,0.00026625869213603437,-0.00010421290062367916,-0.0017169599886983633,0.004169076681137085,-0.00012909126235172153,-0.37842291593551636,0.682719886302948,0.5953196287155151,0.06820671260356903,0.3721083700656891,-6.312424659729004,0.3493815064430237,0.7317524552345276,0.42000001668930054,-0.7974918484687805,2.999993324279785,-0.5032671689987183,-2.9999966621398926,-0.1090029701590538,-0.11633895337581635,-0.12321314960718155,-0.1285470873117447,-0.9929537177085876,-0.994123637676239,-0.994228184223175,-0.9897022247314453
0.2833333333333333,0.08641000092029572,0.1148637980222702,0.0,0.9114821553230286,0.0,0.0,-0.41133958101272583,-0.23883464932441711,0.006696560885757208,0.0,0.0,0.0,3.0165228843688965,-0.35100826621055603,0.6866183280944824,0.4200000464916229,1.0,3.3069266009988496e-06,-2.2123958842712454e-06,2.6259363039571326e-07,0.0002666073269210756,0.00026745061040855944,-0.00010424456559121609,-0.0017353348666802049,0.004204466938972473,-0.00012828223407268524,-0.3773067593574524,0.6864529848098755,0.49741923809051514,0.13035574555397034,-0.03616074472665787,-5.317956924438477,0.3493815064430237,0.7317524552345276,0.42000001668930054,-0.7474830746650696,3.0000014305114746,-0.5532958507537842,-3.0000007152557373,-0.12681983411312103,-0.13390055298805237,-0.14058557152748108,-0.14577266573905945,-1.0239670276641846,-1.0181905031204224,-1.0137659311294556,-1.0102133750915527
0.3,0.07982193678617477,0.11365708708763123,0.0,0.9114082455635071,0.0,0.0,-0.411503404378891,-0.44702738523483276,-0.10933969169855118,0.0,0.0,0.0,-0.9574998617172241,-0.35100826621055603,0.6866183280944824,0.4200000464916229,1.0,3.6563528738042805e-06,-2.2967849417909747e-06,-2.449458236242208e-07,0.00026532975607551634,0.00026595438248477876,-0.0001038478221744299,-0.0017164659220725298,0.004181908909231424,-0.00012746590073220432,-0.36714327335357666,0.6850934028625488,0.4114573001861572,1.00542151927948,-0.18738481402397156,-4.942379474639893,0.3493815064430237,0.7317524552345276,0.42000001668930054,-0.6974759101867676,2.999999761581421,-0.6033225059509277,-2.9999992847442627,-0.14454999566078186,-0.15137489140033722,-0.1578661948442459,-0.1628999561071396,-1.008169412612915,-1.0062090158462524,-1.0047039985656738,-1.0034903287887573
0.31666666666666665,0.07188056409358978,0.10964880883693695,0.0,0.9172379374504089,0.0,0.0,-0.39833977818489075,-0.49449867010116577,-0.2963413894176483,0.0,0.0,0.0,2.551562547683716,-0.350820392370224,0.6858831644058228,0.4202106297016144,0.9998894929885864,0.005289196502417326,-7.569287117803469e-05,-0.01388697698712349,0.013001056388020515,0.0026523740962147713,-0.010632677003741264,-0.5360479950904846,0.017287570983171463,-0.16623203456401825,-0.36637628078460693,0.6868554353713989,0.4256513714790344,-0.0015358701348304749,0.026415470987558365,-0.22530998289585114,0.3493815064430237,0.7317524552345276,0.42000001668930054,-0.6475059390068054,2.9999895095825195,-0.6538485288619995,-3.0000016689300537,-0.14498530328273773,-0.15277452766895294,-0.1598510593175888,-0.1650434285402298,-0.10243939608335495,-0.1325789988040924,-0.1469699591398239,-0.14598442614078522
0.3333333333333333,0.062119368463754654,0.10307756066322327,0.0,0.9161858558654785,0.0,0.0,-0.40075361728668213,-0.6261461973190308,-0.4348401427268982,0.0,0.0,0.0,-1.2673152685165405,-0.35073697566986084,0.6859797835350037,0.4200000762939453,0.9998725056648254,1.9317863575452066e-07,-1.4491347428702284e-06,-0.015968017280101776,0.00037155725294724107,-0.002707905601710081,-4.2552012018859386e-05,-0.0002725356025621295,0.0028675647918134928,-0.02044720947742462,-0.3629154562950134,0.6892123222351074,0.4225476384162903,0.38249170780181885,0.3316730856895447,-0.16367532312870026,0.3493815064430237,0.7317524552345276,0.42000001668930054,-0.5974999666213989,2.999988317489624,-0.703891396522522,-2.999999523162842,-0.14827603101730347,-0.1561131626367569,-0.16298484802246094,-0.16777287423610687,-0.2504426836967468,-0.23261848092079163,-0.2016194760799408,-0.16283394396305084
0.35,0.050242986530065536,0.09423328936100006,0.0,0.9212532639503479,0.0,0.0,-0.3889632821083069,-0.7540879845619202,-0.5698078274726868,0.0,0.0,0.0,2.4430465698242188,-0.34565702080726624,0.6920214891433716,0.4203032851219177,0.9987614154815674,0.007633181754499674,-0.00035409911652095616,-0.049163781106472015,0.4955877661705017,0.5790789723396301,-0.005089897662401199,-0.2574775218963623,0.013534925878047943,-6.5571136474609375,-0.3553459048271179,0.6962453126907349,0.41993528604507446,0.5547075271606445,0.5142551064491272,-0.1278722882270813,0.3493815064430237,0.7317524552345276,0.42000001668930054,-0.5474934577941895,2.999962329864502,-0.7539196610450745,-2.9999823570251465,-0.1540638953447342,-0.16083410382270813,-0.16640739142894745,-0.16979753971099854,-0.37462344765663147,-0.28369563817977905,-0.17841823399066925,-0.06832518428564072
0.36666666666666664,0.04127905145287514,0.08279368281364441,0.0,0.9198986291885376,0.0,0.0,-0.3921562135219574,-0.4578513503074646,-0.733240008354187,0.0,0.0,0.0,-1.3461384773254395,-0.33892449736595154,0.699017345905304,0.4200000762939453,0.988835871219635,3.7945994790788973e-07,4.717304818768753e-06,-0.1490088552236557,0.38678303360939026,0.3946766257286072,-5.05056232213974e-06,-0.00015307340072467923,-0.00026929713203571737,-11.912766456604004,-0.3447520136833191,0.7033311128616333,0.4209330081939697,0.824126660823822,0.480648934841156,0.0700187236070633,0.3493815064430237,0.7317524552345276,0.42000001668930054,-0.49744486808776855,2.9999983310699463,-0.803924024105072,-2.9999735355377197,-0.16157032549381256,-0.16618764400482178,-0.16932031512260437,-0.17017227411270142,-0.4526000916957855,-0.30305278301239014,-0.13629664480686188,0.03518795594573021
0.3833333333333333,0.030162550508975983,0.06978848576545715,0.0,0.9061239361763,0.0,0.0,-0.4230123460292816,-0.7418943643569946,-0.8066078424453735,0.0,0.0,0.0,-4.993882179260254,-0.3248806893825531,0.7116764783859253,0.42071008682250977,0.9684767723083496,-0.01729343645274639,0.004040777217596769,-0.24846966564655304,1.2088371515274048,1.0413672924041748,0.09499726444482803,-4.275699615478516,2.135427951812744,-6.665759086608887,-0.3272221088409424,0.7142254114151001,0.42247748374938965,1.3174105882644653,0.8908507823944092,0.12311547994613647,0.3493815064430237,0.7317524552345276,0.42000001668930054,-0.44739967584609985,2.9999771118164062,-0.8539353013038635,-2.9999773502349854,-0.171132892370224,-0.17272096872329712,-0.17250972986221313,-0.16993121802806854,-0.5475861430168152,-0.3607216775417328,-0.15378530323505402,0.05933360382914543
0.4,0.022096851840615273,0.05391180142760277,0.0,0.8782839179039001,0.0,0.0,-0.4781394302845001,-0.43299436569213867,-0.9991030693054199,0.0,0.0,0.0,-8.197399139404297,-0.2927855849266052,0.7332035303115845,0.4232242703437805,0.9506919384002686,-0.04084191098809242,-0.008497723378241062,-0.3073180913925171,2.7332334518432617,1.5209342241287231,0.13938328623771667,31.646202087402344,-22.198566436767578,3.9936578273773193,-0.2946648597717285,0.7356878519058228,0.4246528148651123,2.5611300468444824,1.580564260482788,0.37989577651023865,0.3493815064430237,0.7317524552345276,0.42000001668930054,-0.39998072385787964,2.193169593811035,-0.9039579629898071,-3.0000011920928955,-0.179630845785141,-0.17808400094509125,-0.1744062453508377,-0.16826362907886505,-0.5534363985061646,-0.34827712178230286,-0.12627065181732178,0.09805657714605331
0.4166666666666667,0.016842026263475418,0.04166102409362793,0.0,0.8339443206787109,0.0,0.0,-0.5518486499786377,-0.2384238988161087,-0.7168001532554626,0.0,0.0,0.0,-11.017683029174805,-0.22403669357299805,0.7653235197067261,0.42676690220832825,0.9289116263389587,0.020398901775479317,-0.056782931089401245,-0.3653530180454254,5.511806011199951,1.6409387588500977,0.33093497157096863,9.981337547302246,-10.989842414855957,26.817554473876953,-0.22563782334327698,0.7675580382347107,0.4285164475440979,5.256927490234375,2.3974626064300537,0.2827664315700531,0.3493815064430237,0.7317524552345276,0.42000001668930054,-0.37849318981170654,0.9773964881896973,-0.8668901324272156,2.997358560562134,-0.19311726093292236,-0.18775112926959991,-0.17946773767471313,-0.16896966099739075,-0.6749595999717712,-0.5177303552627563,-0.2793103754520416,-0.06181437522172928
0.43333333333333335,0.015396090224385262,0.03235173970460892,0.0,0.798141360282898,0.0,0.0,-0.6024702191352844,-0.03338507190346718,-0.49884796142578125,0.0,0.0,0.0,-6.304524898529053,-0.13735464215278625,0.8028280735015869,0.43398308753967285,0.8926120400428772,0.05619082599878311,-0.08688466250896454,-0.43879082798957825,5.461517810821533,1.5921441316604614,0.5616671442985535,7.886175155639648,-12.729998588562012,9.197491645812988,-0.1386958658695221,0.8058145046234131,0.4353930354118347,5.315337657928467,2.022012710571289,0.4966893792152405,0.3493815064430237,0.7317524552345276,0.42000001668930054,-0.3619648516178131,1.041648030281067,-0.8932204842567444,-3.000002145767212,-0.20340712368488312,-0.19590307772159576,-0.1845431625843048,-0.17139732837677002,-0.5644592642784119,-0.44818729162216187,-0.29454657435417175,-0.169993057847023
0.45,0.011914588510990143,0.028129780665040016,0.0,0.7831372618675232,0.0,0.0,-0.6218488812446594,-0.2153766006231308,-0.19268867373466492,0.0,0.0,0.0,-1.646569013595581,-0.04941071569919586,0.8269946575164795,0.4432294964790344,0.8239656686782837,0.0785684809088707,-0.09924054890871048,-0.5523212552070618,5.116905212402344,0.29054874181747437,0.5387345552444458,-15.219697952270508,0.6730232238769531,7.326590538024902,-0.05198852717876434,0.8301512002944946,0.4434164762496948,5.283258438110352,1.0635970830917358,0.619492769241333,0.3493815064430237,0.7317524552345276,0.42000001668930054,-0.34322869777679443,1.067253589630127,-0.943244457244873,-2.9999992847442627,-0.21550630033016205,-0.20532719790935516,-0.19094491004943848,-0.1753254383802414,-0.6670438051223755,-0.5171065926551819,-0.3562372028827667,-0.22570955753326416
0.4666666666666667,0.01207867544144392,0.018971692770719528,0.0,0.7602227926254272,0.0,0.0,-0.649662435054779,-0.005689175333827734,-0.5853866934776306,0.0,0.0,0.0,-5.066473484039307,0.03585835546255112,0.8343245983123779,0.4486237168312073,0.7610366344451904,0.06731618195772171,-0.11103677749633789,-0.6355805397033691,5.077310085296631,-0.5096699595451355,0.43037497997283936,-4.362093925476074,-13.601593971252441,8.636587142944336,0.0322505347430706,0.8394967317581177,0.44975847005844116,4.877144813537598,-0.053325921297073364,0.36609116196632385,0.3493815064430237,0.7317524552345276,0.42000001668930054,-0.326566219329834,0.8202329874038696,-0.9932684898376465,-3.000002384185791,-0.22173449397087097,-0.20936959981918335,-0.19264686107635498,-0.1750268191099167,-0.46108320355415344,-0.2801997661590576,-0.09703768044710159,0.06654392182826996
0.48333333333333334,0.009851912036538124,0.01488802582025528,0.0,0.7494543194770813,0.0,0.0,-0.662056028842926,-0.1501789689064026,-0.1968253254890442,0.0,0.0,0.0,-0.652514636516571,0.11327889561653137,0.8284465074539185,0.4538966119289398,0.7154670357704163,0.05114659667015076,-0.09739851206541061,-0.68993079662323,4.183321475982666,-1.2088598012924194,0.23099122941493988,-7.816481113433838,-4.120677947998047,21.90105628967285,0.11098605394363403,0.8332428932189941,0.4553779363632202,4.690169334411621,-0.5605258345603943,0.35807111859321594,0.3493815064430237,0.7317524552345276,0.42000001668930054,-0.3127714991569519,0.6820021271705627,-1.0432908535003662,-3.0000014305114746,-0.23231704533100128,-0.21662230789661407,-0.19683000445365906,-0.1766131967306137,-0.45557963848114014,-0.3222354054450989,-0.20879626274108887,-0.1186317428946495
0.5,0.009993419051170349,0.00824728049337864,0.0,0.7317885160446167,0.0,0.0,-0.6815317869186401,0.06583400070667267,-0.47270095348358154,0.0,0.0,0.0,-3.861233949661255,0.18235397338867188,0.814983606338501,0.4542316794395447,0.670782744884491,0.03989433869719505,-0.08569132536649704,-0.735605776309967,3.446925163269043,-1.6570467948913574,-0.1142236515879631,-6.921732425689697,-3.418386936187744,19.754323959350586,0.1802527904510498,0.8202965259552002,0.45620590448379517,3.900510311126709,-1.1056221723556519,-0.045396026223897934,0.3493815064430237,0.7317524552345276,0.42000001668930054,-0.30134621262550354,0.6381762027740479,-1.0933129787445068,-3.0000016689300537,-0.2364090234041214,-0.21911151707172394,-0.19805964827537537,-0.17686279118061066,-0.2620904743671417,-0.1526818424463272,-0.06867251545190811,3.191135533597844e-08
0.5166666666666666,0.012844698503613472,0.004849827848374844,0.0,0.7269969582557678,0.0,0.0,-0.6866406202316284,0.20121155679225922,-0.16943112015724182,0.0,0.0,0.0,0.12480825930833817,0.23827901482582092,0.793647050857544,0.4493847191333771,0.6290636658668518,0.007358774542808533,-0.0816902220249176,-0.7730145454406738,2.733734607696533,-1.6741211414337158,-0.38241589069366455,-1.6530523300170898,0.7053444385528564,10.773673057556152,0.23621436953544617,0.798674464225769,0.4523821771144867,3.075651168823242,-1.4037034511566162,-0.3519692122936249,0.3493815064430237,0.7317524552345276,0.42000001668930054,-0.2883308529853821,0.8610869646072388,-1.1433351039886475,-3.0000011920928955,-0.2399381697177887,-0.22250838577747345,-0.20041389763355255,-0.1784633994102478,-0.00987799558788538,-0.07747278362512589,-0.07559449970722198,-0.08632879704236984
0.5333333333333333,0.016814034432172775,0.004581158515065908,0.0,0.7142267823219299,0.0,0.0,-0.6999143362045288,0.28958749771118164,0.04400800168514252,0.0,0.0,0.0,-3.0836918354034424,0.2832810878753662,0.7736575603485107,0.43742161989212036,0.6025363206863403,-0.016807371750473976,-0.06697739660739899,-0.7950983047485352,2.045353889465332,-1.5470598936080933,-0.8382986783981323,-3.5217785835266113,1.5766475200653076,19.383880615234375,0.2815769910812378,0.7780215740203857,0.44075828790664673,2.531602382659912,-1.200404167175293,-0.8493665456771851,0.3493815064430237,0.7317524552345276,0.42000001668930054,-0.27252599596977234,0.8720180988311768,-1.193357229232788,-3.0,-0.2372545599937439,-0.2220524251461029,-0.20125845074653625,-0.18064521253108978,0.26658934354782104,0.10445892065763474,-0.020110338926315308,-0.14351539313793182
0.55,0.023991694673895836,-0.00017530879995319992,0.0,0.7130910158157349,0.0,0.0,-0.7010714411735535,0.40282440185546875,-0.2873344123363495,0.0,0.0,0.0,0.724393904209137,0.31597763299942017,0.753948986530304,0.4219655990600586,0.6129621863365173,-0.014377200976014137,-0.032933905720710754,-0.7892945408821106,0.9190173149108887,-1.9636976718902588,-0.34191301465034485,17.88229751586914,-1.9532190561294556,41.24034881591797,0.3167327046394348,0.758383572101593,0.42441707849502563,1.7115232944488525,-1.127671241760254,-0.9145822525024414,0.3493815064430237,0.7317524552345276,0.42000001668930054,-0.2560104727745056,0.4563022255897522,-1.2433793544769287,-3.000002384185791,-0.2280973345041275,-0.21619880199432373,-0.19837337732315063,-0.18066628277301788,0.45502811670303345,0.28867384791374207,0.12330245226621628,-0.04237475246191025
0.5666666666666667,0.02829073928296566,-0.0005970881320536137,0.0,0.7025998830795288,0.0,0.0,-0.7115851640701294,0.23876258730888367,0.026567403227090836,0.0,0.0,0.0,-2.582101583480835,0.3329611122608185,0.7460534572601318,0.4217265248298645,0.6005793213844299,-0.0059606595896184444,-0.02927262708544731,-0.7990068793296814,0.4257206320762634,-0.8398767113685608,0.024262137711048126,3.20485520362854,-8.005934715270996,26.800933837890625,0.330940306186676,0.749068021774292,0.4242832362651825,0.8136110305786133,-0.5070859789848328,-0.12459471821784973,0.3493815064430237,0.7317524552345276,0.42000001668930054,-0.25242120027542114,-0.028294498100876808,-1.2048321962356567,2.9901492595672607,-0.21970829367637634,-0.21125267446041107,-0.19686824083328247,-0.18239477276802063,0.49288326501846313,0.2864931523799896,0.06973221153020859,-0.13371802866458893
0.5833333333333334,0.03054181858897209,-0.001441804924979806,0.0,0.7040643692016602,0.0,0.0,-0.7101361751556396,0.0698583796620369,-0.028525691479444504,0.0,0.0,0.0,0.9824370741844177,0.34026551246643066,0.738838791847229,0.42093220353126526,0.611107349395752,-0.010526265017688274,-0.015315936878323555,-0.7913295030593872,0.27370068430900574,-0.40171095728874207,-0.028836514800786972,0.6341787576675415,0.6048848628997803,-2.9451677799224854,0.33769914507865906,0.7415420413017273,0.42503952980041504,0.15805351734161377,-0.4307273030281067,0.10837383568286896,0.3493815064430237,0.7317524552345276,0.42000001668930054,-0.2547992765903473,-0.1832418441772461,-1.2259917259216309,-2.999464273452759,-0.21036258339881897,-0.2052212506532669,-0.19443833827972412,-0.1833128035068512,0.4900907576084137,0.32200300693511963,0.12774378061294556,-0.05361694097518921
0.6,0.033518847078084946,-0.001679896260611713,0.0,0.6955642104148865,0.0,0.0,-0.7184639573097229,0.22879937291145325,0.002613549819216132,0.0,0.0,0.0,-2.3177757263183594,0.34339019656181335,0.734127402305603,0.42000341415405273,0.5876904129981995,-6.113020936027169e-05,0.00013585657870862633,-0.8090858459472656,0.18962407112121582,-0.11066539585590363,-0.0023080026730895042,0.11908847838640213,0.007863281294703484,0.47959861159324646,0.33963409066200256,0.7384004592895508,0.4236479103565216,0.14651769399642944,-0.08356818556785583,-0.08935637772083282,0.3493815064430237,0.7317524552345276,0.42000001668930054,-0.2582923173904419,-0.25988703966140747,-1.1879459619522095,2.999107599258423,-0.2010980248451233,-0.19906960427761078,-0.19184598326683044,-0.18397903442382812,0.6308310627937317,0.436038613319397,0.21192413568496704,0.00786686036735773
0.6166666666666667,0.03859091177582741,-0.004230615682899952,0.0,0.6984768509864807,0.0,0.0,-0.7156326770782471,0.3407028615474701,-0.2295486181974411,0.0,0.0,0.0,1.3079367876052856,0.34565305709838867,0.7328043580055237,0.4200000464916229,0.5895969867706299,-4.185440971582466e-08,-1.2695663542672264e-07,-0.8076974749565125,0.11808716505765915,-0.06892939656972885,-1.4968682080507278e-06,6.0727579693775624e-05,-2.899624996643979e-05,0.23975396156311035,0.34004735946655273,0.7357056736946106,0.42461851239204407,-0.05148150399327278,-0.15131503343582153,0.11658382415771484,0.3493815064430237,0.7317524552345276,0.42000001668930054,-0.2987864315509796,-3.0000007152557373,-1.209316372871399,-2.9999754428863525,-0.1931503862142563,-0.19341328740119934,-0.18908099830150604,-0.18387055397033691,0.4281749427318573,0.318142831325531,0.16730454564094543,0.02677566558122635
0.6333333333333333,0.04596288129687309,-0.004152823705226183,0.0,0.6907057762145996,0.0,0.0,-0.7231358885765076,0.4771370589733124,0.028506308794021606,0.0,0.0,0.0,-2.139770269393921,0.34674593806266785,0.7321648001670837,0.4200000464916229,0.5902892351150513,-2.630702340411517e-07,2.467069180056569e-07,-0.807191789150238,0.047526437789201736,-0.027691157534718513,-2.759275957942009e-06,3.004165228048805e-05,-9.47947773966007e-05,0.07151823490858078,0.3395557105541229,0.736967921257019,0.42702382802963257,0.00977269932627678,0.19179128110408783,0.18494069576263428,0.3493815064430237,0.7317524552345276,0.42000001668930054,-0.3487708568572998,-2.9981796741485596,-1.2592748403549194,-2.9990639686584473,-0.18660877645015717,-0.18869534134864807,-0.1867637187242508,-0.18368475139141083,0.5043591856956482,0.3800167143344879,0.2259836345911026,0.09285163134336472
0.65,0.05545023828744888,-0.007306036539375782,0.0,0.6948044300079346,0.0,0.0,-0.7191987037658691,0.5909387469291687,-0.23399430513381958,0.0,0.0,0.0,1.5435776710510254,0.3468506336212158,0.7321029901504517,0.4199998378753662,0.5903317928314209,-2.2858555439597694e-06,9.727664291858673e-06,-0.8071606159210205,-0.0004289189528208226,0.00045841652899980545,-0.0001154730562120676,-0.0004694754316005856,-0.00823881570249796,-0.0008028530282899737,0.33750614523887634,0.7382522225379944,0.43221402168273926,-0.26931777596473694,-0.03559751436114311,0.484186589717865,0.3493815064430237,0.7317524552345276,0.42000001668930054,-0.3987849950790405,-3.000000238418579,-1.3092933893203735,-2.999999761581421,-0.1791595071554184,-0.18246370553970337,-0.18220946192741394,-0.18047580122947693,0.277626633644104,0.26670965552330017,0.22886469960212708,0.20793898403644562
0.6666666666666666,0.06678443402051926,-0.007307153195142746,0.0,0.6878679990768433,0.0,0.0,-0.7258358001708984,0.70814049243927,0.029168978333473206,0.0,0.0,0.0,-2.0578675270080566,0.3466748297214508,0.7320932745933533,0.4199995696544647,0.5880163908004761,5.4493903007823974e-05,-3.0024710213183425e-05,-0.8088489174842834,0.0034725640434771776,-0.0025185898412019014,-0.0017556998645886779,0.05717607960104942,0.0702195018529892,0.0058602155186235905,0.33694982528686523,0.7382514476776123,0.4385337233543396,0.20223087072372437,0.011072453111410141,0.43065449595451355,0.3493815064430237,0.7317524552345276,0.42000001668930054,-0.4487987458705902,-3.000000238418579,-1.3593116998672485,-3.000000238418579,-0.17601196467876434,-0.17928892374038696,-0.17931920289993286,-0.17750652134418488,0.23693978786468506,0.23738569021224976,0.22593538463115692,0.2402987778186798
0.6833333333333333,0.08018366247415543,-0.011157053522765636,0.0,0.6601503491401672,0.0,0.0,-0.7511334419250488,0.8393312096595764,-0.27314260601997375,0.0,0.0,0.0,-5.316866397857666,0.346679151058197,0.7320951819419861,0.41999998688697815,0.5880153775215149,-3.2158754947886337e-06,-4.275987066648668e-06,-0.8088496327400208,7.008848115219735e-06,-0.00036152484244666994,-0.00010927650146186352,0.008674588985741138,-0.0032436519395560026,-0.0005718491738662124,0.34408390522003174,0.7400107979774475,0.4530556797981262,0.6224367618560791,0.0934586375951767,1.4359616041183472,0.3493815064430237,0.7317524552345276,0.42000001668930054,-0.498811811208725,-2.999967575073242,-1.4093300104141235,-2.999999761581421,-0.17244799435138702,-0.17552784085273743,-0.1755479872226715,-0.17334069311618805,0.039490122348070145,0.09164554625749588,0.13082106411457062,0.18718446791172028
0.7,0.09111884236335754,-0.011790638789534569,0.0,0.646041989326477,0.0,0.0,-0.7633018493652344,0.5838044881820679,-0.03222135081887245,0.0,0.0,0.0,-1.1860281229019165,0.346679151058197,0.7320951223373413,0.41999998688697815,0.588015079498291,-2.6454492854099954e-06,-4.417027412273455e-06,-0.8088499307632446,3.277774521848187e-05,-0.00035601959098130465,-9.86163504421711e-05,0.008637525141239166,-0.0030261408537626266,-0.0006181226344779134,0.3559116721153259,0.7441644668579102,0.48264750838279724,0.8328258991241455,0.4603506922721863,2.053446054458618,0.3493815064430237,0.7317524552345276,0.42000001668930054,-0.5419800281524658,-2.2143454551696777,-1.4593483209609985,-3.0,-0.17411373555660248,-0.17627759277820587,-0.17565830051898956,-0.17264454066753387,0.02444879338145256,0.02868977189064026,0.017467457801103592,0.015536696650087833
0.7166666666666667,0.0977310910820961,-0.010127275250852108,0.0,0.6557176113128662,0.0,0.0,-0.7550061941146851,0.33056268095970154,0.15002043545246124,0.0,0.0,0.0,2.3710744380950928,0.346679151058197,0.7320951223373413,0.41999998688697815,0.5880153179168701,-2.745337496889988e-06,-4.308156803745078e-06,-0.8088496923446655,3.0813185730949044e-05,-0.00035612573265098035,-9.918608702719212e-05,0.008637893944978714,-0.003044640878215432,-0.0006144366343505681,0.37068670988082886,0.750838577747345,0.5095052123069763,0.8456413745880127,0.36699962615966797,1.2514567375183105,0.3493815064430237,0.7317524552345276,0.42000001668930054,-0.5521260499954224,0.7460039258003235,-1.5093666315078735,-3.0,-0.17339497804641724,-0.1753484457731247,-0.17479072511196136,-0.17176441848278046,0.08767881244421005,0.10483275353908539,0.10350936651229858,0.10129930078983307
0.7333333333333333,0.1005261093378067,-0.011995119974017143,0.0,0.6529648900032043,0.0,0.0,-0.757388174533844,0.11649283766746521,-0.2007567435503006,0.0,0.0,0.0,-1.3302159309387207,0.34667912125587463,0.7320951223373413,0.41999998688697815,0.5880154967308044,-2.598102582851425e-06,-4.267203621566296e-06,-0.8088496327400208,3.3158561564050615e-05,-0.0003564758226275444,-9.854836389422417e-05,0.008652511984109879,-0.0030297476332634687,-0.0006198318442329764,0.37775516510009766,0.7555639743804932,0.5233956575393677,0.024924682453274727,0.20573601126670837,0.6031023263931274,0.3493815064430237,0.7317524552345276,0.42000001668930054,-0.5453301072120667,0.11739762127399445,-1.4706133604049683,2.9999992847442627,-0.17130517959594727,-0.1728094220161438,-0.17215372622013092,-0.169143408536911,0.1370968371629715,0.17665033042430878,0.1919204145669937,0.19421900808811188
0.75,0.09980767965316772,-0.008798624388873577,0.0,0.6617236733436584,0.0,0.0,-0.7497478127479553,-0.059140391647815704,0.16502591967582703,0.0,0.0,0.0,2.102599620819092,0.34667912125587463,0.7320951223373413,0.41999998688697815,0.5880154371261597,-2.5937933969544247e-06,-4.439735675987322e-06,-0.8088496327400208,3.313522393000312e-05,-0.00035633370862342417,-9.853369556367397e-05,0.008647430688142776,-0.003021099604666233,-0.0006193147273734212,0.3771021366119385,0.7558223009109497,0.5314384698867798,0.029390640556812286,0.05755981057882309,0.3534362018108368,0.3493815064430237,0.7317524552345276,0.42000001668930054,-0.5424723625183105,0.2164575308561325,-1.4873571395874023,-3.000000476837158,-0.1748582273721695,-0.17452199757099152,-0.17254462838172913,-0.16861596703529358,-0.020120635628700256,0.036017999053001404,0.06655113399028778,0.07724972069263458
0.7666666666666666,0.10054909437894821,-0.009305457584559917,0.0,0.6572423577308655,0.0,0.0,-0.7536792755126953,0.06124785169959068,-0.05909352004528046,0.0,0.0,0.0,-1.6560356616973877,0.34667912125587463,0.7320951223373413,0.41999998688697815,0.5880155563354492,-2.600063908175798e-06,-4.434988568391418e-06,-0.8088495135307312,3.314682544441894e-05,-0.00035636412212625146,-9.853416122496128e-05,0.008648325689136982,-0.0030217794701457024,-0.0006194071611389518,0.3745006024837494,0.7563874125480652,0.5291880965232849,-0.32429826259613037,-0.05063183233141899,-0.4251061975955963,0.3493815064430237,0.7317524552345276,0.42000001668930054,-0.5486359596252441,-0.857089102268219,-1.4486653804779053,3.0,-0.17433594167232513,-0.1732032150030136,-0.17083191871643066,-0.1668497622013092,-0.014510111883282661,0.04618413373827934,0.0821492001414299,0.09493937343358994
0.7833333333333333,0.10338817536830902,-0.009891686029732227,0.0,0.6633319854736328,0.0,0.0,-0.7483252286911011,0.20933881402015686,-0.0579037070274353,0.0,0.0,0.0,1.7677538394927979,0.346679151058197,0.7320951223373413,0.41999998688697815,0.5880153179168701,-2.6786256057675928e-06,-4.6940349420765415e-06,-0.8088497519493103,3.0216178856790066e-05,-0.00035588344326242805,-9.940075688064098e-05,0.008627197705209255,-0.003043967531993985,-0.0006125824293121696,0.3716527223587036,0.7534916996955872,0.5243271589279175,-0.016399936750531197,-0.21496319770812988,-0.12488822638988495,0.3493815064430237,0.7317524552345276,0.42000001668930054,-0.5827797055244446,-2.9999964237213135,-1.4658681154251099,-2.999999523162842,-0.17568062245845795,-0.1732938140630722,-0.16995154321193695,-0.16529574990272522,-0.03558782488107681,0.029581015929579735,0.08562112599611282,0.1304277628660202
0.8,0.10817480832338333,-0.013101864606142044,0.0,0.6578165888786316,0.0,0.0,-0.7531781792640686,0.328042596578598,-0.26316073536872864,0.0,0.0,0.0,-1.7269023656845093,0.346679151058197,0.7320951223373413,0.41999998688697815,0.5880154371261597,-2.594083980511641e-06,-4.4437983888201416e-06,-0.8088496327400208,3.485323395580053e-05,-0.00035665385075844824,-9.806756861507893e-05,0.008660970255732536,-0.0030162797775119543,-0.0006236876361072063,0.37574318051338196,0.7480497360229492,0.5184723138809204,0.48420625925064087,-0.4493124783039093,-0.39632484316825867,0.3493815064430237,0.7317524552345276,0.42000001668930054,-0.6327808499336243,-2.9999945163726807,-1.5158864259719849,-3.0,-0.17704463005065918,-0.17329318821430206,-0.16861864924430847,-0.16273072361946106,-0.07188193500041962,0.020820125937461853,0.11655924469232559,0.20994733273983002
0.8166666666666667,0.11571019142866135,-0.015074641443789005,0.0,0.6316327452659607,0.0,0.0,-0.7752677202224731,0.5001999735832214,-0.021990155801177025,0.0,0.0,0.0,-4.901736736297607,0.346679151058197,0.7320951223373413,0.41999998688697815,0.5880151987075806,-2.726183993218001e-06,-4.449155767360935e-06,-0.8088498115539551,3.30796574417036e-05,-0.0003564589424058795,-9.866873733699322e-05,0.008648996241390705,-0.0030309855937957764,-0.0006196213071234524,0.3858723044395447,0.7410798072814941,0.5176737308502197,0.7491722106933594,-0.36677658557891846,0.40347909927368164,0.3493815064430237,0.7317524552345276,0.42000001668930054,-0.682786762714386,-2.9999942779541016,-1.5659047365188599,-2.999999761581421,-0.1789005994796753,-0.17400623857975006,-0.16804343461990356,-0.16081878542900085,-0.08692599087953568,-0.045963261276483536,0.008641373366117477,0.07086993753910065
0.8333333333333334,0.12552596628665924,-0.012929296121001244,0.0,0.6204755902290344,0.0,0.0,-0.7842257618904114,0.6231425404548645,0.192816823720932,0.0,0.0,0.0,-0.7227147817611694,0.346679151058197,0.7320951223373413,0.41999998688697815,0.5880154967308044,-2.7527007659955416e-06,-4.334681307227584e-06,-0.8088496923446655,3.0992778192739934e-05,-0.00035617229877971113,-9.913835674524307e-05,0.008639776147902012,-0.003043956123292446,-0.0006149002001620829,0.39681389927864075,0.7406564950942993,0.5278224945068359,0.554172158241272,0.24043338000774384,0.805734395980835,0.3493815064430237,0.7317524552345276,0.42000001668930054,-0.6987146735191345,0.7746439576148987,-1.6159230470657349,-3.0,-0.17918799817562103,-0.17452958226203918,-0.1686047464609146,-0.16130733489990234,0.05204201489686966,-0.00563458539545536,-0.055206406861543655,-0.10068920254707336
0.85,0.13209596276283264,-0.014121700078248978,0.0,0.6336923241615295,0.0,0.0,-0.7735852003097534,0.37488117814064026,-0.14404688775539398,0.0,0.0,0.0,2.7602102756500244,0.346679151058197,0.7320951223373413,0.41999998688697815,0.5880153775215149,-2.6774414436658844e-06,-4.3320301301719155e-06,-0.8088496327400208,3.348351310705766e-05,-0.00035650620702654123,-9.85320657491684e-05,0.008651748299598694,-0.00302739255130291,-0.0006206728285178542,0.4050089716911316,0.7470533847808838,0.537824273109436,0.39173388481140137,0.35784712433815,0.42633765935897827,0.3493815064430237,0.7317524552345276,0.42000001668930054,-0.6700000166893005,2.4999032020568848,-1.5768650770187378,2.999999761581421,-0.17376375198364258,-0.1706901490688324,-0.16624662280082703,-0.16037431359291077,0.22052744030952454,0.15750420093536377,0.09365037083625793,0.02562723308801651
0.8666666666666667,0.13545240461826324,-0.012905233539640903,0.0,0.6334421634674072,0.0,0.0,-0.7737900018692017,0.13550952076911926,0.1445549726486206,0.0,0.0,0.0,-0.937589704990387,0.346679151058197,0.7320951223373413,0.41999998688697815,0.588015615940094,-2.723236775636906e-06,-4.4135426833236124e-06,-0.8088495135307312,3.056124478462152e-05,-0.00035606365418061614,-9.926152415573597e-05,0.008635495789349079,-0.003046357072889805,-0.0006138507160358131,0.40608838200569153,0.7511314153671265,0.5419072508811951,-0.17058855295181274,0.2225782871246338,0.18822474777698517,0.3493815064430237,0.7317524552345276,0.42000001668930054,-0.6506428122520447,0.0217877384275198,-1.5268086194992065,2.999999761581421,-0.17325431108474731,-0.17072057723999023,-0.16686886548995972,-0.16170695424079895,0.0648980438709259,0.020785991102457047,-0.02532469667494297,-0.07691877335309982
0.8833333333333333,0.13564418256282806,-0.014098354615271091,0.0,0.6433834433555603,0.0,0.0,-0.765544056892395,-0.07079873234033585,-0.13187932968139648,0.0,0.0,0.0,2.1179206371307373,0.346679151058197,0.7320951223373413,0.41999998688697815,0.5880153775215149,-2.738998091444955e-06,-4.438029009179445e-06,-0.8088496327400208,3.0000157494214363e-05,-0.0003560811746865511,-9.941542521119118e-05,0.00863594375550747,-0.003054320579394698,-0.0006127177039161325,0.4037189483642578,0.7542534470558167,0.5429036021232605,-0.21968293190002441,0.16713979840278625,-0.029574893414974213,0.3493815064430237,0.7317524552345276,0.42000001668930054,-0.6396970748901367,1.1791760921478271,-1.542140007019043,-2.999999761581421,-0.17172595858573914,-0.1696699857711792,-0.16634498536586761,-0.1618068367242813,2.902233973145485e-07,-5.9371814131736755e-09,-0.004218804184347391,-0.016784315928816795
