vladlanda/robotic-transformer/data/env_000_episode_0135.csv
sim_time_s,robot_box_x,robot_box_y,robot_box_z,robot_box_quat_w,robot_box_quat_x,robot_box_quat_y,robot_box_quat_z,robot_box_linvel_x,robot_box_linvel_y,robot_box_linvel_z,robot_box_angvel_x,robot_box_angvel_y,robot_box_angvel_z,cube_world_x,cube_world_y,cube_world_z,cube_quat_w,cube_quat_x,cube_quat_y,cube_quat_z,cube_linvel_x,cube_linvel_y,cube_linvel_z,cube_angvel_x,cube_angvel_y,cube_angvel_z,endpoint_world_x,endpoint_world_y,endpoint_world_z,endpoint_linvel_x,endpoint_linvel_y,endpoint_linvel_z,target_cube_world_x,target_cube_world_y,target_cube_world_z,gripper_actual_pos_rad_gp_leftgearjoint,gripper_actual_vel_rad_s_gp_leftgearjoint,gripper_actual_pos_rad_gp_rotatingjoint,gripper_actual_vel_rad_s_gp_rotatingjoint,motor_angle_rad_joint1,motor_angle_rad_joint2,motor_angle_rad_joint3,motor_angle_rad_joint4,motor_speed_rad_s_joint1,motor_speed_rad_s_joint2,motor_speed_rad_s_joint3,motor_speed_rad_s_joint4
0.0,0.0,0.0,0.0,1.0,0.0,0.0,0.0,0.0,0.0,0.0,0.0,0.0,0.0,-0.3862578272819519,0.753473699092865,0.41999998688697815,1.0,0.0,0.0,0.0,0.0,0.0,0.0,0.0,0.0,0.0,3.42540442943573e-06,-0.005000244826078415,1.313499927520752,0.0,0.0,0.0,0.45668038725852966,0.6389611959457397,0.42000001668930054,-1.5707999467849731,0.0,0.0,0.0,0.0,0.0,0.0,0.0,0.0,0.0,0.0,0.0
0.016666666666666666,0.0028798801358789206,0.002178347669541836,0.0,0.99981290102005,0.0,0.0,0.019342293962836266,0.24093252420425415,0.18232321739196777,0.0,0.0,0.0,3.1418216228485107,-0.38625794649124146,0.7534734010696411,0.41999998688697815,1.0,3.279964630564791e-06,-8.339746386809566e-07,8.465587342243452e-08,-1.9833529222523794e-05,0.00017983045836444944,-6.132945418357849e-05,0.0009432713268324733,-0.004689474124461412,-0.00031981561915017664,-0.00710936076939106,0.003385567804798484,1.3159379959106445,-0.814121425151825,0.9871056079864502,0.1809595376253128,0.45668038725852966,0.6389611959457397,0.42000001668930054,-1.5301095247268677,3.000002384185791,-0.045848503708839417,-3.0000014305114746,0.000869930547196418,0.0007965892436914146,0.0007111522136256099,0.0006110102403908968,0.11094475537538528,0.09758281707763672,0.0833602175116539,0.06825459748506546
0.03333333333333333,0.008963607251644135,0.006798460613936186,0.0,0.9998009204864502,0.0,0.0,0.019952572882175446,0.40707120299339294,0.31523793935775757,0.0,0.0,0.0,-0.8690722584724426,-0.386258065700531,0.7534733414649963,0.4200000464916229,1.0,3.3908477234945167e-06,-2.1324151475710096e-06,-3.7116176798690503e-08,0.00026357846218161285,0.0002693776914384216,-0.00010509602725505829,-0.0017706857761368155,0.004130810499191284,-0.0001354778796667233,-0.026950042694807053,0.026339005678892136,1.316666603088379,-1.523612141609192,1.6207020282745361,-0.07648209482431412,0.45668038725852966,0.6389611959457397,0.42000001668930054,-1.4800902605056763,3.000000476837158,-0.09588833898305893,-3.0000011920928955,0.00292520341463387,0.0025646090507507324,0.0021662802901118994,0.0017269165255129337,0.15633688867092133,0.12952162325382233,0.10121126472949982,0.07132501900196075
0.05,0.01847795955836773,0.01390866469591856,0.0,0.9999741911888123,0.0,0.0,-0.007187440991401672,0.6363717317581177,0.4725721776485443,0.0,0.0,0.0,-4.072365760803223,-0.3862580955028534,0.7534734010696411,0.4200000464916229,1.0,3.7651484490197618e-06,-2.211842684118892e-06,5.60227420010051e-09,0.00026531011098995805,0.000266915129031986,-0.0001044049859046936,-0.0017243394395336509,0.004177437163889408,-0.00012949485972058028,-0.05472584068775177,0.0579824298620224,1.3124756813049316,-1.819199800491333,2.1003494262695312,-0.41535794734954834,0.45668038725852966,0.6389611959457397,0.42000001668930054,-1.4300719499588013,3.0,-0.1459270417690277,-3.000000476837158,0.005689692683517933,0.004765443038195372,0.0037688580341637135,0.0026957765221595764,0.18512912094593048,0.14083623886108398,0.09461820870637894,0.046410009264945984
0.06666666666666667,0.030715350061655045,0.02341233752667904,0.0,0.9998733997344971,0.0,0.0,-0.015910878777503967,0.7743372321128845,0.616083025932312,0.0,0.0,0.0,-0.029398074373602867,-0.3862580955028534,0.7534733414649963,0.4200000464916229,0.9999999403953552,3.40674955623399e-06,-2.2855595034343423e-06,4.3007116801163647e-07,0.00026702447212301195,0.00026791708660311997,-0.0001043803058564663,-0.0017406379338353872,0.004211765248328447,-0.00012851084466092288,-0.0880967527627945,0.09226177632808685,1.3032714128494263,-2.0498385429382324,2.1685245037078857,-0.6756837964057922,0.45668038725852966,0.6389611959457397,0.42000001668930054,-1.380047082901001,3.0000007152557373,-0.12546406686306,3.0,0.007789295166730881,0.006035900209099054,0.00416971929371357,0.002186488127335906,0.10282278060913086,0.04329914227128029,-0.018390273675322533,-0.08229281008243561
0.08333333333333333,0.03677579015493393,0.036790166050195694,0.0,0.9992108941078186,0.0,0.0,-0.03971858322620392,0.2284880429506302,0.8761824369430542,0.0,0.0,0.0,-3.8014965057373047,-0.3862580955028534,0.7534733414649963,0.4200000464916229,0.9999999403953552,3.6261044442653656e-06,-2.33528248827497e-06,3.0319426969072083e-07,0.00026613858062773943,0.00026685057673603296,-0.00010405061766505241,-0.0017283286433666945,0.004196317866444588,-0.0001279078860534355,-0.11670252680778503,0.13250935077667236,1.2901670932769775,-1.418289065361023,2.666987657546997,-0.8260062336921692,0.45668038725852966,0.6389611959457397,0.42000001668930054,-1.3300479650497437,3.0000016689300537,-0.15741723775863647,-2.9999992847442627,0.0031682185363024473,0.0005754994926974177,-0.0021844482980668545,-0.005119492765516043,-0.4078544080257416,-0.4711816608905792,-0.5372777581214905,-0.6063746809959412
0.1,0.04667792096734047,0.05173833668231964,0.0,0.9958426356315613,0.0,0.0,-0.09109030663967133,0.7385161519050598,0.9042062759399414,0.0,0.0,0.0,-6.958924770355225,-0.3862580955028534,0.7534733414649963,0.4200000464916229,1.0,3.4221338864881545e-06,-2.3085876819095574e-06,1.796027504497033e-07,0.00026681541930884123,0.0002680059114936739,-0.00010440708138048649,-0.001743128290399909,0.004207063931971788,-0.0001289125211769715,-0.14146903157234192,0.17874199151992798,1.2766876220703125,-1.5558075904846191,2.915266513824463,-0.8511925935745239,0.45668038725852966,0.6389611959457397,0.42000001668930054,-1.280040979385376,3.0000014305114746,-0.1870734691619873,-0.727027416229248,0.0008140680147334933,-0.003375785192474723,-0.007736107800155878,-0.012274771928787231,-0.05546899884939194,-0.15869444608688354,-0.26089221239089966,-0.36198827624320984
0.11666666666666667,0.055124588310718536,0.06408270448446274,0.0,0.9924166202545166,0.0,0.0,-0.12291960418224335,0.5425021052360535,0.6834051609039307,0.0,0.0,0.0,-2.5731024742126465,-0.3862580955028534,0.7534734010696411,0.4200000464916229,1.0,3.711474846568308e-06,-2.3326983864535578e-06,2.574058726168005e-07,0.0002648566442076117,0.00026635400718078017,-0.00010423525236546993,-0.0017183306626975536,0.004170096945017576,-0.00012915683328174055,-0.17172688245773315,0.2252568006515503,1.260544776916504,-1.7893784046173096,3.0088601112365723,-0.980851411819458,0.45668038725852966,0.6389611959457397,0.42000001668930054,-1.230036735534668,2.996056079864502,-0.148769810795784,2.999999761581421,-0.002470209263265133,-0.008235841058194637,-0.014146745204925537,-0.02021060883998871,-0.0976153016090393,-0.21136771142482758,-0.3217017948627472,-0.42844295501708984
0.13333333333333333,0.060965631157159805,0.07761385291814804,0.0,0.9865371584892273,0.0,0.0,-0.1635371893644333,0.2840626537799835,0.8537845015525818,0.0,0.0,0.0,-5.689009666442871,-0.3862580955028534,0.7534733414649963,0.4200000464916229,0.9999999403953552,3.424648184591206e-06,-2.30197656492237e-06,1.5597707658798754e-07,0.0002670702524483204,0.0002681133337318897,-0.00010444503277540207,-0.0017433364409953356,0.0042120302096009254,-0.0001287761697312817,-0.1995788812637329,0.27844998240470886,1.243369698524475,-1.485624074935913,3.49552059173584,-1.114598274230957,0.45668038725852966,0.6389611959457397,0.42000001668930054,-1.182556390762329,2.6876752376556396,-0.18058137595653534,-2.999999761581421,-0.005852964241057634,-0.013506281189620495,-0.02123415283858776,-0.02904120460152626,-0.2698926031589508,-0.3783285915851593,-0.4822266697883606,-0.5813963413238525
0.15,0.0632718950510025,0.09103420376777649,0.0,0.9827240705490112,0.0,0.0,-0.18507680296897888,0.07435768842697144,0.7808853387832642,0.0,0.0,0.0,-1.458440899848938,-0.3862580955028534,0.7534733414649963,0.4200000464916229,1.0,3.7137983781576622e-06,-2.207822262789705e-06,-1.6912022715587227e-07,0.00026353259454481304,0.0002653595001902431,-0.00010421662591397762,-0.0017011979361996055,0.004144062753766775,-0.00012960298045072705,-0.232060045003891,0.3356620669364929,1.2175140380859375,-2.0832839012145996,3.591730833053589,-1.9307124614715576,0.45668038725852966,0.6389611959457397,0.42000001668930054,-1.1568999290466309,0.5561285614967346,-0.14685538411140442,2.9999992847442627,-0.01102316565811634,-0.020082103088498116,-0.02913118340075016,-0.038173824548721313,-0.35540971159935,-0.4145263731479645,-0.4688933491706848,-0.51856529712677
0.16666666666666666,0.06937237828969955,0.10468871146440506,0.0,0.9756284952163696,0.0,0.0,-0.21942883729934692,0.34937387704849243,0.8734578490257263,0.0,0.0,0.0,-5.029443740844727,-0.3862580955028534,0.7534733414649963,0.4200000464916229,0.9999999403953552,3.638302587205544e-06,-2.2787849047745112e-06,2.700390098198113e-07,0.0002668272063601762,0.00026750180404633284,-0.00010409974493086338,-0.0017399356001988053,0.0042100450955331326,-0.00012781673285644501,-0.265119343996048,0.3996202349662781,1.1829042434692383,-1.8423144817352295,4.086154937744141,-2.294203042984009,0.45668038725852966,0.6389611959457397,0.42000001668930054,-1.1156967878341675,3.000002384185791,-0.1786789745092392,-3.000001907348633,-0.015571842901408672,-0.025676075369119644,-0.03568984568119049,-0.045617684721946716,-0.4701966345310211,-0.5013972520828247,-0.5296577215194702,-0.5551296472549438
0.18333333333333332,0.07173759490251541,0.1163058653473854,0.0,0.9695913791656494,0.0,0.0,-0.24472962319850922,0.11293145269155502,0.6266716122627258,0.0,0.0,0.0,-2.135043144226074,-0.3862580955028534,0.7534733414649963,0.4200000464916229,1.0,3.3863352655316703e-06,-2.300278083566809e-06,1.4389989644314483e-07,0.00026674530818127096,0.0002678712480701506,-0.00010436796583235264,-0.0017412264132872224,0.0042059896513819695,-0.00012878300913143903,-0.2991231083869934,0.46574974060058594,1.1355371475219727,-1.938467025756836,4.098745346069336,-3.291545867919922,0.45668038725852966,0.6389611959457397,0.42000001668930054,-1.0777724981307983,1.637176275253296,-0.22870776057243347,-2.999999523162842,-0.026455610990524292,-0.03635058179497719,-0.046133264899253845,-0.055817265063524246,-0.6697966456413269,-0.6418136954307556,-0.6127669215202332,-0.5832472443580627
0.2,0.0707685723900795,0.12926527857780457,0.0,0.9592602849006653,0.0,0.0,-0.2825238108634949,-0.15402983129024506,0.7932754158973694,0.0,0.0,0.0,-5.485734939575195,-0.3862580955028534,0.7534734010696411,0.4200000464916229,1.0,3.6754631764779333e-06,-2.3266181869985303e-06,2.2109479402843135e-07,0.0002648438676260412,0.0002663126797415316,-0.00010421546176075935,-0.0017176977125927806,0.004169917199760675,-0.00012910606164950877,-0.3294247090816498,0.5364621877670288,1.0738558769226074,-1.6092817783355713,4.342679023742676,-4.026849746704102,0.45668038725852966,0.6389611959457397,0.42000001668930054,-1.0307338237762451,3.0000007152557373,-0.2787344455718994,-3.0,-0.04035082831978798,-0.04947938397526741,-0.05848531424999237,-0.0673954114317894,-0.8580977916717529,-0.8114953637123108,-0.7638057470321655,-0.7157106399536133
0.21666666666666667,0.0735369473695755,0.13881278038024902,0.0,0.9531331658363342,0.0,0.0,-0.30255115032196045,0.18414974212646484,0.44924044609069824,0.0,0.0,0.0,-1.3012396097183228,-0.3862580955028534,0.7534733414649963,0.4200000464916229,1.0,3.3222122510778718e-06,-2.20804554373899e-06,2.742411027156777e-07,0.00026662787422537804,0.00026749519747681916,-0.00010426202788949013,-0.0017358181066811085,0.004204723052680492,-0.0001283369492739439,-0.3576454520225525,0.6037037372589111,0.99876469373703,-1.4387739896774292,3.9312362670898438,-4.980230331420898,0.45668038725852966,0.6389611959457397,0.42000001668930054,-0.9807307720184326,3.000002861022949,-0.32876041531562805,-2.9999992847442627,-0.052574221044778824,-0.06066170707345009,-0.06863819062709808,-0.07654473930597305,-0.9008249640464783,-0.8001760244369507,-0.7026585936546326,-0.609298825263977
0.23333333333333334,0.07083220034837723,0.1505417674779892,0.0,0.9424439072608948,0.0,0.0,-0.3343643546104431,-0.18164321780204773,0.7041522264480591,0.0,0.0,0.0,-4.733128547668457,-0.3862580955028534,0.7534733414649963,0.4200000464916229,1.0,3.656415628938703e-06,-2.3734403384878533e-06,-4.077129176494054e-07,0.0002661167527548969,0.0002672596601769328,-0.00010423315688967705,-0.0017335204174742103,0.004194542765617371,-0.0001285481994273141,-0.37839531898498535,0.6629549860954285,0.9080101251602173,-0.9897429347038269,3.355170726776123,-5.65594482421875,0.45668038725852966,0.6389611959457397,0.42000001668930054,-0.9307219386100769,3.0000014305114746,-0.3787890076637268,-2.999997615814209,-0.06797794997692108,-0.07615311443805695,-0.08421269804239273,-0.09210138767957687,-0.7142688035964966,-0.7537614107131958,-0.7941203117370605,-0.8322024345397949
0.25,0.0731300562620163,0.15702520310878754,0.0,0.9375730752944946,0.0,0.0,-0.34778833389282227,0.14695478975772858,0.3009980022907257,0.0,0.0,0.0,-0.5663273334503174,-0.3862580955028534,0.7534734010696411,0.4200000464916229,1.0,3.6304120385466376e-06,-2.2426145278586773e-06,1.1181708003960011e-08,0.00026680054725147784,0.00026706064818426967,-0.00010390975512564182,-0.0017342400969937444,0.004210646729916334,-0.00012703398533631116,-0.39627736806869507,0.7098588943481445,0.8098754286766052,-0.8345789909362793,2.3614344596862793,-6.158893585205078,0.45668038725852966,0.6389611959457397,0.42000001668930054,-0.8807117342948914,2.999998092651367,-0.4288196563720703,-2.9999992847442627,-0.07896476238965988,-0.08716598153114319,-0.09530986100435257,-0.10330606251955032,-0.8940564393997192,-0.8397590517997742,-0.7915606498718262,-0.7484441995620728
0.26666666666666666,0.06960238516330719,0.16683372855186462,0.0,0.9273172616958618,0.0,0.0,-0.3742762804031372,-0.22074177861213684,0.6122204661369324,0.0,0.0,0.0,-4.022889137268066,-0.386258065700531,0.7534733414649963,0.4200000464916229,0.9999999403953552,3.739990006579319e-06,-2.2363544758263743e-06,4.4994595782554825e-07,0.00026479660300537944,0.000266730145085603,-0.00010453932918608189,-0.0017189461505040526,0.004166724160313606,-0.00013016641605645418,-0.4052472710609436,0.7390115261077881,0.7031307220458984,-0.19843599200248718,1.2626452445983887,-6.328738212585449,0.45668038725852966,0.6389611959457397,0.42000001668930054,-0.8307016491889954,2.999990701675415,-0.4788512885570526,-2.9999985694885254,-0.09656307846307755,-0.10450782626867294,-0.11246563494205475,-0.12026162445545197,-0.7156081795692444,-0.7769972085952759,-0.8323174715042114,-0.880789577960968
0.2833333333333333,0.07072910666465759,0.17136698961257935,0.0,0.9239287376403809,0.0,0.0,-0.3825646936893463,0.08617795258760452,0.17285104095935822,0.0,0.0,0.0,-0.06374412029981613,-0.3862580955028534,0.7534733414649963,0.4200000464916229,1.0,3.391518930584425e-06,-2.2911697215022286e-06,1.2456727915832744e-07,0.00026677147252485156,0.00026789188268594444,-0.00010437238961458206,-0.0017411535372957587,0.004206198733299971,-0.00012877908011432737,-0.40972834825515747,0.7525097131729126,0.5984342098236084,-0.03962624818086624,0.29972055554389954,-6.264951705932617,0.45668038725852966,0.6389611959457397,0.42000001668930054,-0.7806928157806396,2.9999923706054688,-0.5288816094398499,-2.999999523162842,-0.10854285955429077,-0.11670959740877151,-0.1248527318239212,-0.13280178606510162,-0.9699316620826721,-0.9207798838615417,-0.8728309273719788,-0.8275279402732849
0.3,0.06803187727928162,0.17279404401779175,0.0,0.9159233570098877,0.0,0.0,-0.40135324001312256,-0.24881026148796082,0.05246756598353386,0.0,0.0,0.0,-3.4650509357452393,-0.3862580955028534,0.7534734010696411,0.4200000464916229,1.0,3.680642066683504e-06,-2.3191096261143684e-06,2.0105352405153099e-07,0.00026479020016267896,0.00026625703321769834,-0.00010421290062367916,-0.00171678327023983,0.004168916493654251,-0.00012909506040159613,-0.4047893285751343,0.7571264505386353,0.49667075276374817,0.6927857398986816,0.1528414636850357,-5.653968811035156,0.45668038725852966,0.6389611959457397,0.42000001668930054,-0.7306840419769287,3.0000016689300537,-0.5789103507995605,-2.999998092651367,-0.12608371675014496,-0.13405421376228333,-0.14205774664878845,-0.1498853713274002,-1.0255650281906128,-1.0193294286727905,-1.0145752429962158,-1.0107742547988892
0.31666666666666665,0.06133996322751045,0.17249621450901031,0.0,0.914717435836792,0.0,0.0,-0.40409404039382935,-0.44507038593292236,-0.055951960384845734,0.0,0.0,0.0,0.5707546472549438,-0.3862580955028534,0.7534733414649963,0.4200000464916229,1.0,3.304140818727319e-06,-2.2214426280697808e-06,2.535191754304833e-07,0.00026660627918317914,0.00026745020295493305,-0.00010424340143799782,-0.0017351501155644655,0.004204238764941692,-0.00012828496983274817,-0.3920471966266632,0.7530189752578735,0.4072192907333374,0.959185004234314,-0.6692413091659546,-5.240806579589844,0.45668038725852966,0.6389611959457397,0.42000001668930054,-0.6806771159172058,2.9999916553497314,-0.6289370656013489,-3.0000009536743164,-0.14335301518440247,-0.15114501118659973,-0.159016951918602,-0.16674116253852844,-1.0000008344650269,-1.0000001192092896,-1.000000238418579,-0.9977006316184998
0.3333333333333333,0.0535571426153183,0.1688586175441742,0.0,0.9243294596672058,0.0,0.0,-0.3815954029560089,-0.5122252106666565,-0.26615408062934875,0.0,0.0,0.0,3.768118381500244,-0.38615620136260986,0.7535764575004578,0.4209858179092407,0.9993787407875061,0.023127935826778412,0.0014162890147417784,-0.026555506512522697,0.024004589766263962,0.09970641881227493,0.10120876878499985,3.887277364730835,1.2151533365249634,-8.49449348449707,-0.3952392637729645,0.7575975656509399,0.42724114656448364,-0.2892743945121765,0.316163569688797,-0.14844611287117004,0.45668038725852966,0.6389611959457397,0.42000001668930054,-0.6310392618179321,3.0000011920928955,-0.679455041885376,-2.999445915222168,-0.14157117903232574,-0.1513177752494812,-0.16063803434371948,-0.16919107735157013,-0.07026012986898422,-0.14670082926750183,-0.2015427052974701,-0.22998623549938202
0.35,0.0433596633374691,0.1627958118915558,0.0,0.9267054796218872,0.0,0.0,-0.3757884204387665,-0.6508167386054993,-0.40404871106147766,0.0,0.0,0.0,-0.22725744545459747,-0.38585466146469116,0.7551330327987671,0.4211854934692383,0.9959631562232971,0.03050871565937996,-0.002624253509566188,-0.08437808603048325,0.015349188819527626,0.09090836346149445,-0.011023779399693012,-0.5850497484207153,0.06846831738948822,-6.090306758880615,-0.39681386947631836,0.7580433487892151,0.42430657148361206,0.0834965929389,-0.15011624991893768,-0.2102007269859314,0.45668038725852966,0.6389611959457397,0.42000001668930054,-0.5810338258743286,3.000002861022949,-0.7294878959655762,-2.9998745918273926,-0.14564575254917145,-0.1554681807756424,-0.16451065242290497,-0.17239397764205933,-0.36078593134880066,-0.30656373500823975,-0.23323854804039001,-0.14052926003932953
0.36666666666666664,0.031073695048689842,0.15443794429302216,0.0,0.9313747882843018,0.0,0.0,-0.3640618622303009,-0.7788406014442444,-0.5404778718948364,0.0,0.0,0.0,2.3605904579162598,-0.385613352060318,0.7566370964050293,0.42001205682754517,0.9942082166671753,-9.572579438099638e-05,-6.581385241588578e-05,-0.10747040063142776,0.0008230645908042789,0.07646507024765015,-0.0012762292753905058,0.05335438251495361,-0.02824816107749939,2.687676429748535,-0.3922079801559448,0.7599732279777527,0.42125028371810913,0.45442408323287964,0.33052268624305725,-0.14332765340805054,0.45668038725852966,0.6389611959457397,0.42000001668930054,-0.5310289263725281,2.9999849796295166,-0.7795231342315674,-2.9999961853027344,-0.15305981040000916,-0.1613195240497589,-0.16847151517868042,-0.17415839433670044,-0.46069058775901794,-0.3441118001937866,-0.20801587402820587,-0.054688192903995514
0.3833333333333333,0.01679573766887188,0.1438438892364502,0.0,0.9298619031906128,0.0,0.0,-0.367908775806427,-0.9112104773521423,-0.676252007484436,0.0,0.0,0.0,-1.4562619924545288,-0.38185298442840576,0.7624558210372925,0.4199995994567871,0.9842446446418762,5.9399422752903774e-05,-1.6271589629468508e-05,-0.1768120527267456,0.2860114872455597,0.4247167706489563,-0.0011384336976334453,-0.05245358869433403,0.01734401285648346,-11.19575309753418,-0.3832409977912903,0.7648781538009644,0.41986310482025146,0.6285116672515869,0.363999605178833,0.07661556452512741,0.45668038725852966,0.6389611959457397,0.42000001668930054,-0.48100516200065613,2.9999899864196777,-0.8295473456382751,-2.9995574951171875,-0.16109687089920044,-0.16707855463027954,-0.1716117411851883,-0.17439523339271545,-0.45314788818359375,-0.30731824040412903,-0.14087991416454315,0.0421457476913929
0.4,0.004346848465502262,0.13070815801620483,0.0,0.9177046418190002,0.0,0.0,-0.39726340770721436,-0.67236328125,-0.8394971489906311,0.0,0.0,0.0,-4.629949569702148,-0.3714431822299957,0.7742337584495544,0.4206680655479431,0.9689044952392578,-0.01622249372303486,0.0035692534875124693,-0.24687662720680237,1.2723900079727173,0.7223328351974487,0.3181816339492798,-12.354094505310059,0.3930039405822754,-3.6008834838867188,-0.37066173553466797,0.7742088437080383,0.42158374190330505,0.9153575897216797,0.7822583317756653,0.12535801529884338,0.45668038725852966,0.6389611959457397,0.42000001668930054,-0.43095672130584717,2.970360279083252,-0.87955641746521,-2.9979519844055176,-0.16926302015781403,-0.1724987030029297,-0.1738920360803604,-0.17322896420955658,-0.44128289818763733,-0.2715490460395813,-0.07757139205932617,0.13494904339313507
0.4166666666666667,-0.00397104024887085,0.1146058440208435,0.0,0.8930597901344299,0.0,0.0,-0.449938029050827,-0.41922760009765625,-1.0222715139389038,0.0,0.0,0.0,-7.808709621429443,-0.3453455865383148,0.7948904633522034,0.42303407192230225,0.9568542242050171,-0.027357950806617737,-0.02408517338335514,-0.28827303647994995,2.095122814178467,1.3860679864883423,0.2529360055923462,16.01715660095215,-5.662742614746094,2.026726007461548,-0.3453543186187744,0.7939070463180542,0.42386293411254883,2.1031837463378906,1.5186870098114014,0.28327465057373047,0.45668038725852966,0.6389611959457397,0.42000001668930054,-0.3939245939254761,1.323225498199463,-0.9295775890350342,-2.9999876022338867,-0.1769525557756424,-0.17713887989521027,-0.1750907152891159,-0.17070454359054565,-0.4735305905342102,-0.27956467866897583,-0.06587015092372894,0.16040091216564178
0.43333333333333335,-0.008286208845674992,0.09549259394407272,0.0,0.8531607985496521,0.0,0.0,-0.5216480493545532,-0.1874234974384308,-1.2013965845108032,0.0,0.0,0.0,-10.486516952514648,-0.2865307629108429,0.8272677659988403,0.4258340001106262,0.9416476488113403,0.026610206812620163,-0.07016818225383759,-0.3281279504299164,5.1509504318237305,2.3138575553894043,0.18179915845394135,6.486958026885986,-5.453859329223633,-29.57984161376953,-0.28645461797714233,0.8261415958404541,0.4267633557319641,4.53278112411499,2.312035083770752,0.24428105354309082,0.45668038725852966,0.6389611959457397,0.42000001668930054,-0.37409842014312744,1.126844882965088,-0.8925750851631165,3.0,-0.18832005560398102,-0.18410734832286835,-0.17761340737342834,-0.16888856887817383,-0.703770101070404,-0.43437692523002625,-0.174139142036438,0.06771545112133026
0.45,-0.016839388757944107,0.08303744345903397,0.0,0.7943121790885925,0.0,0.0,-0.6075097918510437,-0.6149182319641113,-0.5919482111930847,0.0,0.0,0.0,-13.383095741271973,-0.18701821565628052,0.8619019389152527,0.43176907300949097,0.9163831472396851,0.055830687284469604,-0.09643661230802536,-0.3844800293445587,7.506967067718506,2.0900492668151855,0.6757709383964539,14.319294929504395,-10.415809631347656,-24.387422561645508,-0.18720287084579468,0.8619279265403748,0.4329541325569153,7.000584602355957,2.05600905418396,0.4936332404613495,0.45668038725852966,0.6389611959457397,0.42000001668930054,-0.35441306233406067,1.299957513809204,-0.9188870787620544,-2.9997079372406006,-0.20448729395866394,-0.19869272410869598,-0.1877998262643814,-0.1736566722393036,-0.8896821141242981,-0.9005841016769409,-0.7604890465736389,-0.4463559687137604
0.4666666666666667,-0.021920396015048027,0.06865707784891129,0.0,0.7413444519042969,0.0,0.0,-0.6711246967315674,-0.2530001103878021,-0.8929291367530823,0.0,0.0,0.0,-8.480827331542969,-0.06878446042537689,0.8838052153587341,0.44100886583328247,0.8676248788833618,0.05150359869003296,-0.11523092538118362,-0.4809325337409973,7.330036163330078,0.6785277724266052,1.122801661491394,7.053628921508789,-19.425792694091797,-35.01459503173828,-0.0697118267416954,0.8859425783157349,0.4426085948944092,7.082533359527588,0.6090247631072998,0.5080884695053101,0.45668038725852966,0.6389611959457397,0.42000001668930054,-0.33403000235557556,1.1146186590194702,-0.9461722373962402,-0.5462822914123535,-0.21849441528320312,-0.21188655495643616,-0.19749215245246887,-0.17781862616539001,-0.9928172826766968,-0.8937118649482727,-0.6295458674430847,-0.28287649154663086
0.48333333333333334,-0.02819105237722397,0.05901528522372246,0.0,0.7109605669975281,0.0,0.0,-0.7032318711280823,-0.3916894495487213,-0.647571861743927,0.0,0.0,0.0,-3.7751283645629883,0.047242093831300735,0.8777430057525635,0.4524376690387726,0.8226375579833984,0.05495229735970497,-0.09096167236566544,-0.5585460662841797,6.956155776977539,-1.1377547979354858,0.5931857228279114,2.1229195594787598,-14.841343879699707,-30.406391143798828,0.04540393501520157,0.8827513456344604,0.4533570408821106,6.5801615715026855,-0.8207682967185974,0.6292625665664673,0.45668038725852966,0.6389611959457397,0.42000001668930054,-0.3160911500453949,0.958248496055603,-0.9919957518577576,-2.9999771118164062,-0.23274438083171844,-0.2263043373823166,-0.21185246109962463,-0.18637412786483765,-0.43246060609817505,-0.525057315826416,-0.613779604434967,-0.4242180585861206
0.5,-0.03144751116633415,0.05201016739010811,0.0,0.7051568031311035,0.0,0.0,-0.7090514302253723,-0.12799543142318726,-0.27716878056526184,0.0,0.0,0.0,0.32828280329704285,0.1470542699098587,0.855105459690094,0.46103814244270325,0.7828970551490784,0.0745009034872055,-0.024942463263869286,-0.6171706914901733,5.514291763305664,-2.0014264583587646,0.8494639992713928,20.970413208007812,-8.349357604980469,-47.185882568359375,0.14768879115581512,0.8614916205406189,0.4605787396430969,5.251066207885742,-1.7598627805709839,0.22242611646652222,0.45668038725852966,0.6389611959457397,0.42000001668930054,-0.3078010082244873,0.14626164734363556,-1.042018175125122,-2.9998106956481934,-0.2400524914264679,-0.2354269027709961,-0.22137483954429626,-0.19275303184986115,-0.015990134328603745,-0.5171068906784058,-0.5185953378677368,-0.361884742975235
0.5166666666666666,-0.03013329580426216,0.04069152846932411,0.0,0.6907752156257629,0.0,0.0,-0.7230695486068726,0.15450409054756165,-0.8227763175964355,0.0,0.0,0.0,-3.4277801513671875,0.22903507947921753,0.8239426016807556,0.46236279606819153,0.7232238054275513,0.05038933828473091,-0.0075059207156300545,-0.6887319684028625,4.933441638946533,-2.6346356868743896,0.206980362534523,7.052051067352295,-4.068666934967041,-37.61399459838867,0.23106180131435394,0.8304584622383118,0.46271753311157227,4.480400562286377,-2.1537954807281494,-0.0771578848361969,0.45668038725852966,0.6389611959457397,0.42000001668930054,-0.30972617864608765,-0.17929324507713318,-1.0920403003692627,-2.999999761581421,-0.2341575175523758,-0.23695158958435059,-0.22359178960323334,-0.19386988878250122,0.47524282336235046,0.12170658260583878,0.08109526336193085,0.09714943915605545
0.5333333333333333,-0.02691476233303547,0.0330846831202507,0.0,0.6877894401550293,0.0,0.0,-0.7259102463722229,0.2075374275445938,-0.3305475413799286,0.0,0.0,0.0,0.4401441514492035,0.29796212911605835,0.7835484147071838,0.4584634006023407,0.6660367846488953,0.021853985264897346,0.009553865529596806,-0.7455373406410217,3.8488776683807373,-2.88643217086792,-0.3097487986087799,-0.4328802824020386,1.7332998514175415,-21.39371681213379,0.3010307550430298,0.7896714210510254,0.45901018381118774,3.7150909900665283,-2.639268159866333,-0.3772977292537689,0.45668038725852966,0.6389611959457397,0.42000001668930054,-0.3062681555747986,0.5830593109130859,-1.1420624256134033,-2.999821662902832,-0.22976090013980865,-0.2363089919090271,-0.22301416099071503,-0.1932976245880127,0.24694886803627014,0.10022645443677902,0.09587564319372177,0.05315409600734711
0.55,-0.021658260375261307,0.025956304743885994,0.0,0.674552857875824,0.0,0.0,-0.7382265329360962,0.3564840853214264,-0.44914111495018005,0.0,0.0,0.0,-3.0985641479492188,0.354836106300354,0.7430561780929565,0.4462333917617798,0.6336442828178406,-0.0328785665333271,0.02200509048998356,-0.7726122140884399,3.1253931522369385,-2.7556586265563965,-0.7724831104278564,-10.927653312683105,-3.3677470684051514,-24.300891876220703,0.35857248306274414,0.7484467029571533,0.4479941129684448,2.9585094451904297,-2.4204864501953125,-0.8622838258743286,0.45668038725852966,0.6389611959457397,0.42000001668930054,-0.2924932539463043,0.897803008556366,-1.192084550857544,-2.999997138977051,-0.22295577824115753,-0.23159842193126678,-0.21911945939064026,-0.19131924211978912,0.4154050350189209,0.3416813313961029,0.28332817554473877,0.13048753142356873
0.5666666666666667,-0.01450816635042429,0.022022008895874023,0.0,0.673425018787384,0.0,0.0,-0.7392555475234985,0.4843321144580841,-0.20442913472652435,0.0,0.0,0.0,0.6467918157577515,0.39916864037513733,0.7019518613815308,0.4264858663082123,0.5939930081367493,-0.16575755178928375,-0.033238355070352554,-0.7865061163902283,2.428133249282837,-2.7415335178375244,-0.8513709306716919,-0.1444314420223236,-0.7334291934967041,-21.99082374572754,0.40332064032554626,0.7074134945869446,0.433328777551651,2.294522762298584,-2.3940348625183105,-1.0667877197265625,0.45668038725852966,0.6389611959457397,0.42000001668930054,-0.276876837015152,0.9403254389762878,-1.2421066761016846,-2.9985439777374268,-0.21664206683635712,-0.22599954903125763,-0.21477267146110535,-0.1900860220193863,0.45657387375831604,0.4132443368434906,0.29870620369911194,0.0615270659327507
0.5833333333333334,-0.00503563042730093,0.02087491564452648,0.0,0.6618031859397888,0.0,0.0,-0.7496775984764099,0.60817551612854,0.026685936376452446,0.0,0.0,0.0,-2.7358779907226562,0.43057966232299805,0.6787878274917603,0.42366132140159607,0.6102883219718933,-0.06386372447013855,0.048547081649303436,-0.7881069779396057,1.6653475761413574,-1.9204117059707642,0.01159399002790451,-12.038819313049316,-7.259189128875732,-26.018648147583008,0.43356165289878845,0.6805474758148193,0.42669230699539185,1.3135716915130615,-1.0707653760910034,-0.06561397761106491,0.45668038725852966,0.6389611959457397,0.42000001668930054,-0.25767552852630615,1.034900188446045,-1.204016089439392,2.9970366954803467,-0.2066613882780075,-0.2174353301525116,-0.20914408564567566,-0.18933817744255066,0.6221977472305298,0.5399567484855652,0.3428262770175934,0.026757678017020226
0.6,0.0014281787443906069,0.015747331082820892,0.0,0.6625819206237793,0.0,0.0,-0.748989462852478,0.35291609168052673,-0.29013344645500183,0.0,0.0,0.0,0.9857755899429321,0.44835928082466125,0.6615934371948242,0.42452239990234375,0.62538743019104,-0.08119625598192215,0.07749597728252411,-0.7721994519233704,0.8570172190666199,-1.4591330289840698,0.10007445514202118,-8.607732772827148,-1.574431300163269,-19.84873390197754,0.4520490765571594,0.662379264831543,0.4280409812927246,0.6539597511291504,-1.044751763343811,0.13432194292545319,0.45668038725852966,0.6389611959457397,0.42000001668930054,-0.2555060088634491,-0.5771011710166931,-1.2252442836761475,-2.999671459197998,-0.193646639585495,-0.20484410226345062,-0.19998280704021454,-0.18564632534980774,0.5019018650054932,0.5988215208053589,0.44484394788742065,0.16007187962532043
0.6166666666666667,0.010051209479570389,0.015692507848143578,0.0,0.6522671580314636,0.0,0.0,-0.7579891681671143,0.5023400187492371,-0.011241479776799679,0.0,0.0,0.0,-2.409763813018799,0.45990341901779175,0.6457446813583374,0.42442992329597473,0.582162082195282,-0.07604528218507767,0.06928282976150513,-0.806538462638855,0.4838126301765442,-1.5845199823379517,0.012984313070774078,-14.157416343688965,-15.345484733581543,-13.71401596069336,0.4610331654548645,0.6499290466308594,0.4271854758262634,0.35069820284843445,-0.35167521238327026,-0.05546962469816208,0.45668038725852966,0.6389611959457397,0.42000001668930054,-0.25736865401268005,-0.2902918756008148,-1.1872330904006958,2.9982571601867676,-0.18678155541419983,-0.19659006595611572,-0.1943451166152954,-0.18470633029937744,0.5762070417404175,0.6095424294471741,0.4183798134326935,0.11382424831390381
0.6333333333333333,0.019949808716773987,0.01177178230136633,0.0,0.6550828814506531,0.0,0.0,-0.7555570006370544,0.5688322186470032,-0.31144237518310547,0.0,0.0,0.0,1.328088641166687,0.4635843336582184,0.6402509808540344,0.42340031266212463,0.5861381888389587,-0.05521346628665924,0.071532242000103,-0.8051562309265137,0.15590855479240417,-0.3448616564273834,-0.08445566147565842,6.70038366317749,0.1648111343383789,-2.7914044857025146,0.46521228551864624,0.6443045139312744,0.4289398491382599,0.00917307659983635,-0.1506722867488861,0.1769464612007141,0.45668038725852966,0.6389611959457397,0.42000001668930054,-0.29779282212257385,-2.9999918937683105,-1.208507776260376,-2.999516248703003,-0.17488251626491547,-0.18442754447460175,-0.18542999029159546,-0.18081362545490265,0.6550676226615906,0.6890413165092468,0.5233880281448364,0.25413602590560913
0.65,0.031746506690979004,0.011048371903598309,0.0,0.650503396987915,0.0,0.0,-0.7595033645629883,0.7280434966087341,0.003391611622646451,0.0,0.0,0.0,-1.8607555627822876,0.4655405580997467,0.6357618570327759,0.4223325550556183,0.5697507262229919,-0.03521640598773956,0.050960950553417206,-0.8194795250892639,0.11659621447324753,-0.2627168297767639,-0.06772467494010925,-1.3407279253005981,-3.85094952583313,-2.483720541000366,0.4671739339828491,0.6444888114929199,0.431926965713501,0.23021899163722992,0.14620301127433777,0.19693641364574432,0.45668038725852966,0.6389611959457397,0.42000001668930054,-0.3400009274482727,-2.1088335514068604,-1.2584645748138428,-2.9986770153045654,-0.1655237376689911,-0.17479996383190155,-0.17850224673748016,-0.17810164391994476,0.6568255424499512,0.6362254619598389,0.4571883976459503,0.19919352233409882
0.6666666666666666,0.04535367339849472,0.009682479314506054,0.0,0.6566375494003296,0.0,0.0,-0.7542062997817993,0.8508387207984924,-0.1062917560338974,0.0,0.0,0.0,1.8753998279571533,0.46672505140304565,0.6326824426651001,0.42013752460479736,0.5495073199272156,-0.0010858726454898715,-0.0006859410204924643,-0.8354877829551697,-0.030129441991448402,-0.016342395916581154,-0.0662018209695816,2.841186046600342,-2.384035587310791,-4.126601696014404,0.4672228693962097,0.6463534235954285,0.4354091286659241,-0.11744895577430725,0.08402712643146515,0.2236909121274948,0.45668038725852966,0.6389611959457397,0.42000001668930054,-0.388973593711853,-3.0000321865081787,-1.3084558248519897,-2.9990787506103516,-0.15529626607894897,-0.16463258862495422,-0.17078649997711182,-0.17406918108463287,0.4950641393661499,0.5201937556266785,0.41431736946105957,0.23758061230182648
0.6833333333333333,0.056599512696266174,0.010008475743234158,0.0,0.6808093786239624,0.0,0.0,-0.732460618019104,0.6166659593582153,0.0729890689253807,0.0,0.0,0.0,5.210601329803467,0.4659068286418915,0.6325444579124451,0.4201137125492096,0.5360416769981384,0.0015606904635205865,-0.002393905771896243,-0.8441866040229797,-0.11572733521461487,0.01048858929425478,0.03837607428431511,-0.7670394778251648,-1.7665023803710938,-4.354694843292236,0.4650477468967438,0.6472457051277161,0.4390055239200592,-0.20068173110485077,0.08019204437732697,0.20979070663452148,0.45668038725852966,0.6389611959457397,0.42000001668930054,-0.43898239731788635,-2.999995231628418,-1.3584290742874146,-2.999065637588501,-0.14823153614997864,-0.15705791115760803,-0.16457505524158478,-0.17024856805801392,0.3910064399242401,0.42397090792655945,0.35950708389282227,0.240118607878685
0.7,0.06799683719873428,0.007954386994242668,0.0,0.69358891248703,0.0,0.0,-0.7203710675239563,0.7119992971420288,-0.1812291145324707,0.0,0.0,0.0,1.053865671157837,0.46444210410118103,0.632524311542511,0.4200003147125244,0.5174932479858398,-6.4266378103639e-06,-2.6905361210083356e-06,-0.8556872010231018,-0.06829337775707245,-0.005958522204309702,-5.020431854063645e-05,-0.0022455547004938126,7.937822374515235e-05,-1.8935737609863281,0.4641611874103546,0.6499104499816895,0.44349178671836853,-0.06023610010743141,0.13153433799743652,0.29879602789878845,0.45668038725852966,0.6389611959457397,0.42000001668930054,-0.48900076746940613,-2.9983577728271484,-1.4083949327468872,-2.999870538711548,-0.14330966770648956,-0.1509391963481903,-0.1585419774055481,-0.16502340137958527,0.22335049510002136,0.32833945751190186,0.37272849678993225,0.38232123851776123
0.7166666666666667,0.08096974343061447,0.0025530653074383736,0.0,0.6838396787643433,0.0,0.0,-0.7296322584152222,0.8095169067382812,-0.39091527462005615,0.0,0.0,0.0,-2.5326507091522217,0.4641202390193939,0.6324478387832642,0.4200001060962677,0.5130171179771423,5.760412022937089e-06,-3.24726852340973e-06,-0.8583783507347107,-0.0022372337989509106,-0.0008987082983367145,-0.0001593019114807248,-0.003196022706106305,0.009500420652329922,-0.11728844791650772,0.46884453296661377,0.6522014141082764,0.45170581340789795,0.5453838109970093,0.09093038737773895,0.798102855682373,0.45668038725852966,0.6389611959457397,0.42000001668930054,-0.5390133261680603,-2.9999947547912598,-1.4584132432937622,-2.999999523162842,-0.1422882378101349,-0.14771875739097595,-0.15385378897190094,-0.15929022431373596,-0.022481760010123253,0.12841662764549255,0.24921907484531403,0.3522033393383026
0.7333333333333333,0.09702681005001068,0.001610422506928444,0.0,0.6521773338317871,0.0,0.0,-0.7580664157867432,0.9395166635513306,-0.0378410667181015,0.0,0.0,0.0,-5.9401469230651855,0.4641203284263611,0.6324480175971985,0.4200000464916229,0.5130173563957214,7.445383687354479e-08,-2.569243861216819e-06,-0.8583781123161316,4.874131263932213e-06,-0.00024029077030718327,-6.60682562738657e-05,0.006660564336925745,-0.0022607319988310337,-0.0007167873554863036,0.4857552647590637,0.6516707539558411,0.47207480669021606,1.5194947719573975,-0.041141241788864136,1.7390758991241455,0.45668038725852966,0.6389611959457397,0.42000001668930054,-0.5890247225761414,-2.999985694885254,-1.5084315538406372,-3.0,-0.14943687617778778,-0.1514340192079544,-0.15447451174259186,-0.1570756584405899,-0.37515801191329956,-0.1929243505001068,-0.017629440873861313,0.15049630403518677
0.75,0.11430594325065613,0.0033572146203368902,0.0,0.6344949007034302,0.0,0.0,-0.7729270458221436,1.0824015140533447,0.13212533295154572,0.0,0.0,0.0,-1.7184596061706543,0.4641203284263611,0.6324480175971985,0.4200000464916229,0.5130175352096558,-2.0454952220916311e-07,-2.4946691610239213e-06,-0.8583781123161316,-1.3978426068206318e-05,-0.0002354794996790588,-6.452156230807304e-05,0.006606010254472494,-0.0025217656511813402,-0.0006687148124910891,0.513516366481781,0.6558964252471924,0.5053842067718506,1.7941985130310059,0.49174636602401733,2.2147700786590576,0.45668038725852966,0.6389611959457397,0.42000001668930054,-0.608469545841217,0.3889443278312683,-1.5584498643875122,-2.9999992847442627,-0.15438948571681976,-0.1546979397535324,-0.15606369078159332,-0.1570519655942917,-0.17944006621837616,-0.15330253541469574,-0.12330643832683563,-0.09411679953336716
0.7666666666666666,0.12881428003311157,0.00696917250752449,0.0,0.6416771411895752,0.0,0.0,-0.7669748663902283,0.7930061221122742,0.27942734956741333,0.0,0.0,0.0,2.0236923694610596,0.4641203284263611,0.6324480175971985,0.4200000464916229,0.5130172967910767,-2.158801351015427e-07,-2.4375565317313885e-06,-0.8583781719207764,-1.4072333215153776e-05,-0.00023562854039482772,-6.451341323554516e-05,0.006610353477299213,-0.002523711184039712,-0.0006689837900921702,0.5387650728225708,0.663561224937439,0.5364988446235657,1.2322607040405273,0.49128812551498413,1.5775973796844482,0.45668038725852966,0.6389611959457397,0.42000001668930054,-0.5799870491027832,2.7953085899353027,-1.5195540189743042,3.0000007152557373,-0.15576882660388947,-0.15587805211544037,-0.15690544247627258,-0.15753993391990662,-0.020670024678111076,-0.019990025088191032,-0.008639894425868988,0.003975693602114916
0.7833333333333333,0.1380825787782669,0.005258963909000158,0.0,0.6367943286895752,0.0,0.0,-0.7710337042808533,0.5493996739387512,-0.09556842595338821,0.0,0.0,0.0,-1.638966679573059,0.4641203284263611,0.6324480175971985,0.4200000464916229,0.5130175352096558,-1.2136156612996274e-07,-2.736591113716713e-06,-0.8583780527114868,-1.1345430721121375e-05,-0.00023260967282112688,-6.478838622570038e-05,0.006516847759485245,-0.0024732311721891165,-0.0006654278258793056,0.553200364112854,0.6756471395492554,0.5573943257331848,0.3259393572807312,0.6582925319671631,1.0636845827102661,0.45668038725852966,0.6389611959457397,0.42000001668930054,-0.5522503852844238,0.6958668231964111,-1.469497561454773,2.9999990463256836,-0.15048860013484955,-0.15153031051158905,-0.1532537341117859,-0.15450821816921234,0.040892720222473145,0.04117218405008316,0.05142974108457565,0.0595209077000618
0.8,0.1441631317138672,0.008114718832075596,0.0,0.6440638899803162,0.0,0.0,-0.7649717330932617,0.2947714626789093,0.20241323113441467,0.0,0.0,0.0,1.9831167459487915,0.4641203284263611,0.6324480175971985,0.4200000464916229,0.5130172967910767,-1.284459187900211e-07,-2.653222509252373e-06,-0.8583781719207764,-1.1092884960817173e-05,-0.00023260166926775128,-6.486242637038231e-05,0.0065152463503181934,-0.0024709526915103197,-0.0006659469217993319,0.5503605604171753,0.6862373352050781,0.5710102319717407,-0.5379523634910583,0.738114595413208,0.6063625812530518,0.45668038725852966,0.6389611959457397,0.42000001668930054,-0.5217896699905396,2.7565579414367676,-1.4194917678833008,2.999999761581421,-0.15241295099258423,-0.15286383032798767,-0.1538643091917038,-0.15449301898479462,-0.027096159756183624,-0.01034099142998457,0.015925731509923935,0.03783710300922394
0.8166666666666667,0.14647254347801208,0.006876008119434118,0.0,0.639256477355957,0.0,0.0,-0.768993616104126,0.09115128964185715,-0.15975357592105865,0.0,0.0,0.0,-1.6544520854949951,0.4641203284263611,0.6324480175971985,0.4200000464916229,0.5130174160003662,-1.5590913449159416e-07,-2.566850753282779e-06,-0.8583781123161316,-9.514750672678929e-06,-0.00023257482098415494,-6.51506707072258e-05,0.006506454665213823,-0.002451936947181821,-0.0006692819879390299,0.535099983215332,0.6986934542655945,0.5748246908187866,-1.3223044872283936,0.7490494251251221,0.03872261941432953,0.45668038725852966,0.6389611959457397,0.42000001668930054,-0.5122278928756714,-1.2690248489379883,-1.3694391250610352,2.999999523162842,-0.1522098332643509,-0.15254168212413788,-0.15325503051280975,-0.15365636348724365,0.02847294881939888,0.034529559314250946,0.049621500074863434,0.060296423733234406
0.8333333333333334,0.15170106291770935,0.010844353586435318,0.0,0.6470538377761841,0.0,0.0,-0.7624443173408508,0.20281952619552612,0.1952933669090271,0.0,0.0,0.0,1.9294712543487549,0.4641203284263611,0.6324480175971985,0.4200000464916229,0.5130173563957214,-1.1687103551594191e-07,-2.6929876639769645e-06,-0.8583781719207764,-1.1865580745507032e-05,-0.0002328899863641709,-6.469781510531902e-05,0.006526865530759096,-0.0024807106237858534,-0.00066511204931885,0.511573314666748,0.7087457180023193,0.5715343952178955,-1.3303567171096802,0.8357586860656738,-0.4004735052585602,0.45668038725852966,0.6389611959457397,0.42000001668930054,-0.5104246139526367,1.2640589475631714,-1.388117790222168,-2.9998483657836914,-0.15740667283535004,-0.15664316713809967,-0.15620799362659454,-0.155643492937088,0.021358340978622437,0.0024860799312591553,-0.004941970109939575,-0.013094484806060791
0.85,0.15405592322349548,0.010462247766554356,0.0,0.6550694704055786,0.0,0.0,-0.7555686831474304,0.16963207721710205,-0.04669167101383209,0.0,0.0,0.0,0.9669440388679504,0.4641203284263611,0.6324480175971985,0.4200000464916229,0.513017475605011,-1.61412444299458e-07,-2.599071194708813e-06,-0.8583781123161316,-9.430850695935078e-06,-0.00023252630489878356,-6.516114808619022e-05,0.006504736840724945,-0.0024506445042788982,-0.0006692986935377121,0.484719455242157,0.7203783988952637,0.5610885620117188,-1.8702659606933594,0.4549672603607178,-0.7734500169754028,0.45668038725852966,0.6389611959457397,0.42000001668930054,-0.5324091911315918,-2.9999985694885254,-1.3497037887573242,3.0,-0.156838059425354,-0.15607084333896637,-0.15542657673358917,-0.15464486181735992,-0.1466362476348877,-0.097606360912323,-0.03815612569451332,0.019589358940720558
0.8666666666666667,0.15879304707050323,0.006772104185074568,0.0,0.6732305884361267,0.0,0.0,-0.7394325733184814,0.34013691544532776,-0.287163108587265,0.0,0.0,0.0,4.1268744468688965,0.4641203284263611,0.6324480175971985,0.4200000464916229,0.5130174160003662,-1.0712798825807113e-07,-2.7204848720430164e-06,-0.8583781719207764,-1.190671173390001e-05,-0.00023281414178200066,-6.467965431511402e-05,0.006525194272398949,-0.002480636117979884,-0.0006647675181739032,0.4586641192436218,0.726699709892273,0.5483550429344177,-1.2984774112701416,0.3276292085647583,-0.6487902402877808,0.45668038725852966,0.6389611959457397,0.42000001668930054,-0.5610733032226562,-0.6226837038993835,-1.3687316179275513,-3.0000007152557373,-0.16038928925991058,-0.15828898549079895,-0.15606597065925598,-0.15366002917289734,-0.2147555649280548,-0.11975543200969696,-0.006664791144430637,0.11317554116249084
0.8833333333333333,0.16602452099323273,-0.00022922454809304327,0.0,0.679288387298584,0.0,0.0,-0.7338714599609375,0.47142839431762695,-0.4568268358707428,0.0,0.0,0.0,-0.021636856719851494,0.4641203284263611,0.6324480175971985,0.4200000464916229,0.5130175352096558,-1.2188050391159777e-07,-2.6222976430290146e-06,-0.8583781123161316,-1.0822093827300705e-05,-0.00023244698240887374,-6.490643136203289e-05,0.006509767845273018,-0.0024668052792549133,-0.0006660911603830755,0.44073110818862915,0.7294249534606934,0.5348724722862244,-0.8766492605209351,0.005396348424255848,-0.7524000406265259,0.45668038725852966,0.6389611959457397,0.42000001668930054,-0.6012178659439087,-3.000000476837158,-1.3303773403167725,3.000000476837158,-0.16539007425308228,-0.16135267913341522,-0.15684141218662262,-0.15197879076004028,-0.31209230422973633,-0.18220415711402893,-0.030000073835253716,0.13422225415706635
0.9,0.17522995173931122,-0.010055619291961193,0.0,0.6639918684959412,0.0,0.0,-0.7477397918701172,0.5921260714530945,-0.6524568796157837,0.0,0.0,0.0,-3.3455047607421875,0.4641203284263611,0.6324480175971985,0.4200000464916229,0.5130172967910767,-1.040168484678361e-07,-2.7444934858067427e-06,-0.8583782315254211,-1.1514282959979028e-05,-0.0002327392721781507,-6.478605791926384e-05,0.006520920433104038,-0.002476602792739868,-0.0006654821336269379,0.43449118733406067,0.7284571528434753,0.5275149345397949,0.061960212886333466,-0.10355854779481888,0.017924003303050995,0.45668038725852966,0.6389611959457397,0.42000001668930054,-0.651232898235321,-2.9999561309814453,-1.3497792482376099,-2.9999983310699463,-0.17197325825691223,-0.16585582494735718,-0.1588907092809677,-0.15135614573955536,-0.39940232038497925,-0.2863672375679016,-0.15155893564224243,-0.003091063117608428
0.9166666666666666,0.1885351538658142,-0.0141057800501585,0.0,0.6261382699012756,0.0,0.0,-0.7797120213508606,0.8825225234031677,-0.1055021733045578,0.0,0.0,0.0,-6.985641956329346,0.4641203284263611,0.6324480175971985,0.4200000464916229,0.5130174160003662,-1.3165531242975703e-07,-2.6579964469419792e-06,-0.8583781719207764,-1.002145199890947e-05,-0.00023274619888979942,-6.504426710307598e-05,0.006513602565973997,-0.002458414062857628,-0.0006686840788461268,0.4475616216659546,0.7191351652145386,0.5287285447120667,1.5020420551300049,-0.8553314805030823,0.270865261554718,0.45668038725852966,0.6389611959457397,0.42000001668930054,-0.6677583456039429,0.7061107158660889,-1.3997975587844849,-2.99997878074646,-0.18605482578277588,-0.17670835554599762,-0.1663023829460144,-0.15528813004493713,-0.9396809935569763,-0.7341305017471313,-0.5179175734519958,-0.3037564158439636
