vladlanda/robotic-transformer/data/env_000_episode_0062.csv
sim_time_s,robot_box_x,robot_box_y,robot_box_z,robot_box_quat_w,robot_box_quat_x,robot_box_quat_y,robot_box_quat_z,robot_box_linvel_x,robot_box_linvel_y,robot_box_linvel_z,robot_box_angvel_x,robot_box_angvel_y,robot_box_angvel_z,cube_world_x,cube_world_y,cube_world_z,cube_quat_w,cube_quat_x,cube_quat_y,cube_quat_z,cube_linvel_x,cube_linvel_y,cube_linvel_z,cube_angvel_x,cube_angvel_y,cube_angvel_z,endpoint_world_x,endpoint_world_y,endpoint_world_z,endpoint_linvel_x,endpoint_linvel_y,endpoint_linvel_z,target_cube_world_x,target_cube_world_y,target_cube_world_z,gripper_actual_pos_rad_gp_leftgearjoint,gripper_actual_vel_rad_s_gp_leftgearjoint,gripper_actual_pos_rad_gp_rotatingjoint,gripper_actual_vel_rad_s_gp_rotatingjoint,motor_angle_rad_joint1,motor_angle_rad_joint2,motor_angle_rad_joint3,motor_angle_rad_joint4,motor_speed_rad_s_joint1,motor_speed_rad_s_joint2,motor_speed_rad_s_joint3,motor_speed_rad_s_joint4
0.0,0.0,0.0,0.0,1.0,0.0,0.0,0.0,0.0,0.0,0.0,0.0,0.0,0.0,-0.37095725536346436,0.7330662608146667,0.41999998688697815,1.0,0.0,0.0,0.0,0.0,0.0,0.0,0.0,0.0,0.0,3.42540442943573e-06,-0.005000244826078415,1.313499927520752,0.0,0.0,0.0,0.40363866090774536,0.6878439784049988,0.42000001668930054,-1.5707999467849731,0.0,0.0,0.0,0.0,0.0,0.0,0.0,0.0,0.0,0.0,0.0
0.016666666666666666,0.002882122527807951,0.0021754710469394922,0.0,0.9998184442520142,0.0,0.0,0.019053706899285316,0.24099330604076385,0.18222372233867645,0.0,0.0,0.0,3.1417994499206543,-0.3709573745727539,0.7330659627914429,0.41999998688697815,1.0,3.279964630564791e-06,-8.339746386809566e-07,8.465587342243452e-08,-1.9833529222523794e-05,0.00017983045836444944,-6.132945418357849e-05,0.0009432713268324733,-0.004689474124461412,-0.00031981561915017664,-0.007108617573976517,0.0033929196652024984,1.3159384727478027,-0.8139147758483887,0.9873389005661011,0.18096493184566498,0.40363866090774536,0.6878439784049988,0.42000001668930054,-1.5301094055175781,3.0,-0.04584909602999687,-2.9999992847442627,0.0008702957420609891,0.0007969496073201299,0.0007115094922482967,0.0006113633280619979,0.11095724254846573,0.09759481996297836,0.08337147533893585,0.06826519221067429
0.03333333333333333,0.008966288529336452,0.006794049870222807,0.0,0.9998066425323486,0.0,0.0,0.019664252176880836,0.407096266746521,0.3151478171348572,0.0,0.0,0.0,-0.8690010905265808,-0.37095749378204346,0.7330659031867981,0.4200000464916229,1.0,3.3908354453160428e-06,-2.1324485715012997e-06,-3.710144014235084e-08,0.00026357831666246057,0.00026937946677207947,-0.00010509486310184002,-0.0017707672668620944,0.004130808170884848,-0.000135478752781637,-0.026946518570184708,0.02635892853140831,1.3166654109954834,-1.5237704515457153,1.6216167211532593,-0.07667314261198044,0.40363866090774536,0.6878439784049988,0.42000001668930054,-1.4800901412963867,3.0000011920928955,-0.09588893502950668,-3.0000009536743164,0.002926289103925228,0.0025660693645477295,0.002168108709156513,0.001729113981127739,0.15643833577632904,0.12966015934944153,0.1013866513967514,0.0715370774269104
0.05,0.018480459228157997,0.013903920538723469,0.0,0.9999716877937317,0.0,0.0,-0.007524017244577408,0.6363121867179871,0.47249966859817505,0.0,0.0,0.0,-4.072241306304932,-0.37095752358436584,0.7330659627914429,0.4200000464916229,1.0,3.7651125239790417e-06,-2.211879063906963e-06,5.622505128144439e-09,0.000265308452071622,0.0002669153327587992,-0.00010440615005791187,-0.001724260626360774,0.004177352879196405,-0.00012949221127200872,-0.055062923580408096,0.05796171724796295,1.3123860359191895,-1.8533728122711182,2.09483003616333,-0.4250418543815613,0.40363866090774536,0.6878439784049988,0.42000001668930054,-1.4300718307495117,3.000001907348633,-0.14592763781547546,-2.999999761581421,0.0057330382987856865,0.004823444876819849,0.0038415249437093735,0.0027830929029732943,0.18993288278579712,0.14695371687412262,0.10205058008432388,0.05515598505735397
0.06666666666666667,0.030818866565823555,0.02339949458837509,0.0,0.9998674392700195,0.0,0.0,-0.016282135620713234,0.7730172276496887,0.6164829730987549,0.0,0.0,0.0,-0.0326889343559742,-0.37095752358436584,0.7330659031867981,0.4200000464916229,0.9999999403953552,3.4066883927152958e-06,-2.285532218593289e-06,4.300976286231162e-07,0.0002670241810847074,0.00026791772688739,-0.00010438147000968456,-0.00174069800414145,0.00421178387477994,-0.00012850729399360716,-0.08908399194478989,0.09213985502719879,1.3029208183288574,-2.091493606567383,2.161282777786255,-0.7001199722290039,0.40363866090774536,0.6878439784049988,0.42000001668930054,-1.3800444602966309,2.9999985694885254,-0.12315018475055695,3.000000238418579,0.007965795695781708,0.006244700402021408,0.004410562105476856,0.002459885086864233,0.10851132124662399,0.050155043601989746,-0.010364793241024017,-0.07311815768480301
0.08333333333333333,0.036857929080724716,0.036785323172807693,0.0,0.9991950392723083,0.0,0.0,-0.04011564701795578,0.2272442877292633,0.8766724467277527,0.0,0.0,0.0,-3.8046319484710693,-0.37095752358436584,0.7330659031867981,0.4200000464916229,0.9999999403953552,3.626031229941873e-06,-2.3352447442448465e-06,3.032197639640799e-07,0.0002661392209120095,0.0002668500819709152,-0.00010405294597148895,-0.0017282416811212897,0.00419628107920289,-0.00012790791515726596,-0.11855180561542511,0.13202694058418274,1.2894716262817383,-1.4782862663269043,2.632746934890747,-0.8429951667785645,0.40363866090774536,0.6878439784049988,0.42000001668930054,-1.3300446271896362,2.9999992847442627,-0.1551174521446228,-2.999999523162842,0.0034614689648151398,0.0009183299844153225,-0.001792242517694831,-0.004677682649344206,-0.39931344985961914,-0.46178963780403137,-0.5270337462425232,-0.5952960252761841
0.1,0.04672469571232796,0.0517461933195591,0.0,0.9958032965660095,0.0,0.0,-0.09151923656463623,0.7375968098640442,0.9043705463409424,0.0,0.0,0.0,-6.961990833282471,-0.37095752358436584,0.7330659031867981,0.4200000464916229,1.0,3.4220790894323727e-06,-2.3084901386027923e-06,1.7962952369998675e-07,0.00026681559393182397,0.0002680041070561856,-0.00010440824553370476,-0.001743067754432559,0.004207110498100519,-0.0001289140636799857,-0.1447637379169464,0.17781785130500793,1.2753844261169434,-1.6632847785949707,2.892543077468872,-0.9050750136375427,0.40363866090774536,0.6878439784049988,0.42000001668930054,-1.280037760734558,3.000002384185791,-0.18795181810855865,-1.0756349563598633,0.0012733765179291368,-0.002839538035914302,-0.0071233781054615974,-0.011585919186472893,-0.040758803486824036,-0.14220599830150604,-0.24262653291225433,-0.34196773171424866
0.11666666666666667,0.05525687336921692,0.06380431354045868,0.0,0.9923774600028992,0.0,0.0,-0.12323536723852158,0.5397655367851257,0.6851900219917297,0.0,0.0,0.0,-2.5752038955688477,-0.37095752358436584,0.7330659627914429,0.4200000464916229,1.0,3.7114921269676415e-06,-2.3325701477006078e-06,2.574244888364774e-07,0.0002648564986884594,0.0002663535706233233,-0.0001042329240590334,-0.0017182455630972981,0.004170000087469816,-0.00012915577099192888,-0.1767120659351349,0.22394207119941711,1.2582212686538696,-1.885681390762329,2.987600326538086,-1.0540452003479004,0.40363866090774536,0.6878439784049988,0.42000001668930054,-1.230027675628662,2.999990940093994,-0.1479167491197586,3.0000007152557373,-0.00158607994671911,-0.007278967183083296,-0.013116530142724514,-0.019106505438685417,-0.08439406752586365,-0.19734907150268555,-0.3069531321525574,-0.41305211186408997
0.13333333333333333,0.061639439314603806,0.07330071181058884,0.0,0.9863436818122864,0.0,0.0,-0.1647002249956131,0.3149982690811157,0.4834226667881012,0.0,0.0,0.0,-5.751588821411133,-0.37095752358436584,0.7330659031867981,0.4200000464916229,0.9999999403953552,3.4247264011355583e-06,-2.301872882526368e-06,1.559877063073145e-07,0.0002670699032023549,0.000268113479251042,-0.0001044438686221838,-0.0017433533212170005,0.004212031606584787,-0.00012877589324489236,-0.20522567629814148,0.277618408203125,1.238740086555481,-1.517279028892517,3.5507709980010986,-1.2815005779266357,0.40363866090774536,0.6878439784049988,0.42000001668930054,-1.1811202764511108,2.842209815979004,-0.17972947657108307,-3.000000476837158,-0.004467060323804617,-0.012016015127301216,-0.019644292071461678,-0.02735762484371662,-0.2569550573825836,-0.3607819974422455,-0.4606614410877228,-0.5564500093460083
0.15,0.06388456374406815,0.08345605432987213,0.0,0.9778462052345276,0.0,0.0,-0.2093246430158615,0.06584847718477249,0.661146879196167,0.0,0.0,0.0,-5.348598003387451,-0.37095752358436584,0.7330659031867981,0.4200000464916229,1.0,3.7138852349016815e-06,-2.2076646928326227e-06,-1.690935107490077e-07,0.0002635338169056922,0.00026536203222349286,-0.00010422198101878166,-0.0017013110918924212,0.0041441041976213455,-0.00012960704043507576,-0.23572547733783722,0.33788740634918213,1.2107937335968018,-1.8526568412780762,3.8492650985717773,-2.0513203144073486,0.40363866090774536,0.6878439784049988,0.42000001668930054,-1.1514149904251099,0.8691306710243225,-0.14602892100811005,3.0000014305114746,-0.0102615961804986,-0.01918710023164749,-0.028114762157201767,-0.037049196660518646,-0.4106884300708771,-0.47001004219055176,-0.5248693823814392,-0.5753087997436523
0.16666666666666666,0.06956362724304199,0.09577421098947525,0.0,0.9666020274162292,0.0,0.0,-0.2562820613384247,0.3521772027015686,0.771946907043457,0.0,0.0,0.0,-5.842522621154785,-0.37095752358436584,0.7330659031867981,0.4200000464916229,0.9999999403953552,3.638363523350563e-06,-2.278693045809632e-06,2.700642482977855e-07,0.0002668263914529234,0.00026750031975097954,-0.00010410090908408165,-0.0017399657517671585,0.004210122860968113,-0.00012781827535945922,-0.2695392668247223,0.40273886919021606,1.1725488901138306,-1.9021198749542236,4.127076148986816,-2.5969128608703613,0.40363866090774536,0.6878439784049988,0.42000001668930054,-1.1081832647323608,2.999999761581421,-0.1778416633605957,-2.9999992847442627,-0.01626039296388626,-0.026080863550305367,-0.03582904115319252,-0.04551134631037712,-0.5144919157028198,-0.5373719334602356,-0.5574303269386292,-0.5748975872993469
0.18333333333333332,0.07214149087667465,0.10541735589504242,0.0,0.9604872465133667,0.0,0.0,-0.27832409739494324,0.12004222720861435,0.5126953125,0.0,0.0,0.0,-1.6094896793365479,-0.37095752358436584,0.7330659031867981,0.4200000464916229,1.0,3.3864323540910846e-06,-2.300143023603596e-06,1.4392101377325162e-07,0.00026674565742723644,0.0002678720629774034,-0.00010437029413878918,-0.0017412372399121523,0.004205969627946615,-0.0001287883351324126,-0.30459725856781006,0.46823135018348694,1.119866132736206,-1.8923330307006836,4.117504596710205,-3.6098451614379883,0.40363866090774536,0.6878439784049988,0.42000001668930054,-1.0598769187927246,2.7752580642700195,-0.2278698980808258,-2.999999761581421,-0.027482500299811363,-0.036998260766267776,-0.04642108827829361,-0.055767979472875595,-0.7068890929222107,-0.6730162501335144,-0.6382823586463928,-0.6033543348312378
0.2,0.07272838056087494,0.11642880737781525,0.0,0.9500758647918701,0.0,0.0,-0.3120190501213074,-0.03408533334732056,0.6758802533149719,0.0,0.0,0.0,-5.034632205963135,-0.37095752358436584,0.7330659627914429,0.4200000464916229,1.0,3.6755022847501095e-06,-2.3264412902790355e-06,2.211315717204343e-07,0.00026484468253329396,0.00026631311629898846,-0.00010421779006719589,-0.0017176943365484476,0.0041699339635670185,-0.00012910230725537986,-0.33366161584854126,0.5372772216796875,1.0529286861419678,-1.5026707649230957,4.179786682128906,-4.324113845825195,0.40363866090774536,0.6878439784049988,0.42000001668930054,-1.0099692344665527,3.0000007152557373,-0.2778961956501007,-3.0,-0.04158235713839531,-0.050258100032806396,-0.058838263154029846,-0.06735432893037796,-0.8627406358718872,-0.8138390779495239,-0.7643293142318726,-0.7149579524993896
0.21666666666666667,0.07613120973110199,0.1247805580496788,0.0,0.9446687698364258,0.0,0.0,-0.32802581787109375,0.24080932140350342,0.40774333477020264,0.0,0.0,0.0,-0.8893594741821289,-0.37095752358436584,0.7330659031867981,0.4200000464916229,1.0,3.322260681670741e-06,-2.2079154859966366e-06,2.7427799409451836e-07,0.0002666290965862572,0.0002674963907338679,-0.00010426202788949013,-0.0017359007615596056,0.004204810131341219,-0.00012833699292968959,-0.3598887324333191,0.6009565591812134,0.9733188152313232,-1.3318861722946167,3.641510009765625,-5.193327903747559,0.40363866090774536,0.6878439784049988,0.42000001668930054,-0.9599639177322388,2.9999990463256836,-0.32792308926582336,-2.9999983310699463,-0.05587448179721832,-0.06346037983894348,-0.07075432687997818,-0.07803265750408173,-0.953913688659668,-0.8779574036598206,-0.7751254439353943,-0.6770969033241272
0.23333333333333334,0.07493142038583755,0.1355591118335724,0.0,0.9345074892044067,0.0,0.0,-0.35594356060028076,-0.10374622046947479,0.651531994342804,0.0,0.0,0.0,-4.308081150054932,-0.37095752358436584,0.7330659031867981,0.4200000464916229,1.0,3.656489070635871e-06,-2.3733603029540973e-06,-4.076755999449233e-07,0.0002661180915310979,0.0002672612317837775,-0.0001042359508574009,-0.0017336306627839804,0.004194698762148619,-0.00012855089153163135,-0.37843334674835205,0.6557815074920654,0.8787977695465088,-0.875658392906189,3.0546417236328125,-5.904747009277344,0.40363866090774536,0.6878439784049988,0.42000001668930054,-0.9099547863006592,2.999998092651367,-0.3779524862766266,-2.9999992847442627,-0.07138506323099136,-0.07907244563102722,-0.0864935889840126,-0.09381032735109329,-0.8121634125709534,-0.8385741710662842,-0.8636795878410339,-0.8860073685646057
0.25,0.07824265211820602,0.14104564487934113,0.0,0.9304674863815308,0.0,0.0,-0.3663744032382965,0.20465709269046783,0.2418350875377655,0.0,0.0,0.0,-0.2921501398086548,-0.37095752358436584,0.7330659627914429,0.4200000464916229,1.0,3.630435230661533e-06,-2.2425372208090266e-06,1.1225562701611125e-08,0.0002667999651748687,0.0002670606190804392,-0.00010390975512564182,-0.0017342327628284693,0.004210583865642548,-0.0001270299544557929,-0.39427465200424194,0.6976238489151001,0.7776799201965332,-0.7209897041320801,2.0256757736206055,-6.279580593109131,0.40363866090774536,0.6878439784049988,0.42000001668930054,-0.8599448800086975,2.999997138977051,-0.42798367142677307,-3.0,-0.08416754752397537,-0.09167109429836273,-0.09894624352455139,-0.10613568872213364,-0.9892534613609314,-0.9269024133682251,-0.868565022945404,-0.8150055408477783
0.26666666666666666,0.07674522697925568,0.14548984169960022,0.0,0.9209964275360107,0.0,0.0,-0.38957107067108154,-0.17979688942432404,0.235513374209404,0.0,0.0,0.0,-3.9011268615722656,-0.37095749378204346,0.7330659031867981,0.4200000464916229,0.9999999403953552,3.7400498058559606e-06,-2.2362221443472663e-06,4.499843271332793e-07,0.00026479526422917843,0.0002667304943315685,-0.00010454165749251842,-0.0017189675709232688,0.004166619386523962,-0.00013016564480494708,-0.4009631872177124,0.722856879234314,0.6695339679718018,-0.01247599720954895,0.9768456816673279,-6.453311920166016,0.40363866090774536,0.6878439784049988,0.42000001668930054,-0.8099357485771179,3.000001907348633,-0.47801533341407776,-3.000000238418579,-0.10159118473529816,-0.1088808923959732,-0.11600180715322495,-0.1230720803141594,-1.0019168853759766,-1.0014393329620361,-1.001076579093933,-1.0007888078689575
0.2833333333333333,0.07260279357433319,0.14714618027210236,0.0,0.9186885356903076,0.0,0.0,-0.3949826955795288,-0.2553190290927887,0.031623296439647675,0.0,0.0,0.0,0.29008564352989197,-0.37095752358436584,0.7330659031867981,0.4200000464916229,1.0,3.3915318908839254e-06,-2.2911408450454473e-06,1.2461448761769134e-07,0.00026677080313675106,0.0002678920573089272,-0.00010437588207423687,-0.0017412164015695453,0.004206300713121891,-0.00012878398410975933,-0.40000879764556885,0.7315828800201416,0.5663866996765137,0.2286110669374466,0.16705426573753357,-5.990106582641602,0.40363866090774536,0.6878439784049988,0.42000001668930054,-0.759926974773407,2.999994993209839,-0.5280455350875854,-2.999997138977051,-0.118235744535923,-0.1254664957523346,-0.13254903256893158,-0.13958942890167236,-0.9557132720947266,-0.964676022529602,-0.9719007611274719,-0.9777528047561646
0.3,0.06643114984035492,0.14583256840705872,0.0,0.9112451672554016,0.0,0.0,-0.41186442971229553,-0.4184216260910034,-0.1253005713224411,0.0,0.0,0.0,-3.0613768100738525,-0.37095752358436584,0.7330659627914429,0.4200000464916229,1.0,3.6806275147682754e-06,-2.319080067536561e-06,2.0109595766371058e-07,0.0002647907240316272,0.0002662569750100374,-0.00010421173647046089,-0.0017167399637401104,0.004168936051428318,-0.00012909939687233418,-0.3905547857284546,0.7348294258117676,0.46803414821624756,0.9098195433616638,0.09598375111818314,-5.581315517425537,0.40363866090774536,0.6878439784049988,0.42000001668930054,-0.7099189162254333,3.0000009536743164,-0.5780742168426514,-3.0000007152557373,-0.13572226464748383,-0.1427769511938095,-0.14972704648971558,-0.15666280686855316,-1.0167768001556396,-1.0127118825912476,-1.0096065998077393,-1.0071184635162354
0.31666666666666665,0.05815678834915161,0.14207293093204498,0.0,0.9111138582229614,0.0,0.0,-0.41215476393699646,-0.5304840803146362,-0.2678656578063965,0.0,0.0,0.0,0.8848194479942322,-0.3707370162010193,0.7329995632171631,0.42034319043159485,0.9999094009399414,0.008505268022418022,9.465115726925433e-05,-0.010434123687446117,0.021558914333581924,-0.03370915725827217,0.029549114406108856,1.6444039344787598,-0.16691890358924866,-1.7664438486099243,-0.382763534784317,0.7366923093795776,0.42915889620780945,0.10480939596891403,-0.14288996160030365,-0.18865592777729034,0.40363866090774536,0.6878439784049988,0.42000001668930054,-0.6599395275115967,2.9997000694274902,-0.6285458207130432,-3.0028531551361084,-0.14497654139995575,-0.1525694727897644,-0.159841388463974,-0.16682182252407074,-0.15995684266090393,-0.2100791037082672,-0.23661118745803833,-0.23382316529750824
0.3333333333333333,0.04774538055062294,0.13594108819961548,0.0,0.9048604369163513,0.0,0.0,-0.4257083535194397,-0.6713778376579285,-0.4090139865875244,0.0,0.0,0.0,-2.727060556411743,-0.370449423789978,0.7329548001289368,0.42000171542167664,0.9998569488525391,-4.2905579903163016e-05,4.521950177149847e-05,-0.016909455880522728,0.019480347633361816,0.05376957729458809,-0.000833841972053051,0.010280369780957699,0.025694875046610832,-1.4609289169311523,-0.3818051815032959,0.7369670271873474,0.4267278015613556,0.18464139103889465,0.0065094828605651855,-0.19382110238075256,0.40363866090774536,0.6878439784049988,0.42000001668930054,-0.6099335551261902,2.999918222427368,-0.678600549697876,-2.9999966621398926,-0.14905864000320435,-0.15687081217765808,-0.1640036255121231,-0.17041362822055817,-0.3182194232940674,-0.29788875579833984,-0.2600399851799011,-0.20144928991794586
0.35,0.03515690937638283,0.1273733377456665,0.0,0.9055798649787903,0.0,0.0,-0.42417579889297485,-0.7938061952590942,-0.5563688278198242,0.0,0.0,0.0,1.1513304710388184,-0.3694356381893158,0.7350662350654602,0.4200000464916229,0.9987486600875854,2.690070459721028e-07,4.101911599718733e-06,-0.05000940337777138,0.13086315989494324,0.26089364290237427,-3.3470147172920406e-05,0.00113774836063385,-0.0009720940142869949,-8.579154014587402,-0.3777962923049927,0.7398721575737,0.42360007762908936,0.31359314918518066,0.29164618253707886,-0.16181786358356476,0.40363866090774536,0.6878439784049988,0.42000001668930054,-0.5599284768104553,2.999978542327881,-0.7286428809165955,-3.0000016689300537,-0.15602801740169525,-0.16283413767814636,-0.16866342723369598,-0.1734447181224823,-0.43299955129623413,-0.3526202440261841,-0.2548273205757141,-0.1387353390455246
0.36666666666666664,0.025575993582606316,0.11591838300228119,0.0,0.8999864459037781,0.0,0.0,-0.4359179437160492,-0.46903806924819946,-0.7409669160842896,0.0,0.0,0.0,-2.4484829902648926,-0.3665286898612976,0.7400584816932678,0.4200000464916229,0.9927916526794434,-1.289985789298953e-07,2.206940962423687e-06,-0.11985263228416443,0.13450422883033752,0.24917632341384888,-3.071851097047329e-06,-8.014245395315811e-05,-0.00016291605425067246,-6.605315208435059,-0.37148040533065796,0.74342942237854,0.4216671586036682,0.5121586322784424,0.28661268949508667,-0.09053099900484085,0.40363866090774536,0.6878439784049988,0.42000001668930054,-0.5099236965179443,2.99997878074646,-0.7786991596221924,-2.9999897480010986,-0.16358917951583862,-0.1686091423034668,-0.17233487963676453,-0.17470024526119232,-0.4314044713973999,-0.3085613548755646,-0.1672845035791397,-0.008572121150791645
0.3833333333333333,0.014589330181479454,0.10272536426782608,0.0,0.8825914263725281,0.0,0.0,-0.4701407551765442,-0.7332763075828552,-0.8172873854637146,0.0,0.0,0.0,-5.963314533233643,-0.35961028933525085,0.7492588758468628,0.4203135371208191,0.9813553690910339,0.007726910524070263,-0.0011846224078908563,-0.19204309582710266,0.6921453475952148,0.8377655148506165,0.07589945197105408,3.639350414276123,-1.2780183553695679,-2.581132411956787,-0.3607158660888672,0.7511820197105408,0.4217289090156555,0.826256513595581,0.7118342518806458,0.0794791430234909,0.40363866090774536,0.6878439784049988,0.42000001668930054,-0.4599197506904602,2.999986171722412,-0.8287568688392639,-2.9999327659606934,-0.1723005771636963,-0.1748754233121872,-0.17584015429019928,-0.17516320943832397,-0.48265784978866577,-0.33904922008514404,-0.17590367794036865,0.004542666953057051
0.4,0.006268724333494902,0.08661536872386932,0.0,0.8482131361961365,0.0,0.0,-0.5296550393104553,-0.44162631034851074,-1.0094109773635864,0.0,0.0,0.0,-8.976299285888672,-0.3306673765182495,0.7712075114250183,0.422977477312088,0.974448561668396,0.015907803550362587,-0.020248182117938995,-0.22312982380390167,2.2336156368255615,2.2654149532318115,-0.08744747936725616,15.551338195800781,-34.258277893066406,-20.758865356445312,-0.3308539390563965,0.7717456817626953,0.42415374517440796,2.847423553466797,1.759950041770935,0.31464189291000366,0.40363866090774536,0.6878439784049988,0.42000001668930054,-0.41022583842277527,2.8519721031188965,-0.878791093826294,-3.000002145767212,-0.18105928599834442,-0.180577352643013,-0.17817707359790802,-0.17389389872550964,-0.554106593132019,-0.3439828157424927,-0.11805378645658493,0.11848676204681396
0.4166666666666667,0.0004777611466124654,0.0757913887500763,0.0,0.7951075434684753,0.0,0.0,-0.6064684391021729,-0.29497361183166504,-0.5171381235122681,0.0,0.0,0.0,-12.020655632019043,-0.25665536522865295,0.8061270117759705,0.4280734956264496,0.9524649381637573,0.07488317042589188,-0.06671585887670517,-0.2876664996147156,5.994448184967041,2.436699628829956,0.4493439197540283,14.6972074508667,-13.457530975341797,3.3935914039611816,-0.2564704716205597,0.8068803548812866,0.42965251207351685,5.64937162399292,2.4345946311950684,0.47467705607414246,0.40363866090774536,0.6878439784049988,0.42000001668930054,-0.38034960627555847,1.018153190612793,-0.8419756889343262,2.9996840953826904,-0.1967196762561798,-0.19307808578014374,-0.18540255725383759,-0.1760161817073822,-0.8798620104789734,-0.820795476436615,-0.5171730518341064,-0.23219387233257294
0.43333333333333335,-0.007810138165950775,0.06990095227956772,0.0,0.7519362568855286,0.0,0.0,-0.6592358350753784,-0.4542585611343384,-0.3596947193145752,0.0,0.0,0.0,-6.7781219482421875,-0.16258162260055542,0.8424190878868103,0.43928924202919006,0.9202292561531067,0.11108940094709396,-0.09005662053823471,-0.3643172085285187,6.003332138061523,1.5803346633911133,0.6970250010490417,6.10844612121582,-11.021814346313477,7.242156505584717,-0.1617465317249298,0.8441487550735474,0.44050073623657227,5.818137168884277,2.0142149925231934,0.7436570525169373,0.40363866090774536,0.6878439784049988,0.42000001668930054,-0.36594319343566895,0.9006600975990295,-0.8686327338218689,-3.000001907348633,-0.2087528556585312,-0.2059551626443863,-0.19613070785999298,-0.18241654336452484,-0.5276569724082947,-0.6169514656066895,-0.5453469753265381,-0.35515478253364563
0.45,-0.011099228635430336,0.05728219822049141,0.0,0.7304285764694214,0.0,0.0,-0.6829890608787537,-0.11290992796421051,-0.8948419690132141,0.0,0.0,0.0,-2.8854169845581055,-0.0613977387547493,0.8675712943077087,0.4505252540111542,0.8671160936355591,0.10075023025274277,-0.10412600636482239,-0.4765675663948059,6.086853981018066,0.4394022226333618,0.6828947067260742,-8.405538558959961,5.283607482910156,2.9401912689208984,-0.06242336332798004,0.8693867921829224,0.45128652453422546,6.16190767288208,0.8982385993003845,0.7106177806854248,0.40363866090774536,0.6878439784049988,0.42000001668930054,-0.3465923070907593,1.2660259008407593,-0.9186567068099976,-3.0000011920928955,-0.21417807042598724,-0.21177303791046143,-0.20027749240398407,-0.183339461684227,-0.2842768430709839,-0.2365533858537674,-0.09773173183202744,0.11096462607383728
0.4666666666666667,-0.017946122214198112,0.047841329127550125,0.0,0.6986749768257141,0.0,0.0,-0.7154392004013062,-0.39986059069633484,-0.5487881898880005,0.0,0.0,0.0,-6.149297714233398,0.037678126245737076,0.871238648891449,0.46110811829566956,0.8117251992225647,0.0955427810549736,-0.10532153397798538,-0.5664636492729187,5.92349910736084,-0.9606879949569702,0.616230309009552,6.445832252502441,-11.590726852416992,27.922168731689453,0.03677765280008316,0.8744916915893555,0.46218669414520264,6.022430896759033,-0.09441762417554855,0.657842218875885,0.40363866090774536,0.6878439784049988,0.42000001668930054,-0.3288504183292389,0.8525481224060059,-0.968680739402771,-3.000002861022949,-0.22338922321796417,-0.21880775690078735,-0.2042950987815857,-0.18371699750423431,-0.427726149559021,-0.31233176589012146,-0.1710781306028366,-0.007971392944455147
0.48333333333333334,-0.02193111553788185,0.04205967113375664,0.0,0.6824986934661865,0.0,0.0,-0.7308868169784546,-0.16855183243751526,-0.2601618468761444,0.0,0.0,0.0,-1.51576828956604,0.13121077418327332,0.8617683053016663,0.4680447280406952,0.7516056299209595,0.08098242431879044,-0.10382451862096786,-0.6463367938995361,5.160472869873047,-1.6723014116287231,0.28327563405036926,1.0486159324645996,-8.729137420654297,16.825942993164062,0.13011664152145386,0.8654016256332397,0.46928656101226807,5.375629425048828,-1.0329357385635376,0.3321411609649658,0.40363866090774536,0.6878439784049988,0.42000001668930054,-0.31580662727355957,0.6848950386047363,-1.0187040567398071,-3.0000016689300537,-0.23110975325107574,-0.22415798902511597,-0.20730602741241455,-0.18438082933425903,-0.440105140209198,-0.28131958842277527,-0.14927777647972107,-0.03554840758442879
0.5,-0.02239762432873249,0.03510965406894684,0.0,0.6590411067008972,0.0,0.0,-0.7521069049835205,0.026542605832219124,-0.47912564873695374,0.0,0.0,0.0,-4.69047737121582,0.21010777354240417,0.8392364382743835,0.46824556589126587,0.7202067375183105,0.059281568974256516,-0.08942310512065887,-0.6854133009910583,4.045540809631348,-2.1008241176605225,-0.06626027822494507,-3.09954571723938,7.071073055267334,9.70244026184082,0.20979800820350647,0.8426181077957153,0.47003173828125,4.393589019775391,-1.736051082611084,-0.10075084120035172,0.40363866090774536,0.6878439784049988,0.42000001668930054,-0.30343392491340637,0.7940929532051086,-1.0687261819839478,-2.9983327388763428,-0.23834261298179626,-0.2282995730638504,-0.209103062748909,-0.18437466025352478,-0.3768104612827301,-0.18262434005737305,-0.04776964709162712,0.04390198737382889
0.5166666666666666,-0.0199141725897789,0.03126893192529678,0.0,0.6494907736778259,0.0,0.0,-0.7603694796562195,0.1824704110622406,-0.17814822494983673,0.0,0.0,0.0,-0.43008315563201904,0.27392131090164185,0.8078959584236145,0.4623144567012787,0.6852127909660339,0.012817781418561935,-0.08724486082792282,-0.7229849696159363,3.2276923656463623,-2.4380202293395996,-0.47168153524398804,-2.941175937652588,-3.138179302215576,10.384900093078613,0.27368783950805664,0.8110949993133545,0.46537038683891296,3.4224820137023926,-2.0119481086730957,-0.4197825789451599,0.40363866090774536,0.6878439784049988,0.42000001668930054,-0.28825893998146057,0.8901806473731995,-1.1187483072280884,-3.0000011920928955,-0.23990726470947266,-0.23275279998779297,-0.21149107813835144,-0.1855815201997757,0.019851379096508026,-0.1451324075460434,-0.07143299281597137,-0.05392717570066452
0.5333333333333333,-0.015143412165343761,0.025544453412294388,0.0,0.6301603317260742,0.0,0.0,-0.7764650583267212,0.35291537642478943,-0.3309539258480072,0.0,0.0,0.0,-3.9192800521850586,0.3239504098892212,0.7768730521202087,0.4502030611038208,0.6769879460334778,0.0040707881562411785,-0.04750249907374382,-0.734448254108429,2.4977669715881348,-2.2291529178619385,-1.001635193824768,-8.970836639404297,8.069418907165527,4.634563446044922,0.3248272240161896,0.7795611619949341,0.45249390602111816,2.6637768745422363,-1.9211018085479736,-0.8867089748382568,0.40363866090774536,0.6878439784049988,0.42000001668930054,-0.27291756868362427,0.9622972011566162,-1.168770432472229,-2.9998936653137207,-0.2348477840423584,-0.2308247685432434,-0.20982682704925537,-0.18504400551319122,0.2548401355743408,0.11888676881790161,0.08885544538497925,-2.6869898306358664e-08
0.55,-0.012101353146135807,0.022878456860780716,0.0,0.6249491572380066,0.0,0.0,-0.7806654572486877,0.12157715111970901,-0.09884695708751678,0.0,0.0,0.0,0.14579595625400543,0.36296045780181885,0.7439851760864258,0.4298774003982544,0.6348718404769897,-0.11378674954175949,-0.08618636429309845,-0.7593169808387756,1.868418574333191,-2.021899938583374,-1.0322191715240479,6.268379211425781,-3.411240577697754,16.705259323120117,0.36328476667404175,0.747165858745575,0.4362240433692932,2.0038580894470215,-1.939001441001892,-1.1225239038467407,0.40363866090774536,0.6878439784049988,0.42000001668930054,-0.26042383909225464,0.6817699670791626,-1.2187925577163696,-3.000002145767212,-0.23055098950862885,-0.22839663922786713,-0.2084190398454666,-0.18561601638793945,0.3156631290912628,0.2097768932580948,0.10766532272100449,-0.04969768598675728
0.5666666666666667,-0.008238395676016808,0.01828964799642563,0.0,0.6097468137741089,0.0,0.0,-0.7925962209701538,0.28473901748657227,-0.3212544322013855,0.0,0.0,0.0,-3.1679375171661377,0.3875505328178406,0.7233880162239075,0.42159077525138855,0.6253787875175476,-0.025266557931900024,-0.02643384039402008,-0.779464066028595,0.8302098512649536,-1.1692968606948853,0.0006302259862422943,-2.9375195503234863,27.038433074951172,4.1390485763549805,0.3865101933479309,0.723720371723175,0.42522644996643066,0.8541312217712402,-0.9716696739196777,-0.05101761221885681,0.40363866090774536,0.6878439784049988,0.42000001668930054,-0.24661804735660553,1.1448826789855957,-1.2337369918823242,0.8952520489692688,-0.22310899198055267,-0.22307728230953217,-0.2057162970304489,-0.18627069890499115,0.426247775554657,0.31450220942497253,0.14197403192520142,-0.0696602389216423
0.5833333333333334,-0.004200339782983065,0.01590592972934246,0.0,0.6086413860321045,0.0,0.0,-0.7934454679489136,0.21249429881572723,-0.08704350143671036,0.0,0.0,0.0,0.6667582392692566,0.39965736865997314,0.7096382975578308,0.4221845865249634,0.6107015013694763,-0.040809888392686844,-0.004556423984467983,-0.7907953262329102,0.2920069098472595,-0.9976413249969482,0.1572447270154953,-1.6340065002441406,5.815372943878174,12.068000793457031,0.3977680802345276,0.7090053558349609,0.4262188971042633,0.5736948251724243,-0.7830246686935425,0.07374896109104156,0.40363866090774536,0.6878439784049988,0.42000001668930054,-0.23151610791683197,0.5856632590293884,-1.2710446119308472,-2.998260498046875,-0.2167355716228485,-0.218240886926651,-0.203826904296875,-0.18787914514541626,0.39857017993927,0.3166719377040863,0.12921142578125,-0.0869251936674118
0.6,0.0009574026335030794,0.01341718714684248,0.0,0.596115231513977,0.0,0.0,-0.8028988838195801,0.36099037528038025,-0.1400470733642578,0.0,0.0,0.0,-2.7462401390075684,0.4051567614078522,0.7022661566734314,0.4209795892238617,0.6205171942710876,-0.018114572390913963,-0.004724373575299978,-0.7839692831039429,-0.005045474041253328,-0.4268818497657776,-0.04137805849313736,1.7160124778747559,-0.7605788111686707,9.295069694519043,0.4025614559650421,0.7008455395698547,0.4246898293495178,0.12229643762111664,-0.3254392147064209,-0.10808088630437851,0.40363866090774536,0.6878439784049988,0.42000001668930054,-0.22135627269744873,0.6486008763313293,-1.23291015625,2.999678134918213,-0.20709718763828278,-0.21058064699172974,-0.2000660002231598,-0.18830753862857819,0.5381002426147461,0.4417833089828491,0.2177508920431137,-0.021146688610315323
0.6166666666666667,0.007319492753595114,0.013407687656581402,0.0,0.5975490808486938,0.0,0.0,-0.8018323183059692,0.4305802881717682,0.11036098003387451,0.0,0.0,0.0,1.0948011875152588,0.4055725336074829,0.6969351768493652,0.42072510719299316,0.6522848606109619,-0.01225555595010519,0.0075597697868943214,-0.7578369975090027,0.028364019468426704,-0.18600685894489288,0.08058372884988785,-0.7924355864524841,3.0831549167633057,3.261202573776245,0.4031863808631897,0.6968206763267517,0.4254002571105957,-0.0576372891664505,-0.13872626423835754,0.1222955659031868,0.40363866090774536,0.6878439784049988,0.42000001668930054,-0.25230222940444946,-2.9318583011627197,-1.253509521484375,-2.9995479583740234,-0.19935673475265503,-0.20411217212677002,-0.197069451212883,-0.18894635140895844,0.4183417856693268,0.3557650148868561,0.15747518837451935,-0.0474364347755909
0.6333333333333333,0.01599297672510147,0.014293776825070381,0.0,0.6217314004898071,0.0,0.0,-0.7832304835319519,0.5622451901435852,0.04164031147956848,0.0,0.0,0.0,4.65010929107666,0.4047941565513611,0.6952186226844788,0.4207914471626282,0.6580902934074402,-0.013499118387699127,0.01106185931712389,-0.7527367472648621,-0.10055552423000336,-0.04830089956521988,-0.017619438469409943,0.1455000340938568,-0.6975739002227783,-0.5661553740501404,0.40183717012405396,0.6978498697280884,0.42780476808547974,-0.10904255509376526,0.18378327786922455,0.16545498371124268,0.40363866090774536,0.6878439784049988,0.42000001668930054,-0.3022801876068115,-2.9994914531707764,-1.3034764528274536,-2.9986443519592285,-0.19062703847885132,-0.19659774005413055,-0.19297929108142853,-0.1882830709218979,0.5908243656158447,0.5161258578300476,0.31080541014671326,0.10856326669454575
0.65,0.02632959932088852,0.012200743891298771,0.0,0.6322669982910156,0.0,0.0,-0.7747505307197571,0.6583454012870789,-0.15700763463974,0.0,0.0,0.0,0.5484686493873596,0.4032203257083893,0.6949986219406128,0.4200010299682617,0.6535859107971191,4.234830157656688e-06,-3.5875204048352316e-05,-0.7568522691726685,-0.08085548132658005,-0.0022476851008832455,-0.0005865223938599229,0.027306770905852318,0.018260283395648003,-0.8291595578193665,0.4003661870956421,0.7014307975769043,0.43172478675842285,-0.06553676724433899,0.1646328866481781,0.2828354239463806,0.40363866090774536,0.6878439784049988,0.42000001668930054,-0.3522831201553345,-2.999396562576294,-1.3534467220306396,-2.999983072280884,-0.18105745315551758,-0.18770352005958557,-0.1867583692073822,-0.18457025289535522,0.5146770477294922,0.5146578550338745,0.40249311923980713,0.3030094802379608
0.6666666666666666,0.03844977542757988,0.007300661411136389,0.0,0.6188603043556213,0.0,0.0,-0.7855010628700256,0.758579432964325,-0.35841959714889526,0.0,0.0,0.0,-2.9945454597473145,0.4028394818305969,0.6949814558029175,0.4200000762939453,0.652362585067749,-2.042185087702819e-06,2.3230227270687465e-06,-0.757906973361969,-0.00010244175064144656,8.581739530200139e-05,-0.00017729680985212326,-0.001460831961594522,-0.008655628189444542,0.00021173713321331888,0.4005809724330902,0.7035270929336548,0.4390907287597656,0.10818050801753998,0.06341902166604996,0.7168995141983032,0.40363866090774536,0.6878439784049988,0.42000001668930054,-0.40229782462120056,-2.999985933303833,-1.403464913368225,-2.999999523162842,-0.17502522468566895,-0.18098779022693634,-0.18107856810092926,-0.1796908676624298,0.2756577730178833,0.34705013036727905,0.32327479124069214,0.314162015914917
0.6833333333333333,0.05341796204447746,0.005839521996676922,0.0,0.5828338265419006,0.0,0.0,-0.8125913739204407,0.9179263710975647,-0.08958514034748077,0.0,0.0,0.0,-6.246636390686035,0.4028390049934387,0.6949817538261414,0.4200000464916229,0.6523628234863281,7.49307616842998e-07,-3.8369007597793825e-06,-0.7579066753387451,0.00021843580179847777,-0.0002987255866173655,-0.000108339823782444,0.005674377083778381,5.110660276841372e-05,-0.0004432357382029295,0.40935155749320984,0.7004203796386719,0.45822110772132874,1.0075857639312744,-0.31073763966560364,1.656423568725586,0.40363866090774536,0.6878439784049988,0.42000001668930054,-0.45231136679649353,-2.9999477863311768,-1.4534832239151,-2.999997854232788,-0.17546521127223969,-0.1795077621936798,-0.17913281917572021,-0.17706847190856934,-0.0079306960105896,0.08969275653362274,0.11143852025270462,0.14914487302303314
0.7,0.06521352380514145,0.005808921065181494,0.0,0.5615765452384949,0.0,0.0,-0.8274247646331787,0.6235015988349915,0.04076262190937996,0.0,0.0,0.0,-2.0842390060424805,0.4028390347957611,0.6949817538261414,0.4200000464916229,0.6523628234863281,8.00774671461113e-07,-3.7364156924013514e-06,-0.7579067349433899,0.00021359496167860925,-0.00028420303715392947,-0.00010429462417960167,0.005362587980926037,0.00012451059592422098,-0.0004333231190685183,0.4273817241191864,0.7004733681678772,0.48654240369796753,1.0607964992523193,0.23448559641838074,1.7447857856750488,0.40363866090774536,0.6878439784049988,0.42000001668930054,-0.4768746495246887,-0.1755553036928177,-1.503501534461975,-3.000000238418579,-0.17426955699920654,-0.17739993333816528,-0.17730632424354553,-0.17532841861248016,0.14267712831497192,0.15825757384300232,0.10554830729961395,0.060139935463666916
0.7166666666666667,0.07211257517337799,0.008323617279529572,0.0,0.5664452910423279,0.0,0.0,-0.8240993618965149,0.3609078526496887,0.23294681310653687,0.0,0.0,0.0,1.5464667081832886,0.4028390049934387,0.6949817538261414,0.4200000464916229,0.6523628234863281,6.683917490590829e-07,-4.096308657608461e-06,-0.7579067945480347,0.00021762795222457498,-0.0002835937193594873,-0.00010557030327618122,0.005329849664121866,0.00017689385276753455,-0.0004422610509209335,0.44361090660095215,0.7064918279647827,0.5095199942588806,0.7815276384353638,0.4061127007007599,1.0606234073638916,0.40363866090774536,0.6878439784049988,0.42000001668930054,-0.4612443447113037,1.859696626663208,-1.464761734008789,3.000000238418579,-0.1714954972267151,-0.1742938756942749,-0.1748994141817093,-0.17355942726135254,0.11171041429042816,0.15114788711071014,0.13228043913841248,0.1112389788031578
0.7333333333333333,0.07518815994262695,0.00691197207197547,0.0,0.5592151880264282,0.0,0.0,-0.8290225267410278,0.13122150301933289,-0.17931514978408813,0.0,0.0,0.0,-1.9752212762832642,0.4028390049934387,0.6949817538261414,0.4200000464916229,0.6523628234863281,7.843476055313658e-07,-3.7504769352381118e-06,-0.7579067349433899,0.0002128553605871275,-0.0002837176725734025,-0.00010410626418888569,0.0053552365861833096,0.00011732897110050544,-0.0004319585277698934,0.4496706426143646,0.7124969959259033,0.5204521417617798,-0.061101432889699936,0.32898470759391785,0.445257306098938,0.40363866090774536,0.6878439784049988,0.42000001668930054,-0.43877705931663513,0.8997249603271484,-1.4147090911865234,2.999999761581421,-0.1681642085313797,-0.17037680745124817,-0.17127451300621033,-0.1703179031610489,0.21037492156028748,0.2540121078491211,0.24839536845684052,0.2324981838464737
0.75,0.07517221570014954,0.009636638686060905,0.0,0.5651163458824158,0.0,0.0,-0.8250111937522888,-0.040461860597133636,0.2979958653450012,0.0,0.0,0.0,1.7331095933914185,0.4028390049934387,0.6949816942214966,0.4200000464916229,0.6523628234863281,6.963435907891835e-07,-3.7393208458524896e-06,-0.7579067349433899,0.00021826323063578457,-0.00028356522670947015,-0.000105731887742877,0.005326519254595041,0.00018580860341899097,-0.0004435788141563535,0.44778871536254883,0.7174903154373169,0.5256702899932861,-0.16663984954357147,0.33931419253349304,0.19939160346984863,0.40363866090774536,0.6878439784049988,0.42000001668930054,-0.42402562499046326,0.8615406155586243,-1.432551383972168,-3.000000238418579,-0.17006134986877441,-0.17051437497138977,-0.1704789400100708,-0.1689252406358719,-0.187277689576149,-0.07678572833538055,-0.01210740115493536,0.029093600809574127
0.7666666666666666,0.07628930360078812,0.010885410010814667,0.0,0.5589570999145508,0.0,0.0,-0.829196572303772,0.09570159018039703,0.02212521806359291,0.0,0.0,0.0,-1.80098295211792,0.4028390347957611,0.6949816942214966,0.4200000464916229,0.6523625254631042,7.928070999696502e-07,-3.862429821310798e-06,-0.7579070925712585,0.00021887829643674195,-0.00028272884082980454,-0.00010608742013573647,0.005303877871483564,0.00019331501971464604,-0.0004453980945982039,0.4398844242095947,0.7209590673446655,0.5217896103858948,-0.7260332107543945,0.09095551818609238,-0.4562579393386841,0.40363866090774536,0.6878439784049988,0.42000001668930054,-0.43640589714050293,-2.0811712741851807,-1.3940120935440063,3.000000476837158,-0.17251460254192352,-0.1712779849767685,-0.17017917335033417,-0.1679261177778244,-0.15852506458759308,-0.05364668369293213,0.019443606957793236,0.07059165090322495
0.7833333333333333,0.07956293225288391,0.009340318851172924,0.0,0.5654639601707458,0.0,0.0,-0.8247730135917664,0.23677580058574677,-0.17049482464790344,0.0,0.0,0.0,1.7409861087799072,0.4028390347957611,0.6949816942214966,0.4200000464916229,0.6523628830909729,7.49388448184618e-07,-4.1010557652043644e-06,-0.7579067349433899,0.00021726351405959576,-0.00028285745065659285,-0.0001056622713804245,0.00531370285898447,0.0001705479808151722,-0.0004421670164447278,0.4299723207950592,0.721173882484436,0.5154106020927429,-0.4850453734397888,-0.02315562777221203,-0.27823904156684875,0.40363866090774536,0.6878439784049988,0.42000001668930054,-0.4843999147415161,-3.0000011920928955,-1.4122563600540161,-2.999999761581421,-0.176561638712883,-0.17315204441547394,-0.1702234148979187,-0.16642265021800995,-0.22291982173919678,-0.0931796059012413,0.02670515514910221,0.1357799768447876
0.8,0.08507233113050461,0.004919343162328005,0.0,0.5591403245925903,0.0,0.0,-0.8290730118751526,0.3693627715110779,-0.32170262932777405,0.0,0.0,0.0,-1.8207968473434448,0.4028390347957611,0.6949817538261414,0.4200000464916229,0.6523628234863281,8.282001999759814e-07,-3.814490582954022e-06,-0.7579067349433899,0.00021185647347010672,-0.0002830545126926154,-0.00010405643843114376,0.005343270022422075,0.00010132572788279504,-0.00043050505337305367,0.42596787214279175,0.7181932926177979,0.5081319808959961,0.02859174646437168,-0.30179595947265625,-0.41006147861480713,0.40363866090774536,0.6878439784049988,0.42000001668930054,-0.5344125628471375,-2.999986410140991,-1.4622746706008911,-3.0,-0.18110352754592896,-0.1754598766565323,-0.17029960453510284,-0.16435790061950684,-0.24161258339881897,-0.11376260966062546,0.021750696003437042,0.15641175210475922
0.8166666666666667,0.09299620985984802,-0.0006772836786694825,0.0,0.5309349894523621,0.0,0.0,-0.8474125266075134,0.5079049468040466,-0.36782076954841614,0.0,0.0,0.0,-4.919083118438721,0.4028390049934387,0.6949816942214966,0.4200000464916229,0.6523628234863281,6.654067874478642e-07,-4.000383796665119e-06,-0.7579067945480347,0.00021796926739625633,-0.0002836684579961002,-0.00010565156117081642,0.005330097395926714,0.0001812093541957438,-0.00044293381506577134,0.4291362762451172,0.7096869945526123,0.5062557458877563,0.37350958585739136,-0.6240097880363464,0.3019188940525055,0.40363866090774536,0.6878439784049988,0.42000001668930054,-0.584425151348114,-2.999959945678711,-1.5122929811477661,-2.999999523162842,-0.18491758406162262,-0.17761559784412384,-0.17053474485874176,-0.1625908762216568,-0.15571387112140656,-0.0875220075249672,0.00228861253708601,0.10122532397508621
0.8333333333333334,0.10315605998039246,-0.003547288943082094,0.0,0.5192587375640869,0.0,0.0,-0.8546170592308044,0.6491340398788452,-0.08929361402988434,0.0,0.0,0.0,-0.6460763812065125,0.4028390049934387,0.6949817538261414,0.4200000464916229,0.6523627638816833,7.854425234654627e-07,-3.6677458865597146e-06,-0.7579067945480347,0.000212959959753789,-0.0002837831561919302,-0.00010415865108370781,0.005355104338377714,0.00011687185906339437,-0.0004322169697843492,0.4357374906539917,0.7063719034194946,0.5150202512741089,0.3722997009754181,0.08180885016918182,0.7044665813446045,0.40363866090774536,0.6878439784049988,0.42000001668930054,-0.6040269136428833,0.3709782660007477,-1.5623112916946411,-3.000000238418579,-0.18633703887462616,-0.17902083694934845,-0.1715557724237442,-0.1630690097808838,-0.001499197562225163,-0.054136063903570175,-0.08674450218677521,-0.11155375838279724
0.85,0.10987579077482224,-0.0037192380987107754,0.0,0.5337915420532227,0.0,0.0,-0.8456161022186279,0.31996846199035645,0.027783075347542763,0.0,0.0,0.0,2.893230438232422,0.4028390049934387,0.6949816942214966,0.4200000464916229,0.6523629426956177,7.538365025538951e-07,-4.0431423258269206e-06,-0.7579066157341003,0.00021702384401578456,-0.0002826912677846849,-0.00010557682253420353,0.005312254652380943,0.00016984659305308014,-0.0004415976000018418,0.44467082619667053,0.7107187509536743,0.5218250751495361,0.5955507755279541,0.3273012042045593,0.15479254722595215,0.40363866090774536,0.6878439784049988,0.42000001668930054,-0.5863091945648193,1.6298668384552002,-1.5234040021896362,2.999999761581421,-0.18307669460773468,-0.17728233337402344,-0.17098583281040192,-0.16351650655269623,0.27147966623306274,0.1721559464931488,0.091172955930233,0.016573874279856682
0.8666666666666667,0.11198746412992477,-0.008073330856859684,0.0,0.5337802171707153,0.0,0.0,-0.845623254776001,0.08391770720481873,-0.33258020877838135,0.0,0.0,0.0,-1.0454541444778442,0.4028390347957611,0.6949816942214966,0.4200000464916229,0.6523625254631042,8.400653541684733e-07,-3.828007720585447e-06,-0.7579070925712585,0.00021404372819233686,-0.00028303670114837587,-0.00010462058708071709,0.005333161912858486,0.0001313145476160571,-0.00043493061093613505,0.4521830677986145,0.7134037017822266,0.5209928750991821,0.2985997796058655,0.003212466835975647,-0.08845490962266922,0.40363866090774536,0.6878439784049988,0.42000001668930054,-0.5965001583099365,-2.4876136779785156,-1.4733513593673706,3.000000238418579,-0.1770421415567398,-0.17294076085090637,-0.16806045174598694,-0.16192495822906494,0.2857770025730133,0.21046648919582367,0.14736661314964294,0.08466030657291412
0.8833333333333333,0.1177254468202591,-0.00632142461836338,0.0,0.5461529493331909,0.0,0.0,-0.8376854658126831,0.28300806879997253,0.1844736933708191,0.0,0.0,0.0,2.520930051803589,0.4028390049934387,0.6949817538261414,0.4200000464916229,0.6523627638816833,7.536301041000115e-07,-4.053881184518104e-06,-0.7579068541526794,0.00021606771042570472,-0.00028268652386032045,-0.00010535167530179024,0.005315382499247789,0.000155310845002532,-0.0004396955482661724,0.4579302668571472,0.7119041681289673,0.5185900330543518,0.3814082145690918,0.007225498557090759,-0.18750543892383575,0.40363866090774536,0.6878439784049988,0.42000001668930054,-0.6166102886199951,-0.11652351915836334,-1.490047812461853,-2.999999761581421,-0.1799890249967575,-0.17549903690814972,-0.17012356221675873,-0.16361235082149506,-0.06871260702610016,-0.06983514130115509,-0.05871373787522316,-0.04802706837654114
