vladlanda/robotic-transformer/data/env_000_episode_0274.csv
sim_time_s,robot_box_x,robot_box_y,robot_box_z,robot_box_quat_w,robot_box_quat_x,robot_box_quat_y,robot_box_quat_z,robot_box_linvel_x,robot_box_linvel_y,robot_box_linvel_z,robot_box_angvel_x,robot_box_angvel_y,robot_box_angvel_z,cube_world_x,cube_world_y,cube_world_z,cube_quat_w,cube_quat_x,cube_quat_y,cube_quat_z,cube_linvel_x,cube_linvel_y,cube_linvel_z,cube_angvel_x,cube_angvel_y,cube_angvel_z,endpoint_world_x,endpoint_world_y,endpoint_world_z,endpoint_linvel_x,endpoint_linvel_y,endpoint_linvel_z,target_cube_world_x,target_cube_world_y,target_cube_world_z,gripper_actual_pos_rad_gp_leftgearjoint,gripper_actual_vel_rad_s_gp_leftgearjoint,gripper_actual_pos_rad_gp_rotatingjoint,gripper_actual_vel_rad_s_gp_rotatingjoint,motor_angle_rad_joint1,motor_angle_rad_joint2,motor_angle_rad_joint3,motor_angle_rad_joint4,motor_speed_rad_s_joint1,motor_speed_rad_s_joint2,motor_speed_rad_s_joint3,motor_speed_rad_s_joint4
0.0,0.0,0.0,0.0,1.0,0.0,0.0,0.0,0.0,0.0,0.0,0.0,0.0,0.0,-0.4727610945701599,0.6349694728851318,0.41999998688697815,1.0,0.0,0.0,0.0,0.0,0.0,0.0,0.0,0.0,0.0,3.42540442943573e-06,-0.005000244826078415,1.313499927520752,0.0,0.0,0.0,0.36107727885246277,0.6640903949737549,0.42000001668930054,-1.5707999467849731,0.0,0.0,0.0,0.0,0.0,0.0,0.0,0.0,0.0,0.0,0.0
0.016666666666666666,0.0028778850100934505,0.0021806680597364902,0.0,0.9998081922531128,0.0,0.0,0.019586581736803055,0.24087215960025787,0.18240931630134583,0.0,0.0,0.0,3.1418697834014893,-0.47276121377944946,0.634969174861908,0.41999998688697815,1.0,3.2799832752061775e-06,-8.339598593920527e-07,8.465660528145236e-08,-1.9833856640616432e-05,0.00017983021098189056,-6.132945418357849e-05,0.0009432561928406358,-0.004689492750912905,-0.0003198107879143208,-0.007110234349966049,0.003379564033821225,1.3159373998641968,-0.8143353462219238,0.9868683815002441,0.18095196783542633,0.36107727885246277,0.6640903949737549,0.42000001668930054,-1.5301095247268677,3.0000011920928955,-0.04584788903594017,-2.9999992847442627,0.0008691533003002405,0.0007963840034790337,0.0007110277656465769,0.0006108740926720202,0.11094217747449875,0.09756709635257721,0.08334315568208694,0.06823883205652237
0.03333333333333333,0.008964870125055313,0.006819484289735556,0.0,0.9997929930686951,0.0,0.0,0.02034764736890793,0.4072406589984894,0.31545382738113403,0.0,0.0,0.0,-0.8743962049484253,-0.472761332988739,0.6349691152572632,0.4200000464916229,1.0,3.3908236218849197e-06,-2.1324740373529494e-06,-3.7087911408661967e-08,0.0002635786950122565,0.00026937879738397896,-0.00010509719140827656,-0.0017707741353660822,0.004130927845835686,-0.00013548358401749283,-0.027537915855646133,0.02543625608086586,1.316712498664856,-1.5902929306030273,1.5771205425262451,-0.07097924500703812,0.36107727885246277,0.6640903949737549,0.42000001668930054,-1.4800904989242554,3.000000476837158,-0.0958876982331276,-3.000000238418579,0.0029910376761108637,0.0026537610683590174,0.0022784320171922445,0.0018619766924530268,0.16430239379405975,0.13985061645507812,0.11391279846429825,0.08639723807573318
0.05,0.017764510586857796,0.013793034479022026,0.0,0.9993705749511719,0.0,0.0,0.03547382354736328,0.5940316915512085,0.4652934968471527,0.0,0.0,0.0,2.6432785987854004,-0.4727613627910614,0.634969174861908,0.4200000464916229,1.0,3.7651166167051997e-06,-2.2119024833955336e-06,5.637348365894468e-09,0.0002653102274052799,0.00026691530365496874,-0.0001044049859046936,-0.0017243424663320184,0.004177475813776255,-0.00012949523807037622,-0.0596587099134922,0.052379973232746124,1.312077283859253,-2.187735080718994,1.692671298980713,-0.44708800315856934,0.36107727885246277,0.6640903949737549,0.42000001668930054,-1.4300721883773804,3.0000011920928955,-0.1459263563156128,-3.0000011920928955,0.005715858191251755,0.004923896864056587,0.0040597496554255486,0.0031189932487905025,0.19302774965763092,0.15613575279712677,0.11736629903316498,0.07662598788738251
0.06666666666666667,0.029081150889396667,0.02309056930243969,0.0,0.9994398355484009,0.0,0.0,0.03346681594848633,0.7204922437667847,0.5953823328018188,0.0,0.0,0.0,-1.2167010307312012,-0.4727613627910614,0.6349691152572632,0.4200000464916229,0.9999999403953552,3.4067338674503844e-06,-2.2856738723930903e-06,4.301002434203838e-07,0.0002670263347681612,0.0002679180761333555,-0.00010437914170324802,-0.001740648876875639,0.004211838357150555,-0.00012851078645326197,-0.0986294150352478,0.08490216732025146,1.3001022338867188,-2.4871277809143066,2.1027822494506836,-0.9613451957702637,0.36107727885246277,0.6640903949737549,0.42000001668930054,-1.3800538778305054,3.000002145767212,-0.19596321880817413,-2.999999761581421,0.008372149430215359,0.006911570206284523,0.0053399717435240746,0.0036516429390758276,0.1585625261068344,0.10915321111679077,0.05770973861217499,0.004143348429352045
0.08333333333333333,0.03542069345712662,0.03572368994355202,0.0,0.9988949298858643,0.0,0.0,0.04699860140681267,0.17603079974651337,0.8372067213058472,0.0,0.0,0.0,2.6022300720214844,-0.4727613627910614,0.6349691152572632,0.4200000464916229,1.0,3.6972542147850618e-06,-2.189012548114988e-06,-2.632233417898533e-07,0.0002638970036059618,0.00026586418971419334,-0.00010433932766318321,-0.0017081733094528317,0.004150197375565767,-0.0001299117284361273,-0.14458683133125305,0.11765790730714798,1.2777718305587769,-2.925621509552002,1.9067893028259277,-1.6362913846969604,0.36107727885246277,0.6640903949737549,0.42000001668930054,-1.3300278186798096,3.000004768371582,-0.20497079193592072,1.5300174951553345,0.006346824578940868,0.0044386242516338825,0.002371633891016245,0.00013581370876636356,-0.24673442542552948,-0.2695695757865906,-0.2950170338153839,-0.3234251141548157
0.1,0.04412667825818062,0.049477770924568176,0.0,0.9990233182907104,0.0,0.0,0.044185567647218704,0.6650524139404297,0.8319175839424133,0.0,0.0,0.0,-1.2955408096313477,-0.4727613627910614,0.6349691152572632,0.4200000464916229,0.9999999403953552,3.620308916651993e-06,-2.2652425286651123e-06,1.7463578672050062e-07,0.00026676832931116223,0.0002674081770237535,-0.0001040799543261528,-0.0017385705141350627,0.004209125880151987,-0.0001277521369047463,-0.18830576539039612,0.15378940105438232,1.2515950202941895,-2.441575050354004,2.3026623725891113,-1.545663833618164,0.36107727885246277,0.6640903949737549,0.42000001668930054,-1.2800207138061523,2.999999523162842,-0.24442605674266815,-3.000000238418579,0.006430971901863813,0.0031940718181431293,-0.00020501877588685602,-0.003777962177991867,0.09258070588111877,-0.018612485378980637,-0.12874051928520203,-0.23777540028095245
0.11666666666666667,0.05156742408871651,0.06096664443612099,0.0,0.9999115467071533,0.0,0.0,0.013301774859428406,0.43409794569015503,0.6484346389770508,0.0,0.0,0.0,-4.419240474700928,-0.4727613627910614,0.6349691152572632,0.4200000464916229,1.0,3.798331817961298e-06,-2.2628737497143447e-06,-1.5019459453924355e-07,0.0002637395809870213,0.00026566043379716575,-0.00010428996756672859,-0.0017054103082045913,0.0041475603356957436,-0.0001298010174650699,-0.22866126894950867,0.19752588868141174,1.2231614589691162,-2.442519426345825,2.748037099838257,-1.817976713180542,0.36107727885246277,0.6640903949737549,0.42000001668930054,-1.2299991846084595,2.9999914169311523,-0.21040980517864227,3.0000007152557373,0.006144350860267878,0.0010666603920981288,-0.00414233235642314,-0.009493415243923664,0.029252709820866585,-0.09196401387453079,-0.2100217044353485,-0.32483887672424316
0.13333333333333333,0.05581626296043396,0.07300928980112076,0.0,0.999995768070221,0.0,0.0,0.002908410970121622,0.1748225837945938,0.750707745552063,0.0,0.0,0.0,-0.21759094297885895,-0.4727613627910614,0.634969174861908,0.4200000464916229,0.9999999403953552,3.5504490369930863e-06,-2.2298452222457854e-06,2.929317872713e-07,0.0002670326502993703,0.00026779386098496616,-0.00010417005978524685,-0.0017441416857764125,0.004213591571897268,-0.00012799994146917015,-0.2726763188838959,0.23736324906349182,1.1924834251403809,-2.6177234649658203,2.3930888175964355,-1.9115793704986572,0.36107727885246277,0.6640903949737549,0.42000001668930054,-1.180009365081787,3.0000011920928955,-0.24175703525543213,-3.0,0.005746748764067888,-0.0013681791024282575,-0.008547516539692879,-0.01579991728067398,-0.08696955442428589,-0.20377054810523987,-0.3164277970790863,-0.4248151183128357
0.15,0.05799976736307144,0.08285916596651077,0.0,0.9997892379760742,0.0,0.0,-0.020529521629214287,0.04367616027593613,0.5232142806053162,0.0,0.0,0.0,-3.5827438831329346,-0.4727613627910614,0.6349691152572632,0.4200000464916229,0.9999999403953552,3.3379828892066143e-06,-2.2429737782658776e-06,-2.8000011198514585e-08,0.0002667461521923542,0.0002675800060387701,-0.00010427623055875301,-0.001736729289405048,0.004206979181617498,-0.00012831634376198053,-0.3143936097621918,0.28371214866638184,1.15556001663208,-2.40032958984375,3.024332046508789,-2.4714980125427246,0.36107727885246277,0.6640903949737549,0.42000001668930054,-1.129992961883545,2.9999921321868896,-0.20774219930171967,2.999999761581421,0.003217491554096341,-0.005752511788159609,-0.014707830734550953,-0.023656534031033516,-0.2517932057380676,-0.34876811504364014,-0.44116124510765076,-0.5289918184280396
0.16666666666666666,0.06389687210321426,0.09389974921941757,0.0,0.9973787069320679,0.0,0.0,-0.07235830277204514,0.39648303389549255,0.6601710915565491,0.0,0.0,0.0,-6.954740047454834,-0.4727613627910614,0.634969174861908,0.4200000464916229,0.9999999403953552,3.6477658795774914e-06,-2.3074287582858233e-06,3.527969738570391e-08,0.00026727005024440587,0.0002680135949049145,-0.00010418915189802647,-0.0017472486943006516,0.004217661917209625,-0.00012798381794709712,-0.3521943688392639,0.34071409702301025,1.1107265949249268,-2.110496997833252,3.678807497024536,-2.900395393371582,0.36107727885246277,0.6640903949737549,0.42000001668930054,-1.0839201211929321,2.526735544204712,-0.2391504943370819,-3.0000011920928955,-0.0005410133744589984,-0.011161203496158123,-0.021685127168893814,-0.03212081640958786,-0.4113815426826477,-0.4807875156402588,-0.546957790851593,-0.609880268573761
0.18333333333333332,0.06581910699605942,0.10275960713624954,0.0,0.9946373701095581,0.0,0.0,-0.10342409461736679,0.09926703572273254,0.4776139557361603,0.0,0.0,0.0,-2.518044948577881,-0.4727613627910614,0.6349691152572632,0.4200000464916229,0.9999999403953552,3.290518861831515e-06,-2.1940602437098278e-06,-2.792300222154154e-07,0.0002667784283403307,0.0002677590528037399,-0.00010434072464704514,-0.001739021739922464,0.004206892568618059,-0.00012845716264564544,-0.38941890001296997,0.3962551951408386,1.0550963878631592,-2.022237539291382,3.4614429473876953,-3.6602306365966797,0.36107727885246277,0.6640903949737549,0.42000001668930054,-1.0364338159561157,3.0,-0.28917980194091797,-3.0000009536743164,-0.012683580629527569,-0.023484719917178154,-0.034166429191827774,-0.044746484607458115,-0.7436424493789673,-0.7418913841247559,-0.7385939359664917,-0.7343791127204895
0.2,0.06469129025936127,0.11285027116537094,0.0,0.9895457625389099,0.0,0.0,-0.14421935379505157,-0.1169305220246315,0.633951723575592,0.0,0.0,0.0,-5.725543975830078,-0.4727613627910614,0.6349691152572632,0.4200000464916229,1.0,3.2806988201627973e-06,-2.2193432869244134e-06,1.5948184284297895e-07,0.0002662798506207764,0.00026740229805000126,-0.0001042510848492384,-0.0017357115866616368,0.004197767470031977,-0.00012865093594882637,-0.4226378798484802,0.4548349976539612,0.9880503416061401,-1.772758960723877,3.5953619480133057,-4.287365436553955,0.36107727885246277,0.6640903949737549,0.42000001668930054,-0.9864307641983032,3.000002145767212,-0.33920764923095703,-2.999999523162842,-0.027285363525152206,-0.03836458548903465,-0.04927411302924156,-0.05951674282550812,-0.9354268908500671,-0.9416175484657288,-0.9455466866493225,-0.9181175231933594
0.21666666666666667,0.06775111705064774,0.12464171648025513,0.0,0.9859397411346436,0.0,0.0,-0.16710136830806732,0.1884462535381317,0.713394820690155,0.0,0.0,0.0,-1.687666893005371,-0.4727613627910614,0.634969174861908,0.4200000464916229,1.0,3.613101398514118e-06,-2.270231107104337e-06,2.210174301353618e-07,0.00026712517137639225,0.00026781667838804424,-0.00010414118878543377,-0.001744576497003436,0.0042152018286287785,-0.00012786168372258544,-0.4544892907142639,0.5065661668777466,0.9121477603912354,-1.7080026865005493,2.916937828063965,-4.865119934082031,0.36107727885246277,0.6640903949737549,0.42000001668930054,-0.9364256858825684,3.00000262260437,-0.3892369270324707,-3.000000238418579,-0.04157256335020065,-0.05244763568043709,-0.06303085386753082,-0.07255236804485321,-0.9854223132133484,-0.9635569453239441,-0.9049364924430847,-0.8305233716964722
0.23333333333333334,0.06730832159519196,0.13378819823265076,0.0,0.9793388247489929,0.0,0.0,-0.2022261619567871,-0.049569614231586456,0.49840834736824036,0.0,0.0,0.0,-5.070573806762695,-0.4727613627910614,0.6349691152572632,0.4200000464916229,1.0,3.3818532756413333e-06,-2.291060127390665e-06,2.727961714299454e-07,0.0002669147797860205,0.0002677999727893621,-0.00010433257557451725,-0.0017395797185599804,0.004209762904793024,-0.00012843632430303842,-0.47943419218063354,0.5527491569519043,0.8242988586425781,-1.1560847759246826,2.6865787506103516,-5.477247714996338,0.36107727885246277,0.6640903949737549,0.42000001668930054,-0.8864150047302246,2.99999737739563,-0.4392675757408142,-2.999999761581421,-0.05817146226763725,-0.06901220232248306,-0.07956890016794205,-0.08908241242170334,-0.9936076402664185,-0.994868278503418,-0.9958502054214478,-0.9966360330581665
0.25,0.06429406255483627,0.1390375941991806,0.0,0.9760760068893433,0.0,0.0,-0.21742969751358032,-0.22780190408229828,0.24165542423725128,0.0,0.0,0.0,-0.8238722085952759,-0.472761332988739,0.6349691152572632,0.4200000464916229,0.9999999403953552,3.7065613014419796e-06,-2.22313519770978e-06,-2.2550631229023566e-07,0.0002642478502821177,0.0002665684442035854,-0.00010457867756485939,-0.0017169876955449581,0.004155559465289116,-0.00013063046208117157,-0.49791091680526733,0.5867322683334351,0.7311611175537109,-0.8163739442825317,1.6607060432434082,-5.732840538024902,0.36107727885246277,0.6640903949737549,0.42000001668930054,-0.8364046812057495,2.999999761581421,-0.4892982840538025,-2.999999523162842,-0.0748399868607521,-0.08565083891153336,-0.09618820995092392,-0.10568913072347641,-0.9924972057342529,-0.9937905669212341,-0.9947831630706787,-0.9955685138702393
0.26666666666666666,0.05826438218355179,0.1407831460237503,0.0,0.9697631001472473,0.0,0.0,-0.24404819309711456,-0.4193868339061737,0.05234721675515175,0.0,0.0,0.0,-4.134944915771484,-0.4727613627910614,0.6349691152572632,0.4200000464916229,0.9999999403953552,3.7196393805061234e-06,-2.4035975911829155e-06,-1.830753433296195e-07,0.0002662325860001147,0.00026729193632490933,-0.00010425969958305359,-0.0017327084206044674,0.004196519032120705,-0.00012850586790591478,-0.5062941312789917,0.6094434857368469,0.6322212219238281,-0.09350286424160004,1.0674668550491333,-5.986910343170166,0.36107727885246277,0.6640903949737549,0.42000001668930054,-0.7863958477973938,2.999998092651367,-0.5393283367156982,-2.9999990463256836,-0.09216735512018204,-0.1028020977973938,-0.11320426315069199,-0.12259789556264877,-0.9999462962150574,-0.9999494552612305,-0.9994152188301086,-0.9989748001098633
0.2833333333333333,0.0558074489235878,0.13978435099124908,0.0,0.9677444100379944,0.0,0.0,-0.2519339919090271,-0.11132767796516418,-0.0923098549246788,0.0,0.0,0.0,-0.0011842717649415135,-0.4727613627910614,0.634969174861908,0.4200000464916229,0.9999999403953552,3.584038495318964e-06,-2.3155648705142085e-06,7.404717194958721e-08,0.0002652202092576772,0.00026455349870957434,-0.00010317075066268444,-0.0017022540559992194,0.004185175523161888,-0.00012499988952185959,-0.5065183043479919,0.6253106594085693,0.5355944037437439,0.3246158957481384,0.7483416199684143,-5.526418685913086,0.36107727885246277,0.6640903949737549,0.42000001668930054,-0.7363870739936829,2.9999992847442627,-0.5893577933311462,-3.0000035762786865,-0.10906186699867249,-0.11962376534938812,-0.12997817993164062,-0.13930651545524597,-1.0196819305419922,-1.0147957801818848,-1.0110728740692139,-1.0081167221069336
0.3,0.0490143708884716,0.13683830201625824,0.0,0.9619866609573364,0.0,0.0,-0.2730964422225952,-0.5113764405250549,-0.21238228678703308,0.0,0.0,0.0,-3.51747989654541,-0.4727613627910614,0.6349691152572632,0.4200000464916229,1.0,3.7242393773340154e-06,-2.272014398840838e-06,9.635331821300497e-08,0.000263127323705703,0.0002652598777785897,-0.00010438216850161552,-0.0016961408546194434,0.004134894348680973,-0.00013027827662881464,-0.4937058687210083,0.6340002417564392,0.44702717661857605,1.2464288473129272,0.4320913851261139,-5.076547622680664,0.36107727885246277,0.6640903949737549,0.42000001668930054,-0.6863796710968018,3.0000011920928955,-0.639385461807251,-3.000000238418579,-0.12720628082752228,-0.13740544021129608,-0.14748254418373108,-0.15659040212631226,-1.0061359405517578,-1.0046334266662598,-1.003483772277832,-1.0025650262832642
0.31666666666666665,0.04020651429891586,0.1316923350095749,0.0,0.9609463214874268,0.0,0.0,-0.2767348885536194,-0.513695478439331,-0.3574998378753662,0.0,0.0,0.0,0.5301222205162048,-0.4727613627910614,0.6349691152572632,0.4200000464916229,1.0,3.6662170259660343e-06,-2.392615215285332e-06,1.6798600199763314e-07,0.0002660210302565247,0.00026706853532232344,-0.00010418705642223358,-0.0017310666153207421,0.004193499684333801,-0.00012849338236264884,-0.4840121269226074,0.6385232210159302,0.4185895323753357,0.3519296944141388,0.2299935519695282,-0.14793825149536133,0.36107727885246277,0.6640903949737549,0.42000001668930054,-0.6365604400634766,2.9778549671173096,-0.6899107098579407,-2.816521406173706,-0.13534177839756012,-0.14609213173389435,-0.15642563998699188,-0.16547389328479767,-0.29340943694114685,-0.30103933811187744,-0.2776840627193451,-0.22410115599632263
0.3333333333333333,0.02986961416900158,0.12415041029453278,0.0,0.9559417963027954,0.0,0.0,-0.29355618357658386,-0.6713401079177856,-0.4948517084121704,0.0,0.0,0.0,-3.0147719383239746,-0.47153744101524353,0.6385949850082397,0.4208071827888489,0.9967490434646606,0.010631345212459564,0.010103394277393818,-0.07922229170799255,0.15567056834697723,0.37266433238983154,0.05976342409849167,3.3452095985412598,-0.5076980590820312,-14.671232223510742,-0.4810786545276642,0.645665168762207,0.4222933053970337,0.27613434195518494,0.5678163766860962,-0.12948255240917206,0.36107727885246277,0.6640903949737549,0.42000001668930054,-0.5865491628646851,2.9999821186065674,-0.7399778366088867,-2.999997854232788,-0.13951578736305237,-0.15028947591781616,-0.1601366251707077,-0.16822600364685059,-0.3322482407093048,-0.3094332814216614,-0.262446790933609,-0.19523803889751434
0.35,0.017223220318555832,0.11434324085712433,0.0,0.9557243585586548,0.0,0.0,-0.29426345229148865,-0.7929153442382812,-0.6399424076080322,0.0,0.0,0.0,0.8310418128967285,-0.46594831347465515,0.650301992893219,0.42096298933029175,0.9922756552696228,0.02124120108783245,0.0009176037856377661,-0.1222171038389206,0.39128604531288147,0.9028109312057495,-0.03642456606030464,-1.2589091062545776,-0.5004935264587402,-4.821005344390869,-0.47519737482070923,0.6572730541229248,0.42043760418891907,0.4227684438228607,0.8261933326721191,-0.08894607424736023,0.36107727885246277,0.6640903949737549,0.42000001668930054,-0.5365442037582397,2.999819040298462,-0.7900131344795227,-2.9997661113739014,-0.1464327573776245,-0.15615960955619812,-0.16457967460155487,-0.17095741629600525,-0.4334474802017212,-0.3510791063308716,-0.24665307998657227,-0.12696725130081177
0.36666666666666664,0.008153854869306087,0.10179314017295837,0.0,0.9512086510658264,0.0,0.0,-0.30854836106300354,-0.4642656445503235,-0.7982639670372009,0.0,0.0,0.0,-2.6460461616516113,-0.45963966846466064,0.6647477149963379,0.4200209975242615,0.9878520369529724,-0.0004485847312025726,6.0626294725807384e-05,-0.15539637207984924,0.43013957142829895,0.9123643040657043,0.013318442739546299,-0.8191367387771606,0.183854341506958,-3.77138352394104,-0.46629488468170166,0.6696454286575317,0.42036789655685425,0.6634600758552551,0.7450820803642273,0.08918900787830353,0.36107727885246277,0.6640903949737549,0.42000001668930054,-0.48650574684143066,2.9998939037323,-0.8400404453277588,-2.999979257583618,-0.1542358100414276,-0.16188471019268036,-0.1678343415260315,-0.1714865118265152,-0.465510755777359,-0.3103233575820923,-0.13254600763320923,0.05867835506796837
0.3833333333333333,-0.0042188940569758415,0.08750908821821213,0.0,0.9366110563278198,0.0,0.0,-0.3503709137439728,-0.8421098589897156,-0.884273886680603,0.0,0.0,0.0,-6.240461349487305,-0.4470345675945282,0.6854192614555359,0.4209781289100647,0.9800978302955627,-0.022693000733852386,0.0022758236154913902,-0.1972007006406784,1.1115005016326904,1.5933136940002441,0.06442995369434357,-1.1471590995788574,-3.0197629928588867,-6.061149597167969,-0.45163244009017944,0.6877709627151489,0.4220481216907501,1.136233925819397,1.4796092510223389,0.11342698335647583,0.36107727885246277,0.6640903949737549,0.42000001668930054,-0.436457097530365,3.0000271797180176,-0.8900511860847473,-2.9999942779541016,-0.16465593874454498,-0.1692270040512085,-0.17175984382629395,-0.17182323336601257,-0.6166914105415344,-0.43193066120147705,-0.22873859107494354,-0.017107855528593063
0.4,-0.013043093495070934,0.0704052522778511,0.0,0.9089474081993103,0.0,0.0,-0.4169107973575592,-0.5082471966743469,-1.0663583278656006,0.0,0.0,0.0,-9.342822074890137,-0.41437843441963196,0.7167489528656006,0.4244329035282135,0.9690877199172974,0.014526411890983582,-0.036824215203523636,-0.24351981282234192,2.9970736503601074,2.305875778198242,0.1425839513540268,40.30259323120117,-21.077150344848633,3.163133382797241,-0.41901373863220215,0.7202097177505493,0.42472848296165466,2.7955260276794434,2.3456180095672607,0.4363691210746765,0.36107727885246277,0.6640903949737549,0.42000001668930054,-0.3945210576057434,1.4384076595306396,-0.8532382845878601,2.9924159049987793,-0.17515820264816284,-0.17604532837867737,-0.17463122308254242,-0.17066989839076996,-0.7772415280342102,-0.4962420165538788,-0.20410528779029846,0.08635849505662918
0.4166666666666667,-0.02000291831791401,0.05806056037545204,0.0,0.8654353618621826,0.0,0.0,-0.5010205507278442,-0.31414708495140076,-0.7589111328125,0.0,0.0,0.0,-11.961223602294922,-0.3418809771537781,0.7619145512580872,0.42996758222579956,0.9475815296173096,0.08338306099176407,-0.079873226583004,-0.29792070388793945,5.729115009307861,2.9001150131225586,0.3486846387386322,17.968637466430664,-16.48838996887207,15.399871826171875,-0.3463509976863861,0.7660700082778931,0.4303726255893707,5.398398399353027,3.2860946655273438,0.4149709939956665,0.36107727885246277,0.6640903949737549,0.42000001668930054,-0.3772026300430298,0.8781185746192932,-0.8032031655311584,2.995354413986206,-0.1909063756465912,-0.19007843732833862,-0.18307310342788696,-0.17319941520690918,-0.6026809811592102,-0.6671450138092041,-0.4493403732776642,-0.16147717833518982
0.43333333333333335,-0.0226064994931221,0.04801845923066139,0.0,0.8274936079978943,0.0,0.0,-0.5614750981330872,-0.10042916983366013,-0.5413565039634705,0.0,0.0,0.0,-7.309134483337402,-0.24959853291511536,0.8117504715919495,0.4389427602291107,0.8982131481170654,0.125959575176239,-0.11142181605100632,-0.40611860156059265,5.965622901916504,2.1216557025909424,0.7339377999305725,18.81696891784668,-5.970713138580322,18.13311767578125,-0.25445353984832764,0.8169766664505005,0.439050555229187,5.7782087326049805,2.7017860412597656,0.5628472566604614,0.36107727885246277,0.6640903949737549,0.42000001668930054,-0.36177513003349304,0.9646152257919312,-0.8153459429740906,-3.0000038146972656,-0.20253227651119232,-0.20169095695018768,-0.19114476442337036,-0.17701026797294617,-0.7034147381782532,-0.6590551733970642,-0.459114134311676,-0.23541206121444702
0.45,-0.028162812814116478,0.04069502279162407,0.0,0.8068979978561401,0.0,0.0,-0.5906907916069031,-0.282083123922348,-0.41509050130844116,0.0,0.0,0.0,-2.897693395614624,-0.15068575739860535,0.8430460095405579,0.44995614886283875,0.8214186429977417,0.13972727954387665,-0.13517814874649048,-0.5361664891242981,5.9866743087768555,0.5767655372619629,0.7695751190185547,-9.60495662689209,1.3213489055633545,5.620100498199463,-0.15719908475875854,0.8497246503829956,0.44952794909477234,6.133035659790039,1.4141955375671387,0.7200193405151367,0.36107727885246277,0.6640903949737549,0.42000001668930054,-0.3450927734375,0.9520014524459839,-0.8653701543807983,-2.9998035430908203,-0.2177533358335495,-0.21431449055671692,-0.19928577542304993,-0.18059664964675903,-0.8172605037689209,-0.6545413136482239,-0.39729005098342896,-0.14067450165748596
0.4666666666666667,-0.029729660600423813,0.02931513451039791,0.0,0.7796042561531067,0.0,0.0,-0.6262724995613098,-0.03864862769842148,-0.6649469137191772,0.0,0.0,0.0,-6.000072956085205,-0.05162534490227699,0.8534010648727417,0.45790013670921326,0.7648397088050842,0.12330439686775208,-0.12503854930400848,-0.6198238134384155,6.103775978088379,0.24080988764762878,0.2885705828666687,-8.281373023986816,-11.9837007522583,6.375000953674316,-0.0574130155146122,0.8626441955566406,0.45798778533935547,5.885227680206299,-0.01574273407459259,0.47259533405303955,0.36107727885246277,0.6640903949737549,0.42000001668930054,-0.33360907435417175,0.5668319463729858,-0.9153957366943359,-3.0000033378601074,-0.22935864329338074,-0.22243894636631012,-0.20295587182044983,-0.1799287497997284,-0.814605712890625,-0.5319945216178894,-0.22473002970218658,0.06621517241001129
0.48333333333333334,-0.0332106351852417,0.02372520975768566,0.0,0.7644240856170654,0.0,0.0,-0.6447136998176575,-0.2350853532552719,-0.30304256081581116,0.0,0.0,0.0,-1.5700315237045288,0.04332282766699791,0.8436074256896973,0.4648897051811218,0.7008962035179138,0.10672593116760254,-0.11237410455942154,-0.6962226629257202,5.590068817138672,-1.3776955604553223,0.4808875024318695,-2.679980754852295,-4.171506404876709,-0.624981701374054,0.03846554458141327,0.8536648750305176,0.465325266122818,5.558225631713867,-0.9154180884361267,0.3820188641548157,0.36107727885246277,0.6640903949737549,0.42000001668930054,-0.32512906193733215,0.562493622303009,-0.9654204249382019,-3.0,-0.23996706306934357,-0.2351812720298767,-0.21033428609371185,-0.18256112933158875,-0.014774391427636147,-0.6603689789772034,-0.41970935463905334,-0.21772533655166626
0.5,-0.0341254286468029,0.01346069946885109,0.0,0.7417036294937134,0.0,0.0,-0.6707277894020081,-0.03869796171784401,-0.6669989824295044,0.0,0.0,0.0,-4.971424579620361,0.1316254436969757,0.82140052318573,0.4650891125202179,0.6209062337875366,0.04424246400594711,-0.14168716967105865,-0.7697030305862427,4.906130313873291,-2.0582356452941895,-0.3586638271808624,-26.821807861328125,10.204042434692383,-10.983726501464844,0.1263631135225296,0.8340132236480713,0.4685758054256439,4.992331027984619,-1.613816499710083,0.16288210451602936,0.36107727885246277,0.6640903949737549,0.42000001668930054,-0.3129335343837738,0.8075686693191528,-1.0154439210891724,-2.9997262954711914,-0.23719337582588196,-0.2400282472372055,-0.2130042463541031,-0.1826721578836441,0.0977381244301796,-0.011113333515822887,-0.08385468274354935,0.05774758383631706
0.5166666666666666,-0.032343875616788864,0.007969338446855545,0.0,0.7311616539955139,0.0,0.0,-0.6822042465209961,0.14157815277576447,-0.2914278507232666,0.0,0.0,0.0,-0.8038439750671387,0.20603883266448975,0.7872954607009888,0.4621850252151489,0.5670323371887207,0.007193562109023333,-0.11507417261600494,-0.8155859112739563,4.202691078186035,-3.0620365142822266,-0.10809018462896347,-1.4863154888153076,8.100672721862793,6.719707489013672,0.2032785415649414,0.8004957437515259,0.4666539430618286,4.2015790939331055,-2.191642999649048,-0.27978014945983887,0.36107727885246277,0.6640903949737549,0.42000001668930054,-0.3011043965816498,0.3424554765224457,-1.065466046333313,-2.999734401702881,-0.23978202044963837,-0.23956632614135742,-0.21615609526634216,-0.1838492751121521,0.011822582222521305,0.11273717880249023,-0.06131048500537872,-0.02618064172565937
0.5333333333333333,-0.028014440089464188,0.0054493979550898075,0.0,0.7131915092468262,0.0,0.0,-0.7009692788124084,0.3069222569465637,-0.08888256549835205,0.0,0.0,0.0,-4.005884170532227,0.26970404386520386,0.7529017329216003,0.45202261209487915,0.5298685431480408,-0.032300498336553574,-0.09228408336639404,-0.8424248695373535,3.3185880184173584,-2.2405996322631836,-0.7098572254180908,-0.636268675327301,7.899423122406006,-1.6749074459075928,0.26778924465179443,0.7657541632652283,0.45700740814208984,3.466330051422119,-2.0785434246063232,-0.7602285146713257,0.36107727885246277,0.6640903949737549,0.42000001668930054,-0.29454758763313293,0.5911860466003418,-1.1154881715774536,-2.9991443157196045,-0.23647606372833252,-0.23542726039886475,-0.21574752032756805,-0.18447081744670868,0.3178814649581909,0.3469054102897644,0.10069207847118378,-0.030781056731939316
0.55,-0.02087467350065708,0.0032116062939167023,0.0,0.7074849605560303,0.0,0.0,-0.7067283987998962,0.46721118688583374,-0.11752694845199585,0.0,0.0,0.0,-0.021180884912610054,0.31820976734161377,0.719112753868103,0.4372682571411133,0.4956565797328949,-0.07150477916002274,-0.07005878537893295,-0.862730085849762,2.369814395904541,-2.2938406467437744,-0.8958370685577393,-1.374051570892334,5.644571304321289,0.4967544972896576,0.31740593910217285,0.7310453057289124,0.44267380237579346,2.4633350372314453,-2.0444536209106445,-0.9257215857505798,0.36107727885246277,0.6640903949737549,0.42000001668930054,-0.27992528676986694,0.9562340378761292,-1.1655102968215942,-3.00000262260437,-0.2289174497127533,-0.22760485112667084,-0.21218407154083252,-0.1840047389268875,0.5348290801048279,0.5357511639595032,0.2720620334148407,0.03971774876117706
0.5666666666666667,-0.015444315969944,-0.0018730123993009329,0.0,0.6922445297241211,0.0,0.0,-0.7216629981994629,0.30613404512405396,-0.3451717793941498,0.0,0.0,0.0,-3.302492380142212,0.3538273572921753,0.6920698285102844,0.4217267632484436,0.4926002621650696,-0.03540793061256409,-0.01650724932551384,-0.8693782687187195,1.5338528156280518,-1.489054560661316,-0.21931509673595428,1.480325698852539,-8.200818061828613,8.716436386108398,0.35254308581352234,0.7014474868774414,0.4256981313228607,1.3882523775100708,-1.4220811128616333,-0.4160754084587097,0.36107727885246277,0.6640903949737549,0.42000001668930054,-0.2666594386100769,0.6790679693222046,-1.1277315616607666,2.99406099319458,-0.21718622744083405,-0.21653881669044495,-0.2059279978275299,-0.18252259492874146,0.6260655522346497,0.5994282364845276,0.3397248685359955,0.054778385907411575
0.5833333333333334,-0.009452221915125847,-0.003366798860952258,0.0,0.6903507709503174,0.0,0.0,-0.7234748005867004,0.3867012858390808,-0.05091850459575653,0.0,0.0,0.0,0.5623570084571838,0.37017253041267395,0.6741407513618469,0.4204927384853363,0.5111365914344788,0.007289378438144922,-0.008344975300133228,-0.8594280481338501,0.5226619839668274,-0.9814334511756897,-0.03899826854467392,1.3643841743469238,2.4491961002349854,1.9904873371124268,0.3687678575515747,0.6828305125236511,0.42573291063308716,0.6926748156547546,-0.889473557472229,0.09638628363609314,0.36107727885246277,0.6640903949737549,0.42000001668930054,-0.2471867948770523,1.5611640214920044,-1.14980149269104,-2.99955677986145,-0.2084140181541443,-0.20829671621322632,-0.2017432153224945,-0.18315282464027405,0.6116219162940979,0.5412904620170593,0.28027644753456116,-0.040782563388347626
0.6,-0.0015422593569383025,-0.007537826430052519,0.0,0.6783176064491272,0.0,0.0,-0.7347688674926758,0.5148762464523315,-0.3090278208255768,0.0,0.0,0.0,-2.8385367393493652,0.37684503197669983,0.6667876243591309,0.4211202561855316,0.5288618803024292,0.015868844464421272,0.015979409217834473,-0.8484090566635132,0.15040509402751923,-1.2382832765579224,0.12079428136348724,4.4489569664001465,-11.644584655761719,26.92384910583496,0.3739718198776245,0.6735570430755615,0.4268433451652527,-0.02149561047554016,-0.3563079833984375,0.02285836637020111,0.36107727885246277,0.6640903949737549,0.42000001668930054,-0.24117755889892578,-0.7689441442489624,-1.1120482683181763,2.9957284927368164,-0.1971694529056549,-0.19849981367588043,-0.19619737565517426,-0.18305163085460663,0.6218118071556091,0.5465589761734009,0.32031193375587463,0.009255225770175457
0.6166666666666667,0.004116273485124111,-0.008940845727920532,0.0,0.6785993576049805,0.0,0.0,-0.7345086336135864,0.2787102162837982,-0.04960498586297035,0.0,0.0,0.0,0.888031542301178,0.3761429190635681,0.6585636138916016,0.421195924282074,0.5540767312049866,0.008984598331153393,0.020214766263961792,-0.8321715593338013,-0.17076754570007324,-0.42019063234329224,-0.01283820066601038,-1.8992805480957031,3.3677306175231934,1.176658034324646,0.3711175322532654,0.6659123301506042,0.4266020655632019,-0.2763536870479584,-0.39732736349105835,-0.2129909247159958,0.36107727885246277,0.6640903949737549,0.42000001668930054,-0.28408104181289673,-3.0000014305114746,-1.134710431098938,-2.999999761581421,-0.18881481885910034,-0.19110845029354095,-0.19195029139518738,-0.18349589407444,0.543769121170044,0.4692726731300354,0.2831900715827942,-5.00625887411843e-08
0.6333333333333333,0.010346297174692154,-0.007135364692658186,0.0,0.6690726280212402,0.0,0.0,-0.7431970238685608,0.40035051107406616,0.15024416148662567,0.0,0.0,0.0,-2.5364348888397217,0.3731204867362976,0.6542929410934448,0.4208047688007355,0.5778688788414001,-0.01310067530721426,0.00864122062921524,-0.8159786462783813,-0.04626285284757614,0.0666767805814743,0.13973386585712433,-2.669827938079834,4.333329677581787,5.749865531921387,0.3691568374633789,0.6662161350250244,0.42805159091949463,-0.04077944532036781,0.21766066551208496,0.15349817276000977,0.36107727885246277,0.6640903949737549,0.42000001668930054,-0.3158106505870819,-0.9583697319030762,-1.184629201889038,-2.998778820037842,-0.17926323413848877,-0.1833539605140686,-0.1873960942029953,-0.1836288571357727,0.6578760147094727,0.5244486927986145,0.32593637704849243,0.04149627685546875
0.65,0.018709463998675346,-0.009970434010028839,0.0,0.6710852384567261,0.0,0.0,-0.7413801550865173,0.47830700874328613,-0.19365255534648895,0.0,0.0,0.0,1.2211588621139526,0.3718530535697937,0.6557662487030029,0.4215559661388397,0.5980714559555054,-0.028780842199921608,-0.0024167702067643404,-0.8009222149848938,-0.14321863651275635,0.1535254716873169,0.011204101145267487,-2.7682182788848877,-0.9978350400924683,0.07873488962650299,0.36723649501800537,0.6690967082977295,0.4309711456298828,-0.2710934579372406,0.1544869840145111,0.204315185546875,0.36107727885246277,0.6640903949737549,0.42000001668930054,-0.36030247807502747,-2.999997138977051,-1.2346110343933105,-2.999368906021118,-0.166180819272995,-0.17245864868164062,-0.17955079674720764,-0.18026907742023468,0.6667979955673218,0.5767667889595032,0.44395262002944946,0.22197328507900238
0.6666666666666666,0.029472041875123978,-0.008847386576235294,0.0,0.6942881345748901,0.0,0.0,-0.719697117805481,0.6869820952415466,0.06112959235906601,0.0,0.0,0.0,4.570659160614014,0.3695671558380127,0.6579152345657349,0.42071694135665894,0.597000777721405,-0.01452613715082407,-0.01083468459546566,-0.802035927772522,-0.11070235073566437,0.11503791809082031,-0.05144082382321358,2.6199839115142822,-0.7936826944351196,0.3734983801841736,0.3639684319496155,0.6709113717079163,0.4343830645084381,-0.12038443237543106,0.17437361180782318,0.24147172272205353,0.36107727885246277,0.6640903949737549,0.42000001668930054,-0.4103270173072815,-2.998845338821411,-1.284575343132019,-2.99906325340271,-0.15869463980197906,-0.1657172590494156,-0.17404446005821228,-0.1774185299873352,0.5417136549949646,0.4817330539226532,0.40714532136917114,0.25647374987602234
0.6833333333333333,0.040237318724393845,-0.010862029157578945,0.0,0.7031989693641663,0.0,0.0,-0.7109931111335754,0.6474089622497559,-0.1781269907951355,0.0,0.0,0.0,0.4569503664970398,0.3683883249759674,0.6589850187301636,0.4200000762939453,0.5988657474517822,5.423575544227788e-07,-1.7424449083591753e-07,-0.8008493185043335,-0.04247584566473961,0.03394337743520737,-1.5345372958108783e-05,-0.0007873530266806483,0.0005214684060774744,0.1577182561159134,0.36338165402412415,0.6738015413284302,0.4391564130783081,-0.035634204745292664,0.15209099650382996,0.29909855127334595,0.36107727885246277,0.6640903949737549,0.42000001668930054,-0.460353285074234,-2.9995012283325195,-1.3345417976379395,-3.0000576972961426,-0.15171656012535095,-0.1589212864637375,-0.16749833524227142,-0.17229525744915009,0.3324034512042999,0.3600185215473175,0.3908684551715851,0.3556438684463501
0.7,0.05218980088829994,-0.0164044126868248,0.0,0.6905797123908997,0.0,0.0,-0.7232562899589539,0.7519581317901611,-0.4054887592792511,0.0,0.0,0.0,-2.9868812561035156,0.3682856559753418,0.6590672731399536,0.4200001358985901,0.5989760756492615,7.219298367999727e-06,-9.972247426048853e-06,-0.8007669448852539,0.0006031519151292741,-0.00018905317119788378,-0.00028813432436436415,-0.0014330793637782335,0.012762398459017277,0.0013699294067919254,0.3669925630092621,0.6765732169151306,0.4477086663246155,0.4332689046859741,0.14036507904529572,0.849593997001648,0.36107727885246277,0.6640903949737549,0.42000001668930054,-0.5103659629821777,-2.9999842643737793,-1.3845601081848145,-2.999999761581421,-0.14903169870376587,-0.15515747666358948,-0.16244494915008545,-0.16690978407859802,0.06288465112447739,0.15641368925571442,0.26942703127861023,0.33219850063323975
0.7166666666666667,0.06740196794271469,-0.017234407365322113,0.0,0.6563723683357239,0.0,0.0,-0.7544370889663696,0.8880824446678162,-0.05026264861226082,0.0,0.0,0.0,-6.3710737228393555,0.36828601360321045,0.6590671539306641,0.4200000464916229,0.5989766120910645,3.652420730304584e-07,-3.2834263947734144e-06,-0.8007664084434509,0.00013417084119282663,-0.00027386072906665504,-9.438605047762394e-05,0.006154448259621859,-0.0011262331390753388,-0.0006404986488632858,0.3827545642852783,0.6747366189956665,0.46875813603401184,1.5163729190826416,-0.174423947930336,1.7754966020584106,0.36107727885246277,0.6640903949737549,0.42000001668930054,-0.5603784322738647,-2.999988079071045,-1.4345784187316895,-3.000000476837158,-0.15584442019462585,-0.15902364253997803,-0.16301842033863068,-0.1649988740682602,-0.3603421449661255,-0.19841773808002472,-0.00886676087975502,0.14219923317432404
0.7333333333333333,0.07934091985225677,-0.015916213393211365,0.0,0.6360071301460266,0.0,0.0,-0.7716831564903259,0.6636592149734497,0.07570082694292068,0.0,0.0,0.0,-2.085968255996704,0.36828601360321045,0.6590671539306641,0.4200000464916229,0.598976731300354,3.952789313643734e-07,-3.169672254443867e-06,-0.8007664084434509,0.00013210649194661528,-0.0002749973500613123,-9.402213618159294e-05,0.006196111440658569,-0.0011574613163247705,-0.0006368663744069636,0.4088156819343567,0.6763970851898193,0.5014560222625732,1.598656177520752,0.3317719101905823,2.0779149532318115,0.36107727885246277,0.6640903949737549,0.42000001668930054,-0.5808837413787842,0.2724956274032593,-1.4845967292785645,-3.0,-0.1608552634716034,-0.16229678690433502,-0.1641232967376709,-0.1645231992006302,-0.15904361009597778,-0.12414577603340149,-0.06409500539302826,-0.034321144223213196
0.75,0.0870070531964302,-0.012877071276307106,0.0,0.6407855153083801,0.0,0.0,-0.7677199244499207,0.38420119881629944,0.2266186624765396,0.0,0.0,0.0,1.625518560409546,0.36828601360321045,0.6590671539306641,0.4200000464916229,0.5989768505096436,4.15671223663594e-07,-3.0571422939829063e-06,-0.8007663488388062,0.00013307409244589508,-0.00027482720906846225,-9.427242912352085e-05,0.006186588201671839,-0.0011455651838332415,-0.0006389074842445552,0.43077653646469116,0.6824356317520142,0.5307047963142395,1.0005767345428467,0.4152813255786896,1.4802770614624023,0.36107727885246277,0.6640903949737549,0.42000001668930054,-0.5551365613937378,2.5934715270996094,-1.4459131956100464,2.9999992847442627,-0.16231687366962433,-0.16333907842636108,-0.16433511674404144,-0.1643410623073578,-0.015508843585848808,7.2177499532699585e-09,0.036278605461120605,0.050200365483760834
0.7666666666666666,0.09034493565559387,-0.014530994929373264,0.0,0.634492814540863,0.0,0.0,-0.772928774356842,0.1951296478509903,-0.12993790209293365,0.0,0.0,0.0,-1.76115083694458,0.36828601360321045,0.6590671539306641,0.4200000464916229,0.598976731300354,3.8543055325135356e-07,-3.3000633266055956e-06,-0.8007664084434509,0.0001325799385085702,-0.00027482237783260643,-9.413831867277622e-05,0.006189301609992981,-0.0011508932802826166,-0.0006377595709636807,0.4408990740776062,0.6905798316001892,0.5491845607757568,0.1388884037733078,0.39580902457237244,0.8837021589279175,0.36107727885246277,0.6640903949737549,0.42000001668930054,-0.5185972452163696,1.8278595209121704,-1.3958605527877808,3.0000009536743164,-0.15916171669960022,-0.16041775047779083,-0.16132700443267822,-0.16155236959457397,0.04054281860589981,0.06223802641034126,0.09721121191978455,0.11149665713310242
0.7833333333333333,0.09083982557058334,-0.010908661410212517,0.0,0.6409655809402466,0.0,0.0,-0.7675696015357971,-0.006949415430426598,0.2178729772567749,0.0,0.0,0.0,1.740863561630249,0.36828601360321045,0.6590671539306641,0.4200000464916229,0.5989767909049988,3.879719656652014e-07,-3.184657089150278e-06,-0.8007662892341614,0.00013208176824264228,-0.00027500512078404427,-9.40102618187666e-05,0.006196401081979275,-0.0011576081160455942,-0.0006368089816533029,0.43673840165138245,0.6957286596298218,0.5603716373443604,-0.4693005383014679,0.3752366304397583,0.4727976322174072,0.36107727885246277,0.6640903949737549,0.42000001668930054,-0.4801003336906433,2.688969373703003,-1.3610223531723022,1.2991507053375244,-0.16309015452861786,-0.16298559308052063,-0.16243942081928253,-0.16162601113319397,-0.08694825321435928,-0.042224060744047165,0.009410492144525051,0.04225153475999832
0.8,0.08906465023756027,-0.011099867522716522,0.0,0.6357755661010742,0.0,0.0,-0.771873950958252,-0.17635074257850647,-0.02300344780087471,0.0,0.0,0.0,-1.5333187580108643,0.36828598380088806,0.6590671539306641,0.4200000464916229,0.598976731300354,4.2829634594454546e-07,-3.445152970016352e-06,-0.8007664084434509,0.00013182792463339865,-0.00027461678837426007,-9.402167052030563e-05,0.006188150029629469,-0.0011603485327214003,-0.0006359101389534771,0.42288991808891296,0.7009916305541992,0.5621250867843628,-1.2249314785003662,0.23613950610160828,-0.08046148717403412,0.36107727885246277,0.6640903949737549,0.42000001668930054,-0.4667830765247345,-0.800744354724884,-1.3116837739944458,2.9999990463256836,-0.16387997567653656,-0.16309164464473724,-0.16175074875354767,-0.16039179265499115,-0.12377684563398361,-0.06326568871736526,4.132743924856186e-08,0.051816221326589584
0.8166666666666667,0.08890575915575027,-0.008132918737828732,0.0,0.6432691812515259,0.0,0.0,-0.7656400799751282,-0.0002482691779732704,0.23665264248847961,0.0,0.0,0.0,1.862070083618164,0.36828601360321045,0.6590671539306641,0.4200000464916229,0.5989767909049988,4.001485933713411e-07,-3.144797346976702e-06,-0.8007664084434509,0.00013353486428968608,-0.00027512761880643666,-9.428104385733604e-05,0.006192014552652836,-0.0011389756109565496,-0.0006399356061592698,0.4057384133338928,0.7047061920166016,0.5606456995010376,-0.7959743738174438,0.33675938844680786,-0.06334707140922546,0.36107727885246277,0.6640903949737549,0.42000001668930054,-0.4670685827732086,0.6426573991775513,-1.3313753604888916,-3.000000476837158,-0.1680624634027481,-0.1659182608127594,-0.16314272582530975,-0.16046638786792755,-0.12178339809179306,-0.07712967693805695,-0.021148551255464554,0.03767339140176773
0.8333333333333334,0.09072323143482208,-0.00843688752502203,0.0,0.63835608959198,0.0,0.0,-0.7697411775588989,0.14941006898880005,-0.05253103747963905,0.0,0.0,0.0,-1.6463160514831543,0.36828601360321045,0.6590671539306641,0.4200000464916229,0.5989768505096436,4.141398619594838e-07,-3.031742380699143e-06,-0.8007662296295166,0.0001330957020400092,-0.0002748228143900633,-9.428011253476143e-05,0.006186269223690033,-0.001145408721640706,-0.0006389574846252799,0.39500075578689575,0.7085152864456177,0.5560793876647949,-0.5379684567451477,0.07518043369054794,-0.30339905619621277,0.36107727885246277,0.6640903949737549,0.42000001668930054,-0.49694883823394775,-3.0000009536743164,-1.2931221723556519,3.0000009536743164,-0.1684664785861969,-0.1657777726650238,-0.162197545170784,-0.15855585038661957,-0.10069852322340012,-0.04088286682963371,0.03403324633836746,0.11966469883918762
0.85,0.09513773024082184,-0.011916610412299633,0.0,0.6130996346473694,0.0,0.0,-0.790005624294281,0.31241756677627563,-0.2724572420120239,0.0,0.0,0.0,-4.776098251342773,0.36828601360321045,0.6590671539306641,0.4200000464916229,0.598976731300354,3.2077639389171964e-07,-3.384235014891601e-06,-0.8007663488388062,0.0001294046815019101,-0.0002771395957097411,-9.33217816054821e-05,0.006263453047722578,-0.001199239050038159,-0.0006327098235487938,0.3926839530467987,0.7069891691207886,0.552134096622467,0.2513532042503357,-0.23342275619506836,0.0037158355116844177,0.36107727885246277,0.6640903949737549,0.42000001668930054,-0.5469485521316528,-2.9999003410339355,-1.3131422996520996,-2.999995708465576,-0.17176420986652374,-0.16780780255794525,-0.1626884639263153,-0.15728692710399628,-0.22741715610027313,-0.14287398755550385,-0.04205235466361046,0.07349435240030289
0.8666666666666667,0.102491594851017,-0.012100287713110447,0.0,0.6020892262458801,0.0,0.0,-0.7984288334846497,0.45761579275131226,0.02425430901348591,0.0,0.0,0.0,-0.5857356786727905,0.36828601360321045,0.6590670943260193,0.4200000464916229,0.5989765524864197,4.2891088014584966e-07,-3.1988640785129974e-06,-0.8007665276527405,0.0001351152895949781,-0.0002737678005360067,-9.477068670094013e-05,0.00614977115765214,-0.001115891500376165,-0.0006423313170671463,0.39732253551483154,0.7058569192886353,0.5545241236686707,0.3528137505054474,0.10261140018701553,0.2448200285434723,0.36107727885246277,0.6640903949737549,0.42000001668930054,-0.5678695440292358,0.22637934982776642,-1.3631606101989746,-3.0,-0.17647500336170197,-0.1715022176504135,-0.16519202291965485,-0.1584203988313675,-0.13839168846607208,-0.1367286592721939,-0.12658776342868805,-0.10517951101064682
0.8833333333333333,0.10672473162412643,-0.016905179247260094,0.0,0.6157723069190979,0.0,0.0,-0.7879241108894348,0.19397222995758057,-0.3167341351509094,0.0,0.0,0.0,2.714123487472534,0.36828601360321045,0.6590671539306641,0.4200000464916229,0.5989766716957092,4.2513502762631106e-07,-3.0832879929221235e-06,-0.8007664084434509,0.00013355439295992255,-0.0002744169905781746,-9.44321509450674e-05,0.006172855384647846,-0.0011396805057302117,-0.0006397423567250371,0.40286803245544434,0.708490252494812,0.5545790195465088,0.22976276278495789,0.08993622660636902,-0.24829797446727753,0.36107727885246277,0.6640903949737549,0.42000001668930054,-0.55616694688797,1.0913316011428833,-1.3248167037963867,3.0,-0.17527611553668976,-0.1704515963792801,-0.16422510147094727,-0.15739396214485168,-0.017280863597989082,0.0050629000179469585,0.024690018966794014,0.046879880130290985
0.9,0.10760562866926193,-0.01896522380411625,0.0,0.6147298812866211,0.0,0.0,-0.7887377142906189,-0.0013127925340086222,-0.00022123297094367445,0.0,0.0,0.0,-1.1215898990631104,0.36828601360321045,0.6590671539306641,0.4200000464916229,0.598976731300354,3.977941673838359e-07,-3.335213023092365e-06,-0.8007663488388062,0.00013284559827297926,-0.00027486158069223166,-9.421934373676777e-05,0.006188567727804184,-0.0011485879076644778,-0.0006384341395460069,0.4057082533836365,0.7062106132507324,0.5474746227264404,0.13793592154979706,-0.2729698419570923,-0.42826926708221436,0.36107727885246277,0.6640903949737549,0.42000001668930054,-0.5665662884712219,-2.058013439178467,-1.274764060974121,3.000000476837158,-0.17908360064029694,-0.17331567406654358,-0.16623176634311676,-0.1585504710674286,-0.29466962814331055,-0.2284228801727295,-0.16842640936374664,-0.1098841056227684
