vladlanda/robotic-transformer/data/env_000_episode_0151.csv
sim_time_s,robot_box_x,robot_box_y,robot_box_z,robot_box_quat_w,robot_box_quat_x,robot_box_quat_y,robot_box_quat_z,robot_box_linvel_x,robot_box_linvel_y,robot_box_linvel_z,robot_box_angvel_x,robot_box_angvel_y,robot_box_angvel_z,cube_world_x,cube_world_y,cube_world_z,cube_quat_w,cube_quat_x,cube_quat_y,cube_quat_z,cube_linvel_x,cube_linvel_y,cube_linvel_z,cube_angvel_x,cube_angvel_y,cube_angvel_z,endpoint_world_x,endpoint_world_y,endpoint_world_z,endpoint_linvel_x,endpoint_linvel_y,endpoint_linvel_z,target_cube_world_x,target_cube_world_y,target_cube_world_z,gripper_actual_pos_rad_gp_leftgearjoint,gripper_actual_vel_rad_s_gp_leftgearjoint,gripper_actual_pos_rad_gp_rotatingjoint,gripper_actual_vel_rad_s_gp_rotatingjoint,motor_angle_rad_joint1,motor_angle_rad_joint2,motor_angle_rad_joint3,motor_angle_rad_joint4,motor_speed_rad_s_joint1,motor_speed_rad_s_joint2,motor_speed_rad_s_joint3,motor_speed_rad_s_joint4
0.0,0.0,0.0,0.0,1.0,0.0,0.0,0.0,0.0,0.0,0.0,0.0,0.0,0.0,-0.4546482563018799,0.6511252522468567,0.41999998688697815,1.0,0.0,0.0,0.0,0.0,0.0,0.0,0.0,0.0,0.0,3.42540442943573e-06,-0.005000244826078415,1.313499927520752,0.0,0.0,0.0,0.4101818799972534,0.6927545070648193,0.42000001668930054,-1.5707999467849731,0.0,0.0,0.0,0.0,0.0,0.0,0.0,0.0,0.0,0.0,0.0
0.016666666666666666,0.0028778850100934505,0.0021806680597364902,0.0,0.9998081922531128,0.0,0.0,0.019586581736803055,0.24087215960025787,0.18240931630134583,0.0,0.0,0.0,3.1418697834014893,-0.45464837551116943,0.6511249542236328,0.41999998688697815,1.0,3.2799832752061775e-06,-8.339598593920527e-07,8.465660528145236e-08,-1.9833856640616432e-05,0.00017983021098189056,-6.132945418357849e-05,0.0009432561928406358,-0.004689492750912905,-0.0003198107879143208,-0.007110234349966049,0.003379564033821225,1.3159373998641968,-0.8143353462219238,0.9868683815002441,0.18095196783542633,0.4101818799972534,0.6927545070648193,0.42000001668930054,-1.5301095247268677,3.0000011920928955,-0.04584788903594017,-2.9999992847442627,0.0008691533003002405,0.0007963840034790337,0.0007110277656465769,0.0006108740926720202,0.11094217747449875,0.09756709635257721,0.08334315568208694,0.06823883205652237
0.03333333333333333,0.008960952050983906,0.006801816634833813,0.0,0.9997960329055786,0.0,0.0,0.020196828991174698,0.40701839327812195,0.3153042495250702,0.0,0.0,0.0,-0.8691297173500061,-0.454648494720459,0.651124894618988,0.4200000464916229,1.0,3.3908236218849197e-06,-2.1324740373529494e-06,-3.7087911408661967e-08,0.0002635786950122565,0.00026937879738397896,-0.00010509719140827656,-0.0017707741353660822,0.004130927845835686,-0.00013548358401749283,-0.02754201740026474,0.025796953588724136,1.3166579008102417,-1.5911606550216675,1.603163719177246,-0.07766331732273102,0.4101818799972534,0.6927545070648193,0.42000001668930054,-1.4800903797149658,3.0000014305114746,-0.09588772058486938,-3.000000238418579,0.0029902008827775717,0.0026528502348810434,0.0022774578537791967,0.0018609468825161457,0.16423021256923676,0.13977700471878052,0.11383893340826035,0.08632371574640274
0.05,0.01775956153869629,0.013772905804216862,0.0,0.9993746876716614,0.0,0.0,0.03535886108875275,0.5939756035804749,0.4651608169078827,0.0,0.0,0.0,2.6474525928497314,-0.45464852452278137,0.6511249542236328,0.4200000464916229,1.0,3.7651166167051997e-06,-2.2119024833955336e-06,5.637348365894468e-09,0.0002653102274052799,0.00026691530365496874,-0.0001044049859046936,-0.0017243424663320184,0.004177475813776255,-0.00012949523807037622,-0.059672996401786804,0.05330968648195267,1.3118218183517456,-2.1876301765441895,1.7330665588378906,-0.46413788199424744,0.4101818799972534,0.6927545070648193,0.42000001668930054,-1.4300720691680908,3.0,-0.145926371216774,-3.0000011920928955,0.005713094025850296,0.004920961335301399,0.004056683275848627,0.0031158181373029947,0.1928396075963974,0.15594474971294403,0.11717390269041061,0.07643364369869232
0.06666666666666667,0.029077384620904922,0.023067522794008255,0.0,0.9994471669197083,0.0,0.0,0.033246029168367386,0.7205126285552979,0.5952646136283875,0.0,0.0,0.0,-1.2118726968765259,-0.45464852452278137,0.651124894618988,0.4200000464916229,0.9999999403953552,3.4067338674503844e-06,-2.2856738723930903e-06,4.301002434203838e-07,0.0002670263347681612,0.0002679180761333555,-0.00010437914170324802,-0.001740648876875639,0.004211838357150555,-0.00012851078645326197,-0.09854847937822342,0.08668515086174011,1.2994245290756226,-2.477998733520508,2.1614532470703125,-0.9946731925010681,0.4101818799972534,0.6927545070648193,0.42000001668930054,-1.3800537586212158,3.0000007152557373,-0.195958212018013,-3.000000476837158,0.00836601946502924,0.006904114969074726,0.005331280175596476,0.0036412454210221767,0.15823866426944733,0.10874636471271515,0.05722348392009735,0.003592852968722582
0.08333333333333333,0.0425761379301548,0.034724026918411255,0.0,0.9989950656890869,0.0,0.0,0.04482003301382065,0.8657346963882446,0.7428812980651855,0.0,0.0,0.0,2.5635762214660645,-0.45464852452278137,0.651124894618988,0.4200000464916229,0.9999999403953552,3.6260375964047853e-06,-2.335399813091499e-06,3.0323869282256055e-07,0.0002661397447809577,0.0002668508095666766,-0.00010405457578599453,-0.0017283371416851878,0.004196438007056713,-0.00012790974869858474,-0.1434546560049057,0.12099625170230865,1.2789416313171387,-2.833416700363159,2.0109643936157227,-1.4324688911437988,0.4101818799972534,0.6927545070648193,0.42000001668930054,-1.33002769947052,2.999997854232788,-0.20641839504241943,1.3716236352920532,0.01001837756484747,0.007728839758783579,0.0052886949852108955,0.002691500587388873,0.0871148556470871,0.03082173503935337,-0.02746509201824665,-0.08777942508459091
0.1,0.05058089643716812,0.04832508787512779,0.0,0.9991176724433899,0.0,0.0,0.041997961699962616,0.3427208662033081,0.8791751265525818,0.0,0.0,0.0,-1.289113998413086,-0.45464852452278137,0.651124894618988,0.4200000464916229,1.0,3.4220713587274076e-06,-2.3086856799636735e-06,1.7965174947676132e-07,0.0002668143715709448,0.00026800335035659373,-0.00010440708138048649,-0.0017429604195058346,0.0042070322670042515,-0.00012891279766336083,-0.18599586188793182,0.15957197546958923,1.2520027160644531,-2.3825297355651855,2.4520034790039062,-1.7130154371261597,0.4101818799972534,0.6927545070648193,0.42000001668930054,-1.280021071434021,3.000002861022949,-0.24659979343414307,-3.0000009536743164,0.005761363543570042,0.0026997283566743135,-0.0005569414352066815,-0.00401875888928771,-0.38401833176612854,-0.43908238410949707,-0.4963953495025635,-0.5561898946762085
0.11666666666666667,0.05498635768890381,0.0630246102809906,0.0,0.9999427199363708,0.0,0.0,0.010704887099564075,0.2537268400192261,0.8614062666893005,0.0,0.0,0.0,-4.48132848739624,-0.45464852452278137,0.6511249542236328,0.4200000464916229,1.0,3.7114145925443154e-06,-2.3327797862293664e-06,2.5745856646608445e-07,0.00026485841954126954,0.0002663533086888492,-0.0001042329240590334,-0.0017181563889607787,0.004170076455920935,-0.0001291552762268111,-0.22610139846801758,0.20306068658828735,1.2232286930084229,-2.4760546684265137,2.6238574981689453,-1.767562747001648,0.4101818799972534,0.6927545070648193,0.42000001668930054,-1.229998230934143,2.999997615814209,-0.22782056033611298,2.9999988079071045,0.0004613236815202981,-0.003877862822264433,-0.008411125279963017,-0.0131508968770504,-0.22863805294036865,-0.32191529870033264,-0.4132791757583618,-0.5027823448181152
0.13333333333333333,0.06216620281338692,0.07571667432785034,0.0,0.9999999403953552,0.0,0.0,-0.00029129977338016033,0.43750593066215515,0.6722914576530457,0.0,0.0,0.0,-0.24319633841514587,-0.45464852452278137,0.651124894618988,0.4200000464916229,1.0,3.33562343257654e-06,-2.231935468444135e-06,3.113336504156905e-07,0.0002666971704456955,0.00026759487809613347,-0.00010428461246192455,-0.001737144310027361,0.004205835517495871,-0.00012839905684813857,-0.26878592371940613,0.24429839849472046,1.1945492029190063,-2.4673779010772705,2.540740728378296,-1.7068842649459839,0.4101818799972534,0.6927545070648193,0.42000001668930054,-1.1800068616867065,3.000000238418579,-0.2590309977531433,-3.0000007152557373,0.0005455416394397616,-0.006001403089612722,-0.012662934139370918,-0.019449427723884583,-0.018394291400909424,-0.1543084979057312,-0.28514599800109863,-0.4107036590576172
0.15,0.06602466106414795,0.08479402959346771,0.0,0.9997273683547974,0.0,0.0,-0.02334938757121563,0.1566910594701767,0.49290731549263,0.0,0.0,0.0,-3.5869219303131104,-0.45464852452278137,0.651124894618988,0.4200000464916229,1.0,3.5188593301427318e-06,-2.2830813577456865e-06,-3.625297324560961e-07,0.00026618369156494737,0.0002673570706974715,-0.00010425481013953686,-0.001734902267344296,0.00419566361233592,-0.00012860818242188543,-0.3080567717552185,0.2927477955818176,1.1604704856872559,-2.2565040588378906,3.1584043502807617,-2.3276944160461426,0.4101818799972534,0.6927545070648193,0.42000001668930054,-1.1299898624420166,2.999992847442627,-0.22492863237857819,3.000000476837158,-0.0027709633577615023,-0.011235479265451431,-0.019730711355805397,-0.02826668508350849,-0.30816468596458435,-0.4047091007232666,-0.49652746319770813,-0.5836994647979736
0.16666666666666666,0.06602748483419418,0.0952010452747345,0.0,0.9973403215408325,0.0,0.0,-0.07288570702075958,-0.039308033883571625,0.6571690440177917,0.0,0.0,0.0,-6.709904670715332,-0.45464852452278137,0.651124894618988,0.4200000464916229,1.0,3.6665835523308488e-06,-2.3391182821796974e-06,-3.149922918055381e-07,0.000265958602540195,0.00026667420752346516,-0.00010403734631836414,-0.001725313370116055,0.0041927797719836235,-0.00012778645032085478,-0.34411194920539856,0.3502283990383148,1.1177549362182617,-1.9931223392486572,3.6997199058532715,-2.776834011077881,0.4101818799972534,0.6927545070648193,0.42000001668930054,-1.087928295135498,2.088831663131714,-0.25621896982192993,-2.999999523162842,-0.010237832553684711,-0.02015562728047371,-0.03001764416694641,-0.039835505187511444,-0.5078954100608826,-0.5845864415168762,-0.6560950875282288,-0.7224894165992737
0.18333333333333332,0.07176323235034943,0.10839219391345978,0.0,0.9941821098327637,0.0,0.0,-0.10771214962005615,0.471826434135437,0.8430705666542053,0.0,0.0,0.0,-2.7079274654388428,-0.45464852452278137,0.651124894618988,0.4200000464916229,1.0,3.8143025449244305e-06,-2.399538061581552e-06,-2.702604433579836e-07,0.00026549160247668624,0.0002661106991581619,-0.00010391208343207836,-0.0017177729168906808,0.004184826277196407,-0.0001275383838219568,-0.3811019957065582,0.408089280128479,1.0647881031036377,-2.1174540519714355,3.5243916511535645,-3.558650493621826,0.4101818799972534,0.6927545070648193,0.42000001668930054,-1.043980598449707,3.0000009536743164,-0.3062482178211212,-2.9999988079071045,-0.01603657566010952,-0.02703326754271984,-0.03788573667407036,-0.04861030355095863,-0.3476375341415405,-0.38669437170028687,-0.4214477837085724,-0.45233601331710815
0.2,0.07366291433572769,0.11829325556755066,0.0,0.9883880615234375,0.0,0.0,-0.15195073187351227,0.05719238147139549,0.6057301163673401,0.0,0.0,0.0,-5.949441909790039,-0.45464852452278137,0.651124894618988,0.4200000464916229,1.0,3.600026275307755e-06,-2.291248847541283e-06,-2.2018376455434918e-07,0.00026572984643280506,0.000266450661001727,-0.00010398216545581818,-0.0017227132339030504,0.004188770893961191,-0.0001277342380490154,-0.4149448275566101,0.4678148627281189,0.9987015128135681,-1.724137783050537,3.761354684829712,-4.2820539474487305,0.4101818799972534,0.6927545070648193,0.42000001668930054,-0.9939775466918945,2.9999825954437256,-0.3562758266925812,-3.0,-0.02904096245765686,-0.040113285183906555,-0.05076630413532257,-0.0611259825527668,-0.8923178315162659,-0.9068600535392761,-0.888443112373352,-0.8477199673652649
0.21666666666666667,0.07218734920024872,0.1288674771785736,0.0,0.9844087362289429,0.0,0.0,-0.17589600384235382,-0.15904894471168518,0.696419358253479,0.0,0.0,0.0,-1.6096863746643066,-0.45464852452278137,0.651124894618988,0.4200000464916229,0.9999999403953552,3.6396340874489397e-06,-2.261995177832432e-06,2.2247850495205057e-07,0.0002668734814506024,0.0002675438590813428,-0.00010411953553557396,-0.0017403041711077094,0.00421100901439786,-0.00012783636339008808,-0.4458490014076233,0.5222193002700806,0.9216365814208984,-1.6425225734710693,3.092660427093506,-4.938215732574463,0.4101818799972534,0.6927545070648193,0.42000001668930054,-0.9439712166786194,3.000002384185791,-0.40630486607551575,-2.9999992847442627,-0.04447218403220177,-0.055289216339588165,-0.06579295545816422,-0.07569220662117004,-0.9856244325637817,-0.9478418231010437,-0.9137964844703674,-0.8655102252960205
0.23333333333333334,0.07374270260334015,0.13665109872817993,0.0,0.9779011607170105,0.0,0.0,-0.20906788110733032,0.16274157166481018,0.3865688443183899,0.0,0.0,0.0,-4.817690849304199,-0.454648494720459,0.651124894618988,0.4200000464916229,1.0,3.420655730224098e-06,-2.3168222469394095e-06,2.9560155212493555e-07,0.00026680054725147784,0.00026803911896422505,-0.00010442500934004784,-0.0017437870847061276,0.004206916783004999,-0.00012899587454739958,-0.47082746028900146,0.5720152258872986,0.831615686416626,-1.1828882694244385,2.8190226554870605,-5.7196455001831055,0.4101818799972534,0.6927545070648193,0.42000001668930054,-0.8939605355262756,3.0000007152557373,-0.4563350975513458,-3.000000238418579,-0.06080929562449455,-0.07149739563465118,-0.08172247558832169,-0.0910423994064331,-0.9890915155410767,-0.9907010197639465,-0.9853007793426514,-0.9657412171363831
0.25,0.07108797132968903,0.1409984529018402,0.0,0.9745771288871765,0.0,0.0,-0.22405219078063965,-0.2555720806121826,0.19192388653755188,0.0,0.0,0.0,-0.7263533473014832,-0.45464852452278137,0.651124894618988,0.4200000464916229,0.9999999403953552,3.3475421332695987e-06,-2.259183929709252e-06,1.8084595865275332e-07,0.00026687770150601864,0.00026791056734509766,-0.00010439311154186726,-0.0017404124373570085,0.004208188038319349,-0.00012870164937339723,-0.4867737889289856,0.6047554612159729,0.734920859336853,-0.5379657745361328,1.4474210739135742,-5.815528869628906,0.4101818799972534,0.6927545070648193,0.42000001668930054,-0.8439499139785767,2.9999985694885254,-0.506365954875946,-2.999999761581421,-0.07824546843767166,-0.08870938420295715,-0.09876897186040878,-0.10796447843313217,-0.9981722831726074,-0.9985347390174866,-0.9988641142845154,-0.9991542100906372
0.26666666666666666,0.07238716632127762,0.14186297357082367,0.0,0.9682857990264893,0.0,0.0,-0.2498452067375183,0.20208731293678284,-0.0031775287352502346,0.0,0.0,0.0,-4.043768405914307,-0.45464852452278137,0.651124894618988,0.4200000464916229,0.9999999403953552,3.5356324588065036e-06,-2.300284677403397e-06,-1.2685352146490914e-07,0.00026601881836540997,0.00026712307590059936,-0.00010419590398669243,-0.0017317290185019374,0.004192897584289312,-0.00012848891492467374,-0.4917204678058624,0.6280916929244995,0.6343898773193359,0.0654887929558754,1.2375473976135254,-6.0897955894470215,0.4101818799972534,0.6927545070648193,0.42000001668930054,-0.7939407825469971,2.999998092651367,-0.5563961267471313,-3.000000238418579,-0.09497320652008057,-0.10539554804563522,-0.11542300879955292,-0.12457644194364548,-0.999538004398346,-0.999351441860199,-0.9992475509643555,-0.999203085899353
0.2833333333333333,0.07067776471376419,0.14064528048038483,0.0,0.9662702679634094,0.0,0.0,-0.2575301229953766,-0.19179265201091766,-0.11378741264343262,0.0,0.0,0.0,0.04253889247775078,-0.45464852452278137,0.6511249542236328,0.4200000464916229,1.0,3.593411747715436e-06,-2.2626422833127435e-06,-5.654019830103607e-08,0.0002670468529686332,0.0002677511074580252,-0.0001041668001562357,-0.00174311688169837,0.004214034881442785,-0.00012789410538971424,-0.4864937663078308,0.6412754058837891,0.5417646765708923,0.6497279405593872,0.5560246706008911,-5.0961408615112305,0.4101818799972534,0.6927545070648193,0.42000001668930054,-0.7439320683479309,2.999999761581421,-0.6064254641532898,-3.0000011920928955,-0.11307979375123978,-0.12316911667585373,-0.1329466998577118,-0.14190489053726196,-1.0174449682235718,-1.01311194896698,-1.0098130702972412,-1.0071914196014404
0.3,0.06634026765823364,0.13679906725883484,0.0,0.9609184265136719,0.0,0.0,-0.2768316864967346,-0.3010500967502594,-0.3030606508255005,0.0,0.0,0.0,-3.0302491188049316,-0.454648494720459,0.651124894618988,0.4200000464916229,0.9999999403953552,3.7249899378366536e-06,-2.236043428638368e-06,3.828652097581653e-07,0.00026479840744286776,0.000266731163719669,-0.00010454049333930016,-0.001718939165584743,0.004166668280959129,-0.00013016429147683084,-0.4720053970813751,0.65130215883255,0.4573189616203308,1.1396169662475586,0.6442857980728149,-5.035717487335205,0.4101818799972534,0.6927545070648193,0.42000001668930054,-0.6939242482185364,2.9999704360961914,-0.6564531922340393,-2.999997615814209,-0.12919111549854279,-0.1393328458070755,-0.14920574426651,-0.15827298164367676,-1.004197120666504,-1.0029960870742798,-1.0021071434020996,-1.0014177560806274
0.31666666666666665,0.05968352407217026,0.130324587225914,0.0,0.9608083963394165,0.0,0.0,-0.2772133946418762,-0.43895938992500305,-0.4244014322757721,0.0,0.0,0.0,0.8787557482719421,-0.45406582951545715,0.6526572704315186,0.42075127363204956,0.9992852807044983,0.004076785407960415,0.014673170633614063,-0.034598369151353836,-0.002496371977031231,-0.005193112883716822,-0.06239650771021843,-1.8703428506851196,-1.247999668121338,0.7622697949409485,-0.46218520402908325,0.6569451093673706,0.4262793958187103,-0.03831961750984192,-0.04758831858634949,-0.09043383598327637,0.4101818799972534,0.6927545070648193,0.42000001668930054,-0.6440207362174988,2.99318790435791,-0.7069083452224731,-2.967618227005005,-0.13924914598464966,-0.14964161813259125,-0.15952299535274506,-0.16830602288246155,-0.4313644468784332,-0.4153035879135132,-0.3756626546382904,-0.3089878559112549
0.3333333333333333,0.05060287564992905,0.12166617065668106,0.0,0.9565352201461792,0.0,0.0,-0.29161685705184937,-0.5948520302772522,-0.5595564842224121,0.0,0.0,0.0,-2.6815123558044434,-0.45443934202194214,0.6530459523200989,0.4199999272823334,0.9992926120758057,1.009829793474637e-05,-1.4709426068293396e-05,-0.03760545700788498,-0.014600134454667568,0.03048267588019371,-0.00042597431456670165,-0.015876751393079758,0.03607426583766937,-0.7352078557014465,-0.4634529948234558,0.657787561416626,0.4243096113204956,0.08130699396133423,-0.010933607816696167,-0.16898193955421448,0.4101818799972534,0.6927545070648193,0.42000001668930054,-0.5940148830413818,3.0000011920928955,-0.7569639682769775,-2.9999032020568848,-0.1470576822757721,-0.15658119320869446,-0.16517534852027893,-0.1722349226474762,-0.5044636130332947,-0.41334161162376404,-0.29916539788246155,-0.1630002111196518
0.35,0.03916030004620552,0.11082648485898972,0.0,0.9570809006690979,0.0,0.0,-0.28982096910476685,-0.7267714738845825,-0.6884746551513672,0.0,0.0,0.0,1.1624746322631836,-0.4524419605731964,0.6567590236663818,0.4200025498867035,0.9959295392036438,3.728870069608092e-05,-5.1280341722304e-05,-0.09013446420431137,0.2226007878780365,0.38498377799987793,0.002756142523139715,0.2140446901321411,-0.06610025465488434,-10.598838806152344,-0.4605715572834015,0.661655068397522,0.4218599200248718,0.25259584188461304,0.4531846046447754,-0.09987031668424606,0.4101818799972534,0.6927545070648193,0.42000001668930054,-0.5440099239349365,2.9999892711639404,-0.8070003390312195,-3.0000007152557373,-0.156077042222023,-0.1637261062860489,-0.17006801068782806,-0.17454445362091064,-0.5180084705352783,-0.3972335755825043,-0.2550997734069824,-0.09547121822834015
0.36666666666666664,0.030885526910424232,0.09752778708934784,0.0,0.9532838463783264,0.0,0.0,-0.3020760715007782,-0.3941230773925781,-0.8434296250343323,0.0,0.0,0.0,-2.40283465385437,-0.4481007158756256,0.6637644171714783,0.4200015366077423,0.9875248074531555,8.172015441232361e-06,5.936644083703868e-05,-0.1574632078409195,0.4169561266899109,0.597886323928833,-0.0032095066271722317,-0.027114154770970345,-0.15486246347427368,-3.48075795173645,-0.45457127690315247,0.6690776348114014,0.42097821831703186,0.5014492273330688,0.5134316682815552,-0.04429903253912926,0.4101818799972534,0.6927545070648193,0.42000001668930054,-0.4940052032470703,3.0000011920928955,-0.8570517897605896,-2.999985933303833,-0.16465778648853302,-0.169807568192482,-0.1732606589794159,-0.1745513677597046,-0.48055627942085266,-0.31021982431411743,-0.11725733429193497,0.09162198007106781
0.3833333333333333,0.01965232752263546,0.08251465857028961,0.0,0.9395983815193176,0.0,0.0,-0.34227895736694336,-0.772926926612854,-0.9280707240104675,0.0,0.0,0.0,-6.026128768920898,-0.4362036883831024,0.6796165108680725,0.42114919424057007,0.9807112216949463,-0.012362943030893803,-0.01202417816966772,-0.19469965994358063,1.0426522493362427,1.3310651779174805,0.15062974393367767,-0.8385524153709412,-2.8593368530273438,-5.750127792358398,-0.44291776418685913,0.6832363605499268,0.42224788665771484,0.975021243095398,1.260358452796936,0.11490149796009064,0.4101818799972534,0.6927545070648193,0.42000001668930054,-0.44395971298217773,2.998711585998535,-0.9070612192153931,-2.999971628189087,-0.17502251267433167,-0.1769578903913498,-0.17684751749038696,-0.17435763776302338,-0.6056094169616699,-0.41733959317207336,-0.210157573223114,0.0077598984353244305
0.4,0.012015807442367077,0.06481049954891205,0.0,0.9132246375083923,0.0,0.0,-0.4074564278125763,-0.4348517656326294,-1.0997928380966187,0.0,0.0,0.0,-9.126226425170898,-0.4057989716529846,0.708898663520813,0.4259643256664276,0.9694797992706299,0.02552836202085018,-0.04913764074444771,-0.23883603513240814,2.888282060623169,2.331446647644043,0.19828461110591888,31.662763595581055,-15.258881568908691,10.799960136413574,-0.41252049803733826,0.7133846879005432,0.4264223277568817,2.6814894676208496,2.282094717025757,0.507169246673584,0.4101818799972534,0.6927545070648193,0.42000001668930054,-0.39755111932754517,2.052487850189209,-0.8702027201652527,2.9942052364349365,-0.1850167065858841,-0.18331468105316162,-0.17929793894290924,-0.17279256880283356,-0.7361619472503662,-0.4665141701698303,-0.18609154224395752,0.0936320424079895
0.4166666666666667,0.006336275488138199,0.05169194936752319,0.0,0.8715492486953735,0.0,0.0,-0.49030801653862,-0.24264900386333466,-0.7885246872901917,0.0,0.0,0.0,-11.738056182861328,-0.3363330066204071,0.7543734908103943,0.4328150451183319,0.9464756846427917,0.09511079639196396,-0.08930254727602005,-0.2952333390712738,5.553287506103516,2.723207712173462,0.5664361715316772,7.311623573303223,-10.730952262878418,22.26492691040039,-0.34254759550094604,0.759360134601593,0.4334408938884735,5.209402561187744,3.3383753299713135,0.5021496415138245,0.4101818799972534,0.6927545070648193,0.42000001668930054,-0.3772108554840088,0.86715167760849,-0.8201618790626526,2.997837543487549,-0.20029853284358978,-0.1965060830116272,-0.18670709431171417,-0.1747744381427765,-0.6232495903968811,-0.6870583891868591,-0.4014565348625183,-0.13954603672027588
0.43333333333333335,0.00483419606462121,0.04122307896614075,0.0,0.811882495880127,0.0,0.0,-0.5838208198547363,-0.03820203244686127,-0.5649417042732239,0.0,0.0,0.0,-14.205924034118652,-0.23217257857322693,0.8064154982566833,0.4430782198905945,0.9086981415748596,0.132672518491745,-0.1105138510465622,-0.38006889820098877,7.460176467895508,2.4756906032562256,0.7925189733505249,18.16666603088379,-6.440310478210449,23.766450881958008,-0.23866023123264313,0.81293785572052,0.44357025623321533,7.25589656829834,3.092714309692383,0.7068422436714172,0.4101818799972534,0.6927545070648193,0.42000001668930054,-0.36335960030555725,0.9003925919532776,-0.8459534645080566,-3.0000035762786865,-0.21370302140712738,-0.2093055546283722,-0.19460713863372803,-0.17837485671043396,-0.8836488723754883,-0.7820074558258057,-0.493405818939209,-0.2486155778169632
0.45,6.906965427333489e-05,0.03625763952732086,0.0,0.756975531578064,0.0,0.0,-0.6534432172775269,-0.2543858587741852,-0.2761715054512024,0.0,0.0,0.0,-9.245772361755371,-0.11554096639156342,0.8393362760543823,0.45381835103034973,0.8655871748924255,0.15613293647766113,-0.10959765315055847,-0.4630005657672882,7.0057172775268555,0.649257242679596,0.6172851324081421,0.4708652198314667,-10.33942985534668,19.223384857177734,-0.12147122621536255,0.8483391404151917,0.4545402526855469,7.037198066711426,1.4759513139724731,0.6569844484329224,0.4101818799972534,0.6927545070648193,0.42000001668930054,-0.34770485758781433,0.9167163968086243,-0.8758993744850159,-0.8231342434883118,-0.2285405844449997,-0.2242674082517624,-0.20726518332958221,-0.18554435670375824,-0.6925252676010132,-0.7339925169944763,-0.7116739749908447,-0.430372029542923
0.4666666666666667,-0.005680902395397425,0.03396189585328102,0.0,0.724268913269043,0.0,0.0,-0.6895175576210022,-0.39493218064308167,-0.017510084435343742,0.0,0.0,0.0,-4.64491081237793,-0.002449396997690201,0.8512812256813049,0.4615554213523865,0.8426235318183899,0.14355377852916718,-0.10048834979534149,-0.5091953277587891,6.920816421508789,-0.7712608575820923,0.2664423882961273,-4.766883373260498,-19.777244567871094,14.906102180480957,-0.006221139803528786,0.862140417098999,0.4631325602531433,6.760855674743652,0.04553657025098801,0.5280025601387024,0.4101818799972534,0.6927545070648193,0.42000001668930054,-0.33340561389923096,0.7142848968505859,-0.9227546453475952,-3.0000035762786865,-0.24004894495010376,-0.23812536895275116,-0.21911069750785828,-0.19207192957401276,-0.031416960060596466,-0.9513599276542664,-0.7712482213973999,-0.44033679366111755
0.48333333333333334,-0.008556924760341644,0.027017608284950256,0.0,0.7140451073646545,0.0,0.0,-0.7000996470451355,-0.09784171730279922,-0.5527748465538025,0.0,0.0,0.0,-0.8337634801864624,0.10140720754861832,0.8451833128929138,0.4646613597869873,0.77895188331604,0.11624009907245636,-0.10606235265731812,-0.6070197820663452,5.503955841064453,-1.7577189207077026,0.12217161804437637,-1.1326775550842285,-12.099777221679688,29.179244995117188,0.09887867420911789,0.8574752807617188,0.4672306180000305,5.8529462814331055,-0.7259461879730225,0.11656250804662704,0.4101818799972534,0.6927545070648193,0.42000001668930054,-0.32375767827033997,0.3201141357421875,-0.9727789759635925,-3.000001907348633,-0.23809076845645905,-0.23853112757205963,-0.2270093560218811,-0.19560398161411285,0.19389505684375763,0.19946812093257904,-0.243327796459198,-0.03556520491838455
0.5,-0.008804715238511562,0.022520828992128372,0.0,0.6954374313354492,0.0,0.0,-0.7185866832733154,0.006169570609927177,-0.12729601562023163,0.0,0.0,0.0,-4.002391815185547,0.18832698464393616,0.8275953531265259,0.4626249372959137,0.724085807800293,0.10159751027822495,-0.0935901328921318,-0.6757355332374573,4.780130863189697,-2.2453348636627197,-0.35666435956954956,1.8519150018692017,-18.611177444458008,25.23528289794922,0.187207892537117,0.8407727479934692,0.4648527503013611,4.911493301391602,-1.3696813583374023,-0.21370729804039001,0.4101818799972534,0.6927545070648193,0.42000001668930054,-0.3193475902080536,0.14072683453559875,-1.0228021144866943,-3.000001907348633,-0.23668761551380157,-0.23640862107276917,-0.23081952333450317,-0.19715416431427002,-0.005817047320306301,0.08115466684103012,-0.18985459208488464,-0.10935580730438232
0.5166666666666666,-0.00703261187300086,0.018103396520018578,0.0,0.6903230547904968,0.0,0.0,-0.7235012650489807,0.14486481249332428,-0.34544336795806885,0.0,0.0,0.0,0.11566726863384247,0.2615668475627899,0.8014296293258667,0.4540182948112488,0.6740829944610596,0.06358761340379715,-0.09327522665262222,-0.7299783229827881,3.677506923675537,-2.3105735778808594,-0.4644206166267395,8.43153190612793,-0.5365700721740723,13.786728858947754,0.2611079216003418,0.8130506277084351,0.4570264220237732,4.055018424987793,-1.949243187904358,-0.6529903411865234,0.4101818799972534,0.6927545070648193,0.42000001668930054,-0.3169124126434326,0.17092058062553406,-1.072824239730835,-2.9998955726623535,-0.23675836622714996,-0.23431800305843353,-0.23182931542396545,-0.19758209586143494,0.03847959637641907,0.18645142018795013,0.05951292812824249,0.043143317103385925
0.5333333333333333,-0.0021817367523908615,0.0166779812425375,0.0,0.6758667230606079,0.0,0.0,-0.7370238304138184,0.36141645908355713,-0.11118938773870468,0.0,0.0,0.0,-3.055534601211548,0.31942957639694214,0.7708995938301086,0.43695566058158875,0.641984224319458,-0.004693683236837387,-0.11319530010223389,-0.7583014369010925,2.8778700828552246,-1.9743293523788452,-1.2338711023330688,-16.223167419433594,3.371232509613037,13.803714752197266,0.31940144300460815,0.7821657061576843,0.4423617720603943,3.1614089012145996,-1.804370641708374,-1.0754213333129883,0.4101818799972534,0.6927545070648193,0.42000001668930054,-0.3095793128013611,0.7054651379585266,-1.1228463649749756,-2.999999761581421,-0.2361242026090622,-0.2316483110189438,-0.23088377714157104,-0.19798573851585388,0.261320561170578,0.3176819980144501,0.19679130613803864,0.02991783805191517
0.55,0.005109432619065046,0.017472906038165092,0.0,0.6755881905555725,0.0,0.0,-0.7372791767120361,0.46914926171302795,0.11842662841081619,0.0,0.0,0.0,0.8537607789039612,0.36150598526000977,0.7457912564277649,0.42256179451942444,0.6151758432388306,0.0313662514090538,-0.03297889977693558,-0.7870751023292542,1.3500982522964478,-1.7673779726028442,-0.021315691992640495,0.4365532100200653,0.2601739168167114,20.452503204345703,0.3619465231895447,0.753141462802887,0.42523613572120667,1.7959445714950562,-1.4002151489257812,-0.2484004944562912,0.4101818799972534,0.6927545070648193,0.42000001668930054,-0.2931147813796997,1.0035617351531982,-1.1729402542114258,-2.991321563720703,-0.23143929243087769,-0.22645168006420135,-0.2274152636528015,-0.19803398847579956,0.32216641306877136,0.33315712213516235,0.25036993622779846,0.013181672431528568
0.5666666666666667,0.009863447397947311,0.015035495162010193,0.0,0.6650064587593079,0.0,0.0,-0.7468376159667969,0.2194313108921051,-0.18836048245429993,0.0,0.0,0.0,-2.5147480964660645,0.3863186538219452,0.7288936972618103,0.420136958360672,0.5940269827842712,0.00015952596731949598,-0.002176854759454727,-0.8044421076774597,0.6683536767959595,-1.5323407649993896,0.0447077676653862,-1.5945650339126587,-1.2693098783493042,28.206865310668945,0.3859509229660034,0.7354624271392822,0.42318421602249146,1.2426337003707886,-0.9633234739303589,-0.02070077508687973,0.4101818799972534,0.6927545070648193,0.42000001668930054,-0.2757761776447296,0.8377001285552979,-1.2229549884796143,-3.0000035762786865,-0.22318369150161743,-0.2185581773519516,-0.22086332738399506,-0.19602039456367493,0.41954371333122253,0.4180547893047333,0.38226985931396484,0.11802899092435837
0.5833333333333334,0.01572527550160885,0.01676897145807743,0.0,0.667078971862793,0.0,0.0,-0.7449870109558105,0.3695795238018036,0.09577298164367676,0.0,0.0,0.0,1.1766057014465332,0.4018711745738983,0.714637815952301,0.4211648106575012,0.5642018914222717,-0.018811600282788277,0.014368093572556973,-0.8252973556518555,0.9661228060722351,-0.8281667828559875,-0.059978388249874115,-4.128577709197998,-4.34074592590332,-7.632050514221191,0.40016722679138184,0.7202571630477905,0.42512911558151245,0.6613086462020874,-0.7333236336708069,0.1416597217321396,0.4101818799972534,0.6927545070648193,0.42000001668930054,-0.26208481192588806,0.8547940254211426,-1.272939920425415,-2.998087167739868,-0.218519389629364,-0.2137536108493805,-0.21609310805797577,-0.1954766809940338,0.443045973777771,0.3987804353237152,0.3696036636829376,0.0805925577878952
0.6,0.02329692430794239,0.014089909382164478,0.0,0.6577317118644714,0.0,0.0,-0.7532522678375244,0.48572927713394165,-0.181468203663826,0.0,0.0,0.0,-2.370028018951416,0.4124007821083069,0.7074289321899414,0.42003315687179565,0.5471555590629578,-0.00037364879972301424,0.00061681994702667,-0.8370305895805359,0.24306197464466095,-0.3175600469112396,-0.028733564540743828,-0.44053566455841064,-1.0932564735412598,5.006306171417236,0.40818873047828674,0.7132035493850708,0.4243635833263397,0.23809947073459625,-0.29559195041656494,-0.06927959620952606,0.4101818799972534,0.6927545070648193,0.42000001668930054,-0.2630206346511841,-0.8066269755363464,-1.2347865104675293,2.9989876747131348,-0.20773513615131378,-0.20452682673931122,-0.20784923434257507,-0.19257934391498566,0.5663554668426514,0.4874296188354492,0.45401531457901,0.15345549583435059
0.6166666666666667,0.028575051575899124,0.01452151220291853,0.0,0.6606065630912781,0.0,0.0,-0.7507323026657104,0.2399570792913437,0.04251070320606232,0.0,0.0,0.0,1.2938817739486694,0.4157143533229828,0.703118622303009,0.4199998676776886,0.5731537938117981,3.483186219455092e-07,-1.382857772114221e-05,-0.8194476962089539,0.1862541288137436,-0.24165134131908417,-0.00013893470168113708,0.011625552549958229,0.0037688484881073236,3.425032138824463,0.409883975982666,0.7066584825515747,0.42571789026260376,0.013981543481349945,-0.309669554233551,0.1676740199327469,0.4101818799972534,0.6927545070648193,0.42000001668930054,-0.3068990409374237,-2.999998092651367,-1.2554092407226562,-2.9996869564056396,-0.20076601207256317,-0.19844873249530792,-0.20173379778862,-0.19082225859165192,0.4696109890937805,0.4002722501754761,0.39616113901138306,0.1378646045923233
0.6333333333333333,0.034409210085868835,0.016929784789681435,0.0,0.6519008278846741,0.0,0.0,-0.758304238319397,0.3617011606693268,0.24563932418823242,0.0,0.0,0.0,-2.276571035385132,0.41724827885627747,0.7007042765617371,0.4200000762939453,0.5701545476913452,2.0370737274788553e-07,2.552816340539721e-06,-0.8215374946594238,0.062065489590168,-0.10317660123109818,-9.981569019146264e-05,-0.0023738464806228876,-0.00499318353831768,-0.9489286541938782,0.4102497100830078,0.7067508697509766,0.42907196283340454,0.05259072035551071,0.14180216193199158,0.2237970232963562,0.4101818799972534,0.6927545070648193,0.42000001668930054,-0.356867253780365,-2.9995455741882324,-1.305363655090332,-2.998816728591919,-0.19157518446445465,-0.19105876982212067,-0.19485987722873688,-0.1883557140827179,0.6082174181938171,0.47845086455345154,0.43214279413223267,0.16987518966197968
0.65,0.04179136082530022,0.016642186790704727,0.0,0.6555134654045105,0.0,0.0,-0.7551834583282471,0.4705231785774231,-0.04992404580116272,0.0,0.0,0.0,1.4497966766357422,0.4171712398529053,0.6998538374900818,0.4200188219547272,0.5793234705924988,0.00026977816014550626,-0.0003846822655759752,-0.8150975108146667,-0.10904043167829514,-0.02252078242599964,0.020528290420770645,-0.385445773601532,-0.9697171449661255,1.0685005187988281,0.4094338119029999,0.7082993984222412,0.4326299726963043,-0.1545681208372116,0.024849070236086845,0.22540855407714844,0.4101818799972534,0.6927545070648193,0.42000001668930054,-0.4068848192691803,-2.999786376953125,-1.3553776741027832,-2.9999852180480957,-0.1815248280763626,-0.18277007341384888,-0.18696822226047516,-0.18421980738639832,0.43609419465065,0.3768358826637268,0.39517009258270264,0.22399038076400757
0.6666666666666666,0.050686415284872055,0.013390818610787392,0.0,0.6485558748245239,0.0,0.0,-0.761167049407959,0.5644708871841431,-0.26081907749176025,0.0,0.0,0.0,-2.197678327560425,0.4161500930786133,0.6996136903762817,0.42000025510787964,0.584728479385376,-5.933261036261683e-06,9.04913031263277e-06,-0.8112289905548096,-0.04038295894861221,-0.010350417345762253,-0.0006101148901507258,-0.009817303158342838,-0.028290122747421265,0.6733070015907288,0.4098459482192993,0.7091355919837952,0.4372290372848511,0.04652298241853714,0.053928349167108536,0.3273187279701233,0.4101818799972534,0.6927545070648193,0.42000001668930054,-0.4568893313407898,-2.9990673065185547,-1.4053641557693481,-2.9999241828918457,-0.1756928414106369,-0.17723433673381805,-0.18034738302230835,-0.17924199998378754,0.316621869802475,0.3307075798511505,0.42922165989875793,0.3862946927547455
0.6833333333333333,0.06161762773990631,0.006476458162069321,0.0,0.6198239326477051,0.0,0.0,-0.7847409248352051,0.6966002583503723,-0.4842464327812195,0.0,0.0,0.0,-5.357158184051514,0.4160962998867035,0.6995874643325806,0.4200000464916229,0.5855771899223328,2.1409380224213237e-06,-4.586180239130044e-06,-0.810616672039032,0.00025172598543576896,-0.00019836171122733504,-5.8774836361408234e-05,0.002291991375386715,-0.005552296061068773,-0.0013088128762319684,0.41386985778808594,0.7099572420120239,0.4501948356628418,0.4899122416973114,0.017710410058498383,1.3470852375030518,0.4101818799972534,0.6927545070648193,0.42000001668930054,-0.5069018602371216,-2.999945640563965,-1.4553827047348022,-2.9999959468841553,-0.17332062125205994,-0.17422255873680115,-0.17537686228752136,-0.1743675023317337,0.04114431142807007,0.09596291184425354,0.22393465042114258,0.24515147507190704
0.7,0.0773305669426918,0.004960813093930483,0.0,0.6037478446960449,0.0,0.0,-0.7971753478050232,0.863828718662262,-0.0525241494178772,0.0,0.0,0.0,-1.3921473026275635,0.416096568107605,0.6995874643325806,0.4200000464916229,0.5855770111083984,5.050531513006717e-07,-2.9466259547916707e-06,-0.8106167912483215,0.00010871397535083815,-0.00026850192807614803,-8.973991498351097e-05,0.0063035087659955025,-0.0014175820397213101,-0.0006670073489658535,0.4223041236400604,0.7117419242858887,0.4783284068107605,0.6075176000595093,0.39028793573379517,1.9791181087493896,0.4101818799972534,0.6927545070648193,0.42000001668930054,-0.5502078533172607,-2.231039524078369,-1.5054010152816772,-2.999972343444824,-0.17899489402770996,-0.17830152809619904,-0.17686957120895386,-0.174896702170372,-0.1413692981004715,-0.12507188320159912,-0.0509098619222641,-0.0516708567738533
0.7166666666666667,0.08810224384069443,0.005542589817196131,0.0,0.6128885746002197,0.0,0.0,-0.790169358253479,0.5737382173538208,0.001906201126985252,0.0,0.0,0.0,2.234654664993286,0.416096568107605,0.6995874643325806,0.4200000464916229,0.5855767726898193,3.8719198869330285e-07,-2.8839435799454805e-06,-0.8106169104576111,0.00010606022260617465,-0.000271492957836017,-8.935737423598766e-05,0.00639234809204936,-0.0014692703261971474,-0.0006654767203144729,0.4348716735839844,0.7180618047714233,0.5046144723892212,0.8317722082138062,0.39377835392951965,1.2104649543762207,0.4101818799972534,0.6927545070648193,0.42000001668930054,-0.5602293014526367,0.7757181525230408,-1.5554193258285522,-3.0,-0.17946067452430725,-0.17866142094135284,-0.1762612760066986,-0.17430561780929565,0.12503185868263245,0.11083978414535522,0.14246582984924316,0.1294085830450058
0.7333333333333333,0.09426205605268478,0.0007865895167924464,0.0,0.6093917489051819,0.0,0.0,-0.7928692698478699,0.3316625952720642,-0.32412615418434143,0.0,0.0,0.0,-1.5198347568511963,0.416096568107605,0.6995874643325806,0.4200000464916229,0.5855768322944641,4.800236865776242e-07,-3.0104172310529975e-06,-0.8106167912483215,0.00011075843212893233,-0.00026947498554363847,-9.04242042452097e-05,0.006315921898931265,-0.0014040417736396194,-0.0006733433692716062,0.44527876377105713,0.7229835391044617,0.5176510810852051,0.3795657455921173,0.09094163775444031,0.5272802114486694,0.4101818799972534,0.6927545070648193,0.42000001668930054,-0.5738323926925659,-2.142875909805298,-1.5165349245071411,2.9999990463256836,-0.17504295706748962,-0.17457623779773712,-0.1719200611114502,-0.17030079662799835,0.1469813883304596,0.1669241040945053,0.20945611596107483,0.21996238827705383
0.75,0.10262101888656616,0.001676687621511519,0.0,0.6178252100944519,0.0,0.0,-0.7863154411315918,0.4515956938266754,0.13153992593288422,0.0,0.0,0.0,2.082371950149536,0.416096568107605,0.6995874643325806,0.4200000464916229,0.5855770111083984,5.038204449192563e-07,-3.1583088002662407e-06,-0.8106167912483215,0.0001108283395296894,-0.0002691010886337608,-9.051291272044182e-05,0.006305994000285864,-0.0014030381571501493,-0.0006730289896950126,0.4495670199394226,0.7235397100448608,0.5247906446456909,0.18880583345890045,0.1501818150281906,0.3694395422935486,0.4101818799972534,0.6927545070648193,0.42000001668930054,-0.5898476243019104,0.04389399662613869,-1.5323472023010254,-3.000000238418579,-0.1776137501001358,-0.17597347497940063,-0.17197422683238983,-0.16950693726539612,-0.06341318786144257,-0.02471112087368965,0.02016742154955864,0.04606051743030548
0.7666666666666666,0.10678081214427948,-0.001648079720325768,0.0,0.6151044964790344,0.0,0.0,-0.7884455919265747,0.21120938658714294,-0.27540990710258484,0.0,0.0,0.0,-1.5992478132247925,0.416096568107605,0.6995874643325806,0.4200000464916229,0.5855767726898193,4.227867691497522e-07,-2.946453150798334e-06,-0.8106169104576111,0.00010980063234455884,-0.000269284937530756,-9.025284089148045e-05,0.006316288840025663,-0.0014154687523841858,-0.0006709253066219389,0.4542284607887268,0.723375678062439,0.5248459577560425,0.3059430420398712,-0.22580167651176453,-0.19812767207622528,0.4101818799972534,0.6927545070648193,0.42000001668930054,-0.6220760345458984,-3.000000476837158,-1.493526577949524,3.0000009536743164,-0.17557792365550995,-0.17357559502124786,-0.1691160649061203,-0.1662978231906891,0.06030026823282242,0.11205460876226425,0.16488488018512726,0.2162507027387619
0.7833333333333333,0.11220882833003998,-0.0014866087585687637,0.0,0.6215469837188721,0.0,0.0,-0.783376932144165,0.34437793493270874,0.023103298619389534,0.0,0.0,0.0,1.8681327104568481,0.416096568107605,0.6995874643325806,0.4200000464916229,0.5855768322944641,4.6328528924277634e-07,-3.0807107123109745e-06,-0.8106167912483215,0.00011110006016679108,-0.0002694367722142488,-9.050779044628143e-05,0.006312975659966469,-0.0013999524526298046,-0.0006740763783454895,0.4595639109611511,0.720051109790802,0.5266849398612976,0.40366998314857483,-0.07537580281496048,0.41544538736343384,0.4101818799972534,0.6927545070648193,0.42000001668930054,-0.6594733595848083,-1.5789843797683716,-1.5098391771316528,-3.0000007152557373,-0.1771785169839859,-0.1741703599691391,-0.16870208084583282,-0.16477106511592865,0.017039157450199127,0.03620786592364311,0.05854429677128792,0.0984768271446228
0.8,0.11473654210567474,-0.004672217648476362,0.0,0.6206938624382019,0.0,0.0,-0.7840530276298523,0.05315635725855827,-0.2650845944881439,0.0,0.0,0.0,-0.9758451581001282,0.416096568107605,0.6995874047279358,0.4200000464916229,0.5855766534805298,3.0294955877252505e-07,-3.1552667678624857e-06,-0.8106170296669006,0.00011203562462469563,-0.00026788085233420134,-9.077810682356358e-05,0.0062692430801689625,-0.001382248941808939,-0.0006739558884873986,0.46930330991744995,0.7166366577148438,0.5299727916717529,0.7068915367126465,-0.36285150051116943,0.12009050697088242,0.4101818799972534,0.6927545070648193,0.42000001668930054,-0.6925058960914612,-2.2959465980529785,-1.5598574876785278,-2.9999921321868896,-0.17630359530448914,-0.17277103662490845,-0.16672368347644806,-0.16182591021060944,0.01414402388036251,0.06918490678071976,0.12597136199474335,0.20866461098194122
0.8166666666666667,0.11850152909755707,-0.005937238223850727,0.0,0.5973999500274658,0.0,0.0,-0.8019434213638306,0.2403383105993271,-0.03575197979807854,0.0,0.0,0.0,-4.4175848960876465,0.416096568107605,0.6995874643325806,0.4200000464916229,0.5855768918991089,4.819979722014978e-07,-2.968239414258278e-06,-0.8106167912483215,0.00011089455074397847,-0.0002692081907298416,-9.050057269632816e-05,0.006307569332420826,-0.0014028344303369522,-0.0006734629278071225,0.48191702365875244,0.7102748155593872,0.5348250865936279,0.880337655544281,-0.31851840019226074,0.5745855569839478,0.4101818799972534,0.6927545070648193,0.42000001668930054,-0.7234141230583191,-1.4600083827972412,-1.6098757982254028,-2.999999523162842,-0.17899903655052185,-0.17435501515865326,-0.16720500588417053,-0.160757914185524,-0.0670514926314354,-0.03435171768069267,1.9208528101444244e-09,0.06606581807136536
0.8333333333333334,0.12429860979318619,-0.003941400907933712,0.0,0.5895442366600037,0.0,0.0,-0.8077360987663269,0.3888069987297058,0.1590328812599182,0.0,0.0,0.0,-0.15465572476387024,0.416096568107605,0.6995874643325806,0.4200000464916229,0.5855768322944641,4.953516281602788e-07,-3.1077252060640603e-06,-0.8106167912483215,0.00010967184061883017,-0.0002692292327992618,-9.021279402077198e-05,0.0063158320263028145,-0.0014162019360810518,-0.0006705217529088259,0.49328097701072693,0.7090167999267578,0.5461575388908386,0.5028958320617676,0.1387748122215271,0.7938436269760132,0.4101818799972534,0.6927545070648193,0.42000001668930054,-0.7164156436920166,1.9950393438339233,-1.6598916053771973,-3.000000238418579,-0.17926132678985596,-0.17475777864456177,-0.16777406632900238,-0.16098123788833618,0.06833784282207489,0.021730534732341766,-0.030511843040585518,-0.054108358919620514
0.85,0.12720833718776703,-0.00693998159840703,0.0,0.6065009832382202,0.0,0.0,-0.7950827479362488,0.17234064638614655,-0.26887932419776917,0.0,0.0,0.0,3.2239491939544678,0.416096568107605,0.6995874047279358,0.4200000464916229,0.5855766534805298,3.0780557835896616e-07,-3.1818078696232988e-06,-0.8106170296669006,0.00011201034067198634,-0.0002678820164874196,-9.076669812202454e-05,0.00626932829618454,-0.0013824234483763576,-0.0006738929077982903,0.4987502098083496,0.713683009147644,0.5587565898895264,0.12453442066907883,0.30395856499671936,0.7320265769958496,0.4101818799972534,0.6927545070648193,0.42000001668930054,-0.6843554377555847,1.8407633304595947,-1.6207128763198853,3.000000476837158,-0.1735275685787201,-0.17044498026371002,-0.1650194674730301,-0.15933118760585785,0.2712686359882355,0.20421801507472992,0.12311922758817673,0.06275928020477295
0.8666666666666667,0.12777532637119293,-0.005582593847066164,0.0,0.6085851788520813,0.0,0.0,-0.7934885621070862,-0.020224977284669876,0.07852993905544281,0.0,0.0,0.0,-0.5514336824417114,0.416096568107605,0.6995874643325806,0.4200000464916229,0.5855768918991089,4.6506497142217995e-07,-2.9961745440232335e-06,-0.8106167912483215,0.00011101388372480869,-0.00026917667128145695,-9.052548557519913e-05,0.006306074559688568,-0.0014012559549883008,-0.0006736881332471967,0.4946416914463043,0.7172741889953613,0.5671770572662354,-0.43102550506591797,0.250927209854126,0.39917367696762085,0.4101818799972534,0.6927545070648193,0.42000001668930054,-0.6670642495155334,0.34992095828056335,-1.570656418800354,2.9999985694885254,-0.1743766963481903,-0.17140406370162964,-0.16639159619808197,-0.1608816385269165,0.08227726817131042,0.04578252509236336,-0.004405830521136522,-0.037156615406274796
0.8833333333333333,0.1254814714193344,-0.006745190359652042,0.0,0.6205565333366394,0.0,0.0,-0.7841616868972778,-0.1834646314382553,-0.16179104149341583,0.0,0.0,0.0,2.5209600925445557,0.416096568107605,0.6995874643325806,0.4200000464916229,0.5855768322944641,4.953284928888024e-07,-3.13718101097038e-06,-0.8106167912483215,0.00010986362030962482,-0.0002692455309443176,-9.025679901242256e-05,0.0063151405192911625,-0.0014142038999125361,-0.0006709857261739671,0.48627379536628723,0.7205022573471069,0.5728546977043152,-0.573646068572998,0.20316167175769806,0.33339229226112366,0.4101818799972534,0.6927545070648193,0.42000001668930054,-0.6475968956947327,1.8396061658859253,-1.5206419229507446,2.999999523162842,-0.174257293343544,-0.17139367759227753,-0.16673992574214935,-0.1613663285970688,-0.005591223016381264,-0.0030832968186587095,-0.015494064427912235,-0.016754304990172386
