vladlanda/robotic-transformer/data/env_000_episode_0215.csv
sim_time_s,robot_box_x,robot_box_y,robot_box_z,robot_box_quat_w,robot_box_quat_x,robot_box_quat_y,robot_box_quat_z,robot_box_linvel_x,robot_box_linvel_y,robot_box_linvel_z,robot_box_angvel_x,robot_box_angvel_y,robot_box_angvel_z,cube_world_x,cube_world_y,cube_world_z,cube_quat_w,cube_quat_x,cube_quat_y,cube_quat_z,cube_linvel_x,cube_linvel_y,cube_linvel_z,cube_angvel_x,cube_angvel_y,cube_angvel_z,endpoint_world_x,endpoint_world_y,endpoint_world_z,endpoint_linvel_x,endpoint_linvel_y,endpoint_linvel_z,target_cube_world_x,target_cube_world_y,target_cube_world_z,gripper_actual_pos_rad_gp_leftgearjoint,gripper_actual_vel_rad_s_gp_leftgearjoint,gripper_actual_pos_rad_gp_rotatingjoint,gripper_actual_vel_rad_s_gp_rotatingjoint,motor_angle_rad_joint1,motor_angle_rad_joint2,motor_angle_rad_joint3,motor_angle_rad_joint4,motor_speed_rad_s_joint1,motor_speed_rad_s_joint2,motor_speed_rad_s_joint3,motor_speed_rad_s_joint4
0.0,0.0,0.0,0.0,1.0,0.0,0.0,0.0,0.0,0.0,0.0,0.0,0.0,0.0,-0.3594552278518677,0.6728931069374084,0.41999998688697815,1.0,0.0,0.0,0.0,0.0,0.0,0.0,0.0,0.0,0.0,3.42540442943573e-06,-0.005000244826078415,1.313499927520752,0.0,0.0,0.0,0.38415172696113586,0.7345157861709595,0.42000001668930054,-1.5707999467849731,0.0,0.0,0.0,0.0,0.0,0.0,0.0,0.0,0.0,0.0,0.0
0.016666666666666666,0.002885309047996998,0.0021715424954891205,0.0,0.9998251795768738,0.0,0.0,0.018697112798690796,0.24107500910758972,0.1820976287126541,0.0,0.0,0.0,3.141741991043091,-0.3594553470611572,0.6728928089141846,0.41999998688697815,1.0,3.279964630564791e-06,-8.339746386809566e-07,8.465587342243452e-08,-1.9833529222523794e-05,0.00017983045836444944,-6.132945418357849e-05,0.0009432713268324733,-0.004689474124461412,-0.00031981561915017664,-0.007107498124241829,0.003401730442419648,1.31593918800354,-0.8136286735534668,0.9876599311828613,0.18097195029258728,0.38415172696113586,0.7345157861709595,0.42000001668930054,-1.5301094055175781,3.000002861022949,-0.04584990814328194,-2.9999988079071045,0.0008704896317794919,0.0007972473395057023,0.0007117053610272706,0.0006115802680142224,0.11097950488328934,0.09761371463537216,0.08339191228151321,0.06828447431325912
0.03333333333333333,0.008969943970441818,0.006788147147744894,0.0,0.9998136162757874,0.0,0.0,0.019307373091578484,0.4071078598499298,0.3150261342525482,0.0,0.0,0.0,-0.8689814209938049,-0.3594554662704468,0.6728927493095398,0.4200000464916229,1.0,3.3908354453160428e-06,-2.1324485715012997e-06,-3.710144014235084e-08,0.00026357831666246057,0.00026937946677207947,-0.00010509486310184002,-0.0017707672668620944,0.004130808170884848,-0.000135478752781637,-0.0275146272033453,0.02626124769449234,1.3165961503982544,-1.5888075828552246,1.6190805435180664,-0.08514569699764252,0.38415172696113586,0.7345157861709595,0.42000001668930054,-1.4800900220870972,3.000002145767212,-0.09588974714279175,-3.000000476837158,0.002990229055285454,0.0026526330038905144,0.002277175197377801,0.0018607290694490075,0.16412010788917542,0.1396797001361847,0.11374879628419876,0.08623602241277695
0.05,0.01848101243376732,0.013890833593904972,0.0,0.9999699592590332,0.0,0.0,-0.007751722354441881,0.6361462473869324,0.47218209505081177,0.0,0.0,0.0,-4.073425769805908,-0.35945549607276917,0.6728928089141846,0.4200000464916229,1.0,3.7651125239790417e-06,-2.211879063906963e-06,5.622505128144439e-09,0.000265308452071622,0.0002669153327587992,-0.00010440615005791187,-0.001724260626360774,0.004177352879196405,-0.00012949221127200872,-0.05710642784833908,0.057462479919195175,1.311927080154419,-1.9491636753082275,2.0519866943359375,-0.45673176646232605,0.38415172696113586,0.7345157861709595,0.42000001668930054,-1.4300717115402222,3.0000007152557373,-0.14592315256595612,-2.9999992847442627,0.0060111447237432,0.005172024015337229,0.004260525573045015,0.003272412344813347,0.20692899823188782,0.1666027307510376,0.12435626983642578,0.08010757714509964
0.06666666666666667,0.030801020562648773,0.023379327729344368,0.0,0.9998663067817688,0.0,0.0,-0.01635316014289856,0.7725593447685242,0.6161181330680847,0.0,0.0,0.0,-0.03624213486909866,-0.35945549607276917,0.6728927493095398,0.4200000464916229,0.9999999403953552,3.4066883927152958e-06,-2.285532218593289e-06,4.300976286231162e-07,0.0002670241810847074,0.00026791772688739,-0.00010438147000968456,-0.00174069800414145,0.00421178387477994,-0.00012850729399360716,-0.09384188055992126,0.09075447171926498,1.3012311458587646,-2.314756155014038,2.1101813316345215,-0.816617488861084,0.38415172696113586,0.7345157861709595,0.42000001668930054,-1.3800439834594727,3.0,-0.13302871584892273,3.0000014305114746,0.008661233820021152,0.007087096571922302,0.005400319118052721,0.0035957694053649902,0.1423446387052536,0.08980073034763336,0.03511073812842369,-0.02179163321852684
0.08333333333333333,0.0455065481364727,0.0313790999352932,0.0,0.9992383122444153,0.0,0.0,-0.039022233337163925,0.9524759650230408,0.3893508315086365,0.0,0.0,0.0,-3.539203643798828,-0.35945549607276917,0.6728927493095398,0.4200000464916229,0.9999999403953552,3.626031229941873e-06,-2.3352447442448465e-06,3.032197639640799e-07,0.0002661392209120095,0.0002668500819709152,-0.00010405294597148895,-0.0017282416811212897,0.00419628107920289,-0.00012790791515726596,-0.12739655375480652,0.13041146099567413,1.2872803211212158,-1.7556817531585693,2.6327056884765625,-0.8540545701980591,0.38415172696113586,0.7345157861709595,0.42000001668930054,-1.330038070678711,3.0000009536743164,-0.16493389010429382,-3.0000011920928955,0.009536098688840866,0.006813289597630501,0.003911495208740234,0.0008611446246504784,0.002211479004472494,-0.08375251293182373,-0.17460504174232483,-0.2663768529891968
0.1,0.05441165715456009,0.041226837784051895,0.0,0.9957901835441589,0.0,0.0,-0.09166190773248672,0.3948041498661041,0.6730865240097046,0.0,0.0,0.0,-7.291158199310303,-0.35945549607276917,0.6728927493095398,0.4200000464916229,1.0,3.4220790894323727e-06,-2.3084901386027923e-06,1.7962952369998675e-07,0.00026681559393182397,0.0002680041070561856,-0.00010440824553370476,-0.001743067754432559,0.004207110498100519,-0.0001289140636799857,-0.15787732601165771,0.1770329773426056,1.2683255672454834,-1.8576611280441284,2.954665184020996,-1.3367042541503906,0.38415172696113586,0.7345157861709595,0.42000001668930054,-1.2800214290618896,2.999995470046997,-0.13133154809474945,3.0,0.0030271403957158327,-0.0005154071259312332,-0.00432580104097724,-0.008324001915752888,-0.5106973648071289,-0.5513532161712646,-0.5962713956832886,-0.6432109475135803
0.11666666666666667,0.057893525809049606,0.05324334651231766,0.0,0.9922274351119995,0.0,0.0,-0.12443745881319046,0.20779751241207123,0.6627579927444458,0.0,0.0,0.0,-2.6398446559906006,-0.35945549607276917,0.6728928089141846,0.4200000464916229,1.0,3.7115073610038962e-06,-2.3326228983933106e-06,2.57426904681779e-07,0.00026485775015316904,0.0002663534542080015,-0.00010423525236546993,-0.0017181745497509837,0.004170077387243509,-0.0001291574299102649,-0.19472917914390564,0.22068625688552856,1.244465708732605,-2.259101390838623,2.685980796813965,-1.4626855850219727,0.38415172696113586,0.7345157861709595,0.42000001668930054,-1.230028748512268,3.0000014305114746,-0.16320747137069702,-3.000000476837158,-0.0057029095478355885,-0.010140958242118359,-0.014875771477818489,-0.01979960687458515,-0.4031601846218109,-0.4793771505355835,-0.5547482371330261,-0.6280192732810974
0.13333333333333333,0.07020721584558487,0.06086047366261482,0.0,0.9858734607696533,0.0,0.0,-0.16749200224876404,0.8847135901451111,0.4062819480895996,0.0,0.0,0.0,-6.049854755401611,-0.35945549607276917,0.6728927493095398,0.4200000464916229,0.9999999403953552,3.4247434541612165e-06,-2.301918129887781e-06,1.559943285656118e-07,0.00026707028155215085,0.0002681135665625334,-0.00010444503277540207,-0.0017433665925636888,0.0042120604775846004,-0.00012877194967586547,-0.22792166471481323,0.2734116315841675,1.2183207273483276,-1.7055902481079102,3.6522302627563477,-1.7453200817108154,0.38415172696113586,0.7345157861709595,0.42000001668930054,-1.180008888244629,2.999962568283081,-0.16464464366436005,2.3658924102783203,-0.005265906453132629,-0.011922026053071022,-0.01879562996327877,-0.025762198492884636,0.027499161660671234,-0.10496369004249573,-0.23237286508083344,-0.3540792465209961
0.15,0.0790499672293663,0.06684424728155136,0.0,0.9819062352180481,0.0,0.0,-0.18936790525913239,0.47022801637649536,0.29133135080337524,0.0,0.0,0.0,-1.4783474206924438,-0.35945549607276917,0.6728927493095398,0.4200000464916229,1.0,3.713894102475024e-06,-2.207782927143853e-06,-1.690906259455005e-07,0.000263532972894609,0.0002653604024089873,-0.00010421779006719589,-0.0017012703465297818,0.004144108854234219,-0.00012960596359334886,-0.2618684768676758,0.32925450801849365,1.1814088821411133,-2.0181643962860107,3.4122185707092285,-2.5613160133361816,0.38415172696113586,0.7345157861709595,0.42000001668930054,-1.1433738470077515,1.4979126453399658,-0.1999577432870865,-3.000000238418579,-0.011991963721811771,-0.01972915604710579,-0.027639208361506462,-0.03559867665171623,-0.4493665099143982,-0.49793341755867004,-0.5435051918029785,-0.5865570306777954
0.16666666666666666,0.08300059288740158,0.07542203366756439,0.0,0.9751427173614502,0.0,0.0,-0.22157762944698334,0.21473360061645508,0.4724859595298767,0.0,0.0,0.0,-4.537572383880615,-0.35945549607276917,0.6728927493095398,0.4200000464916229,0.9999999403953552,3.638363523350563e-06,-2.2787546640756773e-06,2.7007297376258066e-07,0.00026682831230573356,0.0002675004070624709,-0.00010410277172923088,-0.0017399663338437676,0.004210250452160835,-0.00012781910481862724,-0.29447558522224426,0.38996952772140503,1.130509376525879,-1.8522918224334717,3.878394603729248,-3.3897337913513184,0.38415172696113586,0.7345157861709595,0.42000001668930054,-1.096723198890686,2.9999990463256836,-0.22275826334953308,0.02325581945478916,-0.02327580563724041,-0.03129778057336807,-0.03944708779454231,-0.0476175881922245,-0.5908685922622681,-0.6178769469261169,-0.64021897315979,-0.6589441299438477
0.18333333333333332,0.09211231023073196,0.08469922840595245,0.0,0.9601155519485474,0.0,0.0,-0.279603511095047,0.6588178277015686,0.6039471626281738,0.0,0.0,0.0,-8.094972610473633,-0.35945549607276917,0.6728927493095398,0.4200000464916229,1.0,3.386441903785453e-06,-2.3001909994491143e-06,1.4392985292488447e-07,0.00026674664695747197,0.00026787363458424807,-0.00010437029413878918,-0.0017413290916010737,0.004206034820526838,-0.00012878714187536389,-0.32260164618492126,0.4587223529815674,1.06769597530365,-1.339603304862976,4.340277671813965,-4.10980749130249,0.38415172696113586,0.7345157861709595,0.42000001668930054,-1.0467218160629272,3.000000476837158,-0.2681761085987091,-2.9999988079071045,-0.03147531673312187,-0.04006214067339897,-0.048690203577280045,-0.05727333202958107,-0.5058333873748779,-0.5306929349899292,-0.5508425235748291,-0.5675994157791138
0.2,0.09725313633680344,0.09169649332761765,0.0,0.9478855133056641,0.0,0.0,-0.31861117482185364,0.30315443873405457,0.3792569637298584,0.0,0.0,0.0,-3.6351404190063477,-0.35945549607276917,0.6728928089141846,0.4200000464916229,1.0,3.67552570423868e-06,-2.326474941583001e-06,2.211330638601794e-07,0.0002648457884788513,0.0002663124760147184,-0.00010421779006719589,-0.0017177596455439925,0.004169980529695749,-0.00012909664656035602,-0.34704625606536865,0.5225455164909363,0.9899131059646606,-1.094069242477417,3.847930669784546,-5.104995250701904,0.38415172696113586,0.7345157861709595,0.42000001668930054,-0.9967151284217834,2.9999687671661377,-0.31820300221443176,-3.000000238418579,-0.04562639817595482,-0.05387326702475548,-0.062127381563186646,-0.07016156613826752,-0.7598819732666016,-0.788116455078125,-0.8084020614624023,-0.8023462295532227
0.21666666666666667,0.09902460128068924,0.10016608983278275,0.0,0.9396592378616333,0.0,0.0,-0.34211182594299316,0.03377682715654373,0.541999101638794,0.0,0.0,0.0,-2.7405922412872314,-0.35945549607276917,0.6728927493095398,0.4200000464916229,1.0,3.3223188893316546e-06,-2.207966417699936e-06,2.742777382991335e-07,0.0002666293876245618,0.0002674947609193623,-0.00010426202788949013,-0.0017357135657221079,0.004204758442938328,-0.00012833744403906167,-0.3668501377105713,0.578497052192688,0.8994782567024231,-0.9352434873580933,3.1007113456726074,-5.718568801879883,0.38415172696113586,0.7345157861709595,0.42000001668930054,-0.9467048645019531,2.9999988079071045,-0.3682323694229126,-2.9999992847442627,-0.06086505204439163,-0.06913022696971893,-0.07739856094121933,-0.0852324366569519,-0.9686082601547241,-0.9517751932144165,-0.9355090260505676,-0.910487949848175
0.23333333333333334,0.1038171723484993,0.10472413152456284,0.0,0.9276722073554993,0.0,0.0,-0.3733955919742584,0.3379163146018982,0.18815404176712036,0.0,0.0,0.0,-4.5983805656433105,-0.35945549607276917,0.6728927493095398,0.4200000464916229,1.0,3.656558874354232e-06,-2.373421239099116e-06,-4.07681653769032e-07,0.0002661168109625578,0.00026725910720415413,-0.00010423432104289532,-0.0017335852608084679,0.004194697830826044,-0.00012854808301199228,-0.3799508213996887,0.6257947683334351,0.7981583476066589,-0.4277110993862152,2.517941951751709,-6.37570858001709,0.38415172696113586,0.7345157861709595,0.42000001668930054,-0.8966941833496094,2.999997138977051,-0.4182635545730591,-3.0000016689300537,-0.07618262618780136,-0.08427546918392181,-0.09234809875488281,-0.09994550049304962,-0.9787927269935608,-0.9648494720458984,-0.9530786871910095,-0.9430879950523376
0.25,0.10374415665864944,0.11311820894479752,0.0,0.9223602414131165,0.0,0.0,-0.38633090257644653,0.0005075419903732836,0.45250049233436584,0.0,0.0,0.0,-0.6520898342132568,-0.35945549607276917,0.6728928089141846,0.4200000464916229,1.0,3.6305639241618337e-06,-2.242603613922256e-06,1.1206775951677628e-08,0.00026679999427869916,0.0002670604735612869,-0.00010390859097242355,-0.0017342414939776063,0.0042106076143682,-0.00012702932872343808,-0.3851867914199829,0.6503856778144836,0.6935149431228638,-0.03933471441268921,0.849307119846344,-6.1298747062683105,0.38415172696113586,0.7345157861709595,0.42000001668930054,-0.8466835021972656,2.99998140335083,-0.46829521656036377,-2.9999990463256836,-0.09344908595085144,-0.10132380574941635,-0.10926078259944916,-0.11677037179470062,-0.6789244413375854,-0.7410091161727905,-0.7987164258956909,-0.8505854606628418
0.26666666666666666,0.10252289474010468,0.11599435657262802,0.0,0.9191990494728088,0.0,0.0,-0.3937932252883911,-0.1675180196762085,0.17569276690483093,0.0,0.0,0.0,-1.1056584119796753,-0.3594554662704468,0.6728927493095398,0.4200000464916229,0.9999999403953552,3.740145530173322e-06,-2.2362976324075134e-06,4.499700310134358e-07,0.0002647962246555835,0.00026673031970858574,-0.00010454049333930016,-0.0017189658246934414,0.004166740458458662,-0.00013016746379435062,-0.3870738744735718,0.6624817252159119,0.5939118266105652,0.08491940051317215,0.4303854703903198,-5.800637245178223,0.38415172696113586,0.7345157861709595,0.42000001668930054,-0.7966746091842651,3.0,-0.5183255672454834,-3.000000476837158,-0.10547307133674622,-0.11415579169988632,-0.1228320300579071,-0.1310194432735443,-0.9717445373535156,-0.9795402884483337,-0.9820796251296997,-0.9844241142272949
0.2833333333333333,0.0979648232460022,0.1170404776930809,0.0,0.9239165186882019,0.0,0.0,-0.38259416818618774,-0.32004615664482117,0.025303997099399567,0.0,0.0,0.0,2.2976438999176025,-0.35945549607276917,0.6728927493095398,0.4200000464916229,1.0,3.3916744541784283e-06,-2.291099690410192e-06,1.245939671434826e-07,0.0002667730441316962,0.00026789261028170586,-0.0001043747179210186,-0.001741221291013062,0.00420632166787982,-0.00012878607958555222,-0.38676831126213074,0.6668566465377808,0.5005464553833008,0.10744176805019379,-0.019646594300866127,-5.350476264953613,0.38415172696113586,0.7345157861709595,0.42000001668930054,-0.7466658353805542,3.000002145767212,-0.5683543086051941,-3.0000009536743164,-0.1227157786488533,-0.1312686800956726,-0.13984936475753784,-0.14796316623687744,-1.008794903755188,-1.0066554546356201,-1.0050207376480103,-1.003713607788086
0.3,0.09112299233675003,0.11569003760814667,0.0,0.9221763610839844,0.0,0.0,-0.38676968216896057,-0.45411935448646545,-0.12381123751401901,0.0,0.0,0.0,-1.4277201890945435,-0.35945549607276917,0.6728928089141846,0.4200000464916229,1.0,3.680724148580339e-06,-2.319047325727297e-06,2.0107752618514496e-07,0.0002647917135618627,0.00026625802274793386,-0.00010421290062367916,-0.0017169015482068062,0.0041690124198794365,-0.00012909753422718495,-0.3770333528518677,0.6684376001358032,0.41121137142181396,1.003169059753418,0.1157660037279129,-5.199192523956299,0.38415172696113586,0.7345157861709595,0.42000001668930054,-0.6966584920883179,3.0000009536743164,-0.6183810830116272,-3.0,-0.1401783525943756,-0.14854486286640167,-0.15698447823524475,-0.16498664021492004,-1.00937020778656,-1.0071197748184204,-1.0053943395614624,-1.0040051937103271
0.31666666666666665,0.0821843072772026,0.11187392473220825,0.0,0.9264248013496399,0.0,0.0,-0.376479834318161,-0.5814022421836853,-0.27083468437194824,0.0,0.0,0.0,2.187427282333374,-0.3597832918167114,0.6711180806159973,0.4204081892967224,0.9995102882385254,0.010301490314304829,-0.00030415019136853516,-0.02954363450407982,0.0138809559866786,0.00672273151576519,-0.013415932655334473,-0.686309278011322,0.03965677693486214,-0.009863683022558689,-0.37690579891204834,0.6720307469367981,0.4250442385673523,0.02393033728003502,0.17404486238956451,-0.22055847942829132,0.38415172696113586,0.7345157861709595,0.42000001668930054,-0.6467329859733582,2.999986410140991,-0.6689215898513794,-3.0000009536743164,-0.1420871764421463,-0.15082621574401855,-0.15925529599189758,-0.1668013483285904,-0.2633056938648224,-0.23969458043575287,-0.2002445012331009,-0.14374618232250214
0.3333333333333333,0.07429222017526627,0.1054479256272316,0.0,0.9244520664215088,0.0,0.0,-0.38129833340644836,-0.43268823623657227,-0.42973247170448303,0.0,0.0,0.0,-1.5117613077163696,-0.3597034215927124,0.6714456677436829,0.41999953985214233,0.9995668530464172,5.817658893647604e-05,-4.428580723470077e-06,-0.029429301619529724,4.531456215772778e-05,0.008305777795612812,-0.0017579093109816313,-0.08012215048074722,0.013851987197995186,0.006416073068976402,-0.3736576735973358,0.6744015216827393,0.42182457447052,0.3508533835411072,0.2272556722164154,-0.17796669900417328,0.38415172696113586,0.7345157861709595,0.42000001668930054,-0.596727192401886,2.999990701675415,-0.7189674377441406,-2.999992609024048,-0.14841057360172272,-0.15607371926307678,-0.16316628456115723,-0.16913151741027832,-0.4599080979824066,-0.3647300601005554,-0.255315899848938,-0.1343555897474289
0.35,0.06461624801158905,0.0971655622124672,0.0,0.9285643696784973,0.0,0.0,-0.37117141485214233,-0.5936634540557861,-0.5461586713790894,0.0,0.0,0.0,2.2086169719696045,-0.3561044931411743,0.6755343675613403,0.42019909620285034,0.9979691505432129,-0.00496035348623991,3.974378705606796e-05,-0.06350494921207428,0.44744282960891724,0.5067384839057922,0.05941053479909897,-3.0180776119232178,0.22418291866779327,-8.677632331848145,-0.3664538264274597,0.6806180477142334,0.4201265573501587,0.46284961700439453,0.49181097745895386,0.044963616877794266,0.38415172696113586,0.7345157861709595,0.42000001668930054,-0.546699583530426,2.9999961853027344,-0.7689874172210693,-2.999976396560669,-0.15829943120479584,-0.16357050836086273,-0.16802376508712769,-0.17118142545223236,-0.5184152722358704,-0.3756711781024933,-0.21507658064365387,-0.04199204593896866
0.36666666666666664,0.05343843996524811,0.08646946400403976,0.0,0.9265977144241333,0.0,0.0,-0.376054048538208,-0.7307934165000916,-0.682205080986023,0.0,0.0,0.0,-1.583823800086975,-0.3478420078754425,0.684709370136261,0.42038694024086,0.9892993569374084,-0.00967256911098957,0.001360611175186932,-0.14557266235351562,0.5957789421081543,0.6475593447685242,0.014395950362086296,-0.719761312007904,0.14299963414669037,-12.63689136505127,-0.35576331615448,0.6894651651382446,0.42140814661979675,0.8208012580871582,0.6222424507141113,0.07816742360591888,0.38415172696113586,0.7345157861709595,0.42000001668930054,-0.49665841460227966,2.9999945163726807,-0.8189976811408997,-2.9999799728393555,-0.16702383756637573,-0.1697542816400528,-0.1713152974843979,-0.17133729159832,-0.47612595558166504,-0.32225900888442993,-0.14665918052196503,0.04365568980574608
0.3833333333333333,0.04469424486160278,0.07309511303901672,0.0,0.9134805202484131,0.0,0.0,-0.4068824052810669,-0.44933992624282837,-0.8538092970848083,0.0,0.0,0.0,-4.859241962432861,-0.3334410488605499,0.6994274854660034,0.4209989011287689,0.9731521010398865,-0.02470829151570797,0.005460266023874283,-0.22876733541488647,1.1906981468200684,1.1619741916656494,0.09349659830331802,-4.353116035461426,1.9734885692596436,-6.657007694244385,-0.33867162466049194,0.7033612728118896,0.423103928565979,1.2619705200195312,1.0536909103393555,0.13075043261051178,0.38415172696113586,0.7345157861709595,0.42000001668930054,-0.4466027617454529,2.999966859817505,-0.8690076470375061,-2.999976396560669,-0.17425496876239777,-0.17436642944812775,-0.1728784143924713,-0.16955196857452393,-0.36088722944259644,-0.20509757101535797,-0.022432032972574234,0.1790006011724472
0.4,0.04011913388967514,0.05669267848134041,0.0,0.887388288974762,0.0,0.0,-0.46102285385131836,-0.2049877792596817,-1.0394777059555054,0.0,0.0,0.0,-8.039217948913574,-0.30244988203048706,0.7237012982368469,0.42389413714408875,0.9565882086753845,-0.04307493194937706,-0.010134718380868435,-0.2880637049674988,2.7420806884765625,1.541603922843933,0.249451145529747,15.1199951171875,-12.862700462341309,6.592431545257568,-0.30750516057014465,0.7283225059509277,0.42550384998321533,2.5066583156585693,1.9409207105636597,0.37531283497810364,0.38415172696113586,0.7345157861709595,0.42000001668930054,-0.39691928029060364,2.869779348373413,-0.9190303683280945,-3.0000040531158447,-0.18094471096992493,-0.17830052971839905,-0.17364445328712463,-0.16687989234924316,-0.42812734842300415,-0.25143253803253174,-0.05419835075736046,0.15437455475330353
0.4166666666666667,0.03760075196623802,0.04502863064408302,0.0,0.8450291752815247,0.0,0.0,-0.5347201824188232,-0.11463668197393417,-0.5762280225753784,0.0,0.0,0.0,-11.005626678466797,-0.2344384342432022,0.7586905360221863,0.42887771129608154,0.9376219511032104,0.004583123605698347,-0.042593177407979965,-0.3450068533420563,5.596343040466309,2.306366205215454,0.1552358716726303,22.3404541015625,-24.59420394897461,13.22600269317627,-0.23906058073043823,0.7657924890518188,0.4294940233230591,5.289844036102295,2.64943265914917,0.3650500774383545,0.38415172696113586,0.7345157861709595,0.42000001668930054,-0.35334908962249756,2.411799430847168,-0.88187575340271,2.9936537742614746,-0.19518129527568817,-0.1885412633419037,-0.1791069209575653,-0.1677621752023697,-0.8940229415893555,-0.6957616209983826,-0.4069140553474426,-0.14145976305007935
0.43333333333333335,0.037784069776535034,0.039339154958724976,0.0,0.8084195852279663,0.0,0.0,-0.5886066555976868,0.059237826615571976,-0.3979818522930145,0.0,0.0,0.0,-6.0968337059021,-0.1463114619255066,0.7965704202651978,0.43582066893577576,0.9085652828216553,0.05678127333521843,-0.08375970274209976,-0.4053015410900116,5.3883795738220215,1.7078611850738525,0.5669867992401123,-1.4648847579956055,0.2486938238143921,4.8164591789245605,-0.14896024763584137,0.8061128854751587,0.43663525581359863,5.468685626983643,2.19325590133667,0.5263211727142334,0.38415172696113586,0.7345157861709595,0.42000001668930054,-0.33188074827194214,0.9234878420829773,-0.9045283794403076,-3.000002145767212,-0.2082803100347519,-0.20201162993907928,-0.18834929168224335,-0.17302155494689941,-0.505526065826416,-0.586288332939148,-0.43265455961227417,-0.2683757543563843
0.45,0.03393032029271126,0.03781135007739067,0.0,0.7933943271636963,0.0,0.0,-0.6087080240249634,-0.3270556330680847,-0.005987486802041531,0.0,0.0,0.0,-1.967160701751709,-0.05588463693857193,0.8224215507507324,0.4470577538013458,0.8461478352546692,0.061532117426395416,-0.06649725884199142,-0.525191068649292,5.459578514099121,0.8338916897773743,0.7657865881919861,18.418088912963867,-6.934252738952637,-0.5823103785514832,-0.05780309438705444,0.8316489458084106,0.4453427195549011,5.559422016143799,1.0189286470413208,0.6479624509811401,0.38415172696113586,0.7345157861709595,0.42000001668930054,-0.31914186477661133,0.31188544631004333,-0.9545523524284363,-3.000004768371582,-0.2216736078262329,-0.2148023247718811,-0.19768647849559784,-0.17898856103420258,-0.7930887341499329,-0.7222474217414856,-0.5286228060722351,-0.3455652594566345
0.4666666666666667,0.0357317216694355,0.029608776792883873,0.0,0.7701290249824524,0.0,0.0,-0.6378881931304932,0.2257554531097412,-0.6486878991127014,0.0,0.0,0.0,-5.501109600067139,0.036047808825969696,0.8322430849075317,0.4541819095611572,0.7803452014923096,0.06756936013698578,-0.07203555107116699,-0.6175002455711365,5.50793981552124,-0.8496911525726318,0.5761696100234985,9.352035522460938,-6.514878749847412,6.461015701293945,0.03367777168750763,0.8427732586860657,0.45256492495536804,5.462273597717285,0.1408075988292694,0.4162827134132385,0.38415172696113586,0.7345157861709595,0.42000001668930054,-0.3159092366695404,0.01575246825814247,-1.0045762062072754,-3.000002384185791,-0.22581689059734344,-0.21861129999160767,-0.19955891370773315,-0.17886774241924286,-0.1304047405719757,-0.07435347884893417,0.0442856140434742,0.1663169115781784
0.48333333333333334,0.03550717234611511,0.02353120781481266,0.0,0.7583814859390259,0.0,0.0,-0.6518109440803528,-0.043077386915683746,-0.2704492509365082,0.0,0.0,0.0,-0.9492080807685852,0.1217307597398758,0.8303757905960083,0.46110057830810547,0.6988694071769714,0.055812761187553406,-0.07984020560979843,-0.7085844874382019,4.944685935974121,-1.1523040533065796,0.6090297698974609,-2.767052412033081,-5.716068267822266,12.785748481750488,0.11817830801010132,0.8408493995666504,0.4606173038482666,4.795315742492676,-0.329447478055954,0.5824178457260132,0.38415172696113586,0.7345157861709595,0.42000001668930054,-0.31844067573547363,-0.3560985028743744,-1.054598331451416,-3.0000011920928955,-0.22957965731620789,-0.22128133475780487,-0.20076404511928558,-0.1786993145942688,-0.1764461100101471,-0.13130541145801544,-0.09564284980297089,-0.06952142715454102
0.5,0.03697896748781204,0.021600203588604927,0.0,0.7404103875160217,0.0,0.0,-0.6721550822257996,0.14162355661392212,-0.053574711084365845,0.0,0.0,0.0,-4.13072395324707,0.19652491807937622,0.8214890956878662,0.46406906843185425,0.6526741981506348,0.05248844623565674,-0.07153697311878204,-0.7524251937866211,4.189621925354004,-0.8112679719924927,-0.0642470195889473,-0.569692075252533,-3.4809558391571045,-1.764770269393921,0.19306135177612305,0.8323936462402344,0.46425527334213257,4.215688705444336,-0.7692230939865112,0.04272577911615372,0.38415172696113586,0.7345157861709595,0.42000001668930054,-0.32254064083099365,0.14439085125923157,-1.1046204566955566,-3.0000011920928955,-0.23067215085029602,-0.22203661501407623,-0.20163840055465698,-0.17977425456047058,0.019237522035837173,0.03531014546751976,0.004929279908537865,-0.030501199886202812
0.5166666666666666,0.04095857962965965,0.019136998802423477,0.0,0.7341998815536499,0.0,0.0,-0.6789333820343018,0.27706414461135864,-0.03908495232462883,0.0,0.0,0.0,-0.12766551971435547,0.2613910138607025,0.8085287809371948,0.45946967601776123,0.5915630459785461,0.04643688723444939,-0.07208365947008133,-0.8016862273216248,3.467698335647583,-0.9013164043426514,-0.4072953760623932,-0.5233510732650757,2.2282137870788574,-6.396400451660156,0.25704509019851685,0.8168653249740601,0.46110671758651733,3.491171360015869,-1.2205312252044678,-0.36279579997062683,0.38415172696113586,0.7345157861709595,0.42000001668930054,-0.3089895248413086,1.3710492849349976,-1.1546425819396973,-3.0000011920928955,-0.22805668413639069,-0.21920545399188995,-0.19970425963401794,-0.17889811098575592,0.020093975588679314,0.06883514672517776,0.031810153275728226,-0.022830531001091003
0.5333333333333333,0.04312659800052643,0.015829795971512794,0.0,0.7206084132194519,0.0,0.0,-0.6933422684669495,0.0717090293765068,-0.26288822293281555,0.0,0.0,0.0,-3.238762378692627,0.3129073977470398,0.7927210927009583,0.449628621339798,0.5528955459594727,0.023432396352291107,-0.04378817230463028,-0.8317692279815674,2.7972571849823,-0.9903551936149597,-0.7238559126853943,1.2883973121643066,5.921010971069336,-0.532774806022644,0.3094344735145569,0.7960026860237122,0.4497475028038025,2.8065977096557617,-1.3076651096343994,-0.8536667823791504,0.38415172696113586,0.7345157861709595,0.42000001668930054,-0.27889901399612427,2.1523611545562744,-1.204664707183838,-3.000000476837158,-0.22803404927253723,-0.21834708750247955,-0.1996309757232666,-0.1799551248550415,0.07791174203157425,0.10821107774972916,0.0335974283516407,-0.0620475597679615
0.55,0.04607263207435608,0.014957633800804615,0.0,0.7186530232429504,0.0,0.0,-0.6953688859939575,0.2106894999742508,-0.020991716533899307,0.0,0.0,0.0,0.5093991160392761,0.3520197570323944,0.7738049030303955,0.43456700444221497,0.5285261869430542,-0.018520431593060493,-0.013065200299024582,-0.8486143350601196,1.7089672088623047,-2.0853993892669678,-0.8234575390815735,-0.6893488764762878,-6.187585830688477,12.776226043701172,0.34911471605300903,0.7735824584960938,0.43434375524520874,2.0057573318481445,-1.2593082189559937,-0.9708960056304932,0.38415172696113586,0.7345157861709595,0.42000001668930054,-0.24015863239765167,1.863604187965393,-1.2546868324279785,-2.999999523162842,-0.22741124033927917,-0.21749041974544525,-0.2003307193517685,-0.18254569172859192,0.1284240484237671,0.10234449803829193,-0.0300331711769104,-0.17852725088596344
0.5666666666666667,0.05145497992634773,0.010636737570166588,0.0,0.7072427868843079,0.0,0.0,-0.706970751285553,0.36702287197113037,-0.3036116659641266,0.0,0.0,0.0,-2.7481729984283447,0.3755940794944763,0.7610189318656921,0.42422419786453247,0.5363253951072693,-0.006436883471906185,-0.02698245272040367,-0.8435553312301636,0.7707262635231018,-0.8490355014801025,0.21600769460201263,5.498501300811768,-5.937106132507324,12.757254600524902,0.37195533514022827,0.7603102922439575,0.4238627552986145,0.7498699426651001,-0.39934873580932617,0.02489839866757393,0.38415172696113586,0.7345157861709595,0.42000001668930054,-0.2302093356847763,-0.1908070147037506,-1.217619776725769,2.997123956680298,-0.22213269770145416,-0.21349208056926727,-0.19921891391277313,-0.18442276120185852,0.285873144865036,0.21456243097782135,0.05283550173044205,-0.11144803464412689
0.5833333333333334,0.054846104234457016,0.00983345601707697,0.0,0.7080209255218506,0.0,0.0,-0.7061914205551147,0.1610756665468216,-0.012376129627227783,0.0,0.0,0.0,0.9687406420707703,0.38555821776390076,0.7503802180290222,0.4232010841369629,0.5471988320350647,0.018994566053152084,-0.011114072985947132,-0.8367133140563965,0.42228925228118896,-0.5732075572013855,-0.08937003463506699,-0.7616689205169678,-0.22551794350147247,1.3391011953353882,0.38027524948120117,0.7496743202209473,0.42317163944244385,0.306689977645874,-0.5922155380249023,0.07649285346269608,0.38415172696113586,0.7345157861709595,0.42000001668930054,-0.24880103766918182,-1.7564728260040283,-1.2389025688171387,-2.998871326446533,-0.2199002355337143,-0.21195316314697266,-0.1998213529586792,-0.18723514676094055,0.21052952110767365,0.14766965806484222,0.0062297009862959385,-0.13463091850280762
0.6,0.059004221111536026,0.011665906757116318,0.0,0.6993939876556396,0.0,0.0,-0.7147363424301147,0.28578951954841614,0.15420182049274445,0.0,0.0,0.0,-2.328667402267456,0.3875814378261566,0.7446041107177734,0.421317994594574,0.5708926320075989,0.012153184041380882,-0.02628508396446705,-0.8205137848854065,0.04357123002409935,-0.176895409822464,-0.08813785761594772,3.228654384613037,0.5321715474128723,3.353895664215088,0.3833540976047516,0.7469719648361206,0.42479437589645386,0.15905453264713287,0.01190124824643135,0.12815801799297333,0.38415172696113586,0.7345157861709595,0.42000001668930054,-0.26590344309806824,-0.43971556425094604,-1.2888596057891846,-2.998823642730713,-0.21340401470661163,-0.20764724910259247,-0.19873251020908356,-0.18913978338241577,0.5307620167732239,0.3627995550632477,0.14287009835243225,-0.05829494819045067
0.6166666666666667,0.06568288803100586,0.008698360994458199,0.0,0.702411413192749,0.0,0.0,-0.7117711901664734,0.36982783675193787,-0.21227368712425232,0.0,0.0,0.0,1.3607666492462158,0.38825926184654236,0.742699384689331,0.42000138759613037,0.582465648651123,-7.257157449203078e-06,1.298770439461805e-05,-0.8128552436828613,0.02398638054728508,-0.05725421383976936,-0.00039077503606677055,-0.0012341791298240423,-0.015789251774549484,0.7070800065994263,0.3834889829158783,0.7462813258171082,0.427162230014801,-0.15324923396110535,-0.04437876492738724,0.16988596320152283,0.38415172696113586,0.7345157861709595,0.42000001668930054,-0.3075253665447235,-2.9999969005584717,-1.338828682899475,-2.998596429824829,-0.20141442120075226,-0.198588028550148,-0.19338177144527435,-0.1871916949748993,0.6337610483169556,0.4975961148738861,0.3162391483783722,0.14770227670669556
0.6333333333333333,0.07432553172111511,0.009946612641215324,0.0,0.6947322487831116,0.0,0.0,-0.7192684412002563,0.5473570227622986,0.06893904507160187,0.0,0.0,0.0,-2.147634744644165,0.38833123445510864,0.7425280809402466,0.4200000464916229,0.5831920504570007,2.3606902743722458e-07,1.4810113668772829e-07,-0.8123342394828796,-3.9719099731883034e-05,0.00014417183410841972,-1.3534445315599442e-05,-0.0045006247237324715,-0.001831204048357904,-7.243351865326986e-05,0.38455280661582947,0.7474608421325684,0.43030986189842224,0.18726414442062378,0.18689779937267303,0.22868166863918304,0.38415172696113586,0.7345157861709595,0.42000001668930054,-0.35754454135894775,-2.9991605281829834,-1.3887879848480225,-2.9991328716278076,-0.19303177297115326,-0.19219474494457245,-0.18956854939460754,-0.1857035756111145,0.6570186018943787,0.5069128274917603,0.3328552842140198,0.18027929961681366
0.65,0.084498830139637,0.008176952600479126,0.0,0.698896586894989,0.0,0.0,-0.7152227163314819,0.6411702632904053,-0.17312414944171906,0.0,0.0,0.0,1.596144676208496,0.38833096623420715,0.7425282597541809,0.4200000464916229,0.5831924080848694,3.0628427793999435e-07,-3.250311692681862e-06,-0.8123340606689453,0.0001069398203981109,-0.00027625850634649396,-8.984096348285675e-05,0.006556295324116945,-0.0014672602992504835,-0.0006872598314657807,0.38434213399887085,0.7480008006095886,0.43643563985824585,-0.1494797021150589,-0.012295947410166264,0.5594381093978882,0.38415172696113586,0.7345157861709595,0.42000001668930054,-0.4075581431388855,-3.0000007152557373,-1.438806414604187,-2.9999992847442627,-0.18538838624954224,-0.18593443930149078,-0.18503257632255554,-0.1826130598783493,0.3739837408065796,0.32594648003578186,0.2613976001739502,0.2111247479915619
0.6666666666666666,0.09302742034196854,0.008580491878092289,0.0,0.692051112651825,0.0,0.0,-0.7218484878540039,0.4082154631614685,0.0967605784535408,0.0,0.0,0.0,-2.0187809467315674,0.38833096623420715,0.7425282597541809,0.4200000464916229,0.5831923484802246,4.1671486883387843e-07,-2.9522436761908466e-06,-0.8123340010643005,0.00010475654562469572,-0.00026796161546371877,-8.928589522838593e-05,0.0063347723335027695,-0.0014692381955683231,-0.0006737263174727559,0.3856113851070404,0.7473344206809998,0.4436976909637451,0.31490153074264526,-0.08633726835250854,0.44152823090553284,0.38415172696113586,0.7345157861709595,0.42000001668930054,-0.45757171511650085,-2.999999761581421,-1.488824725151062,-3.0000011920928955,-0.181123748421669,-0.18196001648902893,-0.18145911395549774,-0.17914730310440063,0.27751660346984863,0.2647784650325775,0.2553772032260895,0.2683287262916565
0.6833333333333333,0.10144802182912827,0.0062550767324864864,0.0,0.6652742028236389,0.0,0.0,-0.7465991377830505,0.5435841083526611,-0.20557217299938202,0.0,0.0,0.0,-5.207929611206055,0.38833099603652954,0.7425283193588257,0.4200000464916229,0.5831924080848694,2.592243504295766e-07,-3.2235298021987546e-06,-0.8123340010643005,0.00010259611735818908,-0.0002699992328416556,-8.881045505404472e-05,0.0063970861956477165,-0.0015056944685056806,-0.0006716843345202506,0.3931492567062378,0.748260498046875,0.45900291204452515,0.5933561325073242,0.11106602102518082,1.506178855895996,0.38415172696113586,0.7345157861709595,0.42000001668930054,-0.5075846910476685,-2.9999775886535645,-1.538843035697937,-3.000000238418579,-0.1774267703294754,-0.178346186876297,-0.17782579362392426,-0.17515307664871216,0.11063387244939804,0.1278262436389923,0.15187108516693115,0.192666158080101
0.7,0.11245708167552948,0.00720325019210577,0.0,0.6517912149429321,0.0,0.0,-0.7583984732627869,0.6800253391265869,0.07505501061677933,0.0,0.0,0.0,-1.08632230758667,0.38833099603652954,0.7425283193588257,0.4200000464916229,0.5831922888755798,2.4122593345055066e-07,-3.0788921776547795e-06,-0.8123341798782349,0.00010262379510095343,-0.0002703704230953008,-8.877157233655453e-05,0.006407085806131363,-0.0015055572148412466,-0.0006719908560626209,0.4036521911621094,0.7516706585884094,0.49024900794029236,0.7304924726486206,0.3642650842666626,2.218738555908203,0.38415172696113586,0.7345157861709595,0.42000001668930054,-0.5575854778289795,-2.9999940395355225,-1.5888607501983643,-2.999999761581421,-0.1784134805202484,-0.178891122341156,-0.17781707644462585,-0.17438066005706787,0.038375962525606155,0.02261047437787056,0.017407413572072983,0.0266440287232399
0.7166666666666667,0.12057042121887207,0.010393407195806503,0.0,0.662189781665802,0.0,0.0,-0.7493361234664917,0.4164626896381378,0.23970875144004822,0.0,0.0,0.0,2.5167832374572754,0.38833099603652954,0.7425282597541809,0.4200000464916229,0.583191990852356,3.50734296716837e-07,-2.9061900477245217e-06,-0.8123342990875244,0.00010422452760394663,-0.00026931066531687975,-8.911662735044956e-05,0.0063720522448420525,-0.001480747014284134,-0.0006739220698364079,0.41764116287231445,0.756407618522644,0.5197204351425171,0.8537998199462891,0.25126659870147705,1.4144196510314941,0.38415172696113586,0.7345157861709595,0.42000001668930054,-0.578004777431488,0.2793961465358734,-1.6388752460479736,-3.000000238418579,-0.17709052562713623,-0.17766113579273224,-0.17651759088039398,-0.1728406697511673,0.13651669025421143,0.13785739243030548,0.1464180052280426,0.1602669209241867
0.7333333333333333,0.12429846823215485,0.009262961335480213,0.0,0.6604840755462646,0.0,0.0,-0.7508400678634644,0.18569180369377136,-0.11055833101272583,0.0,0.0,0.0,-1.2345833778381348,0.38833099603652954,0.7425283193588257,0.4200000464916229,0.5831921696662903,2.3316417241403542e-07,-3.020578787982231e-06,-0.8123341202735901,0.00010278247646056116,-0.000270055141299963,-8.885120041668415e-05,0.006397203542292118,-0.0015039534773677588,-0.0006720935343764722,0.426114559173584,0.7604150772094727,0.5367477536201477,0.15632906556129456,0.08603574335575104,0.7832741141319275,0.38415172696113586,0.7345157861709595,0.42000001668930054,-0.5903189182281494,-1.5840543508529663,-1.5997533798217773,3.000000238418579,-0.17205609381198883,-0.1727868914604187,-0.17175361514091492,-0.16819296777248383,0.19772036373615265,0.22531935572624207,0.2484738826751709,0.2614390552043915
0.75,0.12923204898834229,0.013130986131727695,0.0,0.6699537038803101,0.0,0.0,-0.7424028515815735,0.3058091104030609,0.21734057366847992,0.0,0.0,0.0,2.2508459091186523,0.38833099603652954,0.7425282597541809,0.4200000464916229,0.5831921100616455,4.249359335517511e-07,-3.1335316634795163e-06,-0.8123342394828796,0.00010435863805469126,-0.00026905976119451225,-8.91734380275011e-05,0.006364971864968538,-0.001478533260524273,-0.0006739310920238495,0.4286916255950928,0.7610946893692017,0.5479298830032349,0.25992488861083984,0.16597671806812286,0.5819611549377441,0.38415172696113586,0.7345157861709595,0.42000001668930054,-0.5934447050094604,0.9895829558372498,-1.6137067079544067,-2.999999761581421,-0.17286942899227142,-0.1725417822599411,-0.1706325113773346,-0.16650861501693726,0.11638253182172775,0.1284414529800415,0.13191018998622894,0.11919889599084854
0.7666666666666666,0.1312156468629837,0.012090682052075863,0.0,0.6669675707817078,0.0,0.0,-0.7450867295265198,0.05554640665650368,-0.0874176025390625,0.0,0.0,0.0,-1.2894203662872314,0.38833099603652954,0.7425282597541809,0.4200000464916229,0.5831922888755798,4.4146383970655734e-07,-3.060910557906027e-06,-0.8123341202735901,0.00010486724931979552,-0.00026803388027474284,-8.9302659034729e-05,0.006335776764899492,-0.0014683222398161888,-0.0006739833042956889,0.43196266889572144,0.7629043459892273,0.5522596836090088,0.08421488106250763,-0.05779553949832916,0.09332751482725143,0.38415172696113586,0.7345157861709595,0.42000001668930054,-0.6130825877189636,-2.9849650859832764,-1.574658751487732,2.999999523162842,-0.1691904366016388,-0.1688293218612671,-0.16703490912914276,-0.16330504417419434,0.0976627990603447,0.13185498118400574,0.1535528004169464,0.15381008386611938
0.7833333333333333,0.1343946009874344,0.01531157735735178,0.0,0.6757391095161438,0.0,0.0,-0.7371408343315125,0.21703408658504486,0.18560892343521118,0.0,0.0,0.0,2.1613223552703857,0.38833099603652954,0.7425282597541809,0.4200000464916229,0.5831920504570007,5.521631578631059e-07,-3.049449787795311e-06,-0.8123341798782349,0.00010745247709564865,-0.0002692614507395774,-8.986657485365868e-05,0.006351579912006855,-0.0014442404499277472,-0.0006812676438130438,0.4355493485927582,0.7603587508201599,0.5534089803695679,0.4101807475090027,-0.09325999021530151,0.08224567025899887,0.38415172696113586,0.7345157861709595,0.42000001668930054,-0.6312369108200073,0.518011748790741,-1.5891884565353394,-2.999999523162842,-0.17048846185207367,-0.16898879408836365,-0.16622930765151978,-0.16187453269958496,0.05623820424079895,0.09381590783596039,0.1281387358903885,0.149653822183609
0.8,0.13515572249889374,0.01413281261920929,0.0,0.6720489263534546,0.0,0.0,-0.7405067086219788,-0.008682042360305786,-0.09834297746419907,0.0,0.0,0.0,-1.4212238788604736,0.38833099603652954,0.7425282597541809,0.4200000464916229,0.5831920504570007,3.561946755326062e-07,-2.888619292207295e-06,-0.8123341798782349,0.00010440916230436414,-0.00026874151080846786,-8.920300751924515e-05,0.006355770863592625,-0.0014775682939216495,-0.0006737366202287376,0.442841112613678,0.7580201029777527,0.5526751279830933,0.41129744052886963,-0.26858043670654297,-0.032603669911623,0.38415172696113586,0.7345157861709595,0.42000001668930054,-0.6565676331520081,-3.000000238418579,-1.5502132177352905,3.000000238418579,-0.16831782460212708,-0.1663988083600998,-0.16325661540031433,-0.15870507061481476,0.024004444479942322,0.07141835987567902,0.11462518572807312,0.14453688263893127
0.8166666666666667,0.1371629536151886,0.016904376447200775,0.0,0.6788561940193176,0.0,0.0,-0.734271228313446,0.15175864100456238,0.1722942441701889,0.0,0.0,0.0,2.0153515338897705,0.38833099603652954,0.7425283193588257,0.4200000464916229,0.5831922888755798,2.3825538164601312e-07,-3.004015979968244e-06,-0.8123341202735901,0.00010278305126121268,-0.00027005249285139143,-8.885236456990242e-05,0.006397313438355923,-0.001503833569586277,-0.0006720831734128296,0.45118188858032227,0.7528052926063538,0.5550663471221924,0.6499056816101074,-0.2317739725112915,0.3384894132614136,0.38415172696113586,0.7345157861709595,0.42000001668930054,-0.6743494272232056,0.5715283155441284,-1.5653020143508911,-2.999999761581421,-0.17041632533073425,-0.16736167669296265,-0.1631147414445877,-0.15764397382736206,-0.002987589919939637,0.03147457540035248,0.07065308094024658,0.10628900676965714
0.8333333333333334,0.13698719441890717,0.01583002135157585,0.0,0.6743876934051514,0.0,0.0,-0.7383773922920227,-0.06603667140007019,-0.09108276665210724,0.0,0.0,0.0,-1.561206340789795,0.38833099603652954,0.7425282597541809,0.4200000464916229,0.583191990852356,4.093706706953526e-07,-3.1894794574327534e-06,-0.8123342394828796,0.0001047183177433908,-0.00026923971017822623,-8.923932909965515e-05,0.006367428228259087,-0.0014750065747648478,-0.0006749629392288625,0.46215295791625977,0.7492719888687134,0.5594030022621155,0.6079593896865845,-0.28465697169303894,0.30786168575286865,0.38415172696113586,0.7345157861709595,0.42000001668930054,-0.6867858171463013,-1.844390869140625,-1.5263965129852295,3.0,-0.16910326480865479,-0.16576416790485382,-0.16114722192287445,-0.15534062683582306,-0.00590739119797945,0.02694077044725418,0.062439292669296265,0.09375519305467606
0.85,0.13809412717819214,0.018354039639234543,0.0,0.6811432838439941,0.0,0.0,-0.732150137424469,0.10926638543605804,0.16538867354393005,0.0,0.0,0.0,1.81995689868927,0.38833099603652954,0.7425282597541809,0.4200000464916229,0.5831921696662903,4.399281863243232e-07,-2.9021246064075967e-06,-0.8123342394828796,0.00010895723244175315,-0.00026634446112439036,-9.028427302837372e-05,0.006270375568419695,-0.0014136029640212655,-0.0006808192119933665,0.4717443585395813,0.744301438331604,0.5663175582885742,0.618445634841919,-0.19822582602500916,0.5438462495803833,0.38415172696113586,0.7345157861709595,0.42000001668930054,-0.6863830089569092,1.594359278678894,-1.5420031547546387,-3.000000238418579,-0.17079845070838928,-0.16675780713558197,-0.1613832265138626,-0.15487293899059296,0.017711572349071503,0.02696063369512558,0.043458227068185806,0.06183192878961563
0.8666666666666667,0.13763998448848724,0.017506800591945648,0.0,0.6764590740203857,0.0,0.0,-0.7364802360534668,-0.07156700640916824,-0.07874076813459396,0.0,0.0,0.0,-1.516128659248352,0.38833099603652954,0.7425282597541809,0.4200000464916229,0.5831921696662903,3.420268512854818e-07,-2.9315854135347763e-06,-0.8123342394828796,0.00010475442104507238,-0.0002687788801267743,-8.929800242185593e-05,0.006354542449116707,-0.0014742909697815776,-0.0006746097351424396,0.4804776906967163,0.7432881593704224,0.5746954679489136,0.38077008724212646,-0.03323014825582504,0.5793964862823486,0.38415172696113586,0.7345157861709595,0.42000001668930054,-0.6745922565460205,-0.04685039073228836,-1.5031650066375732,3.0000016689300537,-0.16900838911533356,-0.16527606546878815,-0.1601041853427887,-0.15375682711601257,0.039292868226766586,0.026919163763523102,0.017383385449647903,0.0074079809710383415
0.8833333333333333,0.1347331404685974,0.019984666258096695,0.0,0.6833057403564453,0.0,0.0,-0.7301323413848877,-0.2189636379480362,0.18160496652126312,0.0,0.0,0.0,1.8428962230682373,0.38833099603652954,0.7425282597541809,0.4200000464916229,0.5831921696662903,3.5554148780647665e-07,-2.9566635930677876e-06,-0.8123342394828796,0.00010465966624906287,-0.0002687606029212475,-8.927355520427227e-05,0.0063547068275511265,-0.0014752269489690661,-0.0006743607809767127,0.4846196174621582,0.7409977912902832,0.5839629173278809,0.1885221302509308,-0.07830741256475449,0.569312572479248,0.38415172696113586,0.7345157861709595,0.42000001668930054,-0.6496481895446777,2.7734692096710205,-1.5192400217056274,-3.000000476837158,-0.16991807520389557,-0.1660863310098648,-0.1607906073331833,-0.15434527397155762,0.04043097794055939,0.023885682225227356,0.010903988964855671,8.381903171539307e-09
