vladlanda/robotic-transformer/data/env_000_episode_0194.csv
sim_time_s,robot_box_x,robot_box_y,robot_box_z,robot_box_quat_w,robot_box_quat_x,robot_box_quat_y,robot_box_quat_z,robot_box_linvel_x,robot_box_linvel_y,robot_box_linvel_z,robot_box_angvel_x,robot_box_angvel_y,robot_box_angvel_z,cube_world_x,cube_world_y,cube_world_z,cube_quat_w,cube_quat_x,cube_quat_y,cube_quat_z,cube_linvel_x,cube_linvel_y,cube_linvel_z,cube_angvel_x,cube_angvel_y,cube_angvel_z,endpoint_world_x,endpoint_world_y,endpoint_world_z,endpoint_linvel_x,endpoint_linvel_y,endpoint_linvel_z,target_cube_world_x,target_cube_world_y,target_cube_world_z,gripper_actual_pos_rad_gp_leftgearjoint,gripper_actual_vel_rad_s_gp_leftgearjoint,gripper_actual_pos_rad_gp_rotatingjoint,gripper_actual_vel_rad_s_gp_rotatingjoint,motor_angle_rad_joint1,motor_angle_rad_joint2,motor_angle_rad_joint3,motor_angle_rad_joint4,motor_speed_rad_s_joint1,motor_speed_rad_s_joint2,motor_speed_rad_s_joint3,motor_speed_rad_s_joint4
0.0,0.0,0.0,0.0,1.0,0.0,0.0,0.0,0.0,0.0,0.0,0.0,0.0,0.0,-0.47478246688842773,0.6981555819511414,0.41999998688697815,1.0,0.0,0.0,0.0,0.0,0.0,0.0,0.0,0.0,0.0,3.42540442943573e-06,-0.005000244826078415,1.313499927520752,0.0,0.0,0.0,0.4505401849746704,0.6603090167045593,0.42000001668930054,-1.5707999467849731,0.0,0.0,0.0,0.0,0.0,0.0,0.0,0.0,0.0,0.0,0.0
0.016666666666666666,0.0028778850100934505,0.0021806680597364902,0.0,0.9998081922531128,0.0,0.0,0.019586581736803055,0.24087215960025787,0.18240931630134583,0.0,0.0,0.0,3.1418697834014893,-0.4747825860977173,0.6981552839279175,0.41999998688697815,1.0,3.2799832752061775e-06,-8.339598593920527e-07,8.465660528145236e-08,-1.9833856640616432e-05,0.00017983021098189056,-6.132945418357849e-05,0.0009432561928406358,-0.004689492750912905,-0.0003198107879143208,-0.007110234349966049,0.003379564033821225,1.3159373998641968,-0.8143353462219238,0.9868683815002441,0.18095196783542633,0.4505401849746704,0.6603090167045593,0.42000001668930054,-1.5301095247268677,3.0000011920928955,-0.04584788903594017,-2.9999992847442627,0.0008691533003002405,0.0007963840034790337,0.0007110277656465769,0.0006108740926720202,0.11094217747449875,0.09756709635257721,0.08334315568208694,0.06823883205652237
0.03333333333333333,0.008958753198385239,0.006803547032177448,0.0,0.9997956156730652,0.0,0.0,0.020218024030327797,0.4070277810096741,0.315312922000885,0.0,0.0,0.0,-0.8696236610412598,-0.47478270530700684,0.6981552243232727,0.4200000464916229,1.0,3.3908236218849197e-06,-2.1324740373529494e-06,-3.7087911408661967e-08,0.0002635786950122565,0.00026937879738397896,-0.00010509719140827656,-0.0017707741353660822,0.004130927845835686,-0.00013548358401749283,-0.02754959464073181,0.026012737303972244,1.3166239261627197,-1.5915074348449707,1.6141762733459473,-0.08174863457679749,0.4505401849746704,0.6603090167045593,0.42000001668930054,-1.4800904989242554,3.0000011920928955,-0.09588772058486938,-3.000002145767212,0.0029891820158809423,0.00265188654884696,0.002276548882946372,0.001860093791037798,0.1642407923936844,0.13978320360183716,0.11384127289056778,0.08632232993841171
0.05,0.01775740459561348,0.013774815015494823,0.0,0.9993740320205688,0.0,0.0,0.03537660837173462,0.5939761996269226,0.46516934037208557,0.0,0.0,0.0,2.647059202194214,-0.4747827351093292,0.6981552839279175,0.4200000464916229,1.0,3.7651166167051997e-06,-2.2119024833955336e-06,5.637348365894468e-09,0.0002653102274052799,0.00026691530365496874,-0.0001044049859046936,-0.0017243424663320184,0.004177475813776255,-0.00012949523807037622,-0.05968709662556648,0.053809672594070435,1.3116791248321533,-2.187718629837036,1.755371332168579,-0.473653644323349,0.4505401849746704,0.6603090167045593,0.42000001668930054,-1.4300721883773804,2.999999523162842,-0.145926371216774,-3.000000238418579,0.005711229518055916,0.004919057711958885,0.004054756369441748,0.00311388005502522,0.19274945557117462,0.15585041046142578,0.11707614362239838,0.07633340358734131
0.06666666666666667,0.029075387865304947,0.023069750517606735,0.0,0.99944669008255,0.0,0.0,0.03326068073511124,0.7205310463905334,0.5952893495559692,0.0,0.0,0.0,-1.2122182846069336,-0.4747827351093292,0.6981552243232727,0.4200000464916229,0.9999999403953552,3.4067338674503844e-06,-2.2856738723930903e-06,4.301002434203838e-07,0.0002670263347681612,0.0002679180761333555,-0.00010437914170324802,-0.001740648876875639,0.004211838357150555,-0.00012851078645326197,-0.09839701652526855,0.08789068460464478,1.2989940643310547,-2.4656591415405273,2.2205426692962646,-1.0207631587982178,0.4505401849746704,0.6603090167045593,0.42000001668930054,-1.3800538778305054,2.999999761581421,-0.19596371054649353,-3.0000011920928955,0.008342161774635315,0.006874642334878445,0.005296236835420132,0.003601218806579709,0.1567876636981964,0.10701389610767365,0.05521252006292343,1.0943040251731873e-08
0.08333333333333333,0.034490104764699936,0.035745423287153244,0.0,0.9994767308235168,0.0,0.0,0.032345425337553024,0.18540257215499878,0.8248767852783203,0.0,0.0,0.0,0.4347280263900757,-0.4747827351093292,0.6981552243232727,0.4200000464916229,0.9999999403953552,3.6260375964047853e-06,-2.335399813091499e-06,3.0323869282256055e-07,0.0002661397447809577,0.0002668508095666766,-0.00010405457578599453,-0.0017283371416851878,0.004196438007056713,-0.00012790974869858474,-0.1404329538345337,0.12526461482048035,1.2768049240112305,-2.552706718444824,2.240471363067627,-1.5363714694976807,0.4505401849746704,0.6603090167045593,0.42000001668930054,-1.3300355672836304,2.9999969005584717,-0.24596421420574188,-2.999999761581421,0.0055128298699855804,0.003528814995661378,0.001384071190841496,-0.0009495865670032799,-0.26124921441078186,-0.297823965549469,-0.33690357208251953,-0.37967878580093384
0.1,0.04404867812991142,0.04931259527802467,0.0,0.9999069571495056,0.0,0.0,0.013642707839608192,0.7009070515632629,0.8295257091522217,0.0,0.0,0.0,-3.1147594451904297,-0.4747827351093292,0.6981552243232727,0.4200000464916229,1.0,3.4220713587274076e-06,-2.3086856799636735e-06,1.7965174947676132e-07,0.0002668143715709448,0.00026800335035659373,-0.00010440708138048649,-0.0017429604195058346,0.0042070322670042515,-0.00012891279766336083,-0.17935986816883087,0.16762259602546692,1.2518889904022217,-2.2040915489196777,2.7320613861083984,-1.5393438339233398,0.4505401849746704,0.6603090167045593,0.42000001668930054,-1.2800190448760986,3.0000014305114746,-0.2959769070148468,-2.9999990463256836,0.00611491035670042,0.0026003937236964703,-0.0010715773096308112,-0.004941288847476244,0.08233341574668884,-0.02873082458972931,-0.1387285739183426,-0.24814289808273315
0.11666666666666667,0.051854606717824936,0.0652775913476944,0.0,0.9998613595962524,0.0,0.0,-0.016649486497044563,0.47407469153404236,1.0157470703125,0.0,0.0,0.0,-3.815188407897949,-0.4747827351093292,0.6981552839279175,0.4200000464916229,1.0,3.7114145925443154e-06,-2.3327797862293664e-06,2.5745856646608445e-07,0.00026485841954126954,0.0002663533086888492,-0.0001042329240590334,-0.0017181563889607787,0.004170076455920935,-0.0001291552762268111,-0.21576206386089325,0.21494275331497192,1.22652006149292,-2.1005702018737793,3.0102732181549072,-1.4633769989013672,0.4505401849746704,0.6603090167045593,0.42000001668930054,-1.2299965620040894,2.999990224838257,-0.2616803050041199,3.0000011920928955,0.005140583496540785,-0.0002500029222574085,-0.0057715484872460365,-0.011469720862805843,0.003376856679096818,-0.1284257471561432,-0.2571878731250763,-0.3829565942287445
0.13333333333333333,0.057173147797584534,0.07950510084629059,0.0,0.9986635446548462,0.0,0.0,-0.051682837307453156,0.2609602212905884,0.783393144607544,0.0,0.0,0.0,-4.441158771514893,-0.4747827351093292,0.6981552243232727,0.4200000464916229,1.0,3.33562343257654e-06,-2.231935468444135e-06,3.113336504156905e-07,0.0002666971704456955,0.00026759487809613347,-0.00010428461246192455,-0.001737144310027361,0.004205835517495871,-0.00012839905684813857,-0.25174933671951294,0.2640813887119293,1.2029863595962524,-2.089696168899536,3.071852684020996,-1.409968376159668,0.4505401849746704,0.6603090167045593,0.42000001668930054,-1.1839172840118408,2.5320699214935303,-0.29269376397132874,-2.999999761581421,0.003989958204329014,-0.0036401080433279276,-0.011336506344377995,-0.01914273016154766,-0.14206787943840027,-0.27084770798683167,-0.3955700695514679,-0.5160026550292969
0.15,0.05861296504735947,0.09379682689905167,0.0,0.9980104565620422,0.0,0.0,-0.06304889172315598,0.00973573699593544,0.886696457862854,0.0,0.0,0.0,-0.2867007255554199,-0.4747827351093292,0.6981552243232727,0.4200000464916229,1.0,3.5188593301427318e-06,-2.2830813577456865e-06,-3.625297324560961e-07,0.00026618369156494737,0.0002673570706974715,-0.00010425481013953686,-0.001734902267344296,0.00419566361233592,-0.00012860818242188543,-0.29251059889793396,0.31176549196243286,1.174492597579956,-2.485309600830078,2.9815773963928223,-1.9821572303771973,0.4505401849746704,0.6603090167045593,0.42000001668930054,-1.139491081237793,2.7457544803619385,-0.2583920955657959,3.0000007152557373,0.00032115832436829805,-0.009136165492236614,-0.018581947311758995,-0.02805548533797264,-0.294517457485199,-0.38300442695617676,-0.4669603109359741,-0.5461673140525818
0.16666666666666666,0.05677469074726105,0.10714852064847946,0.0,0.9961562752723694,0.0,0.0,-0.0875936970114708,-0.17690542340278625,0.7509441375732422,0.0,0.0,0.0,-3.8215279579162598,-0.4747827351093292,0.6981552243232727,0.4200000464916229,1.0,3.6665835523308488e-06,-2.3391182821796974e-06,-3.149922918055381e-07,0.000265958602540195,0.00026667420752346516,-0.00010403734631836414,-0.001725313370116055,0.0041927797719836235,-0.00012778645032085478,-0.3311879634857178,0.36620616912841797,1.138542890548706,-2.1562442779541016,3.487946033477783,-2.3484785556793213,0.4505401849746704,0.6603090167045593,0.42000001668930054,-1.0934699773788452,2.735851764678955,-0.28944364190101624,-3.000000238418579,-0.006123298313468695,-0.01693485490977764,-0.027653416618704796,-0.03831496834754944,-0.47773537039756775,-0.5444356799125671,-0.6066180467605591,-0.6641115546226501
0.18333333333333332,0.06003972142934799,0.12189195305109024,0.0,0.9898573756217957,0.0,0.0,-0.14206470549106598,0.17337748408317566,0.8655781149864197,0.0,0.0,0.0,-7.349532127380371,-0.4747827351093292,0.6981552243232727,0.4200000464916229,1.0,3.8143025449244305e-06,-2.399538061581552e-06,-2.702604433579836e-07,0.00026549160247668624,0.0002661106991581619,-0.00010391208343207836,-0.0017177729168906808,0.004184826277196407,-0.0001275383838219568,-0.3661445081233978,0.430320680141449,1.0919313430786133,-1.9984886646270752,4.024587154388428,-3.216989517211914,0.4505401849746704,0.6603090167045593,0.42000001668930054,-1.0577802658081055,1.6093170642852783,-0.33946046233177185,-3.0,-0.012371262535452843,-0.024219240993261337,-0.035892702639102936,-0.04742613434791565,-0.6288961172103882,-0.6391077637672424,-0.6470870971679688,-0.6528934240341187
0.2,0.05913534760475159,0.13312824070453644,0.0,0.9841139912605286,0.0,0.0,-0.17753776907920837,-0.08037649095058441,0.6234568357467651,0.0,0.0,0.0,-3.09584903717041,-0.4747827351093292,0.6981552243232727,0.4200000464916229,1.0,3.6000003547087545e-06,-2.291237706231186e-06,-2.2017823653186497e-07,0.00026573086506687105,0.0002664501662366092,-0.00010398100130259991,-0.0017227214993909001,0.0041888258419930935,-0.00012773244816344231,-0.4024032950401306,0.49204307794570923,1.0306463241577148,-1.9267477989196777,3.832461357116699,-4.107014179229736,0.4505401849746704,0.6603090167045593,0.42000001668930054,-1.0119290351867676,3.0000007152557373,-0.38948681950569153,-2.999985456466675,-0.02547459863126278,-0.03728322312235832,-0.048786431550979614,-0.05961523577570915,-0.7952809929847717,-0.8095523118972778,-0.8141565322875977,-0.7513265013694763
0.21666666666666667,0.05442403629422188,0.14621517062187195,0.0,0.9747260808944702,0.0,0.0,-0.22340336441993713,-0.3431212306022644,0.7936198115348816,0.0,0.0,0.0,-6.383116722106934,-0.4747827351093292,0.6981552243232727,0.4200000464916229,0.9999999403953552,3.6396120322024217e-06,-2.2620149593421957e-06,2.2248472930641583e-07,0.0002668747620191425,0.0002675442665349692,-0.00010411837138235569,-0.0017403680831193924,0.004211135674268007,-0.00012783527199644595,-0.43310943245887756,0.5551050901412964,0.9553756713867188,-1.6101858615875244,3.7999987602233887,-4.801098823547363,0.4505401849746704,0.6603090167045593,0.42000001668930054,-0.9619259834289551,2.9999990463256836,-0.4395141899585724,-2.9999992847442627,-0.041337549686431885,-0.05326971784234047,-0.06479649245738983,-0.07550546526908875,-0.978134036064148,-0.9764149188995361,-0.9684987664222717,-0.9597805738449097
0.23333333333333334,0.054497554898262024,0.15535910427570343,0.0,0.9681873917579651,0.0,0.0,-0.2502261996269226,0.0068387133069336414,0.4624021053314209,0.0,0.0,0.0,-1.9867804050445557,-0.47478270530700684,0.6981552243232727,0.4200000464916229,1.0,3.420692110012169e-06,-2.3168713596533053e-06,2.955990510145057e-07,0.00026680133305490017,0.00026803885702975094,-0.0001044226810336113,-0.001743639470078051,0.004206772428005934,-0.0001289946085307747,-0.46159183979034424,0.609909176826477,0.870538592338562,-1.4162743091583252,3.0270538330078125,-5.45636510848999,0.4505401849746704,0.6603090167045593,0.42000001668930054,-0.9119209051132202,2.999992847442627,-0.48954346776008606,-3.0000007152557373,-0.055954355746507645,-0.06745607405900955,-0.07840126752853394,-0.08849851042032242,-0.9830707311630249,-0.9833630323410034,-0.976304829120636,-0.8865875005722046
0.25,0.048516590148210526,0.16704489290714264,0.0,0.9575787782669067,0.0,0.0,-0.2881717383861542,-0.3592081367969513,0.7084032297134399,0.0,0.0,0.0,-5.363501071929932,-0.4747827351093292,0.6981552243232727,0.4200000464916229,0.9999999403953552,3.3476046610303456e-06,-2.259236225654604e-06,1.8083763109189022e-07,0.0002668767119757831,0.0002679122262634337,-0.00010439427569508553,-0.0017404244281351566,0.004208163358271122,-0.00012870550563093275,-0.48029497265815735,0.6509239673614502,0.7730270624160767,-0.7971518635749817,2.16886305809021,-6.003129005432129,0.4505401849746704,0.6603090167045593,0.42000001668930054,-0.8619102239608765,3.000000238418579,-0.5395732522010803,-2.9999992847442627,-0.07328644394874573,-0.0844903513789177,-0.09524200856685638,-0.10520956665277481,-0.8511149287223816,-0.862266480922699,-0.8787825107574463,-0.8967604637145996
0.26666666666666666,0.04800738766789436,0.17407715320587158,0.0,0.9520314335823059,0.0,0.0,-0.3060002326965332,-0.008124112151563168,0.3393200933933258,0.0,0.0,0.0,-0.9591751098632812,-0.4747827351093292,0.6981552243232727,0.4200000464916229,0.9999999403953552,3.535753194228164e-06,-2.3003594833426178e-06,-1.2686646755355468e-07,0.0002660174504853785,0.00026712234830483794,-0.00010419590398669243,-0.001731633092276752,0.004192822612822056,-0.0001284947502426803,-0.494617223739624,0.6777935028076172,0.672931432723999,-0.5674033164978027,1.1619943380355835,-6.094743251800537,0.4505401849746704,0.6603090167045593,0.42000001668930054,-0.8119004368782043,3.0,-0.5896030068397522,-3.000000238418579,-0.08690465241670609,-0.0979151576757431,-0.1082686260342598,-0.11790106445550919,-0.9916381239891052,-0.9929282665252686,-0.9239081144332886,-0.8508521914482117
0.2833333333333333,0.043071847409009933,0.17804689705371857,0.0,0.9430604577064514,0.0,0.0,-0.33262142539024353,-0.3954054117202759,0.2016998678445816,0.0,0.0,0.0,-4.4083099365234375,-0.4747827351093292,0.6981552839279175,0.4200000464916229,1.0,3.5935188407165697e-06,-2.262744601466693e-06,-5.655506285506817e-08,0.00026704822084866464,0.000267749244812876,-0.00010416633449494839,-0.0017431654268875718,0.004214244429022074,-0.00012789323227480054,-0.49849218130111694,0.691521942615509,0.5723013877868652,0.21791672706604004,0.47888845205307007,-5.753479957580566,0.4505401849746704,0.6603090167045593,0.42000001668930054,-0.7618916630744934,3.0000007152557373,-0.6396319270133972,-3.0000014305114746,-0.10455670952796936,-0.11531465500593185,-0.1254848688840866,-0.1349802017211914,-1.0154781341552734,-1.0116503238677979,-1.00873863697052,-1.0064256191253662
0.3,0.036052461713552475,0.17947447299957275,0.0,0.9396551847457886,0.0,0.0,-0.3421229422092438,-0.38881587982177734,0.013051102869212627,0.0,0.0,0.0,-0.21390648186206818,-0.47478270530700684,0.6981552243232727,0.4200000464916229,0.9999999403953552,3.725037913682172e-06,-2.236182581327739e-06,3.828752426215942e-07,0.0002647983201313764,0.0002667314256541431,-0.00010453932918608189,-0.001718917046673596,0.004166685976088047,-0.00013016501907259226,-0.4941525161266327,0.6955398917198181,0.48349982500076294,0.4171087145805359,0.06113261729478836,-5.0617170333862305,0.4505401849746704,0.6603090167045593,0.42000001668930054,-0.7118837833404541,2.999994993209839,-0.6896589398384094,-2.9999992847442627,-0.12133034318685532,-0.13204355537891388,-0.14219823479652405,-0.15169209241867065,-0.8725582361221313,-0.899522602558136,-0.9250442385673523,-0.9480791091918945
0.31666666666666665,0.027910711243748665,0.1780339479446411,0.0,0.944664716720581,0.0,0.0,-0.3280375301837921,-0.5399128794670105,-0.13143515586853027,0.0,0.0,0.0,3.0802626609802246,-0.4747827351093292,0.6981552243232727,0.4200000464916229,0.9999999403953552,3.557750233085244e-06,-2.2789749891671818e-06,2.283545939008036e-07,0.0002659836900420487,0.0002665854699444026,-0.00010398984886705875,-0.0017241021851077676,0.004193542525172234,-0.00012770354805979878,-0.48625484108924866,0.6972256302833557,0.39939749240875244,0.564997673034668,-0.049822986125946045,-4.911921501159668,0.4505401849746704,0.6603090167045593,0.42000001668930054,-0.661876916885376,2.999861001968384,-0.7396843433380127,-3.000000238418579,-0.13829195499420166,-0.14893454313278198,-0.15903997421264648,-0.16849689185619354,-1.0066814422607422,-1.0052006244659424,-1.0040488243103027,-1.0031044483184814
0.3333333333333333,0.017458472400903702,0.1741177886724472,0.0,0.9449940919876099,0.0,0.0,-0.3270874321460724,-0.6663405299186707,-0.2762298882007599,0.0,0.0,0.0,-0.8327027559280396,-0.47478246688842773,0.6981555223464966,0.42000001668930054,0.9999999403953552,-9.105342257953453e-08,1.423804633304826e-06,1.7771148108636226e-08,-0.0001291859953198582,-3.0862494895700365e-05,-3.7586549296975136e-05,0.00363482185639441,-0.0053033470176160336,-0.00016828207299113274,-0.48851191997528076,0.7025715112686157,0.4226717948913574,0.22099845111370087,0.5557100176811218,-0.14586512744426727,0.4505401849746704,0.6603090167045593,0.42000001668930054,-0.6120107769966125,3.0000007152557373,-0.79002845287323,-2.999197006225586,-0.13668088614940643,-0.1486085057258606,-0.15952570736408234,-0.16921071708202362,-0.17575813829898834,-0.18311002850532532,-0.1661335676908493,-0.12030035257339478
0.35,0.005016079172492027,0.1678159385919571,0.0,0.9431335926055908,0.0,0.0,-0.3324139416217804,-0.7888352274894714,-0.420545369386673,0.0,0.0,0.0,-0.5987618565559387,-0.4700980484485626,0.7050976753234863,0.4200359582901001,0.9982749819755554,-0.0003099761379417032,0.0004193689674139023,-0.05870840698480606,0.3894118070602417,0.5682619214057922,0.015092121437191963,-0.24618931114673615,0.49039483070373535,-10.236601829528809,-0.4840700030326843,0.711833119392395,0.4213148057460785,0.35103920102119446,0.6192144751548767,0.04472898319363594,0.4505401849746704,0.6603090167045593,0.42000001668930054,-0.5619945526123047,2.999749183654785,-0.8400480151176453,-2.999976873397827,-0.14154143631458282,-0.15281878411769867,-0.1627122014760971,-0.1709517240524292,-0.3482125401496887,-0.2758605480194092,-0.1834338903427124,-0.0692487508058548
0.36666666666666664,-0.004954025149345398,0.15867437422275543,0.0,0.9347912669181824,0.0,0.0,-0.3551975190639496,-0.5426495671272278,-0.600625216960907,0.0,0.0,0.0,-3.665952444076538,-0.4624105393886566,0.7161465883255005,0.4204496741294861,0.9911476969718933,-0.01123865507543087,0.0009800324914976954,-0.13228344917297363,0.642616868019104,0.8918809294700623,0.09439059346914291,-4.619194507598877,0.9803994297981262,-3.7330610752105713,-0.47555023431777954,0.7235238552093506,0.4222082495689392,0.6647392511367798,0.8264291286468506,0.06010163575410843,0.4505401849746704,0.6603090167045593,0.42000001668930054,-0.5119640827178955,2.999504327774048,-0.8900624513626099,-2.9999704360961914,-0.14886930584907532,-0.15827900171279907,-0.16597260534763336,-0.1716776043176651,-0.48428788781166077,-0.343962162733078,-0.1855574995279312,-0.009975790977478027
0.3833333333333333,-0.017769142985343933,0.14753344655036926,0.0,0.9150798320770264,0.0,0.0,-0.40327271819114685,-0.7767671346664429,-0.7313925623893738,0.0,0.0,0.0,-7.079797267913818,-0.4476183354854584,0.7357543706893921,0.421381413936615,0.9855949282646179,-0.035145554691553116,0.005575344432145357,-0.16533653438091278,1.197685718536377,1.5120559930801392,0.09574467688798904,-4.777119159698486,1.439182162284851,-6.079891204833984,-0.45959848165512085,0.7416794300079346,0.42347705364227295,1.2201300859451294,1.4757699966430664,0.09362173080444336,0.4505401849746704,0.6603090167045593,0.42000001668930054,-0.4619264006614685,2.999786615371704,-0.9400762915611267,-2.9999759197235107,-0.1596042662858963,-0.16597764194011688,-0.17033740878105164,-0.1724512279033661,-0.5240874886512756,-0.3580397665500641,-0.17204634845256805,0.031413063406944275
0.4,-0.02708273008465767,0.13290353119373322,0.0,0.8812357187271118,0.0,0.0,-0.4726770520210266,-0.5182555913925171,-0.9237384796142578,0.0,0.0,0.0,-9.955057144165039,-0.4117582440376282,0.770505964756012,0.4222484529018402,0.9767170548439026,-0.012143868021667004,-0.014288692735135555,-0.21371017396450043,3.208191394805908,2.628530502319336,0.16156277060508728,18.445703506469727,-9.507624626159668,2.4026405811309814,-0.42329367995262146,0.7765707969665527,0.4240252375602722,3.126255512237549,2.6735825538635254,0.15826012194156647,0.4505401849746704,0.6603090167045593,0.42000001668930054,-0.41245418787002563,2.688070297241211,-0.9030740857124329,2.998767375946045,-0.1699533313512802,-0.17269329726696014,-0.17314265668392181,-0.17114616930484772,-0.7129783630371094,-0.4529258608818054,-0.18072572350502014,0.09735629707574844
0.4166666666666667,-0.03292565792798996,0.11548717319965363,0.0,0.830666720867157,0.0,0.0,-0.5567699670791626,-0.27982255816459656,-1.1124413013458252,0.0,0.0,0.0,-12.456195831298828,-0.3352912962436676,0.8195398449897766,0.4273605942726135,0.9560807347297668,0.06271830946207047,-0.04971758648753166,-0.28196465969085693,5.814455986022949,3.6033272743225098,0.3163551092147827,39.029518127441406,-24.033971786499023,-5.492393493652344,-0.34728044271469116,0.8284578323364258,0.42849916219711304,5.693244934082031,3.4655895233154297,0.39072123169898987,0.4505401849746704,0.6603090167045593,0.42000001668930054,-0.3776789605617523,1.0952495336532593,-0.8530399799346924,2.9932196140289307,-0.18474137783050537,-0.1827218383550644,-0.17781448364257812,-0.1706492155790329,-0.8378955721855164,-0.5941019654273987,-0.29168450832366943,-0.009767305105924606
0.43333333333333335,-0.036279723048210144,0.10361561179161072,0.0,0.7700005173683167,0.0,0.0,-0.638043224811554,-0.1393468677997589,-0.575281023979187,0.0,0.0,0.0,-11.88208293914795,-0.23284535109996796,0.8654432892799377,0.43376991152763367,0.91377192735672,0.1488361805677414,-0.09621495008468628,-0.3655288517475128,6.46589469909668,2.607820749282837,0.23590148985385895,-0.48115047812461853,-11.438252449035645,5.333837032318115,-0.24455177783966064,0.8763289451599121,0.43512338399887085,6.585305213928223,2.2787928581237793,0.39098167419433594,0.4505401849746704,0.6603090167045593,0.42000001668930054,-0.36669623851776123,0.6117472052574158,-0.8030238747596741,2.999462127685547,-0.20057407021522522,-0.19833062589168549,-0.1897733509540558,-0.17633308470249176,-0.8483049869537354,-0.8438823223114014,-0.792500913143158,-0.42603740096092224
0.45,-0.042514197528362274,0.0982765331864357,0.0,0.7208322882652283,0.0,0.0,-0.6931095123291016,-0.5162211656570435,-0.27125149965286255,0.0,0.0,0.0,-7.622476100921631,-0.12455129623413086,0.8879714608192444,0.4430440366268158,0.8714231848716736,0.17308272421360016,-0.11569742858409882,-0.44415998458862305,6.368539333343506,0.07949790358543396,0.7173015475273132,-8.927213668823242,6.976036548614502,7.700554370880127,-0.13450802862644196,0.9022877216339111,0.44426172971725464,6.6296281814575195,0.9119174480438232,0.7019508481025696,0.4505401849746704,0.6603090167045593,0.42000001668930054,-0.35528865456581116,0.7607545256614685,-0.8294374942779541,-2.9981369972229004,-0.2165844589471817,-0.21426846086978912,-0.20559820532798767,-0.1864117681980133,-0.818449079990387,-0.8256627321243286,-0.8378692865371704,-0.5969364047050476
0.4666666666666667,-0.04521568492054939,0.08589775115251541,0.0,0.6944533586502075,0.0,0.0,-0.7195377349853516,-0.07091382145881653,-0.9180238246917725,0.0,0.0,0.0,-3.4104692935943604,-0.014281753450632095,0.8932223320007324,0.4531765580177307,0.8078418970108032,0.18723802268505096,-0.07920172810554504,-0.5532273650169373,6.271754264831543,-1.121315598487854,0.7498524188995361,4.8013529777526855,10.868066787719727,23.45029067993164,-0.022543027997016907,0.9099516868591309,0.45278412103652954,6.949920654296875,-0.13183659315109253,0.46605074405670166,0.4505401849746704,0.6603090167045593,0.42000001668930054,-0.34126272797584534,0.8086600303649902,-0.8794630765914917,-2.9997458457946777,-0.22457654774188995,-0.22178101539611816,-0.21278345584869385,-0.19003905355930328,-0.37737172842025757,-0.29098060727119446,-0.21940283477306366,-0.009478221647441387
0.48333333333333334,-0.04906580597162247,0.07595249265432358,0.0,0.6886863708496094,0.0,0.0,-0.7250593900680542,-0.23676224052906036,-0.4583752155303955,0.0,0.0,0.0,0.41894179582595825,0.08600085228681564,0.881443202495575,0.4597362279891968,0.7267311215400696,0.19640204310417175,-0.07485370337963104,-0.6539762616157532,5.330318927764893,-1.46629798412323,0.6270325779914856,-4.090211391448975,-3.5702226161956787,-4.336642265319824,0.08016572892665863,0.9018828868865967,0.4597662687301636,5.409697532653809,-0.8297290802001953,0.28301841020584106,0.4505401849746704,0.6603090167045593,0.42000001668930054,-0.33104607462882996,0.2869020998477936,-0.9294882416725159,-3.0000011920928955,-0.23297014832496643,-0.22797144949436188,-0.2171703279018402,-0.1912594437599182,-0.41626423597335815,-0.29855847358703613,-0.2082577645778656,-0.07869334518909454
0.5,-0.050191719084978104,0.06713298708200455,0.0,0.6763966083526611,0.0,0.0,-0.7365376353263855,-0.008248086087405682,-0.577342689037323,0.0,0.0,0.0,-2.8688066005706787,0.16460058093070984,0.8609934449195862,0.46169888973236084,0.6599922180175781,0.18901443481445312,-0.09502173960208893,-0.7208706736564636,3.679168701171875,-2.7572267055511475,0.11234558373689651,-16.9155216217041,19.17719268798828,29.670677185058594,0.1616121083498001,0.8804939985275269,0.4624635577201843,4.771601676940918,-1.822324275970459,0.10718448460102081,0.4505401849746704,0.6603090167045593,0.42000001668930054,-0.32878783345222473,-0.10886673629283905,-0.9795120358467102,-2.9978103637695312,-0.2400491088628769,-0.23302292823791504,-0.21968510746955872,-0.19128817319869995,-0.05997782200574875,-0.3454727530479431,-0.13808006048202515,0.030552096664905548
0.5166666666666666,-0.04817743971943855,0.06223916634917259,0.0,0.676395833492279,0.0,0.0,-0.736538290977478,0.1543981283903122,-0.2222273051738739,0.0,0.0,0.0,0.8461390733718872,0.233228400349617,0.8282907605171204,0.45952123403549194,0.5855066776275635,0.16152635216712952,-0.09500889480113983,-0.7887105941772461,3.298395872116089,-2.8449511528015137,-0.14847368001937866,-9.040328979492188,13.951722145080566,11.770336151123047,0.23135876655578613,0.8459159135818481,0.4604448974132538,3.942607879638672,-2.3266000747680664,-0.24017581343650818,0.4505401849746704,0.6603090167045593,0.42000001668930054,-0.33216750621795654,-0.3069746196269989,-1.029534935951233,-2.9990580081939697,-0.23984500765800476,-0.23806793987751007,-0.22182802855968475,-0.1916518658399582,0.032713573426008224,-0.1739109307527542,-0.037109375,0.007271806243807077
0.5333333333333333,-0.04340154305100441,0.05311401188373566,0.0,0.6650047302246094,0.0,0.0,-0.746839165687561,0.29197558760643005,-0.5672274827957153,0.0,0.0,0.0,-2.6869373321533203,0.29163551330566406,0.7926398515701294,0.4502924978733063,0.5203670859336853,0.1316704899072647,-0.09564439207315445,-0.8382918238639832,2.8691487312316895,-2.9377691745758057,-0.3219280540943146,1.817512035369873,13.017393112182617,9.821720123291016,0.2898729145526886,0.8096418380737305,0.4518457353115082,3.1082489490509033,-2.2614028453826904,-0.7366002798080444,0.4505401849746704,0.6603090167045593,0.42000001668930054,-0.33881208300590515,-0.5300808548927307,-1.0795570611953735,-2.9992053508758545,-0.2330455780029297,-0.234843447804451,-0.21787521243095398,-0.18866075575351715,0.3657568395137787,0.22606320679187775,0.26139184832572937,0.17627069354057312
0.55,-0.03664734214544296,0.0486779622733593,0.0,0.6659038662910461,0.0,0.0,-0.7460375428199768,0.4473475217819214,-0.2490154206752777,0.0,0.0,0.0,0.9209157228469849,0.33783966302871704,0.7535852789878845,0.43711066246032715,0.46901077032089233,0.09221430122852325,-0.08208434283733368,-0.8745212554931641,2.3733437061309814,-2.488365888595581,-0.8356754779815674,-2.9025521278381348,4.228718280792236,-5.223461151123047,0.3363446593284607,0.7699891924858093,0.43876180052757263,2.5523619651794434,-2.371727466583252,-0.8962223529815674,0.4505401849746704,0.6603090167045593,0.42000001668930054,-0.34114161133766174,0.3248581886291504,-1.1295791864395142,-3.000000238418579,-0.22899562120437622,-0.23206627368927002,-0.21469011902809143,-0.18727831542491913,0.38039976358413696,0.30004292726516724,0.2635737657546997,0.09448472410440445
0.5666666666666667,-0.02778286300599575,0.04665978625416756,0.0,0.6557178497314453,0.0,0.0,-0.7550060153007507,0.5709207057952881,-0.0043719615787267685,0.0,0.0,0.0,-2.461312770843506,0.3739655613899231,0.7219489812850952,0.42304906249046326,0.4409545063972473,0.03568941354751587,-0.07243160158395767,-0.8938897252082825,1.5666707754135132,-1.2533613443374634,0.17207320034503937,-9.479934692382812,-11.340370178222656,4.617743015289307,0.37335920333862305,0.7385510206222534,0.42597198486328125,1.601171612739563,-1.1724485158920288,0.15224525332450867,0.4505401849746704,0.6603090167045593,0.42000001668930054,-0.3261845111846924,1.519655466079712,-1.179565668106079,-2.6693832874298096,-0.2206343114376068,-0.22554264962673187,-0.20998984575271606,-0.18643878400325775,0.5980690121650696,0.46388307213783264,0.29498177766799927,0.01491485070437193
0.5833333333333334,-0.02210254780948162,0.040591705590486526,0.0,0.6582278609275818,0.0,0.0,-0.752818763256073,0.31595858931541443,-0.3411356508731842,0.0,0.0,0.0,1.217605710029602,0.3986143171787262,0.7041666507720947,0.42337241768836975,0.4246504604816437,0.025271842256188393,-0.04147674888372421,-0.9040535688400269,0.9257020354270935,-1.9113837480545044,0.4070975184440613,2.647951126098633,-0.7083253860473633,4.381187438964844,0.3983023464679718,0.7192809581756592,0.42774853110313416,1.2696255445480347,-1.283677577972412,-0.01137697696685791,0.4505401849746704,0.6603090167045593,0.42000001668930054,-0.3039438724517822,1.0766757726669312,-1.200923204421997,-0.11583726108074188,-0.2072039693593979,-0.21340405941009521,-0.20119304955005646,-0.18279647827148438,0.4752722978591919,0.5439754128456116,0.3949967622756958,0.13041605055332184
0.6,-0.013795147649943829,0.0397706963121891,0.0,0.6492776870727539,0.0,0.0,-0.7605514526367188,0.47224918007850647,-0.053937263786792755,0.0,0.0,0.0,-2.158473253250122,0.41770148277282715,0.6865336894989014,0.42217639088630676,0.4315423369407654,0.0289240013808012,-0.03443703055381775,-0.900970995426178,0.6835337281227112,-1.2087507247924805,0.38553279638290405,-4.748354911804199,-18.086057662963867,19.22696876525879,0.41694921255111694,0.701183557510376,0.4265971779823303,0.9357119798660278,-0.6863075494766235,0.18021267652511597,0.4505401849746704,0.6603090167045593,0.42000001668930054,-0.2961965501308441,-0.07649407535791397,-1.1692914962768555,2.97936749458313,-0.20089872181415558,-0.2061622440814972,-0.19666780531406403,-0.18275883793830872,0.5372836589813232,0.5483483076095581,0.3472000062465668,0.05510929971933365
0.6166666666666667,-0.008930519223213196,0.03376426920294762,0.0,0.6529415845870972,0.0,0.0,-0.7574082612991333,0.244704008102417,-0.390275239944458,0.0,0.0,0.0,1.3327271938323975,0.4327065646648407,0.6749846935272217,0.42148905992507935,0.4442574083805084,0.01909293606877327,-0.027989830821752548,-0.8952581882476807,0.7971290946006775,-0.663666844367981,-0.07133445888757706,-1.878635287284851,2.394144296646118,-1.3271055221557617,0.4291812479496002,0.6877256035804749,0.4279852509498596,0.5042562484741211,-0.8362940549850464,0.15227660536766052,0.4505401849746704,0.6603090167045593,0.42000001668930054,-0.3309205174446106,-2.9999918937683105,-1.1912885904312134,-2.999368667602539,-0.18968725204467773,-0.19477201998233795,-0.1885891705751419,-0.1794009506702423,0.5099512338638306,0.5606284737586975,0.4048907458782196,0.16767394542694092
0.6333333333333333,-0.0030666987877339125,0.03307434916496277,0.0,0.6450058817863464,0.0,0.0,-0.7641776204109192,0.3742644488811493,-0.04247502610087395,0.0,0.0,0.0,-1.993775725364685,0.44032490253448486,0.6669602990150452,0.42086368799209595,0.4500410854816437,0.009860174730420113,-0.019694531336426735,-0.8927360773086548,0.27162474393844604,-0.28171873092651367,0.03399484232068062,-1.1736063957214355,-1.4833542108535767,3.616511344909668,0.43555861711502075,0.6807287931442261,0.43035462498664856,0.3664833903312683,-0.12746678292751312,0.1530965268611908,0.4505401849746704,0.6603090167045593,0.42000001668930054,-0.35918131470680237,-0.58798748254776,-1.241237759590149,-2.9983339309692383,-0.18362903594970703,-0.18801313638687134,-0.1843252032995224,-0.1787823587656021,0.5547277331352234,0.534494161605835,0.341126412153244,0.0954517349600792
0.65,0.004697206895798445,0.0283017847687006,0.0,0.6502018570899963,0.0,0.0,-0.7597615122795105,0.48061439394950867,-0.31004709005355835,0.0,0.0,0.0,1.6971451044082642,0.4426362216472626,0.6637614965438843,0.4209521412849426,0.4603285491466522,0.011225678026676178,-0.021669860929250717,-0.8874130845069885,0.03720469027757645,-0.15215329825878143,0.023803269490599632,-0.7237733006477356,-1.0146024227142334,1.30769944190979,0.43806689977645874,0.678435206413269,0.433040052652359,-0.040845565497875214,-0.10414475202560425,0.17845970392227173,0.4505401849746704,0.6603090167045593,0.42000001668930054,-0.3984975218772888,-2.999988317489624,-1.2912284135818481,-2.9999890327453613,-0.17367956042289734,-0.17832227051258087,-0.1775931566953659,-0.17579181492328644,0.48354214429855347,0.494662344455719,0.35321974754333496,0.16735661029815674
0.6666666666666666,0.014544698409736156,0.026952052488923073,0.0,0.643889307975769,0.0,0.0,-0.7651186585426331,0.6147597432136536,-0.034081872552633286,0.0,0.0,0.0,-1.9094982147216797,0.44294849038124084,0.6620596051216125,0.42028847336769104,0.4668564200401306,0.003333605593070388,-0.006234565284103155,-0.8843047618865967,0.018058819696307182,-0.08908096700906754,-0.06276638805866241,1.8631237745285034,2.6956279277801514,0.6562467217445374,0.43900299072265625,0.6794799566268921,0.43631142377853394,0.13084286451339722,0.12745147943496704,0.22366227209568024,0.4505401849746704,0.6603090167045593,0.42000001668930054,-0.4484870135784149,-2.9994680881500244,-1.3411818742752075,-2.998927354812622,-0.16587664186954498,-0.1708671897649765,-0.1726662814617157,-0.1739005446434021,0.545016348361969,0.496886670589447,0.33519595861434937,0.15288585424423218
0.6833333333333333,0.026174258440732956,0.022955644875764847,0.0,0.6497591733932495,0.0,0.0,-0.7601401209831238,0.7288967967033386,-0.27405962347984314,0.0,0.0,0.0,1.8127120733261108,0.4431910514831543,0.6617319583892822,0.4200000464916229,0.4672742486000061,1.2526553518910077e-06,-1.3655917427968234e-06,-0.8841123580932617,5.0260641728527844e-05,1.7417080016457476e-05,-7.299729622900486e-05,-0.0007475871243514121,-0.0005400048685260117,-5.91272964811651e-06,0.4390827417373657,0.6810516715049744,0.4410356283187866,-0.10867110639810562,0.07251676917076111,0.3794451355934143,0.4505401849746704,0.6603090167045593,0.42000001668930054,-0.49849945306777954,-2.999999523162842,-1.391200304031372,-3.000000238418579,-0.15799272060394287,-0.16332735121250153,-0.16714292764663696,-0.17068049311637878,0.31130456924438477,0.3263753056526184,0.2525438368320465,0.16338573396205902
0.7,0.039672303944826126,0.022103285416960716,0.0,0.6442452669143677,0.0,0.0,-0.7648189663887024,0.8348525762557983,0.004675431177020073,0.0,0.0,0.0,-1.9053488969802856,0.44319114089012146,0.6617320775985718,0.4200000464916229,0.46727442741394043,-1.9535298179107485e-07,-2.2143128717289073e-06,-0.8841123580932617,-7.105591066647321e-05,-0.00021537861903198063,-5.0078146159648895e-05,0.0064134495332837105,-0.002851671539247036,-0.00048602596507407725,0.43995124101638794,0.6822483539581299,0.4440293312072754,0.14478418231010437,0.08243319392204285,0.28876975178718567,0.4505401849746704,0.6603090167045593,0.42000001668930054,-0.5484795570373535,-2.9995861053466797,-1.4411990642547607,-3.000000476837158,-0.15416273474693298,-0.1592087596654892,-0.1638364940881729,-0.1682211011648178,0.2515042722225189,0.2684008777141571,0.23815008997917175,0.21609582006931305
0.7166666666666667,0.05501049384474754,0.017676983028650284,0.0,0.6153362393379211,0.0,0.0,-0.7882646918296814,0.9331424236297607,-0.3016585409641266,0.0,0.0,0.0,-5.4044294357299805,0.44319114089012146,0.6617320775985718,0.4200000464916229,0.46727439761161804,-2.9186804795244825e-07,-2.165787009289488e-06,-0.8841122388839722,-7.621659460710362e-05,-0.00021564702910836786,-4.925485700368881e-05,0.006443321704864502,-0.002917273435741663,-0.00047660100972279906,0.44891244173049927,0.6850504279136658,0.45553523302078247,0.8543732166290283,0.1371971070766449,1.2135236263275146,0.4505401849746704,0.6603090167045593,0.42000001668930054,-0.5984908938407898,-2.99995756149292,-1.4912173748016357,-2.999997615814209,-0.14988142251968384,-0.15469644963741302,-0.15965034067630768,-0.164136603474617,0.07453884184360504,0.12836112082004547,0.15746966004371643,0.20007620751857758
0.7333333333333333,0.07270185649394989,0.01671074889600277,0.0,0.5997579097747803,0.0,0.0,-0.80018150806427,1.0804766416549683,-0.018680870532989502,0.0,0.0,0.0,-1.305531620979309,0.44319114089012146,0.6617320775985718,0.4200000464916229,0.4672744870185852,-2.2529123100412107e-07,-2.134937631126377e-06,-0.8841122984886169,-7.42507036193274e-05,-0.00021540249872487038,-4.965020343661308e-05,0.006427234970033169,-0.002894012490287423,-0.0004805084608960897,0.46640706062316895,0.6919257640838623,0.4810694754123688,1.2630884647369385,0.6898690462112427,1.7915725708007812,0.4505401849746704,0.6603090167045593,0.42000001668930054,-0.617511510848999,0.43390747904777527,-1.5412356853485107,-2.999999523162842,-0.15099318325519562,-0.15529467165470123,-0.16005471348762512,-0.16415366530418396,-0.00517931068316102,-0.028287045657634735,-0.06343687325716019,-0.08573270589113235
0.75,0.08714320510625839,0.015834050253033638,0.0,0.6097660064697266,0.0,0.0,-0.7925814986228943,0.8042282462120056,-0.00590231828391552,0.0,0.0,0.0,2.399348020553589,0.44319114089012146,0.6617320775985718,0.4200000464916229,0.46727433800697327,-2.51081473834347e-07,-2.2652850475424202e-06,-0.8841123580932617,-7.393098348984495e-05,-0.0002152212691726163,-4.966463893651962e-05,0.006421312689781189,-0.0028885160572826862,-0.00048042566049844027,0.4862023890018463,0.7013280391693115,0.504797101020813,1.058637022972107,0.45274466276168823,1.1030856370925903,0.4505401849746704,0.6603090167045593,0.42000001668930054,-0.5965508818626404,1.9326109886169434,-1.5023903846740723,2.999998092651367,-0.15085537731647491,-0.15515366196632385,-0.16004802286624908,-0.16412487626075745,-0.06901439279317856,-0.03784984350204468,-0.013063774444162846,0.016570990905165672
0.7666666666666666,0.09704584628343582,0.012072437442839146,0.0,0.6071646213531494,0.0,0.0,-0.7945760488510132,0.4909713864326477,-0.27344000339508057,0.0,0.0,0.0,-1.3666691780090332,0.44319114089012146,0.6617320775985718,0.4200000464916229,0.46727433800697327,-3.7096944538461685e-07,-2.2468755105364835e-06,-0.8841123580932617,-7.444938091794029e-05,-0.000215653155464679,-4.963623359799385e-05,0.006434767972677946,-0.002897798316553235,-0.0004809836973436177,0.49688977003097534,0.7081999778747559,0.5169628858566284,0.20000001788139343,0.38499802350997925,0.5316667556762695,0.4505401849746704,0.6603090167045593,0.42000001668930054,-0.5813305974006653,0.04375835135579109,-1.4523377418518066,2.9999992847442627,-0.1527383178472519,-0.15617768466472626,-0.1602855920791626,-0.16355447471141815,-0.17456819117069244,-0.1001165583729744,-0.02924984320998192,0.03850643336772919
0.7833333333333333,0.10260526835918427,0.013065406121313572,0.0,0.6162624359130859,0.0,0.0,-0.787540853023529,0.27248847484588623,0.013395397923886776,0.0,0.0,0.0,2.122730016708374,0.44319114089012146,0.6617320775985718,0.4200000464916229,0.46727436780929565,-3.5271418141746835e-07,-2.4058276721916627e-06,-0.8841123580932617,-7.415509753627703e-05,-0.0002157112176064402,-4.9721915274858475e-05,0.006434903480112553,-0.00289515289478004,-0.00048181702732108533,0.4988281726837158,0.7130454182624817,0.5234636068344116,0.1737222820520401,0.3828446865081787,0.25229787826538086,0.4505401849746704,0.6603090167045593,0.42000001668930054,-0.5586511492729187,2.45123553276062,-1.46945059299469,-3.000000238418579,-0.1600986123085022,-0.16151918470859528,-0.1636870801448822,-0.16516976058483124,-0.23567374050617218,-0.1715880185365677,-0.10533708333969116,-0.04334653541445732
0.8,0.10446194559335709,0.009099701419472694,0.0,0.612280011177063,0.0,0.0,-0.7906410098075867,0.06836267560720444,-0.3311714231967926,0.0,0.0,0.0,-1.5164382457733154,0.44319114089012146,0.6617320775985718,0.4200000464916229,0.46727442741394043,-3.036389273347595e-07,-1.967100160982227e-06,-0.8841123580932617,-7.371095853159204e-05,-0.00021549906523432583,-4.9778493121266365e-05,0.006427392829209566,-0.00288860104046762,-0.0004819375171791762,0.49443262815475464,0.718900203704834,0.5215446352958679,-0.6870893239974976,0.31554943323135376,-0.29845818877220154,0.4505401849746704,0.6603090167045593,0.42000001668930054,-0.5484817624092102,-0.9449950456619263,-1.4308127164840698,2.9999992847442627,-0.16305966675281525,-0.1634545475244522,-0.16451548039913177,-0.16495884954929352,-0.1534595489501953,-0.0872543603181839,-0.015329292044043541,0.05123758316040039
0.8166666666666667,0.10927409678697586,0.009991493076086044,0.0,0.6207161545753479,0.0,0.0,-0.784035325050354,0.21952685713768005,0.05581377446651459,0.0,0.0,0.0,1.9538061618804932,0.44319114089012146,0.6617320775985718,0.4200000464916229,0.46727439761161804,-2.917720678397018e-07,-1.986155211852747e-06,-0.8841122388839722,-7.645809091627598e-05,-0.00021561102767009288,-4.9209222197532654e-05,0.006443338468670845,-0.002920107915997505,-0.00047603112761862576,0.48422425985336304,0.722394585609436,0.5171544551849365,-0.4368857741355896,0.41651564836502075,-0.23853187263011932,0.4505401849746704,0.6603090167045593,0.42000001668930054,-0.540740430355072,1.641165018081665,-1.4483606815338135,-2.999999761581421,-0.1710224747657776,-0.1694992482662201,-0.16855065524578094,-0.1671225130558014,-0.22145114839076996,-0.18115000426769257,-0.12497225403785706,-0.06629864871501923
0.8333333333333334,0.10976289212703705,0.007212892174720764,0.0,0.6168808937072754,0.0,0.0,-0.787056565284729,0.010396052151918411,-0.18185874819755554,0.0,0.0,0.0,-1.4738554954528809,0.44319114089012146,0.6617320775985718,0.4200000464916229,0.46727442741394043,-2.30950817581288e-07,-2.166520062019117e-06,-0.8841122388839722,-7.6227355748415e-05,-0.00021556278807111084,-4.925159737467766e-05,0.006441038567572832,-0.002917179837822914,-0.0004763155593536794,0.47490423917770386,0.7270908355712891,0.5099055767059326,-0.6923372745513916,0.05383244529366493,-0.4950994849205017,0.4505401849746704,0.6603090167045593,0.42000001668930054,-0.5569343566894531,-3.000000238418579,-1.4097799062728882,3.0,-0.17373459041118622,-0.1714516282081604,-0.16942332684993744,-0.16683407127857208,-0.299681693315506,-0.214822918176651,-0.11097362637519836,-0.003897036425769329
0.85,0.11206825822591782,0.003364805830642581,0.0,0.6027769446372986,0.0,0.0,-0.7979097366333008,0.17852161824703217,-0.3290199935436249,0.0,0.0,0.0,-2.46339750289917,0.44319114089012146,0.6617320775985718,0.4200000464916229,0.4672744572162628,-1.5997797220279608e-07,-2.1162065877433633e-06,-0.8841122388839722,-7.598662341479212e-05,-0.0002153595705749467,-4.926137626171112e-05,0.006434721872210503,-0.002912671072408557,-0.0004760333977174014,0.4672633409500122,0.7281203866004944,0.5052812695503235,-0.21119324862957,0.07744641602039337,0.008740626275539398,0.4505401849746704,0.6603090167045593,0.42000001668930054,-0.5981788039207458,-2.000792980194092,-1.4277456998825073,-3.0,-0.17999954521656036,-0.17626023292541504,-0.1723976582288742,-0.1678621768951416,-0.34669145941734314,-0.27163341641426086,-0.17041561007499695,-0.05856485292315483
0.8666666666666667,0.11704230308532715,-0.003881129203364253,0.0,0.5714157819747925,0.0,0.0,-0.8206607103347778,0.34133073687553406,-0.5179572701454163,0.0,0.0,0.0,-5.637843608856201,0.44319114089012146,0.6617320775985718,0.4200000464916229,0.4672744572162628,-3.617556103563402e-07,-2.097589003824396e-06,-0.8841122388839722,-7.443912181770429e-05,-0.00021552349789999425,-4.9622030928730965e-05,0.00643147761002183,-0.002896742196753621,-0.00048053250066004694,0.4688143730163574,0.7258915901184082,0.506583571434021,0.510804295539856,-0.3961828351020813,0.2667063772678375,0.4505401849746704,0.6603090167045593,0.42000001668930054,-0.6319668889045715,-2.0196139812469482,-1.4777640104293823,-2.999962091445923,-0.18736302852630615,-0.18195489048957825,-0.17597658932209015,-0.1691446155309677,-0.45812076330184937,-0.3434179723262787,-0.20197898149490356,-0.04967407137155533
0.8833333333333333,0.12518277764320374,-0.008012157864868641,0.0,0.5548354983329773,0.0,0.0,-0.8319600820541382,0.501287043094635,-0.21843796968460083,0.0,0.0,0.0,-1.211524248123169,0.44319114089012146,0.6617320775985718,0.4200000464916229,0.4672742784023285,-2.894453814406006e-07,-2.110856939907535e-06,-0.8841123580932617,-7.469866977771744e-05,-0.00021555258717853576,-4.9554044380784035e-05,0.006433531176298857,-0.0028995233587920666,-0.0004800625902134925,0.475371390581131,0.722798228263855,0.5138803124427795,0.31309807300567627,0.047060299664735794,0.5539171695709229,0.4505401849746704,0.6603090167045593,0.42000001668930054,-0.6359972953796387,1.2466559410095215,-1.5277823209762573,-2.999999523162842,-0.1959274858236313,-0.18908675014972687,-0.1813325583934784,-0.1726217120885849,-0.33172592520713806,-0.319018691778183,-0.28697988390922546,-0.24736157059669495
0.9,0.13003507256507874,-0.00984656810760498,0.0,0.5649060606956482,0.0,0.0,-0.8251551985740662,0.22300118207931519,-0.06821407377719879,0.0,0.0,0.0,2.2786312103271484,0.44319114089012146,0.6617320775985718,0.4200000464916229,0.4672744870185852,-2.3175292085397814e-07,-2.251635805805563e-06,-0.8841122388839722,-7.56686640670523e-05,-0.00021534939878620207,-4.9367547035217285e-05,0.006432593334466219,-0.0029102808330208063,-0.00047677833936177194,0.4804241955280304,0.7242845296859741,0.5175938606262207,0.17807967960834503,0.08880586922168732,-0.05007048696279526,0.4505401849746704,0.6603090167045593,0.42000001668930054,-0.6050490736961365,2.3440723419189453,-1.4889696836471558,2.9999992847442627,-0.19894537329673767,-0.1922871470451355,-0.18439242243766785,-0.17539438605308533,-0.08932789415121078,-0.10745180398225784,-0.10931234806776047,-0.10429870337247849
0.9166666666666666,0.13056808710098267,-0.015874549746513367,0.0,0.5621399283409119,0.0,0.0,-0.8270421028137207,0.026616984978318214,-0.41509830951690674,0.0,0.0,0.0,-1.3227283954620361,0.44319114089012146,0.6617320775985718,0.4200000464916229,0.4672743082046509,-3.761785762890213e-07,-2.229540768894367e-06,-0.8841123580932617,-7.496387115679681e-05,-0.0002157020353479311,-4.9502355977892876e-05,0.006438790820538998,-0.002903011627495289,-0.0004799998423550278,0.47815170884132385,0.7246127128601074,0.512828528881073,-0.44200849533081055,-0.1373363733291626,-0.3879278600215912,0.4505401849746704,0.6603090167045593,0.42000001668930054,-0.5987110733985901,-1.2738538980484009,-1.4389158487319946,3.000000476837158,-0.19715310633182526,-0.19118516147136688,-0.183750182390213,-0.17510686814785004,0.036876942962408066,0.021771052852272987,0.014390317723155022,0.007622413337230682
