vladlanda/robotic-transformer/data/env_000_episode_0092.csv
sim_time_s,robot_box_x,robot_box_y,robot_box_z,robot_box_quat_w,robot_box_quat_x,robot_box_quat_y,robot_box_quat_z,robot_box_linvel_x,robot_box_linvel_y,robot_box_linvel_z,robot_box_angvel_x,robot_box_angvel_y,robot_box_angvel_z,cube_world_x,cube_world_y,cube_world_z,cube_quat_w,cube_quat_x,cube_quat_y,cube_quat_z,cube_linvel_x,cube_linvel_y,cube_linvel_z,cube_angvel_x,cube_angvel_y,cube_angvel_z,endpoint_world_x,endpoint_world_y,endpoint_world_z,endpoint_linvel_x,endpoint_linvel_y,endpoint_linvel_z,target_cube_world_x,target_cube_world_y,target_cube_world_z,gripper_actual_pos_rad_gp_leftgearjoint,gripper_actual_vel_rad_s_gp_leftgearjoint,gripper_actual_pos_rad_gp_rotatingjoint,gripper_actual_vel_rad_s_gp_rotatingjoint,motor_angle_rad_joint1,motor_angle_rad_joint2,motor_angle_rad_joint3,motor_angle_rad_joint4,motor_speed_rad_s_joint1,motor_speed_rad_s_joint2,motor_speed_rad_s_joint3,motor_speed_rad_s_joint4
0.0,0.0,0.0,0.0,1.0,0.0,0.0,0.0,0.0,0.0,0.0,0.0,0.0,0.0,-0.4277036190032959,0.7492978572845459,0.41999998688697815,1.0,0.0,0.0,0.0,0.0,0.0,0.0,0.0,0.0,0.0,3.42540442943573e-06,-0.005000244826078415,1.313499927520752,0.0,0.0,0.0,0.47129327058792114,0.7642691135406494,0.42000001668930054,-1.5707999467849731,0.0,0.0,0.0,0.0,0.0,0.0,0.0,0.0,0.0,0.0,0.0
0.016666666666666666,0.0028778850100934505,0.0021806680597364902,0.0,0.9998081922531128,0.0,0.0,0.019586581736803055,0.24087215960025787,0.18240931630134583,0.0,0.0,0.0,3.1418697834014893,-0.42770373821258545,0.749297559261322,0.41999998688697815,1.0,3.279964630564791e-06,-8.339746386809566e-07,8.465587342243452e-08,-1.9833529222523794e-05,0.00017983045836444944,-6.132945418357849e-05,0.0009432713268324733,-0.004689474124461412,-0.00031981561915017664,-0.007110234349966049,0.003379564033821225,1.3159373998641968,-0.8143353462219238,0.9868683815002441,0.18095196783542633,0.47129327058792114,0.7642691135406494,0.42000001668930054,-1.5301095247268677,3.0000011920928955,-0.04584788903594017,-2.9999992847442627,0.0008691533003002405,0.0007963840034790337,0.0007110277656465769,0.0006108740926720202,0.11094217747449875,0.09756709635257721,0.08334315568208694,0.06823883205652237
0.03333333333333333,0.00896099116653204,0.006802027579396963,0.0,0.9997960329055786,0.0,0.0,0.020196840167045593,0.4070222079753876,0.3153079152107239,0.0,0.0,0.0,-0.8691337704658508,-0.427703857421875,0.7492974996566772,0.4200000464916229,1.0,3.390805204617209e-06,-2.132404688381939e-06,-3.708747797759315e-08,0.0002635775599628687,0.0002693787682801485,-0.0001050964929163456,-0.0017706695944070816,0.004130705259740353,-0.00013547964044846594,-0.027556639164686203,0.02629934810101986,1.3165804147720337,-1.5912965536117554,1.6163429021835327,-0.08707208186388016,0.47129327058792114,0.7642691135406494,0.42000001668930054,-1.4800903797149658,3.0000007152557373,-0.09588771313428879,-3.000000238418579,0.002990090986713767,0.0026526888832449913,0.0022772483061999083,0.0018606933299452066,0.1642124056816101,0.13975512981414795,0.11381323635578156,0.08629471808671951
0.05,0.017131391912698746,0.013694005087018013,0.0,0.99983811378479,0.0,0.0,0.017993701621890068,0.5278165340423584,0.4556668698787689,0.0,0.0,0.0,0.03742045909166336,-0.4277038872241974,0.749297559261322,0.4200000464916229,1.0,3.765131168620428e-06,-2.2118479137134273e-06,5.629145594099327e-09,0.00026531046023592353,0.00026691515813581645,-0.00010440382175147533,-0.001724305097013712,0.004177468363195658,-0.00012949509255122393,-0.05862952023744583,0.056460075080394745,1.311112403869629,-2.0928092002868652,1.9748482704162598,-0.5309654474258423,0.47129327058792114,0.7642691135406494,0.42000001668930054,-1.4300720691680908,2.9999983310699463,-0.145926371216774,-3.0000009536743164,0.005474670324474573,0.004687771666795015,0.003828837303444743,0.0028931403066962957,0.1681874692440033,0.13176342844963074,0.0934901088476181,0.053246915340423584
0.06666666666666667,0.02822881005704403,0.022783098742365837,0.0,0.9999945759773254,0.0,0.0,-0.00329436338506639,0.7308433055877686,0.5875214338302612,0.0,0.0,0.0,-3.3812637329101562,-0.4277038872241974,0.7492974996566772,0.4200000464916229,0.9999999403953552,3.406752739465446e-06,-2.2855651877762284e-06,4.3010143713217985e-07,0.0002670265967026353,0.000267917406745255,-0.00010437914170324802,-0.0017406505066901445,0.004211799707263708,-0.00012850486382376403,-0.09247228503227234,0.09420320391654968,1.2992280721664429,-1.9899165630340576,2.4809515476226807,-0.879967212677002,0.47129327058792114,0.7642691135406494,0.42000001668930054,-1.3800537586212158,3.0000009536743164,-0.19596365094184875,-3.000000238418579,0.007737959735095501,0.006138313561677933,0.004427677020430565,0.0026011778973042965,0.1256924569606781,0.06255945563316345,-0.0026147051248699427,-0.06989441812038422
0.08333333333333333,0.033719949424266815,0.035749372094869614,0.0,0.9999321699142456,0.0,0.0,-0.011648058891296387,0.19122646749019623,0.8527494072914124,0.0,0.0,0.0,0.5435382127761841,-0.4277038872241974,0.7492974996566772,0.4200000464916229,1.0,3.6972376165067544e-06,-2.188903863498126e-06,-2.6322030066694424e-07,0.00026389601407572627,0.0002658639568835497,-0.00010434049181640148,-0.0017081866972148418,0.004150202497839928,-0.00012991315452381968,-0.12794597446918488,0.13446268439292908,1.2806533575057983,-2.1646909713745117,2.4479596614837646,-1.2638570070266724,0.47129327058792114,0.7642691135406494,0.42000001668930054,-1.3300268650054932,3.0000014305114746,-0.18037769198417664,3.000000476837158,0.004036272875964642,0.001745924586430192,-0.0007064997334964573,-0.003329973202198744,-0.32360196113586426,-0.36834704875946045,-0.4156479835510254,-0.4657879173755646
0.1,0.04363730549812317,0.04918433725833893,0.0,0.9995619654655457,0.0,0.0,-0.029595788568258286,0.6834782958030701,0.8301297426223755,0.0,0.0,0.0,-3.034055233001709,-0.4277038872241974,0.7492974996566772,0.4200000464916229,0.9999999403953552,3.6203459785610903e-06,-2.2651347535429522e-06,1.7462500068177178e-07,0.000266767485300079,0.0002674072457011789,-0.0001040799543261528,-0.0017386269755661488,0.0042091254144907,-0.0001277512201340869,-0.1588626354932785,0.1791325807571411,1.262324333190918,-1.648300290107727,2.891709327697754,-1.0805518627166748,0.47129327058792114,0.7642691135406494,0.42000001668930054,-1.2800291776657104,3.0000007152557373,-0.21198256313800812,-2.9999992847442627,0.004401782993227243,0.00030087115010246634,-0.0039504594169557095,-0.008361331187188625,-0.004423883743584156,-0.12473005801439285,-0.24399609863758087,-0.362120658159256
0.11666666666666667,0.05146001651883125,0.0653790682554245,0.0,0.9971670508384705,0.0,0.0,-0.07521882653236389,0.46038317680358887,1.030664086341858,0.0,0.0,0.0,-6.148166656494141,-0.4277038872241974,0.7492974996566772,0.4200000464916229,1.0,3.7984141272318084e-06,-2.2627370981354034e-06,-1.5020638954865717e-07,0.00026374036679044366,0.0002656599972397089,-0.00010428996756672859,-0.0017054114723578095,0.004147567320615053,-0.00012979685561731458,-0.18614761531352997,0.23105204105377197,1.2435886859893799,-1.63228440284729,3.305835247039795,-1.148768424987793,0.47129327058792114,0.7642691135406494,0.42000001668930054,-1.230055809020996,2.9823451042175293,-0.1781378835439682,2.9999983310699463,0.0025054817087948322,-0.003526710905134678,-0.00967868510633707,-0.015957949683070183,-0.07625637203454971,-0.19840475916862488,-0.31746047735214233,-0.4332398474216461
0.13333333333333333,0.05623742192983627,0.0832102969288826,0.0,0.9950241446495056,0.0,0.0,-0.09963417053222656,0.2031804621219635,1.123689889907837,0.0,0.0,0.0,-1.8240126371383667,-0.4277038872241974,0.749297559261322,0.4200000464916229,0.9999999403953552,3.550497694959631e-06,-2.2297181203612126e-06,2.9291419423316256e-07,0.0002670333778951317,0.00026779333711601794,-0.00010416889563202858,-0.0017439303919672966,0.004213552922010422,-0.0001280046853935346,-0.21994853019714355,0.28150951862335205,1.2233619689941406,-2.125074863433838,3.075547695159912,-1.287784218788147,0.47129327058792114,0.7642691135406494,0.42000001668930054,-1.192021131515503,1.6676900386810303,-0.2097168117761612,-2.9999990463256836,0.0002491680206730962,-0.007715251762419939,-0.015732556581497192,-0.023806346580386162,-0.2045968621969223,-0.3088636100292206,-0.40897032618522644,-0.5046941041946411
0.15,0.06444942951202393,0.09876056760549545,0.0,0.9906540513038635,0.0,0.0,-0.136398583650589,0.5401848554611206,0.8465089201927185,0.0,0.0,0.0,-5.160900115966797,-0.427703857421875,0.7492974996566772,0.4200000464916229,1.0,3.332216692797374e-06,-2.1019013729528524e-06,1.313122055535132e-07,0.0002673068374861032,0.00026859444915317,-0.00010459451004862785,-0.0017497956287115812,0.004215684719383717,-0.00012927704665344208,-0.2540908455848694,0.3385840952396393,1.1980071067810059,-1.962867259979248,3.7756409645080566,-1.7889783382415771,0.47129327058792114,0.7642691135406494,0.42000001668930054,-1.146064043045044,2.999999761581421,-0.24264679849147797,-1.0874531269073486,-0.002667101100087166,-0.012235128320753574,-0.021790433675050735,-0.031332775950431824,-0.3208833634853363,-0.38878530263900757,-0.4540291726589203,-0.5164201259613037
0.16666666666666666,0.06791594624519348,0.11559479683637619,0.0,0.9837474822998047,0.0,0.0,-0.1795574426651001,0.21141037344932556,1.0241105556488037,0.0,0.0,0.0,-5.021249294281006,-0.4277038872241974,0.7492974996566772,0.4200000464916229,1.0,3.7372994938777993e-06,-2.233063014500658e-06,-1.8764163201012707e-07,0.00026432870072312653,0.0002662685001268983,-0.00010446133092045784,-0.0017119026742875576,0.004157518967986107,-0.00013001746265217662,-0.2887476086616516,0.39972829818725586,1.162923812866211,-1.978882074356079,3.900693416595459,-2.316314220428467,0.47129327058792114,0.7642691135406494,0.42000001668930054,-1.1085492372512817,1.5909956693649292,-0.2909318506717682,-3.000000238418579,-0.013840439729392529,-0.023779671639204025,-0.03368591144680977,-0.04356362298130989,-0.6152903437614441,-0.6454116702079773,-0.6728537082672119,-0.6977341175079346
0.18333333333333332,0.06934954971075058,0.1307632029056549,0.0,0.9804271459579468,0.0,0.0,-0.19688214361667633,0.0433233417570591,0.8167010545730591,0.0,0.0,0.0,-0.9475723505020142,-0.4277038872241974,0.749297559261322,0.4200000464916229,0.9999999403953552,3.6603269109036773e-06,-2.3022055302135414e-06,2.5285271476604976e-07,0.00026690986123867333,0.0002676024450920522,-0.00010412652045488358,-0.0017412863671779633,0.004211564548313618,-0.0001278719719266519,-0.32611849904060364,0.4623970687389374,1.1166660785675049,-2.143122434616089,3.9092953205108643,-3.205132007598877,0.47129327058792114,0.7642691135406494,0.42000001668930054,-1.063572645187378,2.9999990463256836,-0.34095922112464905,-3.000000238418579,-0.024843033403158188,-0.03487730771303177,-0.04483349621295929,-0.054722752422094345,-0.6842061877250671,-0.6704776287078857,-0.6545401811599731,-0.6369379758834839
0.2,0.07463743537664413,0.14576967060565948,0.0,0.9738305807113647,0.0,0.0,-0.22727514803409576,0.2989932596683502,0.9110172986984253,0.0,0.0,0.0,-4.5845866203308105,-0.4277038872241974,0.7492974996566772,0.4200000464916229,1.0,3.59091814061685e-06,-2.3004013200988993e-06,1.3872175941287423e-07,0.00026654574321582913,0.000267320079728961,-0.0001042394433170557,-0.0017326025990769267,0.004203422926366329,-0.0001282018783967942,-0.3597975969314575,0.5293944478034973,1.058983564376831,-1.8489346504211426,4.04871940612793,-3.7631325721740723,0.47129327058792114,0.7642691135406494,0.42000001668930054,-1.013569712638855,2.99983811378479,-0.3909846842288971,-3.0,-0.034917596727609634,-0.04482461139559746,-0.0546148307621479,-0.06430847942829132,-0.8398625254631042,-0.7932823300361633,-0.7470808029174805,-0.7019559741020203
0.21666666666666667,0.07621043920516968,0.15783874690532684,0.0,0.9704702496528625,0.0,0.0,-0.24122078716754913,0.054840851575136185,0.6513144373893738,0.0,0.0,0.0,-0.4994643032550812,-0.4277038872241974,0.749297559261322,0.4200000464916229,1.0,3.607027110774652e-06,-2.2609576717513846e-06,1.960636986098052e-08,0.0002644723863340914,0.00026558543322607875,-0.00010396563448011875,-0.001708892290480435,0.004164312966167927,-0.0001283241290366277,-0.39168667793273926,0.5912514925003052,0.9874130487442017,-1.7040655612945557,3.6178367137908936,-4.719825744628906,0.47129327058792114,0.7642691135406494,0.42000001668930054,-0.9635654091835022,2.9999992847442627,-0.44101014733314514,-3.0,-0.05070533975958824,-0.060460224747657776,-0.0687110498547554,-0.07692781090736389,-0.9742666482925415,-0.9580092430114746,-0.8531441688537598,-0.7520222067832947
0.23333333333333334,0.07378136366605759,0.17124077677726746,0.0,0.9638013243675232,0.0,0.0,-0.2666214406490326,-0.2031988501548767,0.8126792311668396,0.0,0.0,0.0,-4.002172946929932,-0.427703857421875,0.7492974996566772,0.4200000464916229,0.9999999403953552,3.7423217236209894e-06,-2.2274525690590963e-06,4.588922308812471e-07,0.0002647516375873238,0.00026671364321373403,-0.0001045342069119215,-0.0017189101781696081,0.004165767692029476,-0.00013019373000133783,-0.417612761259079,0.6490169763565063,0.9020588397979736,-1.3744549751281738,3.298312187194824,-5.377438545227051,0.47129327058792114,0.7642691135406494,0.42000001668930054,-0.9135564565658569,2.9999992847442627,-0.49103835225105286,-2.999999761581421,-0.06666271388530731,-0.07646819949150085,-0.08477857708930969,-0.09294227510690689,-0.972339391708374,-0.9679269790649414,-0.9653342366218567,-0.9609953761100769
0.25,0.07622291147708893,0.17991399765014648,0.0,0.9609271287918091,0.0,0.0,-0.27680155634880066,0.1466708481311798,0.4255823791027069,0.0,0.0,0.0,-0.05286937952041626,-0.4277038872241974,0.7492974996566772,0.4200000464916229,1.0,3.39448661179631e-06,-2.2819845071353484e-06,1.3360543960061477e-07,0.00026679469738155603,0.0002679398749023676,-0.0001043959055095911,-0.0017417483031749725,0.004206670913845301,-0.0001288425992242992,-0.44111478328704834,0.6956905126571655,0.8079259395599365,-1.1756850481033325,2.3494863510131836,-5.959353446960449,0.47129327058792114,0.7642691135406494,0.42000001668930054,-0.8635464310646057,2.9999794960021973,-0.5410680770874023,-2.9999988079071045,-0.08084478229284286,-0.0901578739285469,-0.09801070392131805,-0.10569576174020767,-0.9805337190628052,-0.9819610118865967,-0.9466317296028137,-0.8644949197769165
0.26666666666666666,0.07356682419776917,0.18500347435474396,0.0,0.9544204473495483,0.0,0.0,-0.2984653413295746,-0.2676844596862793,0.2639753818511963,0.0,0.0,0.0,-3.6102230548858643,-0.4277038872241974,0.749297559261322,0.4200000464916229,1.0,3.683507657115115e-06,-2.3100117232388584e-06,2.1007953421303682e-07,0.0002647930814418942,0.0002662573242560029,-0.00010421173647046089,-0.0017168023623526096,0.004168960731476545,-0.00012909334327559918,-0.4552515149116516,0.726664662361145,0.7030599117279053,-0.465840220451355,1.3868837356567383,-6.4109086990356445,0.47129327058792114,0.7642691135406494,0.42000001668930054,-0.813537061214447,3.0000009536743164,-0.5910978317260742,-3.0000009536743164,-0.09805582463741302,-0.10718760639429092,-0.11490926146507263,-0.12249753624200821,-0.9964958429336548,-0.9969601035118103,-0.9973490834236145,-0.9976790547370911
0.2833333333333333,0.07458271831274033,0.186459481716156,0.0,0.9530712366104126,0.0,0.0,-0.30274608731269836,0.1603219360113144,0.020883945748209953,0.0,0.0,0.0,0.3851371705532074,-0.4277038872241974,0.7492974996566772,0.4200000464916229,1.0,3.307009365016711e-06,-2.2123917915450875e-06,2.6254483032062126e-07,0.00026660889852792025,0.00026745148352347314,-0.00010424572974443436,-0.0017353077419102192,0.004204495809972286,-0.0001282844168599695,-0.46069616079330444,0.7429679036140442,0.596703052520752,-0.05395052954554558,0.592821478843689,-6.346766471862793,0.47129327058792114,0.7642691135406494,0.42000001668930054,-0.7635282278060913,2.9999969005584717,-0.6411275863647461,-2.9999992847442627,-0.11400467902421951,-0.12308206409215927,-0.13075467944145203,-0.13833700120449066,-0.9773949980735779,-0.9707817435264587,-0.9651063084602356,-0.959255039691925
0.3,0.07241625338792801,0.1854911595582962,0.0,0.9473792910575867,0.0,0.0,-0.32011327147483826,-0.23499181866645813,-0.0917985737323761,0.0,0.0,0.0,-3.0705506801605225,-0.4277038872241974,0.7492974996566772,0.4200000464916229,1.0,3.6413346151675796e-06,-2.3777658952894853e-06,-4.194106395516428e-07,0.0002661141334101558,0.00026725803036242723,-0.00010423245839774609,-0.0017334752483293414,0.0041945013217628,-0.00012854678789153695,-0.4543672502040863,0.7490944266319275,0.4937645196914673,0.8549188375473022,0.18226899206638336,-5.81870174407959,0.47129327058792114,0.7642691135406494,0.42000001668930054,-0.7135195136070251,3.0000014305114746,-0.6911553740501404,-2.999999523162842,-0.1320943832397461,-0.1408362090587616,-0.14825521409511566,-0.15563756227493286,-1.0163761377334595,-1.0123555660247803,-1.0092878341674805,-1.0068352222442627
0.31666666666666665,0.06558763235807419,0.1829625964164734,0.0,0.9472408294677734,0.0,0.0,-0.320522665977478,-0.2875634729862213,-0.24792397022247314,0.0,0.0,0.0,0.846266508102417,-0.4277038872241974,0.749297559261322,0.4200000464916229,1.0,3.6219364574208157e-06,-2.288903033331735e-06,1.9688533825501509e-07,0.00026734021957963705,0.00026802706997841597,-0.00010420568287372589,-0.0017466004937887192,0.004219025373458862,-0.00012794003123417497,-0.4366286098957062,0.7480899095535278,0.4038327932357788,1.2987746000289917,-0.10802809149026871,-5.170815944671631,0.47129327058792114,0.7642691135406494,0.42000001668930054,-0.663512647151947,2.9999947547912598,-0.7411811947822571,-2.9999990463256836,-0.14923688769340515,-0.15785294771194458,-0.16519828140735626,-0.17253375053405762,-0.6854466795921326,-0.7553510665893555,-0.8205646872520447,-0.8782979249954224
0.3333333333333333,0.05876710265874863,0.17737318575382233,0.0,0.942704439163208,0.0,0.0,-0.33362898230552673,-0.4693621098995209,-0.38216841220855713,0.0,0.0,0.0,-2.4135091304779053,-0.4279402792453766,0.7488479614257812,0.42089617252349854,0.9990944266319275,0.009881039150059223,0.012444742023944855,-0.03946861997246742,0.04543694853782654,0.14026851952075958,0.09620463103055954,1.552273154258728,3.321774959564209,-6.1972336769104,-0.4389307498931885,0.7513597011566162,0.4276031255722046,-0.0866381824016571,0.25453492999076843,-0.10494867712259293,0.47129327058792114,0.7642691135406494,0.42000001668930054,-0.6136316061019897,2.9997079372406006,-0.7916964292526245,-2.9839367866516113,-0.14539216458797455,-0.15685884654521942,-0.16633881628513336,-0.17494329810142517,0.020651280879974365,-0.10445213317871094,-0.19925007224082947,-0.25393104553222656
0.35,0.049439895898103714,0.16943560540676117,0.0,0.9439572691917419,0.0,0.0,-0.33006763458251953,-0.6006895303726196,-0.5140020847320557,0.0,0.0,0.0,1.3916599750518799,-0.42593222856521606,0.7525038123130798,0.42128437757492065,0.9947352409362793,0.018218452110886574,0.01470858696848154,-0.09976747632026672,0.25888052582740784,0.3650674521923065,0.04080919921398163,2.925915479660034,-1.4141607284545898,-10.301260948181152,-0.43683308362960815,0.757789671421051,0.4256420433521271,0.27627071738243103,0.47797417640686035,-0.11005860567092896,0.47129327058792114,0.7642691135406494,0.42000001668930054,-0.5636265277862549,2.999990224838257,-0.841724693775177,-3.000000238418579,-0.14813607931137085,-0.16038396954536438,-0.17021968960762024,-0.17859114706516266,-0.26520681381225586,-0.256615549325943,-0.2273988574743271,-0.1674194633960724
0.36666666666666664,0.03787367418408394,0.1592501401901245,0.0,0.9401119947433472,0.0,0.0,-0.3408656418323517,-0.7407565712928772,-0.6502188444137573,0.0,0.0,0.0,-2.2953999042510986,-0.42082545161247253,0.7594121098518372,0.4209479093551636,0.9800196886062622,0.024065153673291206,-0.004708826541900635,-0.19738289713859558,0.38216453790664673,0.4971622824668884,0.002769053215160966,0.25406789779663086,-0.1428210437297821,-15.395384788513184,-0.4301398992538452,0.7666407823562622,0.4242510199546814,0.5752349495887756,0.6488600969314575,-0.07287528365850449,0.47129327058792114,0.7642691135406494,0.42000001668930054,-0.5136216878890991,3.0000009536743164,-0.8917694687843323,-2.9999496936798096,-0.15362104773521423,-0.16511501371860504,-0.1738680750131607,-0.1806563436985016,-0.36491867899894714,-0.28487762808799744,-0.1885906606912613,-0.06573893874883652
0.3833333333333333,0.028803160414099693,0.14629852771759033,0.0,0.9262838363647461,0.0,0.0,-0.37682658433914185,-0.4713048040866852,-0.8302246332168579,0.0,0.0,0.0,-5.434507846832275,-0.40935537219047546,0.7744549512863159,0.4215185344219208,0.9764195084571838,0.023138418793678284,-0.014698120765388012,-0.21413390338420868,0.91922527551651,1.1270439624786377,0.11855758726596832,1.0366188287734985,-2.5759785175323486,-4.1025800704956055,-0.4185423254966736,0.78009432554245,0.4239703416824341,0.9368848204612732,1.0690174102783203,0.032482825219631195,0.47129327058792114,0.7642691135406494,0.42000001668930054,-0.46361759305000305,2.999988555908203,-0.9418160319328308,-2.9999887943267822,-0.1601496785879135,-0.16973651945590973,-0.1762959510087967,-0.18044014275074005,-0.3928864896297455,-0.2510608434677124,-0.09344061464071274,0.08934149891138077
0.4,0.023727256804704666,0.13022764027118683,0.0,0.9000701308250427,0.0,0.0,-0.4357450306415558,-0.23465484380722046,-1.018240213394165,0.0,0.0,0.0,-8.546829223632812,-0.38259220123291016,0.8013215065002441,0.4247344136238098,0.964537501335144,0.028012581169605255,-0.03884195536375046,-0.2595650851726532,2.669677972793579,2.0216856002807617,0.3699106276035309,18.208351135253906,-10.483583450317383,4.577081203460693,-0.39201077818870544,0.8070105314254761,0.42623525857925415,2.3695030212402344,2.1494181156158447,0.3488568663597107,0.47129327058792114,0.7642691135406494,0.42000001668930054,-0.41397759318351746,2.7328479290008545,-0.9918442368507385,-3.0000014305114746,-0.16857801377773285,-0.17505455017089844,-0.1783023625612259,-0.1788051724433899,-0.5964653491973877,-0.36629101634025574,-0.12944133579730988,0.12019824981689453
0.4166666666666667,0.020721957087516785,0.11896636337041855,0.0,0.8584444522857666,0.0,0.0,-0.512906551361084,-0.14465831220149994,-0.553008496761322,0.0,0.0,0.0,-11.275163650512695,-0.31975996494293213,0.8423860669136047,0.4318348169326782,0.9433736801147461,0.08423175662755966,-0.07111923396587372,-0.31287881731987,5.24580192565918,2.802204132080078,0.6168103218078613,6.770034313201904,-8.048012733459473,4.134093284606934,-0.32849541306495667,0.8494751453399658,0.43335503339767456,4.895788192749023,2.9729080200195312,0.6265004277229309,0.47129327058792114,0.7642691135406494,0.42000001668930054,-0.3820284307003021,1.4591530561447144,-0.9542414546012878,2.9997241497039795,-0.18441663682460785,-0.187416210770607,-0.18514825403690338,-0.18028360605239868,-0.9512269496917725,-0.8538416624069214,-0.5098462104797363,-0.18580885231494904
0.43333333333333335,0.013638678006827831,0.11517509818077087,0.0,0.7972092628479004,0.0,0.0,-0.6037030816078186,-0.5411648750305176,-0.241150364279747,0.0,0.0,0.0,-13.748969078063965,-0.21897800266742706,0.8866191506385803,0.44475439190864563,0.9125375151634216,0.11920922994613647,-0.08447057753801346,-0.38200658559799194,7.309000492095947,2.2185475826263428,0.9198920726776123,6.233721733093262,-10.681137084960938,15.842487335205078,-0.22595840692520142,0.8957614302635193,0.44692593812942505,7.066985130310059,2.746840000152588,0.903935432434082,0.47129327058792114,0.7642691135406494,0.42000001668930054,-0.36440929770469666,0.7751439809799194,-0.9796799421310425,-3.000000476837158,-0.19910305738449097,-0.2023468017578125,-0.1993057131767273,-0.18959486484527588,-0.6341636776924133,-0.6923147439956665,-0.7535973787307739,-0.6177197694778442
0.45,0.010222350247204304,0.10459107905626297,0.0,0.7416830062866211,0.0,0.0,-0.6707505583763123,-0.07305178791284561,-0.7962035536766052,0.0,0.0,0.0,-9.426005363464355,-0.09881071001291275,0.9189403653144836,0.4577981233596802,0.8648949265480042,0.14800316095352173,-0.10078655928373337,-0.46892836689949036,7.213335990905762,0.662467896938324,0.5867929458618164,19.380895614624023,-4.6165618896484375,47.658973693847656,-0.10545434057712555,0.9314371347427368,0.45989736914634705,7.571706771850586,1.5122554302215576,0.7687010765075684,0.47129327058792114,0.7642691135406494,0.42000001668930054,-0.3507460653781891,0.7707921266555786,-0.9638535380363464,2.994725227355957,-0.20841534435749054,-0.21053548157215118,-0.20671002566814423,-0.19393150508403778,-0.5068914890289307,-0.37437787652015686,-0.27112826704978943,-0.07203643769025803
0.4666666666666667,0.006860679015517235,0.09622649848461151,0.0,0.7074079513549805,0.0,0.0,-0.7068054676055908,-0.2774590253829956,-0.41408902406692505,0.0,0.0,0.0,-4.580602169036865,0.023749753832817078,0.9314485788345337,0.46937525272369385,0.7799590229988098,0.1780511885881424,-0.09588932245969772,-0.5922558307647705,6.936324596405029,-0.7106144428253174,0.6888178586959839,-9.828567504882812,10.983771324157715,9.245698928833008,0.016483983024954796,0.9460938572883606,0.47090575098991394,7.330623626708984,0.2606186866760254,0.6819059252738953,0.47129327058792114,0.7642691135406494,0.42000001668930054,-0.3377758264541626,0.6266846060752869,-0.9884928464889526,-2.9977893829345703,-0.2212473601102829,-0.22173836827278137,-0.21446000039577484,-0.1975019872188568,-0.7085639238357544,-0.7176275253295898,-0.4906865656375885,-0.25462156534194946
0.48333333333333334,0.005155656486749649,0.09304416179656982,0.0,0.7001068592071533,0.0,0.0,-0.714038074016571,-0.027570951730012894,-0.082147017121315,0.0,0.0,0.0,-0.18053805828094482,0.13065505027770996,0.9240020513534546,0.475517213344574,0.7039971351623535,0.16566915810108185,-0.08188749849796295,-0.6857376098632812,5.794966697692871,-1.285723090171814,0.1606658548116684,-3.96785306930542,-11.435567855834961,-1.4465473890304565,0.1260666847229004,0.9409234523773193,0.47749119997024536,5.791874408721924,-0.9129836559295654,0.23991209268569946,0.47129327058792114,0.7642691135406494,0.42000001668930054,-0.3292078673839569,0.3958776593208313,-1.0385175943374634,-3.0000033378601074,-0.23474113643169403,-0.2338172197341919,-0.2219659686088562,-0.2005990892648697,-0.7531010508537292,-0.6215154528617859,-0.3412345349788666,-0.08420632034540176
0.5,0.006932162679731846,0.08741332590579987,0.0,0.6840801239013672,0.0,0.0,-0.7294068932533264,0.1614333689212799,-0.3665856122970581,0.0,0.0,0.0,-3.4640755653381348,0.2173616737127304,0.9053099751472473,0.4737652838230133,0.6560753583908081,0.13959971070289612,-0.08382338285446167,-0.7369195818901062,4.234316825866699,-2.6553125381469727,-0.4554769694805145,-25.037601470947266,-10.92821979522705,33.625274658203125,0.21540233492851257,0.9215618371963501,0.4762480854988098,5.125422477722168,-1.6849491596221924,-0.17122502624988556,0.47129327058792114,0.7642691135406494,0.42000001668930054,-0.326699823141098,-0.17825472354888916,-1.088539719581604,-3.000001907348633,-0.24001672863960266,-0.24000830948352814,-0.22517892718315125,-0.2001989334821701,-0.04291864112019539,-0.03601675480604172,-0.27095964550971985,-0.04655588045716286
0.5166666666666666,0.011462588794529438,0.08559361845254898,0.0,0.6807109713554382,0.0,0.0,-0.7325521111488342,0.29244551062583923,-0.08095048367977142,0.0,0.0,0.0,0.34102460741996765,0.2924552261829376,0.8724253177642822,0.4654437005519867,0.5614076256752014,0.07400882244110107,-0.10029248893260956,-0.8180986642837524,3.901036500930786,-2.4308090209960938,-0.4414564371109009,-3.3950634002685547,7.679677486419678,2.520726442337036,0.2898285388946533,0.8893983364105225,0.4694231152534485,4.102758407592773,-2.095853328704834,-0.5875142216682434,0.47129327058792114,0.7642691135406494,0.42000001668930054,-0.3291955292224884,-0.026765184476971626,-1.1385618448257446,-2.999932289123535,-0.23980268836021423,-0.23976820707321167,-0.2301243245601654,-0.20223335921764374,0.051454897969961166,0.06734433025121689,-0.12298982590436935,-0.035712212324142456
0.5333333333333333,0.01819191314280033,0.08070604503154755,0.0,0.6668363213539124,0.0,0.0,-0.7452042102813721,0.4126366376876831,-0.39494588971138,0.0,0.0,0.0,-3.119920015335083,0.3535860478878021,0.8417332768440247,0.4517343044281006,0.5170168876647949,0.041969798505306244,-0.09746602922677994,-0.8493717908859253,3.2477710247039795,-1.8359266519546509,-0.9535199403762817,-0.12356632947921753,1.24251389503479,-4.803499698638916,0.351818710565567,0.8578879833221436,0.45619791746139526,3.302105665206909,-1.8709192276000977,-0.9264911413192749,0.47129327058792114,0.7642691135406494,0.42000001668930054,-0.3204381465911865,1.0103063583374023,-1.1885839700698853,-3.0000014305114746,-0.23521915078163147,-0.2353401929140091,-0.22903195023536682,-0.20125137269496918,0.3440350294113159,0.34248068928718567,0.16168899834156036,0.09644543379545212
0.55,0.02719934470951557,0.07827633619308472,0.0,0.6657795310020447,0.0,0.0,-0.7461485266685486,0.5676161646842957,-0.08681182563304901,0.0,0.0,0.0,0.7445789575576782,0.4010540246963501,0.810447633266449,0.43478018045425415,0.4780811369419098,0.007798969279974699,-0.08361778408288956,-0.8742915391921997,2.3501720428466797,-2.479889392852783,-0.7785963416099548,-11.490644454956055,4.2783589363098145,11.32113265991211,0.40070366859436035,0.8255400657653809,0.43951618671417236,2.5421719551086426,-1.873079776763916,-1.0839755535125732,0.47129327058792114,0.7642691135406494,0.42000001668930054,-0.30063772201538086,1.0403456687927246,-1.2386060953140259,-3.0000014305114746,-0.2317793369293213,-0.23147885501384735,-0.22749528288841248,-0.20129327476024628,0.24868832528591156,0.261347234249115,0.1257980763912201,-0.020903879776597023
0.5666666666666667,0.03774481639266014,0.0792495459318161,0.0,0.6541063189506531,0.0,0.0,-0.7564026117324829,0.6745169758796692,0.13696318864822388,0.0,0.0,0.0,-2.792752265930176,0.43564078211784363,0.7889489531517029,0.42030301690101624,0.45729029178619385,-0.0030657874885946512,0.003564580576494336,-0.889305055141449,1.2360836267471313,-0.9346113801002502,0.01645083725452423,-3.613415002822876,-0.30305182933807373,7.600078582763672,0.43600887060165405,0.80223548412323,0.4244037866592407,1.2582201957702637,-0.6429672241210938,0.2717200517654419,0.47129327058792114,0.7642691135406494,0.42000001668930054,-0.2897563576698303,0.3004114031791687,-1.288629412651062,-2.988872528076172,-0.22502027451992035,-0.2256624549627304,-0.2246060073375702,-0.2020868957042694,0.5311040282249451,0.4338317811489105,0.2446514517068863,-0.01735244318842888
0.5833333333333334,0.04540891945362091,0.07611311227083206,0.0,0.6543863415718079,0.0,0.0,-0.7561603784561157,0.4112873673439026,-0.2197956144809723,0.0,0.0,0.0,0.9254778623580933,0.4539216160774231,0.777761697769165,0.4212913513183594,0.4574217200279236,-0.015426695346832275,0.029724612832069397,-0.888619065284729,0.755473792552948,-0.8130567669868469,0.06866394728422165,2.318697214126587,2.86562180519104,2.122687816619873,0.4529237747192383,0.7901222705841064,0.42596563696861267,0.7175981998443604,-0.8078761100769043,0.03418833017349243,0.47129327058792114,0.7642691135406494,0.42000001668930054,-0.2952394485473633,-0.4750078022480011,-1.3386400938034058,-3.0000016689300537,-0.21369417011737823,-0.21572960913181305,-0.21737757325172424,-0.19936402142047882,0.5400756597518921,0.5103189945220947,0.4110136926174164,0.17067454755306244
0.6,0.05473736301064491,0.0776267871260643,0.0,0.643177330493927,0.0,0.0,-0.7657172679901123,0.5290657877922058,0.1366914063692093,0.0,0.0,0.0,-2.6667118072509766,0.46315300464630127,0.7675821185112,0.4210788607597351,0.45645925402641296,-0.015151272527873516,0.015069352462887764,-0.889487624168396,0.4674295485019684,-0.43892574310302734,-0.035978764295578,-4.702597141265869,-2.3963587284088135,-4.296182632446289,0.46098726987838745,0.7818797826766968,0.4241969883441925,0.3375212848186493,-0.1763264685869217,-0.04853305220603943,0.47129327058792114,0.7642691135406494,0.42000001668930054,-0.29771408438682556,0.12843424081802368,-1.3015825748443604,2.999887704849243,-0.2063313126564026,-0.20890197157859802,-0.21198473870754242,-0.19803079962730408,0.6000457406044006,0.5233672857284546,0.4104354679584503,0.1337953805923462
0.6166666666666667,0.06533031910657883,0.07537518441677094,0.0,0.6443062424659729,0.0,0.0,-0.764767587184906,0.6616386771202087,-0.14419138431549072,0.0,0.0,0.0,1.069952368736267,0.4672129452228546,0.7644031643867493,0.42010387778282166,0.5146721601486206,0.0012928463984280825,-0.001867674640379846,-0.8573839664459229,0.0997265875339508,-0.25910401344299316,-0.014988450333476067,-0.8841648101806641,0.07255173474550247,2.4690940380096436,0.46366894245147705,0.7786190509796143,0.4260110855102539,-0.0455721914768219,-0.19616533815860748,0.18528082966804504,0.47129327058792114,0.7642691135406494,0.42000001668930054,-0.3352455198764801,-2.9999959468841553,-1.3210800886154175,-2.999040365219116,-0.19567355513572693,-0.19937069714069366,-0.20401979982852936,-0.19451020658016205,0.46697938442230225,0.4434219002723694,0.3988797068595886,0.17178738117218018
0.6333333333333333,0.07349830865859985,0.07572400569915771,0.0,0.6499379873275757,0.0,0.0,-0.7599872350692749,0.3918985426425934,0.062396563589572906,0.0,0.0,0.0,0.8024719953536987,0.46803903579711914,0.7615622878074646,0.4200122356414795,0.5229785442352295,0.000160176248755306,-0.0002711459237616509,-0.8523457646369934,-0.0473366342484951,-0.05141553655266762,0.01495211012661457,-0.33810028433799744,-0.6644096970558167,0.5195370316505432,0.4634673595428467,0.7775797247886658,0.4291878342628479,-0.07517769187688828,0.08499815315008163,0.20273222029209137,0.47129327058792114,0.7642691135406494,0.42000001668930054,-0.38521069288253784,-2.9938864707946777,-1.3710367679595947,-2.9987587928771973,-0.18833225965499878,-0.19247858226299286,-0.19771099090576172,-0.19174018502235413,0.48712533712387085,0.4504902958869934,0.4150259792804718,0.20768862962722778
0.65,0.08134672790765762,0.0741804912686348,0.0,0.654508650302887,0.0,0.0,-0.7560544610023499,0.4938015937805176,-0.1677320897579193,0.0,0.0,0.0,0.6908197402954102,0.4676179587841034,0.7613304853439331,0.4200262129306793,0.5223246216773987,0.0003526466607581824,-0.0005617889109998941,-0.8527463674545288,-0.04157089442014694,0.0105665922164917,0.010685499757528305,-0.24082912504673004,-0.47746849060058594,-0.263018399477005,0.4626694321632385,0.7797026634216309,0.4324227571487427,-0.06142172962427139,0.1472451239824295,0.20029693841934204,0.47129327058792114,0.7642691135406494,0.42000001668930054,-0.4352242052555084,-2.999955415725708,-1.4210141897201538,-2.9996302127838135,-0.18055321276187897,-0.18519294261932373,-0.19081851840019226,-0.18801268935203552,0.44328591227531433,0.4222530126571655,0.4100068509578705,0.23704974353313446
0.6666666666666666,0.09146933257579803,0.07484693825244904,0.0,0.6723344922065735,0.0,0.0,-0.7402474880218506,0.6442374587059021,0.08043751865625381,0.0,0.0,0.0,4.066898345947266,0.4667870104312897,0.7614481449127197,0.41999998688697815,0.5118594169616699,-5.888141458854079e-06,-6.6233769757673144e-06,-0.8590691685676575,-0.05764703080058098,0.0030840649269521236,-0.0001510651782155037,0.00980475451797247,-0.002563383197411895,-2.170224905014038,0.46125054359436035,0.780537486076355,0.4359988570213318,-0.09036646783351898,0.004921630024909973,0.24367868900299072,0.47129327058792114,0.7642691135406494,0.42000001668930054,-0.4852333664894104,-2.9999759197235107,-1.4710224866867065,-2.999903917312622,-0.1758381426334381,-0.1803191602230072,-0.18549907207489014,-0.18469104170799255,0.2714395821094513,0.2879366874694824,0.3283388316631317,0.23645378649234772
0.6833333333333333,0.10344423353672028,0.07221370935440063,0.0,0.6794416904449463,0.0,0.0,-0.7337295413017273,0.7431427836418152,-0.1787845343351364,0.0,0.0,0.0,0.12053296715021133,0.4662424623966217,0.7614224553108215,0.41999930143356323,0.5052594542503357,7.859408651711419e-05,2.9002198061789386e-05,-0.8629674315452576,0.011157520115375519,-0.005777982994914055,-0.0022737612016499043,-0.04379323869943619,0.1177610456943512,-0.3922837972640991,0.4616234004497528,0.7828139066696167,0.44085758924484253,0.045545849949121475,0.04328633099794388,0.30835384130477905,0.47129327058792114,0.7642691135406494,0.42000001668930054,-0.5352388024330139,-2.9999356269836426,-1.5210264921188354,-2.9998855590820312,-0.17039534449577332,-0.17443576455116272,-0.17864514887332916,-0.17876532673835754,0.2019890397787094,0.2724938690662384,0.37736791372299194,0.3804916739463806
0.7,0.11693299561738968,0.06665322184562683,0.0,0.6644107699394226,0.0,0.0,-0.7473675608634949,0.8428363800048828,-0.4033762216567993,0.0,0.0,0.0,-3.3302197456359863,0.46624448895454407,0.7614253759384155,0.42000001668930054,0.50525963306427,-2.660729478520807e-06,-4.1949724618461914e-06,-0.8629673719406128,-2.1121300960658118e-05,-0.0002348472480662167,-8.253217674791813e-05,0.004168680869042873,-0.004832638893276453,-0.0010396272409707308,0.46743687987327576,0.7860274314880371,0.4532962739467621,0.6282480955123901,0.2626398503780365,1.2686145305633545,0.47129327058792114,0.7642691135406494,0.42000001668930054,-0.585250973701477,-2.9999775886535645,-1.5710448026657104,-2.9999992847442627,-0.1692337989807129,-0.1719057559967041,-0.1741616278886795,-0.17380642890930176,-0.0024576776195317507,0.08714709430932999,0.2113088071346283,0.25834545493125916
0.7166666666666667,0.13343478739261627,0.0654301866889,0.0,0.6272823810577393,0.0,0.0,-0.7787919044494629,0.9746467471122742,-0.04349176958203316,0.0,0.0,0.0,-6.698049068450928,0.46624457836151123,0.7614253163337708,0.41999998688697815,0.5052598118782043,-3.1371976092486875e-06,-3.4014353786915308e-06,-0.862967312335968,-8.76720150699839e-05,-0.00029013294260948896,-8.196290582418442e-05,0.00805372092872858,-0.0035736896097660065,-0.0007355278357863426,0.4874071776866913,0.78615802526474,0.48008406162261963,1.8014131784439087,-0.13521449267864227,2.017383098602295,0.47129327058792114,0.7642691135406494,0.42000001668930054,-0.6352616548538208,-2.9997496604919434,-1.6210602521896362,-2.9999659061431885,-0.17554453015327454,-0.1756209135055542,-0.17477479577064514,-0.1724800169467926,-0.3547777831554413,-0.20932558178901672,-0.032193683087825775,0.08851717412471771
0.7333333333333333,0.14674492180347443,0.06561795622110367,0.0,0.6047142148017883,0.0,0.0,-0.7964425086975098,0.725050151348114,0.04050789773464203,0.0,0.0,0.0,-2.379209280014038,0.4662446081638336,0.7614253163337708,0.41999998688697815,0.50525963306427,-3.156595084874425e-06,-3.4976917504536686e-06,-0.862967312335968,-8.726579835638404e-05,-0.00029157515382394195,-8.245464414358139e-05,0.008086616173386574,-0.0035863311495631933,-0.0007420664187520742,0.5172680020332336,0.7864699363708496,0.5151423811912537,1.690638542175293,0.18784219026565552,2.1759915351867676,0.47129327058792114,0.7642691135406494,0.42000001668930054,-0.6527289748191833,0.5911878943443298,-1.6710747480392456,-3.0,-0.17938661575317383,-0.177978515625,-0.17520657181739807,-0.17177912592887878,-0.11940262466669083,-0.08064522594213486,-0.02125905454158783,-0.0024612960405647755
0.75,0.15523549914360046,0.06788790225982666,0.0,0.6078805327415466,0.0,0.0,-0.7940285205841064,0.43208611011505127,0.18165545165538788,0.0,0.0,0.0,1.368794560432434,0.46624457836151123,0.7614253163337708,0.41999998688697815,0.50525963306427,-3.4727531783573795e-06,-3.5578264032665174e-06,-0.8629672527313232,-8.930371404858306e-05,-0.0002917279489338398,-8.310191333293915e-05,0.008088362403213978,-0.0035996988881379366,-0.0007393473060801625,0.5394039154052734,0.7897219061851501,0.5452619791030884,0.921297550201416,0.2231932282447815,1.5073504447937012,0.47129327058792114,0.7642691135406494,0.42000001668930054,-0.6199030876159668,2.9999806880950928,-1.6318614482879639,2.9999985694885254,-0.1798502653837204,-0.17796187102794647,-0.17442545294761658,-0.17078623175621033,0.045779552310705185,0.06760185211896896,0.10138509422540665,0.10743275284767151
0.7666666666666666,0.1595522165298462,0.06612810492515564,0.0,0.5998004674911499,0.0,0.0,-0.8001496195793152,0.21888555586338043,-0.17782461643218994,0.0,0.0,0.0,-2.158808946609497,0.46624457836151123,0.7614253163337708,0.41999998688697815,0.5052596926689148,-3.22123173646105e-06,-3.604914581956109e-06,-0.862967312335968,-8.863901894073933e-05,-0.00029039799119345844,-8.229515515267849e-05,0.008060311898589134,-0.0035872349981218576,-0.0007351536187343299,0.5470283031463623,0.7946957349777222,0.5634924173355103,-0.02541014552116394,0.3006739318370819,0.8402674794197083,0.47129327058792114,0.7642691135406494,0.42000001668930054,-0.586422860622406,1.1501628160476685,-1.5818049907684326,3.0,-0.17732147872447968,-0.17526064813137054,-0.17143391072750092,-0.16788294911384583,0.1378452181816101,0.1579192578792572,0.17866870760917664,0.1786658614873886
0.7833333333333333,0.16062816977500916,0.06936440616846085,0.0,0.604392409324646,0.0,0.0,-0.7966867685317993,0.014436286874115467,0.33255890011787415,0.0,0.0,0.0,1.5670567750930786,0.46624457836151123,0.7614253163337708,0.41999998688697815,0.5052597522735596,-3.146769131490146e-06,-3.4301863252039766e-06,-0.8629672527313232,-8.667298970976844e-05,-0.00029029903816990554,-8.157477714121342e-05,0.008062389679253101,-0.003580973017960787,-0.0007378050941042602,0.5419096946716309,0.7979590892791748,0.5745730400085449,-0.5295616388320923,0.22520194947719574,0.5307614207267761,0.47129327058792114,0.7642691135406494,0.42000001668930054,-0.5485467910766602,3.000002384185791,-1.5918930768966675,-3.0,-0.18031179904937744,-0.17686696350574493,-0.1718204915523529,-0.16746634244918823,-0.22054439783096313,-0.13831612467765808,-0.07031296193599701,-0.024779528379440308
0.8,0.15957136452198029,0.06923779845237732,0.0,0.597449004650116,0.0,0.0,-0.8019068837165833,-0.10238825529813766,-0.10535231232643127,0.0,0.0,0.0,-1.9467331171035767,0.46624457836151123,0.7614253163337708,0.41999998688697815,0.5052598118782043,-3.3575659017515136e-06,-3.492155656203977e-06,-0.862967312335968,-8.90257433638908e-05,-0.00029160306439734995,-8.300156332552433e-05,0.008085082285106182,-0.003594886977225542,-0.0007393168052658439,0.5263380408287048,0.8016520142555237,0.5759178996086121,-1.3291733264923096,0.17446501553058624,-0.1749868094921112,0.47129327058792114,0.7642691135406494,0.42000001668930054,-0.5357000231742859,-1.1127712726593018,-1.5529065132141113,2.9999990463256836,-0.18076108396053314,-0.17651423811912537,-0.17087243497371674,-0.1661575436592102,0.04933862015604973,0.08785688877105713,0.11319577693939209,0.1289186030626297
0.8166666666666667,0.1600821614265442,0.07323705404996872,0.0,0.6025533676147461,0.0,0.0,-0.7980785965919495,0.03542831540107727,0.18885323405265808,0.0,0.0,0.0,1.208005428314209,0.46624457836151123,0.7614253163337708,0.41999998688697815,0.5052596926689148,-3.1492425023316173e-06,-3.4903523555840366e-06,-0.8629673719406128,-8.644682384328917e-05,-0.0002902620180975646,-8.148257620632648e-05,0.008062001317739487,-0.003579707583412528,-0.0007380021270364523,0.5075746774673462,0.8039885759353638,0.5729407072067261,-0.7867090702056885,0.3491162657737732,-0.17898334562778473,0.47129327058792114,0.7642691135406494,0.42000001668930054,-0.5307367444038391,1.4816007614135742,-1.567936897277832,-3.0000007152557373,-0.1842423528432846,-0.17890582978725433,-0.17239806056022644,-0.16693051159381866,0.06515137106180191,0.04011721536517143,0.013195781968533993,-0.0041783698834478855
0.8333333333333334,0.1620917022228241,0.0726177990436554,0.0,0.5992674827575684,0.0,0.0,-0.8005488514900208,0.15499165654182434,-0.051413536071777344,0.0,0.0,0.0,-1.3205164670944214,0.46624457836151123,0.7614253163337708,0.41999998688697815,0.5052596926689148,-3.3363778584316606e-06,-3.5360812944418285e-06,-0.862967312335968,-8.897271618479863e-05,-0.0002915881050284952,-8.297222666442394e-05,0.008084974251687527,-0.0035946324933320284,-0.000739321403671056,0.4947613477706909,0.8087620735168457,0.5674710273742676,-0.7701905965805054,0.137851744890213,-0.34655362367630005,0.47129327058792114,0.7642691135406494,0.42000001668930054,-0.5493030548095703,-3.0000016689300537,-1.529016137123108,2.9999992847442627,-0.18157397210597992,-0.17686814069747925,-0.17096103727817535,-0.1658271849155426,0.07722029834985733,0.06478947401046753,0.05355343222618103,0.05916541814804077
0.85,0.16621673107147217,0.06971076875925064,0.0,0.607384979724884,0.0,0.0,-0.7944076061248779,0.2983541488647461,-0.2329765111207962,0.0,0.0,0.0,2.155458688735962,0.46624457836151123,0.7614253163337708,0.41999998688697815,0.5052597522735596,-3.155723561576451e-06,-3.3751450700947316e-06,-0.8629672527313232,-8.673711272422224e-05,-0.00029033530154265463,-8.160644210875034e-05,0.008063200861215591,-0.0035818759351968765,-0.0007378460140898824,0.48827874660491943,0.8098726272583008,0.5644808411598206,-0.0534142330288887,0.02915799617767334,0.02876342087984085,0.47129327058792114,0.7642691135406494,0.42000001668930054,-0.5993137359619141,-2.999997854232788,-1.5445884466171265,-3.0000007152557373,-0.1821526288986206,-0.17711491882801056,-0.1708194464445114,-0.1649746596813202,-0.0566326379776001,-0.027502799406647682,0.007808734197169542,0.06576909869909286
0.8666666666666667,0.1726575344800949,0.06419416517019272,0.0,0.6034901142120361,0.0,0.0,-0.7973704934120178,0.4238213896751404,-0.38343727588653564,0.0,0.0,0.0,-1.5102940797805786,0.46624457836151123,0.7614253163337708,0.41999998688697815,0.5052598118782043,-3.3309243008261546e-06,-3.4578522445372073e-06,-0.862967312335968,-8.91895397217013e-05,-0.00029161269776523113,-8.306349627673626e-05,0.008084911853075027,-0.0035952706821262836,-0.0007390914834104478,0.492438405752182,0.8078403472900391,0.5607775449752808,0.5545921921730042,-0.27438414096832275,-0.28624799847602844,0.47129327058792114,0.7642691135406494,0.42000001668930054,-0.6493167877197266,-2.9999918937683105,-1.5946067571640015,-3.0,-0.184168741106987,-0.17821475863456726,-0.17084823548793793,-0.1635114848613739,-0.11019288003444672,-0.040262993425130844,0.04102206230163574,0.14898918569087982
0.8833333333333333,0.18176235258579254,0.05882207676768303,0.0,0.5772486329078674,0.0,0.0,-0.8165684342384338,0.583079993724823,-0.3289349377155304,0.0,0.0,0.0,-4.761839389801025,0.46624457836151123,0.7614253163337708,0.41999998688697815,0.5052596926689148,-3.1610336463927524e-06,-3.4602915093273623e-06,-0.8629673719406128,-8.64451503730379e-05,-0.00029026000993326306,-8.148141205310822e-05,0.00806193146854639,-0.0035796489100903273,-0.0007379993912763894,0.5035013556480408,0.8010860085487366,0.5588046908378601,0.8136512041091919,-0.45522114634513855,0.17418397963047028,0.47129327058792114,0.7642691135406494,0.42000001668930054,-0.6874034404754639,-1.6555248498916626,-1.6446239948272705,-3.000000476837158,-0.18663498759269714,-0.1797647327184677,-0.1713065654039383,-0.16244909167289734,-0.059992715716362,-0.03901370242238045,-0.006947208195924759,0.05170527100563049
0.9,0.19270342588424683,0.056433290243148804,0.0,0.566781222820282,0.0,0.0,-0.8238683342933655,0.7118390798568726,-0.05635574832558632,0.0,0.0,0.0,-0.5359062552452087,0.46624457836151123,0.7614253163337708,0.41999998688697815,0.5052596926689148,-3.357080231580767e-06,-3.512014018269838e-06,-0.862967312335968,-8.897387306205928e-05,-0.00029158993856981397,-8.297269232571125e-05,0.008084964007139206,-0.0035947111900895834,-0.0007393276900984347,0.5160017013549805,0.7977400422096252,0.5635005235671997,0.6457275152206421,-0.022202713415026665,0.377230167388916,0.47129327058792114,0.7642691135406494,0.42000001668930054,-0.6844151616096497,1.7185052633285522,-1.6946384906768799,-2.999999761581421,-0.1869145780801773,-0.18041566014289856,-0.17218251526355743,-0.163146510720253,0.03800210356712341,-0.019466307014226913,-0.07219988107681274,-0.10450488328933716
