vladlanda/robotic-transformer/data/env_000_episode_0285.csv
sim_time_s,robot_box_x,robot_box_y,robot_box_z,robot_box_quat_w,robot_box_quat_x,robot_box_quat_y,robot_box_quat_z,robot_box_linvel_x,robot_box_linvel_y,robot_box_linvel_z,robot_box_angvel_x,robot_box_angvel_y,robot_box_angvel_z,cube_world_x,cube_world_y,cube_world_z,cube_quat_w,cube_quat_x,cube_quat_y,cube_quat_z,cube_linvel_x,cube_linvel_y,cube_linvel_z,cube_angvel_x,cube_angvel_y,cube_angvel_z,endpoint_world_x,endpoint_world_y,endpoint_world_z,endpoint_linvel_x,endpoint_linvel_y,endpoint_linvel_z,target_cube_world_x,target_cube_world_y,target_cube_world_z,gripper_actual_pos_rad_gp_leftgearjoint,gripper_actual_vel_rad_s_gp_leftgearjoint,gripper_actual_pos_rad_gp_rotatingjoint,gripper_actual_vel_rad_s_gp_rotatingjoint,motor_angle_rad_joint1,motor_angle_rad_joint2,motor_angle_rad_joint3,motor_angle_rad_joint4,motor_speed_rad_s_joint1,motor_speed_rad_s_joint2,motor_speed_rad_s_joint3,motor_speed_rad_s_joint4
0.0,0.0,0.0,0.0,1.0,0.0,0.0,0.0,0.0,0.0,0.0,0.0,0.0,0.0,-0.3375883996486664,0.6320196390151978,0.41999998688697815,1.0,0.0,0.0,0.0,0.0,0.0,0.0,0.0,0.0,0.0,3.42540442943573e-06,-0.005000244826078415,1.313499927520752,0.0,0.0,0.0,0.4109383821487427,0.6696119904518127,0.42000001668930054,-1.5707999467849731,0.0,0.0,0.0,0.0,0.0,0.0,0.0,0.0,0.0,0.0,0.0
0.016666666666666666,0.0017659994773566723,0.0014015730703249574,0.0,0.9999995231628418,0.0,0.0,-0.0009576927404850721,0.14747846126556396,0.12192877382040024,0.0,0.0,0.0,-0.17892798781394958,-0.33758851885795593,0.6320193409919739,0.41999998688697815,1.0,3.2799914606584935e-06,-8.339814598912199e-07,8.465387679734704e-08,-1.9833554688375443e-05,0.00017983050202019513,-6.133061833679676e-05,0.0009432226070202887,-0.004689437802881002,-0.0003198152990080416,-0.007057122886180878,0.003978472203016281,1.3155443668365479,-0.8033080101013184,1.0342869758605957,0.1480819284915924,0.4109383821487427,0.6696119904518127,0.42000001668930054,-1.5301073789596558,3.0000014305114746,-0.04586038365960121,-2.999999761581421,0.0004587461880873889,0.0004121068341191858,0.00035357120214030147,0.0002803406387101859,0.07898666709661484,0.06744401156902313,0.0550554133951664,0.0417654886841774
0.03333333333333333,0.006989294663071632,0.0054352800361812115,0.0,0.9997537732124329,0.0,0.0,-0.022188903763890266,0.3819831609725952,0.29060599207878113,0.0,0.0,0.0,-3.343761682510376,-0.3375886380672455,0.6320192813873291,0.4200000464916229,1.0,3.39090593115543e-06,-2.1324372028175276e-06,-3.7106541839193596e-08,0.0002635782293509692,0.0002693790593184531,-0.00010509486310184002,-0.0017707175575196743,0.004130743443965912,-0.00013547750131692737,-0.026231519877910614,0.027205493301153183,1.3160194158554077,-1.4557864665985107,1.6983742713928223,-0.07865612953901291,0.4109383821487427,0.6696119904518127,0.42000001668930054,-1.4800878763198853,3.0,-0.09590020775794983,-3.000001907348633,0.002386229345574975,0.0020662734750658274,0.0017100067343562841,0.0013136508641764522,0.16473299264907837,0.13854913413524628,0.110968679189682,0.08190450072288513
0.05,0.015133663080632687,0.011839888989925385,0.0,0.9996935129165649,0.0,0.0,-0.024755654856562614,0.5268866419792175,0.4257317781448364,0.0,0.0,0.0,0.6596142649650574,-0.33758866786956787,0.6320193409919739,0.4200000464916229,1.0,3.765230758290272e-06,-2.211922264905297e-06,5.6083799826467384e-09,0.0002653090050444007,0.00026691501261666417,-0.00010440615005791187,-0.00172435212880373,0.0041774665005505085,-0.0001294955873163417,-0.05584682151675224,0.056277766823768616,1.3113505840301514,-1.982125997543335,1.8832594156265259,-0.44962334632873535,0.4109383821487427,0.6696119904518127,0.42000001668930054,-1.4300695657730103,3.000000476837158,-0.14590667188167572,-3.0,0.004964386112987995,0.004159525968134403,0.0032859058119356632,0.0023382871877402067,0.17195862531661987,0.13371197879314423,0.0937025174498558,0.051820699125528336
0.06666666666666667,0.025812000036239624,0.020426703616976738,0.0,0.9991328716278076,0.0,0.0,-0.041634701192379,0.7020021677017212,0.5585131049156189,0.0,0.0,0.0,-2.869896650314331,-0.33758866786956787,0.6320192813873291,0.4200000464916229,0.9999999403953552,3.406835730856983e-06,-2.2856456780573353e-06,4.3008122929677484e-07,0.0002670265967026353,0.0002679176104720682,-0.0001043803058564663,-0.0017406701808795333,0.004211854189634323,-0.0001285061298403889,-0.08882731944322586,0.09288738667964935,1.3005489110946655,-1.9542455673217773,2.4628851413726807,-0.8233316540718079,0.4109383821487427,0.6696119904518127,0.42000001668930054,-1.3800427913665771,2.99999737739563,-0.11239773780107498,3.000000476837158,0.007099667564034462,0.005483451299369335,0.0037616228219121695,0.0019279437838122249,0.1180194616317749,0.05555115267634392,-0.008845910429954529,-0.07522840797901154
0.08333333333333333,0.04015856236219406,0.028902430087327957,0.0,0.9963948726654053,0.0,0.0,-0.08483659476041794,0.9270327687263489,0.4794900119304657,0.0,0.0,0.0,-6.055634498596191,-0.33758866786956787,0.6320192813873291,0.4200000464916229,1.0,3.6973383430449758e-06,-2.188984808526584e-06,-2.6323331780986337e-07,0.0002638960722833872,0.0002658652374520898,-0.00010433932766318321,-0.0017081378027796745,0.00415008282288909,-0.0001299151626881212,-0.12179059535264969,0.13570906221866608,1.2852699756622314,-2.0121984481811523,2.6469643115997314,-1.0246459245681763,0.4109383821487427,0.6696119904518127,0.42000001668930054,-1.3300422430038452,3.000002861022949,-0.1444353312253952,-3.0000014305114746,0.008449461311101913,0.005753964185714722,0.002914261771366,-7.537956844316795e-05,0.0629623606801033,-0.006446133367717266,-0.07781828194856644,-0.15111267566680908
0.1,0.04945965111255646,0.036422546952962875,0.0,0.9938458204269409,0.0,0.0,-0.11077225208282471,0.4288729131221771,0.42078760266304016,0.0,0.0,0.0,-2.129171371459961,-0.33758866786956787,0.6320192813873291,0.4200000464916229,0.9999999403953552,3.6204280604579253e-06,-2.265225475639454e-06,1.7461863421885937e-07,0.00026676725246943533,0.0002674070419743657,-0.00010408065281808376,-0.0017385295359417796,0.004209065344184637,-0.00012775739014614373,-0.1594088077545166,0.1769137978553772,1.263624906539917,-2.227569580078125,2.60396671295166,-1.46907639503479,0.4109383821487427,0.6696119904518127,0.42000001668930054,-1.2800195217132568,2.999995708465576,-0.11088692396879196,3.000000476837158,0.004113631788641214,0.0006309348391368985,-0.003037654096260667,-0.006900875363498926,-0.3704535663127899,-0.41702184081077576,-0.46560561656951904,-0.5164350271224976
0.11666666666666667,0.060708966106176376,0.04592681676149368,0.0,0.9887692928314209,0.0,0.0,-0.14944997429847717,0.8140499591827393,0.5802322626113892,0.0,0.0,0.0,-5.145723819732666,-0.33758866786956787,0.6320192813873291,0.4200000464916229,1.0,3.7983741094649304e-06,-2.2627561975241406e-06,-1.5019411137018324e-07,0.00026374030858278275,0.00026566023007035255,-0.00010428880341351032,-0.001705368747934699,0.004147524479776621,-0.00012980001338291913,-0.19326208531856537,0.22415727376937866,1.2372715473175049,-1.885802984237671,3.1139416694641113,-1.5915489196777344,0.4109383821487427,0.6696119904518127,0.42000001668930054,-1.2300156354904175,3.000000238418579,-0.1429210603237152,-2.999999761581421,-0.00019497275934554636,-0.004953612107783556,-0.009899077005684376,-0.01504159439355135,-0.221754789352417,-0.31455254554748535,-0.4064391255378723,-0.4972730576992035
0.13333333333333333,0.07165984064340591,0.05278504639863968,0.0,0.986148476600647,0.0,0.0,-0.16586503386497498,0.5765818953514099,0.3462090492248535,0.0,0.0,0.0,-0.9003110527992249,-0.33758866786956787,0.6320193409919739,0.4200000464916229,0.9999999403953552,3.550490419002017e-06,-2.2297924715530826e-06,2.9292351655385573e-07,0.0002670329122338444,0.0002677924057934433,-0.00010416773147881031,-0.001743975793942809,0.004213578533381224,-0.0001280030410271138,-0.23036006093025208,0.2728252410888672,1.2050648927688599,-2.2461321353912354,3.0368595123291016,-2.255946636199951,0.4109383821487427,0.6696119904518127,0.42000001668930054,-1.1800035238265991,2.999995470046997,-0.10938163101673126,3.0000007152557373,-0.004148734267801046,-0.010342210531234741,-0.01668492704629898,-0.023186147212982178,-0.2756768465042114,-0.35040757060050964,-0.42238545417785645,-0.4916396737098694
0.15,0.07910002768039703,0.05603741109371185,0.0,0.9811010956764221,0.0,0.0,-0.19349583983421326,0.39389708638191223,0.1368972808122635,0.0,0.0,0.0,-4.212864875793457,-0.33758866786956787,0.6320192813873291,0.4200000464916229,0.9999999403953552,3.338063152114046e-06,-2.2428623651649104e-06,-2.8019764286568716e-08,0.00026674510445445776,0.0002675803261809051,-0.00010427739471197128,-0.0017366883112117648,0.0042068189941346645,-0.00012831240019295365,-0.26395538449287415,0.32747191190719604,1.1633875370025635,-1.789290428161621,3.4775757789611816,-2.7256531715393066,0.4109383821487427,0.6696119904518127,0.42000001668930054,-1.1300021409988403,3.000000476837158,-0.1414213925600052,-2.999999523162842,-0.009681698866188526,-0.017138030380010605,-0.024683568626642227,-0.03232935443520546,-0.3938019871711731,-0.46353039145469666,-0.529559850692749,-0.5920346975326538
0.16666666666666666,0.08235535770654678,0.060814883559942245,0.0,0.9693419933319092,0.0,0.0,-0.24571546912193298,0.11817098408937454,0.34918472170829773,0.0,0.0,0.0,-7.195420265197754,-0.33758866786956787,0.6320193409919739,0.4200000464916229,0.9999999403953552,3.6477927096711937e-06,-2.3072821022651624e-06,3.5273473031338654e-08,0.00026726932264864445,0.0002680143225006759,-0.00010418728925287724,-0.001747259870171547,0.004217622336000204,-0.00012798597163055092,-0.2921810746192932,0.390967458486557,1.110058069229126,-1.4508154392242432,4.03318452835083,-3.60990571975708,0.4109383821487427,0.6696119904518127,0.42000001668930054,-1.0799990892410278,3.0000016689300537,-0.19143052399158478,-3.0000014305114746,-0.018775256350636482,-0.02711281180381775,-0.035468168556690216,-0.04385646805167198,-0.6336343884468079,-0.6679392457008362,-0.698188066482544,-0.724703848361969
0.18333333333333332,0.08964771777391434,0.0679057314991951,0.0,0.9604150056838989,0.0,0.0,-0.278573215007782,0.522066056728363,0.4657188057899475,0.0,0.0,0.0,-3.018120527267456,-0.33758866786956787,0.6320192813873291,0.4200000464916229,0.9999999403953552,3.290506583653041e-06,-2.193882892242982e-06,-2.792363034131995e-07,0.000266780611127615,0.00026776042068377137,-0.0001043418888002634,-0.0017391631845384836,0.0042070988565683365,-0.00012845758465118706,-0.31906527280807495,0.45276910066604614,1.0434072017669678,-1.3329746723175049,3.7099437713623047,-4.372625350952148,0.4109383821487427,0.6696119904518127,0.42000001668930054,-1.0299960374832153,3.000000476837158,-0.24145740270614624,-3.000000238418579,-0.02749510109424591,-0.03627896308898926,-0.04501277580857277,-0.05371962487697601,-0.5597848892211914,-0.5670130848884583,-0.5711873769760132,-0.5728651881217957
0.2,0.09359972178936005,0.07274246960878372,0.0,0.9461097121238708,0.0,0.0,-0.3238462209701538,0.2147545963525772,0.28299805521965027,0.0,0.0,0.0,-6.392564296722412,-0.33758866786956787,0.6320192813873291,0.4200000464916229,1.0,3.2807513434818247e-06,-2.219149109805585e-06,1.594698204598899e-07,0.0002662786573637277,0.000267401133896783,-0.00010424992069602013,-0.0017357232281938195,0.004197727423161268,-0.00012864978634752333,-0.33895182609558105,0.5130924582481384,0.9616020917892456,-0.8272917866706848,3.59464693069458,-5.27468204498291,0.4109383821487427,0.6696119904518127,0.42000001668930054,-0.9799858331680298,2.9999969005584717,-0.29148587584495544,-3.000001907348633,-0.041399095207452774,-0.04991091787815094,-0.05834097042679787,-0.06674235314130783,-0.7844709753990173,-0.812802791595459,-0.8389315009117126,-0.8610180616378784
0.21666666666666667,0.09477391839027405,0.0791209489107132,0.0,0.9377325773239136,0.0,0.0,-0.3473580479621887,-0.04564410075545311,0.44131484627723694,0.0,0.0,0.0,-1.8482764959335327,-0.33758866786956787,0.6320193409919739,0.4200000464916229,1.0,3.613105945987627e-06,-2.2700548925058683e-06,2.2101254160133976e-07,0.0002671255497261882,0.00026781795895658433,-0.00010414235293865204,-0.0017445943085476756,0.004215254448354244,-0.000127866180264391,-0.35562294721603394,0.5629527568817139,0.8703962564468384,-0.7465089559555054,2.661806583404541,-5.666134834289551,0.4109383821487427,0.6696119904518127,0.42000001668930054,-0.929975152015686,3.000000476837158,-0.3415165841579437,-2.99999737739563,-0.05674885958433151,-0.06525624543428421,-0.07357797771692276,-0.08182719349861145,-0.9870405197143555,-0.9896496534347534,-0.9651461839675903,-0.9380005598068237
0.23333333333333334,0.09847042709589005,0.08197528123855591,0.0,0.924662709236145,0.0,0.0,-0.3807872533798218,0.27102553844451904,0.10423264652490616,0.0,0.0,0.0,-4.99672269821167,-0.33758866786956787,0.6320192813873291,0.4200000464916229,1.0,3.3818123483797535e-06,-2.29084980674088e-06,2.7279790515422064e-07,0.0002669129753485322,0.00026779924519360065,-0.00010433141142129898,-0.0017395684262737632,0.004209680482745171,-0.00012843731383327395,-0.36582091450691223,0.6045416593551636,0.769781231880188,-0.30914825201034546,2.1589505672454834,-6.2529706954956055,0.4109383821487427,0.6696119904518127,0.42000001668930054,-0.8799644708633423,2.9999961853027344,-0.3915482461452484,-3.00000262260437,-0.07245061546564102,-0.08097297698259354,-0.0890922024846077,-0.09708515554666519,-0.9899528622627258,-0.9916206002235413,-0.989798903465271,-0.976370096206665
0.25,0.09747463464736938,0.0888703465461731,0.0,0.9179826378822327,0.0,0.0,-0.39662060141563416,-0.05108872428536415,0.36395686864852905,0.0,0.0,0.0,-0.9856727123260498,-0.3375886380672455,0.6320192813873291,0.4200000464916229,0.9999999403953552,3.7065203741804e-06,-2.2228459783946164e-06,-2.255132756090461e-07,0.00026424904353916645,0.0002665679494384676,-0.00010457634925842285,-0.0017169411294162273,0.004155544564127922,-0.00013062905054539442,-0.3687565326690674,0.6229737997055054,0.668742299079895,0.06403718888759613,0.4626692533493042,-5.8365960121154785,0.4109383821487427,0.6696119904518127,0.42000001668930054,-0.8299545049667358,2.999966859817505,-0.4415796995162964,-2.9999969005584717,-0.08995015174150467,-0.09819433838129044,-0.10613298416137695,-0.11400334537029266,-0.6901838183403015,-0.7473164200782776,-0.8016905784606934,-0.8509446382522583
0.26666666666666666,0.10095962882041931,0.09003335237503052,0.0,0.9228009581565857,0.0,0.0,-0.3852769732475281,0.23358304798603058,0.024945953860878944,0.0,0.0,0.0,2.1165292263031006,-0.33758866786956787,0.6320192813873291,0.4200000464916229,0.9999999403953552,3.7195993627392454e-06,-2.40332542489341e-06,-1.8308921312382154e-07,0.00026623232406564057,0.00026729132514446974,-0.00010425853542983532,-0.0017326984088867903,0.004196567460894585,-0.000128512445371598,-0.37392517924308777,0.6261990666389465,0.5752682685852051,-0.3105722963809967,-0.2021852433681488,-5.431149482727051,0.4109383821487427,0.6696119904518127,0.42000001668930054,-0.7799457311630249,2.9999947547912598,-0.49160993099212646,-3.0,-0.10173245519399643,-0.11051122099161148,-0.118989497423172,-0.12736578285694122,-0.9412479400634766,-0.929560124874115,-0.9209362268447876,-0.9133540987968445
0.2833333333333333,0.10037533193826675,0.0894046276807785,0.0,0.9204402565956116,0.0,0.0,-0.39088326692581177,-0.11721829324960709,-0.069550521671772,0.0,0.0,0.0,-1.6043899059295654,-0.33758866786956787,0.6320193409919739,0.4200000464916229,0.9999999403953552,3.5840330383507535e-06,-2.31531180361344e-06,7.403321689025688e-08,0.0002652195980772376,0.0002645523054525256,-0.00010317121632397175,-0.0017020339146256447,0.004185074009001255,-0.00012500229058787227,-0.3691946864128113,0.6259866952896118,0.48574167490005493,0.7219972610473633,0.06955074518918991,-5.011220932006836,0.4109383821487427,0.6696119904518127,0.42000001668930054,-0.7299370765686035,3.0000011920928955,-0.5416382551193237,-3.00000262260437,-0.11967074871063232,-0.12816354632377625,-0.1364271491765976,-0.14463506639003754,-1.0188795328140259,-1.0142781734466553,-1.0107569694519043,-1.0079435110092163
0.3,0.09668822586536407,0.08679879456758499,0.0,0.9241361618041992,0.0,0.0,-0.3820633590221405,-0.21448291838169098,-0.22044196724891663,0.0,0.0,0.0,1.9727933406829834,-0.33758866786956787,0.6320192813873291,0.4200000464916229,1.0,3.7241927657305496e-06,-2.2717581487086136e-06,9.636217157549254e-08,0.00026312493719160557,0.00026525757857598364,-0.0001043833326548338,-0.0016961178043857217,0.004134873393923044,-0.00013027516251895577,-0.3552078604698181,0.6290529370307922,0.40614941716194153,1.0403032302856445,0.24912968277931213,-4.705100059509277,0.4109383821487427,0.6696119904518127,0.42000001668930054,-0.6799301505088806,2.999993085861206,-0.5916649699211121,-2.9999990463256836,-0.13609974086284637,-0.14460016787052155,-0.15290004014968872,-0.1611497551202774,-0.939591646194458,-0.947886049747467,-0.9563119411468506,-0.9631170034408569
0.31666666666666665,0.09146050363779068,0.08161544054746628,0.0,0.9215337038040161,0.0,0.0,-0.3882983922958374,-0.3588712811470032,-0.34859398007392883,0.0,0.0,0.0,-1.728771686553955,-0.3379930257797241,0.631016731262207,0.420001745223999,0.9998500943183899,-3.301288961665705e-05,-0.00014271835971157998,-0.017311882227659225,0.013890150934457779,-0.00573599711060524,-0.004704663529992104,-0.0527205765247345,0.15559785068035126,0.03391703590750694,-0.3545491099357605,0.632348895072937,0.4225398302078247,0.28265559673309326,0.2523006498813629,-0.15011262893676758,0.4109383821487427,0.6696119904518127,0.42000001668930054,-0.6300895810127258,2.99999737739563,-0.6422620415687561,-2.9999122619628906,-0.14080853760242462,-0.14882123470306396,-0.1562432199716568,-0.16317829489707947,-0.4204307198524475,-0.34973153471946716,-0.2614526152610779,-0.1537124514579773
0.3333333333333333,0.08395862579345703,0.07427715510129929,0.0,0.925051212310791,0.0,0.0,-0.3798424303531647,-0.4916810393333435,-0.4788978695869446,0.0,0.0,0.0,2.0067145824432373,-0.3358570337295532,0.6339188814163208,0.4202035963535309,0.9991425275802612,0.0054957326501607895,-0.00038282235618680716,-0.041034042835235596,0.38547948002815247,0.5053018927574158,-0.01840120367705822,-0.6569880843162537,-0.1806144416332245,-7.565793514251709,-0.34888771176338196,0.640493631362915,0.42010536789894104,0.32675644755363464,0.5495448112487793,0.015840690582990646,0.4109383821487427,0.6696119904518127,0.42000001668930054,-0.5800826549530029,3.000171184539795,-0.6922947764396667,-2.982144355773926,-0.1485304981470108,-0.15499761700630188,-0.16060814261436462,-0.16544438898563385,-0.44513723254203796,-0.3451372981071472,-0.2302066534757614,-0.09920275956392288
0.35,0.0741412416100502,0.06476245820522308,0.0,0.9224793314933777,0.0,0.0,-0.38604649901390076,-0.6364505290985107,-0.6128137707710266,0.0,0.0,0.0,-1.6907562017440796,-0.32915523648262024,0.6426247954368591,0.42000001668930054,0.9941146969795227,8.268279088952113e-06,-9.542814041196834e-07,-0.10833225399255753,0.4417741596698761,0.5642036199569702,-0.00020779068290721625,-0.010010792873799801,0.01495486218482256,-9.184834480285645,-0.34024086594581604,0.6487264037132263,0.42085200548171997,0.6738292574882507,0.5105283260345459,0.051114171743392944,0.4109383821487427,0.6696119904518127,0.42000001668930054,-0.5300413966178894,2.9999911785125732,-0.7423043847084045,-2.999934196472168,-0.15663202106952667,-0.1611091047525406,-0.16445554792881012,-0.16674678027629852,-0.48535919189453125,-0.3562835156917572,-0.21039560437202454,-0.04781132936477661
0.36666666666666664,0.062172871083021164,0.05297364294528961,0.0,0.9085872173309326,0.0,0.0,-0.41769516468048096,-0.7994565367698669,-0.7492571473121643,0.0,0.0,0.0,-5.136783599853516,-0.3190757930278778,0.6547399163246155,0.42046067118644714,0.9813305735588074,-0.011446943506598473,0.0014892460312694311,-0.1919814497232437,0.8685023188591003,0.9990383386611938,0.11504533886909485,-5.47650671005249,1.7617437839508057,-5.379854202270508,-0.3253430724143982,0.6599863171577454,0.4220641255378723,1.1091160774230957,0.859753429889679,0.09802427887916565,0.4109383821487427,0.6696119904518127,0.42000001668930054,-0.47999197244644165,2.9998629093170166,-0.7923139929771423,-2.9999771118164062,-0.16482746601104736,-0.1669934242963791,-0.16768117249011993,-0.1669795960187912,-0.43516290187835693,-0.29641783237457275,-0.13535913825035095,0.04697275534272194
0.3833333333333333,0.051860108971595764,0.03828715160489082,0.0,0.8810473680496216,0.0,0.0,-0.4730280637741089,-0.5469633936882019,-0.9389299154281616,0.0,0.0,0.0,-8.24362564086914,-0.2962155044078827,0.6785607933998108,0.4218079149723053,0.9716431498527527,-0.02436229959130287,-0.012384145520627499,-0.23486725986003876,1.9172191619873047,1.8980014324188232,0.09480670094490051,4.16233491897583,-9.769975662231445,-4.130676746368408,-0.2990783751010895,0.6808925867080688,0.4239594340324402,2.1907646656036377,1.7087445259094238,0.12620088458061218,0.4109383821487427,0.6696119904518127,0.42000001668930054,-0.4299476742744446,2.9962754249572754,-0.8423274755477905,-3.000035285949707,-0.1721397340297699,-0.17183001339435577,-0.16963259875774384,-0.16566812992095947,-0.41453346610069275,-0.2587994933128357,-0.07986246049404144,0.11989372223615646
0.4,0.04444890469312668,0.02744164876639843,0.0,0.8365347385406494,0.0,0.0,-0.5479139089584351,-0.36551138758659363,-0.6329351663589478,0.0,0.0,0.0,-11.188363075256348,-0.2324531078338623,0.7135547399520874,0.4240000545978546,0.9553767442703247,0.019022852182388306,-0.060346707701683044,-0.28853365778923035,5.064507484436035,2.3389670848846436,0.15199893712997437,31.102951049804688,-19.76770782470703,14.152613639831543,-0.2354244589805603,0.7169257402420044,0.4257107973098755,4.888370037078857,2.669358730316162,0.34346291422843933,0.4109383821487427,0.6696119904518127,0.42000001668930054,-0.39020541310310364,1.2807680368423462,-0.805554986000061,3.0005600452423096,-0.18491218984127045,-0.18129967153072357,-0.17462603747844696,-0.16614384949207306,-0.5615182518959045,-0.4804474115371704,-0.24769937992095947,-0.016181044280529022
0.4166666666666667,0.04099567234516144,0.019422488287091255,0.0,0.7995417714118958,0.0,0.0,-0.6006104350090027,-0.1507740318775177,-0.42215174436569214,0.0,0.0,0.0,-6.544559955596924,-0.15030476450920105,0.7581635117530823,0.4313815236091614,0.925734281539917,0.0671047568321228,-0.1008203849196434,-0.35825714468955994,5.313275337219238,2.10111403465271,0.5687719583511353,11.871308326721191,-13.553279876708984,8.77233600616455,-0.15296973288059235,0.7626523971557617,0.43300825357437134,5.113525867462158,2.532346248626709,0.5535784959793091,0.4109383821487427,0.6696119904518127,0.42000001668930054,-0.37723860144615173,0.575347900390625,-0.832309365272522,-3.000002384185791,-0.1936890184879303,-0.18899372220039368,-0.17933057248592377,-0.16799674928188324,-0.4895596504211426,-0.4242781400680542,-0.2743632197380066,-0.1382070779800415
0.43333333333333335,0.04066343605518341,0.014721488580107689,0.0,0.7831077575683594,0.0,0.0,-0.6218860149383545,0.028035281226038933,-0.20255492627620697,0.0,0.0,0.0,-2.0888538360595703,-0.06311585009098053,0.792472243309021,0.4419897496700287,0.8669324517250061,0.06821916997432709,-0.12447109073400497,-0.4777877628803253,5.272227764129639,1.0927447080612183,0.6260113716125488,5.687145233154297,-9.93893051147461,6.4362287521362305,-0.06696756184101105,0.7974676489830017,0.44212546944618225,5.373955249786377,1.6635634899139404,0.7062215209007263,0.4109383821487427,0.6696119904518127,0.42000001668930054,-0.36379003524780273,0.9885189533233643,-0.8823333978652954,-3.0000040531158447,-0.20282898843288422,-0.19637584686279297,-0.18395590782165527,-0.17014817893505096,-0.563707709312439,-0.43200501799583435,-0.26158520579338074,-0.11004975438117981
0.45,0.03814312815666199,0.006863267160952091,0.0,0.7578446865081787,0.0,0.0,-0.6524350047111511,-0.1488790214061737,-0.40854448080062866,0.0,0.0,0.0,-5.399514198303223,0.024071291089057922,0.8077913522720337,0.45231589674949646,0.8220307230949402,0.0783606469631195,-0.09364003688097,-0.5561982989311218,5.109504222869873,-0.010365575551986694,0.664674699306488,5.798995018005371,7.4976019859313965,14.821221351623535,0.020907297730445862,0.8151202201843262,0.4510103762149811,5.408587455749512,0.37252506613731384,0.5750375986099243,0.4109383821487427,0.6696119904518127,0.42000001668930054,-0.3451524078845978,1.0469177961349487,-0.9323574304580688,-2.99788498878479,-0.210566446185112,-0.20147383213043213,-0.1860288381576538,-0.1694803535938263,-0.7215895056724548,-0.4787081480026245,-0.23060666024684906,-0.004386723041534424
0.4666666666666667,0.03772042691707611,0.0044950684532523155,0.0,0.7459600567817688,0.0,0.0,-0.6659907102584839,0.022918621078133583,-0.12486372143030167,0.0,0.0,0.0,-0.8479474186897278,0.10829733312129974,0.8057547211647034,0.46105852723121643,0.7522770166397095,0.07606763392686844,-0.07733720541000366,-0.6498551964759827,4.614767074584961,-1.3401548862457275,0.3420746326446533,-12.861286163330078,-11.742461204528809,26.46242332458496,0.10539086908102036,0.81417316198349,0.4593208432197571,4.999604225158691,-0.33495834469795227,0.5298922657966614,0.4109383821487427,0.6696119904518127,0.42000001668930054,-0.3315330743789673,0.5501938462257385,-0.9823814630508423,-3.000001907348633,-0.22406452894210815,-0.21114224195480347,-0.19159182906150818,-0.17142851650714874,-0.5795374512672424,-0.42693379521369934,-0.24776016175746918,-0.09391548484563828
0.48333333333333334,0.03661865368485451,-0.001954240258783102,0.0,0.7271040678024292,0.0,0.0,-0.6865273118019104,-0.0948457196354866,-0.4122341573238373,0.0,0.0,0.0,-4.2221808433532715,0.18629366159439087,0.7935073375701904,0.46292921900749207,0.6868906021118164,0.033460699021816254,-0.0829051211476326,-0.721240758895874,4.297857761383057,-1.619974136352539,0.008708126842975616,-18.46742820739746,5.765584945678711,-1.3273231983184814,0.18296006321907043,0.8026642799377441,0.463379442691803,4.482508659362793,-1.1326663494110107,0.19558367133140564,0.4109383821487427,0.6696119904518127,0.42000001668930054,-0.32296472787857056,0.5130285620689392,-1.0324043035507202,-2.9999897480010986,-0.2299942672252655,-0.21491166949272156,-0.1929914504289627,-0.17077670991420746,-0.3782058358192444,-0.2240642011165619,-0.07450798153877258,0.0551333948969841
0.5,0.036836471408605576,-0.004412839189171791,0.0,0.7207586169242859,0.0,0.0,-0.6931861639022827,0.03269054368138313,-0.06714573502540588,0.0,0.0,0.0,-0.10250523686408997,0.2528224587440491,0.7706689834594727,0.4621771574020386,0.6250557899475098,0.009303784929215908,-0.06648354977369308,-0.7776879668235779,3.2442495822906494,-1.8757741451263428,-0.18317709863185883,-5.713234901428223,1.8042606115341187,14.532613754272461,0.24994096159934998,0.7803494930267334,0.4631546437740326,3.7540249824523926,-1.506577730178833,-0.11949597299098969,0.4109383821487427,0.6696119904518127,0.42000001668930054,-0.3106462359428406,0.824092447757721,-1.0824264287948608,-2.999999523162842,-0.2358158379793167,-0.21858230233192444,-0.19485041499137878,-0.17115886509418488,-0.1856992542743683,-0.10928874462842941,-0.06343656033277512,-0.03380703181028366
0.5166666666666666,0.039704274386167526,-0.010213037021458149,0.0,0.7053908109664917,0.0,0.0,-0.7088186144828796,0.2241053432226181,-0.367836058139801,0.0,0.0,0.0,-3.402787923812866,0.30831339955329895,0.7476223707199097,0.4536491930484772,0.5860154628753662,-0.01504906639456749,-0.05342467129230499,-0.8083966970443726,2.899611711502075,-1.6550012826919556,-0.5812698006629944,-4.213454246520996,1.1588433980941772,2.6777491569519043,0.3061399459838867,0.7566887736320496,0.4554241895675659,3.0774779319763184,-1.5520352125167847,-0.6671437621116638,0.4109383821487427,0.6696119904518127,0.42000001668930054,-0.29527944326400757,0.9036716222763062,-1.1324485540390015,-3.0000007152557373,-0.23365838825702667,-0.21639716625213623,-0.19326040148735046,-0.17033594846725464,0.13619785010814667,0.12706923484802246,0.06958923488855362,1.3137984922195756e-08
0.5333333333333333,0.044898632913827896,-0.011966947466135025,0.0,0.7024152278900146,0.0,0.0,-0.7117674350738525,0.3531945049762726,-0.08421222120523453,0.0,0.0,0.0,0.40579044818878174,0.35302647948265076,0.7215597033500671,0.4404141902923584,0.5366362929344177,-0.044822920113801956,-0.035280339419841766,-0.8418833017349243,2.3204033374786377,-1.855880618095398,-0.8509434461593628,-2.4894111156463623,0.9925354719161987,-0.45747441053390503,0.35084211826324463,0.7293887138366699,0.44238197803497314,2.3789539337158203,-1.6178698539733887,-0.902013897895813,0.4109383821487427,0.6696119904518127,0.42000001668930054,-0.27711021900177,1.0835933685302734,-1.182470679283142,-3.0,-0.23230873048305511,-0.21533438563346863,-0.19340771436691284,-0.17190341651439667,0.25383251905441284,0.17951788008213043,0.050284698605537415,-0.08501113951206207
0.55,0.05240699276328087,-0.016844477504491806,0.0,0.6893150806427002,0.0,0.0,-0.7244616746902466,0.5038540363311768,-0.3697624206542969,0.0,0.0,0.0,-2.944474697113037,0.3855757713317871,0.7011159062385559,0.42550283670425415,0.5246914625167847,-0.04828989505767822,-0.03609443083405495,-0.8491549491882324,1.153972864151001,-1.2564769983291626,-0.1948471963405609,-17.110931396484375,-8.532520294189453,20.508529663085938,0.38319987058639526,0.7083641290664673,0.427362859249115,1.183635950088501,-0.7693585753440857,-0.10990993678569794,0.4109383821487427,0.6696119904518127,0.42000001668930054,-0.2622489035129547,0.7755929827690125,-1.1589163541793823,2.9812982082366943,-0.2242695540189743,-0.20968589186668396,-0.19100573658943176,-0.17270994186401367,0.5065169930458069,0.3424869775772095,0.13083216547966003,-0.07291485369205475
0.5666666666666667,0.05793514847755432,-0.019134413450956345,0.0,0.6890754699707031,0.0,0.0,-0.7246896028518677,0.2726346254348755,-0.08801155537366867,0.0,0.0,0.0,0.8044531345367432,0.4011232852935791,0.6865788102149963,0.42501211166381836,0.5372648239135742,-0.03965324908494949,-0.0295712873339653,-0.8419617414474487,0.7106359004974365,-0.8779919147491455,-0.01920188032090664,0.9424479007720947,-1.6260696649551392,2.045980930328369,0.39850491285324097,0.6947232484817505,0.4278429448604584,0.7190957069396973,-0.7669855356216431,0.0776459127664566,0.4109383821487427,0.6696119904518127,0.42000001668930054,-0.2630559206008911,-0.4776799976825714,-1.180812120437622,-2.9999942779541016,-0.2176334410905838,-0.20556727051734924,-0.1901950240135193,-0.17507769167423248,0.44594281911849976,0.27764445543289185,0.06425251811742783,-0.1389671266078949
0.5833333333333334,0.06396766752004623,-0.018180781975388527,0.0,0.6792041063308716,0.0,0.0,-0.7339494824409485,0.4019847810268402,0.10810384154319763,0.0,0.0,0.0,-2.5004894733428955,0.40965035557746887,0.6792078614234924,0.4233870208263397,0.5578180551528931,-0.028424547985196114,-0.025552604347467422,-0.829082727432251,0.27072978019714355,-0.40526363253593445,-0.12446141242980957,-0.4341791272163391,-2.418184995651245,9.650797843933105,0.40597712993621826,0.6868084669113159,0.42623960971832275,0.20059409737586975,-0.26629939675331116,-0.10785047709941864,0.4109383821487427,0.6696119904518127,0.42000001668930054,-0.26899006962776184,-0.130604088306427,-1.14525306224823,2.9980785846710205,-0.20830874145030975,-0.19996340572834015,-0.18887992203235626,-0.17771215736865997,0.633966863155365,0.38931360840797424,0.11535071581602097,-0.13478240370750427
0.6,0.06751810759305954,-0.022054685279726982,0.0,0.6807342767715454,0.0,0.0,-0.732530415058136,0.17372411489486694,-0.2573646605014801,0.0,0.0,0.0,0.986872136592865,0.4123057723045349,0.6744290590286255,0.42116624116897583,0.5825531482696533,-0.00598730007186532,-0.01999284140765667,-0.8125246167182922,0.057711247354745865,-0.27873095870018005,-0.1308029741048813,5.461766242980957,-0.5933559536933899,1.701772928237915,0.4073045253753662,0.6826436519622803,0.4272250831127167,-0.0731397196650505,-0.32413244247436523,0.11496618390083313,0.4109383821487427,0.6696119904518127,0.42000001668930054,-0.30864661931991577,-2.9999778270721436,-1.1671736240386963,-2.9995486736297607,-0.1956297606229782,-0.19076336920261383,-0.1841122806072235,-0.17699602246284485,0.5380709171295166,0.42137354612350464,0.209982767701149,0.015033004805445671
0.6166666666666667,0.07288563996553421,-0.021385498344898224,0.0,0.6706721782684326,0.0,0.0,-0.741753876209259,0.3061808943748474,0.07657313346862793,0.0,0.0,0.0,-2.447875738143921,0.41223227977752686,0.6713868975639343,0.4200000464916229,0.5930518507957458,-1.9049546153837582e-06,1.4142375448500388e-06,-0.8051642775535583,-0.011233879253268242,-0.12487508356571198,-2.905068868130911e-05,-6.80677403579466e-05,-0.0011933540226891637,1.3371390104293823,0.407768189907074,0.6817328929901123,0.42898881435394287,0.1755603849887848,0.16535955667495728,0.11914133280515671,0.4109383821487427,0.6696119904518127,0.42000001668930054,-0.3389885425567627,-0.8088952898979187,-1.217122197151184,-2.9986188411712646,-0.18849579989910126,-0.18564875423908234,-0.1822926551103592,-0.17815668880939484,0.5843015909194946,0.42102572321891785,0.19945590198040009,0.001738601247780025
0.6333333333333333,0.07964477688074112,-0.023980719968676567,0.0,0.6729916334152222,0.0,0.0,-0.7396500706672668,0.4431249499320984,-0.17091438174247742,0.0,0.0,0.0,1.2374532222747803,0.4121186137199402,0.6703342199325562,0.4200000464916229,0.5955752730369568,2.934226586148725e-07,2.438602280108171e-07,-0.8032994866371155,-0.004752327222377062,-0.04240337386727333,-6.805406883358955e-06,-0.00034014866105280817,0.0001838347379816696,0.21594356000423431,0.4081522226333618,0.6828500032424927,0.4310895800590515,-0.10207245498895645,-0.013141125440597534,0.13884082436561584,0.4109383821487427,0.6696119904518127,0.42000001668930054,-0.3823540508747101,-2.9999988079071045,-1.2671228647232056,-2.9999544620513916,-0.17910347878932953,-0.17855019867420197,-0.17831896245479584,-0.17701372504234314,0.3807888627052307,0.2903110384941101,0.15613633394241333,0.03198267146945
0.65,0.08895467966794968,-0.023921357467770576,0.0,0.6944583654403687,0.0,0.0,-0.7195329070091248,0.6033701300621033,0.0423181913793087,0.0,0.0,0.0,4.443783283233643,0.4121139943599701,0.670297384262085,0.4200000464916229,0.5956247448921204,1.2692750033238553e-06,-2.704321332203108e-06,-0.8032627105712891,0.00017836669576354325,-4.383879422675818e-05,-7.04936683177948e-05,-0.0017838971689343452,-0.0002889471361413598,-0.0006279372610151768,0.4061177372932434,0.6820893287658691,0.4342474639415741,-0.13374868035316467,-0.06044934317469597,0.24938686192035675,0.4109383821487427,0.6696119904518127,0.42000001668930054,-0.43235349655151367,-2.9999935626983643,-1.317105770111084,-2.9999735355377197,-0.17406554520130157,-0.17450349032878876,-0.17564892768859863,-0.17543484270572662,0.31398293375968933,0.27485391497612,0.22830891609191895,0.20330800116062164
0.6666666666666666,0.10031937062740326,-0.027036776766180992,0.0,0.7032819390296936,0.0,0.0,-0.7109110355377197,0.705742359161377,-0.21469593048095703,0.0,0.0,0.0,0.4336635172367096,0.4121139943599701,0.6702975034713745,0.4200000464916229,0.5956248044967651,5.766349318037101e-07,-3.0790019991400186e-06,-0.8032627105712891,0.0001277704577660188,-0.0002511141065042466,-9.229588613379747e-05,0.005599661730229855,-0.001120487810112536,-0.0006723032565787435,0.4054832458496094,0.6825363636016846,0.43928584456443787,-0.02837779000401497,-0.060013268142938614,0.30871737003326416,0.4109383821487427,0.6696119904518127,0.42000001668930054,-0.4823615252971649,-2.999964952468872,-1.3671077489852905,-2.9999053478240967,-0.1683485060930252,-0.16913101077079773,-0.17054978013038635,-0.17022469639778137,0.2403346449136734,0.26036596298217773,0.29131343960762024,0.3426147997379303
0.6833333333333333,0.11324373632669449,-0.033136628568172455,0.0,0.690483570098877,0.0,0.0,-0.723348081111908,0.809873640537262,-0.43898048996925354,0.0,0.0,0.0,-3.0200114250183105,0.4121139943599701,0.6702975034713745,0.4200000464916229,0.5956249237060547,4.2695873503362236e-07,-3.235124495404307e-06,-0.8032627105712891,0.00012609540135599673,-0.0002730751584749669,-9.302166290581226e-05,0.006217630114406347,-0.0012270498555153608,-0.0006444762693718076,0.4109070599079132,0.6836569309234619,0.4514305591583252,0.634926438331604,0.1430811583995819,1.2361491918563843,0.4109383821487427,0.6696119904518127,0.42000001668930054,-0.5323740839958191,-2.9999806880950928,-1.4171260595321655,-2.9999990463256836,-0.16646048426628113,-0.1666945219039917,-0.16728420555591583,-0.16581960022449493,0.05288263037800789,0.09441497176885605,0.1567840427160263,0.23554398119449615
0.7,0.12916821241378784,-0.034829962998628616,0.0,0.6562643051147461,0.0,0.0,-0.7545310854911804,0.9410181045532227,-0.08750730752944946,0.0,0.0,0.0,-6.383715629577637,0.4121139943599701,0.6702975034713745,0.4200000464916229,0.5956249833106995,3.695250256896543e-07,-3.1752260838402435e-06,-0.8032625913619995,0.00012886672629974782,-0.0002736963506322354,-9.359931573271751e-05,0.006217975169420242,-0.0011957563692703843,-0.0006513803964480758,0.4309661388397217,0.6827012896537781,0.4775116443634033,1.779651403427124,-0.10226868838071823,1.9937900304794312,0.4109383821487427,0.6696119904518127,0.42000001668930054,-0.582385778427124,-2.9998981952667236,-1.4671443700790405,-2.9999876022338867,-0.17189785838127136,-0.1703304648399353,-0.1687716692686081,-0.16500012576580048,-0.26792776584625244,-0.17504051327705383,-0.05610434338450432,0.07354419678449631
0.7166666666666667,0.14213204383850098,-0.0345284529030323,0.0,0.6361444592475891,0.0,0.0,-0.7715699672698975,0.7165740132331848,0.03503207862377167,0.0,0.0,0.0,-2.0779082775115967,0.4121139943599701,0.6702975034713745,0.4200000464916229,0.5956249237060547,3.705012545651698e-07,-3.307576662336942e-06,-0.8032627105712891,0.00012795244401786476,-0.00027349439915269613,-9.343866258859634e-05,0.006217805203050375,-0.0012067948700860143,-0.0006491176318377256,0.4600161612033844,0.6844966411590576,0.5133520364761353,1.6529781818389893,0.30281779170036316,2.2470946311950684,0.4109383821487427,0.6696119904518127,0.42000001668930054,-0.6020245552062988,0.36332792043685913,-1.5171626806259155,-3.000000476837158,-0.17489857971668243,-0.17262278497219086,-0.1699685901403427,-0.16500738263130188,-0.050292663276195526,-0.06332248449325562,-0.055615901947021484,-0.04579445347189903
0.7333333333333333,0.15066346526145935,-0.032062359154224396,0.0,0.6409834027290344,0.0,0.0,-0.767554759979248,0.43579941987991333,0.19274713099002838,0.0,0.0,0.0,1.6380928754806519,0.4121139943599701,0.6702975034713745,0.4200000464916229,0.5956250429153442,3.75398485630285e-07,-3.2554833069298184e-06,-0.8032625913619995,0.00012912219972349703,-0.0002736578753683716,-9.366287849843502e-05,0.006215669680386782,-0.0011924996506422758,-0.0006519057205878198,0.48199188709259033,0.6893781423568726,0.5454843640327454,0.9326618909835815,0.31687816977500916,1.6600570678710938,0.4109383821487427,0.6696119904518127,0.42000001668930054,-0.5742380023002625,2.740271806716919,-1.4783846139907837,2.999999761581421,-0.1745375245809555,-0.17257331311702728,-0.16992241144180298,-0.16497112810611725,0.0970732793211937,0.0713965892791748,0.060692790895700455,0.04657497629523277
0.75,0.15469425916671753,-0.03436845913529396,0.0,0.6346436142921448,0.0,0.0,-0.7728049159049988,0.22924239933490753,-0.17325057089328766,0.0,0.0,0.0,-1.788573980331421,0.4121139943599701,0.6702975034713745,0.4200000464916229,0.5956248044967651,3.614679826569045e-07,-3.1958620638761204e-06,-0.8032627105712891,0.0001285318285226822,-0.00027378450613468885,-9.352783672511578e-05,0.0062219612300395966,-0.0012002604780718684,-0.0006505443598143756,0.49048155546188354,0.6958880424499512,0.5664681196212769,0.03068290278315544,0.27325189113616943,1.0056242942810059,0.4109383821487427,0.6696119904518127,0.42000001668930054,-0.5417681336402893,1.2590347528457642,-1.4283298254013062,3.000000476837158,-0.16920700669288635,-0.1681438833475113,-0.16617394983768463,-0.16199186444282532,0.17570745944976807,0.16176851093769073,0.15427285432815552,0.1332818865776062
0.7666666666666666,0.15570534765720367,-0.031376998871564865,0.0,0.640911877155304,0.0,0.0,-0.767614483833313,0.02111572027206421,0.18253423273563385,0.0,0.0,0.0,1.7096178531646729,0.4121139943599701,0.6702975034713745,0.4200000464916229,0.5956249237060547,3.720824679476209e-07,-3.3276655813097022e-06,-0.8032625913619995,0.00012912077363580465,-0.0002737320028245449,-9.367475286126137e-05,0.006217279937118292,-0.0011933237547054887,-0.0006518298760056496,0.48568129539489746,0.698257327079773,0.5781295895576477,-0.4548720121383667,0.1887797713279724,0.4243620038032532,0.4109383821487427,0.6696119904518127,0.42000001668930054,-0.5053789615631104,2.9345247745513916,-1.378322958946228,2.999999761581421,-0.1708831787109375,-0.1689455658197403,-0.1661110520362854,-0.16146038472652435,0.05040924996137619,0.07064682245254517,0.0925670862197876,0.09254453331232071
0.7833333333333333,0.1545170247554779,-0.03246722370386124,0.0,0.6353762149810791,0.0,0.0,-0.772202730178833,-0.15105871856212616,-0.056947723031044006,0.0,0.0,0.0,-1.5403331518173218,0.4121139943599701,0.6702975034713745,0.4200000464916229,0.595625102519989,3.4831722928174713e-07,-3.2769085009931587e-06,-0.8032625913619995,0.00012931825767736882,-0.0002736763854045421,-9.370897896587849e-05,0.006214899942278862,-0.0011904697166755795,-0.0006523788906633854,0.4727265238761902,0.7008842825889587,0.5802098512649536,-1.169990062713623,0.0828545093536377,-0.007176980376243591,0.4109383821487427,0.6696119904518127,0.42000001668930054,-0.4889533817768097,-0.6672701239585876,-1.3282703161239624,2.999999523162842,-0.16876576840877533,-0.16670465469360352,-0.16372202336788177,-0.15926451981067657,0.012996277771890163,0.04508502408862114,0.07549750804901123,0.08310806751251221
0.8,0.15474359691143036,-0.028274891898036003,0.0,0.6425560116767883,0.0,0.0,-0.7662386894226074,0.041441936045885086,0.2270151823759079,0.0,0.0,0.0,1.6619735956192017,0.4121139943599701,0.6702975034713745,0.4200000464916229,0.5956249237060547,3.4603232279550866e-07,-3.2198915960179875e-06,-0.8032627105712891,0.00012871468788944185,-0.00027380892424844205,-9.356951341032982e-05,0.006221499759703875,-0.0011983284493908286,-0.0006509828381240368,0.45721548795700073,0.701901376247406,0.5785911083221436,-0.620389461517334,0.2138158679008484,-0.1635802686214447,0.4109383821487427,0.6696119904518127,0.42000001668930054,-0.4795410633087158,1.594773769378662,-1.3476661443710327,-3.0,-0.17130520939826965,-0.168314129114151,-0.1644102782011032,-0.15937702357769012,0.06123042106628418,0.059367310255765915,0.06563505530357361,0.062459368258714676
0.8166666666666667,0.1569163203239441,-0.029260413721203804,0.0,0.6365026235580444,0.0,0.0,-0.7712745070457458,0.15329645574092865,-0.09181323647499084,0.0,0.0,0.0,-1.777479887008667,0.4121139943599701,0.6702975034713745,0.4200000464916229,0.5956249833106995,3.672183197522827e-07,-3.3472249469923554e-06,-0.8032625913619995,0.00012875751417595893,-0.00027373124612495303,-9.35771968215704e-05,0.0062194084748625755,-0.0011972649954259396,-0.0006511704414151609,0.44859418272972107,0.7056028842926025,0.5732483863830566,-0.4679250121116638,0.14159592986106873,-0.30795666575431824,0.4109383821487427,0.6696119904518127,0.42000001668930054,-0.4982229769229889,-3.0000011920928955,-1.3093698024749756,3.000000476837158,-0.16716066002845764,-0.16486717760562897,-0.1614670604467392,-0.15698905289173126,0.185053288936615,0.1591450721025467,0.1429440826177597,0.12328657507896423
0.8333333333333334,0.16183054447174072,-0.02930552139878273,0.0,0.6429530382156372,0.0,0.0,-0.7659055590629578,0.3476325273513794,-7.375943823717535e-05,0.0,0.0,0.0,1.9512379169464111,0.4121139943599701,0.6702975034713745,0.4200000464916229,0.5956248044967651,3.5448280755190353e-07,-3.29445856550592e-06,-0.8032627105712891,0.00012895488180220127,-0.00027376043726690114,-9.362725540995598e-05,0.006219028495252132,-0.0011952797649428248,-0.0006514664855785668,0.445573091506958,0.7061669230461121,0.5704917907714844,0.08431722968816757,-0.002198949456214905,0.0038113966584205627,0.4109383821487427,0.6696119904518127,0.42000001668930054,-0.5448375940322876,-2.590754747390747,-1.3291051387786865,-2.999999761581421,-0.16768541932106018,-0.1648446023464203,-0.16075630486011505,-0.15565980970859528,-0.0675782561302185,-0.01746106706559658,0.04233766347169876,0.100574791431427
0.85,0.16838978230953217,-0.032166752964258194,0.0,0.6380786895751953,0.0,0.0,-0.7699711322784424,0.42461761832237244,-0.24265506863594055,0.0,0.0,0.0,-1.6651593446731567,0.4121139943599701,0.6702975034713745,0.4200000464916229,0.5956249237060547,3.5295974498694704e-07,-3.241803142373101e-06,-0.8032625913619995,0.0001288182393182069,-0.0002737913455348462,-9.359186515212059e-05,0.006220504641532898,-0.0011969348415732384,-0.0006511893006972969,0.4498811960220337,0.7032945156097412,0.5651668906211853,0.409893274307251,-0.3449837565422058,-0.4269542098045349,0.4109383821487427,0.6696119904518127,0.42000001668930054,-0.5937007069587708,-2.999998092651367,-1.3791234493255615,-3.000000238418579,-0.1690848171710968,-0.16511240601539612,-0.15967383980751038,-0.15318217873573303,-0.07978712022304535,0.008876405656337738,0.11080028116703033,0.21675218641757965
0.8666666666666667,0.17741023004055023,-0.03344886749982834,0.0,0.6123098731040955,0.0,0.0,-0.7906178832054138,0.5886338949203491,0.008197762072086334,0.0,0.0,0.0,-4.805872917175293,0.4121139943599701,0.6702975034713745,0.4200000464916229,0.5956250429153442,3.6818150306316966e-07,-3.1854817734711105e-06,-0.8032625913619995,0.00012888223864138126,-0.0002737083123065531,-9.360816329717636e-05,0.0062181418761610985,-0.0011956609087064862,-0.000651430047582835,0.4607701003551483,0.6970274448394775,0.560589075088501,0.8703922629356384,-0.37190505862236023,0.023178286850452423,0.4109383821487427,0.6696119904518127,0.42000001668930054,-0.6300839185714722,-1.469438076019287,-1.4291417598724365,-3.0,-0.1706480085849762,-0.16582997143268585,-0.159320667386055,-0.15165232121944427,-0.062108363956213,-0.043088141828775406,-0.011983746662735939,0.026138605549931526
0.8833333333333333,0.18395639955997467,-0.03175250068306923,0.0,0.6012189388275146,0.0,0.0,-0.7990843057632446,0.3122168481349945,0.14142341911792755,0.0,0.0,0.0,-0.6674013137817383,0.4121140241622925,0.6702975034713745,0.4200000464916229,0.5956248044967651,3.4984088870260166e-07,-3.3135436297015985e-06,-0.8032627105712891,0.00012920258450321853,-0.0002737686736509204,-9.369663894176483e-05,0.006217633374035358,-0.0011927245650440454,-0.0006520598544739187,0.47344106435775757,0.6949830055236816,0.5630472898483276,0.6185393333435059,0.046232640743255615,0.22197198867797852,0.4109383821487427,0.6696119904518127,0.42000001668930054,-0.6266943216323853,1.6061885356903076,-1.4791600704193115,-2.999999761581421,-0.16951315104961395,-0.16506235301494598,-0.15878506004810333,-0.15126152336597443,0.1549278348684311,0.10173247009515762,0.05169826000928879,0.004060622304677963
