vladlanda/robotic-transformer/data/env_000_episode_0102.csv
sim_time_s,robot_box_x,robot_box_y,robot_box_z,robot_box_quat_w,robot_box_quat_x,robot_box_quat_y,robot_box_quat_z,robot_box_linvel_x,robot_box_linvel_y,robot_box_linvel_z,robot_box_angvel_x,robot_box_angvel_y,robot_box_angvel_z,cube_world_x,cube_world_y,cube_world_z,cube_quat_w,cube_quat_x,cube_quat_y,cube_quat_z,cube_linvel_x,cube_linvel_y,cube_linvel_z,cube_angvel_x,cube_angvel_y,cube_angvel_z,endpoint_world_x,endpoint_world_y,endpoint_world_z,endpoint_linvel_x,endpoint_linvel_y,endpoint_linvel_z,target_cube_world_x,target_cube_world_y,target_cube_world_z,gripper_actual_pos_rad_gp_leftgearjoint,gripper_actual_vel_rad_s_gp_leftgearjoint,gripper_actual_pos_rad_gp_rotatingjoint,gripper_actual_vel_rad_s_gp_rotatingjoint,motor_angle_rad_joint1,motor_angle_rad_joint2,motor_angle_rad_joint3,motor_angle_rad_joint4,motor_speed_rad_s_joint1,motor_speed_rad_s_joint2,motor_speed_rad_s_joint3,motor_speed_rad_s_joint4
0.0,0.0,0.0,0.0,1.0,0.0,0.0,0.0,0.0,0.0,0.0,0.0,0.0,0.0,-0.36586323380470276,0.6428138017654419,0.41999998688697815,1.0,0.0,0.0,0.0,0.0,0.0,0.0,0.0,0.0,0.0,3.42540442943573e-06,-0.005000244826078415,1.313499927520752,0.0,0.0,0.0,0.4651155471801758,0.713371217250824,0.42000001668930054,-1.5707999467849731,0.0,0.0,0.0,0.0,0.0,0.0,0.0,0.0,0.0,0.0,0.0
0.016666666666666666,0.0028832578100264072,0.0021741886157542467,0.0,0.9998207688331604,0.0,0.0,0.018932517617940903,0.2410229593515396,0.18218016624450684,0.0,0.0,0.0,3.1417746543884277,-0.3658633530139923,0.642813503742218,0.41999998688697815,1.0,3.279964630564791e-06,-8.339746386809566e-07,8.465587342243452e-08,-1.9833529222523794e-05,0.00017983045836444944,-6.132945418357849e-05,0.0009432713268324733,-0.004689474124461412,-0.00031981561915017664,-0.0071076881140470505,0.003395914100110531,1.3159387111663818,-0.813809871673584,0.9874576330184937,0.1809675097465515,0.4651155471801758,0.713371217250824,0.42000001668930054,-1.5301094055175781,3.0000035762786865,-0.04584939777851105,-3.0000009536743164,0.0008704950450919569,0.0007971448940224946,0.0007116962806321681,0.0006115479045547545,0.11096273362636566,0.0976000651717186,0.08337648957967758,0.06826990097761154
0.03333333333333333,0.008967369794845581,0.006791949737817049,0.0,0.9998090267181396,0.0,0.0,0.019542424008250237,0.4070863127708435,0.315101683139801,0.0,0.0,0.0,-0.8690385222434998,-0.36586347222328186,0.6428134441375732,0.4200000464916229,1.0,3.3908179375430336e-06,-2.132458348569344e-06,-3.7097745320124886e-08,0.00026357852038927376,0.00026937833172269166,-0.00010509369894862175,-0.0017707126680761576,0.004130884539335966,-0.0001354814594378695,-0.02752286195755005,0.02615511231124401,1.316610336303711,-1.5895735025405884,1.6179518699645996,-0.0834030881524086,0.4651155471801758,0.713371217250824,0.42000001668930054,-1.4800900220870972,3.0000030994415283,-0.09588924050331116,-3.0000014305114746,0.0029903557151556015,0.002652687020599842,0.0022772832307964563,0.001860814169049263,0.1641453504562378,0.13970568776130676,0.11377168446779251,0.0862576887011528
0.05,0.018477028235793114,0.013891330920159817,0.0,0.9999727010726929,0.0,0.0,-0.007391144521534443,0.636152446269989,0.4721284806728363,0.0,0.0,0.0,-4.074012756347656,-0.36586350202560425,0.642813503742218,0.4200000464916229,1.0,3.7651902857760433e-06,-2.2119197637948673e-06,5.609367637049445e-09,0.00026530938339419663,0.00026691678795032203,-0.00010440615005791187,-0.0017243892652913928,0.004177466034889221,-0.00012949809024576098,-0.057169295847415924,0.05691016465425491,1.3120728731155396,-1.9540011882781982,2.0043556690216064,-0.44144368171691895,0.4651155471801758,0.713371217250824,0.42000001668930054,-1.4300717115402222,3.0,-0.1459195613861084,-3.0,0.006011179648339748,0.00517234206199646,0.004261178430169821,0.0032733443658798933,0.20698243379592896,0.16668295860290527,0.12445799261331558,0.0802316814661026
0.06666666666666667,0.03078651800751686,0.023376740515232086,0.0,0.9998737573623657,0.0,0.0,-0.015891043469309807,0.7723936438560486,0.6159812808036804,0.0,0.0,0.0,-0.03854420781135559,-0.36586350202560425,0.6428134441375732,0.4200000464916229,0.9999999403953552,3.406832092878176e-06,-2.28558906201215e-06,4.300801492718165e-07,0.0002670248504728079,0.0002679176686797291,-0.0001043803058564663,-0.00174071139190346,0.00421183044090867,-0.00012850876373704523,-0.09486740827560425,0.08922018110752106,1.3013595342636108,-2.4148879051208496,2.045132875442505,-0.8327953815460205,0.4651155471801758,0.713371217250824,0.42000001668930054,-1.3800437450408936,2.999999523162842,-0.13444262742996216,3.0000014305114746,0.008773475885391235,0.007237184327095747,0.0055883657187223434,0.003821405814960599,0.155586376786232,0.10663347691297531,0.055545903742313385,0.002261224901303649
0.08333333333333333,0.04556243494153023,0.03089282289147377,0.0,0.9992551207542419,0.0,0.0,-0.03859070688486099,0.9506112337112427,0.3756166100502014,0.0,0.0,0.0,-3.5397140979766846,-0.36586350202560425,0.6428134441375732,0.4200000464916229,1.0,3.6973397072870284e-06,-2.18897503145854e-06,-2.6324283908252255e-07,0.00026389575214125216,0.000265863083768636,-0.00010433816350996494,-0.001708182506263256,0.004150256514549255,-0.00012991153926122934,-0.12988975644111633,0.12793394923210144,1.2870128154754639,-1.835882306098938,2.5736894607543945,-0.8753783702850342,0.4651155471801758,0.713371217250824,0.42000001668930054,-1.3300361633300781,2.9999985694885254,-0.1663379967212677,-3.0000011920928955,0.009893313981592655,0.007232344709336758,0.004414681810885668,0.001436714082956314,0.013857321813702583,-0.07233953475952148,-0.16081109642982483,-0.25150978565216064
0.1,0.05443967878818512,0.04050903394818306,0.0,0.995857298374176,0.0,0.0,-0.09092960506677628,0.39315223693847656,0.6588701009750366,0.0,0.0,0.0,-7.291057109832764,-0.36586350202560425,0.6428134441375732,0.4200000464916229,0.9999999403953552,3.6204189655109076e-06,-2.2651970539300237e-06,1.7461321988321288e-07,0.00026676736888475716,0.0002674079150892794,-0.0001040794886648655,-0.001738528604619205,0.004209060221910477,-0.00012775698269251734,-0.16222922503948212,0.17384760081768036,1.2670142650604248,-1.9899590015411377,2.9255125522613525,-1.4371715784072876,0.4651155471801758,0.713371217250824,0.42000001668930054,-1.280017375946045,2.9999964237213135,-0.1327272653579712,2.999999761581421,0.0036059466656297445,0.00014013677719049156,-0.003535323543474078,-0.007427713833749294,-0.4949745237827301,-0.5339952707290649,-0.5755468606948853,-0.6199367046356201
0.11666666666666667,0.06495394557714462,0.05281179025769234,0.0,0.9922573566436768,0.0,0.0,-0.12419893592596054,0.8429051637649536,0.6858068108558655,0.0,0.0,0.0,-2.8374693393707275,-0.36586350202560425,0.6428134441375732,0.4200000464916229,1.0,3.798416400968563e-06,-2.2627416456089122e-06,-1.5020985699720768e-07,0.00026374010485596955,0.00026566069573163986,-0.00010429113171994686,-0.001705370144918561,0.00414750212803483,-0.0001298012211918831,-0.20111225545406342,0.21653613448143005,1.240792989730835,-2.3563666343688965,2.6561009883880615,-1.6677045822143555,0.4651155471801758,0.713371217250824,0.42000001668930054,-1.2300218343734741,3.0000014305114746,-0.1645948737859726,-2.999999523162842,-0.00304024713113904,-0.007448915857821703,-0.012080485001206398,-0.01694503240287304,-0.20059284567832947,-0.28618595004081726,-0.3701740801334381,-0.45254528522491455
0.13333333333333333,0.07527704536914825,0.06128657981753349,0.0,0.9856285452842712,0.0,0.0,-0.16892726719379425,0.7004225254058838,0.500583827495575,0.0,0.0,0.0,-6.034438133239746,-0.36586350202560425,0.642813503742218,0.4200000464916229,0.9999999403953552,3.5505045161698945e-06,-2.2297124360193266e-06,2.9290509928614483e-07,0.0002670330286491662,0.000267792638624087,-0.00010417005978524685,-0.0017440036172047257,0.004213502164930105,-0.00012799850082956254,-0.2374640554189682,0.26538795232772827,1.2097578048706055,-1.9324041604995728,3.3493990898132324,-1.9629251956939697,0.4651155471801758,0.713371217250824,0.42000001668930054,-1.1800012588500977,3.0000014305114746,-0.13245369493961334,2.9999992847442627,-0.00900811143219471,-0.014777674339711666,-0.020736075937747955,-0.02689494378864765,-0.21850627660751343,-0.3297182023525238,-0.4364173710346222,-0.5384904146194458
0.15,0.0846177414059639,0.06704089790582657,0.0,0.9814491868019104,0.0,0.0,-0.1917223185300827,0.5010166168212891,0.268077552318573,0.0,0.0,0.0,-1.629064917564392,-0.36586350202560425,0.6428134441375732,0.4200000464916229,0.9999999403953552,3.3380501918145455e-06,-2.242820528408629e-06,-2.8022322240417452e-08,0.00026674597756937146,0.0002675814612302929,-0.00010427739471197128,-0.0017367637483403087,0.0042068837210536,-0.00012831276399083436,-0.27313363552093506,0.31835296750068665,1.171436071395874,-2.026862144470215,3.378852605819702,-2.637141466140747,0.4651155471801758,0.713371217250824,0.42000001668930054,-1.1303679943084717,2.9261372089385986,-0.16431814432144165,-2.9999992847442627,-0.01358683779835701,-0.020917881280183792,-0.028355134651064873,-0.03591085597872734,-0.32837021350860596,-0.40428149700164795,-0.4754177927970886,-0.5419064164161682
0.16666666666666666,0.08957169204950333,0.0737970694899559,0.0,0.9747391939163208,0.0,0.0,-0.22334617376327515,0.2196701467037201,0.4622681140899658,0.0,0.0,0.0,-4.63996696472168,-0.36586350202560425,0.642813503742218,0.4200000464916229,0.9999999403953552,3.647779067250667e-06,-2.307212753294152e-06,3.527146219539645e-08,0.00026726859505288303,0.0002680137986317277,-0.00010418682359158993,-0.0017473286716267467,0.0042176577262580395,-0.00012798354146070778,-0.3071359395980835,0.3774116635322571,1.1199194192886353,-1.8932726383209229,3.713435649871826,-3.495784282684326,0.4651155471801758,0.713371217250824,0.42000001668930054,-1.080370306968689,2.999999761581421,-0.1365639716386795,2.9999992847442627,-0.021345019340515137,-0.029614735394716263,-0.03790552169084549,-0.04623379558324814,-0.5458123683929443,-0.5828497409820557,-0.6151495575904846,-0.6430315971374512
0.18333333333333332,0.09757085889577866,0.0816480740904808,0.0,0.9594756364822388,0.0,0.0,-0.281791627407074,0.4870884418487549,0.5326429009437561,0.0,0.0,0.0,-8.03844928741455,-0.36586350202560425,0.6428134441375732,0.4200000464916229,0.9999999403953552,3.290514769105357e-06,-2.1938158170087263e-06,-2.7924590995098697e-07,0.0002667787193786353,0.0002677605953067541,-0.0001043414231389761,-0.0017390446737408638,0.004206892102956772,-0.00012845569290220737,-0.3349981904029846,0.4445512294769287,1.0537745952606201,-1.3244744539260864,4.228989601135254,-4.357180595397949,0.4651155471801758,0.713371217250824,0.42000001668930054,-1.0303621292114258,2.9999985694885254,-0.16844312846660614,-3.000000238418579,-0.030582979321479797,-0.03928282484412193,-0.04793694615364075,-0.05656827986240387,-0.7305914759635925,-0.7243421673774719,-0.7159672975540161,-0.7059690356254578
0.2,0.10236700624227524,0.0884600356221199,0.0,0.9476187229156494,0.0,0.0,-0.3194037675857544,0.26618245244026184,0.34005412459373474,0.0,0.0,0.0,-3.566166877746582,-0.36586350202560425,0.6428134441375732,0.4200000464916229,1.0,3.280726787124877e-06,-2.219165025962866e-06,1.5945686016038962e-07,0.0002662799961399287,0.0002674010756891221,-0.0001042510848492384,-0.0017357835313305259,0.004197876434773207,-0.00012865287135355175,-0.35781329870224,0.5067238211631775,0.9731345176696777,-0.9976789355278015,3.6744585037231445,-5.205060005187988,0.4651155471801758,0.713371217250824,0.42000001668930054,-0.9803538918495178,2.999997615814209,-0.2184716910123825,-3.0000014305114746,-0.046325571835041046,-0.05483538284897804,-0.06245824694633484,-0.07009069621562958,-0.9544415473937988,-0.930238664150238,-0.8598827719688416,-0.791743814945221
0.21666666666666667,0.10350441932678223,0.09636992961168289,0.0,0.9447301030158997,0.0,0.0,-0.3278491795063019,-0.005872185342013836,0.49269363284111023,0.0,0.0,0.0,0.2880301773548126,-0.36586350202560425,0.642813503742218,0.4200000464916229,1.0,3.613114131439943e-06,-2.270080813104869e-06,2.2099777652329067e-07,0.0002671255497261882,0.00026781627093441784,-0.0001041400246322155,-0.0017444631084799767,0.004215197172015905,-0.00012786380830220878,-0.3774477243423462,0.5563334226608276,0.8828502893447876,-1.033278465270996,2.545522689819336,-5.593334197998047,0.4651155471801758,0.713371217250824,0.42000001668930054,-0.9303440451622009,2.9999918937683105,-0.2685028910636902,-2.9999992847442627,-0.06176604703068733,-0.07033561915159225,-0.07800071686506271,-0.08559571206569672,-0.9605193138122559,-0.9486061334609985,-0.9368800520896912,-0.9248049855232239
0.23333333333333334,0.10867950320243835,0.09956611692905426,0.0,0.9381588101387024,0.0,0.0,-0.3462052643299103,0.32883208990097046,0.1322954148054123,0.0,0.0,0.0,-2.9313292503356934,-0.36586350202560425,0.6428134441375732,0.4200000464916229,1.0,3.381833721505245e-06,-2.29093961934268e-06,2.727813352976227e-07,0.00026691294624470174,0.00026779971085488796,-0.00010433141142129898,-0.0017395353643223643,0.004209678154438734,-0.00012843581498600543,-0.39130479097366333,0.5975929498672485,0.7839478850364685,-0.5647901296615601,2.1141889095306396,-6.167703628540039,0.4651155471801758,0.713371217250824,0.42000001668930054,-0.880333423614502,2.99999737739563,-0.31853538751602173,-2.9999990463256836,-0.0762232095003128,-0.08466953784227371,-0.09223074465990067,-0.09965334087610245,-0.9896643161773682,-0.9912897944450378,-0.9925594925880432,-0.9762337803840637
0.25,0.10831672698259354,0.1068446934223175,0.0,0.9380282759666443,0.0,0.0,-0.3465587794780731,-0.011060452088713646,0.38683485984802246,0.0,0.0,0.0,0.8112946152687073,-0.36586347222328186,0.6428134441375732,0.4200000464916229,0.9999999403953552,3.7065449305373477e-06,-2.222977173005347e-06,-2.2551901679435105e-07,0.0002642468025442213,0.0002665686479303986,-0.00010457751341164112,-0.0017169659258797765,0.004155547823756933,-0.00013063880032859743,-0.3968762159347534,0.6176085472106934,0.6836792230606079,-0.11143383383750916,0.6035029888153076,-5.779049396514893,0.4651155471801758,0.713371217250824,0.42000001668930054,-0.8303239941596985,2.9999828338623047,-0.36856794357299805,-3.0000009536743164,-0.09362784773111343,-0.10182661563158035,-0.1092292070388794,-0.11654548346996307,-0.6878972053527832,-0.7477142810821533,-0.8045988082885742,-0.8558023571968079
0.26666666666666666,0.11177140474319458,0.10879452526569366,0.0,0.9326613545417786,0.0,0.0,-0.36075305938720703,0.2556653618812561,0.05455959960818291,0.0,0.0,0.0,-2.3631985187530518,-0.36586350202560425,0.6428134441375732,0.4200000464916229,0.9999999403953552,3.7196000448602717e-06,-2.403485495960922e-06,-1.8307810023543425e-07,0.0002662320912349969,0.00026729173259809613,-0.00010425853542983532,-0.0017327233217656612,0.0041965520940721035,-0.00012851424980908632,-0.39654541015625,0.6305001974105835,0.5871522426605225,0.2666541337966919,0.6555361747741699,-5.598297595977783,0.4651155471801758,0.713371217250824,0.42000001668930054,-0.7803152203559875,3.0000016689300537,-0.4185991585254669,-2.999999523162842,-0.10596513748168945,-0.1149381771683693,-0.12310931831598282,-0.13113243877887726,-1.0089635848999023,-1.0067459344863892,-1.00505793094635,-1.0037144422531128
0.2833333333333333,0.11159980297088623,0.10818210989236832,0.0,0.9345998764038086,0.0,0.0,-0.35570088028907776,-0.09397970885038376,-0.06744357198476791,0.0,0.0,0.0,1.5093300342559814,-0.36586350202560425,0.642813503742218,0.4200000464916229,0.9999999403953552,3.5840146210830426e-06,-2.31546050599718e-06,7.404324975368581e-08,0.00026522012194618583,0.0002645521017257124,-0.00010317075066268444,-0.0017020526574924588,0.004185048397630453,-0.0001249978959094733,-0.3896902799606323,0.6387691497802734,0.5008871555328369,0.639407217502594,0.358806312084198,-4.821986198425293,0.4651155471801758,0.713371217250824,0.42000001668930054,-0.7303066253662109,2.999999523162842,-0.4686286747455597,-3.000002384185791,-0.12388765811920166,-0.13256971538066864,-0.14052298665046692,-0.14837534725666046,-1.0142472982406616,-1.0107760429382324,-1.0081247091293335,-1.006002426147461
0.3,0.108707956969738,0.1053646057844162,0.0,0.9310004115104675,0.0,0.0,-0.3650180995464325,-0.1972082406282425,-0.21828526258468628,0.0,0.0,0.0,-2.0721139907836914,-0.36586350202560425,0.6428134441375732,0.4200000464916229,1.0,3.724180714925751e-06,-2.2719079879607307e-06,9.637297893050345e-08,0.0002631253737490624,0.0002652592374943197,-0.00010437984019517899,-0.0016960874199867249,0.004134821705520153,-0.00013027869863435626,-0.3735409379005432,0.6435034275054932,0.4193357825279236,1.2666475772857666,0.20658168196678162,-4.907603740692139,0.4651155471801758,0.713371217250824,0.42000001668930054,-0.680299699306488,2.9999887943267822,-0.5186569094657898,-3.0000011920928955,-0.140340656042099,-0.14902041852474213,-0.15699423849582672,-0.16486984491348267,-1.0000293254852295,-1.0000149011611938,-1.0000059604644775,-1.0
0.31666666666666665,0.10385576635599136,0.10026584565639496,0.0,0.9333404898643494,0.0,0.0,-0.35899245738983154,-0.33396071195602417,-0.3432919681072235,0.0,0.0,0.0,1.666803240776062,-0.36586350202560425,0.6428134441375732,0.4200000464916229,1.0,3.6661228932644008e-06,-2.3925063032947946e-06,1.6801759272766503e-07,0.00026602187426760793,0.00026706981589086354,-0.00010418705642223358,-0.0017310723196715117,0.004193500615656376,-0.00012849830090999603,-0.3748718500137329,0.6459388732910156,0.42637085914611816,-0.14124859869480133,0.09184221923351288,-0.17013390362262726,0.4651155471801758,0.713371217250824,0.42000001668930054,-0.6303648352622986,2.9999783039093018,-0.5691463947296143,-3.0000011920928955,-0.14764858782291412,-0.15558917820453644,-0.1624705195426941,-0.16882328689098358,-0.4880150854587555,-0.41813239455223083,-0.33316558599472046,-0.228408083319664
0.3333333333333333,0.09662024676799774,0.09303531795740128,0.0,0.9299423694610596,0.0,0.0,-0.367705374956131,-0.4791567027568817,-0.47216904163360596,0.0,0.0,0.0,-2.0463976860046387,-0.365554541349411,0.6435723304748535,0.4200001657009125,0.9999589323997498,2.0824586499657016e-06,2.990645725731156e-06,-0.009055494330823421,0.036356039345264435,0.07765604555606842,-0.00016662203415762633,0.000332932046148926,-0.0051424503326416016,-1.7626651525497437,-0.3739376664161682,0.6464061737060547,0.42358556389808655,0.18166875839233398,0.048828303813934326,-0.16150900721549988,0.4651155471801758,0.713371217250824,0.42000001668930054,-0.5803598761558533,2.999983310699463,-0.619206964969635,-2.9999911785125732,-0.1561678647994995,-0.16262169182300568,-0.16778907179832458,-0.1721242070198059,-0.5209082365036011,-0.41212427616119385,-0.2928204834461212,-0.1585780829191208
0.35,0.08708588033914566,0.08364267647266388,0.0,0.9323261976242065,0.0,0.0,-0.36161836981773376,-0.6165024042129517,-0.6038987040519714,0.0,0.0,0.0,1.6590064764022827,-0.3630700707435608,0.6475537419319153,0.420035719871521,0.9985196590423584,0.0008483665878884494,3.2286072382703424e-05,-0.05438462644815445,0.2666843831539154,0.3993317484855652,0.022034049034118652,1.2733815908432007,-0.19481126964092255,-9.405238151550293,-0.3707507252693176,0.6501681804656982,0.4214290976524353,0.1763610541820526,0.4588131904602051,0.016079362481832504,0.4651155471801758,0.713371217250824,0.42000001668930054,-0.530354917049408,3.0000016689300537,-0.6692451238632202,-2.9997682571411133,-0.16500906646251678,-0.16936756670475006,-0.17225490510463715,-0.17406128346920013,-0.5024774670600891,-0.36839190125465393,-0.22258050739765167,-0.06155167147517204
0.36666666666666664,0.07522768527269363,0.07201451063156128,0.0,0.9288399815559387,0.0,0.0,-0.37048113346099854,-0.7554753422737122,-0.7367848753929138,0.0,0.0,0.0,-2.0838778018951416,-0.35786426067352295,0.6551470160484314,0.4200005829334259,0.989619791507721,-1.0562488569121342e-05,8.73661156219896e-06,-0.14371049404144287,0.3551846146583557,0.5099750757217407,-0.0008644897607155144,0.02977573126554489,-0.023098956793546677,-12.625375747680664,-0.3637796640396118,0.6588457822799683,0.42051172256469727,0.6170687675476074,0.5724180340766907,-0.03363855183124542,0.4651155471801758,0.713371217250824,0.42000001668930054,-0.48035046458244324,2.9999642372131348,-0.7192851305007935,-2.999981641769409,-0.17342443764209747,-0.1752234250307083,-0.17528992891311646,-0.17397287487983704,-0.4680984616279602,-0.30016425251960754,-0.11536691337823868,0.08806499093770981
0.3833333333333333,0.06601640582084656,0.057734232395887375,0.0,0.9142922163009644,0.0,0.0,-0.4050552546977997,-0.47743725776672363,-0.9086058139801025,0.0,0.0,0.0,-5.339022159576416,-0.3467201888561249,0.6696065664291382,0.42036592960357666,0.9829020500183105,-0.0029158552642911673,-0.005175556056201458,-0.18403321504592896,0.9230101704597473,1.0970159769058228,0.07572439312934875,2.7248375415802,-4.550333499908447,-5.600794792175293,-0.3506491780281067,0.6713104248046875,0.4214431345462799,1.0350953340530396,1.013110876083374,0.1272227019071579,0.4651155471801758,0.713371217250824,0.42000001668930054,-0.43034690618515015,2.997138500213623,-0.7693389058113098,-3.0000979900360107,-0.18011197447776794,-0.179157555103302,-0.17612530291080475,-0.1713448017835617,-0.3155696988105774,-0.15667115151882172,0.02363031916320324,0.22599995136260986
0.4,0.060948945581912994,0.04040610045194626,0.0,0.886532723903656,0.0,0.0,-0.462665855884552,-0.23474371433258057,-1.0957878828048706,0.0,0.0,0.0,-8.491944313049316,-0.3167736530303955,0.69332355260849,0.42433178424835205,0.9709860682487488,-0.004079120699316263,-0.039506204426288605,-0.23581482470035553,2.8991987705230713,2.005709648132324,0.24197302758693695,20.718524932861328,-11.110734939575195,8.077691078186035,-0.32053089141845703,0.6958737373352051,0.42497265338897705,2.6003174781799316,1.9710490703582764,0.44590723514556885,0.4651155471801758,0.713371217250824,0.42000001668930054,-0.39275747537612915,1.3445438146591187,-0.8193628191947937,-3.0000009536743164,-0.18680056929588318,-0.18273676931858063,-0.17630524933338165,-0.16785217821598053,-0.4273970425128937,-0.22498531639575958,-0.010138562880456448,0.21547506749629974
0.4166666666666667,0.057974785566329956,0.0280459001660347,0.0,0.8424951434135437,0.0,0.0,-0.5387039184570312,-0.1399790495634079,-0.6144289374351501,0.0,0.0,0.0,-11.317103385925293,-0.24722622334957123,0.733039915561676,0.43014049530029297,0.9528414011001587,0.05250238627195358,-0.08368351310491562,-0.2869383990764618,5.735411643981934,2.386753797531128,0.4108831584453583,15.168807029724121,-13.614679336547852,23.38224220275879,-0.25082194805145264,0.7360630035400391,0.4306589365005493,5.352987289428711,2.9250588417053223,0.44927600026130676,0.4651155471801758,0.713371217250824,0.42000001668930054,-0.3741376996040344,0.8823654651641846,-0.7824689149856567,2.996831178665161,-0.20080144703388214,-0.19225101172924042,-0.1810595691204071,-0.16805283725261688,-0.8784357309341431,-0.6403009295463562,-0.3664911091327667,-0.11625491827726364
0.43333333333333335,0.05783071368932724,0.02174752578139305,0.0,0.8053082227706909,0.0,0.0,-0.5928563475608826,0.0346253477036953,-0.42896318435668945,0.0,0.0,0.0,-6.315919876098633,-0.1566140502691269,0.7761151790618896,0.43954163789749146,0.9104011058807373,0.10026034712791443,-0.12161273509263992,-0.3825283646583557,5.843559741973877,1.795305609703064,0.5734243988990784,11.24168872833252,2.6459555625915527,11.095020294189453,-0.1604340374469757,0.7807544469833374,0.4397714138031006,5.526151657104492,2.4579122066497803,0.6700147986412048,0.4651155471801758,0.713371217250824,0.42000001668930054,-0.3588513135910034,0.9462860226631165,-0.8097469210624695,-3.000002861022949,-0.21376292407512665,-0.2049437314271927,-0.18948128819465637,-0.1727352738380432,-0.49914664030075073,-0.5754173398017883,-0.39174386858940125,-0.23629796504974365
0.45,0.05363272875547409,0.0197099931538105,0.0,0.7887080311775208,0.0,0.0,-0.6147679090499878,-0.3472048044204712,-0.03814543038606644,0.0,0.0,0.0,-2.1889753341674805,-0.06010494381189346,0.8066505789756775,0.452388197183609,0.8434571027755737,0.12106435745954514,-0.12714341282844543,-0.5076987147331238,6.040185928344727,0.6354945302009583,0.7700423002243042,-2.4412167072296143,-18.75779914855957,16.522552490234375,-0.06482574343681335,0.8123977780342102,0.45106178522109985,6.0387654304504395,1.5098309516906738,0.9048153162002563,0.4651155471801758,0.713371217250824,0.42000001668930054,-0.34096282720565796,1.0147916078567505,-0.8597708940505981,-3.0000030994415283,-0.22688114643096924,-0.21753272414207458,-0.19829367101192474,-0.17836421728134155,-0.7905142903327942,-0.7237057685852051,-0.5119071006774902,-0.33422985672950745
0.4666666666666667,0.055118609219789505,0.010906384326517582,0.0,0.7641444206237793,0.0,0.0,-0.6450451612472534,0.20226629078388214,-0.6831730008125305,0.0,0.0,0.0,-5.709787845611572,0.042416010051965714,0.8214026689529419,0.46225062012672424,0.7723519802093506,0.1129426658153534,-0.12593817710876465,-0.6122547388076782,6.147587299346924,-0.12794646620750427,0.616446852684021,-7.883236885070801,-13.502882957458496,7.723293304443359,0.037822425365448,0.8295451402664185,0.4612882137298584,6.364228248596191,0.3997667133808136,0.6074707508087158,0.4651155471801758,0.713371217250824,0.42000001668930054,-0.3260500431060791,0.6890307664871216,-0.909795343875885,-3.0000038146972656,-0.23081371188163757,-0.2212499976158142,-0.1998729258775711,-0.1780472695827484,-0.10411307960748672,-0.059530097991228104,0.0643865317106247,0.17912796139717102
0.48333333333333334,0.054509568959474564,0.004194913897663355,0.0,0.751148521900177,0.0,0.0,-0.6601331830024719,-0.06566154956817627,-0.3121981918811798,0.0,0.0,0.0,-1.1477571725845337,0.1420234739780426,0.8216966390609741,0.47285839915275574,0.7145541906356812,0.10549937933683395,-0.12733547389507294,-0.679755687713623,5.535275936126709,-1.0555590391159058,0.688510000705719,-9.649571418762207,-7.128262519836426,20.003833770751953,0.13953590393066406,0.8303306698799133,0.47261011600494385,6.105023384094238,-0.2896266579627991,0.8399183750152588,0.4651155471801758,0.713371217250824,0.42000001668930054,-0.3165788948535919,0.4051899313926697,-0.9598196744918823,-3.000002145767212,-0.23488326370716095,-0.2242102026939392,-0.20115074515342712,-0.17790323495864868,-0.19954238831996918,-0.15129122138023376,-0.10332326591014862,-0.07140594720840454
0.5,0.05563259497284889,0.001680545974522829,0.0,0.731892466545105,0.0,0.0,-0.6814201474189758,0.12233597785234451,-0.08557979017496109,0.0,0.0,0.0,-4.321812629699707,0.23341681063175201,0.8086212873458862,0.4802517294883728,0.627345860004425,0.1061314269900322,-0.11907877773046494,-0.762229323387146,4.6809773445129395,-1.6620458364486694,0.12407410144805908,-22.696027755737305,-6.459362983703613,17.604291915893555,0.23110897839069366,0.8202786445617676,0.4804835915565491,5.260262489318848,-1.020369052886963,0.3770900368690491,0.4651155471801758,0.713371217250824,0.42000001668930054,-0.30984920263290405,0.25906476378440857,-1.0098435878753662,-3.000001907348633,-0.23706471920013428,-0.225801020860672,-0.20251387357711792,-0.17919707298278809,-0.07730342447757721,-0.03704535588622093,-0.04037415608763695,-0.051341474056243896
0.5166666666666666,0.059300296008586884,0.002704076236113906,0.0,0.7257280945777893,0.0,0.0,-0.6879816651344299,0.25173407793045044,0.11976975947618484,0.0,0.0,0.0,-0.11332934349775314,0.31112411618232727,0.7862316966056824,0.47904714941978455,0.5272772312164307,0.05210733041167259,-0.1411730945110321,-0.8362616896629333,4.313139915466309,-1.614741325378418,-0.4855329096317291,-13.782875061035156,8.815802574157715,-21.41452980041504,0.30827680230140686,0.7997267246246338,0.48159846663475037,4.141618728637695,-1.4826936721801758,-0.039381325244903564,0.4651155471801758,0.713371217250824,0.42000001668930054,-0.30404138565063477,0.5431487560272217,-1.0598657131195068,-3.0,-0.23749321699142456,-0.22565549612045288,-0.20283561944961548,-0.18010631203651428,0.06785951554775238,0.08796694874763489,0.02971174381673336,-0.03502547740936279
0.5333333333333333,0.0656740665435791,-0.00042245149961672723,0.0,0.7101876735687256,0.0,0.0,-0.7040124535560608,0.4181436598300934,-0.17286589741706848,0.0,0.0,0.0,-3.252911329269409,0.3739156723022461,0.7646413445472717,0.4700101315975189,0.483650803565979,0.029739126563072205,-0.13234573602676392,-0.864686131477356,3.2994446754455566,-1.6664063930511475,-0.6399819850921631,-2.9052772521972656,0.7613754272460938,-2.0808050632476807,0.3724660277366638,0.7782135009765625,0.4732840061187744,3.358576774597168,-1.4258925914764404,-0.7204158306121826,0.4651155471801758,0.713371217250824,0.42000001668930054,-0.2919468879699707,0.8445571660995483,-1.1098878383636475,-3.000000476837158,-0.231408953666687,-0.22020323574543,-0.19946317374706268,-0.17883433401584625,0.19316422939300537,0.19382449984550476,0.09352908283472061,-0.014385228045284748
0.55,0.07435813546180725,0.0018509449437260628,0.0,0.7080160975456238,0.0,0.0,-0.7061963081359863,0.5431218147277832,0.1310928910970688,0.0,0.0,0.0,0.5209661722183228,0.4197222590446472,0.7393742203712463,0.45465633273124695,0.45136773586273193,-0.0003362532297614962,-0.11789441108703613,-0.884515643119812,2.1194729804992676,-2.09894061088562,-0.9863842725753784,-2.5650715827941895,0.5915623903274536,7.519491672515869,0.4189915657043457,0.7519700527191162,0.4582176208496094,2.329085350036621,-1.5124372243881226,-1.059310793876648,0.4651155471801758,0.713371217250824,0.42000001668930054,-0.2780328691005707,0.6933721303939819,-1.159909963607788,-3.0000009536743164,-0.23100240528583527,-0.21933580935001373,-0.19996309280395508,-0.1808987259864807,0.19668354094028473,0.17268547415733337,0.041716329753398895,-0.09403493255376816
0.5666666666666667,0.08308061212301254,0.002555625280365348,0.0,0.6949105262756348,0.0,0.0,-0.7190961837768555,0.5211288928985596,0.02119421772658825,0.0,0.0,0.0,-3.198622941970825,0.4534115493297577,0.7195314168930054,0.43101534247398376,0.43728911876678467,-0.04115389660000801,-0.10582176595926285,-0.8921246528625488,1.5200235843658447,-1.5013290643692017,-1.4300625324249268,0.10896045714616776,7.7931904792785645,9.500598907470703,0.45290660858154297,0.7315384149551392,0.4346732497215271,1.6550920009613037,-1.0441863536834717,-1.5874145030975342,0.4651155471801758,0.713371217250824,0.42000001668930054,-0.2701547145843506,0.29636579751968384,-1.2099320888519287,-2.9996423721313477,-0.22318749129772186,-0.21323806047439575,-0.19724899530410767,-0.18149015307426453,0.5638254284858704,0.43247079849243164,0.203326016664505,-0.018906082957983017
0.5833333333333334,0.09281027317047119,0.005565444938838482,0.0,0.6935201287269592,0.0,0.0,-0.720437228679657,0.6128513813018799,0.251540869474411,0.0,0.0,0.0,0.7081795334815979,0.47001633048057556,0.7125236988067627,0.4215695858001709,0.3913314640522003,-0.03817645460367203,-0.015979554504156113,-0.919318675994873,0.6377158164978027,-0.052436672151088715,0.02578089013695717,-1.1696857213974,0.8075066208839417,-10.68974781036377,0.46630480885505676,0.7228002548217773,0.4252113699913025,0.24338702857494354,-0.0883927196264267,0.19782182574272156,0.4651155471801758,0.713371217250824,0.42000001668930054,-0.26302459836006165,0.8677261471748352,-1.2599695920944214,-2.999169111251831,-0.21347251534461975,-0.20612584054470062,-0.19412408769130707,-0.18206220865249634,0.6810564398765564,0.4887205958366394,0.22409531474113464,-0.015755783766508102
0.6,0.09964132308959961,0.005833548028022051,0.0,0.6822137832641602,0.0,0.0,-0.7311527132987976,0.33679449558258057,-0.058813635259866714,0.0,0.0,0.0,-2.7476534843444824,0.4739326238632202,0.7149832248687744,0.4215506911277771,0.4548976719379425,-0.03583958372473717,-0.018251553177833557,-0.8896350264549255,0.1888056844472885,0.011751649901270866,-0.042882755398750305,1.9560177326202393,-1.4262551069259644,3.3455750942230225,0.46955591440200806,0.7207009196281433,0.4245566129684448,-0.008160777390003204,-0.09482850134372711,-0.04640256240963936,0.4651155471801758,0.713371217250824,0.42000001668930054,-0.2952461838722229,-2.9998862743377686,-1.2218161821365356,2.9998607635498047,-0.20207946002483368,-0.19779111444950104,-0.18999139964580536,-0.18175700306892395,0.6742119193077087,0.500554621219635,0.26175713539123535,0.042957279831171036
0.6166666666666667,0.10730700194835663,0.00993307027965784,0.0,0.6828302145004272,0.0,0.0,-0.7305771112442017,0.47965291142463684,0.22963033616542816,0.0,0.0,0.0,0.9766387939453125,0.47620344161987305,0.7148834466934204,0.4200221300125122,0.48263660073280334,-2.7033844162360765e-05,-0.0004949138383381069,-0.8758205771446228,0.09269748628139496,-0.04989384114742279,-0.011454775929450989,0.4509272277355194,-0.37036600708961487,2.903841018676758,0.46888571977615356,0.7187246084213257,0.4261709451675415,0.07920578867197037,-0.023740943521261215,0.1505015641450882,0.4651155471801758,0.713371217250824,0.42000001668930054,-0.33607566356658936,-1.9661808013916016,-1.2425897121429443,-2.9990925788879395,-0.19478042423725128,-0.1927516907453537,-0.1882317215204239,-0.18301387131214142,0.5681163668632507,0.39447247982025146,0.16983091831207275,-0.0346161387860775
0.6333333333333333,0.11669528484344482,0.009141549468040466,0.0,0.6723059415817261,0.0,0.0,-0.7402733564376831,0.5873484015464783,-0.06875016540288925,0.0,0.0,0.0,-2.620828866958618,0.4767676889896393,0.7148678302764893,0.41999998688697815,0.5032933354377747,2.7319024411553983e-06,-4.2024421418318525e-06,-0.8641156554222107,-0.012120337225496769,0.06256946921348572,-0.00011262860061833635,0.012150381691753864,0.0009032745147123933,9.149813652038574,0.4694988429546356,0.7222808599472046,0.42889001965522766,-0.12264855951070786,0.2518865764141083,0.2040690928697586,0.4651155471801758,0.713371217250824,0.42000001668930054,-0.3840365409851074,-2.9999985694885254,-1.2925537824630737,-2.9991848468780518,-0.18215644359588623,-0.18349547684192657,-0.18303844332695007,-0.1815003901720047,0.6421390771865845,0.47629523277282715,0.2719515860080719,0.08586155623197556
0.65,0.12823869287967682,0.012091823853552341,0.0,0.6738394498825073,0.0,0.0,-0.7388777732849121,0.7107462286949158,0.19087539613246918,0.0,0.0,0.0,1.1651555299758911,0.47566819190979004,0.7155320644378662,0.41999998688697815,0.5476115345954895,4.441214059625054e-06,9.370640327688307e-06,-0.8367327451705933,-0.08765328675508499,0.037397779524326324,-0.00018850718333851546,-0.008421770296990871,-0.009909153915941715,6.010092735290527,0.46607106924057007,0.7243739366531372,0.4324486255645752,-0.21108022332191467,0.13441453874111176,0.2349162995815277,0.4651155471801758,0.713371217250824,0.42000001668930054,-0.43406569957733154,-2.999995708465576,-1.3425596952438354,-2.9999561309814453,-0.17504312098026276,-0.17832018435001373,-0.1803222894668579,-0.18096676468849182,0.4499630033969879,0.3358475863933563,0.19939260184764862,0.08166877925395966
0.6666666666666666,0.14096084237098694,0.011018822900950909,0.0,0.6907163858413696,0.0,0.0,-0.7231257557868958,0.8205493688583374,-0.10488427430391312,0.0,0.0,0.0,3.5107953548431396,0.47473663091659546,0.715744137763977,0.42000001668930054,0.5616254210472107,1.0546353905738215e-06,7.15545468210621e-07,-0.8273915648460388,-0.039708737283945084,0.0044682142324745655,-1.1978918337263167e-05,-0.0005160661530680954,-0.00024923545424826443,1.0769450664520264,0.46435001492500305,0.7254474759101868,0.43701955676078796,-0.15762567520141602,-0.022399861365556717,0.3076215386390686,0.4651155471801758,0.713371217250824,0.42000001668930054,-0.4840933680534363,-2.9997715950012207,-1.3925458192825317,-2.9999687671661377,-0.1674846112728119,-0.1719348132610321,-0.17533354461193085,-0.17704372107982635,0.31510043144226074,0.30527302622795105,0.28760406374931335,0.28777769207954407
0.6833333333333333,0.15562590956687927,0.006779104936867952,0.0,0.6942813992500305,0.0,0.0,-0.7197036147117615,0.9155937433242798,-0.30946430563926697,0.0,0.0,0.0,-0.41136693954467773,0.47460344433784485,0.7157531976699829,0.4199999272823334,0.5622612237930298,-1.2141447314206744e-06,-6.484135155915283e-06,-0.8269596099853516,0.00010872444545384496,-0.0004365371132735163,-7.580360397696495e-05,0.011678656563162804,-0.00512058986350894,-0.0012487679487094283,0.4659569263458252,0.725741982460022,0.4423835277557373,0.26746851205825806,-0.008711710572242737,0.3904604911804199,0.4651155471801758,0.713371217250824,0.42000001668930054,-0.5341063141822815,-3.000000238418579,-1.4425636529922485,-2.9999990463256836,-0.16384340822696686,-0.1678972691297531,-0.17091171443462372,-0.17193099856376648,0.1791209578514099,0.22636568546295166,0.2778535485267639,0.34724679589271545
0.7,0.17201459407806396,-0.0005500443512573838,0.0,0.6763602495193481,0.0,0.0,-0.7365709543228149,1.0137386322021484,-0.5308030843734741,0.0,0.0,0.0,-3.836237668991089,0.4746035635471344,0.7157531976699829,0.41999995708465576,0.5622609257698059,-1.6053000990723376e-06,-5.734463684348157e-06,-0.8269598484039307,8.01916976342909e-05,-0.0003869651409331709,-7.471605204045773e-05,0.00994151458144188,-0.0031059563625603914,-0.0009769384050741792,0.4756056070327759,0.7277481555938721,0.4562884271144867,0.8673937320709229,0.2034788727760315,1.3745448589324951,0.4651155471801758,0.713371217250824,0.42000001668930054,-0.5841180086135864,-2.9999797344207764,-1.4925819635391235,-3.0,-0.16326826810836792,-0.16623178124427795,-0.16804595291614532,-0.16761155426502228,-0.029217993840575218,0.046713169664144516,0.13069388270378113,0.22720755636692047
0.7166666666666667,0.1882026046514511,-0.0032206543255597353,0.0,0.6691578030586243,0.0,0.0,-0.7431203126907349,0.932481050491333,-0.024404551833868027,0.0,0.0,0.0,0.025159243494272232,0.4746035635471344,0.7157531976699829,0.41999995708465576,0.5622607469558716,-1.558240910526365e-06,-5.65375648875488e-06,-0.8269599080085754,8.24179733172059e-05,-0.00038774855784140527,-7.47868325561285e-05,0.009967630729079247,-0.0031223089899867773,-0.0009843531297519803,0.49026328325271606,0.7318418622016907,0.48767346143722534,0.9313312768936157,0.3233257532119751,2.347764492034912,0.4651155471801758,0.713371217250824,0.42000001668930054,-0.6341230273246765,-2.9999959468841553,-1.5426002740859985,-3.000000238418579,-0.16884452104568481,-0.1698428988456726,-0.16962838172912598,-0.16710145771503448,-0.40109941363334656,-0.28759121894836426,-0.17045538127422333,-0.05249432474374771
0.7333333333333333,0.20112957060337067,-0.0025962188374251127,0.0,0.6849367022514343,0.0,0.0,-0.7286025285720825,0.7181782126426697,0.016865763813257217,0.0,0.0,0.0,3.3629188537597656,0.4746035635471344,0.7157531976699829,0.41999995708465576,0.5622610449790955,-1.5710202205809765e-06,-5.795703145849984e-06,-0.8269597291946411,8.276272274088115e-05,-0.00038780533941462636,-7.478520274162292e-05,0.00996977649629116,-0.0031232095789164305,-0.0009850101778283715,0.5079256296157837,0.7332392930984497,0.5200808048248291,1.126620888710022,-0.020087294280529022,1.6612083911895752,0.4651155471801758,0.713371217250824,0.42000001668930054,-0.651581883430481,0.6031160354614258,-1.5926185846328735,-3.000000238418579,-0.1735639125108719,-0.1728675365447998,-0.1708240658044815,-0.16643156111240387,-0.11167211085557938,-0.030138345435261726,0.06154352426528931,0.1556362360715866
0.75,0.20967219769954681,-0.006768090650439262,0.0,0.6879635453224182,0.0,0.0,-0.7257452607154846,0.456341415643692,-0.2692492604255676,0.0,0.0,0.0,-0.5239109396934509,0.4746035635471344,0.7157531976699829,0.41999995708465576,0.5622609257698059,-1.5701499478382175e-06,-5.7048409871640615e-06,-0.8269598484039307,8.261944458354264e-05,-0.00038776604924350977,-7.478264160454273e-05,0.009968460537493229,-0.003122759750112891,-0.0009848668705672026,0.5223096609115601,0.7328373193740845,0.5414170622825623,0.5742972493171692,-0.19120952486991882,1.0542964935302734,0.4651155471801758,0.713371217250824,0.42000001668930054,-0.6644925475120544,-1.920945644378662,-1.5536316633224487,2.9999992847442627,-0.1723613739013672,-0.17070649564266205,-0.16760937869548798,-0.16221308708190918,0.003331570653244853,0.08169165998697281,0.15838585793972015,0.22301077842712402
0.7666666666666666,0.21463368833065033,-0.007611268199980259,0.0,0.7001188397407532,0.0,0.0,-0.7140263319015503,0.21253584325313568,-0.044152893126010895,0.0,0.0,0.0,2.6957178115844727,0.4746035635471344,0.7157531976699829,0.41999995708465576,0.5622608065605164,-1.567942035762826e-06,-5.778569175163284e-06,-0.8269599080085754,8.278918539872393e-05,-0.00038791127735748887,-7.478427141904831e-05,0.009973225183784962,-0.0031242999248206615,-0.0009855256648734212,0.5313142538070679,0.7281931638717651,0.5568016171455383,0.5493154525756836,-0.20050048828125,0.8242226839065552,0.4651155471801758,0.713371217250824,0.42000001668930054,-0.665944516658783,1.4525035619735718,-1.568602204322815,-3.0,-0.17316709458827972,-0.17018811404705048,-0.16584032773971558,-0.15946054458618164,0.11694345623254776,0.15132923424243927,0.18266715109348297,0.19972527027130127
0.7833333333333333,0.21554142236709595,-0.011051486246287823,0.0,0.6986206769943237,0.0,0.0,-0.7154922485351562,0.007572242058813572,-0.25521036982536316,0.0,0.0,0.0,-1.1493412256240845,0.4746035635471344,0.7157531976699829,0.41999995708465576,0.5622608661651611,-1.584099209139822e-06,-5.6963294809975196e-06,-0.8269599080085754,8.157958654919639e-05,-0.0003878332208842039,-7.479405030608177e-05,0.00996941328048706,-0.0031245769932866096,-0.000982360914349556,0.538567841053009,0.7247705459594727,0.5661909580230713,0.30146223306655884,-0.2706078886985779,0.45263493061065674,0.4651155471801758,0.713371217250824,0.42000001668930054,-0.66913241147995,-1.570090651512146,-1.5296894311904907,3.000000238418579,-0.1715857833623886,-0.16807876527309418,-0.16328677535057068,-0.1567377746105194,0.06568758189678192,0.10054279863834381,0.12746648490428925,0.13498802483081818
0.8,0.217668816447258,-0.011557851918041706,0.0,0.7069236040115356,0.0,0.0,-0.7072898745536804,0.1721005141735077,0.0017607754562050104,0.0,0.0,0.0,2.1452558040618896,0.4746035635471344,0.7157531976699829,0.41999995708465576,0.5622608661651611,-1.5858358892728575e-06,-5.6354811022174545e-06,-0.8269598484039307,8.096098463283852e-05,-0.0003876620903611183,-7.47954472899437e-05,0.009962908923625946,-0.0031222098041325808,-0.0009808611357584596,0.5436027646064758,0.7187270522117615,0.5720310807228088,0.36125481128692627,-0.3554050624370575,0.31082871556282043,0.4651155471801758,0.713371217250824,0.42000001668930054,-0.6672885417938232,1.5213112831115723,-1.545194149017334,-3.0000011920928955,-0.17143304646015167,-0.1671980917453766,-0.1617645025253296,-0.15485771000385284,0.10070434212684631,0.12542034685611725,0.1488214135169983,0.15962721407413483
0.8166666666666667,0.21810708940029144,-0.014689582400023937,0.0,0.7035650610923767,0.0,0.0,-0.7106308937072754,-0.016902634873986244,-0.2117198258638382,0.0,0.0,0.0,-1.3934897184371948,0.4746035635471344,0.7157531380653381,0.41999995708465576,0.5622607469558716,-1.5628438632120378e-06,-5.706906904379139e-06,-0.8269599080085754,8.320796041516587e-05,-0.0003880106669384986,-7.478054612874985e-05,0.009977122768759727,-0.003126081544905901,-0.000986722530797124,0.550468921661377,0.7133345603942871,0.5761544704437256,0.38755324482917786,-0.39806467294692993,0.3036453127861023,0.4651155471801758,0.713371217250824,0.42000001668930054,-0.672845721244812,-1.8872650861740112,-1.5063482522964478,3.000000238418579,-0.1687440127134323,-0.16442355513572693,-0.1589057743549347,-0.15208685398101807,0.07683824747800827,0.09431932121515274,0.10995636135339737,0.11396003514528275
0.8333333333333334,0.21965885162353516,-0.015042383223772049,0.0,0.7099142074584961,0.0,0.0,-0.7042881846427917,0.13522237539291382,0.020564302802085876,0.0,0.0,0.0,1.8840962648391724,0.4746035635471344,0.7157531976699829,0.41999995708465576,0.5622609853744507,-1.5570109326290549e-06,-5.8086266108148266e-06,-0.8269597887992859,8.294547296827659e-05,-0.0003878988791257143,-7.479707710444927e-05,0.009972726926207542,-0.003125289687886834,-0.0009856908582150936,0.5568903088569641,0.7059535980224609,0.5809749364852905,0.41947564482688904,-0.42081236839294434,0.3408254086971283,0.4651155471801758,0.713371217250824,0.42000001668930054,-0.6735316514968872,1.5106806755065918,-1.5223524570465088,-3.0,-0.16771915555000305,-0.16313393414020538,-0.1573258638381958,-0.15034805238246918,0.12439924478530884,0.1275889277458191,0.13481813669204712,0.1376098394393921
0.85,0.21943366527557373,-0.01619771122932434,0.0,0.7050508856773376,0.0,0.0,-0.7091566920280457,-0.03951266035437584,-0.10095444321632385,0.0,0.0,0.0,-1.6861588954925537,0.4746035635471344,0.7157531976699829,0.41999995708465576,0.5622608065605164,-1.5662064924981678e-06,-5.728538326366106e-06,-0.8269598484039307,8.18981061456725e-05,-0.00038761651376262307,-7.479125633835793e-05,0.009962567128241062,-0.0031200232915580273,-0.0009828489273786545,0.5656408071517944,0.7003133296966553,0.5864453315734863,0.5473864078521729,-0.38071006536483765,0.43097448348999023,0.4651155471801758,0.713371217250824,0.42000001668930054,-0.6725835204124451,-1.1650673151016235,-1.4835714101791382,3.000000476837158,-0.16443921625614166,-0.16028456389904022,-0.15480399131774902,-0.14816729724407196,0.14845788478851318,0.12887409329414368,0.11338528245687485,0.09592222422361374
0.8666666666666667,0.22014182806015015,-0.015361865982413292,0.0,0.7098020315170288,0.0,0.0,-0.7044011950492859,0.08950971066951752,0.10514692217111588,0.0,0.0,0.0,1.6030545234680176,0.4746035635471344,0.7157531976699829,0.41999995708465576,0.5622608661651611,-1.5753355455672136e-06,-5.6700541790633e-06,-0.8269599080085754,8.078743849182501e-05,-0.00038762736949138343,-7.480219937860966e-05,0.009961526840925217,-0.0031213813927024603,-0.000980091979727149,0.5734142065048218,0.6945838928222656,0.5929137468338013,0.4167339503765106,-0.28142017126083374,0.42084264755249023,0.4651155471801758,0.713371217250824,0.42000001668930054,-0.6632938981056213,1.9983010292053223,-1.5000427961349487,-3.0,-0.1614837646484375,-0.15786175429821014,-0.1528179794549942,-0.14661061763763428,0.2120613157749176,0.17244641482830048,0.13776257634162903,0.10376618057489395
0.8833333333333333,0.21913446485996246,-0.013556009158492088,0.0,0.7039550542831421,0.0,0.0,-0.7102445363998413,-0.11052318662405014,0.1589876413345337,0.0,0.0,0.0,-1.8754699230194092,0.4746035635471344,0.7157531976699829,0.41999995708465576,0.5622607469558716,-1.5611652770530782e-06,-5.7539064073353074e-06,-0.8269599676132202,8.260302274720743e-05,-0.00038786150980740786,-7.478846237063408e-05,0.009971407242119312,-0.0031235716305673122,-0.0009849864291027188,0.5816012620925903,0.6921510696411133,0.5995648503303528,0.5067801475524902,-0.08802485466003418,0.49423161149024963,0.4651155471801758,0.713371217250824,0.42000001668930054,-0.6478727459907532,0.011408653110265732,-1.4613239765167236,2.9999969005584717,-0.15735888481140137,-0.15487974882125854,-0.15086175501346588,-0.14561188220977783,0.2533327639102936,0.17377309501171112,0.10080745071172714,0.03261953219771385
0.9,0.21942555904388428,-0.012815838679671288,0.0,0.7093203663825989,0.0,0.0,-0.704886257648468,0.07669397443532944,-0.03017711266875267,0.0,0.0,0.0,1.7091560363769531,0.4746035635471344,0.7157531976699829,0.41999995708465576,0.5622609257698059,-1.569390519762237e-06,-5.668990525009576e-06,-0.8269597887992859,8.251581311924383e-05,-0.0003877253329847008,-7.478124462068081e-05,0.009966976009309292,-0.0031221003737300634,-0.0009845457971096039,0.586174726486206,0.6907229423522949,0.6067136526107788,0.13299839198589325,-0.00098419189453125,0.42814114689826965,0.4651155471801758,0.713371217250824,0.42000001668930054,-0.6233141422271729,2.683713912963867,-1.4782606363296509,-3.0000007152557373,-0.15432417392730713,-0.1527222990989685,-0.14956538379192352,-0.14518524706363678,0.18005309998989105,0.1326356828212738,0.08244539797306061,0.028814712539315224
