vladlanda/robotic-transformer/data/env_000_episode_0226.csv
sim_time_s,robot_box_x,robot_box_y,robot_box_z,robot_box_quat_w,robot_box_quat_x,robot_box_quat_y,robot_box_quat_z,robot_box_linvel_x,robot_box_linvel_y,robot_box_linvel_z,robot_box_angvel_x,robot_box_angvel_y,robot_box_angvel_z,cube_world_x,cube_world_y,cube_world_z,cube_quat_w,cube_quat_x,cube_quat_y,cube_quat_z,cube_linvel_x,cube_linvel_y,cube_linvel_z,cube_angvel_x,cube_angvel_y,cube_angvel_z,endpoint_world_x,endpoint_world_y,endpoint_world_z,endpoint_linvel_x,endpoint_linvel_y,endpoint_linvel_z,target_cube_world_x,target_cube_world_y,target_cube_world_z,gripper_actual_pos_rad_gp_leftgearjoint,gripper_actual_vel_rad_s_gp_leftgearjoint,gripper_actual_pos_rad_gp_rotatingjoint,gripper_actual_vel_rad_s_gp_rotatingjoint,motor_angle_rad_joint1,motor_angle_rad_joint2,motor_angle_rad_joint3,motor_angle_rad_joint4,motor_speed_rad_s_joint1,motor_speed_rad_s_joint2,motor_speed_rad_s_joint3,motor_speed_rad_s_joint4
0.0,0.0,0.0,0.0,1.0,0.0,0.0,0.0,0.0,0.0,0.0,0.0,0.0,0.0,-0.4360375702381134,0.7219049334526062,0.41999998688697815,1.0,0.0,0.0,0.0,0.0,0.0,0.0,0.0,0.0,0.0,3.42540442943573e-06,-0.005000244826078415,1.313499927520752,0.0,0.0,0.0,0.43587085604667664,0.7505258917808533,0.42000001668930054,-1.5707999467849731,0.0,0.0,0.0,0.0,0.0,0.0,0.0,0.0,0.0,0.0,0.0
0.016666666666666666,0.0028778850100934505,0.0021806680597364902,0.0,0.9998081922531128,0.0,0.0,0.019586581736803055,0.24087215960025787,0.18240931630134583,0.0,0.0,0.0,3.1418697834014893,-0.43603768944740295,0.7219046354293823,0.41999998688697815,1.0,3.2799914606584935e-06,-8.339814598912199e-07,8.465387679734704e-08,-1.9833554688375443e-05,0.00017983050202019513,-6.133061833679676e-05,0.0009432226070202887,-0.004689437802881002,-0.0003198152990080416,-0.007110234349966049,0.003379564033821225,1.3159373998641968,-0.8143353462219238,0.9868683815002441,0.18095196783542633,0.43587085604667664,0.7505258917808533,0.42000001668930054,-1.5301095247268677,3.0000011920928955,-0.04584788903594017,-2.9999992847442627,0.0008691533003002405,0.0007963840034790337,0.0007110277656465769,0.0006108740926720202,0.11094217747449875,0.09756709635257721,0.08334315568208694,0.06823883205652237
0.03333333333333333,0.008960993029177189,0.006802004761993885,0.0,0.9997960329055786,0.0,0.0,0.02019684389233589,0.4070222079753876,0.31530800461769104,0.0,0.0,0.0,-0.8691326975822449,-0.4360378086566925,0.7219045758247375,0.4200000464916229,1.0,3.390914116607746e-06,-2.132455392711563e-06,-3.71076644967161e-08,0.0002635782293509692,0.00026937935035675764,-0.00010509486310184002,-0.001770757487975061,0.0041308156214654446,-0.00013547815615311265,-0.027554640546441078,0.026252014562487602,1.3165879249572754,-1.5913522243499756,1.6161760091781616,-0.08612304925918579,0.43587085604667664,0.7505258917808533,0.42000001668930054,-1.4800904989242554,3.0000016689300537,-0.09588772058486938,-3.0000007152557373,0.0029900979716330767,0.0026527014560997486,0.0022772657684981823,0.0018607174279168248,0.1642136424779892,0.1397569328546524,0.11381556838750839,0.08629745244979858
0.05,0.01768556982278824,0.013759555295109749,0.0,0.9993967413902283,0.0,0.0,0.034730348736047745,0.5922682285308838,0.46464136242866516,0.0,0.0,0.0,2.6586074829101562,-0.4360378384590149,0.7219046354293823,0.4200000464916229,1.0,3.7652293940482195e-06,-2.2118967990536476e-06,5.613899567435965e-09,0.000265309150563553,0.0002669153909664601,-0.0001044049859046936,-0.00172426737844944,0.004177379421889782,-0.0001294983085244894,-0.05966046079993248,0.054700229316949844,1.3114113807678223,-2.1871776580810547,1.8208836317062378,-0.4966919720172882,0.43587085604667664,0.7505258917808533,0.42000001668930054,-1.4300721883773804,3.0000009536743164,-0.14592638611793518,-3.0000007152557373,0.00568343186751008,0.004892533645033836,0.004029550589621067,0.003090000944212079,0.1922418177127838,0.15533140301704407,0.11655177921056747,0.07581005245447159
0.06666666666666667,0.028976526111364365,0.023045994341373444,0.0,0.9994649887084961,0.0,0.0,0.032706499099731445,0.7189138531684875,0.5948130488395691,0.0,0.0,0.0,-1.2010928392410278,-0.4360378384590149,0.7219045758247375,0.4200000464916229,0.9999999403953552,3.4068445984303253e-06,-2.2855729184811935e-06,4.300823945868615e-07,0.000267024093773216,0.0002679175231605768,-0.0001043803058564663,-0.0017406325787305832,0.004211729858070612,-0.00012850853090640157,-0.09686557203531265,0.09023524075746536,1.2987585067749023,-2.3035807609558105,2.326261520385742,-0.9927459955215454,0.43587085604667664,0.7505258917808533,0.42000001668930054,-1.3800538778305054,3.0,-0.19596371054649353,-3.0,0.00812083575874567,0.006593118421733379,0.0049539110623300076,0.0031992304138839245,0.13486874103546143,0.07896201312541962,0.02101062424480915,-0.039059605449438095
0.08333333333333333,0.043260641396045685,0.03449427708983421,0.0,0.9999982714653015,0.0,0.0,0.0018675029277801514,0.9391803741455078,0.7275435924530029,0.0,0.0,0.0,-4.50824499130249,-0.4360378384590149,0.7219045758247375,0.4200000464916229,0.9999999403953552,3.6261940294934902e-06,-2.335324097657576e-06,3.032077131592814e-07,0.00026613869704306126,0.00026684990734793246,-0.00010405178181827068,-0.0017283851047977805,0.004196336027234793,-0.00012790512118954211,-0.1335444450378418,0.13331419229507446,1.2802186012268066,-2.153031826019287,2.7075343132019043,-1.2279314994812012,0.43587085604667664,0.7505258917808533,0.42000001668930054,-1.3300257921218872,2.999999523162842,-0.1825738251209259,3.0,0.009485331363976002,0.006910187192261219,0.004183255601674318,0.0012998710153624415,0.06222910434007645,-0.009934471920132637,-0.08423015475273132,-0.1606026440858841
0.1,0.052026282995939255,0.04980732128024101,0.0,0.99985671043396,0.0,0.0,-0.016929399222135544,0.38739949464797974,0.9979366064071655,0.0,0.0,0.0,-0.8788854479789734,-0.4360378384590149,0.7219045758247375,0.4200000464916229,1.0,3.4221902751596645e-06,-2.308589955646312e-06,1.7962148035621794e-07,0.0002668164379429072,0.00026800547493621707,-0.00010440824553370476,-0.0017430244479328394,0.0042070322670042515,-0.00012891182268504053,-0.17003057897090912,0.17511199414730072,1.2589025497436523,-2.1132590770721436,2.5042059421539307,-1.2774159908294678,0.43587085604667664,0.7505258917808533,0.42000001668930054,-1.2800302505493164,2.999999523162842,-0.21412096917629242,-3.0000009536743164,0.003959235269576311,0.0005394755280576646,-0.003084707073867321,-0.00692032091319561,-0.46190306544303894,-0.5166382789611816,-0.573985755443573,-0.6341190934181213
0.11666666666666667,0.05595783889293671,0.06622618436813354,0.0,0.9989783763885498,0.0,0.0,-0.04519088566303253,0.2509310245513916,0.9440277218818665,0.0,0.0,0.0,-4.138493061065674,-0.4360378384590149,0.7219046354293823,0.4200000464916229,1.0,3.7115696613909677e-06,-2.3326665541389957e-06,2.5742116349647404e-07,0.00026485652779228985,0.0002663531631696969,-0.00010423525236546993,-0.0017182076117023826,0.004170072730630636,-0.00012915638217236847,-0.20336967706680298,0.22053243219852448,1.2379672527313232,-1.9034430980682373,2.96514892578125,-1.2441959381103516,0.43587085604667664,0.7505258917808533,0.42000001668930054,-1.2300232648849487,3.000001907348633,-0.26414769887924194,-3.000000476837158,-0.003646856639534235,-0.008352071978151798,-0.013267955742776394,-0.018403293564915657,-0.36297881603240967,-0.4630624055862427,-0.5614336729049683,-0.6580827832221985
0.13333333333333333,0.059245698153972626,0.08486471325159073,0.0,0.9957177639007568,0.0,0.0,-0.09244534373283386,0.17777422070503235,1.1943382024765015,0.0,0.0,0.0,-6.672516345977783,-0.4360378384590149,0.7219045758247375,0.4200000464916229,1.0,3.33580555889057e-06,-2.2318915853247745e-06,3.1130230127018876e-07,0.0002666967629920691,0.00026759342290461063,-0.00010428694076836109,-0.0017371419817209244,0.004205943085253239,-0.0001284025638597086,-0.23622067272663116,0.27369359135627747,1.215683102607727,-1.9220244884490967,3.46917462348938,-1.4560151100158691,0.43587085604667664,0.7505258917808533,0.42000001668930054,-1.1828148365020752,2.6547887325286865,-0.23002459108829498,3.0000016689300537,-0.008373000659048557,-0.015020754188299179,-0.02180931530892849,-0.028745518997311592,-0.265866756439209,-0.3835758864879608,-0.4960203170776367,-0.6030430197715759
0.15,0.06887223571538925,0.10040763020515442,0.0,0.9923869371414185,0.0,0.0,-0.12315887212753296,0.7252317070960999,0.8322483897209167,0.0,0.0,0.0,-2.7335662841796875,-0.4360378384590149,0.7219045758247375,0.4200000464916229,1.0,3.5190355447412003e-06,-2.283108187839389e-06,-3.6255448776501e-07,0.000266183604253456,0.0002673582639545202,-0.00010425667278468609,-0.0017349626868963242,0.004195743706077337,-0.00012861307186540216,-0.27358323335647583,0.32614821195602417,1.189268946647644,-2.2213709354400635,3.296255111694336,-1.7856768369674683,0.43587085604667664,0.7505258917808533,0.42000001668930054,-1.1493005752563477,1.4472131729125977,-0.26123759150505066,-3.0000011920928955,-0.008574037812650204,-0.017412003129720688,-0.026279356330633163,-0.03517971932888031,0.004985206760466099,-0.11385513097047806,-0.22643229365348816,-0.3325888514518738
0.16666666666666666,0.07648825645446777,0.1126198098063469,0.0,0.9863026738166809,0.0,0.0,-0.16494563221931458,0.2968043088912964,0.7323338389396667,0.0,0.0,0.0,-5.871360778808594,-0.4360378384590149,0.7219045758247375,0.4200000464916229,1.0,3.666726797746378e-06,-2.339156480957172e-06,-3.150096574700001e-07,0.00026595761300995946,0.0002666733635123819,-0.0001040350180119276,-0.0017252563266083598,0.004192715510725975,-0.00012778647942468524,-0.30944621562957764,0.3862653970718384,1.1539361476898193,-1.9666833877563477,3.935250759124756,-2.4618144035339355,0.43587085604667664,0.7505258917808533,0.42000001668930054,-1.1042252779006958,2.9999966621398926,-0.22712528705596924,3.0000009536743164,-0.014035691507160664,-0.024057429283857346,-0.03403850644826889,-0.04398488625884056,-0.6023039817810059,-0.6305087804794312,-0.6565129160881042,-0.6806646585464478
0.18333333333333332,0.0772314965724945,0.12898032367229462,0.0,0.9817013740539551,0.0,0.0,-0.19042693078517914,0.058914680033922195,0.8419779539108276,0.0,0.0,0.0,-1.676094651222229,-0.4360378384590149,0.7219045758247375,0.4200000464916229,1.0,3.814431011051056e-06,-2.3995532956178067e-06,-2.702744552607328e-07,0.0002654912241268903,0.000266111281234771,-0.00010391324758529663,-0.001717864186502993,0.00418497622013092,-0.00012754154158756137,-0.3433941602706909,0.44853895902633667,1.104065179824829,-1.9998427629470825,3.8669912815093994,-3.2509384155273438,0.43587085604667664,0.7505258917808533,0.42000001668930054,-1.0644687414169312,1.8340619802474976,-0.2583579421043396,-3.0000014305114746,-0.028365623205900192,-0.03837323933839798,-0.04831387847661972,-0.057969093322753906,-0.6196430921554565,-0.671985924243927,-0.719645082950592,-0.7315902709960938
0.2,0.08302997797727585,0.14404718577861786,0.0,0.9739416837692261,0.0,0.0,-0.22679856419563293,0.5209460854530334,0.9670266509056091,0.0,0.0,0.0,-5.405760765075684,-0.4360378384590149,0.7219045758247375,0.4200000464916229,1.0,3.6001260923512746e-06,-2.2912167878530454e-06,-2.2018525669409428e-07,0.0002657284203451127,0.0002664485073182732,-0.00010398100130259991,-0.0017226488562300801,0.0041888137347996235,-0.00012773837079294026,-0.3765036463737488,0.5153017044067383,1.0432534217834473,-1.8219783306121826,4.115288734436035,-4.029393672943115,0.43587085604667664,0.7505258917808533,0.42000001668930054,-1.0174208879470825,2.9999990463256836,-0.3083845376968384,-3.0000007152557373,-0.03733455389738083,-0.04800083115696907,-0.05852892994880676,-0.06828033179044724,-0.5069290995597839,-0.5303062796592712,-0.5499991774559021,-0.5459340214729309
0.21666666666666667,0.08589711040258408,0.15649212896823883,0.0,0.9692661762237549,0.0,0.0,-0.24601450562477112,0.08942805230617523,0.6895909905433655,0.0,0.0,0.0,-1.2864972352981567,-0.4360378384590149,0.7219045758247375,0.4200000464916229,0.9999999403953552,3.6397161693457747e-06,-2.261916051793378e-06,2.224815318641049e-07,0.00026687278295867145,0.0002675443247426301,-0.00010411837138235569,-0.0017404217505827546,0.004211027175188065,-0.00012783741112798452,-0.40753722190856934,0.5759979486465454,0.9666351675987244,-1.5917561054229736,3.5548737049102783,-5.054494380950928,0.43587085604667664,0.7505258917808533,0.42000001668930054,-0.9674165844917297,3.000002384185791,-0.35841187834739685,-3.0,-0.0504949688911438,-0.06093819811940193,-0.0712212473154068,-0.08055555820465088,-0.7500179409980774,-0.774948239326477,-0.7991167306900024,-0.8221926093101501
0.23333333333333334,0.08482382446527481,0.16753190755844116,0.0,0.9607831239700317,0.0,0.0,-0.27730095386505127,-0.12185961753129959,0.6453630328178406,0.0,0.0,0.0,-4.747470855712891,-0.4360378086566925,0.7219045758247375,0.4200000464916229,1.0,3.4208417218906106e-06,-2.3167299332271796e-06,2.955848401597905e-07,0.00026680331211537123,0.0002680404868442565,-0.00010442500934004784,-0.0017438061768189073,0.004206990823149681,-0.00012899591820314527,-0.4315059781074524,0.6325013041496277,0.8752882480621338,-1.1764488220214844,3.1902670860290527,-5.792217254638672,0.43587085604667664,0.7505258917808533,0.42000001668930054,-0.9174065589904785,3.000000476837158,-0.4084412157535553,-3.000000238418579,-0.06580909341573715,-0.07604275643825531,-0.08612145483493805,-0.09528939425945282,-0.9786813259124756,-0.9449951648712158,-0.912024736404419,-0.8833795785903931
0.25,0.08653952181339264,0.17398974299430847,0.0,0.9573004841804504,0.0,0.0,-0.28909483551979065,0.17019139230251312,0.27893778681755066,0.0,0.0,0.0,-0.4080747365951538,-0.4360378384590149,0.7219045758247375,0.4200000464916229,0.9999999403953552,3.3477169836260146e-06,-2.259082293676329e-06,1.808312646289778e-07,0.0002668776432983577,0.0002679125755093992,-0.00010439660400152206,-0.0017405485268682241,0.0042083123698830605,-0.00012870294449385256,-0.45077577233314514,0.6751249432563782,0.7743345499038696,-0.8800819516181946,2.097679853439331,-6.27323055267334,0.43587085604667664,0.7505258917808533,0.42000001668930054,-0.8673958778381348,2.9999964237213135,-0.458472341299057,-2.9999985694885254,-0.08202186226844788,-0.09203395247459412,-0.10176463425159454,-0.11029889434576035,-0.9891440868377686,-0.9690045118331909,-0.9512873291969299,-0.9273536205291748
0.26666666666666666,0.08314859867095947,0.1833800971508026,0.0,0.9491514563560486,0.0,0.0,-0.314819872379303,-0.30325230956077576,0.5501177310943604,0.0,0.0,0.0,-4.046311855316162,-0.4360378384590149,0.7219045758247375,0.4200000464916229,0.9999999403953552,3.535839823598508e-06,-2.3001828139967984e-06,-1.268791862685248e-07,0.000266018119873479,0.00026712199905887246,-0.00010419473983347416,-0.0017316329758614302,0.004192839842289686,-0.00012849616177845746,-0.4581667184829712,0.7001463174819946,0.6681774854660034,-0.05885323882102966,0.9974819421768188,-6.193295955657959,0.43587085604667664,0.7505258917808533,0.42000001668930054,-0.8173859119415283,2.999999523162842,-0.5085039734840393,-2.9999992847442627,-0.09978840500116348,-0.1094951331615448,-0.11900904774665833,-0.1273825317621231,-0.8366464972496033,-0.8703576922416687,-0.9020911455154419,-0.9309716820716858
0.2833333333333333,0.08440287411212921,0.18765708804130554,0.0,0.9464068412780762,0.0,0.0,-0.3229769170284271,0.09694302082061768,0.1651308685541153,0.0,0.0,0.0,-0.02952951192855835,-0.4360378384590149,0.7219046354293823,0.4200000464916229,1.0,3.5935649975726847e-06,-2.262558382426505e-06,-5.655136803284222e-08,0.00026704679476097226,0.00026774988509714603,-0.00010416749864816666,-0.0017431802116334438,0.004214214626699686,-0.00012789499305654317,-0.4594534635543823,0.7131516933441162,0.5676436424255371,0.17965708673000336,0.4378902316093445,-5.908804893493652,0.43587085604667664,0.7505258917808533,0.42000001668930054,-0.7673770785331726,2.9999947547912598,-0.5585340261459351,-3.0000007152557373,-0.11264914274215698,-0.12252353131771088,-0.1321181058883667,-0.14060844480991364,-0.9938333630561829,-0.9743353724479675,-0.9255183339118958,-0.8846015930175781
0.3,0.08139010518789291,0.1888587921857834,0.0,0.9395676851272583,0.0,0.0,-0.34236323833465576,-0.2747487723827362,0.03719426319003105,0.0,0.0,0.0,-3.4508626461029053,-0.4360378086566925,0.7219045758247375,0.4200000464916229,0.9999999403953552,3.725162969203666e-06,-2.2359929516824195e-06,3.8286188441816194e-07,0.00026479855296202004,0.0002667319786269218,-0.0001045397948473692,-0.0017189806094393134,0.004166760481894016,-0.00013016823504585773,-0.44971734285354614,0.7200018167495728,0.4715013802051544,0.9991523027420044,0.34091344475746155,-5.396437644958496,0.43587085604667664,0.7505258917808533,0.42000001668930054,-0.7173686623573303,2.999999761581421,-0.608562707901001,-3.0000009536743164,-0.1304738074541092,-0.14007844030857086,-0.14947475492954254,-0.1578124612569809,-1.0184721946716309,-1.0139801502227783,-1.0105502605438232,-1.0078010559082031
0.31666666666666665,0.07566004246473312,0.18770308792591095,0.0,0.9385753273963928,0.0,0.0,-0.3450743854045868,-0.3357395529747009,-0.1254037469625473,0.0,0.0,0.0,0.5889327526092529,-0.4360378384590149,0.7219045758247375,0.4200000464916229,0.9999999403953552,3.5578966617322294e-06,-2.278810370626161e-06,2.283291848925728e-07,0.00026598613476380706,0.0002665850624907762,-0.00010399171151220798,-0.001724187983199954,0.0041936771012842655,-0.00012770111788995564,-0.44153088331222534,0.7233211398124695,0.43030479550361633,0.11489418894052505,-0.048009831458330154,-0.2066200226545334,0.43587085604667664,0.7505258917808533,0.42000001668930054,-0.667363703250885,2.999990224838257,-0.6590020656585693,-2.999757766723633,-0.13989457488059998,-0.1501971036195755,-0.15994024276733398,-0.16828925907611847,-0.23747457563877106,-0.2888391315937042,-0.3007771074771881,-0.2776212692260742
0.3333333333333333,0.0680927261710167,0.1837470382452011,0.0,0.9468345642089844,0.0,0.0,-0.32172083854675293,-0.50418621301651,-0.28460073471069336,0.0,0.0,0.0,3.890442371368408,-0.436425119638443,0.7228008508682251,0.4200000464916229,0.9997581839561462,1.2336827239778358e-06,4.065602752234554e-07,-0.02198822982609272,-0.041245438158512115,0.09027296304702759,-1.2571224942803383e-05,-0.0006912947865203023,0.0004733489768113941,-4.1457037925720215,-0.4439208507537842,0.7269690632820129,0.4273468852043152,-0.204889714717865,0.23153536021709442,-0.21069660782814026,0.43587085604667664,0.7505258917808533,0.42000001668930054,-0.6173573136329651,2.999990463256836,-0.709047257900238,-2.9999947547912598,-0.14460021257400513,-0.15536123514175415,-0.16500775516033173,-0.17279843986034393,-0.30339178442955017,-0.3149125874042511,-0.2998361587524414,-0.26450443267822266
0.35,0.0579480417072773,0.17738476395606995,0.0,0.9490869641304016,0.0,0.0,-0.31501415371894836,-0.64778733253479,-0.4215855896472931,0.0,0.0,0.0,-0.12997709214687347,-0.4367785155773163,0.7246755957603455,0.4200001657009125,0.9987456798553467,-9.82023175311042e-06,6.898799824739399e-07,-0.05007030442357063,-0.024487614631652832,0.07883208990097046,-0.0002376190386712551,0.01132331881672144,-0.00038255099207162857,-2.0918030738830566,-0.44378384947776794,0.7283657789230347,0.4239561855792999,0.20514892041683197,0.04086492955684662,-0.20787721872329712,0.43587085604667664,0.7505258917808533,0.42000001668930054,-0.567352294921875,2.9999806880950928,-0.7590947151184082,-2.9999818801879883,-0.15137706696987152,-0.1613534390926361,-0.16976326704025269,-0.17599451541900635,-0.46990475058555603,-0.3723132908344269,-0.24944788217544556,-0.1101238951086998
0.36666666666666664,0.045643504709005356,0.1687573492527008,0.0,0.9462374448776245,0.0,0.0,-0.32347285747528076,-0.7793835997581482,-0.5570368766784668,0.0,0.0,0.0,-1.5191758871078491,-0.43454498052597046,0.7291828393936157,0.42005905508995056,0.9947292804718018,0.0014358650660142303,-5.497130041476339e-05,-0.10252520442008972,0.262498140335083,0.42209306359291077,0.026942681521177292,1.4537473917007446,-0.269412100315094,-10.464518547058105,-0.43853476643562317,0.7325828075408936,0.4211277365684509,0.45344823598861694,0.4785010814666748,-0.12473127245903015,0.43587085604667664,0.7505258917808533,0.42000001668930054,-0.5173473954200745,2.9999887943267822,-0.8091339468955994,-2.9999945163726807,-0.1595878154039383,-0.1676129251718521,-0.17365612089633942,-0.1772577166557312,-0.4756089150905609,-0.3457355201244354,-0.19278857111930847,-0.025912348181009293
0.3833333333333333,0.03558237850666046,0.1573987752199173,0.0,0.9354953169822693,0.0,0.0,-0.3533391058444977,-0.5487672090530396,-0.7327563762664795,0.0,0.0,0.0,-4.559252738952637,-0.4274057149887085,0.7393341064453125,0.42006349563598633,0.9879983067512512,-0.0015693684108555317,0.000203358315047808,-0.1544560343027115,0.6150334477424622,0.8457657098770142,0.044093310832977295,-2.1127231121063232,0.6366064548492432,-3.3074281215667725,-0.4296993613243103,0.742065966129303,0.42058002948760986,0.6199804544448853,0.7206131219863892,0.0939343050122261,0.43587085604667664,0.7505258917808533,0.42000001668930054,-0.4673113226890564,2.999997138977051,-0.8591592311859131,-2.9999616146087646,-0.1678367555141449,-0.17332910001277924,-0.1764521598815918,-0.17690648138523102,-0.47073081135749817,-0.3084958493709564,-0.12449633330106735,0.0716770812869072
0.4,0.0228397399187088,0.14401936531066895,0.0,0.912877082824707,0.0,0.0,-0.40823453664779663,-0.7764450907707214,-0.8620301485061646,0.0,0.0,0.0,-7.979756832122803,-0.4095238745212555,0.7600934505462646,0.42170047760009766,0.9821664094924927,-0.012787261046469212,-0.013928765431046486,-0.18706049025058746,1.2249187231063843,1.869309902191162,0.015355600044131279,0.5515159964561462,-2.842073440551758,-14.095405578613281,-0.41239452362060547,0.7615742683410645,0.4223869740962982,1.5100276470184326,1.7296900749206543,0.12333372235298157,0.43587085604667664,0.7505258917808533,0.42000001668930054,-0.41735854744911194,2.8791821002960205,-0.9091744422912598,-3.0001111030578613,-0.17767119407653809,-0.17997346818447113,-0.17956553399562836,-0.17631803452968597,-0.45717939734458923,-0.28855782747268677,-0.09907252341508865,0.1019531786441803
0.4166666666666667,0.013424409553408623,0.12744498252868652,0.0,0.8753880858421326,0.0,0.0,-0.48342084884643555,-0.5130996704101562,-1.0361443758010864,0.0,0.0,0.0,-10.751333236694336,-0.3623756766319275,0.7985905408859253,0.42539864778518677,0.9675432443618774,0.028953375294804573,-0.05182413011789322,-0.24563372135162354,4.291349411010742,2.883378028869629,0.28590384125709534,25.751972198486328,-11.86986255645752,10.117939949035645,-0.3647666275501251,0.8008255958557129,0.42598119378089905,3.8716378211975098,2.8598175048828125,0.3818313479423523,0.43587085604667664,0.7505258917808533,0.42000001668930054,-0.3845292627811432,1.217865228652954,-0.872265636920929,2.996690511703491,-0.18879219889640808,-0.18689866364002228,-0.18213672935962677,-0.17457038164138794,-0.7392727136611938,-0.46066996455192566,-0.1812378317117691,0.08705232292413712
0.43333333333333335,0.006649322342127562,0.115898497402668,0.0,0.8200994729995728,0.0,0.0,-0.5722209811210632,-0.32460588216781616,-0.700188934803009,0.0,0.0,0.0,-13.189249992370605,-0.27199551463127136,0.849108874797821,0.4316644072532654,0.9441541433334351,0.10044148564338684,-0.09554217010736465,-0.2989250719547272,6.9757232666015625,3.0656306743621826,0.4695579707622528,18.386991500854492,-18.66883087158203,16.59081268310547,-0.27438879013061523,0.8525186777114868,0.4324900507926941,6.516573905944824,3.429140567779541,0.5048189759254456,0.43587085604667664,0.7505258917808533,0.42000001668930054,-0.36880233883857727,0.7801207304000854,-0.8222553730010986,2.9941763877868652,-0.20379500091075897,-0.2001914381980896,-0.19021615386009216,-0.17736275494098663,-0.5828688144683838,-0.6534484624862671,-0.44985276460647583,-0.19960428774356842
0.45,0.003740920452401042,0.10695141553878784,0.0,0.7725167870521545,0.0,0.0,-0.6349943280220032,-0.12363171577453613,-0.4726387858390808,0.0,0.0,0.0,-8.31729507446289,-0.16215457022190094,0.8945714235305786,0.4413761496543884,0.8921898007392883,0.1383034735918045,-0.12200591713190079,-0.4122912883758545,6.805501937866211,1.6850937604904175,0.6727529764175415,-6.077633857727051,0.6319136619567871,-1.947346568107605,-0.16648142039775848,0.9000369310379028,0.4415462613105774,6.66165018081665,2.2603983879089355,0.5934172868728638,0.43587085604667664,0.7505258917808533,0.42000001668930054,-0.3532481789588928,1.0349220037460327,-0.8492098450660706,-2.9992446899414062,-0.21652625501155853,-0.2122606337070465,-0.1983214020729065,-0.18118855357170105,-0.7824008464813232,-0.693744957447052,-0.46195462346076965,-0.22801978886127472
0.4666666666666667,-0.001952672260813415,0.10294447094202042,0.0,0.7448897361755371,0.0,0.0,-0.6671876311302185,-0.30492278933525085,-0.20142509043216705,0.0,0.0,0.0,-3.7075183391571045,-0.052111346274614334,0.9183376431465149,0.45138102769851685,0.8275337219238281,0.13155554234981537,-0.1198292002081871,-0.5324678421020508,6.607619762420654,0.015050210058689117,0.5136642456054688,-3.401630401611328,-13.811331748962402,16.27007293701172,-0.05654246360063553,0.9250595569610596,0.45104140043258667,6.713593482971191,0.8587654232978821,0.6232479810714722,0.43587085604667664,0.7505258917808533,0.42000001668930054,-0.3348642587661743,0.9847890138626099,-0.899233877658844,-3.000004291534424,-0.23208191990852356,-0.22665941715240479,-0.20757313072681427,-0.1855257749557495,-0.7467943429946899,-0.7649940848350525,-0.4727005660533905,-0.19468829035758972
0.48333333333333334,-0.0035231104120612144,0.093561090528965,0.0,0.7111820578575134,0.0,0.0,-0.7030078768730164,-0.11588927358388901,-0.5683114528656006,0.0,0.0,0.0,-7.063748359680176,0.05724022909998894,0.9201438426971436,0.45680302381515503,0.7568812966346741,0.11883939057588577,-0.14022547006607056,-0.6271719336509705,6.407954216003418,-1.5228893756866455,0.33103105425834656,-16.52643585205078,3.6822004318237305,-8.019913673400879,0.05186016485095024,0.9296241402626038,0.45744866132736206,6.400886535644531,-0.5093077421188354,0.3687686324119568,0.43587085604667664,0.7505258917808533,0.42000001668930054,-0.3214258551597595,0.5009715557098389,-0.9492583274841309,-2.9998669624328613,-0.24004262685775757,-0.23448389768600464,-0.21090750396251678,-0.18462298810482025,-0.07613871246576309,-0.6186408400535583,-0.29721468687057495,-3.15078921175882e-07
0.5,-0.0031279977411031723,0.08917625993490219,0.0,0.6878184080123901,0.0,0.0,-0.7258828282356262,0.06193972006440163,-0.20095796883106232,0.0,0.0,0.0,-2.804595708847046,0.1564657986164093,0.9027900695800781,0.4607734978199005,0.7021377682685852,0.0931198000907898,-0.123540960252285,-0.6950315237045288,5.279177665710449,-1.8762032985687256,0.08550466597080231,-11.621809959411621,-3.6361546516418457,12.309762001037598,0.15202420949935913,0.9134855270385742,0.46142080426216125,5.794705867767334,-1.3372220993041992,0.223708838224411,0.43587085604667664,0.7505258917808533,0.42000001668930054,-0.31523290276527405,0.2790222465991974,-0.9992823600769043,-2.9997410774230957,-0.23994389176368713,-0.23995022475719452,-0.2193683683872223,-0.18843111395835876,-0.016221648082137108,-0.00976266898214817,-0.42092767357826233,-0.22179381549358368
0.5166666666666666,-7.834297139197588e-05,0.08709406852722168,0.0,0.6888157725334167,0.0,0.0,-0.7249364256858826,0.22603876888751984,-0.00045267908717505634,0.0,0.0,0.0,0.9725086688995361,0.2372857630252838,0.8776239156723022,0.4590925872325897,0.6361142992973328,0.06637673825025558,-0.10837258398532867,-0.7610571980476379,3.7293009757995605,-2.066911458969116,-0.3151160478591919,-9.766984939575195,-0.5897852182388306,13.006651878356934,0.23417207598686218,0.889235258102417,0.4604949355125427,4.238306045532227,-1.6344817876815796,-0.20342420041561127,0.43587085604667664,0.7505258917808533,0.42000001668930054,-0.3105391263961792,0.2791304886341095,-1.049304485321045,-3.000000238418579,-0.23828013241291046,-0.23823705315589905,-0.22408883273601532,-0.19146844744682312,0.15530508756637573,0.1587049514055252,-0.19909179210662842,-0.1805189549922943
0.5333333333333333,0.005496086552739143,0.08248014003038406,0.0,0.6786085963249207,0.0,0.0,-0.7345001101493835,0.350147008895874,-0.31056541204452515,0.0,0.0,0.0,-2.5659067630767822,0.29855573177337646,0.8537169098854065,0.44990772008895874,0.5893314480781555,0.039890799671411514,-0.0977257639169693,-0.8009660840034485,3.3887712955474854,-1.5200263261795044,-0.7656465768814087,0.9032402038574219,-1.742997407913208,-12.111910820007324,0.2955477833747864,0.8638145923614502,0.4515942633152008,3.160592555999756,-1.6493232250213623,-0.6973662376403809,0.43587085604667664,0.7505258917808533,0.42000001668930054,-0.30190786719322205,0.857914924621582,-1.0993266105651855,-3.0000016689300537,-0.23193681240081787,-0.23206178843975067,-0.22355417907238007,-0.19200904667377472,0.37254539132118225,0.39279884099960327,0.1104799285531044,0.007862024009227753
0.55,0.009903514757752419,0.08144500851631165,0.0,0.6805868148803711,0.0,0.0,-0.7326674461364746,0.16878816485404968,-0.03587151691317558,0.0,0.0,0.0,1.1300495862960815,0.34928467869758606,0.828097403049469,0.43395525217056274,0.5306375622749329,0.06819532066583633,-0.11596520245075226,-0.8368543386459351,2.805741786956787,-1.5478432178497314,-1.0537306070327759,0.5653550028800964,-5.153359413146973,-1.8561581373214722,0.3445037007331848,0.8325623869895935,0.43798497319221497,2.696305274963379,-1.9315822124481201,-0.9432059526443481,0.43587085604667664,0.7505258917808533,0.42000001668930054,-0.2790779173374176,1.7879021167755127,-1.1493487358093262,-3.000000476837158,-0.22884678840637207,-0.22783321142196655,-0.22277048230171204,-0.19314579665660858,0.2915008068084717,0.3357082009315491,0.13780060410499573,-0.03502263128757477
0.5666666666666667,0.01430773176252842,0.07767441868782043,0.0,0.6717755198478699,0.0,0.0,-0.7407547831535339,0.3078671395778656,-0.2711949348449707,0.0,0.0,0.0,-2.2772738933563232,0.3867394030094147,0.8052753210067749,0.4205772280693054,0.5142379999160767,-0.004277708940207958,0.003056560643017292,-0.8576313853263855,1.598862648010254,-1.071476697921753,-0.06306543946266174,-0.33326098322868347,-2.5732383728027344,3.918618679046631,0.38326671719551086,0.8059834241867065,0.4238595962524414,1.6810654401779175,-1.2256804704666138,-0.18177132308483124,0.43587085604667664,0.7505258917808533,0.42000001668930054,-0.24490702152252197,2.09586501121521,-1.1994364261627197,-2.9912071228027344,-0.22281292080879211,-0.22145038843154907,-0.21949347853660583,-0.19349485635757446,0.38227859139442444,0.39396050572395325,0.23169177770614624,-0.007704305928200483
0.5833333333333334,0.02127869427204132,0.07356221228837967,0.0,0.6740127205848694,0.0,0.0,-0.7387197613716125,0.4515276253223419,-0.3000679910182953,0.0,0.0,0.0,1.417580246925354,0.4092712104320526,0.7861957550048828,0.4206334054470062,0.5129687190055847,-0.007621369790285826,0.003994652535766363,-0.8583641052246094,1.4068129062652588,-1.186644434928894,0.08736636489629745,-34.585601806640625,-1.2464250326156616,8.872712135314941,0.407149076461792,0.7865191698074341,0.4238080382347107,1.2446203231811523,-1.158768653869629,-0.031518787145614624,0.43587085604667664,0.7505258917808533,0.42000001668930054,-0.21462763845920563,1.2105146646499634,-1.2494425773620605,-3.0000038146972656,-0.21860921382904053,-0.2165330946445465,-0.2162884771823883,-0.19400733709335327,0.2944813370704651,0.3253377079963684,0.23842990398406982,-1.733197478870352e-07
0.6,0.02611113153398037,0.0716618001461029,0.0,0.6668152213096619,0.0,0.0,-0.7452230453491211,0.2055417001247406,-0.057289816439151764,0.0,0.0,0.0,-2.0270137786865234,0.4278888404369354,0.7721149325370789,0.42011991143226624,0.5093441605567932,0.0038186386227607727,0.0012246512342244387,-0.8605535626411438,0.8086750507354736,-1.1507468223571777,0.4247158467769623,-11.47935962677002,-17.163589477539062,14.547584533691406,0.4240434765815735,0.7717361450195312,0.42364418506622314,0.7388023138046265,-0.7099393606185913,-0.034836407750844955,0.43587085604667664,0.7505258917808533,0.42000001668930054,-0.21586406230926514,-0.8297106623649597,-1.2176824808120728,2.9815337657928467,-0.21259735524654388,-0.21078911423683167,-0.2122039496898651,-0.1943436563014984,0.39790210127830505,0.36949869990348816,0.28111734986305237,0.010455254465341568
0.6166666666666667,0.03083634003996849,0.07319845259189606,0.0,0.6715791821479797,0.0,0.0,-0.7409327626228333,0.3226637542247772,0.15148966014385223,0.0,0.0,0.0,1.5989335775375366,0.43659529089927673,0.7590319514274597,0.42306187748908997,0.5130220055580139,0.016634300351142883,-0.041173338890075684,-0.8572260141372681,0.3135192096233368,-0.6179104447364807,0.05081011354923248,0.81756591796875,4.669493198394775,-0.9735626578330994,0.4322841763496399,0.7606949806213379,0.42352229356765747,0.23122557997703552,-0.4816853702068329,0.13627532124519348,0.43587085604667664,0.7505258917808533,0.42000001668930054,-0.2380417436361313,-1.6540870666503906,-1.2388405799865723,-2.9993832111358643,-0.2060619443655014,-0.20496520400047302,-0.20767752826213837,-0.19426190853118896,0.4223489761352539,0.3682210147380829,0.2980820834636688,0.03431548550724983
0.6333333333333333,0.038147713989019394,0.06994110345840454,0.0,0.6644132733345032,0.0,0.0,-0.7473653554916382,0.4122636318206787,-0.21127735078334808,0.0,0.0,0.0,-2.0495121479034424,0.4387451708316803,0.7527650594711304,0.4224011301994324,0.5167008638381958,-0.007038923446089029,0.008382407948374748,-0.8560959696769714,0.005501750390976667,-0.21596132218837738,-0.048460688441991806,2.645878553390503,1.6795532703399658,1.962633728981018,0.4347466826438904,0.7601478099822998,0.42644524574279785,0.04029885679483414,0.12092974781990051,0.2071535438299179,0.43587085604667664,0.7505258917808533,0.42000001668930054,-0.28277188539505005,-3.0000014305114746,-1.2888034582138062,-2.9991090297698975,-0.19291765987873077,-0.1938743144273758,-0.19871018826961517,-0.19050773978233337,0.7543165683746338,0.6537113189697266,0.5480608940124512,0.25637441873550415
0.65,0.04716372489929199,0.07120203971862793,0.0,0.6691672205924988,0.0,0.0,-0.7431118488311768,0.5776750445365906,0.07090923935174942,0.0,0.0,0.0,1.5929360389709473,0.43826767802238464,0.7498989701271057,0.42029035091400146,0.5244320631027222,-0.0037759479600936174,0.0061051202937960625,-0.8514219522476196,-0.0385354608297348,-0.1208811104297638,-0.08853217959403992,-2.123579263687134,-3.9899728298187256,1.5178439617156982,0.4342818856239319,0.760513424873352,0.42939627170562744,-0.010535035282373428,0.08346205949783325,0.18559174239635468,0.43587085604667664,0.7505258917808533,0.42000001668930054,-0.33277201652526855,-3.0000033378601074,-1.3387980461120605,-2.9999935626983643,-0.1844516396522522,-0.18648074567317963,-0.19230207800865173,-0.18817327916622162,0.5729525089263916,0.4806542992591858,0.4071047604084015,0.15817499160766602
0.6666666666666666,0.05800153315067291,0.06880690157413483,0.0,0.6621530652046204,0.0,0.0,-0.7493686079978943,0.6752048134803772,-0.16630376875400543,0.0,0.0,0.0,-2.075287103652954,0.43784472346305847,0.7494200468063354,0.4200000464916229,0.5274912118911743,-1.2951057215104811e-05,-3.3263222576351836e-05,-0.8495603799819946,-0.01915459707379341,-0.006508292630314827,-0.0009125223732553422,-0.00402867840602994,-0.012668279930949211,0.7152669429779053,0.43504050374031067,0.7651512622833252,0.43291839957237244,0.03691286966204643,0.28443706035614014,0.23273739218711853,0.43587085604667664,0.7505258917808533,0.42000001668930054,-0.3827676475048065,-2.9999990463256836,-1.388759970664978,-2.9990692138671875,-0.17332686483860016,-0.17712010443210602,-0.18420851230621338,-0.1840553879737854,0.5751711130142212,0.49684467911720276,0.4533637762069702,0.2551296055316925
0.6833333333333333,0.07089589536190033,0.06965301185846329,0.0,0.6669602394104004,0.0,0.0,-0.7450932860374451,0.7922824621200562,0.10175685584545135,0.0,0.0,0.0,1.6724437475204468,0.43719732761383057,0.7495797276496887,0.4200153052806854,0.5403373837471008,0.0002154647372663021,-0.0003368001489434391,-0.8414483070373535,-0.0906854197382927,0.031270403414964676,0.0332578606903553,-0.7373849749565125,-1.4904264211654663,1.2900289297103882,0.43372073769569397,0.7679890394210815,0.43991905450820923,-0.1053192988038063,0.16264782845973969,0.6300643682479858,0.43587085604667664,0.7505258917808533,0.42000001668930054,-0.4327818751335144,-3.0000011920928955,-1.4387784004211426,-2.9999990463256836,-0.1675267517566681,-0.17182888090610504,-0.17867350578308105,-0.18057771027088165,0.31447461247444153,0.29409265518188477,0.32826682925224304,0.24251489341259003
0.7,0.08508823812007904,0.06724709272384644,0.0,0.6602126359939575,0.0,0.0,-0.751078724861145,0.8921764492988586,-0.17082619667053223,0.0,0.0,0.0,-2.0527894496917725,0.436332643032074,0.7498577833175659,0.4200000464916229,0.5446953773498535,4.527562964540266e-07,-2.4205283111200515e-08,-0.8386339545249939,-0.031132524833083153,0.009490394033491611,-2.7275236789137125e-06,-0.00012745171261485666,0.0001714788086246699,0.3143750727176666,0.4363822638988495,0.7713409662246704,0.4480692148208618,0.31533321738243103,0.10406647622585297,0.5185691118240356,0.43587085604667664,0.7505258917808533,0.42000001668930054,-0.48279523849487305,-3.000000238418579,-1.4887967109680176,-2.9999990463256836,-0.16126568615436554,-0.16575562953948975,-0.17176903784275055,-0.17452992498874664,0.24252721667289734,0.27754148840904236,0.3754855990409851,0.3850584924221039
0.7166666666666667,0.10110270977020264,0.06154518574476242,0.0,0.632061779499054,0.0,0.0,-0.7749180197715759,0.9968717098236084,-0.4113110303878784,0.0,0.0,0.0,-5.335477828979492,0.43633222579956055,0.7498579621315002,0.42000001668930054,0.5446959733963013,2.261037479911465e-06,-3.4810232136806007e-06,-0.8386335968971252,0.00031737604876980186,-0.00021376546646934003,-0.00013814796693623066,0.004214202985167503,0.0012603808427229524,-0.0012319032102823257,0.44636672735214233,0.7733993530273438,0.46404486894607544,0.9069392681121826,0.10464756935834885,1.5216891765594482,0.43587085604667664,0.7505258917808533,0.42000001668930054,-0.5328078269958496,-2.999955892562866,-1.5388150215148926,-2.99999737739563,-0.1602235585451126,-0.1636447310447693,-0.1675790250301361,-0.16954705119132996,-0.039659880101680756,0.04356444254517555,0.1841937005519867,0.25779518485069275
0.7333333333333333,0.11478646844625473,0.06003477796912193,0.0,0.6170065999031067,0.0,0.0,-0.7869579792022705,0.7440876960754395,-0.11976142972707748,0.0,0.0,0.0,-1.2707180976867676,0.43633243441581726,0.7498579621315002,0.4200000464916229,0.5446956753730774,2.4097718664961576e-07,-2.670236199264764e-06,-0.83863365650177,3.7692887417506427e-05,-0.00024859479162842035,-7.587322033941746e-05,0.006520428694784641,-0.0021044276654720306,-0.0007064883247949183,0.46230101585388184,0.778234601020813,0.4945486783981323,1.1080667972564697,0.5505848526954651,2.0375354290008545,0.43587085604667664,0.7505258917808533,0.42000001668930054,-0.5545719861984253,0.13471539318561554,-1.5888323783874512,-3.0,-0.16519558429718018,-0.1670282632112503,-0.16863581538200378,-0.16937370598316193,-0.1033177524805069,-0.09075016528367996,-0.037265926599502563,-0.0372551865875721
0.75,0.12385085970163345,0.060044825077056885,0.0,0.6266379952430725,0.0,0.0,-0.7793104648590088,0.4731268584728241,0.050872936844825745,0.0,0.0,0.0,2.3290975093841553,0.43633243441581726,0.7498579621315002,0.4200000464916229,0.5446956753730774,4.069291605901526e-07,-2.9183240712882252e-06,-0.8386337161064148,3.90342902392149e-05,-0.00025010009994730353,-7.624528370797634e-05,0.006553011946380138,-0.002097755903378129,-0.0007128919241949916,0.4790438413619995,0.7856910228729248,0.5221313238143921,0.8260422945022583,0.3896317481994629,1.343026876449585,0.43587085604667664,0.7505258917808533,0.42000001668930054,-0.5334051251411438,2.205806255340576,-1.549848198890686,3.000000476837158,-0.16647712886333466,-0.16797097027301788,-0.16863659024238586,-0.1691787838935852,-0.043906692415475845,-0.01725839264690876,0.03944910690188408,0.05800072103738785
0.7666666666666666,0.12873239815235138,0.056603215634822845,0.0,0.6236435174942017,0.0,0.0,-0.7817088961601257,0.23213574290275574,-0.29100507497787476,0.0,0.0,0.0,-1.4076135158538818,0.43633243441581726,0.7498579621315002,0.4200000464916229,0.5446954965591431,3.8389671885852295e-07,-3.06276660921867e-06,-0.8386337757110596,4.164715937804431e-05,-0.00024832645431160927,-7.673585787415504e-05,0.0064924005419015884,-0.0020583076402544975,-0.0007141843088902533,0.4855477511882782,0.7913802862167358,0.5376613140106201,-0.058409661054611206,0.27874425053596497,0.7022386193275452,0.43587085604667664,0.7505258917808533,0.42000001668930054,-0.5153551697731018,0.1250470131635666,-1.4997917413711548,3.000000476837158,-0.16649265587329865,-0.16742898523807526,-0.16714666783809662,-0.16728180646896362,-0.0017572022043168545,0.04584916681051254,0.10934463143348694,0.1441439688205719
0.7833333333333333,0.1300009787082672,0.0581844300031662,0.0,0.6322375535964966,0.0,0.0,-0.7747746109962463,0.021693497896194458,0.22872138023376465,0.0,0.0,0.0,2.2093491554260254,0.43633243441581726,0.7498579621315002,0.4200000464916229,0.5446956753730774,4.045338926061959e-07,-2.8530514555313857e-06,-0.8386337757110596,3.93835362046957e-05,-0.0002500142727512866,-7.635168731212616e-05,0.006548360455781221,-0.0020944583229720592,-0.0007132915779948235,0.48274874687194824,0.7930328845977783,0.5454804301261902,-0.23814450204372406,0.06558609008789062,0.2866951823234558,0.43587085604667664,0.7505258917808533,0.42000001668930054,-0.4971192479133606,1.8943192958831787,-1.5159329175949097,-3.0,-0.17207218706607819,-0.1710253655910492,-0.16867680847644806,-0.16725458204746246,-0.3759499490261078,-0.25153905153274536,-0.1273147165775299,-0.029360610991716385
0.8,0.13393791019916534,0.05574537813663483,0.0,0.6280168890953064,0.0,0.0,-0.7781997323036194,0.18295173346996307,-0.0969734787940979,0.0,0.0,0.0,-1.3069853782653809,0.43633243441581726,0.7498579621315002,0.4200000464916229,0.5446954369544983,4.11854074400253e-07,-2.9112818538123975e-06,-0.8386338353157043,3.910592931788415e-05,-0.00025008831289596856,-7.627508603036404e-05,0.006552284117788076,-0.002097198273986578,-0.0007130588637664914,0.47399914264678955,0.7947878837585449,0.5433340072631836,-0.9653139114379883,0.017875120043754578,-0.34411633014678955,0.43587085604667664,0.7505258917808533,0.42000001668930054,-0.4994032084941864,-1.846092700958252,-1.4771595001220703,2.999953269958496,-0.17286047339439392,-0.17087051272392273,-0.16755527257919312,-0.16540485620498657,-0.2105582356452942,-0.11871839314699173,-0.03076811134815216,0.04393063485622406
0.8166666666666667,0.13858647644519806,0.05662316083908081,0.0,0.63588947057724,0.0,0.0,-0.7717801332473755,0.2992172837257385,0.055676139891147614,0.0,0.0,0.0,1.9331423044204712,0.43633243441581726,0.7498579621315002,0.4200000464916229,0.544695258140564,3.847291338843206e-07,-2.7764931473939214e-06,-0.8386340141296387,4.119681761949323e-05,-0.00024834813666529953,-7.665366865694523e-05,0.006495501380413771,-0.002063834574073553,-0.000713069923222065,0.46371448040008545,0.7951966524124146,0.5371463298797607,-0.3100319802761078,0.09204486012458801,-0.33515360951423645,0.43587085604667664,0.7505258917808533,0.42000001668930054,-0.5130150318145752,0.05789569020271301,-1.493786334991455,-2.999999523162842,-0.17552848160266876,-0.17248721420764923,-0.16805514693260193,-0.16476966440677643,-0.02430141717195511,0.001550187123939395,0.03741348907351494,0.08651657402515411
0.8333333333333334,0.14475224912166595,0.054022740572690964,0.0,0.6308963894844055,0.0,0.0,-0.7758671045303345,0.402896910905838,-0.19059452414512634,0.0,0.0,0.0,-1.6886217594146729,0.43633243441581726,0.7498579621315002,0.4200000464916229,0.5446957349777222,4.000740716492146e-07,-2.755344894467271e-06,-0.83863365650177,3.956333239329979e-05,-0.00024992774706333876,-7.639802061021328e-05,0.006544951815158129,-0.0020923179108649492,-0.0007138219079934061,0.4598555564880371,0.7954498529434204,0.5289109945297241,-0.1570379137992859,-0.11918133497238159,-0.48604142665863037,0.43587085604667664,0.7505258917808533,0.42000001668930054,-0.5478973388671875,-3.0000011920928955,-1.455075979232788,2.999999761581421,-0.17494997382164001,-0.17160968482494354,-0.16669684648513794,-0.1626163274049759,-0.03628755733370781,0.003184245666489005,0.05128389224410057,0.11925115436315536
0.85,0.1535233110189438,0.051671989262104034,0.0,0.6038574576377869,0.0,0.0,-0.7970923185348511,0.5665925741195679,-0.16001996397972107,0.0,0.0,0.0,-4.999544143676758,0.43633243441581726,0.7498579621315002,0.4200000464916229,0.5446955561637878,3.9994381495489506e-07,-2.8140952963440213e-06,-0.8386338353157043,3.949969686800614e-05,-0.00025000458117574453,-7.636821828782558e-05,0.006547753233462572,-0.002092695562168956,-0.0007137752254493535,0.46309250593185425,0.7920419573783875,0.5242698192596436,0.5674293041229248,-0.2564815580844879,0.0541858896613121,0.43587085604667664,0.7505258917808533,0.42000001668930054,-0.5979170799255371,-2.9999802112579346,-1.4721927642822266,-3.0,-0.17709393799304962,-0.17305822670459747,-0.16727812588214874,-0.16192670166492462,-0.09777048975229263,-0.07008034735918045,-0.029942717403173447,0.03901608660817146
0.8666666666666667,0.16439306735992432,0.05183355137705803,0.0,0.5919062495231628,0.0,0.0,-0.8060067892074585,0.6878182888031006,0.08275903016328812,0.0,0.0,0.0,-0.7913693785667419,0.43633243441581726,0.7498579621315002,0.4200000464916229,0.5446953773498535,3.840817726086243e-07,-2.865669102902757e-06,-0.8386340141296387,4.17159462813288e-05,-0.0002482122217770666,-7.677590474486351e-05,0.006489092484116554,-0.002057619858533144,-0.000713936984539032,0.4717922806739807,0.7917838096618652,0.5272851586341858,0.4605712890625,0.1578085571527481,0.28794899582862854,0.43587085604667664,0.7505258917808533,0.42000001668930054,-0.6170009970664978,0.42811286449432373,-1.5222110748291016,-2.9999992847442627,-0.17823703587055206,-0.1743735373020172,-0.16861438751220703,-0.1628243774175644,-0.01980382762849331,-0.06209174543619156,-0.1001945436000824,-0.11357256770133972
0.8833333333333333,0.1721164435148239,0.04831099137663841,0.0,0.6047068238258362,0.0,0.0,-0.7964481711387634,0.3779575824737549,-0.2676917016506195,0.0,0.0,0.0,2.635791778564453,0.43633243441581726,0.7498579621315002,0.4200000464916229,0.5446956157684326,1.8010588576089503e-07,-2.600751258796663e-06,-0.8386337757110596,3.802044375333935e-05,-0.0002498951507732272,-7.608206942677498e-05,0.0065526156686246395,-0.0021099080331623554,-0.000710142427124083,0.4779461622238159,0.7954019904136658,0.5277624130249023,0.21112073957920074,0.17527011036872864,-0.20493867993354797,0.43587085604667664,0.7505258917808533,0.42000001668930054,-0.6020548343658447,1.2780838012695312,-1.4834153652191162,2.999999761581421,-0.175753653049469,-0.17271293699741364,-0.16778601706027985,-0.16248047351837158,0.06493838876485825,0.04568658769130707,0.019427157938480377,0.00688865827396512
0.9,0.17577318847179413,0.048897478729486465,0.0,0.6036183834075928,0.0,0.0,-0.7972733974456787,0.1530759632587433,0.0190513264387846,0.0,0.0,0.0,-1.0303800106048584,0.43633243441581726,0.7498579621315002,0.4200000464916229,0.5446956753730774,3.826718284472008e-07,-2.984260618177359e-06,-0.8386337161064148,4.015164086013101e-05,-0.0002498018438927829,-7.649813778698444e-05,0.0065391757525503635,-0.0020840207580477,-0.0007147101568989456,0.4776235818862915,0.7953011989593506,0.5209664106369019,-0.09970273077487946,-0.008335284888744354,-0.4955206513404846,0.43587085604667664,0.7505258917808533,0.42000001668930054,-0.6059415936470032,-1.4989842176437378,-1.433380365371704,3.000000476837158,-0.17885830998420715,-0.1754583865404129,-0.1703650802373886,-0.16476356983184814,-0.02211521379649639,-0.042834993451833725,-0.07197199761867523,-0.08987393230199814
