vladlanda/robotic-transformer/data/env_000_episode_0037.csv
sim_time_s,robot_box_x,robot_box_y,robot_box_z,robot_box_quat_w,robot_box_quat_x,robot_box_quat_y,robot_box_quat_z,robot_box_linvel_x,robot_box_linvel_y,robot_box_linvel_z,robot_box_angvel_x,robot_box_angvel_y,robot_box_angvel_z,cube_world_x,cube_world_y,cube_world_z,cube_quat_w,cube_quat_x,cube_quat_y,cube_quat_z,cube_linvel_x,cube_linvel_y,cube_linvel_z,cube_angvel_x,cube_angvel_y,cube_angvel_z,endpoint_world_x,endpoint_world_y,endpoint_world_z,endpoint_linvel_x,endpoint_linvel_y,endpoint_linvel_z,target_cube_world_x,target_cube_world_y,target_cube_world_z,gripper_actual_pos_rad_gp_leftgearjoint,gripper_actual_vel_rad_s_gp_leftgearjoint,gripper_actual_pos_rad_gp_rotatingjoint,gripper_actual_vel_rad_s_gp_rotatingjoint,motor_angle_rad_joint1,motor_angle_rad_joint2,motor_angle_rad_joint3,motor_angle_rad_joint4,motor_speed_rad_s_joint1,motor_speed_rad_s_joint2,motor_speed_rad_s_joint3,motor_speed_rad_s_joint4
0.0,0.0,0.0,0.0,1.0,0.0,0.0,0.0,0.0,0.0,0.0,0.0,0.0,0.0,-0.3270213007926941,0.7217040061950684,0.41999998688697815,1.0,0.0,0.0,0.0,0.0,0.0,0.0,0.0,0.0,0.0,3.42540442943573e-06,-0.005000244826078415,1.313499927520752,0.0,0.0,0.0,0.3423870801925659,0.7036433219909668,0.42000001668930054,-1.5707999467849731,0.0,0.0,0.0,0.0,0.0,0.0,0.0,0.0,0.0,0.0,0.0
0.016666666666666666,0.002871503820642829,0.002154290210455656,0.0,0.9998285174369812,0.0,0.0,-0.018517928197979927,0.23918692767620087,0.18009039759635925,0.0,0.0,0.0,-3.1459176540374756,-0.32702142000198364,0.7217037081718445,0.41999998688697815,1.0,3.2799905511637917e-06,-8.339794135281409e-07,8.465515577427141e-08,-1.9833774786093272e-05,0.00017983047291636467,-6.132945418357849e-05,0.0009432245860807598,-0.004689525347203016,-0.00031981084612198174,-0.006982229650020599,0.004097995813935995,1.3159265518188477,-0.7936795353889465,1.0448408126831055,0.17922402918338776,0.3423870801925659,0.7036433219909668,0.42000001668930054,-1.5301092863082886,3.000000476837158,-0.045870356261730194,-3.0000009536743164,0.0008644314366392791,0.0007911237189546227,0.0007057334878481925,0.0006060569430701435,0.11037153750658035,0.09693538397550583,0.08263691514730453,0.06744186580181122
0.03333333333333333,0.008873880840837955,0.006740177981555462,0.0,0.9998133778572083,0.0,0.0,-0.019319234415888786,0.40267378091812134,0.31402263045310974,0.0,0.0,0.0,0.8649638295173645,-0.3270215392112732,0.7217036485671997,0.4200000464916229,1.0,3.3908531804627273e-06,-2.132488134520827e-06,-3.710428941872124e-08,0.0002635785494931042,0.0002693783608265221,-0.00010509602725505829,-0.0017707846127450466,0.004130862653255463,-0.00013547409616876394,-0.026090186089277267,0.02564428001642227,1.3168435096740723,-1.4347833395004272,1.5708272457122803,-0.047751761972904205,0.3423870801925659,0.7036433219909668,0.42000001668930054,-1.4800900220870972,3.0000014305114746,-0.09591012448072433,-3.0000009536743164,0.002883548615500331,0.0025281780399382114,0.0021350905299186707,0.001701128901913762,0.15456600487232208,0.12861137092113495,0.10116938501596451,0.07214411348104477
0.05,0.017526913434267044,0.013541385531425476,0.0,0.9994089007377625,0.0,0.0,-0.034378621727228165,0.5815513134002686,0.45066186785697937,0.0,0.0,0.0,-2.638730764389038,-0.3270215690135956,0.7217037081718445,0.4200000464916229,1.0,3.7651284401363228e-06,-2.2118861124909017e-06,5.622759147172474e-09,0.00026530996547080576,0.00026691515813581645,-0.00010440382175147533,-0.00172425655182451,0.004177390597760677,-0.00012948956282343715,-0.050069548189640045,0.057496510446071625,1.3133494853973389,-1.4358534812927246,2.20225191116333,-0.34119829535484314,0.3423870801925659,0.7036433219909668,0.42000001668930054,-1.4300717115402222,3.000001907348633,-0.14592526853084564,-3.0000014305114746,0.004939710721373558,0.00393267534673214,0.0028537053149193525,0.0016976350452750921,0.12307380884885788,0.0675775483250618,0.010210438631474972,-0.04908252879977226
0.06666666666666667,0.029702866449952126,0.02282264269888401,0.0,0.9970881342887878,0.0,0.0,-0.07625734061002731,0.7903669476509094,0.6017605662345886,0.0,0.0,0.0,-5.861881256103516,-0.3270215690135956,0.7217036485671997,0.4200000464916229,0.9999999403953552,3.406779342185473e-06,-2.285526988998754e-06,4.300881926155853e-07,0.00026702668401412666,0.00026791810523718596,-0.00010437914170324802,-0.0017406379338353872,0.004211799707263708,-0.00012850595521740615,-0.07522820681333542,0.09744498133659363,1.305632472038269,-1.568007469177246,2.5577826499938965,-0.5874151587486267,0.3423870801925659,0.7036433219909668,0.42000001668930054,-1.3800510168075562,2.9999966621398926,-0.11241966485977173,3.0,0.0065412069670856,0.004576512146741152,0.0025009983219206333,0.0003092148981522769,0.08795249462127686,0.02522866614162922,-0.03957638517022133,-0.10644172877073288
0.08333333333333333,0.036048825830221176,0.03682836890220642,0.0,0.9949197173118591,0.0,0.0,-0.10067132860422134,0.25007346272468567,0.929854154586792,0.0,0.0,0.0,-1.9057433605194092,-0.3270215690135956,0.7217036485671997,0.4200000464916229,1.0,3.6973510759708006e-06,-2.1889595700486097e-06,-2.632473012909031e-07,0.00026389595586806536,0.0002658632874954492,-0.0001043388620018959,-0.0017081330297514796,0.004150238819420338,-0.00012991279072593898,-0.10486190766096115,0.13689082860946655,1.2931134700775146,-1.7859247922897339,2.4205315113067627,-0.8264457583427429,0.3423870801925659,0.7036433219909668,0.42000001668930054,-1.3300524950027466,3.0000011920928955,-0.14440974593162537,-3.0000007152557373,0.0018606558442115784,-0.0007391786202788353,-0.003502673702314496,-0.0064384895376861095,-0.3798109292984009,-0.4213823974132538,-0.46554118394851685,-0.5125253200531006
0.1,0.047349851578474045,0.048606451600790024,0.0,0.9905514717102051,0.0,0.0,-0.13714152574539185,0.6948117017745972,0.7631679177284241,0.0,0.0,0.0,-5.001436710357666,-0.3270215690135956,0.7217036485671997,0.4200000464916229,0.9999999403953552,3.62046125701454e-06,-2.2652770894637797e-06,1.745990232393524e-07,0.0002667673397809267,0.00026740715838968754,-0.0001040794886648655,-0.0017385382670909166,0.004209098871797323,-0.0001277524424949661,-0.1306004673242569,0.18042051792144775,1.2805447578430176,-1.35703706741333,2.955678939819336,-0.7899806499481201,0.3423870801925659,0.7036433219909668,0.42000001668930054,-1.2800418138504028,2.99932599067688,-0.19441737234592438,-2.9995977878570557,0.001889085746370256,-0.0024552016984671354,-0.006948483642190695,-0.011598562821745872,-0.1687013953924179,-0.26327231526374817,-0.35789933800697327,-0.45246389508247375
0.11666666666666667,0.056408219039440155,0.0589262880384922,0.0,0.9843660593032837,0.0,0.0,-0.17613473534584045,0.5289781093597412,0.5381792783737183,0.0,0.0,0.0,-4.528326034545898,-0.3270215690135956,0.7217036485671997,0.4200000464916229,1.0,3.7984573282301426e-06,-2.262856924062362e-06,-1.5021495869405044e-07,0.00026374036679044366,0.000265661277808249,-0.00010429229587316513,-0.001705389702692628,0.004147546831518412,-0.000129798921989277,-0.15705230832099915,0.2311444729566574,1.263791561126709,-1.6707631349563599,3.2458620071411133,-1.1601749658584595,0.3423870801925659,0.7036433219909668,0.42000001668930054,-1.2351787090301514,2.398127555847168,-0.16063807904720306,3.000001907348633,-0.0012874227249994874,-0.007150198798626661,-0.013141547329723835,-0.019267696887254715,-0.15085887908935547,-0.24232719838619232,-0.3314339518547058,-0.41805633902549744
0.13333333333333333,0.0625847727060318,0.06791672855615616,0.0,0.9728395938873291,0.0,0.0,-0.23148038983345032,0.30795857310295105,0.5449120998382568,0.0,0.0,0.0,-7.6689839363098145,-0.3270215690135956,0.7217037081718445,0.4200000464916229,0.9999999403953552,3.5505674986779923e-06,-2.2298811472865054e-06,2.928988749317796e-07,0.0002670325629878789,0.0002677947923075408,-0.00010417005978524685,-0.0017441295785829425,0.004213639069348574,-0.00012800269178114831,-0.18391549587249756,0.2885289192199707,1.2426600456237793,-1.4161814451217651,3.7390708923339844,-1.4069836139678955,0.3423870801925659,0.7036433219909668,0.42000001668930054,-1.1865915060043335,3.000002861022949,-0.19237519800662994,-3.000000238418579,-0.004745377693325281,-0.012195947580039501,-0.019717689603567123,-0.027314500883221626,-0.2679392397403717,-0.3578682541847229,-0.4440992474555969,-0.5265235900878906
0.15,0.06521687656641006,0.07860303670167923,0.0,0.9639965891838074,0.0,0.0,-0.2659147083759308,0.055803194642066956,0.7127777338027954,0.0,0.0,0.0,-3.113438844680786,-0.3270215392112732,0.7217036485671997,0.4200000464916229,1.0,3.3323015031783143e-06,-2.102055532304803e-06,1.3129393039434945e-07,0.0002673060225788504,0.0002685941581148654,-0.00010459520854055882,-0.0017496503423899412,0.0042156013660132885,-0.00012928296928294003,-0.21537533402442932,0.34966784715652466,1.21181058883667,-1.89423406124115,3.8936963081359863,-2.2409181594848633,0.3423870801925659,0.7036433219909668,0.42000001668930054,-1.1478533744812012,1.728318691253662,-0.15858222544193268,2.999999523162842,-0.01036982610821724,-0.018990041688084602,-0.02760838158428669,-0.03622858226299286,-0.4067687392234802,-0.456333726644516,-0.5016029477119446,-0.5426580905914307
0.16666666666666666,0.07249204069375992,0.08572360128164291,0.0,0.9498319029808044,0.0,0.0,-0.3127608895301819,0.5403560996055603,0.41450783610343933,0.0,0.0,0.0,-6.630780220031738,-0.3270215690135956,0.7217036485671997,0.4200000464916229,1.0,3.7373970371845644e-06,-2.2331828404276166e-06,-1.8766169773698493e-07,0.0002643293410073966,0.0002662685001268983,-0.00010445946827530861,-0.0017119462136179209,0.004157547373324633,-0.00013001658953726292,-0.24417245388031006,0.41765719652175903,1.1712079048156738,-1.4164807796478271,4.337408065795898,-2.705111503601074,0.3423870801925659,0.7036433219909668,0.42000001668930054,-1.1006137132644653,3.0000038146972656,-0.19033022224903107,-2.999999761581421,-0.013719727285206318,-0.023450449109077454,-0.03309834003448486,-0.0426681786775589,-0.3259221911430359,-0.3698062002658844,-0.41040438413619995,-0.44783201813697815
0.18333333333333332,0.07449421286582947,0.09571246057748795,0.0,0.9401872754096985,0.0,0.0,-0.3406579792499542,0.09910033643245697,0.6055542230606079,0.0,0.0,0.0,-2.3311870098114014,-0.3270215690135956,0.7217037081718445,0.4200000464916229,0.9999999403953552,3.6603839816962136e-06,-2.3022842015052447e-06,2.5284006710535323e-07,0.00026690884260460734,0.0002676031144801527,-0.00010412419214844704,-0.0017413157038390636,0.004211471416056156,-0.00012786804290954024,-0.2710418701171875,0.48616349697113037,1.114874005317688,-1.4165401458740234,4.273781776428223,-3.7732057571411133,0.3423870801925659,0.7036433219909668,0.42000001668930054,-1.0544533729553223,2.537813901901245,-0.24035906791687012,-2.9999990463256836,-0.02673753723502159,-0.0364527553319931,-0.045774199068546295,-0.054717861115932465,-0.6304718852043152,-0.6814659237861633,-0.696723461151123,-0.6656253337860107
0.2,0.08053994178771973,0.10139303654432297,0.0,0.9257373809814453,0.0,0.0,-0.37816697359085083,0.4126126170158386,0.24322926998138428,0.0,0.0,0.0,-5.497673034667969,-0.3270215690135956,0.7217036485671997,0.4200000464916229,1.0,3.5909681628254475e-06,-2.300425876455847e-06,1.3870655379832897e-07,0.0002665469073690474,0.0002673210692591965,-0.00010423827916383743,-0.0017325730295851827,0.004203351214528084,-0.00012819882249459624,-0.2927733063697815,0.5580706596374512,1.043842077255249,-1.021880865097046,4.321469306945801,-4.71030330657959,0.3423870801925659,0.7036433219909668,0.42000001668930054,-1.0048644542694092,2.999999761581421,-0.290386438369751,-3.0000009536743164,-0.037129294127225876,-0.04723410680890083,-0.05647576227784157,-0.06472568958997726,-0.7497808933258057,-0.736342191696167,-0.701961874961853,-0.6396957039833069
0.21666666666666667,0.08167579025030136,0.11069732904434204,0.0,0.9174955487251282,0.0,0.0,-0.39774608612060547,0.05974726006388664,0.5125894546508789,0.0,0.0,0.0,-1.445816993713379,-0.3270215690135956,0.7217037081718445,0.4200000464916229,1.0,3.6070816804567585e-06,-2.261013833049219e-06,1.9594006417378296e-08,0.0002644706692080945,0.000265584938460961,-0.00010396563448011875,-0.0017088844906538725,0.004164294805377722,-0.0001283210440305993,-0.3103696405887604,0.6188055276870728,0.9558545351028442,-0.8261989951133728,3.3694968223571777,-5.596880912780762,0.3423870801925659,0.7036433219909668,0.42000001668930054,-0.9548554420471191,2.999998092651367,-0.3404140770435333,-3.0,-0.05258519947528839,-0.06275627017021179,-0.07202944904565811,-0.07992357760667801,-0.6009881496429443,-0.6636858582496643,-0.7212907671928406,-0.773371160030365
0.23333333333333334,0.0871238186955452,0.11567091196775436,0.0,0.9032527208328247,0.0,0.0,-0.42910900712013245,0.3416415750980377,0.2394275963306427,0.0,0.0,0.0,-4.751443862915039,-0.3270215392112732,0.7217036485671997,0.4200000464916229,0.9999999403953552,3.7423803860292537e-06,-2.2275726223597303e-06,4.588900992530398e-07,0.00026475079357624054,0.0002667132648639381,-0.00010453537106513977,-0.0017188824713230133,0.004165737424045801,-0.00013019502512179315,-0.3222898244857788,0.6711939573287964,0.8562148809432983,-0.4510303735733032,2.784065008163452,-6.289488792419434,0.3423870801925659,0.7036433219909668,0.42000001668930054,-0.9048458337783813,2.999999761581421,-0.3904443085193634,-2.999997615814209,-0.06272691488265991,-0.07341478019952774,-0.08319105207920074,-0.09159110486507416,-0.8655346632003784,-0.8401327729225159,-0.8184029459953308,-0.8026778101921082
0.25,0.08830026537179947,0.12370527535676956,0.0,0.8967899084091187,0.0,0.0,-0.4424566626548767,0.030415816232562065,0.4751328229904175,0.0,0.0,0.0,-0.7432729601860046,-0.3270215690135956,0.7217036485671997,0.4200000464916229,1.0,3.394552777535864e-06,-2.2820759113528766e-06,1.3360092054881534e-07,0.0002667939115781337,0.00026794092264026403,-0.00010439474135637283,-0.0017418104689568281,0.004206564277410507,-0.00012883881572633982,-0.33118629455566406,0.70396488904953,0.7485576868057251,-0.4131251871585846,1.4287124872207642,-6.539992332458496,0.3423870801925659,0.7036433219909668,0.42000001668930054,-0.8548356294631958,2.9999938011169434,-0.4404757618904114,-2.999999523162842,-0.07882536202669144,-0.08959010243415833,-0.09942449629306793,-0.10786916315555573,-0.9215293526649475,-0.9324046969413757,-0.9400563836097717,-0.9485285878181458
0.26666666666666666,0.08724367618560791,0.12699954211711884,0.0,0.9034498333930969,0.0,0.0,-0.42869386076927185,-0.1419723778963089,0.19755609333515167,0.0,0.0,0.0,2.5829415321350098,-0.3270215690135956,0.7217037081718445,0.4200000464916229,1.0,3.683615432237275e-06,-2.3101263195712818e-06,2.1006846395721368e-07,0.00026479296502657235,0.0002662580809555948,-0.00010421290062367916,-0.0017168235499411821,0.004168986808508635,-0.0001290914515266195,-0.3445549011230469,0.7184802293777466,0.6413592100143433,-0.8100743293762207,0.17377009987831116,-6.37477445602417,0.3423870801925659,0.7036433219909668,0.42000001668930054,-0.8048267960548401,2.999979257583618,-0.4905068874359131,-3.000000238418579,-0.09430906176567078,-0.10492776334285736,-0.11461979895830154,-0.12298351526260376,-0.9937188029289246,-0.9950490593910217,-0.9960839152336121,-0.9971985220909119
0.2833333333333333,0.08328048139810562,0.12817566096782684,0.0,0.9025240540504456,0.0,0.0,-0.43063944578170776,-0.2765487730503082,0.03349335491657257,0.0,0.0,0.0,-1.1539963483810425,-0.3270215690135956,0.7217036485671997,0.4200000464916229,1.0,3.3071373763959855e-06,-2.2125616396806436e-06,2.625232013997447e-07,0.00026660869480110705,0.0002674512506928295,-0.00010424340143799782,-0.0017352959839627147,0.004204402677714825,-0.00012827638420276344,-0.35034385323524475,0.7194229364395142,0.5379086136817932,-0.020204056054353714,-0.2261580526828766,-5.809785842895508,0.3423870801925659,0.7036433219909668,0.42000001668930054,-0.7548180222511292,3.0000014305114746,-0.540536642074585,-3.0000040531158447,-0.11204352974891663,-0.12242394685745239,-0.13193616271018982,-0.14015795290470123,-1.0185761451721191,-1.014024019241333,-1.0105563402175903,-1.0077905654907227
0.3,0.07715807855129242,0.12688547372817993,0.0,0.9077949523925781,0.0,0.0,-0.419414222240448,-0.4113178849220276,-0.12306749820709229,0.0,0.0,0.0,2.312354326248169,-0.3270215690135956,0.7217036485671997,0.4200000464916229,1.0,3.6565779737429693e-06,-2.2969809378992068e-06,-2.45018014766174e-07,0.00026533016352914274,0.00026595202507451177,-0.00010385061614215374,-0.0017164858290925622,0.004181961994618177,-0.00012745661661028862,-0.3482462167739868,0.7189842462539673,0.4481152594089508,0.34715989232063293,-0.00166313536465168,-5.026339530944824,0.3423870801925659,0.7036433219909668,0.42000001668930054,-0.7048101425170898,3.000000238418579,-0.5905642509460449,-3.0,-0.12939663231372833,-0.1396346092224121,-0.14904272556304932,-0.15718448162078857,-1.0178580284118652,-1.0135478973388672,-1.0102545022964478,-1.0076096057891846
0.31666666666666665,0.0689353346824646,0.12313682585954666,0.0,0.9058749079704285,0.0,0.0,-0.42354539036750793,-0.5348283648490906,-0.2666749060153961,0.0,0.0,0.0,-1.4492378234863281,-0.32892680168151855,0.7183220982551575,0.4209464192390442,0.9986467361450195,0.01084404531866312,-0.012586360797286034,-0.04928041994571686,0.007495959289371967,0.0061143143102526665,0.08063019067049026,1.840686321258545,-2.1907660961151123,1.6187807321548462,-0.34477025270462036,0.7200784683227539,0.4189767837524414,0.43945884704589844,0.32147711515426636,-0.10040530562400818,0.3423870801925659,0.7036433219909668,0.42000001668930054,-0.6548875570297241,2.9874813556671143,-0.6412270665168762,-2.799391746520996,-0.13840320706367493,-0.14890430867671967,-0.1583993285894394,-0.16640163958072662,-0.25277361273765564,-0.2578972578048706,-0.24322839081287384,-0.20494920015335083
0.3333333333333333,0.05857105180621147,0.11700399965047836,0.0,0.9105033278465271,0.0,0.0,-0.4135017991065979,-0.6726812124252319,-0.4138498604297638,0.0,0.0,0.0,2.104367256164551,-0.32739850878715515,0.7203551530838013,0.42128387093544006,0.9975331425666809,0.02202332578599453,-0.011125038377940655,-0.06571663916110992,0.28938475251197815,0.36077168583869934,0.0597396083176136,3.588961601257324,0.167290598154068,-5.859738349914551,-0.3402830958366394,0.7275797128677368,0.4237467050552368,0.3568445146083832,0.41376546025276184,-0.1772773265838623,0.3423870801925659,0.7036433219909668,0.42000001668930054,-0.6048799157142639,2.999912977218628,-0.6912623643875122,-2.9999022483825684,-0.14389804005622864,-0.15361912548542023,-0.1620461344718933,-0.16867077350616455,-0.4358537197113037,-0.35325655341148376,-0.2575172185897827,-0.14935582876205444
0.35,0.05047208070755005,0.10801023989915848,0.0,0.9080498814582825,0.0,0.0,-0.4188620150089264,-0.3582020699977875,-0.5979419350624084,0.0,0.0,0.0,-1.6035093069076538,-0.32274729013442993,0.726146399974823,0.4208289682865143,0.9935035705566406,0.02093147672712803,-0.002579018473625183,-0.11182890087366104,0.2715083956718445,0.3389420807361603,-0.04634495824575424,-2.432246208190918,0.4425662159919739,-5.277717113494873,-0.3328414559364319,0.7322630882263184,0.4212414026260376,0.5723340511322021,0.27867254614830017,-0.1475025713443756,0.3423870801925659,0.7036433219909668,0.42000001668930054,-0.5548750758171082,2.9999852180480957,-0.7413109540939331,-2.9999656677246094,-0.15235324203968048,-0.16011562943458557,-0.16638359427452087,-0.17069119215011597,-0.5082509517669678,-0.37237024307250977,-0.22676469385623932,-0.07515043020248413
0.36666666666666664,0.04140598326921463,0.09737762063741684,0.0,0.9123124480247498,0.0,0.0,-0.4094947576522827,-0.6149841547012329,-0.6590177416801453,0.0,0.0,0.0,2.181358814239502,-0.3155246078968048,0.7341369390487671,0.4200035631656647,0.9823234677314758,-3.3481279388070107e-05,-0.00019181326206307858,-0.18719105422496796,0.5280555486679077,0.574432373046875,-0.00010786286293296143,0.003442676505073905,0.0006130157853476703,-13.102999687194824,-0.32136070728302,0.7392808794975281,0.41956984996795654,0.8039181232452393,0.5683808326721191,-0.047277383506298065,0.3423870801925659,0.7036433219909668,0.42000001668930054,-0.5048686861991882,2.9999749660491943,-0.7913554906845093,-2.9999897480010986,-0.1635751724243164,-0.16821515560150146,-0.1712387055158615,-0.1722746342420578,-0.6632080078125,-0.4669152498245239,-0.2636442184448242,-0.05979321151971817
0.3833333333333333,0.029188303276896477,0.08503138273954391,0.0,0.910039484500885,0.0,0.0,-0.41452160477638245,-0.7222334146499634,-0.8050216436386108,0.0,0.0,0.0,-1.622959017753601,-0.30515220761299133,0.7446823120117188,0.42016011476516724,0.9617050290107727,-0.003895834553986788,0.0008872739272192121,-0.2740573287010193,0.7894018292427063,0.7505082488059998,0.03819127380847931,-1.6913623809814453,0.9036369919776917,-6.191246509552002,-0.30582156777381897,0.7466413378715515,0.42101794481277466,1.0966671705245972,0.45639151334762573,0.11971380561590195,0.3423870801925659,0.7036433219909668,0.42000001668930054,-0.45481371879577637,2.9999818801879883,-0.8413590788841248,-2.9999806880950928,-0.1747531294822693,-0.17577575147151947,-0.17500059306621552,-0.1721750646829605,-0.5095706582069397,-0.30764898657798767,-0.09127602726221085,0.13267625868320465
0.4,0.02106984332203865,0.06944620609283447,0.0,0.8950565457344055,0.0,0.0,-0.4459526538848877,-0.45385196805000305,-0.9677825570106506,0.0,0.0,0.0,-5.00982141494751,-0.2840842306613922,0.7585446238517761,0.4219508469104767,0.9445672035217285,-0.03006243146955967,-0.005726926494389772,-0.32688865065574646,1.5876566171646118,0.5905026197433472,0.06357457488775253,27.654640197753906,-21.56923484802246,3.067218780517578,-0.28299397230148315,0.7590115070343018,0.4232581853866577,1.693143367767334,0.9092464447021484,0.2701188623905182,0.3423870801925659,0.7036433219909668,0.42000001668930054,-0.40646037459373474,2.3225858211517334,-0.8913746476173401,-3.0000014305114746,-0.1815394014120102,-0.17949767410755157,-0.17536230385303497,-0.16900253295898438,-0.42042800784111023,-0.2329920530319214,-0.029382480308413506,0.18247629702091217
0.4166666666666667,0.01649962179362774,0.051069196313619614,0.0,0.8660456538200378,0.0,0.0,-0.4999649226665497,-0.204464390873909,-1.16302490234375,0.0,0.0,0.0,-8.175980567932129,-0.24542862176895142,0.7780131697654724,0.4264487028121948,0.9238757491111755,-0.023158669471740723,-0.037912383675575256,-0.38010498881340027,3.331132411956787,0.9247974753379822,0.5276879072189331,10.77442455291748,-11.492561340332031,18.628128051757812,-0.24436533451080322,0.7777113914489746,0.4277534782886505,3.06943416595459,1.4536316394805908,0.5151028633117676,0.3423870801925659,0.7036433219909668,0.42000001668930054,-0.3833768665790558,1.013556718826294,-0.9413968920707703,-3.0000011920928955,-0.18931110203266144,-0.18402886390686035,-0.17644725739955902,-0.16658025979995728,-0.5069134831428528,-0.2955296039581299,-0.07682668417692184,0.13988587260246277
0.43333333333333335,0.014209293760359287,0.0378691740334034,0.0,0.8200827240943909,0.0,0.0,-0.5722449421882629,-0.09616789221763611,-0.6598301529884338,0.0,0.0,0.0,-11.08336067199707,-0.16918832063674927,0.8028922080993652,0.4337843656539917,0.8968465328216553,0.030591128394007683,-0.08213071525096893,-0.4335724115371704,5.85895299911499,1.2604224681854248,0.5016731023788452,16.28740119934082,-19.67001724243164,13.010819435119629,-0.1688738614320755,0.8024494647979736,0.4350619316101074,5.744712829589844,1.7384146451950073,0.5521640777587891,0.3423870801925659,0.7036433219909668,0.42000001668930054,-0.3642062544822693,1.2577437162399292,-0.9048739075660706,2.9959938526153564,-0.2041020393371582,-0.19496117532253265,-0.18242302536964417,-0.1680021435022354,-0.9003961086273193,-0.7469345927238464,-0.4529949724674225,-0.19386985898017883
0.45,0.008096382953226566,0.03194599971175194,0.0,0.7814664244651794,0.0,0.0,-0.6239473223686218,-0.4864582419395447,-0.34327107667922974,0.0,0.0,0.0,-6.510525703430176,-0.07694827020168304,0.8232629895210266,0.4459453821182251,0.8499901294708252,0.05144001543521881,-0.10023437440395355,-0.5146101117134094,5.325436115264893,0.5205705165863037,1.0814529657363892,0.22217851877212524,-6.059416770935059,3.028261661529541,-0.07679712027311325,0.8238530158996582,0.44731104373931885,5.459156036376953,0.9216733574867249,0.7521401643753052,0.3423870801925659,0.7036433219909668,0.42000001668930054,-0.3421576917171478,1.3662075996398926,-0.9306991696357727,-2.9989640712738037,-0.21763889491558075,-0.20898045599460602,-0.19401833415031433,-0.17534418404102325,-0.5969955325126648,-0.6612722873687744,-0.6338963508605957,-0.44341540336608887
0.4666666666666667,0.0067783016711473465,0.018618546426296234,0.0,0.7635694146156311,0.0,0.0,-0.6457257270812988,0.03329893574118614,-0.9538780450820923,0.0,0.0,0.0,-2.3932714462280273,0.01574297621846199,0.8317015171051025,0.45863112807273865,0.7825989723205566,0.06247049942612648,-0.09161438047885895,-0.6125708222389221,5.348454475402832,-0.8867084980010986,0.6522814631462097,-6.835675239562988,-15.646438598632812,22.152502059936523,0.014448308385908604,0.8329192399978638,0.45914939045906067,5.563418388366699,0.033158108592033386,0.8159799575805664,0.3423870801925659,0.7036433219909668,0.42000001668930054,-0.3203304708003998,0.9866048693656921,-0.9807232022285461,-3.000004768371582,-0.22085720300674438,-0.2131490260362625,-0.19795359671115875,-0.17680130898952484,-0.11369359493255615,-0.11732420325279236,-0.0729743167757988,0.07461801171302795
0.48333333333333334,0.0040082186460494995,0.0073197404853999615,0.0,0.7374387383460999,0.0,0.0,-0.675413966178894,-0.20610053837299347,-0.6082217693328857,0.0,0.0,0.0,-5.488032341003418,0.10234478116035461,0.8254563808441162,0.46740689873695374,0.7245343923568726,0.059647541493177414,-0.07678788900375366,-0.6823456883430481,4.733407497406006,-1.2072685956954956,0.3532741963863373,-8.256153106689453,-7.252025604248047,16.168363571166992,0.1000647321343422,0.8273985385894775,0.4680946469306946,5.021130561828613,-0.6422464847564697,0.49444204568862915,0.3423870801925659,0.7036433219909668,0.42000001668930054,-0.30791744589805603,0.59299635887146,-1.0307461023330688,-3.000002145767212,-0.22413267195224762,-0.21624481678009033,-0.20048987865447998,-0.17760330438613892,-0.13522957265377045,-0.1304730325937271,-0.12318641692399979,-0.07189401239156723
0.5,0.0029847403056919575,0.0005503636784851551,0.0,0.7256713509559631,0.0,0.0,-0.6880414485931396,0.0031025444623082876,-0.3141900599002838,0.0,0.0,0.0,-0.9351465702056885,0.17602261900901794,0.8095839619636536,0.4713134169578552,0.6853497624397278,0.05239143222570419,-0.0791272297501564,-0.7220038175582886,3.8470242023468018,-1.2398278713226318,0.1712627410888672,-6.22627592086792,4.508080959320068,-1.148849606513977,0.17402765154838562,0.8122600317001343,0.47231876850128174,4.04029655456543,-1.2225905656814575,0.10220161080360413,0.3423870801925659,0.7036433219909668,0.42000001668930054,-0.29474425315856934,1.0793616771697998,-1.0807682275772095,-2.9992785453796387,-0.22660300135612488,-0.2183818370103836,-0.20254908502101898,-0.17927300930023193,-0.09739352017641068,-0.07581695169210434,-0.08525113761425018,-0.0973864495754242
0.5166666666666666,0.0031372124794870615,-0.0017505675787106156,0.0,0.7069857120513916,0.0,0.0,-0.7072278261184692,0.014245144091546535,-0.07042422890663147,0.0,0.0,0.0,-4.092961311340332,0.23607754707336426,0.7890971899032593,0.46754732728004456,0.6529948115348816,0.035191699862480164,-0.058616239577531815,-0.7542701363563538,2.9105947017669678,-1.8600831031799316,-0.445026159286499,-11.934233665466309,-2.6407368183135986,18.589921951293945,0.23423971235752106,0.7917765378952026,0.46888601779937744,3.367108106613159,-1.3724312782287598,-0.3400425612926483,0.3423870801925659,0.7036433219909668,0.42000001668930054,-0.2792319357395172,0.7044739723205566,-1.13079035282135,-2.9999992847442627,-0.22721895575523376,-0.2189825028181076,-0.20371489226818085,-0.1812131553888321,0.014938989654183388,0.015137639828026295,-0.026972953230142593,-0.09423206746578217
0.5333333333333333,0.0053721340373158455,-0.0013814744306728244,0.0,0.7014874219894409,0.0,0.0,-0.7126818299293518,0.16296714544296265,0.12995655834674835,0.0,0.0,0.0,0.03687385097146034,0.28274276852607727,0.7658629417419434,0.45762869715690613,0.6306208968162537,0.006458194926381111,-0.03545081615447998,-0.7752540111541748,2.0124425888061523,-1.9770593643188477,-0.8106833696365356,-16.79423713684082,-1.4656577110290527,20.313343048095703,0.28134116530418396,0.7677806615829468,0.45927149057388306,2.4723892211914062,-1.4992504119873047,-0.6493523120880127,0.3423870801925659,0.7036433219909668,0.42000001668930054,-0.26397961378097534,0.6897090673446655,-1.1808124780654907,-3.0000009536743164,-0.22552937269210815,-0.2175789624452591,-0.20340703427791595,-0.18259823322296143,0.12387578934431076,0.10067446529865265,0.022855710238218307,-0.1003873199224472
0.55,0.010600673966109753,-0.005086925812065601,0.0,0.6858487725257874,0.0,0.0,-0.7277440428733826,0.3090319037437439,-0.24647486209869385,0.0,0.0,0.0,-3.4077627658843994,0.31942296028137207,0.7437393665313721,0.43531516194343567,0.5654062628746033,-0.13990524411201477,-0.1159166470170021,-0.8045529723167419,1.8346190452575684,-1.2341912984848022,-1.5391920804977417,-15.388858795166016,4.7144036293029785,-7.226775169372559,0.3161281645298004,0.7472896575927734,0.44335007667541504,1.7299902439117432,-1.1771607398986816,-1.121355652809143,0.3423870801925659,0.7036433219909668,0.42000001668930054,-0.2508014142513275,1.053861379623413,-1.2308346033096313,-2.9998812675476074,-0.21716848015785217,-0.21090993285179138,-0.1993131935596466,-0.18182143568992615,0.47521141171455383,0.3831562399864197,0.23281744122505188,0.029616056010127068
0.5666666666666667,0.017652761191129684,-0.0042301956564188,0.0,0.6829506754875183,0.0,0.0,-0.7304644584655762,0.46775493025779724,0.045857563614845276,0.0,0.0,0.0,0.44444698095321655,0.338875412940979,0.7294621467590332,0.4242204427719116,0.5842272043228149,-0.07580132782459259,-0.04591546952724457,-0.8067368865013123,0.6963303089141846,-0.6236279010772705,-0.031201183795928955,-9.098109245300293,-6.869256019592285,11.503697395324707,0.3358256220817566,0.7288203835487366,0.4301474094390869,0.38638246059417725,-0.6565409302711487,0.11462526023387909,0.3423870801925659,0.7036433219909668,0.42000001668930054,-0.230041041970253,1.1169917583465576,-1.1928707361221313,3.000002145767212,-0.21161948144435883,-0.20658789575099945,-0.1972050666809082,-0.18287956714630127,0.5429151058197021,0.4114154279232025,0.2324821501970291,0.007087825331836939
0.5833333333333334,0.022493824362754822,-0.007508131675422192,0.0,0.6703165769577026,0.0,0.0,-0.7420752644538879,0.227652445435524,-0.2294996678829193,0.0,0.0,0.0,-2.8497817516326904,0.34366676211357117,0.7210201621055603,0.4230809509754181,0.6066402196884155,-0.061399031430482864,-0.029505178332328796,-0.7920524477958679,0.01042640395462513,-0.7193013429641724,0.07082328200340271,-5.450364112854004,2.0248758792877197,12.805373191833496,0.34033626317977905,0.7196144461631775,0.42850053310394287,-0.022636476904153824,-0.4304116368293762,0.09167266637086868,0.3423870801925659,0.7036433219909668,0.42000001668930054,-0.22290372848510742,-0.2960805594921112,-1.1675426959991455,0.26784998178482056,-0.20180240273475647,-0.1989622414112091,-0.19255515933036804,-0.1820008009672165,0.47749513387680054,0.3770594298839569,0.22921238839626312,0.03104502521455288
0.6,0.02391594462096691,-0.007069296669214964,0.0,0.6705679297447205,0.0,0.0,-0.7418481111526489,0.03869655355811119,0.04140305146574974,0.0,0.0,0.0,0.8774598240852356,0.3417809009552002,0.7132849097251892,0.42350664734840393,0.618588924407959,-0.06335479766130447,0.007863318547606468,-0.78311687707901,-0.10163967311382294,-0.5309348702430725,0.05069788545370102,-4.693100452423096,3.660465955734253,8.720171928405762,0.3386668562889099,0.7112605571746826,0.428207129240036,-0.1485408991575241,-0.36330196261405945,0.04813462495803833,0.3423870801925659,0.7036433219909668,0.42000001668930054,-0.22433821856975555,0.024837946519255638,-1.2090187072753906,-3.000002384185791,-0.19666561484336853,-0.1948978453874588,-0.19033941626548767,-0.18249519169330597,0.3888787627220154,0.3073154091835022,0.1850549578666687,0.016672968864440918
0.6166666666666667,0.02659391425549984,-0.00991753302514553,0.0,0.6605523824691772,0.0,0.0,-0.750779926776886,0.19266073405742645,-0.20287376642227173,0.0,0.0,0.0,-2.400047540664673,0.3394487202167511,0.7109050154685974,0.4219028353691101,0.6397435069084167,-0.03371313214302063,0.0090717151761055,-0.7677950859069824,-0.08871841430664062,-0.03831797093153,0.02515752613544464,-2.5167667865753174,1.4634817838668823,5.356202125549316,0.335940957069397,0.7080279588699341,0.42549723386764526,-0.13881425559520721,-0.08930099010467529,-0.07652764022350311,0.3423870801925659,0.7036433219909668,0.42000001668930054,-0.23253948986530304,-0.8156330585479736,-1.1710726022720337,3.0001463890075684,-0.1886925995349884,-0.18857206404209137,-0.18626314401626587,-0.18135705590248108,0.4227485656738281,0.33943507075309753,0.222605898976326,0.06647057831287384
0.6333333333333333,0.03167414292693138,-0.009578052908182144,0.0,0.6633194088935852,0.0,0.0,-0.7483363747596741,0.3315492272377014,0.0423375628888607,0.0,0.0,0.0,1.2922053337097168,0.337862104177475,0.7102667689323425,0.4210275113582611,0.6579723358154297,-0.018462199717760086,-0.0015847556060180068,-0.7528141140937805,-0.09072577953338623,-0.03752050921320915,-0.08167804032564163,0.9799584746360779,-3.0359725952148438,2.275479793548584,0.33410167694091797,0.7070708274841309,0.4266844391822815,-0.10837368667125702,0.04995954781770706,0.12780937552452087,0.3423870801925659,0.7036433219909668,0.42000001668930054,-0.27667927742004395,-2.999746799468994,-1.1926826238632202,-3.0,-0.1840236634016037,-0.18493850529193878,-0.184152290225029,-0.18136771023273468,0.32379165291786194,0.24922068417072296,0.1502304971218109,0.02066928893327713
0.65,0.03860314190387726,-0.01253417320549488,0.0,0.6651597023010254,0.0,0.0,-0.7467011213302612,0.4427686631679535,-0.19208326935768127,0.0,0.0,0.0,-0.19544121623039246,0.3369908034801483,0.7094858288764954,0.4200000464916229,0.6584994196891785,1.8532986132413498e-06,2.1619747769818787e-07,-0.7525811791419983,-0.02246849797666073,-0.04423315450549126,-7.137784268707037e-05,-0.004232302308082581,0.0026097241789102554,-0.6115750670433044,0.33309251070022583,0.708433985710144,0.42971092462539673,-0.09888360649347305,0.039373960345983505,0.22101514041423798,0.3423870801925659,0.7036433219909668,0.42000001668930054,-0.32666799426078796,-2.998941659927368,-1.2426639795303345,-2.999934673309326,-0.17675726115703583,-0.1787937730550766,-0.17936596274375916,-0.17827752232551575,0.30116692185401917,0.2892169952392578,0.26741525530815125,0.22851595282554626
0.6666666666666666,0.04747162386775017,-0.017859142273664474,0.0,0.6488393545150757,0.0,0.0,-0.7609254121780396,0.5675085186958313,-0.4277418553829193,0.0,0.0,0.0,-3.4202165603637695,0.3369395136833191,0.7093948721885681,0.41999995708465576,0.6580053567886353,4.554948191071162e-06,-2.254609171359334e-06,-0.7530131340026855,0.0002383518440183252,-0.00038070735172368586,-3.591040149331093e-05,0.014411695301532745,0.0023080329410731792,0.0008047924493439496,0.33234575390815735,0.7078573107719421,0.4350517988204956,0.045242443680763245,-0.10906419157981873,0.5332894325256348,0.3423870801925659,0.7036433219909668,0.42000001668930054,-0.3766830563545227,-3.0000007152557373,-1.2926825284957886,-3.0000011920928955,-0.17390741407871246,-0.1755361258983612,-0.1757671982049942,-0.17453351616859436,0.12257415801286697,0.1717558652162552,0.22120051085948944,0.2631533145904541
0.6833333333333333,0.059252575039863586,-0.020169608294963837,0.0,0.6111142039299011,0.0,0.0,-0.7915424704551697,0.7414413690567017,-0.1342393010854721,0.0,0.0,0.0,-6.635136604309082,0.3369395434856415,0.7093954682350159,0.4200000464916229,0.6580053567886353,6.277772968132922e-07,-3.788723006437067e-06,-0.7530132532119751,0.00022002255718689412,-0.0002823833783622831,-0.00010544853284955025,0.005216717254370451,0.00024964145268313587,-0.00040684512350708246,0.3405095040798187,0.7011600732803345,0.45161110162734985,1.0078521966934204,-0.5266165137290955,1.5104999542236328,0.3423870801925659,0.7036433219909668,0.42000001668930054,-0.42669662833213806,-3.0000009536743164,-1.3427008390426636,-2.999999761581421,-0.17712225019931793,-0.17705605924129486,-0.17557074129581451,-0.17274273931980133,-0.1633681207895279,-0.0773240476846695,0.015029584057629108,0.10601001977920532
0.7,0.06870298832654953,-0.02070816047489643,0.0,0.5883744359016418,0.0,0.0,-0.8085886240005493,0.4907533526420593,0.01073133572936058,0.0,0.0,0.0,-2.349395513534546,0.3369395434856415,0.7093954682350159,0.4200000464916229,0.6580052375793457,7.086021014401922e-07,-3.861503500957042e-06,-0.7530132532119751,0.0002239847817691043,-0.00028282596031203866,-0.00010586925782263279,0.0052160294726490974,0.00032258531427942216,-0.00041353394044563174,0.35805416107177734,0.6985636949539185,0.4789581298828125,1.0111579895019531,0.10415082424879074,1.722928524017334,0.3423870801925659,0.7036433219909668,0.42000001668930054,-0.45225220918655396,-0.2829400599002838,-1.3927191495895386,-3.0000007152557373,-0.17840012907981873,-0.17775380611419678,-0.1756318062543869,-0.1722046434879303,0.01962731033563614,0.0053252046927809715,-0.00874541699886322,-0.026020651683211327
0.7166666666666667,0.0732840821146965,-0.018956691026687622,0.0,0.5916281342506409,0.0,0.0,-0.8062109351158142,0.2000642716884613,0.15049079060554504,0.0,0.0,0.0,1.3310959339141846,0.3369395434856415,0.7093954682350159,0.4200000464916229,0.6580055356025696,7.236268402266433e-07,-3.752700422410271e-06,-0.7530130743980408,0.00021899945568293333,-0.0002827984280884266,-0.00010434468276798725,0.005237744655460119,0.00025919079780578613,-0.0004030251584481448,0.37419450283050537,0.7030887603759766,0.5015050768852234,0.8039351105690002,0.34642189741134644,1.016742467880249,0.3423870801925659,0.7036433219909668,0.42000001668930054,-0.43905311822891235,1.6839025020599365,-1.4427298307418823,-3.0000007152557373,-0.17643201351165771,-0.17623142898082733,-0.17454476654529572,-0.17158780992031097,0.17415957152843475,0.14542929828166962,0.11538971960544586,0.08204448968172073
0.7333333333333333,0.07429243624210358,-0.021015407517552376,0.0,0.5841121077537537,0.0,0.0,-0.8116729855537415,0.030534254387021065,-0.20602171123027802,0.0,0.0,0.0,-2.0030362606048584,0.3369395434856415,0.7093954682350159,0.4200000464916229,0.65800541639328,7.106544899215805e-07,-3.827975433523534e-06,-0.7530130743980408,0.0002245091018266976,-0.0002829418226610869,-0.00010601175017654896,0.005216109566390514,0.00032878597266972065,-0.0004145654384046793,0.38066956400871277,0.707956075668335,0.5113659501075745,-0.017831861972808838,0.23743748664855957,0.3506292700767517,0.3423870801925659,0.7036433219909668,0.42000001668930054,-0.40224507451057434,2.6203222274780273,-1.4041621685028076,3.0000007152557373,-0.17245706915855408,-0.1726791262626648,-0.17147961258888245,-0.16909776628017426,0.2066110372543335,0.20016822218894958,0.185902401804924,0.16263023018836975
0.75,0.07300730794668198,-0.01820201799273491,0.0,0.5897830724716187,0.0,0.0,-0.8075616955757141,-0.12096671760082245,0.30026963353157043,0.0,0.0,0.0,1.7161227464675903,0.3369395434856415,0.7093954682350159,0.4200000464916229,0.6580053567886353,6.913826382515253e-07,-3.901317541021854e-06,-0.7530131936073303,0.00022412085672840476,-0.00028288131579756737,-0.00010590022429823875,0.005216460209339857,0.00032401212956756353,-0.0004137870855629444,0.378046452999115,0.7120128870010376,0.5180016756057739,-0.275766521692276,0.30107682943344116,0.44325798749923706,0.3423870801925659,0.7036433219909668,0.42000001668930054,-0.3602766990661621,2.401449203491211,-1.3541514873504639,3.0,-0.17507638037204742,-0.1742025762796402,-0.172113835811615,-0.16909073293209076,-0.23426398634910583,-0.1583438515663147,-0.09467838704586029,-0.04545121639966965
0.7666666666666666,0.07168107479810715,-0.01760890893638134,0.0,0.5839198231697083,0.0,0.0,-0.8118113279342651,-0.08231326192617416,-0.014829592779278755,0.0,0.0,0.0,-1.7128475904464722,0.3369395434856415,0.7093954682350159,0.4200000464916229,0.6580052971839905,7.098045671227737e-07,-3.7864583646296524e-06,-0.7530132532119751,0.00022372539388015866,-0.0002827604184858501,-0.00010579661466181278,0.005215594079345465,0.00031934029539115727,-0.00041303280158899724,0.37035006284713745,0.7140903472900391,0.5200175046920776,-0.6556950211524963,-0.032168030738830566,0.001381903886795044,0.3423870801925659,0.7036433219909668,0.42000001668930054,-0.35703927278518677,-1.6635452508926392,-1.3041484355926514,2.999999523162842,-0.1777147650718689,-0.17561203241348267,-0.17241685092449188,-0.1684427410364151,-0.17926166951656342,-0.08902870863676071,-0.004075421020388603,0.07346725463867188
0.7833333333333333,0.07224103808403015,-0.017351271584630013,0.0,0.5893357396125793,0.0,0.0,-0.8078882694244385,0.06770619750022888,0.016466055065393448,0.0,0.0,0.0,1.5097309350967407,0.3369395434856415,0.7093954086303711,0.4200000464916229,0.6580055356025696,7.028952495602425e-07,-3.6859953524981393e-06,-0.7530130743980408,0.000224966075620614,-0.0002830729936249554,-0.0001061256043612957,0.005216887686401606,0.00033449873444624245,-0.0004154770285822451,0.3609173595905304,0.7133721113204956,0.5205698609352112,-0.4891810715198517,-0.028222588822245598,0.10151203721761703,0.3423870801925659,0.7036433219909668,0.42000001668930054,-0.4045838415622711,-2.9999866485595703,-1.3239727020263672,-2.9999992847442627,-0.17998690903186798,-0.17646649479866028,-0.17182005941867828,-0.16636651754379272,-0.012812857516109943,0.05147795379161835,0.12424004822969437,0.20716656744480133
0.8,0.07476463168859482,-0.019310830160975456,0.0,0.5824315547943115,0.0,0.0,-0.812879741191864,0.19773060083389282,-0.1768692284822464,0.0,0.0,0.0,-1.8851960897445679,0.3369395434856415,0.7093954682350159,0.4200000464916229,0.6580054759979248,7.157645995903295e-07,-3.7553118090727367e-06,-0.7530130743980408,0.00022463910863734782,-0.0002829385339282453,-0.00010609510354697704,0.005214454140514135,0.00032858160557225347,-0.00041493045864626765,0.3571310043334961,0.7108973264694214,0.5200433731079102,0.047519784420728683,-0.22648242115974426,0.0207333043217659,0.3423870801925659,0.7036433219909668,0.42000001668930054,-0.454597532749176,-2.999999761581421,-1.3739910125732422,-2.999999761581421,-0.18104234337806702,-0.1762511432170868,-0.17014282941818237,-0.16302376985549927,-0.045361291617155075,0.0329311303794384,0.12453881651163101,0.22966501116752625
0.8166666666666667,0.08007978647947311,-0.024300262331962585,0.0,0.5540378093719482,0.0,0.0,-0.8324915170669556,0.3649318218231201,-0.3658457398414612,0.0,0.0,0.0,-5.069559574127197,0.3369395434856415,0.7093954682350159,0.4200000464916229,0.65800541639328,7.312127081604558e-07,-3.8296147977234796e-06,-0.7530131936073303,0.00022453763813246042,-0.00028294880758039653,-0.0001060236245393753,0.005215946584939957,0.0003289452288299799,-0.00041462626541033387,0.36148399114608765,0.7023136615753174,0.5238890051841736,0.5147604942321777,-0.70173180103302,0.583067774772644,0.3423870801925659,0.7036433219909668,0.42000001668930054,-0.5046105980873108,-2.9999566078186035,-1.4240093231201172,-2.999998092651367,-0.18348254263401031,-0.17712436616420746,-0.16924594342708588,-0.16016361117362976,-0.14623503386974335,-0.05525825172662735,0.04733821749687195,0.16064701974391937
0.8333333333333334,0.08817525953054428,-0.026845911517739296,0.0,0.5417558550834656,0.0,0.0,-0.8405358791351318,0.5208017826080322,-0.07795587927103043,0.0,0.0,0.0,-0.7130714058876038,0.3369395434856415,0.7093954682350159,0.4200000464916229,0.6580052971839905,7.118397320482472e-07,-3.902949174516834e-06,-0.7530131936073303,0.00022412900580093265,-0.00028284985455684364,-0.00010590977035462856,0.005215736106038094,0.00032423363882116973,-0.00041382526978850365,0.36853569746017456,0.6962625980377197,0.5362414121627808,0.32369303703308105,-0.15330207347869873,0.8414078950881958,0.3423870801925659,0.7036433219909668,0.42000001668930054,-0.5272464156150818,0.038502492010593414,-1.4740276336669922,-3.0000011920928955,-0.185045063495636,-0.17805546522140503,-0.16939759254455566,-0.15939019620418549,0.012122472748160362,-6.402842700481415e-09,-0.008490359410643578,-0.009972315281629562
0.85,0.0930815041065216,-0.026735596358776093,0.0,0.5552540421485901,0.0,0.0,-0.8316807746887207,0.21970635652542114,0.04557155817747116,0.0,0.0,0.0,2.764328956604004,0.3369395434856415,0.7093954682350159,0.4200000464916229,0.6580053567886353,7.194409477051522e-07,-3.813190005530487e-06,-0.7530131340026855,0.00022453525161836296,-0.0002829743316397071,-0.00010602409020066261,0.005216632969677448,0.00032884132815524936,-0.00041461450746282935,0.37566885352134705,0.6974681615829468,0.5452971458435059,0.4509924352169037,0.1670764833688736,0.27062612771987915,0.3423870801925659,0.7036433219909668,0.42000001668930054,-0.5098002552986145,1.879375696182251,-1.4353680610656738,2.999999761581421,-0.18147319555282593,-0.17537158727645874,-0.16754238307476044,-0.15824531018733978,0.3058703541755676,0.2398221641778946,0.1737956702709198,0.1113266572356224
0.8666666666666667,0.09367277473211288,-0.031161192804574966,0.0,0.5548251271247864,0.0,0.0,-0.8319669961929321,0.023325394839048386,-0.35655540227890015,0.0,0.0,0.0,-1.06925368309021,0.3369395434856415,0.7093954682350159,0.4200000464916229,0.6580052971839905,6.920193413861853e-07,-3.882217697537271e-06,-0.7530132532119751,0.0002240110479760915,-0.0002828264841809869,-0.00010587763972580433,0.005215751938521862,0.0003226820845156908,-0.00041359354509040713,0.381955623626709,0.6989653706550598,0.5473791360855103,0.2990220785140991,0.005670488812029362,0.1344936490058899,0.3423870801925659,0.7036433219909668,0.42000001668930054,-0.5102665424346924,-1.6312885284423828,-1.3853154182434082,3.000000476837158,-0.17364177107810974,-0.16910099983215332,-0.16284383833408356,-0.1550653874874115,0.4112258851528168,0.33034858107566833,0.24492444097995758,0.15832461416721344
0.8833333333333333,0.0924433022737503,-0.03078555501997471,0.0,0.5656996369361877,0.0,0.0,-0.8246113657951355,-0.1209942176938057,0.1660389006137848,0.0,0.0,0.0,2.4150426387786865,0.3369395434856415,0.7093954682350159,0.4200000464916229,0.6580055356025696,7.297372235370858e-07,-3.5975276659883093e-06,-0.7530130743980408,0.00022469180112238973,-0.000282980123301968,-0.00010605016723275185,0.005216164048761129,0.00033129207440651953,-0.00041496692574582994,0.3863428831100464,0.6971319913864136,0.5466219186782837,0.22491267323493958,-0.1941951960325241,-0.20665134489536285,0.3423870801925659,0.7036433219909668,0.42000001668930054,-0.5258074998855591,-0.33256933093070984,-1.4036978483200073,-2.9999992847442627,-0.17294330894947052,-0.16823218762874603,-0.16200143098831177,-0.15442995727062225,-0.06807227432727814,-0.023190030828118324,0.007490495685487986,0.023981116712093353
