vladlanda/robotic-transformer/data/env_000_episode_0290.csv
sim_time_s,robot_box_x,robot_box_y,robot_box_z,robot_box_quat_w,robot_box_quat_x,robot_box_quat_y,robot_box_quat_z,robot_box_linvel_x,robot_box_linvel_y,robot_box_linvel_z,robot_box_angvel_x,robot_box_angvel_y,robot_box_angvel_z,cube_world_x,cube_world_y,cube_world_z,cube_quat_w,cube_quat_x,cube_quat_y,cube_quat_z,cube_linvel_x,cube_linvel_y,cube_linvel_z,cube_angvel_x,cube_angvel_y,cube_angvel_z,endpoint_world_x,endpoint_world_y,endpoint_world_z,endpoint_linvel_x,endpoint_linvel_y,endpoint_linvel_z,target_cube_world_x,target_cube_world_y,target_cube_world_z,gripper_actual_pos_rad_gp_leftgearjoint,gripper_actual_vel_rad_s_gp_leftgearjoint,gripper_actual_pos_rad_gp_rotatingjoint,gripper_actual_vel_rad_s_gp_rotatingjoint,motor_angle_rad_joint1,motor_angle_rad_joint2,motor_angle_rad_joint3,motor_angle_rad_joint4,motor_speed_rad_s_joint1,motor_speed_rad_s_joint2,motor_speed_rad_s_joint3,motor_speed_rad_s_joint4
0.0,0.0,0.0,0.0,1.0,0.0,0.0,0.0,0.0,0.0,0.0,0.0,0.0,0.0,-0.34329938888549805,0.7156248092651367,0.41999998688697815,1.0,0.0,0.0,0.0,0.0,0.0,0.0,0.0,0.0,0.0,3.42540442943573e-06,-0.005000244826078415,1.313499927520752,0.0,0.0,0.0,0.3656948506832123,0.7479262948036194,0.42000001668930054,-1.5707999467849731,0.0,0.0,0.0,0.0,0.0,0.0,0.0,0.0,0.0,0.0,0.0
0.016666666666666666,0.002666826592758298,0.001590190571732819,0.0,0.9999905228614807,0.0,0.0,-0.004354985896497965,0.23702837526798248,0.14428088068962097,0.0,0.0,0.0,-0.8616964221000671,-0.3432995080947876,0.7156245112419128,0.41999998688697815,1.0,3.2799905511637917e-06,-8.339794135281409e-07,8.465515577427141e-08,-1.9833774786093272e-05,0.00017983047291636467,-6.132945418357849e-05,0.0009432245860807598,-0.004689525347203016,-0.00031981084612198174,-0.007033020257949829,0.003982867114245892,1.315859079360962,-0.8004307746887207,1.0342683792114258,0.17899060249328613,0.3656948506832123,0.7479262948036194,0.42000001668930054,-1.5301082134246826,2.9999990463256836,-0.045861680060625076,-3.0000009536743164,0.0007962777162902057,0.0007264749729074538,0.0006457241252064705,0.0005510793416760862,0.1105586513876915,0.09706301987171173,0.0826888158917427,0.06742221862077713
0.03333333333333333,0.00930076651275158,0.0060077388770878315,0.0,0.9995188117027283,0.0,0.0,-0.031018462032079697,0.4628259837627411,0.3136361539363861,0.0,0.0,0.0,-4.0395965576171875,-0.34329962730407715,0.7156244516372681,0.4200000464916229,1.0,3.3908531804627273e-06,-2.132488134520827e-06,-3.710428941872124e-08,0.0002635785494931042,0.0002693783608265221,-0.00010509602725505829,-0.0017707846127450466,0.004130862653255463,-0.00013547409616876394,-0.025783784687519073,0.027750611305236816,1.3167860507965088,-1.4071033000946045,1.7550408840179443,-0.055070117115974426,0.3656948506832123,0.7479262948036194,0.42000001668930054,-1.4800889492034912,3.000000476837158,-0.0959015041589737,-2.999999761581421,0.003121776971966028,0.002751641906797886,0.0023447112180292606,0.0018976323772221804,0.18161112070083618,0.15417230129241943,0.1252163052558899,0.09468284994363785
0.05,0.01890379749238491,0.012909547425806522,0.0,0.9992609620094299,0.0,0.0,-0.03843888267874718,0.6099182963371277,0.45965391397476196,0.0,0.0,0.0,0.07798977941274643,-0.34329965710639954,0.7156245112419128,0.4200000464916229,1.0,3.7651284401363228e-06,-2.2118861124909017e-06,5.622759147172474e-09,0.00026530996547080576,0.00026691515813581645,-0.00010440382175147533,-0.00172425655182451,0.004177390597760677,-0.00012948956282343715,-0.054268818348646164,0.05792342871427536,1.3126094341278076,-1.8930739164352417,1.9772700071334839,-0.41978719830513,0.3656948506832123,0.7479262948036194,0.42000001668930054,-1.4300706386566162,3.0000011920928955,-0.1459232121706009,-3.0000011920928955,0.0058967843651771545,0.005016579758375883,0.004064488690346479,0.0030361295212060213,0.17481940984725952,0.1356322020292282,0.09450437873601913,0.05134524405002594
0.06666666666666667,0.031040748581290245,0.022034963592886925,0.0,0.9982194900512695,0.0,0.0,-0.05964718386530876,0.7859079241752625,0.5889371633529663,0.0,0.0,0.0,-3.3929736614227295,-0.34329965710639954,0.7156244516372681,0.4200000464916229,0.9999999403953552,3.406779342185473e-06,-2.285526988998754e-06,4.300881926155853e-07,0.00026702668401412666,0.00026791810523718596,-0.00010437914170324802,-0.0017406379338353872,0.004211799707263708,-0.00012850595521740615,-0.08275187760591507,0.09585689008235931,1.3036835193634033,-1.5212643146514893,2.559570074081421,-0.6364682912826538,0.3656948506832123,0.7479262948036194,0.42000001668930054,-1.3800431489944458,3.0000014305114746,-0.1280408650636673,3.0000009536743164,0.00773683050647378,0.005925996229052544,0.004002783913165331,0.0019614584743976593,0.0760413333773613,0.0022780299186706543,-0.07367698848247528,-0.151818186044693
0.08333333333333333,0.037281956523656845,0.03549391031265259,0.0,0.9938070774078369,0.0,0.0,-0.11111908406019211,0.23941393196582794,0.8942129015922546,0.0,0.0,0.0,-7.162968635559082,-0.34329965710639954,0.7156244516372681,0.4200000464916229,1.0,3.6973510759708006e-06,-2.1889595700486097e-06,-2.632473012909031e-07,0.00026389595586806536,0.0002658632874954492,-0.0001043388620018959,-0.0017081330297514796,0.004150238819420338,-0.00012991279072593898,-0.10704747587442398,0.1399000734090805,1.2905914783477783,-1.4028143882751465,2.7447309494018555,-0.8641927242279053,0.3656948506832123,0.7479262948036194,0.42000001668930054,-1.3300470113754272,3.0000014305114746,-0.15998919308185577,-3.0,0.0029799514450132847,0.0003539511526469141,-0.002438609255477786,-0.005406870041042566,-0.39022889733314514,-0.4399585723876953,-0.49238789081573486,-0.5477681159973145
0.1,0.04788510128855705,0.04999099299311638,0.0,0.9898300170898438,0.0,0.0,-0.14225506782531738,0.7239067554473877,0.8803240656852722,0.0,0.0,0.0,-2.6805918216705322,-0.34329965710639954,0.7156244516372681,0.4200000464916229,0.9999999403953552,3.62046125701454e-06,-2.2652770894637797e-06,1.745990232393524e-07,0.0002667673397809267,0.00026740715838968754,-0.0001040794886648655,-0.0017385382670909166,0.004209098871797323,-0.0001277524424949661,-0.13728977739810944,0.18270424008369446,1.275864839553833,-1.951366901397705,2.7214813232421875,-0.9909343123435974,0.3656948506832123,0.7479262948036194,0.42000001668930054,-1.2800401449203491,3.000000238418579,-0.21000103652477264,-3.0000009536743164,0.0023386229295283556,-0.0018259815406054258,-0.006147513631731272,-0.010634884238243103,-0.018663296476006508,-0.11074887961149216,-0.2016613632440567,-0.29135414958000183
0.11666666666666667,0.05702243745326996,0.062088653445243835,0.0,0.9828251004219055,0.0,0.0,-0.18453939259052277,0.5303211808204651,0.7107664942741394,0.0,0.0,0.0,-5.878172397613525,-0.34329965710639954,0.7156244516372681,0.4200000464916229,1.0,3.7984573282301426e-06,-2.262856924062362e-06,-1.5021495869405044e-07,0.00026374036679044366,0.000265661277808249,-0.00010429229587316513,-0.001705389702692628,0.004147546831518412,-0.000129798921989277,-0.1644698679447174,0.2328726351261139,1.2586339712142944,-1.2880640029907227,3.395486831665039,-1.0193266868591309,0.3656948506832123,0.7479262948036194,0.42000001668930054,-1.230019211769104,2.9999938011169434,-0.17615534365177155,2.999999523162842,0.000592301890719682,-0.005326495971530676,-0.011369244195520878,-0.017543975263834,-0.13280728459358215,-0.2506873309612274,-0.36589333415031433,-0.4782258868217468
0.13333333333333333,0.06344064325094223,0.07088285684585571,0.0,0.9786047339439392,0.0,0.0,-0.20574933290481567,0.3241097033023834,0.44208377599716187,0.0,0.0,0.0,-1.4312840700149536,-0.34329965710639954,0.7156245112419128,0.4200000464916229,0.9999999403953552,3.5505674986779923e-06,-2.2298811472865054e-06,2.928988749317796e-07,0.0002670325629878789,0.0002677947923075408,-0.00010417005978524685,-0.0017441295785829425,0.004213639069348574,-0.00012800269178114831,-0.19381527602672577,0.2867260277271271,1.2360591888427734,-1.924072504043579,3.3385438919067383,-1.6663411855697632,0.3656948506832123,0.7479262948036194,0.42000001668930054,-1.1975451707839966,1.042494297027588,-0.20774558186531067,-2.999999761581421,-0.002200270537286997,-0.009785686619579792,-0.017438186332583427,-0.02516300044953823,-0.2068762630224228,-0.2868116796016693,-0.36325111985206604,-0.4361155331134796
0.15,0.07111259549856186,0.08012257516384125,0.0,0.9713704586029053,0.0,0.0,-0.2375698685646057,0.5152770280838013,0.5987604856491089,0.0,0.0,0.0,-4.759032249450684,-0.34329962730407715,0.7156244516372681,0.4200000464916229,1.0,3.3323015031783143e-06,-2.102055532304803e-06,1.3129393039434945e-07,0.0002673060225788504,0.0002685941581148654,-0.00010459520854055882,-0.0017496503423899412,0.0042156013660132885,-0.00012928296928294003,-0.22417372465133667,0.34970274567604065,1.201615571975708,-1.6133265495300293,4.191844940185547,-2.4424681663513184,0.3656948506832123,0.7479262948036194,0.42000001668930054,-1.1529685258865356,2.99999737739563,-0.1739124357700348,3.0000011920928955,-0.0079577611759305,-0.016419164836406708,-0.024907704442739487,-0.0334293469786644,-0.42399314045906067,-0.4579821527004242,-0.4900970160961151,-0.5204727053642273
0.16666666666666666,0.07672595977783203,0.09176093339920044,0.0,0.9589601755142212,0.0,0.0,-0.283540815114975,0.2558351159095764,0.7850511074066162,0.0,0.0,0.0,-6.193950176239014,-0.34329965710639954,0.7156244516372681,0.4200000464916229,1.0,3.7373970371845644e-06,-2.2331828404276166e-06,-1.8766169773698493e-07,0.0002643293410073966,0.0002662685001268983,-0.00010445946827530861,-0.0017119462136179209,0.004157547373324633,-0.00013001658953726292,-0.2537226676940918,0.4183194637298584,1.1562590599060059,-1.622269868850708,4.2808074951171875,-3.0444986820220947,0.3656948506832123,0.7479262948036194,0.42000001668930054,-1.1048272848129272,2.7579545974731445,-0.20554965734481812,-2.999999523162842,-0.016497842967510223,-0.02539825066924095,-0.03428061679005623,-0.043154094368219376,-0.5816534757614136,-0.5968063473701477,-0.6091809868812561,-0.619016706943512
0.18333333333333332,0.08601212501525879,0.1002189889550209,0.0,0.9511862993240356,0.0,0.0,-0.3086172640323639,0.5688904523849487,0.4272051751613617,0.0,0.0,0.0,-2.0221986770629883,-0.34329965710639954,0.7156245112419128,0.4200000464916229,0.9999999403953552,3.6603839816962136e-06,-2.3022842015052447e-06,2.5284006710535323e-07,0.00026690884260460734,0.0002676031144801527,-0.00010412419214844704,-0.0017413157038390636,0.004211471416056156,-0.00012786804290954024,-0.2839232087135315,0.48619240522384644,1.097433090209961,-1.5800457000732422,4.191921710968018,-4.005692481994629,0.3656948506832123,0.7479262948036194,0.42000001668930054,-1.0549683570861816,3.0,-0.25557729601860046,-2.999999523162842,-0.024524245411157608,-0.033457282930612564,-0.04233577102422714,-0.0511753186583519,-0.6279296278953552,-0.5970220565795898,-0.5656894445419312,-0.5344331860542297
0.2,0.08960709720849991,0.11181695014238358,0.0,0.9382030367851257,0.0,0.0,-0.3460852801799774,0.22334641218185425,0.6807584166526794,0.0,0.0,0.0,-5.425245761871338,-0.34329965710639954,0.7156244516372681,0.4200000464916229,1.0,3.5909681628254475e-06,-2.300425876455847e-06,1.3870655379832897e-07,0.0002665469073690474,0.0002673210692591965,-0.00010423827916383743,-0.0017325730295851827,0.004203351214528084,-0.00012819882249459624,-0.30640995502471924,0.5531961917877197,1.021969199180603,-1.074877142906189,3.9936249256134033,-4.791926860809326,0.3656948506832123,0.7479262948036194,0.42000001668930054,-1.004957675933838,2.9999992847442627,-0.3056035339832306,-2.999999523162842,-0.03930187225341797,-0.048172131180763245,-0.05658788979053497,-0.0649772360920906,-0.6013479828834534,-0.6583467125892639,-0.713054895401001,-0.7631875872612
0.21666666666666667,0.0947655513882637,0.11848638951778412,0.0,0.9310966730117798,0.0,0.0,-0.3647725284099579,0.2562115490436554,0.37991538643836975,0.0,0.0,0.0,-1.3407663106918335,-0.34329965710639954,0.7156245112419128,0.4200000464916229,1.0,3.6070816804567585e-06,-2.261013833049219e-06,1.9594006417378296e-08,0.0002644706692080945,0.000265584938460961,-0.00010396563448011875,-0.0017088844906538725,0.004164294805377722,-0.0001283210440305993,-0.326232373714447,0.6120952367782593,0.9366331100463867,-0.8901065587997437,3.2573838233947754,-5.483460426330566,0.3656948506832123,0.7479262948036194,0.42000001668930054,-0.9549490809440613,3.0000014305114746,-0.35563230514526367,-2.9999988079071045,-0.049142614006996155,-0.058428552001714706,-0.06726362556219101,-0.07603371888399124,-0.8195720314979553,-0.7920367121696472,-0.7682873010635376,-0.7456915974617004
0.23333333333333334,0.09535448253154755,0.128237783908844,0.0,0.9188017249107361,0.0,0.0,-0.3947193920612335,-0.030257124453783035,0.5793056488037109,0.0,0.0,0.0,-4.639435291290283,-0.34329962730407715,0.7156244516372681,0.4200000464916229,0.9999999403953552,3.7423803860292537e-06,-2.2275726223597303e-06,4.588900992530398e-07,0.00026475079357624054,0.0002667132648639381,-0.00010453537106513977,-0.0017188824713230133,0.004165737424045801,-0.00013019502512179315,-0.33826231956481934,0.6618391275405884,0.8381330966949463,-0.51943039894104,2.673679828643799,-6.14946174621582,0.3656948506832123,0.7479262948036194,0.42000001668930054,-0.9049383997917175,2.999999761581421,-0.40566322207450867,-2.999999761581421,-0.06476666033267975,-0.07410559803247452,-0.0829911157488823,-0.09181701391935349,-0.8953439593315125,-0.9038110375404358,-0.9134871959686279,-0.9218258261680603
0.25,0.09987296164035797,0.1324702352285385,0.0,0.9132130146026611,0.0,0.0,-0.4074825048446655,0.24122419953346252,0.185811385512352,0.0,0.0,0.0,-0.5310496091842651,-0.34329965710639954,0.7156244516372681,0.4200000464916229,1.0,3.394552777535864e-06,-2.2820759113528766e-06,1.3360092054881534e-07,0.0002667939115781337,0.00026794092264026403,-0.00010439474135637283,-0.0017418104689568281,0.004206564277410507,-0.00012883881572633982,-0.3502410054206848,0.6967395544052124,0.7349872589111328,-0.5389230251312256,1.534605622291565,-6.311550140380859,0.3656948506832123,0.7479262948036194,0.42000001668930054,-0.8549277186393738,2.999998092651367,-0.45569488406181335,-2.9999990463256836,-0.07794913649559021,-0.08725450932979584,-0.09614907950162888,-0.10477516055107117,-0.9894350171089172,-0.9897592067718506,-0.9859325289726257,-0.9253208637237549
0.26666666666666666,0.0986688956618309,0.1408136487007141,0.0,0.9202401041984558,0.0,0.0,-0.3913542926311493,-0.0836595967411995,0.46848824620246887,0.0,0.0,0.0,2.9355061054229736,-0.34329965710639954,0.7156245112419128,0.4200000464916229,1.0,3.683615432237275e-06,-2.3101263195712818e-06,2.1006846395721368e-07,0.00026479296502657235,0.0002662580809555948,-0.00010421290062367916,-0.0017168235499411821,0.004168986808508635,-0.0001290914515266195,-0.3612833619117737,0.7065993547439575,0.634628415107727,-0.7097122073173523,-0.07172638177871704,-5.736026763916016,0.3656948506832123,0.7479262948036194,0.42000001668930054,-0.8049183487892151,2.9999923706054688,-0.5057258009910583,-3.000000476837158,-0.09510663896799088,-0.1042453944683075,-0.11305403709411621,-0.12163948267698288,-0.7311000823974609,-0.7882477641105652,-0.8425698280334473,-0.8915331363677979
0.2833333333333333,0.1014886200428009,0.1433546394109726,0.0,0.9209924340248108,0.0,0.0,-0.3895804286003113,0.174292653799057,0.08827999979257584,0.0,0.0,0.0,-0.5135292410850525,-0.34329965710639954,0.7156244516372681,0.4200000464916229,1.0,3.3071373763959855e-06,-2.2125616396806436e-06,2.625232013997447e-07,0.00026660869480110705,0.0002674512506928295,-0.00010424340143799782,-0.0017352959839627147,0.004204402677714825,-0.00012827638420276344,-0.3694711923599243,0.7104308605194092,0.5398552417755127,-0.2034011036157608,0.17032332718372345,-5.414440631866455,0.3656948506832123,0.7479262948036194,0.42000001668930054,-0.7549095749855042,3.0000007152557373,-0.5557555556297302,-3.0000011920928955,-0.10784459859132767,-0.1177314817905426,-0.12726661562919617,-0.13652554154396057,-1.0193511247634888,-1.0145914554595947,-1.010966181755066,-1.0080777406692505
0.3,0.1004856750369072,0.14344283938407898,0.0,0.927340030670166,0.0,0.0,-0.3742198050022125,-0.1437309980392456,-0.024651650339365005,0.0,0.0,0.0,2.8739054203033447,-0.34329965710639954,0.7156244516372681,0.4200000464916229,1.0,3.6565779737429693e-06,-2.2969809378992068e-06,-2.45018014766174e-07,0.00026533016352914274,0.00026595202507451177,-0.00010385061614215374,-0.0017164858290925622,0.004181961994618177,-0.00012745661661028862,-0.367114782333374,0.7145475149154663,0.45527184009552,0.5032448768615723,0.2805788516998291,-4.8296308517456055,0.3656948506832123,0.7479262948036194,0.42000001668930054,-0.7049016952514648,3.0000014305114746,-0.6057831645011902,-3.0000007152557373,-0.1256285160779953,-0.1352507323026657,-0.14458854496479034,-0.15369367599487305,-1.0119444131851196,-1.0090477466583252,-1.0068342685699463,-1.005061149597168
0.31666666666666665,0.09567964822053909,0.1415364146232605,0.0,0.9270356297492981,0.0,0.0,-0.3749731779098511,-0.2565503418445587,-0.18408802151679993,0.0,0.0,0.0,-0.9474731087684631,-0.34377577900886536,0.7139978408813477,0.4206884205341339,0.9996556043624878,0.015050195157527924,-0.0019976412877440453,-0.021404292434453964,0.02487889863550663,-0.0014668944058939815,0.052955396473407745,1.9175242185592651,-0.7658048868179321,0.252130925655365,-0.36049818992614746,0.7166928052902222,0.4276506304740906,0.08850928395986557,-0.09038472175598145,-0.09281164407730103,0.3656948506832123,0.7479262948036194,0.42000001668930054,-0.6550009846687317,2.990112781524658,-0.6562889814376831,-2.852381706237793,-0.13502417504787445,-0.14498771727085114,-0.1544640213251114,-0.16344785690307617,-0.2162419855594635,-0.2402477115392685,-0.24154140055179596,-0.21548038721084595
0.3333333333333333,0.08972231298685074,0.13685952126979828,0.0,0.9323573112487793,0.0,0.0,-0.36153820157051086,-0.40520405769348145,-0.3221946358680725,0.0,0.0,0.0,2.5804154872894287,-0.3435984253883362,0.7141438722610474,0.42032918334007263,0.9997492432594299,0.008237935602664948,-0.00016909149417188019,-0.02081959694623947,0.005238068290054798,0.022435011342167854,-0.03498932719230652,-1.805804967880249,0.07646913081407547,0.0657615214586258,-0.3598790466785431,0.7206618189811707,0.4257696270942688,0.16386857628822327,0.3354349434375763,-0.16531960666179657,0.3656948506832123,0.7479262948036194,0.42000001668930054,-0.6049944758415222,2.9999849796295166,-0.7063237428665161,-3.0000011920928955,-0.14040203392505646,-0.14999710023403168,-0.15878421068191528,-0.1667046844959259,-0.3843892514705658,-0.3307189643383026,-0.2613724172115326,-0.17409151792526245
0.35,0.08137144893407822,0.12993839383125305,0.0,0.9314692616462708,0.0,0.0,-0.36382004618644714,-0.5426758527755737,-0.4539030194282532,0.0,0.0,0.0,-1.2427572011947632,-0.34166112542152405,0.7176797389984131,0.4200001358985901,0.9982396960258484,-1.3179351299186237e-06,4.270413683116203e-06,-0.05930791422724724,0.14899654686450958,0.2369299978017807,-0.0001519825163995847,0.006132837850600481,-0.0012789006577804685,-4.479590892791748,-0.3555333614349365,0.723453164100647,0.4231213629245758,0.4097740650177002,0.15698905289173126,-0.1638631522655487,0.3656948506832123,0.7479262948036194,0.42000001668930054,-0.5549895167350769,2.9999866485595703,-0.7563697695732117,-2.9999992847442627,-0.14815175533294678,-0.15626436471939087,-0.16331011056900024,-0.16921138763427734,-0.5060082674026489,-0.38822051882743835,-0.25687697529792786,-0.11173847317695618
0.36666666666666664,0.07082249224185944,0.12083765864372253,0.0,0.935891330242157,0.0,0.0,-0.3522889316082001,-0.6757115125656128,-0.5839331150054932,0.0,0.0,0.0,2.4614806175231934,-0.337157666683197,0.7239025831222534,0.42000022530555725,0.9913903474807739,-3.96315135731129e-06,9.999253961723298e-06,-0.13093943893909454,0.37387165427207947,0.48045945167541504,-0.0009943698532879353,0.08070115000009537,-0.057240840047597885,-11.257259368896484,-0.3463849127292633,0.7286202907562256,0.42072832584381104,0.6665838956832886,0.43766215443611145,-0.10666965693235397,0.3656948506832123,0.7479262948036194,0.42000001668930054,-0.5049834251403809,2.9999940395355225,-0.8064068555831909,-2.999591588973999,-0.15722738206386566,-0.1629304587841034,-0.16733506321907043,-0.1703772395849228,-0.5188120603561401,-0.3645721673965454,-0.19647900760173798,-0.015831075608730316
0.3833333333333333,0.06302332878112793,0.1092761978507042,0.0,0.9346964955329895,0.0,0.0,-0.35544687509536743,-0.3805263936519623,-0.7397622466087341,0.0,0.0,0.0,-1.3292769193649292,-0.33145439624786377,0.7310425043106079,0.4200001358985901,0.974822461605072,-1.6360093013645383e-06,5.332605724106543e-06,-0.22298206388950348,0.3860524892807007,0.4674399197101593,-0.0001332013198407367,0.004167560487985611,-0.0033194045536220074,-13.835395812988281,-0.3347941040992737,0.7349446415901184,0.42219996452331543,0.856080174446106,0.4269324243068695,0.10028713941574097,0.3656948506832123,0.7479262948036194,0.42000001668930054,-0.45493265986442566,2.9999969005584717,-0.8564087748527527,-2.99997878074646,-0.16652028262615204,-0.16916340589523315,-0.17021778225898743,-0.1696639508008957,-0.5079385042190552,-0.31427937746047974,-0.10277780145406723,0.12322615832090378
0.4,0.053052060306072235,0.09605851769447327,0.0,0.9222160577774048,0.0,0.0,-0.38667505979537964,-0.6064610481262207,-0.8466166853904724,0.0,0.0,0.0,-4.936839580535889,-0.3148934543132782,0.7437092065811157,0.42209145426750183,0.9565520882606506,-0.03570770099759102,-0.004438032396137714,-0.28933247923851013,1.5748324394226074,0.521636962890625,-0.19480277597904205,32.06130599975586,-21.172409057617188,9.882859230041504,-0.31642964482307434,0.7460020184516907,0.42416325211524963,1.4629935026168823,1.0137791633605957,0.1673310101032257,0.3656948506832123,0.7479262948036194,0.42000001668930054,-0.4065791368484497,2.165646553039551,-0.9064216613769531,-3.0000085830688477,-0.1763664186000824,-0.17550933361053467,-0.1727471798658371,-0.16813255846500397,-0.4703828990459442,-0.2812511920928955,-0.07159144431352615,0.1543194055557251
0.4166666666666667,0.04658578336238861,0.07979483902454376,0.0,0.8969663977622986,0.0,0.0,-0.4420986771583557,-0.341774046421051,-1.0226235389709473,0.0,0.0,0.0,-8.097981452941895,-0.28145983815193176,0.7649213671684265,0.42483022809028625,0.937289297580719,-0.025732258334755898,-0.03793294355273247,-0.34552523493766785,2.979901075363159,1.0105229616165161,0.4706171154975891,-1.672560453414917,-1.831305742263794,24.838394165039062,-0.2829664945602417,0.7669890522956848,0.4268910884857178,2.61769437789917,1.6085076332092285,0.3574370741844177,0.3656948506832123,0.7479262948036194,0.42000001668930054,-0.38291704654693604,0.9666786193847656,-0.9564440846443176,-2.9997706413269043,-0.18409830331802368,-0.1801701933145523,-0.1740475445985794,-0.16586196422576904,-0.5360798239707947,-0.33308693766593933,-0.11802160739898682,0.10355439782142639
0.43333333333333335,0.042243439704179764,0.06818399578332901,0.0,0.8559280633926392,0.0,0.0,-0.5170949101448059,-0.17427748441696167,-0.7110433578491211,0.0,0.0,0.0,-10.941123008728027,-0.21267685294151306,0.7958725094795227,0.4289991855621338,0.9159629344940186,0.02170506678521633,-0.08155876398086548,-0.3922868072986603,5.269049644470215,1.8125423192977905,0.30477502942085266,6.455132484436035,-11.447632789611816,16.875965118408203,-0.21430005133152008,0.7979367971420288,0.4311249256134033,5.270113945007324,2.3741791248321533,0.3048478364944458,0.3656948506832123,0.7479262948036194,0.42000001668930054,-0.36451688408851624,1.1055893898010254,-0.9191368818283081,2.9977738857269287,-0.19867382943630219,-0.19103647768497467,-0.18002252280712128,-0.16719378530979156,-0.6270096898078918,-0.5412160158157349,-0.30007508397102356,-0.07768366485834122
0.45,0.041754286736249924,0.058597173541784286,0.0,0.8211556077003479,0.0,0.0,-0.5707043409347534,0.025919264182448387,-0.5158551931381226,0.0,0.0,0.0,-6.497262477874756,-0.12396641075611115,0.8328970670700073,0.43655502796173096,0.871456503868103,0.05895362049341202,-0.11356709897518158,-0.4734874963760376,5.401900768280029,1.5002820491790771,0.8072239756584167,1.129677414894104,0.1678411215543747,6.356013774871826,-0.12647423148155212,0.8364595174789429,0.4389770030975342,5.4463043212890625,2.0463051795959473,0.4938421845436096,0.3656948506832123,0.7479262948036194,0.42000001668930054,-0.34543949365615845,1.1512562036514282,-0.944292426109314,-3.000000238418579,-0.2085985541343689,-0.19978868961334229,-0.18563143908977509,-0.1700597107410431,-0.5414674878120422,-0.4773005247116089,-0.3267754912376404,-0.20368342101573944
0.4666666666666667,0.03768542781472206,0.054557379335165024,0.0,0.8053317666053772,0.0,0.0,-0.592824399471283,-0.18748818337917328,-0.2096037119626999,0.0,0.0,0.0,-1.8773380517959595,-0.036189962178468704,0.8552498817443848,0.44690030813217163,0.806319534778595,0.0725724995136261,-0.10934057086706161,-0.5767378807067871,5.185903072357178,0.03192402422428131,0.6267864108085632,-7.493882656097412,-13.017998695373535,21.55280113220215,-0.038940705358982086,0.85945725440979,0.4481666386127472,5.3101654052734375,0.9627398252487183,0.6920031309127808,0.3656948506832123,0.7479262948036194,0.42000001668930054,-0.3268319368362427,0.9325503706932068,-0.9943159222602844,-3.0000052452087402,-0.22152626514434814,-0.21040304005146027,-0.1930084228515625,-0.17476439476013184,-0.6510969400405884,-0.5327327847480774,-0.3760972321033478,-0.24741341173648834
0.48333333333333334,0.03906448185443878,0.04460832104086876,0.0,0.7817315459251404,0.0,0.0,-0.6236150860786438,0.03806482255458832,-0.6200162768363953,0.0,0.0,0.0,-5.3272385597229,0.04940509796142578,0.8624380826950073,0.4523768723011017,0.7472061514854431,0.044587183743715286,-0.1272573471069336,-0.6507691144943237,4.795400619506836,-0.6203668117523193,0.39560097455978394,-13.065980911254883,6.43051290512085,1.721534252166748,0.04599091410636902,0.8684889078140259,0.45520836114883423,4.9978837966918945,-0.03174307197332382,0.394830584526062,0.3656948506832123,0.7479262948036194,0.42000001668930054,-0.3129568099975586,0.6685651540756226,-1.0443382263183594,-2.999706745147705,-0.22600410878658295,-0.21341454982757568,-0.19407621026039124,-0.17415480315685272,-0.4044422209262848,-0.2503121793270111,-0.08365835249423981,0.06656812131404877
0.5,0.03670074790716171,0.0401163324713707,0.0,0.7699897885322571,0.0,0.0,-0.638056218624115,-0.12131127715110779,-0.22143200039863586,0.0,0.0,0.0,-0.8894504308700562,0.12783277034759521,0.8546713590621948,0.4563272297382355,0.6807379722595215,0.001156067242845893,-0.1437566727399826,-0.7182815670967102,4.177267074584961,-1.0609797239303589,0.30728402733802795,-4.001920700073242,5.4225945472717285,11.443351745605469,0.1240537241101265,0.8617990016937256,0.46166104078292847,4.652688980102539,-0.6253743171691895,0.33856791257858276,0.3656948506832123,0.7479262948036194,0.42000001668930054,-0.30081427097320557,0.7317205667495728,-1.0943603515625,-3.0000009536743164,-0.23594266176223755,-0.2203182429075241,-0.19816701114177704,-0.1758643090724945,-0.4030100703239441,-0.28792503476142883,-0.19636580348014832,-0.1252538114786148
0.5166666666666666,0.03751092404127121,0.03214317187666893,0.0,0.7515989542007446,0.0,0.0,-0.6596203446388245,0.099870964884758,-0.4923700988292694,0.0,0.0,0.0,-4.089958667755127,0.19669517874717712,0.8415794372558594,0.4561687111854553,0.6508453488349915,-0.013940956443548203,-0.12734122574329376,-0.7483248114585876,3.4767508506774902,-1.5400283336639404,-0.05763652175664902,-7.688507080078125,4.08365535736084,18.359262466430664,0.1942901611328125,0.8488814830780029,0.46227598190307617,4.000112056732178,-1.1237975358963013,-0.11297774314880371,0.3656948506832123,0.7479262948036194,0.42000001668930054,-0.28723859786987305,0.750754177570343,-1.1443824768066406,-3.0000009536743164,-0.23865553736686707,-0.22171390056610107,-0.19872255623340607,-0.17580346763134003,-0.22362123429775238,-0.12084700912237167,-0.056391641497612,-0.00635034404695034
0.5333333333333333,0.03695157542824745,0.02956477552652359,0.0,0.7457332611083984,0.0,0.0,-0.666244626045227,-0.05177048593759537,-0.09229431301355362,0.0,0.0,0.0,-0.028006112203001976,0.2535974085330963,0.8173496723175049,0.45089560747146606,0.6042750477790833,-0.050902269780635834,-0.11750032007694244,-0.786418616771698,2.9336788654327393,-1.635636329650879,-0.18846395611763,4.793602466583252,10.959332466125488,-3.3037471771240234,0.25179141759872437,0.8246396780014038,0.45828092098236084,3.133596897125244,-1.6160237789154053,-0.4688558578491211,0.3656948506832123,0.7479262948036194,0.42000001668930054,-0.27392005920410156,0.787729799747467,-1.1944046020507812,-2.9992802143096924,-0.23988012969493866,-0.22650064527988434,-0.20241683721542358,-0.17871598899364471,0.04578181356191635,-0.1301252543926239,-0.13704559206962585,-0.15570205450057983
0.55,0.03904665261507034,0.022548619657754898,0.0,0.7308065295219421,0.0,0.0,-0.6825846433639526,0.13831742107868195,-0.4706471264362335,0.0,0.0,0.0,-3.4884488582611084,0.3012256324291229,0.7957843542098999,0.439275324344635,0.57005375623703,-0.049851447343826294,-0.07095605880022049,-0.8170180916786194,2.401610851287842,-1.5919158458709717,-0.9350135922431946,2.9493308067321777,-7.958560943603516,12.375105857849121,0.2997393012046814,0.8015303611755371,0.4449813663959503,2.600808620452881,-1.3779157400131226,-0.9645857810974121,0.3656948506832123,0.7479262948036194,0.42000001668930054,-0.2591114044189453,0.955003559589386,-1.2444267272949219,-3.0000007152557373,-0.23286773264408112,-0.22326922416687012,-0.20092357695102692,-0.17899172008037567,0.44944316148757935,0.24369920790195465,0.11341750621795654,-0.01857617497444153
0.5666666666666667,0.04307637736201286,0.019958680495619774,0.0,0.7273424863815308,0.0,0.0,-0.6862746477127075,0.2744963467121124,-0.14945894479751587,0.0,0.0,0.0,0.24172116816043854,0.3371187746524811,0.7721669673919678,0.4229896366596222,0.5348329544067383,-0.06813456118106842,-0.040846820920705795,-0.8412150740623474,1.8063719272613525,-1.3350259065628052,-0.20475055277347565,7.981593608856201,-0.1322478950023651,-6.236789703369141,0.3357502818107605,0.7767270803451538,0.42818349599838257,1.7038383483886719,-1.3695333003997803,-0.9432051181793213,0.3656948506832123,0.7479262948036194,0.42000001668930054,-0.24287518858909607,0.7348484396934509,-1.2909622192382812,-2.6054224967956543,-0.2286936193704605,-0.2216627299785614,-0.20137251913547516,-0.1815819889307022,0.40483829379081726,0.2193601429462433,0.03678272292017937,-0.14195439219474792
0.5833333333333334,0.0493788942694664,0.019864549860358238,0.0,0.7150555849075317,0.0,0.0,-0.6990675926208496,0.4265926480293274,0.052175506949424744,0.0,0.0,0.0,-3.00327205657959,0.3548017144203186,0.7631503343582153,0.42163175344467163,0.5457981824874878,-0.03523043543100357,-0.0221654511988163,-0.8368822336196899,0.44703248143196106,-0.376416951417923,0.25605976581573486,-0.20598091185092926,-32.51288604736328,33.32038879394531,0.35260915756225586,0.7669656276702881,0.42563220858573914,0.6549885869026184,-0.29984307289123535,-0.006474874913692474,0.3656948506832123,0.7479262948036194,0.42000001668930054,-0.23025494813919067,0.7350786924362183,-1.2509362697601318,2.985727310180664,-0.21882955729961395,-0.21593248844146729,-0.19995616376399994,-0.18411760032176971,0.650748074054718,0.39931389689445496,0.11469771713018417,-0.14450865983963013
0.6,0.05332213267683983,0.015822336077690125,0.0,0.7143648862838745,0.0,0.0,-0.699773371219635,0.18659988045692444,-0.2277110517024994,0.0,0.0,0.0,0.7170988917350769,0.36214253306388855,0.7580102682113647,0.4212450385093689,0.5547271370887756,-0.02672426588833332,-0.017974810674786568,-0.8314087390899658,0.15633514523506165,-0.42545247077941895,-0.030329154804348946,1.492169976234436,-0.6684964299201965,3.767183542251587,0.3573278784751892,0.760429859161377,0.42633193731307983,0.016792457550764084,-0.517487108707428,0.11409631371498108,0.3656948506832123,0.7479262948036194,0.42000001668930054,-0.24746417999267578,-2.1357128620147705,-1.271685242652893,-2.999748706817627,-0.2064134031534195,-0.2068181037902832,-0.19547361135482788,-0.18387474119663239,0.5031276345252991,0.40888500213623047,0.1849454939365387,-0.022899212315678596
0.6166666666666667,0.05890365317463875,0.016339600086212158,0.0,0.7033740878105164,0.0,0.0,-0.7108199000358582,0.3471488654613495,0.02894614078104496,0.0,0.0,0.0,-2.6000239849090576,0.3630220890045166,0.7525110840797424,0.4210444986820221,0.5759554505348206,-0.01838258095085621,0.0014465968124568462,-0.817272961139679,0.20397183299064636,-0.057634446769952774,0.17771071195602417,1.9201757907867432,7.820700645446777,0.7463411688804626,0.3592851459980011,0.756770133972168,0.4283459186553955,0.24239152669906616,-0.025116369128227234,0.12023206800222397,0.3656948506832123,0.7479262948036194,0.42000001668930054,-0.2683246433734894,-0.505909264087677,-1.321623682975769,-2.997898817062378,-0.19884686172008514,-0.20094667375087738,-0.19341342151165009,-0.18528060615062714,0.659763514995575,0.5102822184562683,0.24047647416591644,4.809704023500672e-06
0.6333333333333333,0.06637335568666458,0.012691596522927284,0.0,0.7048128247261047,0.0,0.0,-0.709393322467804,0.4665224850177765,-0.20925012230873108,0.0,0.0,0.0,1.1157952547073364,0.3658130168914795,0.7514845132827759,0.42256584763526917,0.5798911452293396,-0.040156345814466476,0.05005403608083725,-0.8121626973152161,0.03257113695144653,-0.07827246189117432,0.05874422565102577,1.997549295425415,3.5527970790863037,-0.16979727149009705,0.35987144708633423,0.7541650533676147,0.42731040716171265,-0.14446818828582764,-0.2550859749317169,-0.05837135389447212,0.3656948506832123,0.7479262948036194,0.42000001668930054,-0.30764108896255493,-2.999995708465576,-1.2833696603775024,2.999803304672241,-0.1876087188720703,-0.19164064526557922,-0.1880711317062378,-0.18351644277572632,0.45666882395744324,0.4067724049091339,0.2334589660167694,0.07485086470842361
0.65,0.07139188051223755,0.012945510447025299,0.0,0.6963921785354614,0.0,0.0,-0.717661440372467,0.23136669397354126,0.03619752451777458,0.0,0.0,0.0,-2.273682117462158,0.36604976654052734,0.7506595253944397,0.42259594798088074,0.5803194642066956,-0.04069860652089119,0.05690683797001839,-0.8113781809806824,0.019339434802532196,-0.03303563594818115,-0.005780484527349472,-0.10920391231775284,-0.3230387270450592,-0.3548271059989929,0.3585054278373718,0.7531758546829224,0.42905664443969727,-0.03584570810198784,0.02334761805832386,0.1817871779203415,0.3656948506832123,0.7479262948036194,0.42000001668930054,-0.35762855410575867,-2.9993174076080322,-1.3029652833938599,-2.9996373653411865,-0.18150971829891205,-0.18625915050506592,-0.18529553711414337,-0.1830710470676422,0.48569968342781067,0.4157622158527374,0.24266381561756134,0.08889301121234894
0.6666666666666666,0.07687611877918243,0.00982869602739811,0.0,0.699345052242279,0.0,0.0,-0.7147842049598694,0.3566131889820099,-0.2305949628353119,0.0,0.0,0.0,1.2988362312316895,0.3658953905105591,0.7505680322647095,0.42178618907928467,0.5790915489196777,-0.02702062577009201,0.03800410404801369,-0.8139277696609497,-0.01986071467399597,0.0025620225351303816,-0.06274724006652832,-1.1765342950820923,-3.4114465713500977,-0.22843995690345764,0.35728269815444946,0.7523191571235657,0.4324813187122345,-0.13493716716766357,-0.13184982538223267,0.2656913697719574,0.3656948506832123,0.7479262948036194,0.42000001668930054,-0.40764278173446655,-2.999999761581421,-1.3529839515686035,-2.999999523162842,-0.1742258369922638,-0.17953072488307953,-0.1807110756635666,-0.18035955727100372,0.28001755475997925,0.29402613639831543,0.21921592950820923,0.15615569055080414
0.6833333333333333,0.08450295031070709,0.00986428651958704,0.0,0.6915014386177063,0.0,0.0,-0.7223750352859497,0.49206340312957764,0.020973926410079002,0.0,0.0,0.0,-2.152195930480957,0.3649563491344452,0.7508707046508789,0.42002180218696594,0.5790514349937439,-0.00016472175775561482,9.2047564976383e-05,-0.8152909874916077,-0.12227489799261093,0.04412965476512909,-0.0049277800135314465,-0.04626596346497536,-0.24219605326652527,0.10194296389818192,0.35721516609191895,0.7507864236831665,0.4360016882419586,0.14693033695220947,-0.08038844168186188,0.27431222796440125,0.3656948506832123,0.7479262948036194,0.42000001668930054,-0.45764538645744324,-2.9998905658721924,-1.4029902219772339,-2.9999210834503174,-0.17129385471343994,-0.17605029046535492,-0.17786604166030884,-0.17785155773162842,0.22322958707809448,0.2577023208141327,0.2367197871208191,0.2388441562652588
0.7,0.09448022395372391,0.006039168685674667,0.0,0.6637439727783203,0.0,0.0,-0.7479598522186279,0.6410484313964844,-0.27198582887649536,0.0,0.0,0.0,-5.331456661224365,0.36389613151550293,0.7512522339820862,0.419999897480011,0.5793592929840088,1.9110184439341538e-06,-3.851453584502451e-06,-0.815072238445282,-0.04312821477651596,0.01540334988385439,-1.635646913200617e-05,0.0010915511520579457,0.00033303748932667077,0.01963764801621437,0.3628380596637726,0.7517467737197876,0.44853609800338745,0.5202469229698181,0.08641363680362701,1.345078945159912,0.3656948506832123,0.7479262948036194,0.42000001668930054,-0.5076576471328735,-2.999976634979248,-1.4530085325241089,-2.9999992847442627,-0.16822558641433716,-0.17233885824680328,-0.17428915202617645,-0.17405515909194946,0.01239519938826561,0.08320071548223495,0.11299267411231995,0.15911298990249634
0.7166666666666667,0.10712064802646637,0.006038544233888388,0.0,0.649432361125946,0.0,0.0,-0.7604193687438965,0.7763785719871521,0.016077863052487373,0.0,0.0,0.0,-1.2064762115478516,0.36383381485939026,0.7512742877006531,0.4200000762939453,0.5793676972389221,6.441189270844916e-06,-6.762074917787686e-06,-0.8150663375854492,0.0009955578716471791,-0.0003857119008898735,-0.0003678321372717619,0.003860327647998929,0.006117090117186308,-0.003102004760876298,0.3722066879272461,0.7556776404380798,0.47726351022720337,0.6671229600906372,0.43395864963531494,2.0608649253845215,0.3656948506832123,0.7479262948036194,0.42000001668930054,-0.557562530040741,-2.9697682857513428,-1.5030268430709839,-2.999999761581421,-0.1709754467010498,-0.17381159961223602,-0.1750633865594864,-0.1739228516817093,-0.05750761553645134,-0.03017430007457733,-0.027571624144911766,-0.010111811570823193
0.7333333333333333,0.1167997345328331,0.008343979716300964,0.0,0.6592262387275696,0.0,0.0,-0.7519446611404419,0.5085719227790833,0.1859913021326065,0.0,0.0,0.0,2.4226272106170654,0.3638346791267395,0.7512742280960083,0.4200000464916229,0.5793669819831848,3.6288781757320976e-07,-3.1461456728720805e-06,-0.8150668144226074,9.9338183645159e-05,-0.0002649078087415546,-8.812523446977139e-05,0.006325057242065668,-0.0015138487797230482,-0.0006813718355260789,0.38574379682540894,0.7622618675231934,0.5048567056655884,0.8451328277587891,0.37572604417800903,1.3322705030441284,0.3656948506832123,0.7479262948036194,0.42000001668930054,-0.5775743126869202,0.2988218069076538,-1.5530451536178589,-3.000000476837158,-0.17138348519802094,-0.17367421090602875,-0.17470265924930573,-0.17315569519996643,0.025156525894999504,0.06186645105481148,0.08199339359998703,0.10831303894519806
0.75,0.12193115055561066,0.006195777095854282,0.0,0.6573610305786133,0.0,0.0,-0.7535758018493652,0.26653385162353516,-0.17500612139701843,0.0,0.0,0.0,-1.1898460388183594,0.3638346493244171,0.7512742280960083,0.4200000464916229,0.5793668031692505,2.812437003285595e-07,-2.8121501145506045e-06,-0.8150668740272522,9.72842681221664e-05,-0.00026865475228987634,-8.790730498731136e-05,0.006429991684854031,-0.0015627085231244564,-0.0006825976306572556,0.3950619697570801,0.7676405906677246,0.520232081413269,0.26763275265693665,0.1322513222694397,0.6755629777908325,0.3656948506832123,0.7479262948036194,0.42000001668930054,-0.591249942779541,-1.7495191097259521,-1.5141664743423462,3.0,-0.16791415214538574,-0.16986684501171112,-0.1708124876022339,-0.1691678762435913,0.10127244889736176,0.15770931541919708,0.19613589346408844,0.22569581866264343
0.7666666666666666,0.1237412765622139,0.008807034231722355,0.0,0.6667899489402771,0.0,0.0,-0.7452456951141357,0.0571085661649704,0.16513825953006744,0.0,0.0,0.0,2.2367312908172607,0.3638346493244171,0.7512741684913635,0.4200000464916229,0.5793667435646057,3.353785018589406e-07,-3.262753125454765e-06,-0.8150669932365417,9.962300100596622e-05,-0.00026751685072667897,-8.833431638777256e-05,0.00638915877789259,-0.0015269950963556767,-0.0006859375280328095,0.3990687131881714,0.7681333422660828,0.5301452875137329,0.29437291622161865,0.09073930233716965,0.5172993540763855,0.3656948506832123,0.7479262948036194,0.42000001668930054,-0.6008194088935852,0.42149436473846436,-1.5300180912017822,-3.0,-0.17066681385040283,-0.1708643138408661,-0.17040343582630157,-0.16766168177127838,-0.04563024640083313,0.02271757647395134,0.07475146651268005,0.10902094841003418
0.7833333333333333,0.12299230694770813,0.007865255698561668,0.0,0.6634143590927124,0.0,0.0,-0.7482522130012512,-0.14308764040470123,-0.0877547562122345,0.0,0.0,0.0,-1.361887812614441,0.3638346493244171,0.7512741684913635,0.4200000464916229,0.5793666839599609,4.0504193066226435e-07,-3.0896792395651573e-06,-0.815066933631897,0.00010365957132307813,-0.00026437186170369387,-8.931360207498074e-05,0.006286978255957365,-0.001466287299990654,-0.0006903975154273212,0.40160804986953735,0.768509030342102,0.532599687576294,0.006784285418689251,-0.10077334940433502,-0.043500158935785294,0.3656948506832123,0.7479262948036194,0.42000001668930054,-0.610517680644989,-1.4175574779510498,-1.4912083148956299,2.999999523162842,-0.17062968015670776,-0.1697840690612793,-0.16851940751075745,-0.1653013974428177,-0.06159374862909317,0.017513955011963844,0.08201903104782104,0.12289182841777802
0.8,0.12302614003419876,0.01011234987527132,0.0,0.6708459258079529,0.0,0.0,-0.7415967583656311,0.045205432921648026,0.1843581646680832,0.0,0.0,0.0,1.8583722114562988,0.3638346493244171,0.7512742280960083,0.4200000464916229,0.5793668627738953,2.1523133852952014e-07,-2.9693678698095027e-06,-0.8150668144226074,9.733157639857382e-05,-0.00026837692712433636,-8.79091676324606e-05,0.0064222123473882675,-0.0015609764959663153,-0.0006823447765782475,0.40335574746131897,0.7654327750205994,0.5336620807647705,0.24567696452140808,-0.15072467923164368,0.19026006758213043,0.3656948506832123,0.7479262948036194,0.42000001668930054,-0.6292330026626587,-0.860904335975647,-1.5075417757034302,-2.999999761581421,-0.1735876053571701,-0.17115934193134308,-0.16842928528785706,-0.16406892240047455,-0.07225792855024338,-0.009660528972744942,0.05647639185190201,0.11217613518238068
0.8166666666666667,0.12528690695762634,0.009192559868097305,0.0,0.6658248901367188,0.0,0.0,-0.7461080551147461,0.17391657829284668,-0.08563750982284546,0.0,0.0,0.0,-1.637123703956604,0.3638346493244171,0.7512742280960083,0.4200000464916229,0.5793668627738953,2.1637330860357906e-07,-2.8011716040055035e-06,-0.8150668740272522,9.624114318285137e-05,-0.00026882055681198835,-8.760415948927402e-05,0.006440507248044014,-0.0015737836947664618,-0.0006803501164540648,0.4099014401435852,0.7627538442611694,0.5345871448516846,0.4829097390174866,-0.29405418038368225,0.07167041301727295,0.3656948506832123,0.7479262948036194,0.42000001668930054,-0.6606848835945129,-2.7243473529815674,-1.5575600862503052,-2.9999992847442627,-0.17277520895004272,-0.16961704194545746,-0.16599279642105103,-0.16082513332366943,-0.028710441663861275,0.03891393914818764,0.11772206425666809,0.1910795420408249
0.8333333333333334,0.1301230937242508,0.00541891623288393,0.0,0.6412592530250549,0.0,0.0,-0.7673243284225464,0.3363550007343292,-0.31523028016090393,0.0,0.0,0.0,-4.741857051849365,0.3638346493244171,0.7512741684913635,0.4200000464916229,0.5793667435646057,3.3877600458254165e-07,-3.251506996093667e-06,-0.8150668740272522,9.962640615412965e-05,-0.00026752386474981904,-8.833780884742737e-05,0.006389371119439602,-0.0015270574949681759,-0.0006859544664621353,0.42214298248291016,0.7580562829971313,0.5385584831237793,0.9785517454147339,-0.29190707206726074,0.5357669591903687,0.3656948506832123,0.7479262948036194,0.42000001668930054,-0.7011407613754272,-2.1462440490722656,-1.6075783967971802,-2.999999761581421,-0.17431984841823578,-0.16999289393424988,-0.1649601012468338,-0.15843334794044495,-0.09231963008642197,-0.024792341515421867,0.05901777744293213,0.141646608710289
0.85,0.13816231489181519,0.005713642109185457,0.0,0.6299642324447632,0.0,0.0,-0.7766241431236267,0.47903501987457275,-0.0013130729785189033,0.0,0.0,0.0,-0.6585611701011658,0.3638346493244171,0.7512741684913635,0.4200000464916229,0.5793667435646057,3.6814046211475215e-07,-3.077663905060035e-06,-0.815066933631897,0.00010359574662288651,-0.0002644535561557859,-8.929730392992496e-05,0.006289348471909761,-0.0014674668200314045,-0.0006903706234879792,0.432902455329895,0.7552284598350525,0.5498555898666382,0.46284347772598267,0.09889231622219086,0.7672990560531616,0.3656948506832123,0.7479262948036194,0.42000001668930054,-0.7045357823371887,1.43181574344635,-1.6575947999954224,-2.999999523162842,-0.17892515659332275,-0.17333869636058807,-0.16691528260707855,-0.15915365517139435,-0.040683045983314514,-0.04572927579283714,-0.04090370982885361,-0.04134555160999298
0.8666666666666667,0.14304660260677338,0.007511668372899294,0.0,0.6425673365592957,0.0,0.0,-0.7662292122840881,0.22904671728610992,0.1573314368724823,0.0,0.0,0.0,2.7841994762420654,0.3638346493244171,0.7512742280960083,0.4200000464916229,0.57936692237854,3.12619846454254e-07,-2.7831774787046015e-06,-0.8150668144226074,9.726748248795047e-05,-0.0002683353377506137,-8.789426647126675e-05,0.006421586964279413,-0.0015615479787811637,-0.0006821404676884413,0.43921053409576416,0.7584397792816162,0.5606957077980042,0.23598860204219818,0.2847852110862732,0.5780092477798462,0.3656948506832123,0.7479262948036194,0.42000001668930054,-0.6635604500770569,2.9999778270721436,-1.6184203624725342,2.999999761581421,-0.17784133553504944,-0.17294679582118988,-0.16705574095249176,-0.15989653766155243,0.12880973517894745,0.06538255512714386,0.008774222806096077,-0.053208015859127045
0.8833333333333333,0.14407499134540558,0.004739358555525541,0.0,0.6431148052215576,0.0,0.0,-0.7657697796821594,0.06765081733465195,-0.22481101751327515,0.0,0.0,0.0,-0.646048367023468,0.3638346493244171,0.7512741684913635,0.4200000464916229,0.5793665647506714,3.8017435599613236e-07,-3.26394842886657e-06,-0.8150669932365417,9.870707435766235e-05,-0.00026731292018666863,-8.816714398562908e-05,0.00638906704261899,-0.0015374940121546388,-0.0006835139356553555,0.43675822019577026,0.7643837928771973,0.5664843320846558,-0.5274925231933594,0.25658708810806274,0.24725471436977386,0.3656948506832123,0.7479262948036194,0.42000001668930054,-0.6377750635147095,0.3087480664253235,-1.568363904953003,3.0,-0.17210263013839722,-0.16876627504825592,-0.16431058943271637,-0.15863612294197083,0.224632129073143,0.1654725968837738,0.1090455874800682,0.04539578780531883
0.9,0.14287720620632172,0.006800916977226734,0.0,0.6559263467788696,0.0,0.0,-0.7548249363899231,-0.11299122869968414,0.1345580518245697,0.0,0.0,0.0,2.736178398132324,0.3638346493244171,0.7512741684913635,0.4200000464916229,0.5793665647506714,3.8252778722380754e-07,-3.0895660074747866e-06,-0.8150670528411865,0.00010371597454650328,-0.00026441423688083887,-8.93233809620142e-05,0.006287684664130211,-0.0014659044099971652,-0.0006905886111781001,0.4289616346359253,0.7660295963287354,0.5689572691917419,-0.3275662660598755,0.1563754379749298,0.0719122439622879,0.3656948506832123,0.7479262948036194,0.42000001668930054,-0.6137852072715759,2.3709897994995117,-1.5183608531951904,3.000000476837158,-0.17331863939762115,-0.16989703476428986,-0.1653805673122406,-0.15983840823173523,0.04781537875533104,0.023769808933138847,0.0029976796358823776,-0.023266425356268883
