vladlanda/robotic-transformer/data/env_000_episode_0246.csv
sim_time_s,robot_box_x,robot_box_y,robot_box_z,robot_box_quat_w,robot_box_quat_x,robot_box_quat_y,robot_box_quat_z,robot_box_linvel_x,robot_box_linvel_y,robot_box_linvel_z,robot_box_angvel_x,robot_box_angvel_y,robot_box_angvel_z,cube_world_x,cube_world_y,cube_world_z,cube_quat_w,cube_quat_x,cube_quat_y,cube_quat_z,cube_linvel_x,cube_linvel_y,cube_linvel_z,cube_angvel_x,cube_angvel_y,cube_angvel_z,endpoint_world_x,endpoint_world_y,endpoint_world_z,endpoint_linvel_x,endpoint_linvel_y,endpoint_linvel_z,target_cube_world_x,target_cube_world_y,target_cube_world_z,gripper_actual_pos_rad_gp_leftgearjoint,gripper_actual_vel_rad_s_gp_leftgearjoint,gripper_actual_pos_rad_gp_rotatingjoint,gripper_actual_vel_rad_s_gp_rotatingjoint,motor_angle_rad_joint1,motor_angle_rad_joint2,motor_angle_rad_joint3,motor_angle_rad_joint4,motor_speed_rad_s_joint1,motor_speed_rad_s_joint2,motor_speed_rad_s_joint3,motor_speed_rad_s_joint4
0.0,0.0,0.0,0.0,1.0,0.0,0.0,0.0,0.0,0.0,0.0,0.0,0.0,0.0,-0.33361566066741943,0.6501525640487671,0.41999998688697815,1.0,0.0,0.0,0.0,0.0,0.0,0.0,0.0,0.0,0.0,3.42540442943573e-06,-0.005000244826078415,1.313499927520752,0.0,0.0,0.0,0.4748125374317169,0.7567368745803833,0.42000001668930054,-1.5707999467849731,0.0,0.0,0.0,0.0,0.0,0.0,0.0,0.0,0.0,0.0,0.0
0.016666666666666666,0.0028748793993145227,0.0021506650373339653,0.0,0.9998342990875244,0.0,0.0,-0.018204063177108765,0.2392890453338623,0.1799902617931366,0.0,0.0,0.0,-3.145798683166504,-0.333615779876709,0.6501522660255432,0.41999998688697815,1.0,3.2799905511637917e-06,-8.339794135281409e-07,8.465515577427141e-08,-1.9833774786093272e-05,0.00017983047291636467,-6.132945418357849e-05,0.0009432245860807598,-0.004689525347203016,-0.00031981084612198174,-0.0069837868213653564,0.004091953858733177,1.315927505493164,-0.7939373254776001,1.0446327924728394,0.17925958335399628,0.4748125374317169,0.7567368745803833,0.42000001668930054,-1.5301092863082886,3.00000262260437,-0.045869674533605576,-3.0000009536743164,0.0008649385417811573,0.0007916197646409273,0.0007062118384055793,0.0006064558983780444,0.11041208356618881,0.09697365760803223,0.08267243206501007,0.06747624278068542
0.03333333333333333,0.00887690857052803,0.006728156004101038,0.0,0.9998205304145813,0.0,0.0,-0.01894497312605381,0.40264543890953064,0.31381767988204956,0.0,0.0,0.0,0.8624027371406555,-0.33361589908599854,0.6501522064208984,0.4200000464916229,1.0,3.3908531804627273e-06,-2.132488134520827e-06,-3.710428941872124e-08,0.0002635785494931042,0.0002693783608265221,-0.00010509602725505829,-0.0017707846127450466,0.004130862653255463,-0.00013547409616876394,-0.026432320475578308,0.02559894695878029,1.3168017864227295,-1.472447156906128,1.567542552947998,-0.053061507642269135,0.4748125374317169,0.7567368745803833,0.42000001668930054,-1.4800900220870972,3.000000476837158,-0.09590945392847061,-3.000001907348633,0.002919995691627264,0.0025770210195332766,0.002196317771449685,0.0017743512289598584,0.1588539034128189,0.13418954610824585,0.10803776979446411,0.08031006902456284
0.05,0.017530858516693115,0.013525595888495445,0.0,0.9994210600852966,0.0,0.0,-0.03402308374643326,0.5815994739532471,0.45045143365859985,0.0,0.0,0.0,-2.640873432159424,-0.3336159288883209,0.6501522660255432,0.4200000464916229,1.0,3.7651284401363228e-06,-2.2118861124909017e-06,5.622759147172474e-09,0.00026530996547080576,0.00026691515813581645,-0.00010440382175147533,-0.00172425655182451,0.004177390597760677,-0.00012948956282343715,-0.05417473986744881,0.057232342660427094,1.3123139142990112,-1.8210251331329346,2.1854143142700195,-0.4547034800052643,0.4748125374317169,0.7567368745803833,0.42000001668930054,-1.4300717115402222,3.0000014305114746,-0.14592626690864563,-3.0000009536743164,0.00540578830987215,0.004550611134618521,0.003623673925176263,0.002620095619931817,0.17023107409477234,0.12808264791965485,0.08407784253358841,0.038124553859233856
0.06666666666666667,0.029705757275223732,0.022790560498833656,0.0,0.9972078800201416,0.0,0.0,-0.07467516511678696,0.7904536128044128,0.600965142250061,0.0,0.0,0.0,-5.866984844207764,-0.3336159288883209,0.6501522064208984,0.4200000464916229,0.9999999403953552,3.406779342185473e-06,-2.285526988998754e-06,4.300881926155853e-07,0.00026702668401412666,0.00026791810523718596,-0.00010437914170324802,-0.0017406379338353872,0.004211799707263708,-0.00012850595521740615,-0.08585069328546524,0.09737422317266464,1.3013889789581299,-1.946213722229004,2.5987701416015625,-0.8409545421600342,0.4748125374317169,0.7567368745803833,0.42000001668930054,-1.3800450563430786,3.0000016689300537,-0.11825453490018845,2.9999985694885254,0.007961481809616089,0.006332043092697859,0.00459203589707613,0.002735188463702798,0.15458302199840546,0.10007309168577194,0.04351251199841499,-0.015150826424360275
0.08333333333333333,0.044783588498830795,0.03452615812420845,0.0,0.995309591293335,0.0,0.0,-0.09674105793237686,0.9420233368873596,0.7516468167304993,0.0,0.0,0.0,-1.6467139720916748,-0.3336159288883209,0.6501522064208984,0.4200000464916229,1.0,3.6973510759708006e-06,-2.1889595700486097e-06,-2.632473012909031e-07,0.00026389595586806536,0.0002658632874954492,-0.0001043388620018959,-0.0017081330297514796,0.004150238819420338,-0.00012991279072593898,-0.1208045557141304,0.1366528570652008,1.2869999408721924,-2.040074110031128,2.4151272773742676,-0.9004541635513306,0.4748125374317169,0.7567368745803833,0.42000001668930054,-1.330039620399475,3.0,-0.15020400285720825,-3.000000476837158,0.009113396517932415,0.006457560695707798,0.0036498387344181538,0.0006842991570010781,0.01973648928105831,-0.05213582515716553,-0.12614451348781586,-0.2022617906332016
0.1,0.05402136594057083,0.044213395565748215,0.0,0.9910938143730164,0.0,0.0,-0.13316527009010315,0.4281681478023529,0.5228089690208435,0.0,0.0,0.0,-5.333412170410156,-0.3336159288883209,0.6501522064208984,0.4200000464916229,0.9999999403953552,3.62046125701454e-06,-2.2652770894637797e-06,1.745990232393524e-07,0.0002667673397809267,0.00026740715838968754,-0.0001040794886648655,-0.0017385382670909166,0.004209098871797323,-0.0001277524424949661,-0.15241478383541107,0.18086940050125122,1.2692360877990723,-1.7089269161224365,2.9448421001434326,-1.1722332239151,0.4748125374317169,0.7567368745803833,0.42000001668930054,-1.2800135612487793,2.9999964237213135,-0.11666750907897949,3.0000007152557373,0.003628048114478588,9.67722007771954e-05,-0.0036373764742165804,-0.007582581136375666,-0.44436904788017273,-0.5004401206970215,-0.5589938759803772,-0.6201945543289185
0.11666666666666667,0.06661853939294815,0.05697833374142647,0.0,0.9879659414291382,0.0,0.0,-0.15467171370983124,0.8339191675186157,0.8223395943641663,0.0,0.0,0.0,-1.3738151788711548,-0.3336159288883209,0.6501522064208984,0.4200000464916229,1.0,3.7984573282301426e-06,-2.262856924062362e-06,-1.5021495869405044e-07,0.00026374036679044366,0.000265661277808249,-0.00010429229587316513,-0.001705389702692628,0.004147546831518412,-0.000129798921989277,-0.18632951378822327,0.22658495604991913,1.2447127103805542,-2.195863723754883,2.77887225151062,-1.7120380401611328,0.4748125374317169,0.7567368745803833,0.42000001668930054,-1.2300211191177368,2.999537467956543,-0.14863520860671997,-2.9999351501464844,-0.001346627133898437,-0.005991618614643812,-0.010847397148609161,-0.01592482440173626,-0.3050372302532196,-0.36597517132759094,-0.42670875787734985,-0.48740074038505554
0.13333333333333333,0.077837735414505,0.06609765440225601,0.0,0.9830620884895325,0.0,0.0,-0.18327286839485168,0.6534548997879028,0.46038880944252014,0.0,0.0,0.0,-4.231807708740234,-0.3336159288883209,0.6501522660255432,0.4200000464916229,0.9999999403953552,3.5505674986779923e-06,-2.2298811472865054e-06,2.928988749317796e-07,0.0002670325629878789,0.0002677947923075408,-0.00010417005978524685,-0.0017441295785829425,0.004213639069348574,-0.00012800269178114831,-0.22099870443344116,0.27755728363990784,1.2147976160049438,-1.893452525138855,3.3281965255737305,-1.9281104803085327,0.4748125374317169,0.7567368745803833,0.42000001668930054,-1.180010437965393,3.0000007152557373,-0.19863858819007874,-3.0000014305114746,-0.006195352878421545,-0.01218434702605009,-0.01834850199520588,-0.024697860702872276,-0.2654009461402893,-0.35663434863090515,-0.4445466697216034,-0.529029130935669
0.15,0.08642382174730301,0.07144905626773834,0.0,0.9714416861534119,0.0,0.0,-0.23727837204933167,0.4618676006793976,0.25738027691841125,0.0,0.0,0.0,-7.481133937835693,-0.33361589908599854,0.6501522064208984,0.4200000464916229,1.0,3.3323158277198672e-06,-2.1020741769461893e-06,1.3129495357588894e-07,0.00026730698300525546,0.0002685973886400461,-0.00010459753684699535,-0.0017497893422842026,0.0042156679555773735,-0.00012928378419019282,-0.25124192237854004,0.33952340483665466,1.175060749053955,-1.6312671899795532,4.050217151641846,-2.7930855751037598,0.4748125374317169,0.7567368745803833,0.42000001668930054,-1.130000352859497,2.9999945163726807,-0.1648496836423874,2.9999985694885254,-0.011876662261784077,-0.019153300672769547,-0.026540303602814674,-0.03404809907078743,-0.4027533531188965,-0.46276819705963135,-0.5189849734306335,-0.5715329051017761
0.16666666666666666,0.0915948823094368,0.07802161574363708,0.0,0.9630588889122009,0.0,0.0,-0.26929083466529846,0.18584631383419037,0.45697224140167236,0.0,0.0,0.0,-2.726844072341919,-0.3336159288883209,0.6501522064208984,0.4200000464916229,1.0,3.7374031762738014e-06,-2.2332269509206526e-06,-1.876583866078363e-07,0.00026432963204570115,0.000266269693383947,-0.00010446016676723957,-0.0017119431868195534,0.004157555289566517,-0.00013001271872781217,-0.2822796702384949,0.40288493037223816,1.1210949420928955,-1.6335076093673706,3.938734531402588,-3.638012170791626,0.4748125374317169,0.7567368745803833,0.42000001668930054,-1.080000400543213,3.0000011920928955,-0.19650840759277344,-2.999999761581421,-0.020418839529156685,-0.028361910954117775,-0.036345675587654114,-0.044385626912117004,-0.5943505167961121,-0.6172839403152466,-0.6361820697784424,-0.6514284014701843
0.18333333333333332,0.09930291771888733,0.08618815988302231,0.0,0.9500145316123962,0.0,0.0,-0.3122057616710663,0.4609980881214142,0.5936710238456726,0.0,0.0,0.0,-6.192116737365723,-0.3336159288883209,0.6501522660255432,0.4200000464916229,0.9999999403953552,3.6603628359443974e-06,-2.302359689565492e-06,2.52847314641258e-07,0.0002669092209544033,0.00026760256150737405,-0.0001041253563016653,-0.0017412835732102394,0.004211553372442722,-0.00012787102605216205,-0.3074994683265686,0.46996262669563293,1.0528473854064941,-1.2161537408828735,4.065869331359863,-4.516032695770264,0.4748125374317169,0.7567368745803833,0.42000001668930054,-1.0299935340881348,2.999999761581421,-0.24653521180152893,-3.0000016689300537,-0.029780764132738113,-0.03799527511000633,-0.046189550310373306,-0.054386962205171585,-0.7531613707542419,-0.735505998134613,-0.7161917090415955,-0.6958266496658325
0.2,0.10419727861881256,0.09250058233737946,0.0,0.9417331218719482,0.0,0.0,-0.3363610506057739,0.2563922107219696,0.3257099390029907,0.0,0.0,0.0,-1.8688750267028809,-0.3336159288883209,0.6501522064208984,0.4200000464916229,1.0,3.5909113194065867e-06,-2.3004156446404522e-06,1.3872801218894892e-07,0.00026654769317246974,0.0002673235139809549,-0.00010424060747027397,-0.0017326237866654992,0.004203386604785919,-0.00012819955009035766,-0.3290615677833557,0.5296775698661804,0.9712809324264526,-0.988335907459259,3.4083545207977295,-5.203681945800781,0.4748125374317169,0.7567368745803833,0.42000001668930054,-0.9799836277961731,2.999999523162842,-0.29656338691711426,-2.999998092651367,-0.04421046003699303,-0.051618047058582306,-0.059007465839385986,-0.06641748547554016,-0.9196703433990479,-0.8586209416389465,-0.7983324527740479,-0.7397188544273376
0.21666666666666667,0.10528203099966049,0.10068737715482712,0.0,0.9292013049125671,0.0,0.0,-0.3695739209651947,-0.0032168312463909388,0.5227439999580383,0.0,0.0,0.0,-5.052117824554443,-0.3336159288883209,0.6501522660255432,0.4200000464916229,1.0,3.607003463912406e-06,-2.2610099676967366e-06,1.9621262836722053e-08,0.0002644715132191777,0.00026558490935713053,-0.00010396563448011875,-0.0017088435124605894,0.004164247307926416,-0.00012832065112888813,-0.34330278635025024,0.5833245515823364,0.8776110410690308,-0.6006252765655518,2.9616599082946777,-5.8664231300354,0.4748125374317169,0.7567368745803833,0.42000001668930054,-0.9299729466438293,2.9999990463256836,-0.34659361839294434,-3.000001907348633,-0.05983179062604904,-0.06740175932645798,-0.07487707585096359,-0.08228293061256409,-0.9778451919555664,-0.979061484336853,-0.9773831367492676,-0.9737535119056702
0.23333333333333334,0.11029687523841858,0.10402384400367737,0.0,0.9227184653282166,0.0,0.0,-0.38547462224960327,0.2814738154411316,0.13902252912521362,0.0,0.0,0.0,-0.9091945886611938,-0.33361589908599854,0.6501522064208984,0.4200000464916229,0.9999999403953552,3.742284661711892e-06,-2.2275266928772908e-06,4.589204536387115e-07,0.00026475160848349333,0.00026671282830648124,-0.00010453304275870323,-0.00171882554423064,0.004165722988545895,-0.0001301881711697206,-0.3560981750488281,0.6233906745910645,0.7790538668632507,-0.5606574416160583,1.9011774063110352,-6.032889366149902,0.4748125374317169,0.7567368745803833,0.42000001668930054,-0.8799622654914856,2.999997854232788,-0.396625280380249,-2.9999966621398926,-0.07396547496318817,-0.08149826526641846,-0.08892590552568436,-0.0961780697107315,-0.98880535364151,-0.9908224940299988,-0.9924083948135376,-0.9687202572822571
0.25,0.10959560424089432,0.11136331409215927,0.0,0.920335054397583,0.0,0.0,-0.3911309838294983,-0.03542076051235199,0.38632968068122864,0.0,0.0,0.0,-0.5852571725845337,-0.3336159288883209,0.6501522064208984,0.4200000464916229,1.0,3.3944668302865466e-06,-2.2821172933618072e-06,1.336286601372194e-07,0.00026679367874749005,0.0002679389144759625,-0.00010439474135637283,-0.0017417257186025381,0.004206514917314053,-0.00012883533781860024,-0.3621917963027954,0.640636682510376,0.6787632703781128,-0.1508052945137024,0.4207015037536621,-5.861559867858887,0.4748125374317169,0.7567368745803833,0.42000001668930054,-0.8299523591995239,2.999994993209839,-0.4466567933559418,-3.0000016689300537,-0.09110309928655624,-0.09842430055141449,-0.1057305559515953,-0.11291297525167465,-0.6917294263839722,-0.7470676302909851,-0.8002064228057861,-0.8487063646316528
0.26666666666666666,0.11322692781686783,0.11273758858442307,0.0,0.9229809045791626,0.0,0.0,-0.38484570384025574,0.23243451118469238,0.028467394411563873,0.0,0.0,0.0,1.4591612815856934,-0.3336159288883209,0.6501522660255432,0.4200000464916229,1.0,3.683521072161966e-06,-2.3101358692656504e-06,2.1009377348946146e-07,0.0002647914516273886,0.0002662584010977298,-0.00010421173647046089,-0.0017169081838801503,0.004168983548879623,-0.00012909200449939817,-0.3674434721469879,0.6441092491149902,0.5835093259811401,-0.2765200138092041,-0.17545297741889954,-5.548089027404785,0.4748125374317169,0.7567368745803833,0.42000001668930054,-0.779943585395813,2.99998140335083,-0.49668702483177185,-3.0000016689300537,-0.10305182635784149,-0.11086845397949219,-0.11867350339889526,-0.12633170187473297,-0.9495859742164612,-0.9354010820388794,-0.9237034320831299,-0.9139138460159302
0.2833333333333333,0.11307781934738159,0.11192671954631805,0.0,0.9194579124450684,0.0,0.0,-0.3931885063648224,-0.09013230353593826,-0.08015778660774231,0.0,0.0,0.0,-1.9515265226364136,-0.3336159288883209,0.6501522064208984,0.4200000464916229,1.0,3.307066890556598e-06,-2.212535264334292e-06,2.6255446528011817e-07,0.00026660817093215883,0.0002674499119166285,-0.00010424223728477955,-0.0017352099530398846,0.004204348661005497,-0.0001282771409023553,-0.36292946338653564,0.6442930698394775,0.4925861358642578,0.6762691736221313,0.06792166829109192,-5.0728840827941895,0.4748125374317169,0.7567368745803833,0.42000001668930054,-0.7299348711967468,3.0000016689300537,-0.5467153787612915,-3.000000476837158,-0.12096110731363297,-0.12850268185138702,-0.1361018270254135,-0.14359882473945618,-1.0211533308029175,-1.0159926414489746,-1.0120466947555542,-1.0088893175125122
0.3,0.10924827307462692,0.10951949656009674,0.0,0.9223293662071228,0.0,0.0,-0.38640469312667847,-0.1994226574897766,-0.21608684957027435,0.0,0.0,0.0,1.7108980417251587,-0.3336159288883209,0.6501522064208984,0.4200000464916229,1.0,3.6565252230502665e-06,-2.2969290967012057e-06,-2.4498103812220506e-07,0.0002653322007972747,0.0002659547026269138,-0.00010385178029537201,-0.001716420752927661,0.004181907512247562,-0.000127459890791215,-0.3504784107208252,0.6463356018066406,0.41383129358291626,0.9192861914634705,0.15721407532691956,-4.5503082275390625,0.4748125374317169,0.7567368745803833,0.42000001668930054,-0.6799279451370239,2.9999940395355225,-0.5967419743537903,-3.0,-0.13748587667942047,-0.1450391411781311,-0.15268686413764954,-0.16024437546730042,-0.8215066194534302,-0.8606851100921631,-0.8976048231124878,-0.9306427836418152
0.31666666666666665,0.1042616069316864,0.1044384092092514,0.0,0.9189419150352478,0.0,0.0,-0.3943929076194763,-0.3448379337787628,-0.342011958360672,0.0,0.0,0.0,-1.9493223428726196,-0.3335147202014923,0.6488321423530579,0.42006734013557434,0.9996958374977112,0.0016823387704789639,-6.125171785242856e-05,-0.024604907259345055,0.01278992835432291,-0.07596825808286667,-0.007038326933979988,-0.3536931872367859,0.0082612419500947,-3.1955718994140625,-0.35118526220321655,0.6488662958145142,0.4235140383243561,-0.01590573973953724,0.2126629650592804,-0.1345955729484558,0.4748125374317169,0.7567368745803833,0.42000001668930054,-0.629987359046936,2.9999840259552,-0.6472193598747253,-3.0000011920928955,-0.14292021095752716,-0.15026706457138062,-0.15724670886993408,-0.1636703461408615,-0.4691530168056488,-0.41559749841690063,-0.3401103913784027,-0.24361629784107208
0.3333333333333333,0.09700167924165726,0.09721101075410843,0.0,0.921869695186615,0.0,0.0,-0.38750001788139343,-0.4765011966228485,-0.4716675877571106,0.0,0.0,0.0,1.8140456676483154,-0.33334216475486755,0.6484026312828064,0.4200000464916229,0.9994949698448181,-1.5529982420048327e-06,8.894104439605144e-07,-0.03177632763981819,0.004762392025440931,-0.0068018329329788685,-5.0691538490355015e-05,0.0028991862200200558,-0.0009587938548065722,-0.2591307759284973,-0.3492913842201233,0.6575480699539185,0.4214039444923401,0.26066046953201294,0.7402586936950684,-0.09701348841190338,0.4748125374317169,0.7567368745803833,0.42000001668930054,-0.5799821615219116,2.9999797344207764,-0.6972567439079285,-2.9999802112579346,-0.15167413651943207,-0.15753234922885895,-0.1626565307378769,-0.16689038276672363,-0.5311727523803711,-0.4202239215373993,-0.28760385513305664,-0.1358090341091156
0.35,0.08754797279834747,0.08782213926315308,0.0,0.9186738729476929,0.0,0.0,-0.3950168788433075,-0.62395840883255,-0.6046229004859924,0.0,0.0,0.0,-1.8487160205841064,-0.32854798436164856,0.6563988327980042,0.4201478958129883,0.9901394844055176,-0.0036952791269868612,0.0003257803327869624,-0.14003530144691467,0.34978416562080383,0.5240049958229065,0.03908325731754303,-1.9075217247009277,0.42508193850517273,-2.9936070442199707,-0.34299135208129883,0.6652258038520813,0.42094942927360535,0.507992684841156,0.40810728073120117,0.06267198920249939,0.4748125374317169,0.7567368745803833,0.42000001668930054,-0.5299534201622009,2.999847650527954,-0.747279703617096,-2.9999589920043945,-0.1610802561044693,-0.16468913853168488,-0.1671840101480484,-0.1684654802083969,-0.5553817749023438,-0.4082482159137726,-0.2377888560295105,-0.048031650483608246
0.36666666666666664,0.08047329634428024,0.07571535557508469,0.0,0.9044283628463745,0.0,0.0,-0.4266255497932434,-0.3507831394672394,-0.7791293859481812,0.0,0.0,0.0,-5.100010871887207,-0.31969353556632996,0.668346643447876,0.42126238346099854,0.9854956865310669,-0.03187547251582146,0.005094622727483511,-0.16660165786743164,0.7670263051986694,0.9655458331108093,0.07367247343063354,-3.5207149982452393,1.1307753324508667,-4.341362953186035,-0.33107471466064453,0.6750476360321045,0.42225944995880127,0.9467660188674927,0.8235952854156494,0.1002986952662468,0.4748125374317169,0.7567368745803833,0.42000001668930054,-0.47990939021110535,3.000032901763916,-0.7972890734672546,-2.999990463256836,-0.1699763685464859,-0.1709887534379959,-0.17045313119888306,-0.1683470457792282,-0.47438696026802063,-0.317304402589798,-0.13397179543972015,0.07083473354578018
0.3833333333333333,0.07149704545736313,0.061692435294389725,0.0,0.8753102421760559,0.0,0.0,-0.4835617244243622,-0.6229164600372314,-0.8670831918716431,0.0,0.0,0.0,-8.588179588317871,-0.29732438921928406,0.6939467787742615,0.4217435419559479,0.9780694842338562,-0.02946990169584751,-0.009817336685955524,-0.20594944059848785,1.9635449647903442,2.1410303115844727,0.04344575107097626,1.6302132606506348,-5.366245746612549,-5.928761959075928,-0.30319374799728394,0.6970107555389404,0.4239489436149597,2.4536819458007812,1.9029475450515747,0.16731975972652435,0.4748125374317169,0.7567368745803833,0.42000001668930054,-0.4298805892467499,3.0000011920928955,-0.8473055362701416,-2.9997081756591797,-0.18015584349632263,-0.17792648077011108,-0.17375381290912628,-0.16771571338176727,-0.627799928188324,-0.4190257489681244,-0.18966729938983917,0.05376280099153519
0.4,0.06392022967338562,0.051080916076898575,0.0,0.828587532043457,0.0,0.0,-0.559859573841095,-0.3869958519935608,-0.6223928332328796,0.0,0.0,0.0,-11.389220237731934,-0.23102878034114838,0.7332815527915955,0.4256492257118225,0.9627254605293274,0.020271580666303635,-0.05309902876615524,-0.2644411325454712,5.2368597984313965,2.7497403621673584,0.06384945660829544,32.61920166015625,-18.726421356201172,9.652450561523438,-0.23671817779541016,0.7377602458000183,0.42727434635162354,5.045107841491699,2.9781675338745117,0.3439500033855438,0.4748125374317169,0.7567368745803833,0.42000001668930054,-0.3902539014816284,1.4249197244644165,-0.8104702830314636,3.000941514968872,-0.1937313675880432,-0.18731114268302917,-0.1786641776561737,-0.16812966763973236,-0.6616045236587524,-0.4571914076805115,-0.23576559126377106,-0.01569931022822857
0.4166666666666667,0.06017344072461128,0.04336017742753029,0.0,0.789114773273468,0.0,0.0,-0.6142457723617554,-0.16681265830993652,-0.4078143835067749,0.0,0.0,0.0,-6.771745204925537,-0.14450988173484802,0.7813742160797119,0.4335451126098633,0.9264652729034424,0.07844191044569016,-0.08870573341846466,-0.35726767778396606,5.465334892272949,2.0441131591796875,0.7606622576713562,-8.755224227905273,1.0001804828643799,3.5837314128875732,-0.15091761946678162,0.7879169583320618,0.43481844663619995,5.359509468078613,2.761167526245117,0.5723159313201904,0.4748125374317169,0.7567368745803833,0.42000001668930054,-0.372125506401062,0.9903194308280945,-0.8371742367744446,-2.9986584186553955,-0.2044365555047989,-0.19508609175682068,-0.18342910706996918,-0.17005793750286102,-0.5926726460456848,-0.4334813058376312,-0.27819254994392395,-0.13948890566825867
0.43333333333333335,0.06001102551817894,0.03895986080169678,0.0,0.7717331051826477,0.0,0.0,-0.63594651222229,0.048828430473804474,-0.20466919243335724,0.0,0.0,0.0,-2.163332223892212,-0.053660329431295395,0.8195708990097046,0.44429638981819153,0.8757449984550476,0.08929929882287979,-0.09278208762407303,-0.4652823209762573,5.824959754943848,1.8132938146591187,0.61123126745224,9.068929672241211,-14.423315048217773,0.08643513917922974,-0.05943144112825394,0.8284280300140381,0.444273978471756,5.712380886077881,2.0159952640533447,0.7416499853134155,0.4748125374317169,0.7567368745803833,0.42000001668930054,-0.35493287444114685,0.9720831513404846,-0.8871982097625732,-3.00000262260437,-0.21400468051433563,-0.20208749175071716,-0.1879638433456421,-0.17241604626178741,-0.5173428058624268,-0.3766014277935028,-0.24407455325126648,-0.1293916255235672
0.45,0.06052777171134949,0.0323360338807106,0.0,0.7466329336166382,0.0,0.0,-0.665236234664917,-0.005135233048349619,-0.4251976013183594,0.0,0.0,0.0,-5.368018627166748,0.042454794049263,0.8421868681907654,0.4540078938007355,0.8264734745025635,0.09293816983699799,-0.10482709854841232,-0.545266330242157,6.0179362297058105,0.004765428602695465,0.7128629684448242,-4.854707717895508,-10.995523452758789,19.556882858276367,0.038972802460193634,0.8527436256408691,0.4546196758747101,6.146472930908203,0.847020149230957,0.7322611808776855,0.4748125374317169,0.7567368745803833,0.42000001668930054,-0.34112343192100525,0.6866681575775146,-0.9372222423553467,-3.000000476837158,-0.2230071723461151,-0.2082727998495102,-0.19147953391075134,-0.1735689640045166,-0.6616582274436951,-0.45232054591178894,-0.25367608666419983,-0.07566466182470322
0.4666666666666667,0.062452301383018494,0.028661834076046944,0.0,0.7348460555076599,0.0,0.0,-0.6782339215278625,0.1611168533563614,-0.18882256746292114,0.0,0.0,0.0,-0.9582417607307434,0.14078524708747864,0.8472238779067993,0.4647062420845032,0.7271648645401001,0.1052926629781723,-0.10403133928775787,-0.6703149080276489,5.389062404632568,-1.1278878450393677,0.45733460783958435,-15.358197212219238,-9.700262069702148,28.542163848876953,0.13740284740924835,0.8587212562561035,0.46458834409713745,5.995929718017578,-0.050955578684806824,0.6913614273071289,0.4748125374317169,0.7567368745803833,0.42000001668930054,-0.3316783607006073,0.30123916268348694,-0.9872462749481201,-3.00000262260437,-0.23412850499153137,-0.21615001559257507,-0.19639448821544647,-0.1759416162967682,-0.5578640103340149,-0.39697447419166565,-0.2560116648674011,-0.1410965621471405
0.48333333333333334,0.06680620461702347,0.02800576575100422,0.0,0.7160990238189697,0.0,0.0,-0.6979987025260925,0.328191876411438,0.02124275639653206,0.0,0.0,0.0,-4.151404857635498,0.2288392037153244,0.8402479290962219,0.4691106081008911,0.6713030934333801,0.09861227124929428,-0.10287491977214813,-0.7273544073104858,4.4727983474731445,-1.5477371215820312,0.1427127867937088,-10.63648796081543,-0.9485057592391968,23.202022552490234,0.22706428170204163,0.8516323566436768,0.4697372317314148,5.12966251373291,-0.8369117975234985,0.2321833372116089,0.4748125374317169,0.7567368745803833,0.42000001668930054,-0.32975301146507263,0.020045626908540726,-1.037268877029419,-3.0000007152557373,-0.2400127351284027,-0.22164763510227203,-0.2002774029970169,-0.1785171627998352,-0.03867694362998009,-0.31859317421913147,-0.2369188368320465,-0.172030508518219
0.5,0.06959191709756851,0.030468503013253212,0.0,0.7105339765548706,0.0,0.0,-0.7036629319190979,0.09665466845035553,0.1927170604467392,0.0,0.0,0.0,0.00317770685069263,0.3053187429904938,0.821398913860321,0.4679088890552521,0.5896510481834412,0.07862691581249237,-0.09806443750858307,-0.7978175282478333,3.951096534729004,-1.4974844455718994,-0.2213866263628006,0.9382508397102356,6.872252941131592,-0.18687942624092102,0.3035622239112854,0.8332266807556152,0.4689804017543793,4.280393600463867,-1.3935320377349854,-0.19039484858512878,0.4748125374317169,0.7567368745803833,0.42000001668930054,-0.32313841581344604,0.7088004946708679,-1.0872910022735596,-2.9995927810668945,-0.2398468405008316,-0.22588111460208893,-0.20366159081459045,-0.1813231110572815,0.053922366350889206,-0.15689145028591156,-0.14100885391235352,-0.1411960870027542
0.5166666666666666,0.0738309696316719,0.02772592008113861,0.0,0.6949234008789062,0.0,0.0,-0.7190837860107422,0.23310862481594086,-0.18359631299972534,0.0,0.0,0.0,-3.409457206726074,0.3699283003807068,0.8005061745643616,0.45784279704093933,0.5165367126464844,0.03765884414315224,-0.11556056141853333,-0.8475949764251709,3.497978925704956,-1.2783997058868408,-0.7661064863204956,-8.514384269714355,-4.909703254699707,-5.850422382354736,0.36818695068359375,0.8132106065750122,0.4607194662094116,3.456514835357666,-1.2778116464614868,-0.676866888999939,0.4748125374317169,0.7567368745803833,0.42000001668930054,-0.30673646926879883,1.186895728111267,-1.1373131275177002,-3.000002861022949,-0.23298218846321106,-0.22316843271255493,-0.20218242704868317,-0.18120701611042023,0.3753477931022644,0.16673175990581512,0.08069535344839096,-0.015226030722260475
0.5333333333333333,0.07985914498567581,0.029801223427057266,0.0,0.6918438673019409,0.0,0.0,-0.7220471501350403,0.39919817447662354,0.10945272445678711,0.0,0.0,0.0,0.38765615224838257,0.4196769595146179,0.7766144871711731,0.44382742047309875,0.47374507784843445,0.013996877707540989,-0.10119806975126266,-0.8747162818908691,2.5042285919189453,-1.9933398962020874,-0.8197873830795288,-11.004222869873047,10.76272964477539,5.355334281921387,0.41910797357559204,0.7889471054077148,0.4470183253288269,2.7352778911590576,-1.4479260444641113,-0.9410930871963501,0.4748125374317169,0.7567368745803833,0.42000001668930054,-0.2899744510650635,0.7079759240150452,-1.1873352527618408,-3.000000238418579,-0.2306642085313797,-0.2231438010931015,-0.20325681567192078,-0.18363673985004425,0.27264055609703064,0.1163283959031105,-0.002342405030503869,-0.12928014993667603
0.55,0.0880369022488594,0.03172079473733902,0.0,0.6780691146850586,0.0,0.0,-0.7349981665611267,0.5233830809593201,0.18232789635658264,0.0,0.0,0.0,-3.1896142959594727,0.459013968706131,0.7579541802406311,0.42219284176826477,0.45150503516197205,-0.018412543460726738,-0.09808378666639328,-0.8866700530052185,1.7817269563674927,-1.2192591428756714,-1.3011114597320557,3.1366562843322754,13.670981407165527,3.0215096473693848,0.45827972888946533,0.7698326110839844,0.4256455898284912,1.9580957889556885,-1.017490267753601,-1.4681577682495117,0.4748125374317169,0.7567368745803833,0.42000001668930054,-0.2815791070461273,0.3884570300579071,-1.2373573780059814,-2.998927354812622,-0.22310130298137665,-0.21885883808135986,-0.20207129418849945,-0.18551911413669586,0.4544064700603485,0.2672942876815796,0.06267184764146805,-0.13785505294799805
0.5666666666666667,0.0978349819779396,0.03183745965361595,0.0,0.6766952872276306,0.0,0.0,-0.7362631559371948,0.6164190769195557,-0.07842695713043213,0.0,0.0,0.0,0.7000486254692078,0.4740164279937744,0.7531599402427673,0.4212617874145508,0.4505510926246643,-0.025439005345106125,-0.014613901264965534,-0.8922683596611023,0.2742404639720917,-0.38194236159324646,0.10228554159402847,-6.357062339782715,8.446698188781738,5.281270503997803,0.47305527329444885,0.763543963432312,0.4249897301197052,0.3770410716533661,-0.17939385771751404,0.046041861176490784,0.4748125374317169,0.7567368745803833,0.42000001668930054,-0.27205705642700195,0.6985943913459778,-1.2874711751937866,-3.0000061988830566,-0.21433238685131073,-0.21299435198307037,-0.1996282935142517,-0.18625403940677643,0.5067824721336365,0.3608035743236542,0.16128982603549957,-0.025475647300481796
0.5833333333333334,0.10505502671003342,0.03418394550681114,0.0,0.6646281480789185,0.0,0.0,-0.7471743226051331,0.3738885819911957,0.160833477973938,0.0,0.0,0.0,-2.8825747966766357,0.47753283381462097,0.7520992159843445,0.4205418527126312,0.4892244040966034,-0.007380685769021511,-0.008124229498207569,-0.8720887899398804,0.14140385389328003,-0.05136433243751526,-0.04831304773688316,2.5911643505096436,-3.661815881729126,6.175466537475586,0.4752516746520996,0.7630810141563416,0.4243844151496887,0.07233576476573944,0.07460038363933563,0.044103510677814484,0.4748125374317169,0.7567368745803833,0.42000001668930054,-0.29109686613082886,-2.5056557655334473,-1.2494118213653564,2.9999773502349854,-0.20655910670757294,-0.20750978589057922,-0.19752901792526245,-0.1872674524784088,0.5325866341590881,0.39410245418548584,0.1803344041109085,-0.013697687536478043
0.6,0.1131141260266304,0.039287272840738297,0.0,0.6647537350654602,0.0,0.0,-0.7470625042915344,0.497245728969574,0.33773738145828247,0.0,0.0,0.0,0.9438093304634094,0.47849559783935547,0.751785159111023,0.4200000464916229,0.5048284530639648,-3.2148839181900257e-06,9.68203266893397e-07,-0.863219678401947,0.019221318885684013,0.006062734872102737,-7.896521128714085e-05,-0.001032553380355239,-0.002327719936147332,0.7365226149559021,0.4743551015853882,0.7633950710296631,0.4247104227542877,-0.12433914095163345,0.08546146750450134,0.1883501410484314,0.4748125374317169,0.7567368745803833,0.42000001668930054,-0.3366308808326721,-2.9123449325561523,-1.2701910734176636,-2.9992012977600098,-0.198298841714859,-0.20137247443199158,-0.1948765367269516,-0.18774528801441193,0.5940831303596497,0.451449990272522,0.22371071577072144,0.0205327570438385
0.6166666666666667,0.1227506697177887,0.0401541143655777,0.0,0.6573392152786255,0.0,0.0,-0.7535948157310486,0.6017483472824097,0.043713465332984924,0.0,0.0,0.0,-2.410489797592163,0.47813141345977783,0.7522423267364502,0.4200001060962677,0.5255621075630188,1.7134766494564246e-06,9.479748769081198e-06,-0.8507552146911621,-0.04262927174568176,0.05492570251226425,-0.0002868769224733114,-0.010987444780766964,-0.013599841855466366,5.864179611206055,0.47337013483047485,0.7686059474945068,0.42807960510253906,-0.12568049132823944,0.3309803903102875,0.21627187728881836,0.4748125374317169,0.7567368745803833,0.42000001668930054,-0.386678010225296,-3.000000238418579,-1.3201524019241333,-2.998558282852173,-0.18491153419017792,-0.19077835977077484,-0.18850353360176086,-0.18513432145118713,0.666703999042511,0.5452656149864197,0.3330276310443878,0.14273415505886078
0.6333333333333333,0.1346438229084015,0.04464492201805115,0.0,0.6601693630218506,0.0,0.0,-0.7511167526245117,0.7301927804946899,0.28976142406463623,0.0,0.0,0.0,1.3601328134536743,0.4764780104160309,0.7535455226898193,0.4202100932598114,0.5500292181968689,0.0028640038799494505,-0.004425812978297472,-0.8351287245750427,-0.1339019387960434,0.10667774826288223,0.027513941749930382,-0.5681446194648743,-1.2562006711959839,1.6953190565109253,0.47017917037010193,0.7724325060844421,0.4313789904117584,-0.1857174038887024,0.2581472396850586,0.21398398280143738,0.4748125374317169,0.7567368745803833,0.42000001668930054,-0.43670177459716797,-2.999990940093994,-1.3701634407043457,-2.999945878982544,-0.17749834060668945,-0.18457971513271332,-0.18505598604679108,-0.1841549277305603,0.46192100644111633,0.3868839144706726,0.22286057472229004,0.07598653435707092
0.65,0.14370721578598022,0.04489362612366676,0.0,0.6834025382995605,0.0,0.0,-0.7300417423248291,0.4635942280292511,-0.04105197638273239,0.0,0.0,0.0,4.644058704376221,0.4747813642024994,0.7549017071723938,0.4200005531311035,0.5582216382026672,5.052235792391002e-06,2.6290999812772498e-06,-0.8296918272972107,-0.08112046867609024,0.06484564393758774,-4.8853689804673195e-05,0.003985290415585041,-0.0002579939318820834,0.8507634401321411,0.46824610233306885,0.7733341455459595,0.4355509877204895,-0.17091423273086548,-0.10475096106529236,0.29313135147094727,0.4748125374317169,0.7567368745803833,0.42000001668930054,-0.48673200607299805,-2.9999992847442627,-1.420148253440857,-2.999967336654663,-0.17053937911987305,-0.17782334983348846,-0.17986838519573212,-0.18025341629981995,0.27502191066741943,0.3293493688106537,0.3070257008075714,0.299419105052948
0.6666666666666666,0.15268409252166748,0.04139137640595436,0.0,0.6927335262298584,0.0,0.0,-0.7211936712265015,0.5698554515838623,-0.260718435049057,0.0,0.0,0.0,0.5208826661109924,0.4742022454738617,0.7553560733795166,0.4200000464916229,0.560036838054657,2.484927392742975e-07,-1.695864284556592e-07,-0.828467607498169,-0.017767813056707382,0.013710672035813332,-5.3460244089365005e-06,-0.0002531632489990443,0.00021961654420010746,0.1068039983510971,0.46912795305252075,0.7728197574615479,0.44113975763320923,0.20192769169807434,-0.05547267198562622,0.3940570056438446,0.4748125374317169,0.7567368745803833,0.42000001668930054,-0.5367447733879089,-2.9999985694885254,-1.470165491104126,-3.000000476837158,-0.1673719584941864,-0.173261821269989,-0.175039604306221,-0.1748945415019989,0.15371695160865784,0.2566409707069397,0.29919981956481934,0.3573686182498932
0.6833333333333333,0.16335444152355194,0.034707508981227875,0.0,0.6803051829338074,0.0,0.0,-0.732928991317749,0.6757252812385559,-0.46453139185905457,0.0,0.0,0.0,-2.933040142059326,0.4742021858692169,0.7553563117980957,0.41999998688697815,0.5600368976593018,-2.38154143517022e-06,-3.336601821501972e-06,-0.8284676671028137,-3.96208452002611e-06,-0.0002688162785489112,-6.840447895228863e-05,0.007040631957352161,-0.002733819652348757,-0.0005816943594254553,0.47750720381736755,0.7750173807144165,0.4551209509372711,0.7558082342147827,0.24595244228839874,1.3523406982421875,0.4748125374317169,0.7567368745803833,0.42000001668930054,-0.586756706237793,-2.99998140335083,-1.520183801651001,-2.999999761581421,-0.16671618819236755,-0.1707603633403778,-0.1715892106294632,-0.17026178538799286,-0.02011175826191902,0.09533979743719101,0.16241508722305298,0.2414020299911499
0.7,0.17778129875659943,0.03379647061228752,0.0,0.6456053256988525,0.0,0.0,-0.7636712193489075,0.9449337720870972,0.08611731231212616,0.0,0.0,0.0,-6.59417724609375,0.4742021858692169,0.7553564310073853,0.41999998688697815,0.5600371360778809,-2.9110658488207264e-06,-3.974017090513371e-06,-0.8284674286842346,-1.3167050383344758e-05,-0.00033805143903009593,-9.454996325075626e-05,0.008663040585815907,-0.003412215504795313,-0.0007268065237440169,0.49715501070022583,0.7756437659263611,0.48326754570007324,1.695016622543335,-0.15964478254318237,2.133669853210449,0.4748125374317169,0.7567368745803833,0.42000001668930054,-0.6367673873901367,-2.9997870922088623,-1.570202112197876,-2.999969244003296,-0.1750277280807495,-0.17577561736106873,-0.17410194873809814,-0.1702301949262619,-0.6629288792610168,-0.4360278248786926,-0.2527705430984497,-0.07119541615247726
0.7166666666666667,0.1894940286874771,0.039012886583805084,0.0,0.6223354935646057,0.0,0.0,-0.7827506065368652,0.5901929140090942,0.044378068298101425,0.0,0.0,0.0,-2.2550201416015625,0.47420215606689453,0.7553563714027405,0.41999998688697815,0.5600370764732361,-2.7729870453185868e-06,-4.011772034573369e-06,-0.8284675478935242,-1.5288867871277034e-05,-0.0003378867986612022,-9.514554403722286e-05,0.008655400946736336,-0.003424209775403142,-0.0007222103304229677,0.5195348262786865,0.7741760015487671,0.5195475816726685,1.2330386638641357,0.15648946166038513,2.1020278930664062,0.4748125374317169,0.7567368745803833,0.42000001668930054,-0.6543208360671997,0.5909305810928345,-1.620219349861145,-2.99999737739563,-0.18594101071357727,-0.1832181066274643,-0.17881374061107635,-0.1723729372024536,-0.09631865471601486,-0.040778748691082,-0.014674948528409004,0.0130851361900568
0.7333333333333333,0.19582726061344147,0.041316401213407516,0.0,0.626166820526123,0.0,0.0,-0.7796890735626221,0.30477774143218994,0.18774358928203583,0.0,0.0,0.0,1.4610084295272827,0.47420215606689453,0.7553563714027405,0.41999998688697815,0.5600370168685913,-2.8248814487596974e-06,-3.9071901483112015e-06,-0.8284674882888794,-1.3540831787395291e-05,-0.0003379445697646588,-9.461375884711742e-05,0.008660197257995605,-0.0034110667183995247,-0.0007254738011397421,0.5369141697883606,0.7768052816390991,0.5484381914138794,0.7221859693527222,0.17488759756088257,1.4193849563598633,0.4748125374317169,0.7567368745803833,0.42000001668930054,-0.6214109659194946,2.9999866485595703,-1.5839791297912598,3.0000011920928955,-0.185660257935524,-0.18234319984912872,-0.17776058614253998,-0.17114731669425964,0.10158950090408325,0.12442102283239365,0.12426130473613739,0.12005141377449036
0.75,0.19800731539726257,0.03905021399259567,0.0,0.6188884973526001,0.0,0.0,-0.7854788899421692,0.14759469032287598,-0.16149736940860748,0.0,0.0,0.0,-1.8679474592208862,0.47420215606689453,0.7553563714027405,0.41999998688697815,0.5600369572639465,-2.8109716367907822e-06,-4.010432803625008e-06,-0.8284675478935242,-1.3862472769687884e-05,-0.00033793551847338676,-9.472970850765705e-05,0.00865890458226204,-0.003412852296605706,-0.0007248622132465243,0.5423102974891663,0.7815051078796387,0.5663024187088013,-0.10980559885501862,0.17345353960990906,0.851476788520813,0.4748125374317169,0.7567368745803833,0.42000001668930054,-0.5909205079078674,0.8247986435890198,-1.5339226722717285,3.000000476837158,-0.1800159215927124,-0.17698878049850464,-0.1730283796787262,-0.1671253740787506,0.19690941274166107,0.21186299622058868,0.20425806939601898,0.18319261074066162
0.7666666666666666,0.1977609097957611,0.042434338480234146,0.0,0.625066339969635,0.0,0.0,-0.7805716395378113,-0.05505423620343208,0.18707424402236938,0.0,0.0,0.0,1.7022148370742798,0.47420215606689453,0.7553563714027405,0.41999998688697815,0.5600371360778809,-2.8193924208608223e-06,-3.9381588976539206e-06,-0.8284674882888794,-1.4995366655057296e-05,-0.0003378422115929425,-9.502959437668324e-05,0.008655180223286152,-0.0034203683026134968,-0.0007225658628158271,0.5378612875938416,0.782353937625885,0.5772691369056702,-0.2747443914413452,0.15516804158687592,0.48239272832870483,0.4748125374317169,0.7567368745803833,0.42000001668930054,-0.5570546388626099,2.999734878540039,-1.5493407249450684,-2.9998087882995605,-0.18185003101825714,-0.1775653064250946,-0.17280225455760956,-0.16649675369262695,0.09207923710346222,0.10952720046043396,0.10669407248497009,0.08461566269397736
0.7833333333333333,0.19786158204078674,0.0423273928463459,0.0,0.62016361951828,0.0,0.0,-0.7844725251197815,0.03885512426495552,-0.026159416884183884,0.0,0.0,0.0,-1.5454660654067993,0.47420215606689453,0.7553563714027405,0.41999998688697815,0.5600370764732361,-2.836692374330596e-06,-3.847621883323882e-06,-0.8284675478935242,-1.3787021998723503e-05,-0.00033792381873354316,-9.469874203205109e-05,0.008658808656036854,-0.003412199905142188,-0.0007249665795825422,0.5260934233665466,0.7848348617553711,0.5790579319000244,-1.1095763444900513,0.10802188515663147,-0.08659681677818298,0.4748125374317169,0.7567368745803833,0.42000001668930054,-0.5425889492034912,-0.9343876838684082,-1.5104758739471436,2.9999990463256836,-0.18009020388126373,-0.1756475865840912,-0.1710071563720703,-0.16513921320438385,0.05870893970131874,0.07413189113140106,0.07427050173282623,0.05427579954266548
0.8,0.20056012272834778,0.04495883733034134,0.0,0.6271032094955444,0.0,0.0,-0.7789362072944641,0.18859125673770905,0.1924537867307663,0.0,0.0,0.0,1.7813295125961304,0.47420215606689453,0.7553563714027405,0.41999998688697815,0.5600371956825256,-2.8058932457497576e-06,-3.9776959965820424e-06,-0.8284674882888794,-1.501277438364923e-05,-0.0003378846449777484,-9.503518231213093e-05,0.008656575344502926,-0.0034209296572953463,-0.0007226003799587488,0.5142162442207336,0.7868678569793701,0.5767248272895813,-0.3396146595478058,0.2226596176624298,-0.1450662612915039,0.4748125374317169,0.7567368745803833,0.42000001668930054,-0.5410011410713196,0.9588108658790588,-1.5264116525650024,-3.0000007152557373,-0.17968444526195526,-0.17509761452674866,-0.17040874063968658,-0.1647106111049652,0.13104531168937683,0.10668350011110306,0.08653255552053452,0.061996687203645706
0.8166666666666667,0.20189711451530457,0.04400503262877464,0.0,0.6218903660774231,0.0,0.0,-0.7831043004989624,0.022261489182710648,-0.10645686089992523,0.0,0.0,0.0,-1.6318780183792114,0.47420215606689453,0.7553563714027405,0.41999998688697815,0.5600370764732361,-2.840513616320095e-06,-3.878757524944376e-06,-0.8284674286842346,-1.3615143870993052e-05,-0.00033794381306506693,-9.464286267757416e-05,0.008659858256578445,-0.0034116304013878107,-0.0007253485964611173,0.5102419257164001,0.7891871929168701,0.5716531872749329,-0.15046298503875732,0.0012290030717849731,-0.3102240562438965,0.4748125374317169,0.7567368745803833,0.42000001668930054,-0.5656871795654297,-3.0000014305114746,-1.4876095056533813,3.000000476837158,-0.17639248073101044,-0.17234402894973755,-0.16805873811244965,-0.16278968751430511,0.11497065424919128,0.1050795465707779,0.10369101166725159,0.09983157366514206
0.8333333333333334,0.20418663322925568,0.04095456749200821,0.0,0.6268113851547241,0.0,0.0,-0.7791709899902344,0.1870945245027542,-0.25860580801963806,0.0,0.0,0.0,1.9142870903015137,0.47420215606689453,0.7553563714027405,0.41999998688697815,0.5600370168685913,-2.8089234547223896e-06,-3.9902884054754395e-06,-0.8284674882888794,-1.4032610124559142e-05,-0.0003379161353223026,-9.478442370891571e-05,0.008657855913043022,-0.0034134320449084044,-0.0007244885782711208,0.5121600031852722,0.7880004644393921,0.569627583026886,0.3560410439968109,-0.1046842709183693,0.11380597203969955,0.4748125374317169,0.7567368745803833,0.42000001668930054,-0.6080590486526489,-2.125514268875122,-1.504037618637085,-3.0000007152557373,-0.17649100720882416,-0.17202718555927277,-0.16714313626289368,-0.16129644215106964,-0.020993243902921677,0.014726458117365837,0.06460510939359665,0.11576004326343536
0.85,0.20893113315105438,0.03513689711689949,0.0,0.6217762231826782,0.0,0.0,-0.7831949591636658,0.32663097977638245,-0.40364131331443787,0.0,0.0,0.0,-1.6667289733886719,0.47420215606689453,0.7553563714027405,0.41999998688697815,0.5600371360778809,-2.811136710079154e-06,-4.109160727239214e-06,-0.8284674286842346,-1.5072570931806695e-05,-0.0003378337132744491,-9.505636990070343e-05,0.008654610253870487,-0.003420856548473239,-0.0007224166765809059,0.5218936204910278,0.7839623093605042,0.5677991509437561,0.8064073920249939,-0.3836539089679718,-0.1540009081363678,0.4748125374317169,0.7567368745803833,0.42000001668930054,-0.6502390503883362,-2.838740587234497,-1.55405592918396,-2.999999523162842,-0.17797960340976715,-0.17252902686595917,-0.1663634181022644,-0.15916767716407776,-0.08301680535078049,-0.009676411747932434,0.08330956101417542,0.18223145604133606
0.8666666666666667,0.2174832820892334,0.03425358235836029,0.0,0.5937345623970032,0.0,0.0,-0.804660975933075,0.47302165627479553,-0.022678948938846588,0.0,0.0,0.0,-5.020667552947998,0.47420215606689453,0.7553563714027405,0.41999998688697815,0.5600370168685913,-2.787636731227394e-06,-4.045821697218344e-06,-0.828467607498169,-1.5320911188609898e-05,-0.0003377959073986858,-9.513716213405132e-05,0.008652632124722004,-0.003421613946557045,-0.0007218616083264351,0.5358355641365051,0.7751004695892334,0.567359209060669,0.9529131650924683,-0.46811023354530334,0.22623977065086365,0.4748125374317169,0.7567368745803833,0.42000001668930054,-0.6781306862831116,-0.6743863821029663,-1.604074239730835,-2.999999523162842,-0.18369853496551514,-0.1766994744539261,-0.16875089704990387,-0.15976275503635406,-0.17347681522369385,-0.14030376076698303,-0.09022640436887741,-0.034974563866853714
0.8833333333333333,0.22264058887958527,0.03423275053501129,0.0,0.5822535753250122,0.0,0.0,-0.8130072355270386,0.23253822326660156,0.018206048756837845,0.0,0.0,0.0,-0.6298424005508423,0.47420215606689453,0.7553563714027405,0.41999998688697815,0.5600371360778809,-2.812041657307418e-06,-3.966185886383755e-06,-0.8284674286842346,-1.4922201444278471e-05,-0.00033783563412725925,-9.499560110270977e-05,0.008655213750898838,-0.003419754095375538,-0.0007226740708574653,0.5487514734268188,0.771056056022644,0.571712851524353,0.5199880003929138,-0.07539203763008118,0.28656911849975586,0.4748125374317169,0.7567368745803833,0.42000001668930054,-0.6618974208831787,2.3453190326690674,-1.6540908813476562,-2.999999523162842,-0.18297819793224335,-0.17642439901828766,-0.1686469465494156,-0.15972140431404114,0.15973755717277527,0.09759901463985443,0.04797086492180824,0.0030088413041085005
