vladlanda/robotic-transformer/data/env_000_episode_0115.csv
sim_time_s,robot_box_x,robot_box_y,robot_box_z,robot_box_quat_w,robot_box_quat_x,robot_box_quat_y,robot_box_quat_z,robot_box_linvel_x,robot_box_linvel_y,robot_box_linvel_z,robot_box_angvel_x,robot_box_angvel_y,robot_box_angvel_z,cube_world_x,cube_world_y,cube_world_z,cube_quat_w,cube_quat_x,cube_quat_y,cube_quat_z,cube_linvel_x,cube_linvel_y,cube_linvel_z,cube_angvel_x,cube_angvel_y,cube_angvel_z,endpoint_world_x,endpoint_world_y,endpoint_world_z,endpoint_linvel_x,endpoint_linvel_y,endpoint_linvel_z,target_cube_world_x,target_cube_world_y,target_cube_world_z,gripper_actual_pos_rad_gp_leftgearjoint,gripper_actual_vel_rad_s_gp_leftgearjoint,gripper_actual_pos_rad_gp_rotatingjoint,gripper_actual_vel_rad_s_gp_rotatingjoint,motor_angle_rad_joint1,motor_angle_rad_joint2,motor_angle_rad_joint3,motor_angle_rad_joint4,motor_speed_rad_s_joint1,motor_speed_rad_s_joint2,motor_speed_rad_s_joint3,motor_speed_rad_s_joint4
0.0,0.0,0.0,0.0,1.0,0.0,0.0,0.0,0.0,0.0,0.0,0.0,0.0,0.0,-0.36302563548088074,0.650843620300293,0.41999998688697815,1.0,0.0,0.0,0.0,0.0,0.0,0.0,0.0,0.0,0.0,3.42540442943573e-06,-0.005000244826078415,1.313499927520752,0.0,0.0,0.0,0.4737946093082428,0.724227249622345,0.42000001668930054,-1.5707999467849731,0.0,0.0,0.0,0.0,0.0,0.0,0.0,0.0,0.0,0.0,0.0
0.016666666666666666,0.002886538626626134,0.002169847022742033,0.0,0.9998281002044678,0.0,0.0,0.01854020170867443,0.2411031275987625,0.18204419314861298,0.0,0.0,0.0,3.1417453289031982,-0.3630257546901703,0.6508433222770691,0.41999998688697815,1.0,3.279964630564791e-06,-8.339746386809566e-07,8.465587342243452e-08,-1.9833529222523794e-05,0.00017983045836444944,-6.132945418357849e-05,0.0009432713268324733,-0.004689474124461412,-0.00031981561915017664,-0.007106214761734009,0.003405751194804907,1.3159394264221191,-0.8135329484939575,0.9877712726593018,0.1809748411178589,0.4737946093082428,0.724227249622345,0.42000001668930054,-1.5301094055175781,3.000001907348633,-0.04585018381476402,-2.999999761581421,0.0008706335793249309,0.0007973997853696346,0.0007118525099940598,0.000611733878031373,0.11098533123731613,0.09761948138475418,0.08339744061231613,0.06828932464122772
0.03333333333333333,0.008971228264272213,0.006785630714148283,0.0,0.9998165965080261,0.0,0.0,0.01915021613240242,0.4071178734302521,0.3149789273738861,0.0,0.0,0.0,-0.8689618706703186,-0.36302587389945984,0.6508432626724243,0.4200000464916229,1.0,3.3908179375430336e-06,-2.132458348569344e-06,-3.7097745320124886e-08,0.00026357852038927376,0.00026937833172269166,-0.00010509369894862175,-0.0017707126680761576,0.004130884539335966,-0.0001354814594378695,-0.027506239712238312,0.026240859180688858,1.316601276397705,-1.5883809328079224,1.6195178031921387,-0.08452287316322327,0.4737946093082428,0.724227249622345,0.42000001668930054,-1.4800901412963867,3.000000238418579,-0.09589002281427383,-3.0,0.002990070963278413,0.002652514725923538,0.002277079736813903,0.0018606617813929915,0.16410638391971588,0.13966715335845947,0.11373730003833771,0.08622532337903976
0.05,0.01848154328763485,0.013886578381061554,0.0,0.9999688863754272,0.0,0.0,-0.007891981862485409,0.6360952854156494,0.47208765149116516,0.0,0.0,0.0,-4.073627948760986,-0.3630259037017822,0.6508433222770691,0.4200000464916229,1.0,3.7651902857760433e-06,-2.2119197637948673e-06,5.609367637049445e-09,0.00026530938339419663,0.00026691678795032203,-0.00010440615005791187,-0.0017243892652913928,0.004177466034889221,-0.00012949809024576098,-0.05710810050368309,0.05723848193883896,1.3119964599609375,-1.9504354000091553,2.0291948318481445,-0.4491405785083771,0.4737946093082428,0.724227249622345,0.42000001668930054,-1.4300718307495117,3.0000007152557373,-0.1459229439496994,-3.000000476837158,0.006010085344314575,0.005171189550310373,0.004259892739355564,0.003271976485848427,0.20687755942344666,0.16656766831874847,0.12433712929487228,0.08010350912809372
0.06666666666666667,0.030799169093370438,0.023373359814286232,0.0,0.9998641610145569,0.0,0.0,-0.016480352729558945,0.7724801898002625,0.6160258650779724,0.0,0.0,0.0,-0.03660942614078522,-0.3630259037017822,0.6508432626724243,0.4200000464916229,0.9999999403953552,3.406832092878176e-06,-2.28558906201215e-06,4.300801492718165e-07,0.0002670248504728079,0.0002679176686797291,-0.0001043803058564663,-0.00174071139190346,0.00421183044090867,-0.00012850876373704523,-0.0945107489824295,0.09004553407430649,1.301186203956604,-2.3928027153015137,2.0793209075927734,-0.838821291923523,0.4737946093082428,0.724227249622345,0.42000001668930054,-1.3800432682037354,2.999998092651367,-0.14122003316879272,3.000000476837158,0.008747182786464691,0.007202268112450838,0.005544799380004406,0.003769633127376437,0.15280687808990479,0.10326837003231049,0.051597386598587036,-0.002281405031681061
0.08333333333333333,0.04558353126049042,0.031089678406715393,0.0,0.9992333650588989,0.0,0.0,-0.03915005177259445,0.9516780376434326,0.3735540211200714,0.0,0.0,0.0,-3.5383291244506836,-0.3630259037017822,0.6508432626724243,0.4200000464916229,1.0,3.6973397072870284e-06,-2.18897503145854e-06,-2.6324283908252255e-07,0.00026389575214125216,0.000265863083768636,-0.00010433816350996494,-0.001708182506263256,0.004150256514549255,-0.00012991153926122934,-0.12929800152778625,0.12919411063194275,1.2867164611816406,-1.8272216320037842,2.5983734130859375,-0.8884757161140442,0.4737946093082428,0.724227249622345,0.42000001668930054,-1.33003568649292,3.0,-0.17307516932487488,-3.0000011920928955,0.00983835943043232,0.007166511844843626,0.004339476116001606,0.0013520397478714585,0.013455535285174847,-0.07239994406700134,-0.16055487096309662,-0.2509305775165558
0.1,0.0544758215546608,0.04067583382129669,0.0,0.9957836866378784,0.0,0.0,-0.09173217415809631,0.3940247893333435,0.6573248505592346,0.0,0.0,0.0,-7.290020942687988,-0.3630259037017822,0.6508432626724243,0.4200000464916229,0.9999999403953552,3.6204189655109076e-06,-2.2651970539300237e-06,1.7461321988321288e-07,0.00026676736888475716,0.0002674079150892794,-0.0001040794886648655,-0.001738528604619205,0.004209060221910477,-0.00012775698269251734,-0.16110658645629883,0.1755906045436859,1.2667479515075684,-1.9412028789520264,2.9550976753234863,-1.4225163459777832,0.4737946093082428,0.724227249622345,0.42000001668930054,-1.2800167798995972,2.999992847442627,-0.13943009078502655,3.0000014305114746,0.0035221462603658438,3.6777742934646085e-05,-0.0036572765093296766,-0.00756836635991931,-0.4980817437171936,-0.5382367372512817,-0.58095782995224,-0.626520574092865
0.11666666666666667,0.06502138823270798,0.05295569822192192,0.0,0.9921416640281677,0.0,0.0,-0.12511970102787018,0.8435384631156921,0.6840860843658447,0.0,0.0,0.0,-2.8345749378204346,-0.3630259037017822,0.6508432626724243,0.4200000464916229,1.0,3.798416400968563e-06,-2.2627416456089122e-06,-1.5020985699720768e-07,0.00026374010485596955,0.00026566069573163986,-0.00010429113171994686,-0.001705370144918561,0.00414750212803483,-0.0001298012211918831,-0.1992211490869522,0.21886023879051208,1.2410367727279663,-2.3179492950439453,2.6725544929504395,-1.616605281829834,0.4737946093082428,0.724227249622345,0.42000001668930054,-1.2300221920013428,2.9999990463256836,-0.17125776410102844,-3.0,-0.003209710819646716,-0.007654980756342411,-0.012322932481765747,-0.01722419448196888,-0.2052811086177826,-0.29214581847190857,-0.3774212598800659,-0.46106263995170593
0.13333333333333333,0.07534882426261902,0.06140102446079254,0.0,0.985413670539856,0.0,0.0,-0.1701759397983551,0.7013009786605835,0.4987075626850128,0.0,0.0,0.0,-6.0328369140625,-0.3630259037017822,0.6508433222770691,0.4200000464916229,0.9999999403953552,3.5505045161698945e-06,-2.2297124360193266e-06,2.9290509928614483e-07,0.0002670330286491662,0.000267792638624087,-0.00010417005978524685,-0.0017440036172047257,0.004213502164930105,-0.00012799850082956254,-0.2347865104675293,0.2681220769882202,1.21095609664917,-1.8801207542419434,3.379305362701416,-1.9022042751312256,0.4737946093082428,0.724227249622345,0.42000001668930054,-1.1800012588500977,2.9999988079071045,-0.13861222565174103,3.000000238418579,-0.009277589619159698,-0.015101652592420578,-0.021114705130457878,-0.027328461408615112,-0.22491447627544403,-0.33709871768951416,-0.44477394223213196,-0.5478006601333618
0.15,0.08468850702047348,0.06726816296577454,0.0,0.9811370968818665,0.0,0.0,-0.19331307709217072,0.5038726925849915,0.26522940397262573,0.0,0.0,0.0,-1.6250057220458984,-0.3630259037017822,0.6508432626724243,0.4200000464916229,0.9999999403953552,3.3380476907041157e-06,-2.2427855128626106e-06,-2.8018968478704664e-08,0.00026674478431232274,0.00026758163585327566,-0.00010427623055875301,-0.0017367067048326135,0.004206846933811903,-0.00012831886124331504,-0.2698116898536682,0.3214642107486725,1.17368483543396,-1.9932818412780762,3.399094581604004,-2.576995849609375,0.4737946093082428,0.724227249622345,0.42000001668930054,-1.1322904825210571,2.7117397785186768,-0.17044124007225037,-3.0000007152557373,-0.013997101224958897,-0.02139168046414852,-0.028892632573843002,-0.036511942744255066,-0.33398374915122986,-0.4102405607700348,-0.48172101378440857,-0.5485336184501648
0.16666666666666666,0.08967946469783783,0.07399062067270279,0.0,0.974383533000946,0.0,0.0,-0.2248927801847458,0.22162814438343048,0.4606219232082367,0.0,0.0,0.0,-4.636046409606934,-0.3630259037017822,0.6508433222770691,0.4200000464916229,0.9999999403953552,3.6477515550359385e-06,-2.3071481791703263e-06,3.528846903577687e-08,0.00026726751821115613,0.0002680142060853541,-0.00010418612509965897,-0.0017472724430263042,0.004217501729726791,-0.00012797869567293674,-0.30345964431762695,0.3809865117073059,1.1232622861862183,-1.8799774646759033,3.7485129833221436,-3.4348318576812744,0.4737946093082428,0.724227249622345,0.42000001668930054,-1.0825154781341553,3.0000007152557373,-0.143502876162529,3.0000007152557373,-0.02184784598648548,-0.03017440065741539,-0.038522347807884216,-0.04690765589475632,-0.5514195561408997,-0.5874492526054382,-0.6187596917152405,-0.6456660628318787
0.18333333333333332,0.09757515788078308,0.08289024978876114,0.0,0.9591336846351624,0.0,0.0,-0.2829533517360687,0.4756539463996887,0.6080864071846008,0.0,0.0,0.0,-7.997556686401367,-0.3630259037017822,0.6508432626724243,0.4200000464916229,0.9999999403953552,3.290458380433847e-06,-2.193713044107426e-06,-2.7921399237129663e-07,0.00026677967980504036,0.00026776117738336325,-0.0001043418888002634,-0.0017391219735145569,0.004206927493214607,-0.00012845566379837692,-0.33137309551239014,0.44856372475624084,1.058436632156372,-1.3299864530563354,4.254995822906494,-4.273932456970215,0.4737946093082428,0.724227249622345,0.42000001668930054,-1.0325086116790771,3.0000009536743164,-0.17534029483795166,-2.9999988079071045,-0.03138818219304085,-0.04012889787554741,-0.04882339760661125,-0.05749409645795822,-0.7596650123596191,-0.7512602210044861,-0.740781307220459,-0.7287358045578003
0.2,0.10253113508224487,0.09019346535205841,0.0,0.9471027255058289,0.0,0.0,-0.3209306299686432,0.26929041743278503,0.3873058259487152,0.0,0.0,0.0,-3.5798370838165283,-0.3630259037017822,0.6508432626724243,0.4200000464916229,1.0,3.280689952589455e-06,-2.219024509031442e-06,1.594884366795668e-07,0.0002662799961399287,0.0002674008719623089,-0.00010425224900245667,-0.0017357695614919066,0.004197873640805483,-0.00012865354074165225,-0.3546808958053589,0.5115280151367188,0.9792619943618774,-1.0274462699890137,3.7458715438842773,-5.143983364105225,0.4737946093082428,0.724227249622345,0.42000001668930054,-0.9825013875961304,3.0000011920928955,-0.22536849975585938,-2.999999523162842,-0.0470217689871788,-0.05496247112751007,-0.06273029744625092,-0.07049873471260071,-0.9707780480384827,-0.9152078628540039,-0.8458757996559143,-0.7786163091659546
0.21666666666666667,0.1037665605545044,0.09884215146303177,0.0,0.9426007866859436,0.0,0.0,-0.33392176032066345,0.0011084886500611901,0.5397951006889343,0.0,0.0,0.0,-0.7800118327140808,-0.3630259037017822,0.6508433222770691,0.4200000464916229,1.0,3.6130954867985565e-06,-2.269954165967647e-06,2.210255729551136e-07,0.0002671264810487628,0.0002678182499948889,-0.00010414235293865204,-0.001744590001180768,0.004215233027935028,-0.00012786359002348036,-0.37415584921836853,0.5634642839431763,0.8892871141433716,-0.9938421845436096,2.7478532791137695,-5.620838642120361,0.4737946093082428,0.724227249622345,0.42000001668930054,-0.9324917197227478,2.9999988079071045,-0.27539944648742676,-2.9999988079071045,-0.06239206716418266,-0.07042001187801361,-0.0782296434044838,-0.08594916760921478,-0.9592734575271606,-0.9495340585708618,-0.9374653100967407,-0.9244292974472046
0.23333333333333334,0.10895054042339325,0.10288745909929276,0.0,0.9327999949455261,0.0,0.0,-0.3603944480419159,0.3312462568283081,0.18189489841461182,0.0,0.0,0.0,-3.9820075035095215,-0.3630259037017822,0.6508432626724243,0.4200000464916229,1.0,3.3818200790847186e-06,-2.290785687364405e-06,2.728022536757635e-07,0.0002669146633706987,0.0002677999727893621,-0.00010433373972773552,-0.00173960963729769,0.004209722857922316,-0.0001284381141886115,-0.3871268033981323,0.6077841520309448,0.7894848585128784,-0.4885134696960449,2.306420087814331,-6.238390922546387,0.4737946093082428,0.724227249622345,0.42000001668930054,-0.882481038570404,2.9999959468841553,-0.3254316747188568,-3.0000007152557373,-0.07689455896615982,-0.08484873175621033,-0.09255024045705795,-0.10005031526088715,-0.98988276720047,-0.991442084312439,-0.9926758408546448,-0.9711304306983948
0.25,0.10870233923196793,0.11103852838277817,0.0,0.9295419454574585,0.0,0.0,-0.36871644854545593,-0.005949953105300665,0.4352380931377411,0.0,0.0,0.0,-0.10197398066520691,-0.36302587389945984,0.6508432626724243,0.4200000464916229,0.9999999403953552,3.706541974679567e-06,-2.2228152829484316e-06,-2.2551301981366123e-07,0.0002642470644786954,0.000266568036749959,-0.00010457867756485939,-0.0017170833889394999,0.00415569543838501,-0.00013063359074294567,-0.39179089665412903,0.6296921968460083,0.6863308548927307,-0.026020802557468414,0.6830053329467773,-6.039140701293945,0.4737946093082428,0.724227249622345,0.42000001668930054,-0.8324716091156006,2.9999935626983643,-0.3754642605781555,-3.000000238418579,-0.09413787722587585,-0.10186952352523804,-0.10943242162466049,-0.11684340983629227,-0.6795845031738281,-0.7399245500564575,-0.7966208457946777,-0.847590982913971
0.26666666666666666,0.11186287552118301,0.1138356477022171,0.0,0.9208950996398926,0.0,0.0,-0.3898104429244995,0.21660394966602325,0.1164875477552414,0.0,0.0,0.0,-3.3173434734344482,-0.3630259037017822,0.6508432626724243,0.4200000464916229,0.9999999403953552,3.719688493220019e-06,-2.403317694188445e-06,-1.8309575011699053e-07,0.00026623302255757153,0.00026729193632490933,-0.00010425853542983532,-0.0017327427631244063,0.00419660797342658,-0.00012851154315285385,-0.3898758292198181,0.6406108140945435,0.5847075581550598,0.3745790123939514,0.39741814136505127,-5.977486610412598,0.4737946093082428,0.724227249622345,0.42000001668930054,-0.7824628353118896,2.999990940093994,-0.425495445728302,-2.9999992847442627,-0.10647774487733841,-0.11485947668552399,-0.1230219379067421,-0.1309802234172821,-0.9883494973182678,-0.9913031458854675,-0.9848019480705261,-0.9767224192619324
0.2833333333333333,0.11163312941789627,0.11429481953382492,0.0,0.9199577569961548,0.0,0.0,-0.3920174539089203,-0.09525063633918762,0.0014838742790743709,0.0,0.0,0.0,0.5807021856307983,-0.3630259037017822,0.6508433222770691,0.4200000464916229,0.9999999403953552,3.584116939236992e-06,-2.3153263555286685e-06,7.402376667187127e-08,0.00026522012194618583,0.0002645518397912383,-0.00010317075066268444,-0.0017020788509398699,0.004185091704130173,-0.00012499977310653776,-0.38252002000808716,0.6447470188140869,0.49288979172706604,0.6373388767242432,0.06875062733888626,-5.0321455001831055,0.4737946093082428,0.724227249622345,0.42000001668930054,-0.7324542999267578,3.000000238418579,-0.4755246043205261,-3.00000262260437,-0.12435196340084076,-0.13246062397956848,-0.14041978120803833,-0.14821955561637878,-1.0184755325317383,-1.0139942169189453,-1.0105715990066528,-1.0078294277191162
0.3,0.10829123854637146,0.11218603700399399,0.0,0.9281042218208313,0.0,0.0,-0.3723205626010895,-0.22284510731697083,-0.19035091996192932,0.0,0.0,0.0,3.785161256790161,-0.3630259037017822,0.6508432626724243,0.4200000464916229,1.0,3.7243148653942626e-06,-2.2717647425452014e-06,9.633560438260247e-08,0.00026312581030651927,0.00026525743305683136,-0.00010438100434839725,-0.001696073217317462,0.0041348133236169815,-0.00013027583190705627,-0.37306684255599976,0.645871639251709,0.41140300035476685,0.4960893392562866,-0.07154154777526855,-4.821815013885498,0.4737946093082428,0.724227249622345,0.42000001668930054,-0.6824473142623901,2.999950647354126,-0.5255523324012756,-3.0000033378601074,-0.14083331823349,-0.14897121489048004,-0.15698358416557312,-0.16484206914901733,-1.005279541015625,-1.0040655136108398,-1.003130316734314,-1.0023713111877441
0.31666666666666665,0.10277628898620605,0.10741359740495682,0.0,0.9302767515182495,0.0,0.0,-0.36685848236083984,-0.37038758397102356,-0.32449349761009216,0.0,0.0,0.0,-0.268941193819046,-0.36300981044769287,0.6498191952705383,0.4200027287006378,0.9997835159301758,0.0005958418478257954,-0.00014752332936041057,-0.020796915516257286,0.014496942050755024,0.04606527462601662,-0.0182128194719553,-0.9807862639427185,0.6319521069526672,-0.1578817367553711,-0.37381017208099365,0.650156557559967,0.42608171701431274,0.20747080445289612,0.3855128288269043,-0.15719929337501526,0.4737946093082428,0.724227249622345,0.42000001668930054,-0.6325585246086121,2.9999773502349854,-0.5761154890060425,-2.999953269958496,-0.14542080461978912,-0.15334856510162354,-0.1607608199119568,-0.16755618155002594,-0.4209578037261963,-0.35853102803230286,-0.27785614132881165,-0.17629341781139374
0.3333333333333333,0.09485704451799393,0.1004529520869255,0.0,0.9373916983604431,0.0,0.0,-0.34827694296836853,-0.5230082273483276,-0.45792561769485474,0.0,0.0,0.0,3.246528387069702,-0.3614557981491089,0.6528278589248657,0.42057308554649353,0.9974803924560547,0.014320524409413338,-0.0003024561156053096,-0.06948162615299225,0.1811487227678299,0.341992050409317,0.06160946190357208,3.0891430377960205,-0.13734152913093567,-10.907510757446289,-0.36932235956192017,0.6579447388648987,0.4231979548931122,0.33064746856689453,0.47286808490753174,-0.15686844289302826,0.4737946093082428,0.724227249622345,0.42000001668930054,-0.5825532078742981,2.9999849796295166,-0.6261499524116516,-3.0000016689300537,-0.15346847474575043,-0.1597682535648346,-0.16525055468082428,-0.16979490220546722,-0.48519688844680786,-0.3681858479976654,-0.23363150656223297,-0.08130574226379395
0.35,0.08451715856790543,0.09128303825855255,0.0,0.9383325576782227,0.0,0.0,-0.3457340896129608,-0.6634584665298462,-0.5978679656982422,0.0,0.0,0.0,-0.6227297186851501,-0.3576940596103668,0.659419596195221,0.4206461012363434,0.9883456826210022,0.016201576218008995,-0.002478006761521101,-0.1513407975435257,0.32726332545280457,0.5147846341133118,0.011912226676940918,0.6980417966842651,-0.20622646808624268,-3.381260395050049,-0.3611430525779724,0.6649515628814697,0.42114171385765076,0.6134425401687622,0.406324565410614,-0.13204464316368103,0.4737946093082428,0.724227249622345,0.42000001668930054,-0.5325483679771423,3.0000007152557373,-0.6761946082115173,-2.9995086193084717,-0.16202564537525177,-0.16607986390590668,-0.1690046340227127,-0.17069461941719055,-0.4988672137260437,-0.35785210132598877,-0.19807036221027374,-0.02121153473854065
0.36666666666666664,0.07495419681072235,0.07968347519636154,0.0,0.9288517236709595,0.0,0.0,-0.37045177817344666,-0.5046892762184143,-0.7457707524299622,0.0,0.0,0.0,-4.012927055358887,-0.34932276606559753,0.6708738803863525,0.42034173011779785,0.9839752912521362,0.007993710227310658,-0.0018943243194371462,-0.17811501026153564,0.6669229865074158,0.8500529527664185,-0.024019278585910797,-1.871228814125061,0.03308640420436859,-3.9914495944976807,-0.34865304827690125,0.6732600331306458,0.41991543769836426,0.9067279100418091,0.6390721797943115,-0.022167567163705826,0.4737946093082428,0.724227249622345,0.42000001668930054,-0.4825436472892761,2.9999849796295166,-0.7262445092201233,-2.9999840259552,-0.17066018283367157,-0.17205889523029327,-0.17198045551776886,-0.17036676406860352,-0.46086806058883667,-0.2982301712036133,-0.11428068578243256,0.08759110420942307
0.3833333333333333,0.0636875107884407,0.06598779559135437,0.0,0.9071016311645508,0.0,0.0,-0.4209116995334625,-0.7146963477134705,-0.8701556921005249,0.0,0.0,0.0,-7.476943492889404,-0.3320107161998749,0.6909834146499634,0.420635461807251,0.9764256477355957,-0.006956797093153,-0.009553724899888039,-0.2155299335718155,1.4702047109603882,1.6123796701431274,0.08660999685525894,-1.1454514265060425,-5.363381862640381,-5.443475246429443,-0.3291304111480713,0.6898839473724365,0.42178183794021606,1.5199428796768188,1.4379527568817139,0.1390160769224167,0.4737946093082428,0.724227249622345,0.42000001668930054,-0.43249014019966125,2.998915672302246,-0.776252269744873,-2.999990701675415,-0.1785888969898224,-0.1773504614830017,-0.1742403358221054,-0.16926692426204681,-0.36416101455688477,-0.23127560317516327,-0.07399420440196991,0.1038866862654686
0.4,0.0548572838306427,0.04949864372611046,0.0,0.8704714775085449,0.0,0.0,-0.49221891164779663,-0.4545774757862091,-1.0493234395980835,0.0,0.0,0.0,-10.348733901977539,-0.2836107909679413,0.7238477468490601,0.423775315284729,0.9602730870246887,-0.004762963857501745,-0.04309523105621338,-0.27567312121391296,4.135244846343994,2.5088040828704834,0.05715140700340271,29.090408325195312,-15.989714622497559,7.140373229980469,-0.2810637354850769,0.723170280456543,0.42488181591033936,3.9287168979644775,2.4924395084381104,0.36966603994369507,0.4737946093082428,0.724227249622345,0.42000001668930054,-0.39378172159194946,1.4146803617477417,-0.8262622952461243,-2.999999761581421,-0.18840429186820984,-0.18353495001792908,-0.17655295133590698,-0.16757801175117493,-0.6193081736564636,-0.3812601566314697,-0.13568292558193207,0.10995764285326004
0.4166666666666667,0.04903965815901756,0.03711209073662758,0.0,0.815550684928894,0.0,0.0,-0.5786856412887573,-0.27430519461631775,-0.7313236594200134,0.0,0.0,0.0,-12.981165885925293,-0.19128283858299255,0.7683905959129333,0.4283425211906433,0.9350795149803162,0.05867032706737518,-0.09109187871217728,-0.3374704420566559,7.107590675354004,2.634251117706299,0.3135012984275818,18.740402221679688,-18.200136184692383,16.005796432495117,-0.18893307447433472,0.7678737044334412,0.42994076013565063,6.695775032043457,2.994091749191284,0.3636787235736847,0.4737946093082428,0.724227249622345,0.42000001668930054,-0.3744017779827118,1.0876761674880981,-0.789374053478241,3.0004284381866455,-0.20248053967952728,-0.19535182416439056,-0.18313035368919373,-0.16925306618213654,-0.5796018242835999,-0.6369531154632568,-0.37406259775161743,-0.1355922818183899
0.43333333333333335,0.04682593792676926,0.02771945483982563,0.0,0.7682648301124573,0.0,0.0,-0.6401321291923523,-0.081492118537426,-0.5006634593009949,0.0,0.0,0.0,-8.179279327392578,-0.07980263233184814,0.8102223873138428,0.4360596239566803,0.8838984370231628,0.09207260608673096,-0.1229155883193016,-0.4417441189289093,6.866684436798096,1.6431984901428223,0.5457983016967773,13.688661575317383,-6.1872663497924805,6.666804313659668,-0.07919728755950928,0.8104822039604187,0.4372584819793701,6.688634872436523,1.9911019802093506,0.4618905484676361,0.4737946093082428,0.724227249622345,0.42000001668930054,-0.3543734550476074,1.286374568939209,-0.8165584206581116,-3.0000040531158447,-0.21411801874637604,-0.20672066509723663,-0.19022290408611298,-0.1726253628730774,-0.6831583976745605,-0.6327895522117615,-0.4008427560329437,-0.2055644989013672
0.45,0.04730003699660301,0.022374114021658897,0.0,0.7418501377105713,0.0,0.0,-0.6705657243728638,0.0812346413731575,-0.2539445459842682,0.0,0.0,0.0,-3.7192611694335938,0.02937893196940422,0.8336989879608154,0.44418609142303467,0.8232923746109009,0.10425635427236557,-0.13144837319850922,-0.5422560572624207,6.367726802825928,0.16186641156673431,0.46898505091667175,-2.317610025405884,-9.453911781311035,14.257918357849121,0.028990209102630615,0.8346428275108337,0.4446858763694763,6.472199440002441,0.879828691482544,0.5933666229248047,0.4737946093082428,0.724227249622345,0.42000001668930054,-0.3335232436656952,1.072102427482605,-0.8665828108787537,-3.000002384185791,-0.22720526158809662,-0.21794147789478302,-0.19747866690158844,-0.17658649384975433,-0.7545590400695801,-0.6236758828163147,-0.4124481678009033,-0.24071943759918213
0.4666666666666667,0.04655677452683449,0.02181061916053295,0.0,0.7378484010696411,0.0,0.0,-0.6749665141105652,-0.03808630630373955,0.008782566525042057,0.0,0.0,0.0,0.21450284123420715,0.12946248054504395,0.837035059928894,0.45093652606010437,0.7514718174934387,0.09329760819673538,-0.13356183469295502,-0.6393330693244934,5.284266471862793,-1.0514159202575684,0.4941246509552002,8.290606498718262,-6.772782325744629,21.52922821044922,0.12798938155174255,0.8388226628303528,0.45184463262557983,5.627305030822754,-0.3470900356769562,0.4051392078399658,0.4737946093082428,0.724227249622345,0.42000001668930054,-0.31825628876686096,0.7251262068748474,-0.9166081547737122,-3.000002384185791,-0.2400265634059906,-0.22866186499595642,-0.2047441452741623,-0.1809428483247757,-0.05058388039469719,-0.6596943736076355,-0.4768741726875305,-0.3178831934928894
0.48333333333333334,0.04972591623663902,0.01512377429753542,0.0,0.7233831882476807,0.0,0.0,-0.6904467940330505,0.27242201566696167,-0.5416954755783081,0.0,0.0,0.0,-3.5538339614868164,0.2176966816186905,0.8255213499069214,0.4518931210041046,0.6903310418128967,0.04623495042324066,-0.18292418122291565,-0.6984582543373108,4.978112697601318,-1.036533236503601,-0.0916750356554985,-19.850065231323242,7.225370407104492,1.6181604862213135,0.21577423810958862,0.8304545283317566,0.4557264447212219,5.1612138748168945,-0.9117693901062012,0.17638269066810608,0.4737946093082428,0.724227249622345,0.42000001668930054,-0.30659666657447815,0.7082552909851074,-0.9666321277618408,-3.0,-0.23465825617313385,-0.23236596584320068,-0.20695510506629944,-0.1818074733018875,0.43792471289634705,-0.011473682709038258,0.03674028441309929,0.08262971043586731
0.5,0.05356430634856224,0.012818831950426102,0.0,0.7209712862968445,0.0,0.0,-0.6929649710655212,0.24698448181152344,-0.03799689933657646,0.0,0.0,0.0,0.48352035880088806,0.295838862657547,0.803916871547699,0.4518255889415741,0.6237678527832031,0.018594324588775635,-0.1752033531665802,-0.7614929676055908,4.032248020172119,-2.0074779987335205,-0.04239662364125252,-4.836912631988525,-0.9223767518997192,15.232254981994629,0.29419809579849243,0.809367299079895,0.45615142583847046,4.504230499267578,-1.5435558557510376,-0.016092246398329735,0.4737946093082428,0.724227249622345,0.42000001668930054,-0.29528820514678955,0.6278594732284546,-1.0166555643081665,-3.0000007152557373,-0.23436512053012848,-0.23668189346790314,-0.20999592542648315,-0.18381279706954956,4.492234438657761e-06,-0.20031461119651794,-0.16742977499961853,-0.14957652986049652
0.5166666666666666,0.05955495312809944,0.01387445256114006,0.0,0.7098668813705444,0.0,0.0,-0.7043358683586121,0.4354175329208374,0.08480372279882431,0.0,0.0,0.0,-2.6944780349731445,0.36169275641441345,0.7809222340583801,0.44465410709381104,0.5836873054504395,-0.003855956019833684,-0.16247616708278656,-0.795547366142273,3.2240922451019287,-1.7383036613464355,-0.5904768109321594,-0.9958034753799438,1.9896173477172852,13.016823768615723,0.3605857491493225,0.7858814597129822,0.4492412805557251,3.657663106918335,-1.4776335954666138,-0.6174675226211548,0.4737946093082428,0.724227249622345,0.42000001668930054,-0.2821812927722931,0.865861713886261,-1.0666776895523071,-2.999911069869995,-0.23148587346076965,-0.2370556741952896,-0.2113354355096817,-0.18616878986358643,0.2825445830821991,0.11540492624044418,-3.0965303210450656e-08,-0.1153864935040474
0.5333333333333333,0.0686350166797638,0.013784678652882576,0.0,0.7109925150871277,0.0,0.0,-0.703199565410614,0.5898070931434631,-0.02786349132657051,0.0,0.0,0.0,1.11882746219635,0.4127246141433716,0.7565085291862488,0.43072301149368286,0.5357838869094849,-0.04182128608226776,-0.14898666739463806,-0.830053985118866,2.119401693344116,-1.814138650894165,-0.877375066280365,-2.6906230449676514,4.705979824066162,18.57564353942871,0.4117411673069,0.761249303817749,0.4359056055545807,2.6909852027893066,-1.5195896625518799,-0.9039274454116821,0.4737946093082428,0.724227249622345,0.42000001668930054,-0.2670864760875702,0.8025730848312378,-1.1166998147964478,-2.9999473094940186,-0.2245018482208252,-0.232320174574852,-0.20929312705993652,-0.18677456676959991,0.46633726358413696,0.3697430491447449,0.17911279201507568,-0.008401810191571712
0.55,0.07474347949028015,0.016719767823815346,0.0,0.7021647691726685,0.0,0.0,-0.7120144367218018,0.2955935597419739,0.23144391179084778,0.0,0.0,0.0,-2.4114701747894287,0.4447557032108307,0.7414014339447021,0.4247542917728424,0.5341214537620544,-0.012624466791749,-0.08914845436811447,-0.8405994176864624,1.2577979564666748,-0.7493013739585876,-0.1089974194765091,2.1543960571289062,5.840024471282959,7.864618301391602,0.44401073455810547,0.7446942925453186,0.4278332591056824,1.5108733177185059,-0.6905595660209656,-0.17097865045070648,0.4737946093082428,0.724227249622345,0.42000001668930054,-0.2537011504173279,0.8721551299095154,-1.1668026447296143,-2.9958534240722656,-0.2174586057662964,-0.22660978138446808,-0.2071913480758667,-0.18804524838924408,0.48177486658096313,0.41505998373031616,0.17242413759231567,-0.05083753168582916
0.5666666666666667,0.08087687939405441,0.01670541614294052,0.0,0.7049499154090881,0.0,0.0,-0.7092570662498474,0.39920422434806824,-0.07042858004570007,0.0,0.0,0.0,1.3434656858444214,0.4610322117805481,0.7301425337791443,0.42238321900367737,0.5395790338516235,-0.004627503454685211,-0.04301091656088829,-0.8408228158950806,0.20354174077510834,-0.9919003248214722,-0.12676745653152466,3.997849702835083,4.302711009979248,19.159744262695312,0.4607279896736145,0.7325847148895264,0.4245721697807312,0.717028021812439,-0.7019661068916321,-0.19443562626838684,0.4737946093082428,0.724227249622345,0.42000001668930054,-0.23942410945892334,0.732340931892395,-1.21684730052948,-2.994715690612793,-0.21022340655326843,-0.21954144537448883,-0.20381437242031097,-0.18809883296489716,0.40195682644844055,0.4294508099555969,0.21825681626796722,0.02004566416144371
0.5833333333333334,0.08935195207595825,0.02020375244319439,0.0,0.6966528296470642,0.0,0.0,-0.7174084186553955,0.5083552002906799,0.2424888163805008,0.0,0.0,0.0,-2.3461406230926514,0.46961745619773865,0.7258797287940979,0.4222387969493866,0.551322877407074,0.00462318817153573,-0.04278949648141861,-0.8331810832023621,-0.0667986050248146,-0.46509552001953125,0.04418404400348663,0.2921406924724579,-5.956425666809082,20.932754516601562,0.46717435121536255,0.7282981872558594,0.42447489500045776,0.4064527451992035,-0.022995252162218094,0.042058270424604416,0.4737946093082428,0.724227249622345,0.42000001668930054,-0.25657087564468384,-1.977164626121521,-1.1837624311447144,3.0000879764556885,-0.20432327687740326,-0.21314238011837006,-0.2010466307401657,-0.18865343928337097,0.4509509801864624,0.46914777159690857,0.23364903032779694,0.020517854019999504
0.6,0.09979407489299774,0.020053979009389877,0.0,0.69964599609375,0.0,0.0,-0.7144896984100342,0.6486511826515198,-0.05424448475241661,0.0,0.0,0.0,1.4064542055130005,0.4700252115726471,0.7202913761138916,0.42146211862564087,0.644486129283905,0.02504623681306839,-0.028407713398337364,-0.7636774182319641,-0.08440279960632324,-0.3301859498023987,-0.040072135627269745,0.11245511472225189,1.805360198020935,7.745896816253662,0.4703480899333954,0.7259140610694885,0.42322838306427,-0.0060959383845329285,-0.06930889189243317,0.16295890510082245,0.4737946093082428,0.724227249622345,0.42000001668930054,-0.30532321333885193,-2.999950885772705,-1.2055044174194336,-2.9974465370178223,-0.19627515971660614,-0.2044343650341034,-0.1959787756204605,-0.18691423535346985,0.3780674338340759,0.4519415497779846,0.2675504982471466,0.09801049530506134
0.6166666666666667,0.10743667930364609,0.02216903120279312,0.0,0.6919589042663574,0.0,0.0,-0.7219368815422058,0.38755473494529724,0.1678990125656128,0.0,0.0,0.0,-2.1974854469299316,0.4688262343406677,0.7153350710868835,0.4200144112110138,0.6889508366584778,0.00035816256422549486,0.0003423775779083371,-0.7248077988624573,-0.054959122091531754,-0.2421361356973648,-0.0013759462162852287,-0.07061176002025604,0.02111838571727276,5.720419406890869,0.47194617986679077,0.7276945114135742,0.4263561964035034,0.12809894979000092,0.21637581288814545,0.2097262293100357,0.4737946093082428,0.724227249622345,0.42000001668930054,-0.3553278148174286,-3.000000476837158,-1.255463719367981,-2.998845338821411,-0.18879444897174835,-0.19634152948856354,-0.19133271276950836,-0.1853630542755127,0.5502775311470032,0.560476541519165,0.33933329582214355,0.14135287702083588
0.6333333333333333,0.11539599299430847,0.021809792146086693,0.0,0.6957483291625977,0.0,0.0,-0.7182856798171997,0.4943307340145111,-0.12424246966838837,0.0,0.0,0.0,1.4820334911346436,0.46794259548187256,0.7122596502304077,0.41999948024749756,0.7117093205451965,-0.00011962850112468004,-5.193092147237621e-05,-0.7024739980697632,-0.11407738924026489,-0.10322695225477219,-0.004111085087060928,0.0846775621175766,-0.1140221431851387,4.622408390045166,0.4723433554172516,0.7304117679595947,0.42922013998031616,-0.04145238921046257,0.1348779797554016,0.15968573093414307,0.4737946093082428,0.724227249622345,0.42000001668930054,-0.40532976388931274,-2.9999938011169434,-1.3054726123809814,-2.9997241497039795,-0.18014299869537354,-0.18730953335762024,-0.18562063574790955,-0.18269455432891846,0.42369189858436584,0.4650186598300934,0.2942463755607605,0.13338376581668854
0.65,0.1251726597547531,0.023782072588801384,0.0,0.6900839805603027,0.0,0.0,-0.7237293124198914,0.6140245795249939,0.1495675891637802,0.0,0.0,0.0,-2.200533866882324,0.4667529761791229,0.7110447883605957,0.41999995708465576,0.7314945459365845,-5.430462692856963e-07,-4.422589370278729e-07,-0.6818471550941467,-0.05748375877737999,-0.06282707303762436,-7.94802326709032e-06,-0.005463789217174053,-0.0020329735707491636,2.9957797527313232,0.47335898876190186,0.7351414561271667,0.43228262662887573,0.15068025887012482,0.3750898540019989,0.2141009122133255,0.4737946093082428,0.724227249622345,0.42000001668930054,-0.4553316533565521,-2.999934673309326,-1.3554373979568481,-2.9994289875030518,-0.17358306050300598,-0.18031182885169983,-0.18132555484771729,-0.18086576461791992,0.4795408546924591,0.4825843572616577,0.3185826241970062,0.17177101969718933
0.6666666666666666,0.13683626055717468,0.022070415318012238,0.0,0.6939473152160645,0.0,0.0,-0.7200257778167725,0.7222480773925781,-0.1308426409959793,0.0,0.0,0.0,1.547964096069336,0.46616998314857483,0.7106195688247681,0.4202306270599365,0.7369362711906433,0.004232567269355059,-0.003930448088794947,-0.6759375333786011,-0.06836087256669998,0.012481351383030415,0.08161483705043793,0.3721701204776764,-4.099574565887451,-1.5357669591903687,0.47369182109832764,0.7406495809555054,0.4409767985343933,-0.09787974506616592,0.28853002190589905,0.8513961434364319,0.4737946093082428,0.724227249622345,0.42000001668930054,-0.505344569683075,-3.0,-1.4054558277130127,-3.0000007152557373,-0.1667221188545227,-0.17284546792507172,-0.175692617893219,-0.17679603397846222,0.21958336234092712,0.3020143508911133,0.25600412487983704,0.2233467400074005
0.6833333333333333,0.15055496990680695,0.022857436910271645,0.0,0.6866897940635681,0.0,0.0,-0.7269505858421326,0.8414185643196106,0.09034561365842819,0.0,0.0,0.0,-2.115541696548462,0.46547073125839233,0.710657000541687,0.4206303060054779,0.7353342771530151,0.011775768361985683,-0.010848559439182281,-0.67751544713974,-0.030016109347343445,0.0010616432409733534,0.007096471264958382,0.030199086293578148,-0.3644307553768158,-0.14752094447612762,0.4779475927352905,0.7457704544067383,0.45317405462265015,0.6020632982254028,0.28637877106666565,0.7567076086997986,0.4737946093082428,0.724227249622345,0.42000001668930054,-0.5553571581840515,-2.9999992847442627,-1.4554741382598877,-3.0,-0.16481651365756989,-0.1694221794605255,-0.17249315977096558,-0.17354102432727814,0.1754598766565323,0.24769851565361023,0.2390357106924057,0.2524838149547577
0.7,0.16586701571941376,0.020478330552577972,0.0,0.6585904359817505,0.0,0.0,-0.7525016069412231,0.9513036012649536,-0.20732077956199646,0.0,0.0,0.0,-5.432768821716309,0.46561887860298157,0.710692822933197,0.4200032949447632,0.7351320385932922,-0.00015486068150494248,0.00011149448982905596,-0.677923858165741,0.044898755848407745,0.0034546609967947006,-0.00642867898568511,0.034137602895498276,-0.29598793387413025,0.0019228566670790315,0.4924168288707733,0.7517610192298889,0.4727046489715576,1.1000975370407104,0.3426952362060547,1.706358551979065,0.4737946093082428,0.724227249622345,0.42000001668930054,-0.6053687334060669,-2.9999663829803467,-1.5054924488067627,-2.9999985694885254,-0.16364650428295135,-0.1666909158229828,-0.1692982316017151,-0.16958016157150269,-0.06801293045282364,0.053796183317899704,0.12187237292528152,0.2030186951160431
0.7166666666666667,0.17856986820697784,0.020989136770367622,0.0,0.6435278058052063,0.0,0.0,-0.7654227018356323,0.6892569065093994,0.0373222678899765,0.0,0.0,0.0,-1.346238613128662,0.46564099192619324,0.7106934189796448,0.41999998688697815,0.7351295948028564,-5.803492513223318e-07,1.2221652241350967e-06,-0.6779264807701111,-0.00011721521150320768,8.871713362168521e-05,-1.4409888535737991e-06,-0.003114160615950823,-0.0033582395408302546,1.7392712834407575e-05,0.5112632513046265,0.7597109079360962,0.5051490068435669,1.2167954444885254,0.6857213973999023,2.132573366165161,0.4737946093082428,0.724227249622345,0.42000001668930054,-0.6241041421890259,0.4641995429992676,-1.5555107593536377,-2.9999992847442627,-0.16704131662845612,-0.16827566921710968,-0.16987565159797668,-0.16910052299499512,-0.07253481447696686,-0.029548130929470062,-0.0252678282558918,-0.02100169099867344
0.7333333333333333,0.1868669092655182,0.02356317825615406,0.0,0.6524989604949951,0.0,0.0,-0.7577896118164062,0.4269227087497711,0.21063274145126343,0.0,0.0,0.0,2.276449203491211,0.4656406342983246,0.7106936573982239,0.42000001668930054,0.7351295351982117,7.856360184632649e-07,-4.4072821765439585e-06,-0.6779265403747559,0.0002683440106920898,-0.00026930548483505845,-9.575625881552696e-05,0.004105300176888704,0.0023179338313639164,0.00011604669998632744,0.5258961915969849,0.7688956260681152,0.5344362258911133,0.5335095524787903,0.5165649056434631,1.462654709815979,0.4737946093082428,0.724227249622345,0.42000001668930054,-0.5940131545066833,2.906773805618286,-1.516621708869934,3.000000238418579,-0.1683320850133896,-0.16870135068893433,-0.16993184387683868,-0.16886310279369354,-0.024835720658302307,0.02192779816687107,0.04647759720683098,0.06276698410511017
0.75,0.19119206070899963,0.022574281319975853,0.0,0.6492310762405396,0.0,0.0,-0.7605912089347839,0.2003742903470993,-0.14338746666908264,0.0,0.0,0.0,-1.4353688955307007,0.4656406342983246,0.7106936573982239,0.42000001668930054,0.7351295948028564,1.0641629160090815e-06,-4.147135769017041e-06,-0.6779265403747559,0.00027478556148707867,-0.0002478678652551025,-9.831367060542107e-05,0.003665684722363949,0.0025281663984060287,7.480841304641217e-05,0.5269160270690918,0.7773969173431396,0.5516054630279541,-0.41840478777885437,0.4781835675239563,0.772918701171875,0.4737946093082428,0.724227249622345,0.42000001668930054,-0.5732168555259705,-0.16288721561431885,-1.4665652513504028,2.9999992847442627,-0.16801698505878448,-0.1675988882780075,-0.16831502318382263,-0.16693709790706635,0.03867461904883385,0.09064585715532303,0.13030773401260376,0.15312623977661133
0.7666666666666666,0.19165976345539093,0.026594363152980804,0.0,0.6575844883918762,0.0,0.0,-0.7533807754516602,-0.031366460025310516,0.3795877993106842,0.0,0.0,0.0,2.2126572132110596,0.4656406342983246,0.7106936573982239,0.42000001668930054,0.7351295948028564,1.0335834303987212e-06,-4.092489234608365e-06,-0.6779265403747559,0.00027546045021153986,-0.0002483740681782365,-9.850668720901012e-05,0.0036743786185979843,0.0025379948783665895,7.484553498215973e-05,0.5168009996414185,0.7821288704872131,0.5617830753326416,-0.7397583723068237,0.2615273594856262,0.4944523870944977,0.4737946093082428,0.724227249622345,0.42000001668930054,-0.5537399649620056,2.2714731693267822,-1.483388900756836,-3.0,-0.17302608489990234,-0.17066213488578796,-0.1696525663137436,-0.16698873043060303,-0.3462181091308594,-0.23037704825401306,-0.12407529354095459,-0.04617232829332352
0.7833333333333333,0.19404511153697968,0.02751731127500534,0.0,0.6546964049339294,0.0,0.0,-0.7558919191360474,0.12845955789089203,-0.015706032514572144,0.0,0.0,0.0,-1.0352059602737427,0.4656406342983246,0.7106936573982239,0.42000001668930054,0.7351295948028564,1.115050281441654e-06,-4.154180714976974e-06,-0.6779265403747559,0.0002756093454081565,-0.0002492904313839972,-9.829062037169933e-05,0.003694130340591073,0.0025442971382290125,7.637883390998468e-05,0.49803632497787476,0.7872046232223511,0.5628067255020142,-1.5363633632659912,0.2657870352268219,-0.20005595684051514,0.4737946093082428,0.724227249622345,0.42000001668930054,-0.5575075745582581,-2.322005033493042,-1.4447107315063477,3.000000238418579,-0.17476864159107208,-0.17139147222042084,-0.16939155757427216,-0.16612842679023743,-0.0705951452255249,-0.022000424563884735,0.030168529599905014,0.0602705180644989
0.8,0.1976463347673416,0.024687938392162323,0.0,0.6640899181365967,0.0,0.0,-0.7476527094841003,0.2648790180683136,-0.24165427684783936,0.0,0.0,0.0,2.2797629833221436,0.465640664100647,0.7106936573982239,0.42000001668930054,0.7351295948028564,1.00635963917739e-06,-4.220693881507032e-06,-0.6779265403747559,0.00027540919836610556,-0.000249571749009192,-9.80838667601347e-05,0.0037009348161518574,0.002543611451983452,7.717392145423219e-05,0.4771273732185364,0.7899330258369446,0.558344841003418,-1.0046555995941162,0.15348400175571442,-0.2577472925186157,0.4737946093082428,0.724227249622345,0.42000001668930054,-0.5684695839881897,0.7479996085166931,-1.461977243423462,-3.0000009536743164,-0.17686238884925842,-0.172337144613266,-0.1690077781677246,-0.1647142618894577,-0.0998033806681633,-0.032762859016656876,0.05178356543183327,0.12335459142923355
0.8166666666666667,0.2035018652677536,0.018931424245238304,0.0,0.6610640287399292,0.0,0.0,-0.7503294944763184,0.3896063566207886,-0.401485413312912,0.0,0.0,0.0,-1.3930302858352661,0.4656406342983246,0.7106936573982239,0.42000001668930054,0.7351295948028564,1.0708675972637138e-06,-4.196362624497851e-06,-0.6779264807701111,0.0002749317791312933,-0.00024793160264380276,-9.835674427449703e-05,0.003666538977995515,0.0025304376613348722,7.474914309568703e-05,0.4609590768814087,0.7899554371833801,0.551822304725647,-0.8886051774024963,-0.15740710496902466,-0.3422168493270874,0.4737946093082428,0.724227249622345,0.42000001668930054,-0.5949358940124512,-3.0000011920928955,-1.4233592748641968,2.999999761581421,-0.17962513864040375,-0.17371724545955658,-0.16861002147197723,-0.16267402470111847,-0.16070425510406494,-0.06995415687561035,0.048766449093818665,0.16313029825687408
0.8333333333333334,0.21212786436080933,0.01306533720344305,0.0,0.6364597082138062,0.0,0.0,-0.7713099718093872,0.5671131610870361,-0.3678020238876343,0.0,0.0,0.0,-4.815802574157715,0.4656406342983246,0.7106936573982239,0.42000001668930054,0.7351297736167908,1.0496459026398952e-06,-3.91991670767311e-06,-0.6779263615608215,0.00027528053033165634,-0.0002485431614331901,-9.834091179072857e-05,0.003679023589938879,0.0025376547127962112,7.540354272350669e-05,0.4536105990409851,0.7855201959609985,0.5503836870193481,0.02905437909066677,-0.34581857919692993,0.2944408357143402,0.4737946093082428,0.724227249622345,0.42000001668930054,-0.6340482234954834,-1.7663434743881226,-1.4410767555236816,-2.9999916553497314,-0.1847221404314041,-0.17715728282928467,-0.16991190612316132,-0.16188958287239075,-0.316299706697464,-0.22645850479602814,-0.10649717599153519,0.012748165056109428
0.85,0.22301726043224335,0.010004942305386066,0.0,0.6264486312866211,0.0,0.0,-0.7794626951217651,0.679558515548706,-0.13701650500297546,0.0,0.0,0.0,-0.46993473172187805,0.4656406342983246,0.7106936573982239,0.42000001668930054,0.7351296544075012,9.56037638388807e-07,-4.230124432069715e-06,-0.6779264807701111,0.00027558612055145204,-0.00024971511447802186,-9.815813973546028e-05,0.003703407244756818,0.0025455886498093605,7.717333210166544e-05,0.45483511686325073,0.7826865911483765,0.5562162399291992,0.12279237806797028,-0.03330929949879646,0.3861090838909149,0.4737946093082428,0.724227249622345,0.42000001668930054,-0.6345003247261047,1.4332996606826782,-1.4910874366760254,-3.000000238418579,-0.18868421018123627,-0.18050263822078705,-0.1721554845571518,-0.16302141547203064,-0.10296033322811127,-0.12091553211212158,-0.11169847846031189,-0.10086596757173538
0.8666666666666667,0.23104533553123474,0.002566529903560877,0.0,0.6408805251121521,0.0,0.0,-0.7676406502723694,0.4219729006290436,-0.4743276536464691,0.0,0.0,0.0,2.9376914501190186,0.4656406342983246,0.7106936573982239,0.42000001668930054,0.7351295351982117,1.129036945712869e-06,-4.088356490683509e-06,-0.6779265999794006,0.0002751904830802232,-0.0002488971222192049,-9.816698729991913e-05,0.003686925396323204,0.002538457280024886,7.623995770700276e-05,0.4563907980918884,0.7803583145141602,0.5586957931518555,0.005833521485328674,-0.355926513671875,-0.07039841264486313,0.4737946093082428,0.724227249622345,0.42000001668930054,-0.6283683776855469,-0.5336108207702637,-1.452378749847412,2.999999523162842,-0.18703524768352509,-0.17919616401195526,-0.1707785278558731,-0.16155356168746948,0.004817448556423187,0.025786031037569046,0.06560635566711426,0.1018441766500473
0.8833333333333333,0.23538053035736084,-0.0002548404154367745,0.0,0.6419212818145752,0.0,0.0,-0.7667705416679382,0.20088422298431396,-0.14997051656246185,0.0,0.0,0.0,-0.6980351805686951,0.465640664100647,0.7106936573982239,0.42000001668930054,0.7351296544075012,1.1422247325754142e-06,-4.181040822004434e-06,-0.6779264211654663,0.00027558114379644394,-0.0002489358012098819,-9.840261191129684e-05,0.003686384065076709,0.0025418514851480722,7.570996240247041e-05,0.4605521261692047,0.7735030055046082,0.5553856492042542,0.5527099370956421,-0.3349980413913727,-0.20518872141838074,0.4737946093082428,0.724227249622345,0.42000001668930054,-0.6285815238952637,0.4259536862373352,-1.4023247957229614,3.000000476837158,-0.18979045748710632,-0.18140335381031036,-0.1721525341272354,-0.16215430200099945,-0.026438288390636444,-0.03752589598298073,-0.028421569615602493,-0.016804084181785583
