vladlanda/robotic-transformer/data/env_000_episode_0152.csv
sim_time_s,robot_box_x,robot_box_y,robot_box_z,robot_box_quat_w,robot_box_quat_x,robot_box_quat_y,robot_box_quat_z,robot_box_linvel_x,robot_box_linvel_y,robot_box_linvel_z,robot_box_angvel_x,robot_box_angvel_y,robot_box_angvel_z,cube_world_x,cube_world_y,cube_world_z,cube_quat_w,cube_quat_x,cube_quat_y,cube_quat_z,cube_linvel_x,cube_linvel_y,cube_linvel_z,cube_angvel_x,cube_angvel_y,cube_angvel_z,endpoint_world_x,endpoint_world_y,endpoint_world_z,endpoint_linvel_x,endpoint_linvel_y,endpoint_linvel_z,target_cube_world_x,target_cube_world_y,target_cube_world_z,gripper_actual_pos_rad_gp_leftgearjoint,gripper_actual_vel_rad_s_gp_leftgearjoint,gripper_actual_pos_rad_gp_rotatingjoint,gripper_actual_vel_rad_s_gp_rotatingjoint,motor_angle_rad_joint1,motor_angle_rad_joint2,motor_angle_rad_joint3,motor_angle_rad_joint4,motor_speed_rad_s_joint1,motor_speed_rad_s_joint2,motor_speed_rad_s_joint3,motor_speed_rad_s_joint4
0.0,0.0,0.0,0.0,1.0,0.0,0.0,0.0,0.0,0.0,0.0,0.0,0.0,0.0,-0.3242358863353729,0.6316957473754883,0.41999998688697815,1.0,0.0,0.0,0.0,0.0,0.0,0.0,0.0,0.0,0.0,3.42540442943573e-06,-0.005000244826078415,1.313499927520752,0.0,0.0,0.0,0.4370375871658325,0.7539207339286804,0.42000001668930054,-1.5707999467849731,0.0,0.0,0.0,0.0,0.0,0.0,0.0,0.0,0.0,0.0,0.0
0.016666666666666666,0.0028705147560685873,0.002155391266569495,0.0,0.9998267292976379,0.0,0.0,-0.018615972250699997,0.23915457725524902,0.18012145161628723,0.0,0.0,0.0,-3.14595365524292,-0.3242360055446625,0.6316954493522644,0.41999998688697815,1.0,3.2799914606584935e-06,-8.339814598912199e-07,8.465387679734704e-08,-1.9833554688375443e-05,0.00017983050202019513,-6.133061833679676e-05,0.0009432226070202887,-0.004689437802881002,-0.0003198152990080416,-0.006981030106544495,0.004099514335393906,1.315926432609558,-0.7935999631881714,1.0449047088623047,0.17921315133571625,0.4370375871658325,0.7539207339286804,0.42000001668930054,-1.5301092863082886,3.0000007152557373,-0.04587056487798691,-3.000000238418579,0.0008643264300189912,0.0007910167332738638,0.0007055812748149037,0.0006059235893189907,0.11035768687725067,0.09692264348268509,0.08262615650892258,0.06743139028549194
0.03333333333333333,0.008870191872119904,0.006735366303473711,0.0,0.9998125433921814,0.0,0.0,-0.019362013787031174,0.4025064706802368,0.3139296770095825,0.0,0.0,0.0,0.862388014793396,-0.324236124753952,0.6316953897476196,0.4200000464916229,1.0,3.39090593115543e-06,-2.1324372028175276e-06,-3.7106541839193596e-08,0.0002635782293509692,0.0002693790593184531,-0.00010509486310184002,-0.0017707175575196743,0.004130743443965912,-0.00013547750131692737,-0.02643745392560959,0.025125475600361824,1.3168649673461914,-1.4747297763824463,1.5134249925613403,-0.04469769448041916,0.4370375871658325,0.7539207339286804,0.42000001668930054,-1.4800899028778076,3.0000014305114746,-0.09591034799814224,-3.0000007152557373,0.0029180122073739767,0.002575174206867814,0.002194590400904417,0.001772941555827856,0.15875841677188873,0.13410520553588867,0.10796523839235306,0.0802435427904129
0.05,0.017521217465400696,0.013534684665501118,0.0,0.9994068145751953,0.0,0.0,-0.034438490867614746,0.581393301486969,0.4505656957626343,0.0,0.0,0.0,-2.6407735347747803,-0.3242361545562744,0.6316954493522644,0.4200000464916229,1.0,3.765230758290272e-06,-2.211922264905297e-06,5.6083799826467384e-09,0.0002653090050444007,0.00026691501261666417,-0.00010440615005791187,-0.00172435212880373,0.0041774665005505085,-0.0001294955873163417,-0.054461520165205,0.05596816539764404,1.3125958442687988,-1.8484597206115723,2.1466426849365234,-0.43913838267326355,0.4370375871658325,0.7539207339286804,0.42000001668930054,-1.4300715923309326,2.999999523162842,-0.1459134817123413,-2.999999523162842,0.005425257608294487,0.004578873515129089,0.003660714952275157,0.0026660144794732332,0.172791987657547,0.1314413845539093,0.0882342979311943,0.04307352378964424
0.06666666666666667,0.029688507318496704,0.022794604301452637,0.0,0.9972370266914368,0.0,0.0,-0.07428496330976486,0.7901078462600708,0.6006383299827576,0.0,0.0,0.0,-5.868756294250488,-0.3242361545562744,0.6316953897476196,0.4200000464916229,0.9999999403953552,3.406835730856983e-06,-2.2856456780573353e-06,4.3008122929677484e-07,0.0002670265967026353,0.0002679176104720682,-0.0001043803058564663,-0.0017406701808795333,0.004211854189634323,-0.0001285061298403889,-0.08683013916015625,0.09540028870105743,1.3018571138381958,-1.9860219955444336,2.5587100982666016,-0.8291770815849304,0.4370375871658325,0.7539207339286804,0.42000001668930054,-1.3800451755523682,2.999997854232788,-0.11314190924167633,3.0000009536743164,0.008030097931623459,0.00642321677878499,0.004705756437033415,0.0028720609843730927,0.15783976018428802,0.10376598685979843,0.04764166101813316,-0.010591033846139908
0.08333333333333333,0.04482882097363472,0.033742308616638184,0.0,0.9953578114509583,0.0,0.0,-0.0962432324886322,0.9421408772468567,0.7293758392333984,0.0,0.0,0.0,-1.6486608982086182,-0.3242361545562744,0.6316953897476196,0.4200000464916229,1.0,3.6973383430449758e-06,-2.188984808526584e-06,-2.6323331780986337e-07,0.0002638960722833872,0.0002658652374520898,-0.00010433932766318321,-0.0017081378027796745,0.00415008282288909,-0.0001299151626881212,-0.12248948961496353,0.13395072519779205,1.2875230312347412,-2.0911288261413574,2.358454704284668,-0.9033476114273071,0.4370375871658325,0.7539207339286804,0.42000001668930054,-1.3300374746322632,3.0000009536743164,-0.14512071013450623,-3.0,0.009323935955762863,0.006694297771900892,0.003913688939064741,0.0009747176663950086,0.025219222530722618,-0.046036362648010254,-0.11946117132902145,-0.19498604536056519
0.1,0.05406159162521362,0.04305575042963028,0.0,0.9911575317382812,0.0,0.0,-0.13269031047821045,0.4275020658969879,0.5003023147583008,0.0,0.0,0.0,-5.336380958557129,-0.3242361545562744,0.6316953897476196,0.4200000464916229,0.9999999403953552,3.6204280604579253e-06,-2.265225475639454e-06,1.7461863421885937e-07,0.00026676725246943533,0.0002674070419743657,-0.00010408065281808376,-0.0017385295359417796,0.004209065344184637,-0.00012775739014614373,-0.15509167313575745,0.17744630575180054,1.26938796043396,-1.7761285305023193,2.9123101234436035,-1.2087291479110718,0.4370375871658325,0.7539207339286804,0.42000001668930054,-1.280011773109436,2.9999983310699463,-0.1116100624203682,3.000001907348633,0.0039195166900753975,0.00043065447243861854,-0.003260574536398053,-0.0071632289327681065,-0.4391537308692932,-0.4940560758113861,-0.5514634847640991,-0.6115102171897888
0.11666666666666667,0.06662645190954208,0.055328741669654846,0.0,0.988131046295166,0.0,0.0,-0.1536131501197815,0.8882229328155518,0.8283907771110535,0.0,0.0,0.0,-1.4064279794692993,-0.3242361545562744,0.6316953897476196,0.4200000464916229,1.0,3.7983741094649304e-06,-2.2627561975241406e-06,-1.5019411137018324e-07,0.00026374030858278275,0.00026566023007035255,-0.00010428880341351032,-0.001705368747934699,0.004147524479776621,-0.00012980001338291913,-0.19014973938465118,0.22235199809074402,1.243884563446045,-2.2335100173950195,2.7369179725646973,-1.8051880598068237,0.4370375871658325,0.7539207339286804,0.42000001668930054,-1.2300169467926025,3.0000009536743164,-0.14360696077346802,-2.9999992847442627,-0.0009694811888039112,-0.005544770509004593,-0.010330804623663425,-0.01533893309533596,-0.23688383400440216,-0.30341637134552,-0.3692508637905121,-0.43454262614250183
0.13333333333333333,0.07783828675746918,0.06421799957752228,0.0,0.9832885265350342,0.0,0.0,-0.18205389380455017,0.6570738554000854,0.44180741906166077,0.0,0.0,0.0,-4.191311359405518,-0.3242361545562744,0.6316954493522644,0.4200000464916229,0.9999999403953552,3.550490419002017e-06,-2.2297924715530826e-06,2.9292351655385573e-07,0.0002670329122338444,0.0002677924057934433,-0.00010416773147881031,-0.001743975793942809,0.004213578533381224,-0.0001280030410271138,-0.22624120116233826,0.27235177159309387,1.2118136882781982,-2.003086566925049,3.2535228729248047,-2.0771446228027344,0.4370375871658325,0.7539207339286804,0.42000001668930054,-1.1800005435943604,2.9999990463256836,-0.15544992685317993,1.2247583866119385,-0.0058532957918941975,-0.011711036786437035,-0.017745796591043472,-0.02396821789443493,-0.2556265890598297,-0.3443620502948761,-0.42980000376701355,-0.5118312835693359
0.15,0.08648493140935898,0.06913979351520538,0.0,0.9718132615089417,0.0,0.0,-0.23575198650360107,0.4655248522758484,0.23949040472507477,0.0,0.0,0.0,-7.44154167175293,-0.3242361545562744,0.6316953897476196,0.4200000464916229,0.9999999403953552,3.338063152114046e-06,-2.2428623651649104e-06,-2.8019764286568716e-08,0.00026674510445445776,0.0002675803261809051,-0.00010427739471197128,-0.0017366883112117648,0.0042068189941346645,-0.00012831240019295365,-0.2569895386695862,0.3337497413158417,1.1701741218566895,-1.6305344104766846,4.008309841156006,-2.872282028198242,0.4370375871658325,0.7539207339286804,0.42000001668930054,-1.1300008296966553,2.9999990463256836,-0.19645752012729645,-2.999999523162842,-0.011448811739683151,-0.01859435811638832,-0.025852467864751816,-0.03323400765657425,-0.39662882685661316,-0.459504634141922,-0.5185306668281555,-0.57381272315979
0.16666666666666666,0.0962032675743103,0.07510308176279068,0.0,0.9632388353347778,0.0,0.0,-0.2686464190483093,0.6465778946876526,0.40343132615089417,0.0,0.0,0.0,-2.9721662998199463,-0.3242361545562744,0.6316954493522644,0.4200000464916229,0.9999999403953552,3.6477927096711937e-06,-2.3072821022651624e-06,3.5273473031338654e-08,0.00026726932264864445,0.0002680143225006759,-0.00010418728925287724,-0.001747259870171547,0.004217622336000204,-0.00012798597163055092,-0.2878929376602173,0.3959488868713379,1.1137840747833252,-1.6139726638793945,3.8503098487854004,-3.819380521774292,0.4370375871658325,0.7539207339286804,0.42000001668930054,-1.0799977779388428,2.999999523162842,-0.24647384881973267,-2.9999990463256836,-0.020636415109038353,-0.028226671740412712,-0.03588679060339928,-0.04363321512937546,-0.6325268745422363,-0.6362046599388123,-0.6381800174713135,-0.6388999223709106
0.18333333333333332,0.10464733093976974,0.07936502993106842,0.0,0.950253963470459,0.0,0.0,-0.3114762604236603,0.4531005918979645,0.19853810966014862,0.0,0.0,0.0,-6.2238874435424805,-0.3242361545562744,0.6316953897476196,0.4200000464916229,0.9999999403953552,3.290506583653041e-06,-2.193882892242982e-06,-2.792363034131995e-07,0.000266780611127615,0.00026776042068377137,-0.0001043418888002634,-0.0017391631845384836,0.0042070988565683365,-0.00012845758465118706,-0.312407910823822,0.46099209785461426,1.041639804840088,-1.1404941082000732,3.9539475440979004,-4.736080169677734,0.4370375871658325,0.7539207339286804,0.42000001668930054,-1.029987096786499,2.9999988079071045,-0.2965002954006195,-2.999999761581421,-0.033298615366220474,-0.040625229477882385,-0.048001330345869064,-0.055453792214393616,-0.8208886981010437,-0.7925211787223816,-0.7633565664291382,-0.7340584993362427
0.2,0.10885810106992722,0.08511144667863846,0.0,0.9430208206176758,0.0,0.0,-0.33273380994796753,0.17638088762760162,0.3969250023365021,0.0,0.0,0.0,-1.5497523546218872,-0.3242361545562744,0.6316953897476196,0.4200000464916229,1.0,3.2807513434818247e-06,-2.219149109805585e-06,1.594698204598899e-07,0.0002662786573637277,0.000267401133896783,-0.00010424992069602013,-0.0017357232281938195,0.004197727423161268,-0.00012864978634752333,-0.3339611291885376,0.5175908207893372,0.9575954079627991,-1.0159708261489868,3.1407086849212646,-5.325863838195801,0.4370375871658325,0.7539207339286804,0.42000001668930054,-0.9799768328666687,3.000000238418579,-0.34652838110923767,-2.9999985694885254,-0.04910245165228844,-0.05587795749306679,-0.062439437955617905,-0.06908060610294342,-0.9797795414924622,-0.9568082690238953,-0.9004824161529541,-0.8445755243301392
0.21666666666666667,0.11652626097202301,0.08924248814582825,0.0,0.9304627180099487,0.0,0.0,-0.36638668179512024,0.4882625341415405,0.16170497238636017,0.0,0.0,0.0,-5.121509552001953,-0.3242361545562744,0.6316954493522644,0.4200000464916229,1.0,3.613105945987627e-06,-2.2700548925058683e-06,2.2101254160133976e-07,0.0002671255497261882,0.00026781795895658433,-0.00010414235293865204,-0.0017445943085476756,0.004215254448354244,-0.000127866180264391,-0.3484875559806824,0.5680980682373047,0.8624403476715088,-0.5986944437026978,2.7476701736450195,-5.974970817565918,0.4370375871658325,0.7539207339286804,0.42000001668930054,-0.929966151714325,2.9999992847442627,-0.39655861258506775,-3.000000476837158,-0.06423678994178772,-0.07082606852054596,-0.07644790410995483,-0.08217503130435944,-0.9825270175933838,-0.9658234715461731,-0.8963000774383545,-0.829561710357666
0.23333333333333334,0.1205931231379509,0.09589777141809464,0.0,0.9243934750556946,0.0,0.0,-0.38144025206565857,0.18766221404075623,0.4233194589614868,0.0,0.0,0.0,-0.8471719026565552,-0.3242361545562744,0.6316953897476196,0.4200000464916229,1.0,3.3818123483797535e-06,-2.29084980674088e-06,2.7279790515422064e-07,0.0002669129753485322,0.00026779924519360065,-0.00010433141142129898,-0.0017395684262737632,0.004209680482745171,-0.00012843731383327395,-0.3584620952606201,0.6013407707214355,0.7612791061401367,-0.41422203183174133,1.5426135063171387,-6.10728645324707,0.4370375871658325,0.7539207339286804,0.42000001668930054,-0.8799554705619812,2.9999983310699463,-0.44658946990966797,-3.000000238418579,-0.07981334626674652,-0.08646693825721741,-0.0921967476606369,-0.09803234785795212,-0.9322465658187866,-0.9361897110939026,-0.942335307598114,-0.9466848969459534
0.25,0.12167326360940933,0.09940055757761002,0.0,0.9140009880065918,0.0,0.0,-0.40571191906929016,-0.0008430329617112875,0.1673966497182846,0.0,0.0,0.0,-4.189816951751709,-0.324236124753952,0.6316953897476196,0.4200000464916229,0.9999999403953552,3.7065203741804e-06,-2.2228459783946164e-06,-2.255132756090461e-07,0.00026424904353916645,0.0002665679494384676,-0.00010457634925842285,-0.0017169411294162273,0.004155544564127922,-0.00013062905054539442,-0.36167943477630615,0.6225249767303467,0.6556310057640076,0.18714496493339539,0.8170274496078491,-6.384747505187988,0.4370375871658325,0.7539207339286804,0.42000001668930054,-0.8299455642700195,3.0000014305114746,-0.49662017822265625,-2.999999523162842,-0.09643741697072983,-0.10299418121576309,-0.10866552591323853,-0.11444322019815445,-1.0007200241088867,-1.0005419254302979,-1.000405192375183,-1.0002974271774292
0.26666666666666666,0.11969854682683945,0.10008851438760757,0.0,0.910636842250824,0.0,0.0,-0.41320765018463135,-0.1533961147069931,-0.0001434980658814311,0.0,0.0,0.0,-0.010863704606890678,-0.3242361545562744,0.6316953897476196,0.4200000464916229,0.9999999403953552,3.7195993627392454e-06,-2.40332542489341e-06,-1.8308921312382154e-07,0.00026623232406564057,0.00026729132514446974,-0.00010425853542983532,-0.0017326984088867903,0.004196567460894585,-0.000128512445371598,-0.3597204387187958,0.6284608244895935,0.5558791160583496,0.27992111444473267,-0.11820904910564423,-5.634644508361816,0.4370375871658325,0.7539207339286804,0.42000001668930054,-0.7799367904663086,3.0000009536743164,-0.5466495156288147,-3.0000007152557373,-0.11377624422311783,-0.12016697227954865,-0.12571439146995544,-0.13139593601226807,-1.0075644254684448,-1.0057090520858765,-1.0042924880981445,-1.0031617879867554
0.2833333333333333,0.1152568981051445,0.09823951125144958,0.0,0.9043156504631042,0.0,0.0,-0.4268644154071808,-0.3183515965938568,-0.1590569019317627,0.0,0.0,0.0,-2.950718879699707,-0.3242361545562744,0.6316954493522644,0.4200000464916229,0.9999999403953552,3.5840330383507535e-06,-2.31531180361344e-06,7.403321689025688e-08,0.0002652195980772376,0.0002645523054525256,-0.00010317121632397175,-0.0017020339146256447,0.004185074009001255,-0.00012500229058787227,-0.35085994005203247,0.6286004781723022,0.4658375382423401,0.8270128965377808,-0.0270533449947834,-5.040885925292969,0.4370375871658325,0.7539207339286804,0.42000001668930054,-0.7299286127090454,3.0000014305114746,-0.5966765284538269,-3.000000238418579,-0.1313462108373642,-0.13754695653915405,-0.14295130968093872,-0.14851967990398407,-1.0203981399536133,-1.0154728889465332,-1.0117013454437256,-1.0086735486984253
0.3,0.10859065502882004,0.0940338596701622,0.0,0.9045161008834839,0.0,0.0,-0.42643940448760986,-0.43783074617385864,-0.2956228256225586,0.0,0.0,0.0,0.9418774247169495,-0.3242344856262207,0.6316956281661987,0.4199999272823334,1.0,3.9363767427857965e-06,1.6937869077082723e-05,1.8453166603649152e-06,-0.0010774238035082817,0.0005962139694020152,-0.0004975639749318361,-0.020846210420131683,-0.01140964962542057,-0.006642664782702923,-0.3442234992980957,0.6307656764984131,0.4235002398490906,0.1662057489156723,-0.06473492085933685,-0.3381739556789398,0.4370375871658325,0.7539207339286804,0.42000001668930054,-0.6799647808074951,2.999814987182617,-0.6470777988433838,-3.0011558532714844,-0.14367727935314178,-0.1498485654592514,-0.15513618290424347,-0.1604551076889038,-0.41581007838249207,-0.4249890148639679,-0.42293477058410645,-0.4039213955402374
0.31666666666666665,0.0998404249548912,0.0874602198600769,0.0,0.9058706164360046,0.0,0.0,-0.4235544800758362,-0.5619874596595764,-0.43586084246635437,0.0,0.0,0.0,0.12062403559684753,-0.3242361545562744,0.6316953897476196,0.4200000464916229,0.9999999403953552,3.938725512853125e-06,-2.777450617941213e-06,2.1222764701178676e-07,0.0002970026107504964,0.0002719504409469664,-0.00010792468674480915,-0.0015786561416462064,0.004811782389879227,-0.0001011108688544482,-0.34057867527008057,0.6371397972106934,0.41952115297317505,0.3709920644760132,0.610858678817749,-0.1979365050792694,0.4370375871658325,0.7539207339286804,0.42000001668930054,-0.6299574375152588,2.9999618530273438,-0.6971608996391296,-2.9999966621398926,-0.15102897584438324,-0.15697602927684784,-0.1618102490901947,-0.16633784770965576,-0.4386407434940338,-0.4110931158065796,-0.36948102712631226,-0.30642169713974
0.3333333333333333,0.08892512321472168,0.07864488661289215,0.0,0.9151044487953186,0.0,0.0,-0.4032168686389923,-0.704830527305603,-0.5678555369377136,0.0,0.0,0.0,3.6319234371185303,-0.3213532567024231,0.6375755071640015,0.4200000464916229,0.996573269367218,6.992289058871393e-07,4.3113668652949855e-06,-0.08271367847919464,0.20113207399845123,0.42148733139038086,-3.265494524384849e-05,0.0016683333087712526,-0.00013912546273786575,-11.857220649719238,-0.3382977545261383,0.6459843516349792,0.4188005328178406,-0.06688247621059418,0.4682691693305969,-0.012696526944637299,0.4370375871658325,0.7539207339286804,0.42000001668930054,-0.579902172088623,2.9998648166656494,-0.7471635341644287,-2.999974489212036,-0.15865962207317352,-0.16379521787166595,-0.1675419807434082,-0.1705814152956009,-0.39793509244918823,-0.3510878086090088,-0.2860085964202881,-0.19458319246768951
0.35,0.081111840903759,0.0671117901802063,0.0,0.9172067046165466,0.0,0.0,-0.39841169118881226,-0.3787503242492676,-0.7405834794044495,0.0,0.0,0.0,-0.34265729784965515,-0.31817877292633057,0.6441593170166016,0.4200363755226135,0.990293025970459,-0.0009235862526111305,0.00010711476352298632,-0.13899217545986176,0.21741794049739838,0.4270876944065094,0.02440345473587513,-1.1825716495513916,0.3032114505767822,-0.6483808755874634,-0.335618257522583,0.6529892086982727,0.4194842576980591,0.341564416885376,0.4000248908996582,0.06990428268909454,0.4370375871658325,0.7539207339286804,0.42000001668930054,-0.5298842191696167,2.9998581409454346,-0.7971753478050232,-2.9999775886535645,-0.16633126139640808,-0.1698094606399536,-0.17153896391391754,-0.17208905518054962,-0.47335338592529297,-0.33779099583625793,-0.17976447939872742,0.006585078313946724
0.36666666666666664,0.07130628824234009,0.05404170975089073,0.0,0.9066416025161743,0.0,0.0,-0.42190173268318176,-0.6652224659919739,-0.8096078634262085,0.0,0.0,0.0,-4.03988790512085,-0.31117239594459534,0.654853343963623,0.420965313911438,0.9860306978225708,-0.024244192987680435,0.0037426191847771406,-0.16474728286266327,0.6387113332748413,0.8728538751602173,0.09283052384853363,-4.535293102264404,1.3648624420166016,-5.645622253417969,-0.32595163583755493,0.6624076962471008,0.4210238456726074,0.809985876083374,0.7995103001594543,0.12454131245613098,0.4370375871658325,0.7539207339286804,0.42000001668930054,-0.4798365831375122,3.000000238418579,-0.8471869230270386,-2.999976396560669,-0.1760811060667038,-0.1767037808895111,-0.17520053684711456,-0.1720651239156723,-0.5491665005683899,-0.37046244740486145,-0.16915687918663025,0.05872097611427307
0.3833333333333333,0.0644514411687851,0.0380871556699276,0.0,0.8824356198310852,0.0,0.0,-0.47043314576148987,-0.36283326148986816,-1.0021607875823975,0.0,0.0,0.0,-7.312137126922607,-0.29301685094833374,0.6765895485877991,0.42254433035850525,0.9740980863571167,-0.060747042298316956,0.00879813451319933,-0.21763575077056885,1.4716784954071045,1.6707704067230225,0.06280789524316788,2.3166840076446533,-4.159980773925781,-5.222412586212158,-0.30397433042526245,0.6820369958877563,0.42337048053741455,1.8282982110977173,1.510608196258545,0.28166061639785767,0.4370375871658325,0.7539207339286804,0.42000001668930054,-0.4298142194747925,3.0000007152557373,-0.8972054719924927,-3.0,-0.1834457665681839,-0.18126697838306427,-0.1765800267457962,-0.16982221603393555,-0.44034910202026367,-0.26773935556411743,-0.07577193528413773,0.13810746371746063
0.4,0.05971688777208328,0.02688228338956833,0.0,0.841835081577301,0.0,0.0,-0.5397348403930664,-0.23895983397960663,-0.5549530982971191,0.0,0.0,0.0,-10.451119422912598,-0.23657941818237305,0.7074090838432312,0.42723074555397034,0.9637491106987,-0.009725729003548622,-0.03581489250063896,-0.2642163336277008,4.727674961090088,1.8893089294433594,0.4198528528213501,5.391402721405029,-4.3860368728637695,13.136615753173828,-0.24681934714317322,0.7154327630996704,0.42677778005599976,4.613618850708008,2.5708136558532715,0.30218982696533203,0.4370375871658325,0.7539207339286804,0.42000001668930054,-0.38887956738471985,2.1364874839782715,-0.8603537678718567,2.999203681945801,-0.19786357879638672,-0.1915268898010254,-0.18209730088710785,-0.17059174180030823,-0.8892849683761597,-0.6746252775192261,-0.3917325437068939,-0.1192685067653656
0.4166666666666667,0.058359432965517044,0.018512586131691933,0.0,0.783122718334198,0.0,0.0,-0.6218671798706055,-0.02002311311662197,-0.467510461807251,0.0,0.0,0.0,-12.86782169342041,-0.13894982635974884,0.7513512372970581,0.43309760093688965,0.934823215007782,0.03210347890853882,-0.07180070877075195,-0.3462938666343689,7.028903961181641,2.676912784576416,0.5507052540779114,7.54066276550293,-4.942749977111816,9.812267303466797,-0.14789843559265137,0.7610797882080078,0.4323863983154297,7.085902690887451,2.939927577972412,0.4230135977268219,0.4370375871658325,0.7539207339286804,0.42000001668930054,-0.36893197894096375,0.6079118251800537,-0.8717202544212341,-2.99880313873291,-0.20860645174980164,-0.2015385925769806,-0.18820132315158844,-0.17305123805999756,-0.5673488974571228,-0.5297861099243164,-0.3427355885505676,-0.17724795639514923
0.43333333333333335,0.06008249148726463,0.013635179027915001,0.0,0.7320588827133179,0.0,0.0,-0.6812413334846497,0.15373289585113525,-0.23092174530029297,0.0,0.0,0.0,-8.284071922302246,-0.025180835276842117,0.787002682685852,0.4413534700870514,0.8899915814399719,0.09712521731853485,-0.10882920771837234,-0.4320160746574402,6.953741550445557,0.8499732613563538,0.5392401218414307,10.10636043548584,-16.467735290527344,21.925613403320312,-0.032778576016426086,0.799502432346344,0.4404837191104889,6.886418342590332,1.6917452812194824,0.5669101476669312,0.4370375871658325,0.7539207339286804,0.42000001668930054,-0.3581465482711792,0.6535463333129883,-0.8347679376602173,2.9969234466552734,-0.22163128852844238,-0.21237418055534363,-0.1951902061700821,-0.17677229642868042,-0.7805159091949463,-0.6250098347663879,-0.40670379996299744,-0.22745373845100403
0.45,0.06014854460954666,0.013024434447288513,0.0,0.7037267088890076,0.0,0.0,-0.7104707956314087,-0.0024511993397027254,-0.022757545113563538,0.0,0.0,0.0,-3.593641757965088,0.08481721580028534,0.8040078282356262,0.45023706555366516,0.8260869383811951,0.1175282672047615,-0.11419390887022018,-0.5391913056373596,6.306879043579102,-0.42795053124427795,0.3862464129924774,-8.227948188781738,-16.961355209350586,26.531665802001953,0.07727184891700745,0.8190382719039917,0.44842901825904846,6.5334391593933105,0.7095792293548584,0.5735594034194946,0.4370375871658325,0.7539207339286804,0.42000001668930054,-0.34696078300476074,0.5347961187362671,-0.860962986946106,-3.000004291534424,-0.23511210083961487,-0.22392553091049194,-0.20304396748542786,-0.18165341019630432,-0.700569212436676,-0.5950977802276611,-0.4172127842903137,-0.2795630991458893
0.4666666666666667,0.06206994131207466,0.014521145261824131,0.0,0.7007419466972351,0.0,0.0,-0.7134148478507996,0.15039318799972534,0.15710996091365814,0.0,0.0,0.0,0.3586522340774536,0.18057313561439514,0.80600506067276,0.4541999101638794,0.772697925567627,0.10875629633665085,-0.11035412549972534,-0.6155744194984436,5.1415815353393555,-1.4667587280273438,0.0837467685341835,-12.868025779724121,-12.243898391723633,24.805622100830078,0.17638155817985535,0.8223477005958557,0.4535742402076721,5.566826820373535,-0.32005611062049866,0.28769034147262573,0.4370375871658325,0.7539207339286804,0.42000001668930054,-0.3400905132293701,0.21243183314800262,-0.9109885096549988,-3.000002384185791,-0.24003449082374573,-0.23395103216171265,-0.21028278768062592,-0.1866316944360733,-0.04896529018878937,-0.5784111618995667,-0.4218764901161194,-0.29019802808761597
0.48333333333333334,0.06780650466680527,0.01033291220664978,0.0,0.6863442659378052,0.0,0.0,-0.7272768020629883,0.4187292456626892,-0.39199569821357727,0.0,0.0,0.0,-3.417506456375122,0.2663136124610901,0.7973747849464417,0.45298925042152405,0.67466139793396,0.0958544909954071,-0.11446762084960938,-0.7228699326515198,4.202515602111816,-1.8317261934280396,-0.2794996500015259,-20.548656463623047,-9.924820899963379,38.811256408691406,0.26164084672927856,0.8147350549697876,0.45260363817214966,5.0652618408203125,-0.7449746131896973,-0.0961073786020279,0.4370375871658325,0.7539207339286804,0.42000001668930054,-0.33790674805641174,-0.10747221112251282,-0.9610125422477722,-3.0000030994415283,-0.2341841459274292,-0.2363465279340744,-0.2119455486536026,-0.18776699900627136,0.42016568779945374,0.02184903249144554,0.026582323014736176,0.02157401666045189
0.5,0.07466927915811539,0.008518803864717484,0.0,0.6839221715927124,0.0,0.0,-0.7295549511909485,0.4427218735218048,0.004443641286343336,0.0,0.0,0.0,0.5342187285423279,0.33762234449386597,0.7826841473579407,0.4473194479942322,0.6225237846374512,0.08098514378070831,-0.11435387283563614,-0.769953727722168,3.5730409622192383,-1.441023588180542,-0.4279420077800751,-4.254476070404053,-0.35970160365104675,8.583014488220215,0.334514319896698,0.7988451719284058,0.4474119544029236,3.985856533050537,-1.1532683372497559,-0.3608046770095825,0.4370375871658325,0.7539207339286804,0.42000001668930054,-0.337048202753067,0.2377011924982071,-1.0110361576080322,-2.999998092651367,-0.2296890765428543,-0.23665153980255127,-0.21249397099018097,-0.18875478208065033,0.21055999398231506,0.00781700387597084,-0.033544812351465225,-0.0870981365442276
0.5166666666666666,0.0827585831284523,0.011970655992627144,0.0,0.6709800958633423,0.0,0.0,-0.7414753437042236,0.5674212574958801,0.17138902842998505,0.0,0.0,0.0,-2.9626362323760986,0.39415204524993896,0.7680955529212952,0.4344876706600189,0.5690535306930542,0.07148589193820953,-0.11444787681102753,-0.8111532330513,2.9134795665740967,-0.9769206047058105,-1.0029271841049194,-3.1535236835479736,-1.822191596031189,-2.547398805618286,0.3903123140335083,0.7824890613555908,0.43546420335769653,2.9523942470550537,-0.9248842597007751,-0.9036381244659424,0.4370375871658325,0.7539207339286804,0.42000001668930054,-0.32541966438293457,1.237242579460144,-1.0610582828521729,-2.9999990463256836,-0.2256430983543396,-0.23540805280208588,-0.21289567649364471,-0.1908711940050125,0.39137864112854004,0.2357356995344162,0.07264835387468338,-0.08560535311698914
0.5333333333333333,0.08867136389017105,0.011710857972502708,0.0,0.6707942485809326,0.0,0.0,-0.741643488407135,0.254631370306015,-0.07720768451690674,0.0,0.0,0.0,0.8562086820602417,0.42799079418182373,0.7544466257095337,0.4251989424228668,0.5461463332176208,0.02638254687190056,-0.10763534158468246,-0.8303267955780029,1.234192967414856,-1.5530823469161987,0.09184472262859344,-6.339389324188232,6.381295680999756,9.912176132202148,0.4249337315559387,0.7683658599853516,0.42905667424201965,1.3915536403656006,-0.7795745730400085,-0.19815483689308167,0.4370375871658325,0.7539207339286804,0.42000001668930054,-0.2993869185447693,1.4174121618270874,-1.1111772060394287,-2.987046241760254,-0.2213149070739746,-0.23195171356201172,-0.2116289883852005,-0.19174908101558685,0.13050749897956848,0.15845894813537598,0.046156302094459534,-0.06643573939800262
0.55,0.09508181363344193,0.015700681135058403,0.0,0.6593440175056458,0.0,0.0,-0.7518413662910461,0.3855167031288147,0.2765461802482605,0.0,0.0,0.0,-2.760558605194092,0.44267481565475464,0.7468121647834778,0.4233367145061493,0.5539394617080688,0.016797415912151337,-0.06629422307014465,-0.8297432065010071,0.4764978289604187,-1.0891962051391602,0.16981524229049683,-9.079792022705078,4.736445426940918,23.36693000793457,0.4394838213920593,0.7596468925476074,0.4276868999004364,0.38776421546936035,-0.19259727001190186,0.034497059881687164,0.4370375871658325,0.7539207339286804,0.42000001668930054,-0.2845055162906647,0.2970922887325287,-1.1611995697021484,-3.000002384185791,-0.2199956327676773,-0.2298583984375,-0.2117711752653122,-0.19401679933071136,0.21240395307540894,0.2501911222934723,0.07721948623657227,-0.08112915605306625
0.5666666666666667,0.10311664640903473,0.01521023828536272,0.0,0.6598663926124573,0.0,0.0,-0.7513829469680786,0.5172427296638489,-0.050318360328674316,0.0,0.0,0.0,0.9586938619613647,0.447809100151062,0.7420955300331116,0.4222772419452667,0.5709835290908813,-0.013998981565237045,-0.03882987052202225,-0.8199231028556824,0.07161756604909897,-0.3047894537448883,-0.13690389692783356,2.514634132385254,7.418666839599609,0.5511881709098816,0.4428015947341919,0.7547808885574341,0.4261632561683655,-0.03517913073301315,-0.3668898344039917,-0.3064596652984619,0.4370375871658325,0.7539207339286804,0.42000001668930054,-0.31886929273605347,-3.0000014305114746,-1.211221694946289,-2.9999842643737793,-0.21339517831802368,-0.2225845903158188,-0.20775744318962097,-0.19298981130123138,0.2963390052318573,0.38321393728256226,0.21145862340927124,0.051480669528245926
0.5833333333333334,0.1125679761171341,0.017787892371416092,0.0,0.6685729026794434,0.0,0.0,-0.7436466217041016,0.617006778717041,0.19739440083503723,0.0,0.0,0.0,1.6116607189178467,0.44808071851730347,0.7384179830551147,0.42000699043273926,0.5723157525062561,0.0001126550487242639,-0.00017365266103297472,-0.8200333118438721,0.012430518865585327,-0.12367641925811768,-0.0006594843580387533,-0.030023323372006416,0.010568357072770596,0.36369022727012634,0.44262269139289856,0.7523849606513977,0.42357882857322693,0.07357087731361389,0.08977024257183075,0.17960132658481598,0.4370375871658325,0.7539207339286804,0.42000001668930054,-0.35643261671066284,-1.615004062652588,-1.2611398696899414,-2.998347759246826,-0.2084735929965973,-0.21638517081737518,-0.20463597774505615,-0.19264106452465057,0.4158812165260315,0.46387195587158203,0.25235500931739807,0.06614174693822861
0.6,0.11948053538799286,0.016636177897453308,0.0,0.6618061661720276,0.0,0.0,-0.7496749758720398,0.3305951952934265,-0.12965048849582672,0.0,0.0,0.0,-1.961987853050232,0.44785207509994507,0.7375394105911255,0.4199998378753662,0.5846334099769592,-3.7398092445073416e-06,-2.0287488950998522e-05,-0.8112974762916565,-0.06034591421484947,-0.020530937239527702,-0.00033382183755747974,0.04418431222438812,0.007627538871020079,5.742776870727539,0.441470742225647,0.755130410194397,0.4269207715988159,-0.198211669921875,0.13850796222686768,0.2252030372619629,0.4370375871658325,0.7539207339286804,0.42000001668930054,-0.4037645757198334,-2.9999985694885254,-1.3111077547073364,-2.9991331100463867,-0.19896258413791656,-0.20634733140468597,-0.19833435118198395,-0.18963703513145447,0.5245853066444397,0.5783833265304565,0.37876033782958984,0.20091408491134644
0.6166666666666667,0.12722302973270416,0.019581085070967674,0.0,0.6670601963996887,0.0,0.0,-0.7450038194656372,0.48099058866500854,0.1673254370689392,0.0,0.0,0.0,1.664721965789795,0.44587892293930054,0.7374691367149353,0.4200957715511322,0.5966973304748535,0.0014020232483744621,-0.0018796810181811452,-0.8024629354476929,-0.15516245365142822,0.015677815303206444,-0.00011044368147850037,-0.04958128184080124,-0.17785806953907013,-0.23628990352153778,0.43741440773010254,0.7564288377761841,0.43029412627220154,-0.2020900398492813,0.1870371699333191,0.18303029239177704,0.4370375871658325,0.7539207339286804,0.42000001668930054,-0.45377543568611145,-3.0000011920928955,-1.3611259460449219,-2.9999985694885254,-0.19459322094917297,-0.20049349963665009,-0.1951148808002472,-0.18880686163902283,0.35855093598365784,0.4059084355831146,0.22093351185321808,0.053001534193754196
0.6333333333333333,0.13653241097927094,0.017937984317541122,0.0,0.6640651822090149,0.0,0.0,-0.7476746439933777,0.581352949142456,-0.10793527960777283,0.0,0.0,0.0,-1.7141259908676147,0.44408348202705383,0.7376720905303955,0.42000001668930054,0.5984271168708801,2.082195123875863e-06,2.0009058516734513e-06,-0.8011772036552429,-0.0740908533334732,0.006110402289777994,-5.854376286151819e-05,-0.0028866659849882126,0.0013321662554517388,-0.35435453057289124,0.4358239769935608,0.7606721520423889,0.43373170495033264,-0.07027333229780197,0.15951456129550934,0.2716785967350006,0.4370375871658325,0.7539207339286804,0.42000001668930054,-0.5038127303123474,-2.9999947547912598,-1.411097764968872,-2.9995663166046143,-0.18593600392341614,-0.19127105176448822,-0.18879106640815735,-0.18498803675174713,0.3909532427787781,0.4692147672176361,0.35778743028640747,0.26842010021209717
0.65,0.14763212203979492,0.013613274320960045,0.0,0.638681173324585,0.0,0.0,-0.7694714665412903,0.7026697993278503,-0.36034783720970154,0.0,0.0,0.0,-4.894016742706299,0.44379112124443054,0.7376959919929504,0.42000022530555725,0.5979466438293457,-1.4765982086828444e-05,7.657334208488464e-06,-0.8015359044075012,-0.0021440463606268167,0.00010932947770925239,-0.00046930377720855176,-0.0031843436881899834,-0.030307823792099953,0.00729159964248538,0.4369000792503357,0.7637031078338623,0.4444015920162201,0.2742668390274048,0.16866013407707214,1.1140775680541992,0.4370375871658325,0.7539207339286804,0.42000001668930054,-0.5538260340690613,-2.9999613761901855,-1.461116075515747,-2.9999992847442627,-0.1821126937866211,-0.18581010401248932,-0.18452291190624237,-0.18157179653644562,0.13959430158138275,0.24979329109191895,0.2084808349609375,0.1857929229736328
0.6666666666666666,0.16198016703128815,0.013464261777698994,0.0,0.6260669231414795,0.0,0.0,-0.7797693610191345,0.8278781771659851,0.05348232761025429,0.0,0.0,0.0,-0.9460746049880981,0.44378963112831116,0.7376962900161743,0.41999998688697815,0.5979481339454651,-2.825614728863002e-06,-4.548292963590939e-06,-0.8015348315238953,5.063838034402579e-05,-0.000375771545805037,-0.00010469299741089344,0.008898845873773098,-0.002944029401987791,-0.0005909464089199901,0.4410145580768585,0.7677699327468872,0.46913599967956543,0.2489357590675354,0.4600244164466858,1.8039209842681885,0.4370375871658325,0.7539207339286804,0.42000001668930054,-0.6024254560470581,-2.8110411167144775,-1.511134386062622,-3.000000476837158,-0.18504175543785095,-0.1864272654056549,-0.18510884046554565,-0.18194518983364105,-0.09241770207881927,-0.007194255478680134,-0.03833604231476784,-0.056496262550354004
0.6833333333333333,0.17245613038539886,0.01468424592167139,0.0,0.6375076770782471,0.0,0.0,-0.7704440355300903,0.555921733379364,0.11700403690338135,0.0,0.0,0.0,2.6358323097229004,0.44378963112831116,0.7376962304115295,0.41999998688697815,0.5979483723640442,-2.5522692794766044e-06,-4.477125912671909e-06,-0.8015345335006714,4.915634053759277e-05,-0.00036070626811124384,-9.982148185372353e-05,0.008562651462852955,-0.002842719666659832,-0.000569028896279633,0.4498685598373413,0.7749361395835876,0.49271780252456665,0.6087009906768799,0.38065120577812195,1.1357710361480713,0.4370375871658325,0.7539207339286804,0.42000001668930054,-0.6254326105117798,-0.1649489402770996,-1.561152696609497,-3.000000476837158,-0.1841152012348175,-0.18447162210941315,-0.18365705013275146,-0.18071134388446808,0.09995266795158386,0.16744080185890198,0.1595408022403717,0.16683556139469147
0.7,0.17835088074207306,0.011731453239917755,0.0,0.6364194750785828,0.0,0.0,-0.7713431715965271,0.31038275361061096,-0.21889935433864594,0.0,0.0,0.0,-1.172752857208252,0.44378963112831116,0.7376962304115295,0.41999998688697815,0.597948431968689,-2.866967406589538e-06,-4.677463039115537e-06,-0.8015345335006714,4.813974373973906e-05,-0.00036104870378039777,-0.00010019424371421337,0.008570004254579544,-0.0028565307147800922,-0.0005672395345754921,0.4601175785064697,0.7797456979751587,0.5068091154098511,0.6018965244293213,0.10944210737943649,0.7000551819801331,0.4370375871658325,0.7539207339286804,0.42000001668930054,-0.6605632901191711,-3.000000238418579,-1.522255301475525,2.999999761581421,-0.17996762692928314,-0.1796102523803711,-0.17916660010814667,-0.17645025253295898,0.1418181210756302,0.20753717422485352,0.21423682570457458,0.21900689601898193
0.7166666666666667,0.18676164746284485,0.013875593431293964,0.0,0.6469502449035645,0.0,0.0,-0.7625322341918945,0.4391326308250427,0.15044112503528595,0.0,0.0,0.0,2.464545965194702,0.44378963112831116,0.7376962304115295,0.41999998688697815,0.5979483127593994,-2.7460253022582037e-06,-4.522806648310507e-06,-0.8015346527099609,4.82707291666884e-05,-0.00036093153175897896,-0.00010012323036789894,0.008567404001951218,-0.0028545225504785776,-0.000567388313356787,0.47043436765670776,0.7801060676574707,0.5215643644332886,0.6421236991882324,0.1714346557855606,1.076704502105713,0.4370375871658325,0.7539207339286804,0.42000001668930054,-0.6918252110481262,-0.91062992811203,-1.5379632711410522,-3.0,-0.18262508511543274,-0.1804286241531372,-0.17896489799022675,-0.1753683239221573,-0.013080357573926449,0.04617839306592941,0.07352007925510406,0.09776876121759415
0.7333333333333333,0.1907617747783661,0.011783591471612453,0.0,0.6454823613166809,0.0,0.0,-0.7637751698493958,0.1694888174533844,-0.16094505786895752,0.0,0.0,0.0,-1.1881935596466064,0.44378963112831116,0.7376962304115295,0.41999998688697815,0.5979482531547546,-2.7486205453897128e-06,-4.719711796496995e-06,-0.8015345931053162,4.978403740096837e-05,-0.00036121270386502147,-9.973254054784775e-05,0.008577914908528328,-0.0028414104599505663,-0.0005709458491764963,0.48242586851119995,0.7805739641189575,0.5348024964332581,0.7522611618041992,-0.21327772736549377,0.662522554397583,0.4370375871658325,0.7539207339286804,0.42000001668930054,-0.723124623298645,-2.6663758754730225,-1.4992350339889526,3.0,-0.18125759065151215,-0.1780841052532196,-0.1759660691022873,-0.17175957560539246,-0.046297475695610046,0.05100928246974945,0.13664862513542175,0.21574358642101288
0.75,0.19574517011642456,0.013355392031371593,0.0,0.6367186903953552,0.0,0.0,-0.7710961699485779,0.3210567533969879,0.10366618633270264,0.0,0.0,0.0,-1.4570542573928833,0.44378963112831116,0.7376962304115295,0.41999998688697815,0.5979481935501099,-2.648711188157904e-06,-4.461230219021672e-06,-0.8015347123146057,4.839357643504627e-05,-0.0003610796993598342,-0.00010011577978730202,0.008571747690439224,-0.0028546242974698544,-0.0005678166053257883,0.4943503439426422,0.7782622575759888,0.5495935082435608,0.7506563067436218,-0.00762513279914856,1.1601228713989258,0.4370375871658325,0.7539207339286804,0.42000001668930054,-0.7418798804283142,0.18503440916538239,-1.5154248476028442,-2.999999761581421,-0.18394865095615387,-0.1792849898338318,-0.1757008582353592,-0.17011526226997375,-0.03833277150988579,0.004052696283906698,0.05690230429172516,0.10982779413461685
0.7666666666666666,0.19818106293678284,0.01057708915323019,0.0,0.6443294882774353,0.0,0.0,-0.7647479772567749,0.07313525676727295,-0.20601698756217957,0.0,0.0,0.0,1.8859325647354126,0.44378963112831116,0.7376962304115295,0.41999998688697815,0.5979483723640442,-2.8328145162959117e-06,-4.830902526009595e-06,-0.8015345931053162,4.792727850144729e-05,-0.000360916368663311,-0.00010022986680269241,0.00856595579534769,-0.0028562990482896566,-0.0005665735807269812,0.5062368512153625,0.7771046161651611,0.5698453187942505,0.6271767616271973,-0.14434748888015747,1.3234641551971436,0.4370375871658325,0.7539207339286804,0.42000001668930054,-0.7330371141433716,0.8123219013214111,-1.479415774345398,3.000000238418579,-0.1830451339483261,-0.17773550748825073,-0.1732752025127411,-0.16685722768306732,-0.01948542520403862,0.03634783998131752,0.10712053626775742,0.17105239629745483
0.7833333333333333,0.19735457003116608,0.01208631694316864,0.0,0.6672573089599609,0.0,0.0,-0.7448272705078125,-0.07365111261606216,0.12483961880207062,0.0,0.0,0.0,4.565133094787598,0.44378963112831116,0.7376962304115295,0.41999998688697815,0.5979482531547546,-2.7328890155331464e-06,-4.488753802434076e-06,-0.8015345931053162,4.807329241884872e-05,-0.00036083240411244333,-0.00010015955194830894,0.008564340882003307,-0.002854757010936737,-0.0005668100784532726,0.5140028595924377,0.7705956101417542,0.5923779606819153,0.3974040746688843,-0.4697527289390564,1.406036376953125,0.4370375871658325,0.7539207339286804,0.42000001668930054,-0.7219750285148621,0.5289396047592163,-1.4959734678268433,-3.0,-0.18695054948329926,-0.18003495037555695,-0.17372147738933563,-0.16564509272575378,-0.13363608717918396,-0.0646616742014885,0.024466997012495995,0.10479779541492462
0.8,0.19819827377796173,0.010217075236141682,0.0,0.6765896677970886,0.0,0.0,-0.7363602519035339,0.047454945743083954,-0.13847701251506805,0.0,0.0,0.0,0.38169974088668823,0.44378963112831116,0.7376962304115295,0.41999998688697815,0.5979481339454651,-2.703555082916864e-06,-4.47989168606e-06,-0.8015347719192505,4.888665716862306e-05,-0.0003613264125306159,-9.990832768380642e-05,0.008582629263401031,-0.002850045682862401,-0.000568800198379904,0.5159327983856201,0.766874372959137,0.610532283782959,-0.13348332047462463,-0.13767537474632263,0.8301481008529663,0.4370375871658325,0.7539207339286804,0.42000001668930054,-0.7076629400253296,1.126322865486145,-1.4572670459747314,2.9999992847442627,-0.18569980561733246,-0.17838627099990845,-0.1713327020406723,-0.16265493631362915,0.11163725703954697,0.12566086649894714,0.15753041207790375,0.17820103466510773
0.8166666666666667,0.1969473510980606,0.01089367177337408,0.0,0.6939546465873718,0.0,0.0,-0.720018744468689,-0.11245977878570557,0.09488244354724884,0.0,0.0,0.0,3.5526323318481445,0.44378963112831116,0.7376962304115295,0.41999998688697815,0.597948431968689,-2.758800974334008e-06,-4.676101070799632e-06,-0.8015345931053162,4.9692393076838925e-05,-0.00036117344279773533,-9.975326247513294e-05,0.008576560765504837,-0.002841806737706065,-0.0005707007367163897,0.5136615037918091,0.7618805170059204,0.6268996596336365,-0.11208799481391907,-0.33840692043304443,1.1574196815490723,0.4370375871658325,0.7539207339286804,0.42000001668930054,-0.6910876035690308,0.8686678409576416,-1.4072449207305908,2.999999523162842,-0.18448972702026367,-0.17695346474647522,-0.16933245956897736,-0.16023890674114227,0.1317964792251587,0.12238498777151108,0.13743966817855835,0.14758388698101044
0.8333333333333334,0.19697509706020355,0.009572717361152172,0.0,0.6972665786743164,0.0,0.0,-0.7168118953704834,0.05377967655658722,-0.13933321833610535,0.0,0.0,0.0,-0.4064413011074066,0.44378963112831116,0.7376962304115295,0.41999998688697815,0.5979482531547546,-2.7334717742633075e-06,-4.527011242316803e-06,-0.8015345931053162,4.8181078454945236e-05,-0.0003609321138355881,-0.00010015163570642471,0.008567276410758495,-0.0028546329122036695,-0.0005671561812050641,0.5101349949836731,0.7598065137863159,0.6427907347679138,-0.31034037470817566,-0.07966821640729904,0.8504056930541992,0.4370375871658325,0.7539207339286804,0.42000001668930054,-0.6821903586387634,0.2482222616672516,-1.3571884632110596,3.0000007152557373,-0.18130959570407867,-0.17433665692806244,-0.16689394414424896,-0.1580585241317749,0.20232810080051422,0.16287004947662354,0.14280666410923004,0.11570378392934799
0.85,0.1973799467086792,0.010544192977249622,0.0,0.7098531126976013,0.0,0.0,-0.7043497562408447,-0.0037694263737648726,0.12438564002513885,0.0,0.0,0.0,2.809302568435669,0.44378963112831116,0.7376962304115295,0.41999998688697815,0.5979481935501099,-2.731032736846828e-06,-4.605732556228759e-06,-0.8015346527099609,4.878108302364126e-05,-0.0003613233857322484,-0.00010004010982811451,0.008579373359680176,-0.0028529486153274775,-0.0005688985693268478,0.5071583986282349,0.7555364966392517,0.656252384185791,-0.010924644768238068,-0.28520655632019043,0.8366844058036804,0.4370375871658325,0.7539207339286804,0.42000001668930054,-0.6567196249961853,2.5827670097351074,-1.3071701526641846,2.9999992847442627,-0.1790493279695511,-0.1724518984556198,-0.16505581140518188,-0.1563640534877777,0.18716059625148773,0.15363910794258118,0.141938254237175,0.12824727594852448
