vladlanda/robotic-transformer/data/env_000_episode_0021.csv
sim_time_s,robot_box_x,robot_box_y,robot_box_z,robot_box_quat_w,robot_box_quat_x,robot_box_quat_y,robot_box_quat_z,robot_box_linvel_x,robot_box_linvel_y,robot_box_linvel_z,robot_box_angvel_x,robot_box_angvel_y,robot_box_angvel_z,cube_world_x,cube_world_y,cube_world_z,cube_quat_w,cube_quat_x,cube_quat_y,cube_quat_z,cube_linvel_x,cube_linvel_y,cube_linvel_z,cube_angvel_x,cube_angvel_y,cube_angvel_z,endpoint_world_x,endpoint_world_y,endpoint_world_z,endpoint_linvel_x,endpoint_linvel_y,endpoint_linvel_z,target_cube_world_x,target_cube_world_y,target_cube_world_z,gripper_actual_pos_rad_gp_leftgearjoint,gripper_actual_vel_rad_s_gp_leftgearjoint,gripper_actual_pos_rad_gp_rotatingjoint,gripper_actual_vel_rad_s_gp_rotatingjoint,motor_angle_rad_joint1,motor_angle_rad_joint2,motor_angle_rad_joint3,motor_angle_rad_joint4,motor_speed_rad_s_joint1,motor_speed_rad_s_joint2,motor_speed_rad_s_joint3,motor_speed_rad_s_joint4
0.0,0.0,0.0,0.0,1.0,0.0,0.0,0.0,0.0,0.0,0.0,0.0,0.0,0.0,-0.3984670042991638,0.742148220539093,0.41999998688697815,1.0,0.0,0.0,0.0,0.0,0.0,0.0,0.0,0.0,0.0,3.42540442943573e-06,-0.005000244826078415,1.313499927520752,0.0,0.0,0.0,0.4790722131729126,0.7634564638137817,0.42000001668930054,-1.5707999467849731,0.0,0.0,0.0,0.0,0.0,0.0,0.0,0.0,0.0,0.0,0.0
0.016666666666666666,0.002878465224057436,0.0021800317335873842,0.0,0.9998095631599426,0.0,0.0,0.019516535103321075,0.24088945984840393,0.1823846697807312,0.0,0.0,0.0,3.141855001449585,-0.39846712350845337,0.7421479225158691,0.41999998688697815,1.0,3.279964630564791e-06,-8.339746386809566e-07,8.465587342243452e-08,-1.9833529222523794e-05,0.00017983045836444944,-6.132945418357849e-05,0.0009432713268324733,-0.004689474124461412,-0.00031981561915017664,-0.007109921425580978,0.0033816471695899963,1.3159375190734863,-0.8142746686935425,0.9869369864463806,0.18095369637012482,0.4790722131729126,0.7634564638137817,0.42000001668930054,-1.5301095247268677,2.999999761581421,-0.04584807902574539,-3.000000476837158,0.0008698470774106681,0.0007964042015373707,0.0007110563456080854,0.000610905175562948,0.11093251407146454,0.09757371991872787,0.08334916830062866,0.06824413686990738
0.03333333333333333,0.008961595594882965,0.006801003590226173,0.0,0.9997974634170532,0.0,0.0,0.020126620307564735,0.4070308208465576,0.31528568267822266,0.0,0.0,0.0,-0.8691380023956299,-0.3984672427177429,0.7421478629112244,0.4200000464916229,1.0,3.3908354453160428e-06,-2.1324485715012997e-06,-3.710144014235084e-08,0.00026357831666246057,0.00026937946677207947,-0.00010509486310184002,-0.0017707672668620944,0.004130808170884848,-0.000135478752781637,-0.02755339816212654,0.02630438469350338,1.3165804147720337,-1.5910909175872803,1.6165854930877686,-0.08707930892705917,0.4790722131729126,0.7634564638137817,0.42000001668930054,-1.4800902605056763,3.000002384185791,-0.0958879366517067,-3.0000016689300537,0.0029903901740908623,0.0026525843422859907,0.002277163788676262,0.0018606176599860191,0.1641959398984909,0.13975293934345245,0.1138109639286995,0.08629181981086731
0.05,0.0184714924544096,0.01390165090560913,0.0,0.9999774694442749,0.0,0.0,-0.006715759169310331,0.6362941265106201,0.47234493494033813,0.0,0.0,0.0,-4.0741353034973145,-0.3984672725200653,0.7421479225158691,0.4200000464916229,1.0,3.765139354072744e-06,-2.2119161258160602e-06,5.630195420991413e-09,0.0002653095289133489,0.00026691411039792,-0.00010440382175147533,-0.0017242460744455457,0.004177400842308998,-0.00012949357915204018,-0.05679309368133545,0.05832412838935852,1.3117449283599854,-1.9146864414215088,2.1462106704711914,-0.47720685601234436,0.4790722131729126,0.7634564638137817,0.42000001668930054,-1.4300719499588013,3.000001907348633,-0.14592662453651428,-3.000000238418579,0.005966163706034422,0.00511163892224431,0.0041848658584058285,0.003181446809321642,0.20212683081626892,0.16054901480674744,0.11704558879137039,0.07154805958271027
0.06666666666666667,0.03079480677843094,0.023391876369714737,0.0,0.9998826384544373,0.0,0.0,-0.015320420265197754,0.7727908492088318,0.6162173748016357,0.0,0.0,0.0,-0.03741413354873657,-0.3984672725200653,0.7421478629112244,0.4200000464916229,0.9999999403953552,3.4067325032083318e-06,-2.285616346853203e-06,4.301086846680846e-07,0.0002670263056643307,0.0002679172612261027,-0.00010437914170324802,-0.0017406872939318419,0.004211808554828167,-0.0001285045873373747,-0.09155690670013428,0.09330464899539948,1.301095724105835,-2.125607967376709,2.217285633087158,-0.7879884243011475,0.4790722131729126,0.7634564638137817,0.42000001668930054,-1.3800536394119263,3.00000262260437,-0.19594086706638336,-3.000000238418579,0.008424673229455948,0.006774089299142361,0.005011377390474081,0.003130093216896057,0.12368041276931763,0.0658135861158371,0.005766650661826134,-0.05647449567914009
0.08333333333333333,0.03818671032786369,0.036460209637880325,0.0,0.9992402195930481,0.0,0.0,-0.03897435963153839,0.22788938879966736,0.8777285814285278,0.0,0.0,0.0,-3.807746410369873,-0.3984672725200653,0.7421478629112244,0.4200000464916229,0.9999999403953552,3.626018951763399e-06,-2.335360477445647e-06,3.0324326871777885e-07,0.00026613904628902674,0.00026685016928240657,-0.00010405411012470722,-0.0017283597262576222,0.004196425899863243,-0.00012790990876965225,-0.12295512855052948,0.1350126564502716,1.2853116989135742,-1.6406090259552002,2.7758846282958984,-1.064531683921814,0.4790722131729126,0.7634564638137817,0.42000001668930054,-1.330026626586914,2.999997615814209,-0.16512472927570343,3.000000476837158,0.005040522664785385,0.0025464289356023073,-0.00011194175749551505,-0.002943609608337283,-0.38691437244415283,-0.4423101544380188,-0.5006573796272278,-0.5621834397315979
0.1,0.04709455743432045,0.05188803747296333,0.0,0.9958702921867371,0.0,0.0,-0.09078768640756607,0.7074137926101685,0.9212531447410583,0.0,0.0,0.0,-6.983473777770996,-0.3984672725200653,0.7421478629112244,0.4200000464916229,1.0,3.422117288209847e-06,-2.3086265628080582e-06,1.7964211451726442e-07,0.0002668147499207407,0.0002680043689906597,-0.00010440591722726822,-0.0017430688021704555,0.004207088612020016,-0.0001289069332415238,-0.1493460088968277,0.1827358901500702,1.2685174942016602,-1.5454235076904297,2.9704506397247314,-0.9947178959846497,0.4790722131729126,0.7634564638137817,0.42000001668930054,-1.2800354957580566,3.000002384185791,-0.19684533774852753,-3.000000238418579,0.0014258635928854346,-0.0024702337104827166,-0.006548132747411728,-0.010817250236868858,-0.08543048053979874,-0.1903948187828064,-0.2946292757987976,-0.3980330228805542
0.11666666666666667,0.054885175079107285,0.06864787638187408,0.0,0.9925753474235535,0.0,0.0,-0.12163136899471283,0.4756607711315155,1.0670380592346191,0.0,0.0,0.0,-2.515946388244629,-0.3984672725200653,0.7421479225158691,0.4200000464916229,1.0,3.7115232771611772e-06,-2.332744770683348e-06,2.5743875653461146e-07,0.0002648573135957122,0.0002663538616616279,-0.0001042329240590334,-0.0017182383453473449,0.004170004278421402,-0.00012915604747831821,-0.18131335079669952,0.22930780053138733,1.2512341737747192,-1.9487385749816895,2.996551513671875,-1.0563942193984985,0.4790722131729126,0.7634564638137817,0.42000001668930054,-1.2300169467926025,2.9999890327453613,-0.16303540766239166,3.0,-0.002001267857849598,-0.007553719449788332,-0.013260981068015099,-0.01913115568459034,-0.12451441586017609,-0.24012184143066406,-0.3522445559501648,-0.46066194772720337
0.13333333333333333,0.060792334377765656,0.08372631669044495,0.0,0.9866134524345398,0.0,0.0,-0.16307637095451355,0.3044729232788086,0.8454572558403015,0.0,0.0,0.0,-5.880814075469971,-0.3984672725200653,0.7421478629112244,0.4200000464916229,0.9999999403953552,3.4247721032443224e-06,-2.302058646819205e-06,1.5600532776716136e-07,0.0002670695830602199,0.00026811397401615977,-0.0001044438686221838,-0.0017433526227250695,0.004212038591504097,-0.00012877356493845582,-0.210737407207489,0.28212910890579224,1.2335152626037598,-1.5630552768707275,3.433772563934326,-1.1115365028381348,0.4790722131729126,0.7634564638137817,0.42000001668930054,-1.1817163228988647,2.774268627166748,-0.19475434720516205,-2.999999523162842,-0.004613650031387806,-0.012219695374369621,-0.019906004890799522,-0.02767673134803772,-0.22330421209335327,-0.3421570360660553,-0.45641058683395386,-0.5658478736877441
0.15,0.06287907063961029,0.09909845143556595,0.0,0.9827317595481873,0.0,0.0,-0.1850358545780182,0.047104816883802414,0.9598671793937683,0.0,0.0,0.0,-1.6057047843933105,-0.3984672725200653,0.7421478629112244,0.4200000464916229,1.0,3.7139011510589626e-06,-2.207917759733391e-06,-1.6907199551496888e-07,0.0002635329437907785,0.00026536150835454464,-0.00010421965271234512,-0.0017012760508805513,0.004144118633121252,-0.0001296106056543067,-0.24442517757415771,0.3379940688610077,1.2079182863235474,-2.133225202560425,3.5257158279418945,-1.911231279373169,0.4790722131729126,0.7634564638137817,0.42000001668930054,-1.1513328552246094,1.002463459968567,-0.16531910002231598,2.9999992847442627,-0.009610986337065697,-0.018776267766952515,-0.027934515848755836,-0.0370878130197525,-0.36174827814102173,-0.4296225607395172,-0.4924864172935486,-0.5503365993499756
0.16666666666666666,0.07012452185153961,0.11075197905302048,0.0,0.9751650094985962,0.0,0.0,-0.22147968411445618,0.49489206075668335,0.7041767239570618,0.0,0.0,0.0,-5.096603870391846,-0.3984672725200653,0.7421478629112244,0.4200000464916229,0.9999999403953552,3.6384042232384672e-06,-2.2789229205955053e-06,2.7008715619558643e-07,0.0002668272063601762,0.00026750034885481,-0.00010409974493086338,-0.001739923725835979,0.00421003857627511,-0.00012781501573044807,-0.278045654296875,0.4008525609970093,1.1736040115356445,-1.8275249004364014,4.083099842071533,-2.3567399978637695,0.4790722131729126,0.7634564638137817,0.42000001668930054,-1.1078201532363892,2.9999468326568604,-0.19702653586864471,-2.9998555183410645,-0.011842325329780579,-0.022386791184544563,-0.03282953053712845,-0.043172791600227356,-0.35474804043769836,-0.3972572088241577,-0.4365208148956299,-0.472621887922287
0.18333333333333332,0.07247311621904373,0.1254073977470398,0.0,0.9681530594825745,0.0,0.0,-0.2503591477870941,0.10887664556503296,0.8316754698753357,0.0,0.0,0.0,-2.630549669265747,-0.3984672725200653,0.7421478629112244,0.4200000464916229,1.0,3.386441903785453e-06,-2.3003881324257236e-06,1.4394986180832348e-07,0.00026674504624679685,0.00026787177193909883,-0.00010436959564685822,-0.0017412236193194985,0.004205957055091858,-0.00012878549750894308,-0.31059885025024414,0.4671626687049866,1.1239466667175293,-1.871307373046875,4.1388092041015625,-3.364419460296631,0.4790722131729126,0.7634564638137817,0.42000001668930054,-1.0669565200805664,1.956980586051941,-0.24705509841442108,-3.0,-0.023577814921736717,-0.03424876928329468,-0.04450036585330963,-0.05443211644887924,-0.5895660519599915,-0.6353519558906555,-0.640478253364563,-0.6158000230789185
0.2,0.07798721641302109,0.13915017247200012,0.0,0.9561699628829956,0.0,0.0,-0.2928122878074646,0.3230668008327484,0.8907243013381958,0.0,0.0,0.0,-6.111147880554199,-0.3984672725200653,0.7421479225158691,0.4200000464916229,1.0,3.6755063774762675e-06,-2.326639560124022e-06,2.2115435172054276e-07,0.00026484508998692036,0.0002663136983755976,-0.00010421895422041416,-0.001717768725939095,0.004169930703938007,-0.00012909887300338596,-0.34066492319107056,0.5385235548019409,1.0599815845489502,-1.5720016956329346,4.376913547515869,-4.296298027038574,0.4790722131729126,0.7634564638137817,0.42000001668930054,-1.0189862251281738,2.9999990463256836,-0.29708102345466614,-3.0000009536743164,-0.034084971994161606,-0.04502144455909729,-0.054998818784952164,-0.06426834315061569,-0.8328886032104492,-0.802545428276062,-0.7482773661613464,-0.6776413321495056
0.21666666666666667,0.08026855438947678,0.15093322098255157,0.0,0.9486283659934998,0.0,0.0,-0.31639260053634644,0.09852053225040436,0.6174303889274597,0.0,0.0,0.0,-1.912285566329956,-0.3984672725200653,0.7421478629112244,0.4200000464916229,1.0,3.3222438560187584e-06,-2.2081051156419562e-06,2.74300816727191e-07,0.0002666279615368694,0.00026749621611088514,-0.00010426435619592667,-0.0017357913311570883,0.004204741679131985,-0.00012833758955821395,-0.36727696657180786,0.6043282747268677,0.9793608784675598,-1.3052263259887695,3.8192591667175293,-5.237865447998047,0.4790722131729126,0.7634564638137817,0.42000001668930054,-0.9689792990684509,3.000002145767212,-0.34710782766342163,-2.999999761581421,-0.04948313906788826,-0.060236528515815735,-0.06956055760383606,-0.07698889076709747,-0.9416993260383606,-0.9077081680297852,-0.8539940714836121,-0.740389347076416
0.23333333333333334,0.07859187573194504,0.16396398842334747,0.0,0.9363073110580444,0.0,0.0,-0.3511818051338196,-0.1742839217185974,0.808106541633606,0.0,0.0,0.0,-5.226990699768066,-0.3984672725200653,0.7421478629112244,0.4200000464916229,1.0,3.656482931546634e-06,-2.3735231025057146e-06,-4.0765050357549626e-07,0.00026611628709360957,0.00026726044598035514,-0.00010423432104289532,-0.0017335705924779177,0.004194592125713825,-0.00012855060049332678,-0.3867080807685852,0.6637482643127441,0.8844312429428101,-0.9156256914138794,3.3058605194091797,-5.995462417602539,0.4790722131729126,0.7634564638137817,0.42000001668930054,-0.9189698100090027,3.000000238418579,-0.3971371054649353,-2.999999761581421,-0.06552056968212128,-0.07628709077835083,-0.08558536320924759,-0.09286260604858398,-0.9880408048629761,-0.9818928241729736,-0.9671675562858582,-0.9570193290710449
0.25,0.08124995976686478,0.17195022106170654,0.0,0.9296643733978271,0.0,0.0,-0.36840757727622986,0.15372760593891144,0.4054830074310303,0.0,0.0,0.0,-0.9791316986083984,-0.3984672725200653,0.7421479225158691,0.4200000464916229,1.0,3.6304659261077177e-06,-2.2426834220823366e-06,1.1243809439065444e-08,0.0002668007218744606,0.00026706093922257423,-0.00010391091927886009,-0.0017341827042400837,0.004210536368191242,-0.00012702924141194671,-0.4036690592765808,0.7092748284339905,0.7821649312973022,-0.7584594488143921,2.214792251586914,-6.342992782592773,0.4790722131729126,0.7634564638137817,0.42000001668930054,-0.8689591288566589,3.000000476837158,-0.4471682608127594,-2.999997615814209,-0.07962721586227417,-0.09007348865270615,-0.0989440456032753,-0.10577734559774399,-0.9866834282875061,-0.9830047488212585,-0.9673392176628113,-0.8912763595581055
0.26666666666666666,0.07837871462106705,0.1824793815612793,0.0,0.9334775805473328,0.0,0.0,-0.358635812997818,-0.17577120661735535,0.725989580154419,0.0,0.0,0.0,2.5554556846618652,-0.3984672427177429,0.7421478629112244,0.4200000464916229,0.9999999403953552,3.7401318877527956e-06,-2.2363806237990502e-06,4.4999393367106677e-07,0.00026479564257897437,0.00026673072716221213,-0.00010453932918608189,-0.0017189128557220101,0.004166663624346256,-0.00013017054880037904,-0.4169865548610687,0.7303605079650879,0.6761836409568787,-0.7319632172584534,0.5045931935310364,-6.270209312438965,0.4790722131729126,0.7634564638137817,0.42000001668930054,-0.8189496397972107,2.999870777130127,-0.4971996545791626,-3.0000014305114746,-0.0966818630695343,-0.10696929693222046,-0.11573758721351624,-0.12250722944736481,-0.838043749332428,-0.8698074817657471,-0.9001890420913696,-0.9282471537590027
0.2833333333333333,0.07967430353164673,0.18864645063877106,0.0,0.9328230023384094,0.0,0.0,-0.3603348731994629,0.10829109698534012,0.2651105523109436,0.0,0.0,0.0,-1.0789270401000977,-0.3984672725200653,0.7421478629112244,0.4200000464916229,1.0,3.3915966923814267e-06,-2.2912456643098267e-06,1.2462975007565547e-07,0.0002667733933776617,0.0002678931050468236,-0.0001043747179210186,-0.0017412645975127816,0.004206323996186256,-0.00012878462439402938,-0.42512673139572144,0.7383934259414673,0.5695505142211914,-0.17223607003688812,0.1875210404396057,-6.348789215087891,0.4790722131729126,0.7634564638137817,0.42000001668930054,-0.7689408659934998,2.9999966621398926,-0.5472296476364136,-3.0000009536743164,-0.11099883913993835,-0.12155730277299881,-0.13060790300369263,-0.13766945898532867,-0.9978634715080261,-0.9985935688018799,-0.9992071986198425,-0.9996984004974365
0.3,0.07740777730941772,0.19111798703670502,0.0,0.937344491481781,0.0,0.0,-0.34840402007102966,-0.22453846037387848,0.11245279759168625,0.0,0.0,0.0,2.376600742340088,-0.3984672725200653,0.7421479225158691,0.4200000464916229,1.0,3.680711870401865e-06,-2.3191942091216333e-06,2.0111754395202297e-07,0.0002647892397362739,0.00026625761529430747,-0.00010421173647046089,-0.0017168031772598624,0.0041688899509608746,-0.00012909690849483013,-0.4217917323112488,0.7409723997116089,0.4709646701812744,0.5760345458984375,0.10216920077800751,-5.471359729766846,0.4790722131729126,0.7634564638137817,0.42000001668930054,-0.7189323902130127,3.000002145767212,-0.5972581505775452,-3.0,-0.12907102704048157,-0.1393091082572937,-0.1481190323829651,-0.15499116480350494,-1.0178192853927612,-1.0134824514389038,-1.0101637840270996,-1.0075020790100098
0.31666666666666665,0.07208778709173203,0.19109919667243958,0.0,0.9361472725868225,0.0,0.0,-0.3516080975532532,-0.3089102804660797,-0.06298138946294785,0.0,0.0,0.0,-1.2479459047317505,-0.3983348309993744,0.7417763471603394,0.42027899622917175,0.9999703168869019,0.006856739986687899,0.00013941990619059652,-0.0035032168962061405,0.02456970512866974,-0.022944899275898933,0.017369594424962997,1.08393132686615,-0.2084759622812271,-1.118130087852478,-0.4157651662826538,0.7430776953697205,0.42956864833831787,0.07303861528635025,-0.06295907497406006,-0.16150017082691193,0.4790722131729126,0.7634564638137817,0.42000001668930054,-0.6689274311065674,2.9999866485595703,-0.647721529006958,-3.0023608207702637,-0.13908880949020386,-0.14969046413898468,-0.15866488218307495,-0.16544905304908752,-0.19860053062438965,-0.2364194095134735,-0.2512636184692383,-0.23923112452030182
0.3333333333333333,0.0653034895658493,0.18827198445796967,0.0,0.9402625560760498,0.0,0.0,-0.34045010805130005,-0.454776406288147,-0.2139638066291809,0.0,0.0,0.0,2.26458740234375,-0.3982063829898834,0.7418831586837769,0.4200003445148468,0.9999765753746033,5.073820648249239e-05,-0.00010490197746548802,-0.006843925919383764,0.011007389053702354,0.002464908640831709,-0.0032543863635510206,0.015543916262686253,0.15028855204582214,0.04064951092004776,-0.41638004779815674,0.7492830753326416,0.4268117845058441,0.07578534632921219,0.5470134019851685,-0.18205569684505463,0.4790722131729126,0.7634564638137817,0.42000001668930054,-0.6189206838607788,2.9999866485595703,-0.6977593302726746,-3.0000011920928955,-0.14391560852527618,-0.15447823703289032,-0.16314280033111572,-0.16932156682014465,-0.3398306369781494,-0.31074991822242737,-0.27173730731010437,-0.2230687290430069
0.35,0.05616970360279083,0.1830473393201828,0.0,0.9386338591575623,0.0,0.0,-0.3449152112007141,-0.5915120840072632,-0.35311970114707947,0.0,0.0,0.0,-1.4919990301132202,-0.3951435387134552,0.7467411160469055,0.4200001060962677,0.9983169436454773,-4.6220911826821975e-06,4.27660916102468e-06,-0.057992249727249146,0.17506086826324463,0.27076810598373413,-0.00017723621567711234,0.008554082363843918,-0.0004097626660950482,-5.187399387359619,-0.41349509358406067,0.754142165184021,0.42372891306877136,0.3319658041000366,0.2594612240791321,-0.19092491269111633,0.4790722131729126,0.7634564638137817,0.42000001668930054,-0.568915605545044,2.9999842643737793,-0.747807502746582,-2.999997615814209,-0.15100985765457153,-0.16038653254508972,-0.16772769391536713,-0.17248328030109406,-0.4768877327442169,-0.3696731925010681,-0.2573927342891693,-0.14390887320041656
0.36666666666666664,0.04498583450913429,0.17555227875709534,0.0,0.9422040581703186,0.0,0.0,-0.33503958582878113,-0.721971869468689,-0.4888206422328949,0.0,0.0,0.0,2.203875780105591,-0.3900272250175476,0.7536603212356567,0.42000019550323486,0.9913522601127625,-9.838939149631187e-06,1.6361002053599805e-05,-0.13122721016407013,0.4162588119506836,0.5292591452598572,-0.0005262401537038386,0.029107460752129555,-0.01285626832395792,-11.840670585632324,-0.40572476387023926,0.7615475654602051,0.4208901822566986,0.5841357707977295,0.6104507446289062,-0.12964066863059998,0.4790722131729126,0.7634564638137817,0.42000001668930054,-0.5189107060432434,2.9999802112579346,-0.7978456616401672,-2.999999523162842,-0.15979944169521332,-0.16686958074569702,-0.17182959616184235,-0.17421852052211761,-0.5035560131072998,-0.35503923892974854,-0.20231087505817413,-0.051417600363492966
0.3833333333333333,0.03679085895419121,0.16541017591953278,0.0,0.9404788613319397,0.0,0.0,-0.33985215425491333,-0.4101567268371582,-0.6541191339492798,0.0,0.0,0.0,-1.505211591720581,-0.38323384523391724,0.7621896862983704,0.42014890909194946,0.9794233441352844,-0.0036894711665809155,0.0005842481041327119,-0.20178186893463135,0.5323075652122498,0.6258246898651123,0.052248962223529816,-2.451078414916992,0.9033973813056946,-3.881863594055176,-0.39551985263824463,0.7696755528450012,0.4210317134857178,0.7045745253562927,0.48296189308166504,0.07996335625648499,0.4790722131729126,0.7634564638137817,0.42000001668930054,-0.46885091066360474,2.9999020099639893,-0.8478464484214783,-2.9999794960021973,-0.1686936765909195,-0.172777459025383,-0.174626424908638,-0.17390497028827667,-0.4991768002510071,-0.30568045377731323,-0.10412070155143738,0.09723813086748123
0.4,0.025822127237915993,0.1536533683538437,0.0,0.9280457496643066,0.0,0.0,-0.3724662661552429,-0.6499251127243042,-0.7711652517318726,0.0,0.0,0.0,-5.063580513000488,-0.36856287717819214,0.7755110859870911,0.42202815413475037,0.9707725048065186,-0.02718508243560791,-0.0039391471073031425,-0.2384241819381714,1.1336874961853027,0.9747138619422913,0.07030482590198517,6.3007283210754395,-3.409118413925171,-3.9326887130737305,-0.3797127604484558,0.7821395397186279,0.42272084951400757,1.227057695388794,1.1398316621780396,0.12842677533626556,0.4790722131729126,0.7634564638137817,0.42000001668930054,-0.41879531741142273,2.9196033477783203,-0.8978537917137146,-3.0004818439483643,-0.17909546196460724,-0.17949867248535156,-0.17751699686050415,-0.17297102510929108,-0.42135798931121826,-0.2390604466199875,-0.04324350133538246,0.15741072595119476
0.4166666666666667,0.01880895532667637,0.13853739202022552,0.0,0.9032449722290039,0.0,0.0,-0.42912524938583374,-0.392857164144516,-0.9519678950309753,0.0,0.0,0.0,-8.175687789916992,-0.3395804762840271,0.7989482283592224,0.42567917704582214,0.9540455341339111,-0.03640323132276535,-0.0324213020503521,-0.2956698536872864,2.488568067550659,1.477074146270752,0.20255322754383087,26.440156936645508,-14.807089805603027,13.762722969055176,-0.3498285412788391,0.8069878220558167,0.42535415291786194,2.3754048347473145,1.8144690990447998,0.40848448872566223,0.4790722131729126,0.7634564638137817,0.42000001668930054,-0.3847973346710205,1.0247442722320557,-0.9478762745857239,-3.0,-0.186075359582901,-0.18335063755512238,-0.17802757024765015,-0.17008048295974731,-0.4950375258922577,-0.2844058871269226,-0.06456992030143738,0.15448729693889618
0.43333333333333335,0.013470040634274483,0.12808836996555328,0.0,0.8628698587417603,0.0,0.0,-0.5054261684417725,-0.2767591178417206,-0.5062368512153625,0.0,0.0,0.0,-11.106029510498047,-0.2751801311969757,0.8342047333717346,0.43043410778045654,0.9357112646102905,0.016573816537857056,-0.07352378964424133,-0.3446212708950043,5.402261734008789,2.081742525100708,0.38082319498062134,4.123501300811768,-6.190199851989746,11.861685752868652,-0.28433430194854736,0.843205988407135,0.4297579824924469,5.103979110717773,2.634378433227539,0.3473491072654724,0.4790722131729126,0.7634564638137817,0.42000001668930054,-0.3707910180091858,0.7224646806716919,-0.910673201084137,2.9999985694885254,-0.20078293979167938,-0.19385847449302673,-0.1834312230348587,-0.1707681119441986,-0.9025535583496094,-0.7169517874717712,-0.4102255702018738,-0.1380082368850708
0.45,0.01194524485617876,0.12050481140613556,0.0,0.8044124245643616,0.0,0.0,-0.5940712094306946,-0.027579935267567635,-0.41793015599250793,0.0,0.0,0.0,-13.557819366455078,-0.1713295876979828,0.8766632676124573,0.4360702931880951,0.8927671909332275,0.05141455680131912,-0.10184020549058914,-0.43583443760871887,7.446483135223389,1.8818690776824951,0.4574083387851715,-2.4387600421905518,-5.854382514953613,15.307092666625977,-0.1802476942539215,0.8875582218170166,0.4349491000175476,7.385076522827148,2.7742626667022705,0.4479840397834778,0.4790722131729126,0.7634564638137817,0.42000001668930054,-0.3573843240737915,0.8217717409133911,-0.9365825653076172,-3.000001907348633,-0.21299177408218384,-0.2047642320394516,-0.18975381553173065,-0.1731463074684143,-0.7243272662162781,-0.6258279085159302,-0.37839531898498535,-0.1740528643131256
0.4666666666666667,0.007056218106299639,0.11821146309375763,0.0,0.7517803311347961,0.0,0.0,-0.6594136357307434,-0.24338847398757935,-0.13631196320056915,0.0,0.0,0.0,-8.628387451171875,-0.05335759371519089,0.906475305557251,0.44413214921951294,0.8280571699142456,0.0881548821926117,-0.1091689020395279,-0.5428003668785095,6.971403121948242,0.3268536925315857,0.46164363622665405,-0.08153236657381058,-23.716203689575195,34.7974967956543,-0.06200001388788223,0.9205405712127686,0.44344550371170044,7.185376167297363,1.4230868816375732,0.5337422490119934,0.4790722131729126,0.7634564638137817,0.42000001668930054,-0.3444288969039917,0.6860253214836121,-0.9305100440979004,2.993626594543457,-0.22801585495471954,-0.21916036307811737,-0.19982688128948212,-0.1789616048336029,-0.654197633266449,-0.7059578895568848,-0.5552136301994324,-0.3453576862812042
0.48333333333333334,0.007130100857466459,0.10936600714921951,0.0,0.7200759649276733,0.0,0.0,-0.6938952207565308,-0.0474327877163887,-0.5026453137397766,0.0,0.0,0.0,-4.267387390136719,0.06105329096317291,0.9160085320472717,0.4508820176124573,0.7483145594596863,0.0920761227607727,-0.13742861151695251,-0.6423866152763367,6.88441801071167,-0.3246927857398987,0.42609208822250366,-9.410038948059082,0.9667114019393921,11.218045234680176,0.05224557965993881,0.9342284202575684,0.45142653584480286,6.516846656799316,-0.07549483329057693,0.5627256035804749,0.4790722131729126,0.7634564638137817,0.42000001668930054,-0.33566388487815857,0.23026934266090393,-0.9558001160621643,-3.0000011920928955,-0.23566773533821106,-0.226516455411911,-0.20448103547096252,-0.180195152759552,-0.6916882395744324,-0.5570889711380005,-0.329897403717041,-0.07855820655822754
0.5,0.006066503468900919,0.10624806582927704,0.0,0.7128002047538757,0.0,0.0,-0.7013671398162842,0.024885937571525574,-0.11343390494585037,0.0,0.0,0.0,-0.06677865982055664,0.16063182055950165,0.9046950340270996,0.4563852548599243,0.6651974320411682,0.0749293714761734,-0.10896536707878113,-0.7348635792732239,5.697772026062012,-1.9229867458343506,0.4830207824707031,-8.935218811035156,3.1382102966308594,8.866374969482422,0.15464292466640472,0.9243434071540833,0.45857012271881104,5.533079147338867,-0.9959652423858643,0.2514342665672302,0.4790722131729126,0.7634564638137817,0.42000001668930054,-0.3359881639480591,-0.32393500208854675,-1.0058239698410034,-3.000002384185791,-0.2399185597896576,-0.23966532945632935,-0.21321912109851837,-0.1844169795513153,0.0028862410690635443,-0.6370077133178711,-0.441096693277359,-0.2379419207572937
0.5166666666666666,0.00880296342074871,0.09987253695726395,0.0,0.6976022124290466,0.0,0.0,-0.716485321521759,0.2165520042181015,-0.3779743015766144,0.0,0.0,0.0,-3.298642873764038,0.245686873793602,0.8843532204627991,0.4557931125164032,0.5975841283798218,0.06035028025507927,-0.10285622626543045,-0.7928881049156189,4.795735836029053,-1.7887327671051025,-0.1256926953792572,-4.274653434753418,-1.4570116996765137,-8.27420711517334,0.2417696714401245,0.9033576250076294,0.4586467742919922,4.832220077514648,-1.7190353870391846,-0.16111671924591064,0.4790722131729126,0.7634564638137817,0.42000001668930054,-0.3373786211013794,0.1914202868938446,-1.055846095085144,-3.000000476837158,-0.2384728044271469,-0.23961257934570312,-0.21779654920101166,-0.18661680817604065,-0.03797544166445732,0.03112531267106533,-0.23952794075012207,-0.11530207097530365
0.5333333333333333,0.014214267954230309,0.09790687263011932,0.0,0.6951867938041687,0.0,0.0,-0.7188291549682617,0.34634560346603394,-0.09684279561042786,0.0,0.0,0.0,0.4724487066268921,0.3167557120323181,0.8532373905181885,0.45037731528282166,0.5324933528900146,0.038975201547145844,-0.09815116226673126,-0.8398202657699585,3.735852003097534,-2.0273663997650146,-0.38787949085235596,8.664950370788574,8.49585247039795,-11.214380264282227,0.31488871574401855,0.8710708618164062,0.4538041353225708,4.0051069259643555,-2.083590030670166,-0.45000213384628296,0.4790722131729126,0.7634564638137817,0.42000001668930054,-0.32478809356689453,1.0402908325195312,-1.1058682203292847,-2.9993736743927,-0.23980361223220825,-0.2396804243326187,-0.22229810059070587,-0.18978722393512726,0.07487814128398895,0.1015770211815834,-0.11959172040224075,-0.12945760786533356
0.55,0.02177323028445244,0.09221906214952469,0.0,0.6824102401733398,0.0,0.0,-0.7309693694114685,0.49497249722480774,-0.37241503596305847,0.0,0.0,0.0,-2.916886806488037,0.37454694509506226,0.8220911026000977,0.43763840198516846,0.4849391281604767,0.016613855957984924,-0.0993409976363182,-0.8687285780906677,2.7654266357421875,-2.660775661468506,-0.4440045654773712,5.8954176902771,9.243687629699707,6.083453178405762,0.37447017431259155,0.8400274515151978,0.44210323691368103,3.1144704818725586,-1.8881404399871826,-0.9285987615585327,0.4790722131729126,0.7634564638137817,0.42000001668930054,-0.3099774718284607,0.4456213414669037,-1.1558903455734253,-2.999109983444214,-0.23508800566196442,-0.23490901291370392,-0.22152112424373627,-0.1905919760465622,0.22959408164024353,0.2626633942127228,0.05350055918097496,-0.07640548050403595
0.5666666666666667,0.03166644275188446,0.09024748206138611,0.0,0.6821573376655579,0.0,0.0,-0.731205403804779,0.6158199906349182,-0.07834836840629578,0.0,0.0,0.0,0.8438128232955933,0.417508602142334,0.7915990352630615,0.42244890332221985,0.44771575927734375,-0.0006922311731614172,-0.04247991368174553,-0.8931660652160645,1.9090356826782227,-1.7819709777832031,-0.5226226449012756,17.531774520874023,-6.359779357910156,21.833568572998047,0.41816258430480957,0.8078148365020752,0.42653095722198486,1.900280475616455,-1.5164127349853516,-0.3037833571434021,0.4790722131729126,0.7634564638137817,0.42000001668930054,-0.3074988126754761,0.08550957590341568,-1.205912470817566,-3.0000271797180176,-0.23226779699325562,-0.23144465684890747,-0.2212519645690918,-0.1930759996175766,0.3062669634819031,0.30858856439590454,0.10158972442150116,-0.11410722136497498
0.5833333333333334,0.03881579264998436,0.09125413745641708,0.0,0.6715697050094604,0.0,0.0,-0.7409414052963257,0.368685781955719,0.11196928471326828,0.0,0.0,0.0,-2.6286730766296387,0.44270896911621094,0.7752110958099365,0.420000821352005,0.4338253438472748,-0.0002654508571140468,6.252488674363121e-05,-0.9009968638420105,1.0380730628967285,-1.1584200859069824,0.025488320738077164,-3.621509075164795,-0.3993476629257202,6.939870834350586,0.44275736808776855,0.7900865077972412,0.4245363473892212,1.1168525218963623,-0.7886730432510376,-0.024327315390110016,0.4790722131729126,0.7634564638137817,0.42000001668930054,-0.30304309725761414,0.4255945086479187,-1.255934476852417,-2.98874831199646,-0.22502726316452026,-0.2248840481042862,-0.2184281200170517,-0.19458255171775818,0.504112958908081,0.4511609971523285,0.23219767212867737,-0.05136459693312645
0.6,0.04699503630399704,0.08744149655103683,0.0,0.6730438470840454,0.0,0.0,-0.7396025657653809,0.45759516954421997,-0.2225387841463089,0.0,0.0,0.0,1.1295686960220337,0.4556524455547333,0.7658884525299072,0.42122775316238403,0.44379591941833496,-0.021694030612707138,0.00453041261062026,-0.8958537578582764,0.2818318009376526,-0.6809837818145752,0.3053356111049652,9.464219093322754,12.178004264831543,5.94791841506958,0.4552437663078308,0.7800904512405396,0.4266389012336731,0.4007284641265869,-0.4348766803741455,0.15432210266590118,0.4790722131729126,0.7634564638137817,0.42000001668930054,-0.2914949655532837,0.8156182765960693,-1.305927038192749,-2.993483066558838,-0.2123052477836609,-0.21361994743347168,-0.21107788383960724,-0.19259119033813477,0.6673215627670288,0.6097179055213928,0.4166891276836395,0.11167661845684052
0.6166666666666667,0.056648120284080505,0.08811920136213303,0.0,0.6635264754295349,0.0,0.0,-0.7481527924537659,0.6225820183753967,0.039393410086631775,0.0,0.0,0.0,-2.3956656455993652,0.4627271890640259,0.7631385326385498,0.4203691780567169,0.48329973220825195,-0.005297352094203234,0.0015250151045620441,-0.8754375576972961,0.39734014868736267,-0.13079315423965454,-0.056620288640260696,1.307578682899475,-2.6732325553894043,3.062558889389038,0.46046149730682373,0.7765617370605469,0.4253789186477661,0.34931308031082153,-0.06323708593845367,-0.08763063699007034,0.4790722131729126,0.7634564638137817,0.42000001668930054,-0.3029436767101288,-1.6804437637329102,-1.2677154541015625,3.0010650157928467,-0.20200742781162262,-0.20460061728954315,-0.20526562631130219,-0.19203780591487885,0.7344986796379089,0.6183961033821106,0.40668222308158875,0.06699469685554504
0.6333333333333333,0.06801383942365646,0.0906081348657608,0.0,0.6665551662445068,0.0,0.0,-0.7454556822776794,0.724219799041748,0.25945404171943665,0.0,0.0,0.0,1.3935203552246094,0.4671892523765564,0.7615943551063538,0.42000529170036316,0.5038008689880371,8.49243369884789e-05,-9.12972172955051e-05,-0.8638197183609009,0.16335245966911316,-0.05769914388656616,0.0030680482741445303,-0.13381268084049225,-0.1462281346321106,3.020108461380005,0.46255940198898315,0.7756550312042236,0.42747199535369873,0.04198022559285164,-0.024403749033808708,0.20674645900726318,0.4790722131729126,0.7634564638137817,0.42000001668930054,-0.3502325415611267,-2.9999918937683105,-1.2876659631729126,-2.999279260635376,-0.19005277752876282,-0.19460242986679077,-0.1984986960887909,-0.19067852199077606,0.684856653213501,0.5713850259780884,0.39590829610824585,0.08693432062864304
0.65,0.07965674996376038,0.090263232588768,0.0,0.6587885618209839,0.0,0.0,-0.7523281574249268,0.6850975751876831,-0.04834491014480591,0.0,0.0,0.0,-2.264749526977539,0.46902260184288025,0.7610232830047607,0.4200000464916229,0.5160110592842102,-3.7049633760943834e-07,-3.171231526266638e-07,-0.8565818071365356,0.09364867955446243,-0.02766401506960392,-2.2975727915763855e-06,5.853885886608623e-05,0.00010489809210412204,1.3688735961914062,0.46508246660232544,0.779037594795227,0.43132105469703674,0.08563758432865143,0.2651030421257019,0.2529918849468231,0.4790722131729126,0.7634564638137817,0.42000001668930054,-0.4002385437488556,-2.9999990463256836,-1.3376213312149048,-2.9987409114837646,-0.17561350762844086,-0.1824527233839035,-0.18941693007946014,-0.18682877719402313,0.7530232667922974,0.6492428779602051,0.5080313086509705,0.23564736545085907
0.6666666666666666,0.0929814800620079,0.09292615950107574,0.0,0.6625432968139648,0.0,0.0,-0.7490236163139343,0.8134991526603699,0.22769702970981598,0.0,0.0,0.0,1.4970946311950684,0.4697097837924957,0.7609326243400574,0.419999897480011,0.5220945477485657,-8.655989404360298e-06,1.625752520340029e-05,-0.8528875112533569,0.0187862366437912,-0.0007982707465998828,-0.0003901868185494095,-0.012406372465193272,-0.015925491228699684,0.3197697699069977,0.46566241979599,0.7819836139678955,0.43498146533966064,0.07556595653295517,0.21221449971199036,0.22762413322925568,0.4790722131729126,0.7634564638137817,0.42000001668930054,-0.4502474367618561,-2.999967336654663,-1.387628197669983,-2.999966621398926,-0.16697068512439728,-0.17480838298797607,-0.18326474726200104,-0.1843443512916565,0.5018061399459839,0.43623149394989014,0.35170266032218933,0.14389392733573914
0.6833333333333333,0.10331783443689346,0.0920044481754303,0.0,0.6858500242233276,0.0,0.0,-0.7277429103851318,0.5496516227722168,-0.1162339448928833,0.0,0.0,0.0,4.824877738952637,0.46955642104148865,0.7609460353851318,0.42005273699760437,0.5221953392028809,0.0009322279947809875,-0.0009235217003151774,-0.8528249263763428,-0.0943351686000824,0.01893506944179535,0.030788525938987732,-1.63826584815979,-1.6645145416259766,-1.25090754032135,0.4650253653526306,0.7833636999130249,0.43925321102142334,-0.13665784895420074,-0.021535396575927734,0.27689287066459656,0.4790722131729126,0.7634564638137817,0.42000001668930054,-0.5002310872077942,-2.9987192153930664,-1.4376047849655151,-2.9997103214263916,-0.1590132862329483,-0.16715911030769348,-0.1760888546705246,-0.17957255244255066,0.33592286705970764,0.3733355402946472,0.40686944127082825,0.3301779329776764
0.7,0.11379261314868927,0.0873195230960846,0.0,0.696090579032898,0.0,0.0,-0.7179539203643799,0.6605147123336792,-0.3281348645687103,0.0,0.0,0.0,0.675675094127655,0.46867048740386963,0.7610893845558167,0.4200001657009125,0.5172843933105469,-3.691617678214243e-07,4.424744304287742e-07,-0.8558135628700256,-0.032108813524246216,0.0042405808344483376,-3.324414137750864e-05,-0.0015029635978862643,-0.001541008474305272,-0.4155869781970978,0.4664419889450073,0.78431236743927,0.4445752799510956,0.18458189070224762,0.011942826211452484,0.33340585231781006,0.4790722131729126,0.7634564638137817,0.42000001668930054,-0.5502307415008545,-2.9998745918273926,-1.4876019954681396,-2.9998879432678223,-0.1550976037979126,-0.1619732528924942,-0.16950403153896332,-0.17318622767925262,0.18703119456768036,0.2914031744003296,0.4114994704723358,0.4476514160633087
0.7166666666666667,0.12598368525505066,0.07964786142110825,0.0,0.6843879222869873,0.0,0.0,-0.7291180491447449,0.7646405100822449,-0.5211190581321716,0.0,0.0,0.0,-2.8387091159820557,0.46867018938064575,0.7610897421836853,0.4199999272823334,0.5172847509384155,-1.8291702872375026e-06,-6.561552709172247e-06,-0.8558133244514465,3.7649282603524625e-05,-0.00042778608622029424,-7.46783334761858e-05,0.011934242211282253,-0.005362474825233221,-0.0013420558534562588,0.47534629702568054,0.7869101762771606,0.45738309621810913,0.8213403224945068,0.2237301468849182,1.2797982692718506,0.4790722131729126,0.7634564638137817,0.42000001668930054,-0.600242018699646,-2.99997878074646,-1.5376203060150146,-3.0,-0.15445572137832642,-0.15936560928821564,-0.16459162533283234,-0.16719195246696472,-0.042985111474990845,0.08396154642105103,0.23418140411376953,0.3202507197856903
0.7333333333333333,0.14184245467185974,0.07774464040994644,0.0,0.6504672765731812,0.0,0.0,-0.7595342993736267,1.0288748741149902,0.026119206100702286,0.0,0.0,0.0,-6.492933750152588,0.4686702787876129,0.7610896825790405,0.41999995708465576,0.5172845125198364,-1.8717237253440544e-06,-4.851970516028814e-06,-0.8558135032653809,1.4046853721083608e-05,-0.00035224296152591705,-6.562797352671623e-05,0.009678193368017673,-0.003562076250091195,-0.0010401494801044464,0.4970055818557739,0.7866008877754211,0.4846813678741455,1.8362884521484375,-0.25964635610580444,2.120723247528076,0.4790722131729126,0.7634564638137817,0.42000001668930054,-0.6502526998519897,-2.9998598098754883,-1.5876379013061523,-2.999981164932251,-0.1637835055589676,-0.165054589509964,-0.16630961000919342,-0.16597506403923035,-0.7474231719970703,-0.4935544729232788,-0.22026102244853973,-0.003134045284241438
0.75,0.15481272339820862,0.08158092945814133,0.0,0.628143846988678,0.0,0.0,-0.7780972123146057,0.6723276972770691,-0.0088229700922966,0.0,0.0,0.0,-2.1423757076263428,0.4686702787876129,0.7610896825790405,0.41999995708465576,0.5172847509384155,-1.9404988051974215e-06,-5.25092582392972e-06,-0.8558133840560913,1.65157180163078e-05,-0.0003521173493936658,-6.521469913423061e-05,0.009687873534858227,-0.003590791253373027,-0.0010445527732372284,0.5239449143409729,0.7848796844482422,0.5221391916275024,1.610952615737915,0.13842396438121796,2.281759262084961,0.4790722131729126,0.7634564638137817,0.42000001668930054,-0.6673398017883301,0.6462761163711548,-1.6376523971557617,-2.9999985694885254,-0.1753046065568924,-0.17304448783397675,-0.1705245077610016,-0.16728271543979645,-0.17933174967765808,-0.11671590059995651,-0.03150467574596405,0.02001369558274746
0.7666666666666666,0.1625470370054245,0.08318239450454712,0.0,0.6326376795768738,0.0,0.0,-0.7744479179382324,0.3876824378967285,0.1471371054649353,0.0,0.0,0.0,1.5720938444137573,0.4686702787876129,0.7610896825790405,0.41999995708465576,0.5172845721244812,-1.9798574157903204e-06,-5.240026894171024e-06,-0.8558134436607361,1.3409284292720258e-05,-0.00035219258279539645,-6.530783139169216e-05,0.009687669575214386,-0.0035838501062244177,-0.001037957496009767,0.5451087951660156,0.7870346903800964,0.5547752380371094,0.8385854959487915,0.1731540858745575,1.6880182027816772,0.4790722131729126,0.7634564638137817,0.42000001668930054,-0.6333438158035278,2.999990224838257,-1.6074507236480713,2.9999983310699463,-0.17659489810466766,-0.17361119389533997,-0.17001314461231232,-0.1661505252122879,0.013073483482003212,0.040216393768787384,0.08522693067789078,0.1070866510272026
0.7833333333333333,0.16579078137874603,0.07997182756662369,0.0,0.6258389949798584,0.0,0.0,-0.7799522876739502,0.20049284398555756,-0.216718390583992,0.0,0.0,0.0,-1.7982932329177856,0.4686702787876129,0.7610896825790405,0.41999995708465576,0.5172847509384155,-1.9787664768955437e-06,-5.241653070697794e-06,-0.8558132648468018,1.33340499814949e-05,-0.00035219211713410914,-6.531365215778351e-05,0.009687377139925957,-0.0035832850262522697,-0.001037808251567185,0.5519815683364868,0.7931253910064697,0.5763834118843079,-0.09670573472976685,0.30157753825187683,1.03892183303833,0.4790722131729126,0.7634564638137817,0.42000001668930054,-0.5954981446266174,1.6318645477294922,-1.5573943853378296,2.9999985694885254,-0.17176766693592072,-0.16911596059799194,-0.16558033227920532,-0.16205522418022156,0.1342005431652069,0.14942240715026855,0.173329159617424,0.17877662181854248
0.8,0.16637377440929413,0.0823381319642067,0.0,0.6320745944976807,0.0,0.0,-0.7749075889587402,-0.005295705050230026,0.146126851439476,0.0,0.0,0.0,1.7003414630889893,0.4686702787876129,0.7610896825790405,0.41999995708465576,0.517284631729126,-1.96380574379873e-06,-5.2366194722708315e-06,-0.8558134436607361,1.320499723078683e-05,-0.00035220023710280657,-6.531993858516216e-05,0.009687436744570732,-0.003583034500479698,-0.0010375550482422113,0.544039785861969,0.7966589331626892,0.590955376625061,-0.6731159090995789,0.2972814738750458,0.7350528836250305,0.4790722131729126,0.7634564638137817,0.42000001668930054,-0.5523650646209717,2.99983286857605,-1.5502275228500366,-1.7363269329071045,-0.17403019964694977,-0.17029127478599548,-0.16567084193229675,-0.16143164038658142,0.028457719832658768,0.044815145432949066,0.06227413937449455,0.06510251760482788
0.8166666666666667,0.16478222608566284,0.08098286390304565,0.0,0.6263485550880432,0.0,0.0,-0.7795431613922119,-0.17975524067878723,-0.06848881393671036,0.0,0.0,0.0,-1.5865983963012695,0.4686702787876129,0.7610896825790405,0.41999995708465576,0.517284631729126,-1.9333740510774078e-06,-5.20424919159268e-06,-0.8558133244514465,1.6923404473345727e-05,-0.0003521881008055061,-6.518280133605003e-05,0.009691356681287289,-0.0035950636956840754,-0.0010455844458192587,0.525896430015564,0.8020874261856079,0.5960330963134766,-1.5436487197875977,0.2984093129634857,0.05066903308033943,0.4790722131729126,0.7634564638137817,0.42000001668930054,-0.5339902639389038,-0.5079697966575623,-1.5070058107376099,3.0000007152557373,-0.17225444316864014,-0.1684865802526474,-0.16383059322834015,-0.1597234010696411,0.019192801788449287,0.03983265161514282,0.05764259397983551,0.06599534302949905
0.8333333333333334,0.164621040225029,0.08352485299110413,0.0,0.6334166526794434,0.0,0.0,-0.7738109230995178,0.026020843535661697,0.17045575380325317,0.0,0.0,0.0,1.6149910688400269,0.4686702787876129,0.7610896825790405,0.41999995708465576,0.5172845125198364,-1.930155576701509e-06,-5.403735940490151e-06,-0.8558134436607361,1.3063282494840678e-05,-0.0003522297483868897,-6.53495080769062e-05,0.009687486104667187,-0.003581971162930131,-0.0010372770484536886,0.5039644837379456,0.8060738444328308,0.5966159105300903,-0.9926496744155884,0.36764219403266907,0.036769233644008636,0.4790722131729126,0.7634564638137817,0.42000001668930054,-0.5206604599952698,1.8901135921478271,-1.4941160678863525,-1.1077743768692017,-0.1741877794265747,-0.16985873878002167,-0.1646835207939148,-0.16015030443668365,0.07258051633834839,0.0426761694252491,0.018997840583324432,0.002408608328551054
0.85,0.16650183498859406,0.08241492509841919,0.0,0.6267662644386292,0.0,0.0,-0.7792072892189026,0.1415703445672989,-0.09939170628786087,0.0,0.0,0.0,-1.9223124980926514,0.4686703085899353,0.7610896825790405,0.41999995708465576,0.5172847509384155,-1.785308768376126e-06,-5.124903964315308e-06,-0.8558133244514465,1.3757322449237108e-05,-0.0003521612088661641,-6.527616642415524e-05,0.009687651880085468,-0.00358523684553802,-0.0010385646019130945,0.48732447624206543,0.8115061521530151,0.5935511589050293,-1.0256097316741943,0.1820182204246521,-0.24144893884658813,0.4790722131729126,0.7634564638137817,0.42000001668930054,-0.5341927409172058,-3.0000007152557373,-1.4491662979125977,3.0000011920928955,-0.1712847501039505,-0.16774575412273407,-0.16322267055511475,-0.15913620591163635,0.10849899053573608,0.08269913494586945,0.06308101862668991,0.05563589185476303
0.8666666666666667,0.1705811768770218,0.07905597984790802,0.0,0.631919264793396,0.0,0.0,-0.7750341892242432,0.2906126379966736,-0.2611953318119049,0.0,0.0,0.0,1.6387653350830078,0.4686702787876129,0.7610896825790405,0.41999995708465576,0.5172845721244812,-1.7690930462777033e-06,-5.320159743860131e-06,-0.8558133840560913,1.3268704606161918e-05,-0.00035238824784755707,-6.535020656883717e-05,0.009692806750535965,-0.0035876238252967596,-0.0010383613407611847,0.4780716896057129,0.8132864832878113,0.5910682678222656,-0.12983886897563934,0.09512072801589966,-0.00897170603275299,0.4790722131729126,0.7634564638137817,0.42000001668930054,-0.5654498934745789,-0.9071263670921326,-1.4663662910461426,-3.0000009536743164,-0.17176832258701324,-0.1679154932498932,-0.1629522293806076,-0.15819032490253448,-0.04753890633583069,-0.014978138729929924,0.027530547231435776,0.08764000982046127
0.8833333333333333,0.17691250145435333,0.07300445437431335,0.0,0.6253065466880798,0.0,0.0,-0.7803791761398315,0.41946330666542053,-0.4218912720680237,0.0,0.0,0.0,-1.910178303718567,0.4686702787876129,0.7610896825790405,0.41999995708465576,0.517284631729126,-1.952964794327272e-06,-5.251207767287269e-06,-0.8558133840560913,1.7186270270030946e-05,-0.0003521287871990353,-6.515695713460445e-05,0.009690191596746445,-0.0035954201593995094,-0.0010459471959620714,0.47984495759010315,0.8118549585342407,0.5877279043197632,0.36735090613365173,-0.2518841326236725,-0.19729073345661163,0.4790722131729126,0.7634564638137817,0.42000001668930054,-0.6051872372627258,-3.0000009536743164,-1.4277358055114746,2.999999761581421,-0.17394597828388214,-0.16910015046596527,-0.16294151544570923,-0.1566523164510727,-0.13844850659370422,-0.06060298532247543,0.030240122228860855,0.1421523094177246
0.9,0.1862940937280655,0.07044047117233276,0.0,0.5969361662864685,0.0,0.0,-0.8022887706756592,0.5929166078567505,-0.15299049019813538,0.0,0.0,0.0,-5.042775630950928,0.4686702787876129,0.7610896825790405,0.41999995708465576,0.5172848701477051,-1.9775311557168607e-06,-5.248663001111709e-06,-0.8558133244514465,1.3405035133473575e-05,-0.0003521897306200117,-6.530620157718658e-05,0.009687507525086403,-0.003583643352612853,-0.0010379342129454017,0.49009954929351807,0.8056857585906982,0.5864288806915283,0.9123269319534302,-0.3650732934474945,0.18591350317001343,0.4790722131729126,0.7634564638137817,0.42000001668930054,-0.6238003373146057,0.4807702302932739,-1.445365071296692,-2.999999761581421,-0.17855238914489746,-0.17253625392913818,-0.16502366960048676,-0.1570557951927185,-0.13898691534996033,-0.12022586911916733,-0.08851029723882675,-0.034217171370983124
