vladlanda/robotic-transformer/data/env_000_episode_0237.csv
sim_time_s,robot_box_x,robot_box_y,robot_box_z,robot_box_quat_w,robot_box_quat_x,robot_box_quat_y,robot_box_quat_z,robot_box_linvel_x,robot_box_linvel_y,robot_box_linvel_z,robot_box_angvel_x,robot_box_angvel_y,robot_box_angvel_z,cube_world_x,cube_world_y,cube_world_z,cube_quat_w,cube_quat_x,cube_quat_y,cube_quat_z,cube_linvel_x,cube_linvel_y,cube_linvel_z,cube_angvel_x,cube_angvel_y,cube_angvel_z,endpoint_world_x,endpoint_world_y,endpoint_world_z,endpoint_linvel_x,endpoint_linvel_y,endpoint_linvel_z,target_cube_world_x,target_cube_world_y,target_cube_world_z,gripper_actual_pos_rad_gp_leftgearjoint,gripper_actual_vel_rad_s_gp_leftgearjoint,gripper_actual_pos_rad_gp_rotatingjoint,gripper_actual_vel_rad_s_gp_rotatingjoint,motor_angle_rad_joint1,motor_angle_rad_joint2,motor_angle_rad_joint3,motor_angle_rad_joint4,motor_speed_rad_s_joint1,motor_speed_rad_s_joint2,motor_speed_rad_s_joint3,motor_speed_rad_s_joint4
0.0,0.0,0.0,0.0,1.0,0.0,0.0,0.0,0.0,0.0,0.0,0.0,0.0,0.0,-0.35956335067749023,0.764049768447876,0.41999998688697815,1.0,0.0,0.0,0.0,0.0,0.0,0.0,0.0,0.0,0.0,3.42540442943573e-06,-0.005000244826078415,1.313499927520752,0.0,0.0,0.0,0.34563684463500977,0.7144151926040649,0.42000001668930054,-1.5707999467849731,0.0,0.0,0.0,0.0,0.0,0.0,0.0,0.0,0.0,0.0,0.0
0.016666666666666666,0.0028888133820146322,0.0021672158036381006,0.0,0.9998321533203125,0.0,0.0,0.018319832161068916,0.24115167558193207,0.18196412920951843,0.0,0.0,0.0,3.1417171955108643,-0.3595634698867798,0.7640494704246521,0.41999998688697815,1.0,3.279964630564791e-06,-8.339746386809566e-07,8.465587342243452e-08,-1.9833529222523794e-05,0.00017983045836444944,-6.132945418357849e-05,0.0009432713268324733,-0.004689474124461412,-0.00031981561915017664,-0.007105590775609016,0.0034109889529645443,1.3159399032592773,-0.813353419303894,0.9879721403121948,0.18097631633281708,0.34563684463500977,0.7144151926040649,0.42000001668930054,-1.5301094055175781,3.0000016689300537,-0.045850709080696106,-3.0,0.0008707426022738218,0.0007975451298989356,0.0007121215458028018,0.0006125774816609919,0.11099781095981598,0.0976303368806839,0.08340518921613693,0.0682828277349472
0.03333333333333333,0.008974573574960232,0.006782108452171087,0.0,0.9998207688331604,0.0,0.0,0.018930960446596146,0.407219260931015,0.3149341344833374,0.0,0.0,0.0,-0.8687872290611267,-0.35956358909606934,0.7640494108200073,0.4200000464916229,1.0,3.390805204617209e-06,-2.132404688381939e-06,-3.708747797759315e-08,0.0002635775599628687,0.0002693787682801485,-0.0001050964929163456,-0.0017706695944070816,0.004130705259740353,-0.00013547964044846594,-0.02546374313533306,0.02646239660680294,1.31686270236969,-1.3584926128387451,1.6322929859161377,-0.05238109827041626,0.34563684463500977,0.7144151926040649,0.42000001668930054,-1.4800900220870972,3.0000007152557373,-0.09589053690433502,-3.000000238418579,0.002771092811599374,0.0023553124628961086,0.0019017017912119627,0.0014074844075366855,0.1376701295375824,0.1051102802157402,0.07105656713247299,0.03542280197143555
0.05,0.018487628549337387,0.013886894099414349,0.0,0.9999659061431885,0.0,0.0,-0.008257828652858734,0.6362113952636719,0.4721629321575165,0.0,0.0,0.0,-4.072342395782471,-0.3595636188983917,0.7640494704246521,0.4200000464916229,1.0,3.7651225284207612e-06,-2.211832452303497e-06,5.631207500300661e-09,0.0002653110132087022,0.000266915129031986,-0.00010440382175147533,-0.0017243130132555962,0.00417749211192131,-0.00012949398660566658,-0.05037344619631767,0.05816914886236191,1.313594102859497,-1.647497296333313,2.101221799850464,-0.3369446396827698,0.34563684463500977,0.7144151926040649,0.42000001668930054,-1.4300717115402222,3.000000238418579,-0.14592871069908142,-3.0000011920928955,0.005145976319909096,0.004087498411536217,0.0029566839803010225,0.001749877235852182,0.1577044427394867,0.10979282110929489,0.05996339023113251,0.008150980807840824
0.06666666666666667,0.030848240479826927,0.023379787802696228,0.0,0.9998502731323242,0.0,0.0,-0.017305642366409302,0.7734533548355103,0.6163089871406555,0.0,0.0,0.0,-0.027902118861675262,-0.3595636188983917,0.7640494108200073,0.4200000464916229,0.9999999403953552,3.4066986245306907e-06,-2.2855422230350086e-06,4.301130900330463e-07,0.0002670245012268424,0.00026791836717166007,-0.0001043803058564663,-0.0017406563274562359,0.004211660008877516,-0.00012850432540290058,-0.08154237270355225,0.09244507551193237,1.3059773445129395,-1.9536247253417969,2.155059814453125,-0.5709202885627747,0.34563684463500977,0.7144151926040649,0.42000001668930054,-1.3800472021102905,2.999997138977051,-0.11642405390739441,3.000001907348633,0.006850095000118017,0.004943608306348324,0.0029246946796774864,0.0007888525724411011,0.07657621800899506,0.018438708037137985,-0.04185039922595024,-0.10431817173957825
0.08333333333333333,0.03689373657107353,0.036772724241018295,0.0,0.9991549849510193,0.0,0.0,-0.04110189899802208,0.22768989205360413,0.8772666454315186,0.0,0.0,0.0,-3.800499200820923,-0.3595636188983917,0.7640494108200073,0.4200000464916229,1.0,3.697237389133079e-06,-2.188894086430082e-06,-2.632152131809562e-07,0.000263897207332775,0.0002658645680639893,-0.00010433699935674667,-0.0017081270925700665,0.00415023323148489,-0.0001299154246225953,-0.10881683230400085,0.13219621777534485,1.2943649291992188,-1.3539714813232422,2.626399040222168,-0.7482869625091553,0.34563684463500977,0.7144151926040649,0.42000001668930054,-1.330048680305481,2.9999988079071045,-0.14843325316905975,-3.0000011920928955,0.0018138053128495812,-0.0008882724214345217,-0.0037570022977888584,-0.006800269242376089,-0.4318047761917114,-0.491538941860199,-0.5540191531181335,-0.6194698810577393
0.1,0.04677853733301163,0.05172906816005707,0.0,0.9957166314125061,0.0,0.0,-0.09245716780424118,0.7380461096763611,0.9041293859481812,0.0,0.0,0.0,-6.9568071365356445,-0.3595636188983917,0.7640494108200073,0.4200000464916229,0.9999999403953552,3.6202645787852816e-06,-2.2652204734185943e-06,1.7464172685777157e-07,0.00026676952256821096,0.00026740870089270175,-0.0001040799543261528,-0.0017386189429089427,0.004209231119602919,-0.0001277522387681529,-0.1326894760131836,0.17737868428230286,1.2823891639709473,-1.511664628982544,2.841792583465576,-0.7475919723510742,0.34563684463500977,0.7144151926040649,0.42000001668930054,-1.2800456285476685,3.0000007152557373,-0.19251495599746704,-2.3091132640838623,-0.0009184459922835231,-0.005156531929969788,-0.009562869556248188,-0.014145894907414913,-0.07569653540849686,-0.17524179816246033,-0.2737029492855072,-0.3709808886051178
0.11666666666666667,0.05530684441328049,0.06385577470064163,0.0,0.9922573566436768,0.0,0.0,-0.12419892102479935,0.5414400100708008,0.6840053796768188,0.0,0.0,0.0,-2.5707600116729736,-0.3595636188983917,0.7640494108200073,0.4200000464916229,1.0,3.798244051722577e-06,-2.2627962152910186e-06,-1.50183694813677e-07,0.000263741152593866,0.00026566089945845306,-0.00010428996756672859,-0.0017054296331480145,0.004147564060986042,-0.00012979822349734604,-0.16275227069854736,0.22285538911819458,1.2678191661834717,-1.802042007446289,2.943093776702881,-0.8994828462600708,0.34563684463500977,0.7144151926040649,0.42000001668930054,-1.2300320863723755,2.9999868869781494,-0.15517379343509674,3.0000009536743164,-0.004348536487668753,-0.010097010061144829,-0.015986863523721695,-0.02202596515417099,-0.1137634664773941,-0.2215130627155304,-0.3258001506328583,-0.42644548416137695
0.13333333333333333,0.06128581985831261,0.07637365907430649,0.0,0.9862797260284424,0.0,0.0,-0.16508260369300842,0.2942478656768799,0.7883310914039612,0.0,0.0,0.0,-5.706103801727295,-0.3595636188983917,0.7640494704246521,0.4200000464916229,0.9999999403953552,3.55031761500868e-06,-2.2298022486211266e-06,2.929353684066882e-07,0.0002670320973265916,0.0002677934244275093,-0.00010417005978524685,-0.0017440698575228453,0.004213511943817139,-0.00012799800606444478,-0.19000539183616638,0.27527356147766113,1.2517907619476318,-1.4252763986587524,3.458834648132324,-1.0321179628372192,0.34563684463500977,0.7144151926040649,0.42000001668930054,-1.1805647611618042,2.9070491790771484,-0.1869456171989441,-2.999999761581421,-0.0079503133893013,-0.01551132369786501,-0.023143254220485687,-0.03085111267864704,-0.27918773889541626,-0.38556715846061707,-0.48736488819122314,-0.5843908190727234
0.15,0.06394203752279282,0.08886690437793732,0.0,0.9777029156684875,0.0,0.0,-0.20999301970005035,0.10571882873773575,0.7264248728752136,0.0,0.0,0.0,-5.356276988983154,-0.35956358909606934,0.7640494108200073,0.4200000464916229,1.0,3.332025926283677e-06,-2.1019659470766783e-06,1.313283775061791e-07,0.00026730605168268085,0.00026859392528422177,-0.00010459637269377708,-0.0017496388172730803,0.004215574357658625,-0.00012928410433232784,-0.21920835971832275,0.3348068594932556,1.2278358936309814,-1.8260999917984009,3.830941677093506,-1.815091848373413,0.34563684463500977,0.7144151926040649,0.42000001668930054,-1.155102014541626,0.3493039011955261,-0.15320739150047302,2.9999990463256836,-0.013318314217031002,-0.022292012348771095,-0.03125164657831192,-0.04020076245069504,-0.3675988018512726,-0.42754921317100525,-0.4827563762664795,-0.5332512855529785
0.16666666666666666,0.06995266675949097,0.10149716585874557,0.0,0.9626399874687195,0.0,0.0,-0.2707846164703369,0.35877352952957153,0.8406593203544617,0.0,0.0,0.0,-8.765498161315918,-0.3595636188983917,0.7640494108200073,0.4200000464916229,1.0,3.7371282815001905e-06,-2.233031636933447e-06,-1.8763215337003203e-07,0.000264328729826957,0.0002662690822035074,-0.00010445667430758476,-0.0017118192045018077,0.004157449118793011,-0.00013001686602365226,-0.2511724829673767,0.4018901586532593,1.1942410469055176,-1.7568916082382202,4.363874435424805,-2.2642507553100586,0.34563684463500977,0.7144151926040649,0.42000001668930054,-1.1154570579528809,3.0000014305114746,-0.1849905550479889,-3.0000009536743164,-0.018948951736092567,-0.02882419154047966,-0.03861023485660553,-0.04831155389547348,-0.5213139057159424,-0.5439705848693848,-0.5638642907142639,-0.5811575055122375
0.18333333333333332,0.07256384938955307,0.11294947564601898,0.0,0.9491830468177795,0.0,0.0,-0.31472450494766235,0.1338481307029724,0.6057900190353394,0.0,0.0,0.0,-4.384296417236328,-0.3595636188983917,0.7640494704246521,0.4200000464916229,0.9999999403953552,3.6600679322873475e-06,-2.302136635989882e-06,2.528700520088023e-07,0.00026690925005823374,0.0002676027943380177,-0.0001041253563016653,-0.0017412796150892973,0.0042115445248782635,-0.00012787021114490926,-0.28541654348373413,0.4722263813018799,1.1454265117645264,-1.8217179775238037,4.550484657287598,-3.4516420364379883,0.34563684463500977,0.7144151926040649,0.42000001668930054,-1.0755248069763184,1.8584628105163574,-0.2350202202796936,-2.9999988079071045,-0.031131276860833168,-0.040530748665332794,-0.04982887580990791,-0.05904015898704529,-0.7259904742240906,-0.6845252513885498,-0.6424908638000488,-0.6005263328552246
0.2,0.07710422575473785,0.12510091066360474,0.0,0.9351518750190735,0.0,0.0,-0.3542470932006836,0.31199583411216736,0.7481313943862915,0.0,0.0,0.0,-5.2131452560424805,-0.3595636188983917,0.7640494108200073,0.4200000464916229,1.0,3.5906386983697303e-06,-2.3002876332611777e-06,1.387365955451969e-07,0.0002665475767571479,0.0002673207491170615,-0.00010424014180898666,-0.0017325275111943483,0.004203495569527149,-0.00012820970732718706,-0.3165273368358612,0.5457233190536499,1.0797237157821655,-1.5652801990509033,4.537075996398926,-4.382655620574951,0.34563684463500977,0.7144151926040649,0.42000001668930054,-1.0275771617889404,3.0000030994415283,-0.285047709941864,-3.000000476837158,-0.0456569604575634,-0.05380267649888992,-0.06187622249126434,-0.06990830600261688,-0.9195196032524109,-0.8336451053619385,-0.7500536441802979,-0.6696953773498535
0.21666666666666667,0.07963351905345917,0.13434605300426483,0.0,0.9288920760154724,0.0,0.0,-0.37035056948661804,0.08796244859695435,0.46843522787094116,0.0,0.0,0.0,-1.0447546243667603,-0.3595636188983917,0.7640494704246521,0.4200000464916229,1.0,3.6067460769118043e-06,-2.260896735606366e-06,1.9630940428783106e-08,0.0002644705818966031,0.0002655840362422168,-0.00010396447032690048,-0.0017087544547393918,0.004164231941103935,-0.00012832245556637645,-0.34360212087631226,0.6145665645599365,0.998142421245575,-1.3133376836776733,3.9845199584960938,-5.332265853881836,0.34563684463500977,0.7144151926040649,0.42000001668930054,-0.9775702953338623,3.0000035762786865,-0.33507364988327026,-3.0000014305114746,-0.061833590269088745,-0.069456547498703,-0.07577907294034958,-0.08195138722658157,-0.9678537845611572,-0.9618357419967651,-0.8580378293991089,-0.7378079891204834
0.23333333333333334,0.07783105969429016,0.1448538452386856,0.0,0.9176535606384277,0.0,0.0,-0.39738136529922485,-0.18439270555973053,0.6758173704147339,0.0,0.0,0.0,-4.30118465423584,-0.35956358909606934,0.7640494108200073,0.4200000464916229,0.9999999403953552,3.742040007637115e-06,-2.2273377453529974e-06,4.589223294715339e-07,0.00026475079357624054,0.00026671396335586905,-0.0001045342069119215,-0.001718980842269957,0.004165731370449066,-0.00013019278412684798,-0.3626878261566162,0.6766549348831177,0.9022620916366577,-0.88371741771698,3.4455361366271973,-6.042040824890137,0.34563684463500977,0.7144151926040649,0.42000001668930054,-0.9275614619255066,2.999997138977051,-0.3851020038127899,-3.0000014305114746,-0.07768332213163376,-0.08536732941865921,-0.09175951778888702,-0.09783999621868134,-0.9848207831382751,-0.9781088829040527,-0.9734510183334351,-0.9689072370529175
0.25,0.07991177588701248,0.15032421052455902,0.0,0.913201630115509,0.0,0.0,-0.407507985830307,0.12098360806703568,0.24802982807159424,0.0,0.0,0.0,-0.21411572396755219,-0.3595636188983917,0.7640494108200073,0.4200000464916229,1.0,3.3941641959245317e-06,-2.2818860543338815e-06,1.336301380661098e-07,0.0002667922817636281,0.0002679384488146752,-0.00010439474135637283,-0.0017417253693565726,0.004206556361168623,-0.00012884114403277636,-0.3783149719238281,0.7252364158630371,0.7980013489723206,-0.6777437925338745,2.3941256999969482,-6.524382591247559,0.34563684463500977,0.7144151926040649,0.42000001668930054,-0.8775514960289001,2.999995231628418,-0.43513259291648865,-3.0,-0.09162051230669022,-0.09906505048274994,-0.10523879528045654,-0.11089801043272018,-0.9772586822509766,-0.9698379039764404,-0.9520963430404663,-0.8770986199378967
0.26666666666666666,0.07631970942020416,0.16013045608997345,0.0,0.9026429653167725,0.0,0.0,-0.4303901195526123,-0.22289298474788666,0.5668062567710876,0.0,0.0,0.0,-3.6303536891937256,-0.3595636188983917,0.7640494704246521,0.4200000464916229,1.0,3.683193199321977e-06,-2.309913497811067e-06,2.101072880122956e-07,0.0002647913643158972,0.0002662580809555948,-0.00010421057231724262,-0.0017168582417070866,0.0041689565405249596,-0.00012909348879475147,-0.38337746262550354,0.7531295418739319,0.6857128143310547,0.00543878972530365,1.1331950426101685,-6.6384077072143555,0.34563684463500977,0.7144151926040649,0.42000001668930054,-0.827541708946228,3.0,-0.4851641356945038,-2.9999969005584717,-0.10903266072273254,-0.11624456197023392,-0.12226323783397675,-0.1278163194656372,-0.693169891834259,-0.7596443891525269,-0.8212244510650635,-0.8756433725357056
0.2833333333333333,0.0770566463470459,0.16381271183490753,0.0,0.8997588157653809,0.0,0.0,-0.4363875687122345,0.05253103747963905,0.13073423504829407,0.0,0.0,0.0,0.06288736313581467,-0.3595636188983917,0.7640494108200073,0.4200000464916229,1.0,3.3066860396502307e-06,-2.2123508642835077e-06,2.6256594765072805e-07,0.00026660787989385426,0.00026745101786218584,-0.00010424572974443436,-0.0017352577997371554,0.004204442724585533,-0.00012828593025915325,-0.38427552580833435,0.7649173736572266,0.5763413906097412,0.16139201819896698,0.14275170862674713,-6.502519130706787,0.34563684463500977,0.7144151926040649,0.42000001668930054,-0.7775328755378723,2.999988555908203,-0.5351945757865906,-2.9999990463256836,-0.12080410122871399,-0.12826070189476013,-0.1345617175102234,-0.1403849869966507,-0.9729162454605103,-0.9196845889091492,-0.874636173248291,-0.8346754312515259
0.3,0.07441094517707825,0.1646796464920044,0.0,0.9060914516448975,0.0,0.0,-0.4230818450450897,-0.23646682500839233,0.028008414432406425,0.0,0.0,0.0,2.8366711139678955,-0.3595636188983917,0.7640494108200073,0.4200000464916229,1.0,3.641024932221626e-06,-2.377741111558862e-06,-4.1939159700632445e-07,0.0002661148027982563,0.00026725901989266276,-0.00010423362255096436,-0.0017336049349978566,0.004194726701825857,-0.0001285561011172831,-0.38055896759033203,0.7677953243255615,0.4743950664997101,0.3637068569660187,0.02120158262550831,-5.54158878326416,0.34563684463500977,0.7144151926040649,0.42000001668930054,-0.7275242209434509,3.0000014305114746,-0.5852232575416565,-2.999999523162842,-0.1382797360420227,-0.14556659758090973,-0.15175014734268188,-0.1574670672416687,-1.029726266860962,-1.0225746631622314,-1.0171024799346924,-1.0126994848251343
0.31666666666666665,0.0678786113858223,0.16386018693447113,0.0,0.9055156111717224,0.0,0.0,-0.42431288957595825,-0.4554309546947479,-0.08181514590978622,0.0,0.0,0.0,-1.0754448175430298,-0.3595636188983917,0.7640494704246521,0.4200000464916229,1.0,3.621596988523379e-06,-2.2888571038492955e-06,1.9691172781222122e-07,0.0002673400449566543,0.0002680283214431256,-0.00010420801118016243,-0.0017466888530179858,0.00421897554770112,-0.00012793613132089376,-0.376078724861145,0.7688276767730713,0.4312826991081238,0.07371799647808075,-0.06158233433961868,-0.17208944261074066,0.34563684463500977,0.7144151926040649,0.42000001668930054,-0.6775221228599548,2.99999737739563,-0.6356945037841797,-3.0000855922698975,-0.15030567348003387,-0.15765060484409332,-0.16372020542621613,-0.16909684240818024,-0.4661705493927002,-0.4595942199230194,-0.43330082297325134,-0.38211268186569214
0.3333333333333333,0.059102632105350494,0.16055724024772644,0.0,0.9111444354057312,0.0,0.0,-0.4120871126651764,-0.5119892358779907,-0.2741720676422119,0.0,0.0,0.0,2.418363094329834,-0.35941118001937866,0.7651466727256775,0.42000001668930054,0.9998927116394043,1.0059352462121751e-05,-9.845335625868756e-06,-0.01464930921792984,0.004488569684326649,0.08845526725053787,-0.00020128262985963374,-0.007251812145113945,0.01738693006336689,-2.0775368213653564,-0.3753368556499481,0.7708338499069214,0.4280219078063965,0.19277361035346985,0.08609592169523239,-0.25286149978637695,0.34563684463500977,0.7144151926040649,0.42000001668930054,-0.6275153756141663,3.0000014305114746,-0.6857408285140991,-3.000002384185791,-0.15913206338882446,-0.16549064218997955,-0.17030316591262817,-0.17407748103141785,-0.4550982117652893,-0.3819867968559265,-0.2944870591163635,-0.18797270953655243
0.35,0.049056198447942734,0.15431006252765656,0.0,0.9096416234970093,0.0,0.0,-0.4153939187526703,-0.643092155456543,-0.41467732191085815,0.0,0.0,0.0,-1.3853524923324585,-0.35843995213508606,0.7680107951164246,0.42001885175704956,0.9983450770378113,0.0004639582766685635,-9.881624282570556e-05,-0.05750531330704689,0.10131003707647324,0.24609407782554626,-0.009380646049976349,-0.41465428471565247,-0.01965087093412876,-7.309791088104248,-0.37024936079978943,0.7735529541969299,0.4245700240135193,0.4293910264968872,0.29702746868133545,-0.16926611959934235,0.34563684463500977,0.7144151926040649,0.42000001668930054,-0.5775102376937866,2.999988555908203,-0.7357961535453796,-2.9999947547912598,-0.1671411693096161,-0.1721009612083435,-0.17530639469623566,-0.17718946933746338,-0.45523348450660706,-0.3696475625038147,-0.27437272667884827,-0.16466808319091797
0.36666666666666664,0.03693824261426926,0.14575868844985962,0.0,0.9145228266716003,0.0,0.0,-0.4045342803001404,-0.7671787738800049,-0.5523325204849243,0.0,0.0,0.0,2.3339521884918213,-0.3545502722263336,0.774637758731842,0.420095294713974,0.9881833791732788,0.0023388878908008337,-0.0004950869479216635,-0.1532573401927948,0.26076677441596985,0.43083667755126953,-0.016432946547865868,-0.7790043354034424,0.1271609514951706,-12.31995677947998,-0.36159777641296387,0.779286801815033,0.42183542251586914,0.6264063119888306,0.4033746123313904,-0.14028453826904297,0.34563684463500977,0.7144151926040649,0.42000001668930054,-0.5275053977966309,2.9999759197235107,-0.7858379483222961,-2.9999923706054688,-0.1755121946334839,-0.17845776677131653,-0.1795024424791336,-0.179019495844841,-0.47605809569358826,-0.34122374653816223,-0.1982681006193161,-0.044196967035532
0.3833333333333333,0.023521021008491516,0.13493523001670837,0.0,0.9128618240356445,0.0,0.0,-0.40826869010925293,-0.8657765984535217,-0.6946766376495361,0.0,0.0,0.0,-1.404305100440979,-0.34905508160591125,0.7825988531112671,0.4200042188167572,0.9729095101356506,7.220532279461622e-05,3.2581985578872263e-05,-0.2311861217021942,0.49399417638778687,0.6113350987434387,0.0022706075105816126,0.19529898464679718,-0.247044637799263,-4.137529373168945,-0.3493448495864868,0.7853201627731323,0.42032530903816223,0.8382103443145752,0.39178141951560974,-0.08098815381526947,0.34563684463500977,0.7144151926040649,0.42000001668930054,-0.4775010347366333,2.9999806880950928,-0.8358863592147827,-2.999992609024048,-0.18350520730018616,-0.18400196731090546,-0.1824333518743515,-0.1791333705186844,-0.41338300704956055,-0.2761823236942291,-0.1270584613084793,0.03620792552828789
0.4,0.012668268755078316,0.12125701457262039,0.0,0.8991872668266296,0.0,0.0,-0.43756401538848877,-0.5753082036972046,-0.8720793128013611,0.0,0.0,0.0,-4.730279922485352,-0.3359641432762146,0.7962514758110046,0.42009928822517395,0.9636633396148682,-0.002249052282422781,0.00017179435235448182,-0.2671099603176117,1.3894360065460205,0.7487035989761353,0.3448036313056946,-13.585399627685547,2.2399606704711914,-9.410881996154785,-0.3336068391799927,0.7952473163604736,0.4209834635257721,1.098695158958435,0.819549024105072,0.13003452122211456,0.34563684463500977,0.7144151926040649,0.42000001668930054,-0.42746472358703613,2.9754106998443604,-0.8859143853187561,-2.9961607456207275,-0.18916118144989014,-0.18744957447052002,-0.18338236212730408,-0.17727258801460266,-0.26534396409988403,-0.13678951561450958,0.011156491935253143,0.17916226387023926
0.4166666666666667,0.005607407074421644,0.10459008812904358,0.0,0.8716509938240051,0.0,0.0,-0.4901271164417267,-0.3312193751335144,-1.0599607229232788,0.0,0.0,0.0,-7.945894718170166,-0.3063531517982483,0.8167040348052979,0.42330268025398254,0.9475007653236389,-0.01177114900201559,-0.02627750299870968,-0.3184543251991272,2.719923257827759,1.4726405143737793,0.16060087084770203,26.46355438232422,-20.45161247253418,7.990907192230225,-0.30397742986679077,0.8158091902732849,0.4239891767501831,2.4199235439300537,1.5643596649169922,0.46930575370788574,0.34563684463500977,0.7144151926040649,0.42000001668930054,-0.38989853858947754,1.2822643518447876,-0.9359368681907654,-2.999958038330078,-0.1941516399383545,-0.1901284009218216,-0.1834549456834793,-0.1744535267353058,-0.31890255212783813,-0.16567106544971466,0.0014599583810195327,0.1810389906167984
0.43333333333333335,0.001246690982952714,0.09303383529186249,0.0,0.8275242447853088,0.0,0.0,-0.5614299774169922,-0.2195228487253189,-0.5598070621490479,0.0,0.0,0.0,-10.840594291687012,-0.23939236998558044,0.8471190333366394,0.4288749396800995,0.9272085428237915,0.04255259409546852,-0.06895037740468979,-0.365676611661911,5.406786918640137,1.627868413925171,0.3575417101383209,7.410862922668457,-11.94647216796875,17.793779373168945,-0.23737548291683197,0.8457784652709961,0.42975759506225586,5.23543643951416,2.19272518157959,0.46761542558670044,0.34563684463500977,0.7144151926040649,0.42000001668930054,-0.37184077501296997,1.0674171447753906,-0.9007381796836853,2.997667074203491,-0.2073032557964325,-0.19893772900104523,-0.18805533647537231,-0.1750561147928238,-0.8890748620033264,-0.6144761443138123,-0.3601720929145813,-0.1312432587146759
0.45,-0.006870569195598364,0.08878090232610703,0.0,0.7906498312950134,0.0,0.0,-0.6122686266899109,-0.6023498177528381,-0.24480509757995605,0.0,0.0,0.0,-6.310413360595703,-0.15245570242404938,0.87568598985672,0.439291387796402,0.8886997103691101,0.0775667354464531,-0.0927077978849411,-0.44226837158203125,5.265856742858887,1.2706726789474487,0.6821694374084473,2.703378677368164,-5.292081832885742,-2.7928404808044434,-0.15096095204353333,0.875336766242981,0.4401314854621887,5.221822738647461,1.5054428577423096,0.7524046301841736,0.34563684463500977,0.7144151926040649,0.42000001668930054,-0.35147854685783386,1.4378976821899414,-0.9266461133956909,-3.0000016689300537,-0.22100946307182312,-0.21262212097644806,-0.1980942040681839,-0.18118706345558167,-0.5831881165504456,-0.6516537666320801,-0.555696964263916,-0.38411301374435425
0.4666666666666667,-0.010446502827107906,0.07738664001226425,0.0,0.7737295627593994,0.0,0.0,-0.6335160136222839,-0.08009449392557144,-0.8434463739395142,0.0,0.0,0.0,-2.244155168533325,-0.06161874532699585,0.8934531807899475,0.45081838965415955,0.8351638913154602,0.07614884525537491,-0.09251275658607483,-0.5367904901504517,5.53552770614624,-0.23589685559272766,0.6939609050750732,12.617700576782227,-9.347249031066895,19.180335998535156,-0.06108701229095459,0.8932167887687683,0.45120441913604736,5.569806098937988,0.5215142965316772,0.7549338340759277,0.34563684463500977,0.7144151926040649,0.42000001668930054,-0.3283672332763672,1.171943187713623,-0.9766700863838196,-3.0000035762786865,-0.22472524642944336,-0.2170867621898651,-0.20109912753105164,-0.1816512644290924,-0.13268700242042542,-0.12120658159255981,-0.00827683787792921,0.15577618777751923
0.48333333333333334,-0.015053085051476955,0.06792250275611877,0.0,0.7488260865211487,0.0,0.0,-0.6627665758132935,-0.31530919671058655,-0.5014442205429077,0.0,0.0,0.0,-5.333267688751221,0.028741642832756042,0.894129753112793,0.46023985743522644,0.7699452042579651,0.05128616839647293,-0.08883299678564072,-0.629811704158783,5.057644367218018,-0.8344759941101074,0.4740172326564789,2.510761022567749,0.183111310005188,14.489480972290039,0.02721933089196682,0.8947279453277588,0.4612694978713989,5.323831558227539,-0.2604636549949646,0.6155771613121033,0.34563684463500977,0.7144151926040649,0.42000001668930054,-0.30975282192230225,0.9796664714813232,-1.0266934633255005,-2.999965190887451,-0.22882747650146484,-0.22049018740653992,-0.20266938209533691,-0.18081620335578918,-0.18402405083179474,-0.1424059122800827,-0.05988532677292824,0.04515021666884422
0.5,-0.01770082302391529,0.06015988066792488,0.0,0.7376577854156494,0.0,0.0,-0.6751747727394104,-0.09287302196025848,-0.45051276683807373,0.0,0.0,0.0,-0.9097851514816284,0.10941334813833237,0.8812432885169983,0.4669337570667267,0.7152790427207947,0.039532434195280075,-0.07086633890867233,-0.6941115856170654,4.259716033935547,-1.7591708898544312,0.24545632302761078,-4.936460494995117,-3.3766303062438965,16.678882598876953,0.1079811155796051,0.8823758363723755,0.4681341052055359,4.597318649291992,-1.1917572021484375,0.3462904393672943,0.34563684463500977,0.7144151926040649,0.42000001668930054,-0.2979496419429779,0.5409705638885498,-1.0767155885696411,-3.000001907348633,-0.23395268619060516,-0.22390659153461456,-0.20427192747592926,-0.18060676753520966,-0.32770684361457825,-0.1968037635087967,-0.0873054787516594,0.005646391771733761
0.5166666666666666,-0.021261589601635933,0.05566715821623802,0.0,0.7196517586708069,0.0,0.0,-0.6943351626396179,-0.26381760835647583,-0.17650847136974335,0.0,0.0,0.0,-3.983018636703491,0.17822381854057312,0.8575986623764038,0.4669465124607086,0.6827192306518555,0.023084186017513275,-0.05082963407039642,-0.7285448908805847,3.6745166778564453,-1.7357664108276367,-0.19447830319404602,-10.553210258483887,14.460115432739258,-3.2665815353393555,0.17695002257823944,0.8595815896987915,0.4687637686729431,3.8279953002929688,-1.6296772956848145,-0.0948549434542656,0.34563684463500977,0.7144151926040649,0.42000001668930054,-0.2857874035835266,0.9489305019378662,-1.1267377138137817,-2.9988861083984375,-0.23806892335414886,-0.22626951336860657,-0.2054072916507721,-0.18080566823482513,-0.15464001893997192,-0.06437379121780396,-0.017325425520539284,0.008764487691223621
0.5333333333333333,-0.022791940718889236,0.04872432351112366,0.0,0.7138530611991882,0.0,0.0,-0.7002955079078674,-0.053257107734680176,-0.4217938184738159,0.0,0.0,0.0,-0.009270626120269299,0.23409971594810486,0.8281723260879517,0.46185633540153503,0.6459603309631348,-0.0013199694221839309,-0.025217123329639435,-0.7629531621932983,2.665454626083374,-2.111154556274414,-0.295128732919693,1.9617327451705933,16.309335708618164,2.693880081176758,0.23333153128623962,0.8302111625671387,0.46397602558135986,2.9987335205078125,-1.949894905090332,-0.44100138545036316,0.34563684463500977,0.7144151926040649,0.42000001668930054,-0.2694256007671356,1.0411968231201172,-1.1767598390579224,-2.9974894523620605,-0.23756492137908936,-0.22454778850078583,-0.2034670114517212,-0.1791502684354782,0.0655483528971672,0.1328028291463852,0.12617015838623047,0.0811966210603714
0.55,-0.021437207236886024,0.045317813754081726,0.0,0.6995967626571655,0.0,0.0,-0.7145378589630127,0.14407195150852203,-0.1687534898519516,0.0,0.0,0.0,-3.2193562984466553,0.2786236107349396,0.7991308569908142,0.4475692808628082,0.6108319759368896,-0.06511258333921432,-0.027437804266810417,-0.7886011004447937,2.030115842819214,-1.9377269744873047,-0.8890746235847473,1.4139617681503296,0.8254940509796143,25.054542541503906,0.27740374207496643,0.8004333972930908,0.451826274394989,2.5022928714752197,-1.773658275604248,-0.9860626459121704,0.34563684463500977,0.7144151926040649,0.42000001668930054,-0.25648847222328186,0.6061744093894958,-1.226781964302063,-3.000000476837158,-0.23474779725074768,-0.22162052989006042,-0.20165561139583588,-0.17901429533958435,0.3278317153453827,0.28136083483695984,0.16032779216766357,0.008627383038401604
0.5666666666666667,-0.017128512263298035,0.039183177053928375,0.0,0.6980977654457092,0.0,0.0,-0.7160024642944336,0.29377901554107666,-0.37503525614738464,0.0,0.0,0.0,0.6879128217697144,0.3119601607322693,0.7694781422615051,0.42786213755607605,0.5743204355239868,-0.13745824992656708,-0.026970604434609413,-0.8065568208694458,1.567668080329895,-1.6594200134277344,-1.2708009481430054,-4.047737121582031,2.381732225418091,5.289528846740723,0.3108653426170349,0.7706857323646545,0.43399518728256226,1.6263617277145386,-1.841259241104126,-1.164189338684082,0.34563684463500977,0.7144151926040649,0.42000001668930054,-0.24391184747219086,0.8906206488609314,-1.2768021821975708,-2.9990828037261963,-0.22766713798046112,-0.21552497148513794,-0.19786913692951202,-0.1781017929315567,0.390961617231369,0.3319166302680969,0.1895069032907486,0.010052183642983437
0.5833333333333334,-0.010618241503834724,0.03636603057384491,0.0,0.6873729825019836,0.0,0.0,-0.7263045907020569,0.430790513753891,-0.12276186794042587,0.0,0.0,0.0,-2.6209945678710938,0.3298702836036682,0.7531358003616333,0.4227933883666992,0.5689827799797058,-0.0557442344725132,-0.01866730861365795,-0.8202454447746277,0.6227622628211975,-0.6418537497520447,0.6144502758979797,13.941488265991211,33.54930114746094,6.800927639007568,0.32730409502983093,0.7527704238891602,0.427815318107605,0.684228777885437,-0.7026975154876709,-0.1129373162984848,0.34563684463500977,0.7144151926040649,0.42000001668930054,-0.22309955954551697,1.4948886632919312,-1.2385977506637573,3.0002715587615967,-0.2198278307914734,-0.2098311185836792,-0.19545285403728485,-0.17932578921318054,0.5884484052658081,0.40821680426597595,0.16747458279132843,-0.08750994503498077
0.6,-0.006383911706507206,0.03055267408490181,0.0,0.6885917782783508,0.0,0.0,-0.7251492142677307,0.20180068910121918,-0.3774798810482025,0.0,0.0,0.0,1.0862146615982056,0.3373066186904907,0.7386823296546936,0.423319935798645,0.578518807888031,-0.06825432926416397,-0.0280260369181633,-0.8123250007629395,0.19790665805339813,-1.0097448825836182,0.05643032491207123,-4.424661159515381,0.5260681509971619,2.9789533615112305,0.3350740373134613,0.7399815320968628,0.4283493757247925,0.2712414264678955,-0.7922152280807495,0.07642123848199844,0.34563684463500977,0.7144151926040649,0.42000001668930054,-0.23146608471870422,-1.7372605800628662,-1.2594598531723022,-2.999988079071045,-0.2098197489976883,-0.20245809853076935,-0.19172044098377228,-0.1795099526643753,0.5065726041793823,0.37463241815567017,0.18236108124256134,-0.02916189655661583
0.6166666666666667,-0.0011872672475874424,0.02821512706577778,0.0,0.6797318458557129,0.0,0.0,-0.7334607243537903,0.33867087960243225,-0.1043962612748146,0.0,0.0,0.0,-2.261101722717285,0.3409016728401184,0.7302772998809814,0.4217776954174042,0.6020310521125793,-0.03513457626104355,-0.018009396269917488,-0.79749596118927,0.10374956578016281,-0.35182175040245056,-0.16948673129081726,-1.209384560585022,-7.834662437438965,3.7992024421691895,0.3371293544769287,0.7320040464401245,0.42725056409835815,0.09166310727596283,-0.22591252624988556,-0.09706315398216248,0.34563684463500977,0.7144151926040649,0.42000001668930054,-0.25285831093788147,-0.5578609108924866,-1.228358507156372,2.999852418899536,-0.20119336247444153,-0.19654667377471924,-0.18933773040771484,-0.18082574009895325,0.6162209510803223,0.424631804227829,0.193428173661232,-0.040895357728004456
0.6333333333333333,0.006112242117524147,0.02534664049744606,0.0,0.6833772659301758,0.0,0.0,-0.7300654053688049,0.4869816303253174,-0.1957535296678543,0.0,0.0,0.0,1.5011078119277954,0.34131839871406555,0.7263559103012085,0.4200077950954437,0.6147098541259766,-4.944781539961696e-05,3.550439214450307e-05,-0.7887532114982605,-0.0007298639975488186,-0.14127644896507263,-0.0027840356342494488,-0.04271305352449417,-0.12006542831659317,1.0348446369171143,0.3373177647590637,0.7291498184204102,0.42839041352272034,-0.08378485590219498,-0.10268982499837875,0.13626627624034882,0.34563684463500977,0.7144151926040649,0.42000001668930054,-0.2940378487110138,-2.999959945678711,-1.2490483522415161,-2.9996044635772705,-0.19010111689567566,-0.18855825066566467,-0.18502536416053772,-0.18020734190940857,0.6679378151893616,0.4946954548358917,0.2897707521915436,0.08340466767549515
0.65,0.015255745500326157,0.02519921027123928,0.0,0.6762526631355286,0.0,0.0,-0.7366697788238525,0.5837550163269043,0.05409418046474457,0.0,0.0,0.0,-2.0964865684509277,0.3413054049015045,0.7250332236289978,0.4200000464916229,0.6177857518196106,5.214366272099369e-09,-5.3067527261418945e-08,-0.786346435546875,-0.0007281196885742247,-0.058436859399080276,-4.612840712070465e-06,0.0005899450625292957,0.00016715530364308506,0.29891082644462585,0.33812224864959717,0.730473518371582,0.4312992990016937,0.10126592963933945,0.1734144389629364,0.2070886194705963,0.34563684463500977,0.7144151926040649,0.42000001668930054,-0.34400638937950134,-2.997720718383789,-1.29901123046875,-2.9992525577545166,-0.1779402792453766,-0.179789736866951,-0.17997421324253082,-0.17874160408973694,0.7618378400802612,0.5581129789352417,0.3396720886230469,0.13118509948253632
0.6666666666666666,0.02615221031010151,0.023047052323818207,0.0,0.6808214783668518,0.0,0.0,-0.7324493527412415,0.6840397715568542,-0.18743006885051727,0.0,0.0,0.0,1.6503314971923828,0.34130364656448364,0.7248709797859192,0.4200000464916229,0.618019163608551,4.136561074119527e-06,1.1080618605774362e-05,-0.7861630320549011,-0.0002739220508374274,0.0009867429034784436,-0.00035364762879908085,-0.011707006022334099,0.0006694928160868585,0.0008770169224590063,0.3378828763961792,0.7317492961883545,0.43449047207832336,-0.08447711914777756,0.02755424752831459,0.20102624595165253,0.34563684463500977,0.7144151926040649,0.42000001668930054,-0.3940183222293854,-2.9999988079071045,-1.349027395248413,-2.9999239444732666,-0.16803647577762604,-0.1722213625907898,-0.17499390244483948,-0.1762671172618866,0.47713205218315125,0.38074803352355957,0.2690970003604889,0.1586817502975464
0.6833333333333333,0.03460986167192459,0.020983707159757614,0.0,0.6909992098808289,0.0,0.0,-0.7228555083274841,0.4472791254520416,-0.16405387222766876,0.0,0.0,0.0,1.6762027740478516,0.3413028419017792,0.7248721122741699,0.4200000464916229,0.6180196404457092,4.931503099214751e-07,-3.8042967389628757e-06,-0.7861626148223877,0.00017215084517374635,-0.0002970415516756475,-0.0001029367558658123,0.006315058097243309,-0.0007476598839275539,-0.0006046623457223177,0.3367568850517273,0.729852020740509,0.4385044574737549,-0.02606840617954731,-0.19127285480499268,0.28399530053138733,0.34563684463500977,0.7144151926040649,0.42000001668930054,-0.44401395320892334,-2.999974012374878,-1.3990217447280884,-2.999969482421875,-0.16416007280349731,-0.16848090291023254,-0.17153982818126678,-0.1730571985244751,0.22619344294071198,0.25082945823669434,0.27384138107299805,0.303717702627182
0.7,0.043585844337940216,0.01578870601952076,0.0,0.6848845481872559,0.0,0.0,-0.7286515831947327,0.5572937726974487,-0.36387795209884644,0.0,0.0,0.0,-1.899407982826233,0.34130287170410156,0.7248721122741699,0.4200000464916229,0.618019700050354,5.107465312903514e-07,-3.5906002722185804e-06,-0.7861626148223877,0.00016510435671079904,-0.0002799551875796169,-9.926524944603443e-05,0.005923313554376364,-0.0007163497502915561,-0.0005794571479782462,0.33969342708587646,0.7273100018501282,0.44621700048446655,0.3395302891731262,-0.1540464460849762,0.7440659999847412,0.34563684463500977,0.7144151926040649,0.42000001668930054,-0.4940264821052551,-3.0,-1.4490396976470947,-2.9999992847442627,-0.16199523210525513,-0.16552481055259705,-0.16774098575115204,-0.16826790571212769,0.06073533371090889,0.12940260767936707,0.20406535267829895,0.28820350766181946
0.7166666666666667,0.05461154133081436,0.007780044339597225,0.0,0.6589874625205994,0.0,0.0,-0.7521539330482483,0.6994943022727966,-0.6050347685813904,0.0,0.0,0.0,-4.992010593414307,0.34130287170410156,0.7248721122741699,0.4200000464916229,0.618019700050354,5.183570124245307e-07,-3.5006967209483264e-06,-0.7861626148223877,0.00016562135715503246,-0.00027971199597232044,-9.943405166268349e-05,0.0059142569079995155,-0.0007101528462953866,-0.0005805816617794335,0.3512688875198364,0.7255284786224365,0.4653970003128052,1.0414509773254395,-0.07023416459560394,1.6760424375534058,0.34563684463500977,0.7144151926040649,0.42000001668930054,-0.5440390706062317,-2.999990224838257,-1.4990580081939697,-3.0,-0.16343772411346436,-0.16548696160316467,-0.16610436141490936,-0.16489346325397491,-0.1251443475484848,-0.03103574365377426,0.07112417370080948,0.18104222416877747
0.7333333333333333,0.06847447156906128,0.0034572789445519447,0.0,0.646254301071167,0.0,0.0,-0.7631221413612366,0.8379579782485962,-0.2512499988079071,0.0,0.0,0.0,-0.9407199025154114,0.34130287170410156,0.7248720526695251,0.4200000464916229,0.618019700050354,5.112410121910216e-07,-3.5966907034890028e-06,-0.7861625552177429,0.0001659473346080631,-0.00027973277610726655,-9.952043183147907e-05,0.005912960972636938,-0.0007064231322146952,-0.0005813236930407584,0.36849480867385864,0.7276537418365479,0.4983849823474884,1.1034214496612549,0.39191317558288574,2.1947336196899414,0.34563684463500977,0.7144151926040649,0.42000001668930054,-0.5703395009040833,-0.36142411828041077,-1.5490763187408447,-3.0,-0.1690429300069809,-0.16948309540748596,-0.168448343873024,-0.1655701845884323,-0.1480749547481537,-0.12822136282920837,-0.102557472884655,-0.07229112088680267
0.75,0.07935699075460434,0.0016821882454678416,0.0,0.6573314070701599,0.0,0.0,-0.7536016702651978,0.5851534008979797,-0.057044923305511475,0.0,0.0,0.0,2.585669755935669,0.34130287170410156,0.7248721122741699,0.4200000464916229,0.6180195808410645,5.238783273853187e-07,-3.5391306028031977e-06,-0.7861626744270325,0.00016704242443665862,-0.00027993592084385455,-9.976513683795929e-05,0.00591104244813323,-0.0006944455672055483,-0.0005837846547365189,0.3868163526058197,0.7317285537719727,0.5284489393234253,0.9993060231208801,0.17621564865112305,1.483994483947754,0.34563684463500977,0.7144151926040649,0.42000001668930054,-0.5536405444145203,2.133026123046875,-1.5121450424194336,2.9999985694885254,-0.1710778921842575,-0.1710646152496338,-0.16951312124729156,-0.1661003977060318,-0.06181160733103752,-0.03378217667341232,-0.0051294490694999695,0.020669715479016304
0.7666666666666666,0.08572819083929062,0.0003335117071401328,0.0,0.655811607837677,0.0,0.0,-0.7549245357513428,0.31543001532554626,-0.03715309500694275,0.0,0.0,0.0,-1.194525957107544,0.34130287170410156,0.7248721122741699,0.4200000464916229,0.618019700050354,5.001684826311248e-07,-3.629939328675391e-06,-0.7861625552177429,0.00016660793335177004,-0.00028000414022244513,-9.961659088730812e-05,0.005916099529713392,-0.0006981819751672447,-0.0005828480934724212,0.39793652296066284,0.7347124814987183,0.5467904806137085,0.30372878909111023,0.11816011369228363,0.8965373039245605,0.34563684463500977,0.7144151926040649,0.42000001668930054,-0.5288720726966858,0.9234154224395752,-1.4620885848999023,2.999999523162842,-0.16975918412208557,-0.16974394023418427,-0.16818028688430786,-0.16480328142642975,0.09972935169935226,0.10307799279689789,0.1036565750837326,0.0975433811545372
0.7833333333333333,0.08809966593980789,0.0019038080936297774,0.0,0.6646811366081238,0.0,0.0,-0.7471271753311157,0.087122343480587,0.16097377240657806,0.0,0.0,0.0,2.225172996520996,0.34130287170410156,0.7248721122741699,0.4200000464916229,0.6180196404457092,4.983201620234468e-07,-3.527910621414776e-06,-0.7861625552177429,0.00016711970965843648,-0.00028044352075085044,-9.967130608856678e-05,0.0059240031987428665,-0.0006925550405867398,-0.0005839855293743312,0.4023038148880005,0.7349898815155029,0.5578724145889282,0.17999961972236633,-0.03132859244942665,0.5089006423950195,0.34563684463500977,0.7144151926040649,0.42000001668930054,-0.5205338597297668,0.1365361362695694,-1.4564672708511353,-1.9060583114624023,-0.16791996359825134,-0.16778598725795746,-0.16615431010723114,-0.16283611953258514,0.12465113401412964,0.1347113400697708,0.14001590013504028,0.1358557939529419
0.8,0.08688486367464066,-0.0006647357367910445,0.0,0.6613807082176208,0.0,0.0,-0.7500503659248352,-0.02872203104197979,-0.15250036120414734,0.0,0.0,0.0,-1.3122575283050537,0.34130287170410156,0.7248721122741699,0.4200000464916229,0.6180194616317749,5.131569196237251e-07,-3.612829004850937e-06,-0.7861626744270325,0.00016626383876428008,-0.0002800460497383028,-9.953649714589119e-05,0.005918843671679497,-0.0007027697865851223,-0.0005820003570988774,0.40136730670928955,0.736585259437561,0.5598098635673523,-0.3385303020477295,-0.0034547895193099976,-0.1346614509820938,0.34563684463500977,0.7144151926040649,0.42000001668930054,-0.5171782374382019,0.2545534670352936,-1.4139113426208496,2.999999523162842,-0.1616208702325821,-0.16199029982089996,-0.16094157099723816,-0.1583450585603714,0.19203266501426697,0.20479246973991394,0.20668302476406097,0.1933019459247589
0.8166666666666667,0.08438519388437271,0.0020757662132382393,0.0,0.6697845458984375,0.0,0.0,-0.7425554990768433,-0.17751799523830414,0.21697662770748138,0.0,0.0,0.0,2.1105995178222656,0.34130287170410156,0.7248721122741699,0.4200000464916229,0.6180199384689331,4.643130750991986e-07,-3.6199235182721168e-06,-0.7861624360084534,0.0001639039401197806,-0.0002806697157211602,-9.896699339151382e-05,0.0059459940530359745,-0.0007354889530688524,-0.0005772728472948074,0.3964599370956421,0.7344568967819214,0.5580681562423706,-0.19222459197044373,-0.10030006617307663,-0.071353480219841,0.34563684463500977,0.7144151926040649,0.42000001668930054,-0.5069462060928345,0.9087874293327332,-1.4317747354507446,-3.000000238418579,-0.1624305546283722,-0.16191866993904114,-0.16020908951759338,-0.15726016461849213,-0.009018267504870892,0.024108661338686943,0.046514276415109634,0.05362412706017494
0.8333333333333334,0.08351302891969681,0.0016684001311659813,0.0,0.6653329133987427,0.0,0.0,-0.7465468049049377,-0.005816380959004164,-0.0664619579911232,0.0,0.0,0.0,-1.5868465900421143,0.34130287170410156,0.7248721122741699,0.4200000464916229,0.6180197596549988,4.508790425461484e-07,-3.5697169096238213e-06,-0.7861624360084534,0.00016019828035496175,-0.0002828073629643768,-9.781657718122005e-05,0.0060170614160597324,-0.000786422286182642,-0.0005697080050595105,0.3903380036354065,0.7358032464981079,0.551224410533905,-0.5513761043548584,0.08940379321575165,-0.5434148907661438,0.34563684463500977,0.7144151926040649,0.42000001668930054,-0.5029688477516174,-0.32676470279693604,-1.3932394981384277,3.000000476837158,-0.16010941565036774,-0.1597682237625122,-0.15833549201488495,-0.15582911670207977,0.08517089486122131,0.08541189879179001,0.07736828923225403,0.05765283852815628
0.85,0.08525458723306656,-0.00031295462395064533,0.0,0.6719371676445007,0.0,0.0,-0.7406081557273865,0.14642225205898285,-0.2282204031944275,0.0,0.0,0.0,1.8204106092453003,0.34130287170410156,0.7248721122741699,0.4200000464916229,0.6180199384689331,4.5873150611441815e-07,-3.518664925650228e-06,-0.7861623167991638,0.0001600271207280457,-0.00028284432482905686,-9.776721708476543e-05,0.00601896271109581,-0.0007884782389737666,-0.0005693307612091303,0.3844797909259796,0.7345888614654541,0.5450882911682129,-0.14072631299495697,-0.13384632766246796,-0.17278394103050232,0.34563684463500977,0.7144151926040649,0.42000001668930054,-0.5349099636077881,-2.999999761581421,-1.4115031957626343,-2.999999761581421,-0.1611880511045456,-0.1601284146308899,-0.1580563336610794,-0.15505839884281158,-0.07367481291294098,-0.02100972644984722,0.03174102306365967,0.08053411543369293
0.8666666666666667,0.0893845334649086,-0.0008693916606716812,0.0,0.6667869687080383,0.0,0.0,-0.7452483773231506,0.28496959805488586,0.03217233344912529,0.0,0.0,0.0,-1.660966396331787,0.34130287170410156,0.7248721122741699,0.4200000464916229,0.6180198192596436,4.872258614341263e-07,-3.240967998863198e-06,-0.7861624360084534,0.00016491436690557748,-0.0002810812438838184,-9.91215929389e-05,0.005951141472905874,-0.0007225818699225783,-0.0005795547622255981,0.38534438610076904,0.7305876016616821,0.536468505859375,0.22377967834472656,-0.3517749607563019,-0.6648572683334351,0.34563684463500977,0.7144151926040649,0.42000001668930054,-0.580665111541748,-2.4967010021209717,-1.4615215063095093,-2.999999523162842,-0.1632280796766281,-0.1611657738685608,-0.15795835852622986,-0.15376585721969604,-0.07731710374355316,-0.014108887873589993,0.06234369054436684,0.14777958393096924
0.8833333333333333,0.09591858088970184,-0.0044480073265731335,0.0,0.6410619020462036,0.0,0.0,-0.7674891948699951,0.4406782388687134,-0.25182464718818665,0.0,0.0,0.0,-4.909542083740234,0.34130287170410156,0.7248721122741699,0.4200000464916229,0.6180198192596436,4.7045654127941816e-07,-3.492608811939135e-06,-0.7861625552177429,0.00016368257638532668,-0.0002810755686368793,-9.879563003778458e-05,0.005957535933703184,-0.0007371403044089675,-0.0005768074188381433,0.3915780484676361,0.7250345349311829,0.5299434661865234,0.48585212230682373,-0.3718350827693939,0.008750267326831818,0.34563684463500977,0.7144151926040649,0.42000001668930054,-0.6298545002937317,-2.999995470046997,-1.5115398168563843,-3.0000007152557373,-0.1635298877954483,-0.16074511408805847,-0.15659280121326447,-0.151289165019989,-0.1127106323838234,-0.055993709713220596,0.011148693971335888,0.08553273230791092
0.9,0.10521112382411957,-0.004453596193343401,0.0,0.6294000148773193,0.0,0.0,-0.7770814299583435,0.5765805244445801,0.03481174260377884,0.0,0.0,0.0,-0.7510359287261963,0.34130287170410156,0.7248721122741699,0.4200000464916229,0.6180198192596436,4.529396164798527e-07,-3.5846328501065727e-06,-0.7861624956130981,0.0001641992130316794,-0.00028115135501138866,-9.894720278680325e-05,0.005956395994871855,-0.0007319457363337278,-0.0005780243081972003,0.3990595042705536,0.7243385910987854,0.5349593162536621,0.47848594188690186,0.27588051557540894,0.5388731956481934,0.34563684463500977,0.7144151926040649,0.42000001668930054,-0.6477692723274231,0.5575445294380188,-1.5615581274032593,-2.999999761581421,-0.16607749462127686,-0.1629643440246582,-0.15838868916034698,-0.15260155498981476,-0.013592865318059921,-0.06042347103357315,-0.10288717597723007,-0.14129699766635895
