vladlanda/robotic-transformer/data/env_000_episode_0040.csv
sim_time_s,robot_box_x,robot_box_y,robot_box_z,robot_box_quat_w,robot_box_quat_x,robot_box_quat_y,robot_box_quat_z,robot_box_linvel_x,robot_box_linvel_y,robot_box_linvel_z,robot_box_angvel_x,robot_box_angvel_y,robot_box_angvel_z,cube_world_x,cube_world_y,cube_world_z,cube_quat_w,cube_quat_x,cube_quat_y,cube_quat_z,cube_linvel_x,cube_linvel_y,cube_linvel_z,cube_angvel_x,cube_angvel_y,cube_angvel_z,endpoint_world_x,endpoint_world_y,endpoint_world_z,endpoint_linvel_x,endpoint_linvel_y,endpoint_linvel_z,target_cube_world_x,target_cube_world_y,target_cube_world_z,gripper_actual_pos_rad_gp_leftgearjoint,gripper_actual_vel_rad_s_gp_leftgearjoint,gripper_actual_pos_rad_gp_rotatingjoint,gripper_actual_vel_rad_s_gp_rotatingjoint,motor_angle_rad_joint1,motor_angle_rad_joint2,motor_angle_rad_joint3,motor_angle_rad_joint4,motor_speed_rad_s_joint1,motor_speed_rad_s_joint2,motor_speed_rad_s_joint3,motor_speed_rad_s_joint4
0.0,0.0,0.0,0.0,1.0,0.0,0.0,0.0,0.0,0.0,0.0,0.0,0.0,0.0,-0.347765177488327,0.6600663065910339,0.41999998688697815,1.0,0.0,0.0,0.0,0.0,0.0,0.0,0.0,0.0,0.0,3.42540442943573e-06,-0.005000244826078415,1.313499927520752,0.0,0.0,0.0,0.3651648461818695,0.7378671765327454,0.42000001668930054,-1.5707999467849731,0.0,0.0,0.0,0.0,0.0,0.0,0.0,0.0,0.0,0.0,0.0
0.016666666666666666,0.0028990586288273335,0.0021488647907972336,0.0,0.9998549222946167,0.0,0.0,0.017032945528626442,0.241316556930542,0.18152257800102234,0.0,0.0,0.0,3.1418795585632324,-0.3477652966976166,0.6600660085678101,0.41999998688697815,1.0,3.2799914606584935e-06,-8.339814598912199e-07,8.465387679734704e-08,-1.9833554688375443e-05,0.00017983050202019513,-6.133061833679676e-05,0.0009432226070202887,-0.004689437802881002,-0.0003198152990080416,-0.007099539041519165,0.00344347907230258,1.315943717956543,-0.8124905228614807,0.9889172315597534,0.1809496134519577,0.3651648461818695,0.7378671765327454,0.42000001668930054,-1.5301097631454468,3.0000009536743164,-0.04585311561822891,-3.0000007152557373,0.0008748591062612832,0.0008012731559574604,0.0007154411287046969,0.0006159484037198126,0.11083174496889114,0.09747534245252609,0.0832609310746193,0.068137526512146
0.03333333333333333,0.008984742686152458,0.00675667729228735,0.0,0.9998443126678467,0.0,0.0,0.017643991857767105,0.40717872977256775,0.3145033121109009,0.0,0.0,0.0,-0.8685583472251892,-0.34776541590690613,0.6600659489631653,0.4200000464916229,1.0,3.39090593115543e-06,-2.1324372028175276e-06,-3.7106541839193596e-08,0.0002635782293509692,0.0002693790593184531,-0.00010509486310184002,-0.0017707175575196743,0.004130743443965912,-0.00013547750131692737,-0.02743855118751526,0.026335909962654114,1.3166046142578125,-1.5839569568634033,1.6247206926345825,-0.08449777215719223,0.3651648461818695,0.7378671765327454,0.42000001668930054,-1.4800904989242554,3.0000014305114746,-0.09589294344186783,-3.0000007152557373,0.0029890956357121468,0.002651561750099063,0.002276182174682617,0.0018603692296892405,0.16379547119140625,0.13937829434871674,0.11346841603517532,0.08595675975084305
0.05,0.018491562455892563,0.013851622119545937,0.0,0.9999546408653259,0.0,0.0,-0.009522086940705776,0.6357109546661377,0.4715632200241089,0.0,0.0,0.0,-4.073716163635254,-0.3477654457092285,0.6600660085678101,0.4200000464916229,1.0,3.765230758290272e-06,-2.211922264905297e-06,5.6083799826467384e-09,0.0002653090050444007,0.00026691501261666417,-0.00010440615005791187,-0.00172435212880373,0.0041774665005505085,-0.0001294955873163417,-0.05694408714771271,0.057468436658382416,1.3119866847991943,-1.9443777799606323,2.0390424728393555,-0.4505584239959717,0.3651648461818695,0.7378671765327454,0.42000001668930054,-1.4300721883773804,3.0,-0.1459139883518219,-2.999999761581421,0.006000950001180172,0.005162552930414677,0.004251759499311447,0.0032646094914525747,0.20632071793079376,0.16604405641555786,0.12384577095508575,0.07962974905967712
0.06666666666666667,0.030807122588157654,0.023332415148615837,0.0,0.9998350739479065,0.0,0.0,-0.01816074550151825,0.7721301913261414,0.6156502962112427,0.0,0.0,0.0,-0.03497542440891266,-0.3477654457092285,0.6600659489631653,0.4200000464916229,0.9999999403953552,3.406835730856983e-06,-2.2856456780573353e-06,4.3008122929677484e-07,0.0002670265967026353,0.0002679176104720682,-0.0001043803058564663,-0.0017406701808795333,0.004211854189634323,-0.0001285061298403889,-0.0938229039311409,0.09052558243274689,1.301360845565796,-2.3319969177246094,2.0916762351989746,-0.8146563768386841,0.3651648461818695,0.7378671765327454,0.42000001668930054,-1.38004469871521,3.000000238418579,-0.12315636873245239,3.0000016689300537,0.008659528568387032,0.00709423515945673,0.005416292697191238,0.0036206264048814774,0.14408649504184723,0.09234540909528732,0.038461796939373016,-0.01764288917183876
0.08333333333333333,0.0455772839486599,0.030640939250588417,0.0,0.9991661906242371,0.0,0.0,-0.040828414261341095,0.9502342343330383,0.3764745593070984,0.0,0.0,0.0,-3.5345780849456787,-0.3477654457092285,0.6600659489631653,0.4200000464916229,0.9999999403953552,3.6261644709156826e-06,-2.3353672986559104e-06,3.032186555174121e-07,0.00026613904628902674,0.0002668514207471162,-0.00010405178181827068,-0.0017283462220802903,0.004196255002170801,-0.00012790478649549186,-0.1278337836265564,0.12999622523784637,1.287238597869873,-1.7945036888122559,2.611574649810791,-0.8695968985557556,0.3651648461818695,0.7378671765327454,0.42000001668930054,-1.3300375938415527,2.9999990463256836,-0.1551203429698944,-3.0000011920928955,0.009628497995436192,0.006919709965586662,0.0040545775555074215,0.001029253820888698,0.006173170171678066,-0.07966704666614532,-0.16777557134628296,-0.2581145465373993
0.1,0.05444643646478653,0.04029341787099838,0.0,0.9956259727478027,0.0,0.0,-0.09342885762453079,0.39277157187461853,0.6616261601448059,0.0,0.0,0.0,-7.2876410484313965,-0.3477654457092285,0.6600659489631653,0.4200000464916229,1.0,3.4222073281853227e-06,-2.308677721885033e-06,1.7962315723707434e-07,0.00026681547751650214,0.0002680041070561856,-0.00010440708138048649,-0.0017430889420211315,0.004207076504826546,-0.00012890899961348623,-0.1591586023569107,0.17635995149612427,1.2676817178726196,-1.9181504249572754,2.941884994506836,-1.3898913860321045,0.3651648461818695,0.7378671765327454,0.42000001668930054,-1.2800209522247314,2.9999942779541016,-0.12156806886196136,2.9999985694885254,0.0032007996924221516,-0.00031712514464743435,-0.004044522996991873,-0.0079890051856637,-0.5041616559028625,-0.5438539981842041,-0.5860952138900757,-0.6311938166618347
0.11666666666666667,0.06315082311630249,0.05243078991770744,0.0,0.9919200539588928,0.0,0.0,-0.12686428427696228,0.6963252425193787,0.676277756690979,0.0,0.0,0.0,-2.8023009300231934,-0.3477654457092285,0.6600660085678101,0.4200000464916229,1.0,3.711554427354713e-06,-2.33274568017805e-06,2.5742957632246544e-07,0.00026485853595659137,0.0002663547347765416,-0.00010423525236546993,-0.0017182121518999338,0.004170075058937073,-0.00012915946717839688,-0.1966889500617981,0.21993488073349,1.2425867319107056,-2.270606756210327,2.7005481719970703,-1.5755294561386108,0.3651648461818695,0.7378671765327454,0.42000001668930054,-1.2300266027450562,2.9999988079071045,-0.15350304543972015,-3.000000476837158,-0.003879931988194585,-0.008373916149139404,-0.013086225837469101,-0.018027570098638535,-0.22725260257720947,-0.3158706724643707,-0.40249425172805786,-0.48713254928588867
0.13333333333333333,0.07193301618099213,0.06119336560368538,0.0,0.9852854013442993,0.0,0.0,-0.17091716825962067,0.5854772329330444,0.5077949166297913,0.0,0.0,0.0,-5.942890167236328,-0.3477654457092285,0.6600659489631653,0.4200000464916229,1.0,3.33573370880913e-06,-2.231942062280723e-06,3.11316910028836e-07,0.00026669775252230465,0.00026759415050037205,-0.00010428694076836109,-0.0017371064750477672,0.004205882549285889,-0.0001283985038753599,-0.23122262954711914,0.2706340253353119,1.2134768962860107,-1.8041272163391113,3.4877896308898926,-1.8679864406585693,0.3651648461818695,0.7378671765327454,0.42000001668930054,-1.1800074577331543,2.9999988079071045,-0.12144785374403,3.0,-0.009161744266748428,-0.015201711095869541,-0.02141059935092926,-0.02779991365969181,-0.215585857629776,-0.33080974221229553,-0.4410930573940277,-0.5463184118270874
0.15,0.07958254218101501,0.06715907156467438,0.0,0.9777923226356506,0.0,0.0,-0.2095763236284256,0.40485209226608276,0.29807284474372864,0.0,0.0,0.0,-4.108499050140381,-0.3477654457092285,0.6600659489631653,0.4200000464916229,1.0,3.5189407299185405e-06,-2.2831916339782765e-06,-3.625398221629439e-07,0.00026618593255989254,0.0002673580893315375,-0.00010425783693790436,-0.0017348837573081255,0.004195804242044687,-0.0001286142214667052,-0.26421695947647095,0.32744038105010986,1.1762456893920898,-1.8824827671051025,3.617373466491699,-2.624608278274536,0.3651648461818695,0.7378671765327454,0.42000001668930054,-1.1387724876403809,2.0010292530059814,-0.15339793264865875,-2.9999985694885254,-0.013703584671020508,-0.021345701068639755,-0.029068723320961,-0.03688473999500275,-0.3332289755344391,-0.4079010486602783,-0.477639764547348,-0.5425893068313599
0.16666666666666666,0.08317888528108597,0.07456553727388382,0.0,0.9653787016868591,0.0,0.0,-0.2608524262905121,0.13277536630630493,0.5058618187904358,0.0,0.0,0.0,-7.092905521392822,-0.3477654457092285,0.6600659489631653,0.4200000464916229,1.0,3.666569227789296e-06,-2.3392851744574727e-06,-3.149910696720326e-07,0.0002659586607478559,0.00026667313068173826,-0.00010403618216514587,-0.0017253010300919414,0.004192846827208996,-0.00012778765812981874,-0.2957489490509033,0.3917490839958191,1.1251444816589355,-1.6742815971374512,4.119251251220703,-3.472810745239258,0.3651648461818695,0.7378671765327454,0.42000001668930054,-1.0907303094863892,3.000000476837158,-0.20340608060359955,-2.999999761581421,-0.021562160924077034,-0.03013678826391697,-0.038704339414834976,-0.0472809337079525,-0.5557268857955933,-0.5921835899353027,-0.6237555742263794,-0.6507512331008911
0.18333333333333332,0.09127598255872726,0.07858134061098099,0.0,0.9560770392417908,0.0,0.0,-0.29311543703079224,0.4626145362854004,0.18627314269542694,0.0,0.0,0.0,-2.5106568336486816,-0.3477654457092285,0.6600659489631653,0.4200000464916229,1.0,3.8143041365401587e-06,-2.3996408344828524e-06,-2.702642802887567e-07,0.0002654908166732639,0.00026611139765009284,-0.00010391324758529663,-0.0017178601119667292,0.00418486213311553,-0.00012754034833051264,-0.32506871223449707,0.45648956298828125,1.0597648620605469,-1.4707138538360596,3.95896053314209,-4.3896074295043945,0.3651648461818695,0.7378671765327454,0.42000001668930054,-1.0407272577285767,3.0000007152557373,-0.2534331679344177,-2.999998092651367,-0.02847905457019806,-0.037466034293174744,-0.04637841880321503,-0.05523994565010071,-0.6945399045944214,-0.6658300757408142,-0.6361596584320068,-0.6061392426490784
0.2,0.09307081252336502,0.08601181209087372,0.0,0.9424607157707214,0.0,0.0,-0.33431684970855713,0.1088995635509491,0.45517751574516296,0.0,0.0,0.0,-5.8398356437683105,-0.3477654457092285,0.6600659489631653,0.4200000464916229,1.0,3.6000490126752993e-06,-2.291332066306495e-06,-2.2018168976956076e-07,0.00026572856586426497,0.0002664503117557615,-0.00010398332960903645,-0.001722772722132504,0.004188805352896452,-0.00012773540220223367,-0.34572845697402954,0.5190395712852478,0.9779229164123535,-0.9092020988464355,3.700376510620117,-5.158080101013184,0.3651648461818695,0.7378671765327454,0.42000001668930054,-0.9907169342041016,3.0000011920928955,-0.30346086621284485,-3.0000007152557373,-0.04405100271105766,-0.053028929978609085,-0.06191730126738548,-0.07021915167570114,-0.7183021903038025,-0.7521360516548157,-0.787855327129364,-0.8233134746551514
0.21666666666666667,0.10015241801738739,0.08868183195590973,0.0,0.9344171285629272,0.0,0.0,-0.3561806082725525,0.41529381275177,0.08951620012521744,0.0,0.0,0.0,-1.548219919204712,-0.3477654457092285,0.6600659489631653,0.4200000464916229,0.9999999403953552,3.6395638289832277e-06,-2.262036105094012e-06,2.2249726328027464e-07,0.00026687339413911104,0.00026754429563879967,-0.00010411953553557396,-0.0017403189558535814,0.004211003892123699,-0.00012784055434167385,-0.36240309476852417,0.5724292993545532,0.8880113363265991,-0.6935855746269226,2.902524471282959,-5.68875789642334,0.3651648461818695,0.7378671765327454,0.42000001668930054,-0.9407063126564026,2.9999990463256836,-0.3534910976886749,-2.999999761581421,-0.054918114095926285,-0.0639915019273758,-0.07302991300821304,-0.08153115957975388,-0.8952978253364563,-0.8486254215240479,-0.807412326335907,-0.7729752063751221
0.23333333333333334,0.10140758007764816,0.09512538462877274,0.0,0.9211100935935974,0.0,0.0,-0.38930216431617737,0.07757332921028137,0.3791823983192444,0.0,0.0,0.0,-4.920648574829102,-0.34776541590690613,0.6600659489631653,0.4200000464916229,1.0,3.4206011605419917e-06,-2.3168734060163843e-06,2.956235789497441e-07,0.0002668012457434088,0.00026803865330293775,-0.00010442431084811687,-0.0017437878996133804,0.004206913989037275,-0.00012899268767796457,-0.36841440200805664,0.6118968725204468,0.7876849174499512,-0.016351312398910522,1.9626026153564453,-6.05595588684082,0.3651648461818695,0.7378671765327454,0.42000001668930054,-0.8906956315040588,2.9999966621398926,-0.40352267026901245,-3.0000009536743164,-0.07177050411701202,-0.08069377392530441,-0.08966770768165588,-0.09814412146806717,-0.7568480968475342,-0.7957750558853149,-0.8363263607025146,-0.8754786252975464
0.25,0.10163410007953644,0.09680194407701492,0.0,0.9154736995697021,0.0,0.0,-0.4023778736591339,-0.030702143907546997,0.014794261194765568,0.0,0.0,0.0,-0.613335132598877,-0.3477654457092285,0.6600659489631653,0.4200000464916229,0.9999999403953552,3.347513484186493e-06,-2.259259417769499e-06,1.808668770308941e-07,0.0002668780798558146,0.00026791231357492507,-0.00010439381003379822,-0.00174043164588511,0.004208127502351999,-0.00012869967031292617,-0.37211793661117554,0.6364801526069641,0.6890665292739868,-0.07923835515975952,1.0310907363891602,-5.842916488647461,0.3651648461818695,0.7378671765327454,0.42000001668930054,-0.8406853079795837,2.999994993209839,-0.45355427265167236,-2.999997138977051,-0.0845506489276886,-0.09369877725839615,-0.10293133556842804,-0.11168425530195236,-0.8255707025527954,-0.8187108039855957,-0.8140771985054016,-0.8122994303703308
0.26666666666666666,0.097922183573246,0.10256416350603104,0.0,0.9050112962722778,0.0,0.0,-0.42538756132125854,-0.28577354550361633,0.34034428000450134,0.0,0.0,0.0,-3.8166961669921875,-0.3477654457092285,0.6600659489631653,0.4200000464916229,0.9999999403953552,3.7079632875247626e-06,-2.3925138066260843e-06,-1.272268548291322e-07,0.00026603610604070127,0.0002671657130122185,-0.00010421453043818474,-0.001732206903398037,0.00419316440820694,-0.00012854795204475522,-0.3689746856689453,0.6513660550117493,0.5925843715667725,0.4314870238304138,0.5572903156280518,-5.433467388153076,0.3651648461818695,0.7378671765327454,0.42000001668930054,-0.790676474571228,2.999990224838257,-0.5035844445228577,-3.0,-0.10209036618471146,-0.11102494597434998,-0.12008936703205109,-0.12869170308113098,-0.8555905818939209,-0.8889585733413696,-0.9201105833053589,-0.948079526424408
0.2833333333333333,0.09744779020547867,0.10327932238578796,0.0,0.9016636610031128,0.0,0.0,-0.4324379861354828,-0.002445034682750702,0.005966082215309143,0.0,0.0,0.0,-0.007404813542962074,-0.3477654457092285,0.6600660085678101,0.4200000464916229,0.9999999403953552,3.5726056921703275e-06,-2.304081363035948e-06,1.298819682915564e-07,0.00026521802647039294,0.00026455227634869516,-0.00010317238047719002,-0.0017021402018144727,0.004185078199952841,-0.00012500137381721288,-0.3655216693878174,0.6584736108779907,0.5051708817481995,0.3218787908554077,0.08639158308506012,-5.0784406661987305,0.3651648461818695,0.7378671765327454,0.42000001668930054,-0.7406677603721619,2.9999773502349854,-0.5536132454872131,-3.0000014305114746,-0.11558546870946884,-0.12481459230184555,-0.13414666056632996,-0.1430247724056244,-0.9872957468032837,-0.9829289317131042,-0.9772258400917053,-0.9743440747261047
0.3,0.09397123754024506,0.10231820493936539,0.0,0.9105691313743591,0.0,0.0,-0.41335687041282654,-0.28174200654029846,-0.08622843772172928,0.0,0.0,0.0,3.3412587642669678,-0.3477654457092285,0.6600659489631653,0.4200000464916229,1.0,3.7450477066158783e-06,-2.2382080260285875e-06,-1.7676092056717607e-07,0.0002643615298438817,0.00026623584562912583,-0.00010443432256579399,-0.001712094759568572,0.0041588121093809605,-0.00012989898095838726,-0.360953152179718,0.6596518158912659,0.4234195947647095,0.36879485845565796,-0.04711031913757324,-4.672227382659912,0.3651648461818695,0.7378671765327454,0.42000001668930054,-0.690660834312439,3.000002145767212,-0.603640079498291,-2.999999761581421,-0.13325276970863342,-0.14225374162197113,-0.15141770243644714,-0.1601651906967163,-1.0120443105697632,-1.0091652870178223,-1.006962537765503,-1.0051900148391724
0.31666666666666665,0.08671609312295914,0.09957938641309738,0.0,0.9116180539131165,0.0,0.0,-0.4110383987426758,-0.39656680822372437,-0.24395322799682617,0.0,0.0,0.0,-0.6433899402618408,-0.34772148728370667,0.6600282788276672,0.4200001358985901,0.9999995231628418,1.2725190572382417e-05,7.726465810264926e-06,-0.0009896453702822328,-0.000586960231885314,0.0009952983818948269,-0.0004958744393661618,-0.004669666290283203,-0.005250222980976105,-0.0022483360953629017,-0.3612247407436371,0.6608275771141052,0.42421355843544006,0.0888504683971405,0.004752408713102341,-0.23755627870559692,0.3651648461818695,0.7378671765327454,0.42000001668930054,-0.6407045722007751,2.999988555908203,-0.6540923714637756,-2.9996252059936523,-0.14229445159435272,-0.1504865139722824,-0.15859317779541016,-0.16599011421203613,-0.4762481153011322,-0.42159968614578247,-0.35158273577690125,-0.26531845331192017
0.3333333333333333,0.07848064601421356,0.09385676681995392,0.0,0.9184864163398743,0.0,0.0,-0.39545249938964844,-0.539648175239563,-0.384484201669693,0.0,0.0,0.0,2.898179292678833,-0.3470478653907776,0.6616063714027405,0.4202680289745331,0.9997372627258301,0.006565161049365997,0.00012525804049801081,-0.021958980709314346,0.25594040751457214,0.44897139072418213,0.07983957976102829,4.3663411140441895,-0.14148256182670593,-9.259102821350098,-0.35836613178253174,0.6671855449676514,0.42070329189300537,0.21162092685699463,0.5704719424247742,-0.15482006967067719,0.3651648461818695,0.7378671765327454,0.42000001668930054,-0.5906991958618164,3.0000011920928955,-0.7041380405426025,-3.000009775161743,-0.15088282525539398,-0.1577925980091095,-0.16432666778564453,-0.16987818479537964,-0.49249884486198425,-0.4083036184310913,-0.30516719818115234,-0.18537822365760803
0.35,0.06794622540473938,0.0858638733625412,0.0,0.9184950590133667,0.0,0.0,-0.3954324424266815,-0.6717885136604309,-0.5196916460990906,0.0,0.0,0.0,-0.9638965129852295,-0.34278473258018494,0.669063925743103,0.4202630817890167,0.9950135946273804,0.0065394616685807705,-0.0008650521631352603,-0.09952043741941452,0.2870895266532898,0.49590805172920227,-0.02432776242494583,-1.2374459505081177,0.14808468520641327,-11.300077438354492,-0.35129615664482117,0.6754642724990845,0.41863203048706055,0.6173433065414429,0.5284487009048462,-0.11931639164686203,0.3651648461818695,0.7378671765327454,0.42000001668930054,-0.5406942963600159,2.9999871253967285,-0.7541826963424683,-3.0,-0.16018618643283844,-0.1651206612586975,-0.16932310163974762,-0.17225687205791473,-0.5661012530326843,-0.4262070059776306,-0.2645529508590698,-0.08669287711381912
0.36666666666666664,0.0603238083422184,0.0752391591668129,0.0,0.9135013222694397,0.0,0.0,-0.40683576464653015,-0.3845493197441101,-0.6787011623382568,0.0,0.0,0.0,-1.7730379104614258,-0.33541038632392883,0.6800959706306458,0.42009177803993225,0.9856035709381104,-0.0022713923826813698,0.0003304793208371848,-0.16905683279037476,0.6010493040084839,0.8398463726043701,0.03423060476779938,-1.630926251411438,0.5178171992301941,-4.425464153289795,-0.3406572937965393,0.6849726438522339,0.4196150004863739,0.7694687843322754,0.6866397857666016,0.08841869235038757,0.3651648461818695,0.7378671765327454,0.42000001668930054,-0.4906396269798279,2.999962091445923,-0.8041877746582031,-2.99997615814209,-0.16944728791713715,-0.17175984382629395,-0.1729263812303543,-0.17252567410469055,-0.5343629717826843,-0.36682814359664917,-0.17386583983898163,0.03665821999311447
0.3833333333333333,0.05049297586083412,0.06312791258096695,0.0,0.8977540135383606,0.0,0.0,-0.44049713015556335,-0.6625344753265381,-0.7534940838813782,0.0,0.0,0.0,-5.394964218139648,-0.321204274892807,0.6981436014175415,0.4210139214992523,0.9770011305809021,-0.025291284546256065,0.0050872089341282845,-0.21166777610778809,1.145462989807129,1.3549941778182983,0.08186028897762299,-3.921525478363037,1.6014002561569214,-6.84857702255249,-0.3233083486557007,0.6999484300613403,0.4215017557144165,1.3197264671325684,1.182732343673706,0.13250882923603058,0.3651648461818695,0.7378671765327454,0.42000001668930054,-0.4405844807624817,3.0000009536743164,-0.8541969656944275,-2.9999775886535645,-0.17959444224834442,-0.17881467938423157,-0.17645472288131714,-0.17224223911762238,-0.5515007376670837,-0.3727860450744629,-0.1680336892604828,0.053562797605991364
0.4,0.04361855983734131,0.04802369326353073,0.0,0.8673312664031982,0.0,0.0,-0.4977312982082367,-0.3599792420864105,-0.9573691487312317,0.0,0.0,0.0,-8.559128761291504,-0.28663042187690735,0.7239342927932739,0.42489972710609436,0.9636736512184143,-0.028117088600993156,-0.026922233402729034,-0.26423007249832153,2.8723554611206055,1.7596689462661743,0.24100153148174286,35.048431396484375,-15.721749305725098,2.579273223876953,-0.28874731063842773,0.7262007594108582,0.42479532957077026,2.8805503845214844,1.9889975786209106,0.4795873761177063,0.3651648461818695,0.7378671765327454,0.42000001668930054,-0.3951720595359802,1.936371088027954,-0.904219388961792,-2.999875783920288,-0.18872927129268646,-0.184761643409729,-0.17881572246551514,-0.1707875281572342,-0.5922653079032898,-0.38062605261802673,-0.14891351759433746,0.09193475544452667
0.4166666666666667,0.0394316092133522,0.03673623129725456,0.0,0.8196923732757568,0.0,0.0,-0.5728040337562561,-0.1767425835132599,-0.6790896654129028,0.0,0.0,0.0,-11.340760231018066,-0.2128881961107254,0.7616939544677734,0.43097975850105286,0.9434416890144348,0.03813083469867706,-0.0721098855137825,-0.321347177028656,5.811404705047607,2.1758389472961426,0.42407241463661194,20.941495895385742,-16.868438720703125,17.69346809387207,-0.21450133621692657,0.7642655372619629,0.43120014667510986,5.537764549255371,2.74450421333313,0.47036677598953247,0.3651648461818695,0.7378671765327454,0.42000001668930054,-0.37463074922561646,0.8686749339103699,-0.867150604724884,2.996213674545288,-0.20206144452095032,-0.19525635242462158,-0.18463915586471558,-0.17210456728935242,-0.5342689156532288,-0.5271267294883728,-0.3047632575035095,-0.09681160748004913
0.43333333333333335,0.03880761191248894,0.02817351557314396,0.0,0.7810899615287781,0.0,0.0,-0.6244184970855713,0.014150666072964668,-0.4528166949748993,0.0,0.0,0.0,-6.604337215423584,-0.12139862775802612,0.8022745251655579,0.4409298598766327,0.8992728590965271,0.07303772121667862,-0.09986060112714767,-0.41952547430992126,5.660339832305908,1.6976099014282227,0.699980616569519,18.831336975097656,-6.298551559448242,12.312199592590332,-0.12363070994615555,0.8056092858314514,0.44068437814712524,5.553850173950195,2.120711326599121,0.6304938793182373,0.3651648461818695,0.7378671765327454,0.42000001668930054,-0.36066126823425293,0.905394971370697,-0.8934910297393799,-3.0000033378601074,-0.21144607663154602,-0.20411592721939087,-0.1902843564748764,-0.17490535974502563,-0.5311851501464844,-0.48455482721328735,-0.31717830896377563,-0.1763986051082611
0.45,0.036027900874614716,0.02455630898475647,0.0,0.7640869617462158,0.0,0.0,-0.6451132893562317,-0.16854766011238098,-0.168622687458992,0.0,0.0,0.0,-1.9227721691131592,-0.029702413827180862,0.8283873200416565,0.45160338282585144,0.8458607196807861,0.08429237455129623,-0.10091143846511841,-0.516944169998169,5.459436893463135,0.5124579071998596,0.5543186664581299,-3.018017292022705,-12.113998413085938,12.07864761352539,-0.032121580094099045,0.8323177099227905,0.4507577419281006,5.557221412658691,1.178200125694275,0.7229220271110535,0.3651648461818695,0.7378671765327454,0.42000001668930054,-0.3433176875114441,1.0621931552886963,-0.9435150027275085,-3.000002861022949,-0.22279103100299835,-0.21378068625926971,-0.19686569273471832,-0.17890962958335876,-0.6073660850524902,-0.5078974962234497,-0.3518044352531433,-0.22363489866256714
0.4666666666666667,0.0366867370903492,0.015675149857997894,0.0,0.7388641238212585,0.0,0.0,-0.673854410648346,0.02497119829058647,-0.5558011531829834,0.0,0.0,0.0,-5.33335018157959,0.05861344188451767,0.8384894132614136,0.4584347605705261,0.8065530061721802,0.07455611974000931,-0.099357970058918,-0.5779632925987244,5.117415428161621,-0.6616306900978088,0.30035701394081116,-8.71812629699707,-12.634687423706055,17.593748092651367,0.057269249111413956,0.8430671095848083,0.4580909311771393,5.271210670471191,0.027545742690563202,0.4707878828048706,0.3651648461818695,0.7378671765327454,0.42000001668930054,-0.32573202252388,0.9505583047866821,-0.993539035320282,-3.000002861022949,-0.2281361073255539,-0.21754489839076996,-0.19839933514595032,-0.17852000892162323,-0.44318562746047974,-0.2784636914730072,-0.09649789333343506,0.06665853410959244
0.48333333333333334,0.03462941572070122,0.011845758184790611,0.0,0.7262305617332458,0.0,0.0,-0.687451183795929,-0.09650667756795883,-0.1591435670852661,0.0,0.0,0.0,-1.0158973932266235,0.14109626412391663,0.8334842920303345,0.4636934697628021,0.7479488849639893,0.05488336831331253,-0.0967804342508316,-0.6543651223182678,4.5929460525512695,-1.1937320232391357,0.33904314041137695,5.345331192016602,-6.6655168533325195,14.69992733001709,0.139689102768898,0.8372690677642822,0.4641095995903015,4.832467555999756,-0.6131448149681091,0.32477548718452454,0.3651648461818695,0.7378671765327454,0.42000001668930054,-0.3095329701900482,0.8926591873168945,-1.0435614585876465,-3.0000016689300537,-0.2380785346031189,-0.22428451478481293,-0.2021515965461731,-0.17974740266799927,-0.48439866304397583,-0.3289297819137573,-0.20445013046264648,-0.10637467354536057
0.5,0.035117004066705704,0.007299145217984915,0.0,0.7060393691062927,0.0,0.0,-0.7081725597381592,0.05950115621089935,-0.2627927362918854,0.0,0.0,0.0,-4.357153415679932,0.2121499925851822,0.8198876976966858,0.4638713598251343,0.7168018817901611,0.043151285499334335,-0.08216968178749084,-0.691072404384613,3.549856424331665,-1.6450470685958862,0.043268878012895584,13.576447486877441,-7.981353759765625,23.636310577392578,0.21133187413215637,0.8237491250038147,0.4645911455154419,3.9681601524353027,-1.131990671157837,-0.14416880905628204,0.3651648461818695,0.7378671765327454,0.42000001668930054,-0.2957497239112854,0.7020703554153442,-1.093583583831787,-3.000002145767212,-0.24001149833202362,-0.22687098383903503,-0.2036234736442566,-0.18039901554584503,-0.03174645081162453,-0.14550739526748657,-0.08504270762205124,-0.042809244245290756
0.5166666666666666,0.03803962469100952,0.005396371241658926,0.0,0.6997382640838623,0.0,0.0,-0.7143992781639099,0.2085477113723755,-0.053380317986011505,0.0,0.0,0.0,-0.08074171841144562,0.26992762088775635,0.7999917268753052,0.45720937848091125,0.6788511872291565,-0.0014479449018836021,-0.08177037537097931,-0.7297071218490601,2.8850882053375244,-1.6741920709609985,-0.5200374126434326,-1.7877023220062256,-2.2495529651641846,10.035744667053223,0.2688341736793518,0.8032546639442444,0.4591349959373474,3.099432945251465,-1.3668646812438965,-0.469160258769989,0.3651648461818695,0.7378671765327454,0.42000001668930054,-0.2831812798976898,0.7905200719833374,-1.1436057090759277,-3.0000014305114746,-0.23905876278877258,-0.22791016101837158,-0.20446479320526123,-0.18126331269741058,0.12839920818805695,0.02293682098388672,-0.004613608121871948,-0.04376363754272461
0.5333333333333333,0.04187038913369179,0.005976484622806311,0.0,0.6849310994148254,0.0,0.0,-0.7286078333854675,0.2565630376338959,0.15699928998947144,0.0,0.0,0.0,-3.275517463684082,0.3151872158050537,0.7796585559844971,0.4432207942008972,0.6525511741638184,-0.039789892733097076,-0.07568807899951935,-0.7529043555259705,2.011913537979126,-1.5144495964050293,-0.8612756729125977,-2.7317843437194824,16.87677001953125,12.028009414672852,0.31424736976623535,0.7827500700950623,0.4460235834121704,2.5056920051574707,-1.2146637439727783,-0.9741148948669434,0.3651648461818695,0.7378671765327454,0.42000001668930054,-0.2673358917236328,1.091389536857605,-1.1936278343200684,-2.9982187747955322,-0.2341540902853012,-0.22546382248401642,-0.20374006032943726,-0.18229347467422485,0.33288413286209106,0.18020649254322052,0.038292787969112396,-0.10245318710803986
0.55,0.047822367399930954,0.003997545689344406,0.0,0.6827590465545654,0.0,0.0,-0.730643630027771,0.3830263912677765,-0.1305830031633377,0.0,0.0,0.0,0.5718048214912415,0.3483488857746124,0.7606659531593323,0.4236285388469696,0.6208046674728394,-0.11058824509382248,-0.08296461403369904,-0.7716791033744812,1.1802127361297607,-1.3665217161178589,-1.0428401231765747,-1.0780410766601562,6.7521562576293945,25.9536190032959,0.34718620777130127,0.7630858421325684,0.42866086959838867,1.6441234350204468,-1.2473633289337158,-1.1336085796356201,0.3651648461818695,0.7378671765327454,0.42000001668930054,-0.2516027092933655,0.7637717723846436,-1.243649959564209,-2.9995510578155518,-0.22598782181739807,-0.2198721319437027,-0.20107193291187286,-0.18252333998680115,0.3842484951019287,0.268278568983078,0.10134442150592804,-0.06854181736707687
0.5666666666666667,0.051652904599905014,0.005453598685562611,0.0,0.6706848740577698,0.0,0.0,-0.7417423725128174,0.18562063574790955,0.1164792999625206,0.0,0.0,0.0,-2.8557283878326416,0.361932635307312,0.7520253658294678,0.422042578458786,0.6288173198699951,-0.036558255553245544,-0.03386487066745758,-0.7759544253349304,0.20868033170700073,-0.6988548040390015,0.006659483537077904,3.748225688934326,-5.882416725158691,20.080745697021484,0.3595280647277832,0.7521892786026001,0.4241553544998169,0.5215363502502441,-0.4457334876060486,-0.12094540894031525,0.3651648461818695,0.7378671765327454,0.42000001668930054,-0.23777131736278534,0.6954969763755798,-1.2054427862167358,2.9929473400115967,-0.21950626373291016,-0.21567755937576294,-0.20016832649707794,-0.1847677081823349,0.46577826142311096,0.3120347857475281,0.08551083505153656,-0.12747564911842346
0.5833333333333334,0.05577908083796501,0.0037783063016831875,0.0,0.6711243987083435,0.0,0.0,-0.7413447499275208,0.28566867113113403,-0.1396920531988144,0.0,0.0,0.0,0.9793780446052551,0.363212913274765,0.7440693378448486,0.42257270216941833,0.6750346422195435,-0.005095595493912697,-0.01398842316120863,-0.7376357316970825,-0.21944458782672882,-0.7374182343482971,0.07475222647190094,5.427017688751221,-3.2325522899627686,15.543749809265137,0.3626875877380371,0.7457597255706787,0.4246305823326111,-0.018897339701652527,-0.36738550662994385,0.08293101191520691,0.3651648461818695,0.7378671765327454,0.42000001668930054,-0.23329584300518036,-0.45665717124938965,-1.2265294790267944,-3.000811815261841,-0.21191425621509552,-0.21007901430130005,-0.1979871243238449,-0.18580012023448944,0.3720758557319641,0.2896512448787689,0.11085909605026245,-0.058364056050777435
0.6,0.05799330025911331,0.00457218149676919,0.0,0.6617972254753113,0.0,0.0,-0.7496829032897949,0.07445910573005676,0.08388924598693848,0.0,0.0,0.0,-2.35272216796875,0.3639400601387024,0.7409182786941528,0.4218671917915344,0.6782733201980591,-0.035094570368528366,-0.02102629840373993,-0.7336698174476624,-0.2669566869735718,-0.5087601542472839,-0.01739000529050827,-0.5713990926742554,-1.217653512954712,17.99785804748535,0.3613950312137604,0.7420400977134705,0.42534375190734863,0.057064395397901535,-0.08028768002986908,0.007722767069935799,0.3651648461818695,0.7378671765327454,0.42000001668930054,-0.2559155523777008,-1.579431414604187,-1.2481580972671509,0.13139604032039642,-0.2055712193250656,-0.2052929550409317,-0.19634446501731873,-0.18703687191009521,0.4291301965713501,0.3322184085845947,0.13978832960128784,-0.03399131819605827
0.6166666666666667,0.06089691445231438,0.005349679384380579,0.0,0.6649869680404663,0.0,0.0,-0.7468549609184265,0.2124653160572052,0.06879518926143646,0.0,0.0,0.0,1.3313629627227783,0.36217114329338074,0.7375625371932983,0.42158374190330505,0.7248769402503967,-0.028411397710442543,-0.024154776707291603,-0.6878681778907776,-0.15198956429958344,-0.19738562405109406,-0.044305503368377686,0.2913365662097931,-1.9712342023849487,6.9252848625183105,0.3610486388206482,0.7420495748519897,0.4270850419998169,-0.09560160338878632,0.017386984080076218,0.1406179666519165,0.3651648461818695,0.7378671765327454,0.42000001668930054,-0.29675281047821045,-2.9947633743286133,-1.2897725105285645,-2.999629497528076,-0.19797846674919128,-0.19918398559093475,-0.1932930201292038,-0.18672263622283936,0.4305253028869629,0.3574458956718445,0.18982793390750885,0.03955266624689102
0.6333333333333333,0.06572264432907104,0.00815580878406763,0.0,0.6569687128067017,0.0,0.0,-0.7539178133010864,0.3254580795764923,0.27094361186027527,0.0,0.0,0.0,-2.185885190963745,0.36046597361564636,0.7350530624389648,0.42034146189689636,0.7513326406478882,-0.005214134696871042,-0.006402931641787291,-0.6598719358444214,-0.0806635171175003,-0.14238451421260834,-0.08401033282279968,4.4233245849609375,0.42742234468460083,3.9425294399261475,0.36032652854919434,0.7450395226478577,0.43005552887916565,-0.01560860127210617,0.25359827280044556,0.21224918961524963,0.3651648461818695,0.7378671765327454,0.42000001668930054,-0.3467267155647278,-2.998666763305664,-1.3397314548492432,-2.998997926712036,-0.18859563767910004,-0.19168227910995483,-0.1890573501586914,-0.18532811105251312,0.6019225120544434,0.48392295837402344,0.28871414065361023,0.12033318728208542
0.65,0.07239526510238647,0.00859005842357874,0.0,0.6610829830169678,0.0,0.0,-0.7503128051757812,0.4294784367084503,-0.03627555072307587,0.0,0.0,0.0,1.5355913639068604,0.35994693636894226,0.7339142560958862,0.42000001668930054,0.7619255185127258,-4.056253601447679e-06,-3.5557909541239496e-06,-0.6476646661758423,-0.03415713459253311,-0.046210721135139465,-0.0002062023850157857,0.003485756693407893,-0.00047412567073479295,1.9921762943267822,0.3596569895744324,0.7485514283180237,0.4352708160877228,-0.07712562382221222,0.17752446234226227,0.46747440099716187,0.3651648461818695,0.7378671765327454,0.42000001668930054,-0.39674100279808044,-3.0000014305114746,-1.3897500038146973,-2.9999992847442627,-0.17992353439331055,-0.18422868847846985,-0.18403589725494385,-0.1823478639125824,0.40224888920783997,0.3709941506385803,0.2709311544895172,0.19065648317337036
0.6666666666666666,0.08059391379356384,0.005463492125272751,0.0,0.6540775299072266,0.0,0.0,-0.756427526473999,0.5235569477081299,-0.25331035256385803,0.0,0.0,0.0,-2.090765953063965,0.35981252789497375,0.7337274551391602,0.4199999272823334,0.7645771503448486,-1.3165701602702029e-05,-1.1630863809841685e-06,-0.6445322036743164,-0.00111748231574893,-0.0010891297133639455,-0.00044497509952634573,-0.006629236042499542,-0.00543226720765233,-0.012992190197110176,0.3618493974208832,0.7508581876754761,0.4401669502258301,0.33582693338394165,0.08664700388908386,0.29026493430137634,0.3651648461818695,0.7378671765327454,0.42000001668930054,-0.4467545747756958,-3.0,-1.4397683143615723,-3.0,-0.1748160570859909,-0.17899124324321747,-0.17964376509189606,-0.17845121026039124,0.2629668116569519,0.30061498284339905,0.28809553384780884,0.29659026861190796
0.6833333333333333,0.09084118157625198,-0.0013077055336907506,0.0,0.6262536644935608,0.0,0.0,-0.7796193957328796,0.6557773351669312,-0.4762251675128937,0.0,0.0,0.0,-5.236741542816162,0.3598111569881439,0.7337263822555542,0.42000001668930054,0.7645745873451233,9.007254107018525e-07,-4.2755755202961154e-06,-0.6445351243019104,0.0002659208548720926,-0.0002433782210573554,-8.527282625436783e-05,0.0035804894287139177,0.003162090200930834,0.00035153180942870677,0.37022310495376587,0.7515147924423218,0.45283353328704834,0.7197662591934204,0.018795982003211975,1.3305561542510986,0.3651648461818695,0.7378671765327454,0.42000001668930054,-0.4967676103115082,-2.999951124191284,-1.4897866249084473,-2.9999990463256836,-0.17347832024097443,-0.1764707863330841,-0.1767011135816574,-0.17481261491775513,-0.014037994667887688,0.07390058040618896,0.12051501870155334,0.179886132478714
0.7,0.10475873202085495,-0.002843200694769621,0.0,0.6109837293624878,0.0,0.0,-0.7916431427001953,0.972702145576477,0.043979011476039886,0.0,0.0,0.0,-1.3713030815124512,0.3598111569881439,0.7337263226509094,0.42000001668930054,0.7645745873451233,1.1465342595329275e-06,-4.281966084818123e-06,-0.6445351839065552,0.00027124094776809216,-0.00022994658502284437,-8.77229031175375e-05,0.003340533236041665,0.0033361343666911125,0.0003242085804231465,0.3815469741821289,0.7543661594390869,0.4794171452522278,0.6498215198516846,0.3409625291824341,1.7845245599746704,0.3651648461818695,0.7378671765327454,0.42000001668930054,-0.5245998501777649,-0.531991720199585,-1.5398049354553223,-3.0,-0.17947258055210114,-0.18034842610359192,-0.17922662198543549,-0.17599539458751678,-0.41818907856941223,-0.31081536412239075,-0.24798251688480377,-0.19094407558441162
0.7166666666666667,0.11534588038921356,-0.0012576277367770672,0.0,0.6197646856307983,0.0,0.0,-0.7847877144813538,0.5211264491081238,0.0022971504367887974,0.0,0.0,0.0,2.1164989471435547,0.3598111569881439,0.7337263226509094,0.42000001668930054,0.7645744681358337,1.1737090517272009e-06,-4.3272357288515195e-06,-0.6445352435112,0.00027149965171702206,-0.00023102833074517548,-8.767284452915192e-05,0.0033609229139983654,0.003339555812999606,0.00032611200003884733,0.3933737576007843,0.7610373497009277,0.50282883644104,0.7319642901420593,0.44652846455574036,1.027077078819275,0.3651648461818695,0.7378671765327454,0.42000001668930054,-0.5120551586151123,1.8247889280319214,-1.5380080938339233,2.717617988586426,-0.18215760588645935,-0.18209312856197357,-0.18060199916362762,-0.17703604698181152,0.10066847503185272,0.10537662357091904,0.08467192947864532,0.06519167870283127
0.7333333333333333,0.12076260149478912,-0.005767889320850372,0.0,0.6156502366065979,0.0,0.0,-0.7880195379257202,0.2846889793872833,-0.3242543637752533,0.0,0.0,0.0,-1.5864757299423218,0.3598111569881439,0.7337263226509094,0.42000001668930054,0.7645744681358337,1.1648755844362313e-06,-4.400491434353171e-06,-0.6445353627204895,0.0002713019785005599,-0.00023066489666234702,-8.766516111791134e-05,0.0033539619762450457,0.003335751360282302,0.0003255370247643441,0.4017411172389984,0.7662699222564697,0.5136478543281555,0.257165789604187,0.09701861441135406,0.4414522647857666,0.3651648461818695,0.7378671765327454,0.42000001668930054,-0.5113673210144043,-1.4566400051116943,-1.4879523515701294,3.000000476837158,-0.17875714600086212,-0.1786232739686966,-0.177451491355896,-0.1742526888847351,0.10300856083631516,0.142818421125412,0.15829311311244965,0.1634693741798401
0.75,0.12290271371603012,-0.0050678253173828125,0.0,0.6232231259346008,0.0,0.0,-0.7820441126823425,0.08353865146636963,0.02412736974656582,0.0,0.0,0.0,1.891400933265686,0.3598111569881439,0.7337263226509094,0.42000001668930054,0.7645743489265442,1.1765290537368855e-06,-4.452361281437334e-06,-0.6445354223251343,0.0002714211877901107,-0.00023085680732037872,-8.767307735979557e-05,0.0033576078712940216,0.0033379667438566685,0.00032583202118985355,0.4057151973247528,0.7657668590545654,0.5181058645248413,0.29012542963027954,0.04704543203115463,0.10417626798152924,0.3651648461818695,0.7378671765327454,0.42000001668930054,-0.5222752094268799,0.028577277436852455,-1.504341959953308,-3.0,-0.1821436882019043,-0.18028979003429413,-0.1778370440006256,-0.17367586493492126,-0.02093289978802204,0.034411318600177765,0.07107336074113846,0.09309301525354385
0.7666666666666666,0.12211643159389496,-0.007279759738594294,0.0,0.6186065673828125,0.0,0.0,-0.7857009172439575,-0.11065857857465744,-0.16660688817501068,0.0,0.0,0.0,-1.482046365737915,0.35981112718582153,0.7337263226509094,0.42000001668930054,0.7645745277404785,1.110089328903996e-06,-4.3780314626928885e-06,-0.6445351839065552,0.000271801050985232,-0.00023075679200701416,-8.795992471277714e-05,0.0033532255329191685,0.0033393241465091705,0.00032549755997024477,0.40708163380622864,0.7639357447624207,0.5147331953048706,-0.11522652208805084,-0.25394344329833984,-0.33964425325393677,0.3651648461818695,0.7378671765327454,0.42000001668930054,-0.5464569926261902,-2.6759142875671387,-1.470167875289917,3.0000007152557373,-0.18257687985897064,-0.17964887619018555,-0.17636743187904358,-0.171626478433609,-0.07120621204376221,0.008851476013660431,0.07645977288484573,0.1277310699224472
0.7833333333333333,0.12284813076257706,-0.006011436693370342,0.0,0.6248811483383179,0.0,0.0,-0.7807198762893677,0.08700135350227356,0.10180103778839111,0.0,0.0,0.0,1.7073454856872559,0.3598111569881439,0.7337263226509094,0.42000001668930054,0.7645745873451233,1.0250423656543717e-06,-4.1222397157980595e-06,-0.6445351839065552,0.00027188906096853316,-0.0002311027201358229,-8.786539547145367e-05,0.003361332695931196,0.0033443993888795376,0.00032602527062408626,0.40584200620651245,0.7600386142730713,0.5128132104873657,-0.022824602201581,-0.14065977931022644,0.1292351484298706,0.3651648461818695,0.7378671765327454,0.42000001668930054,-0.5880672931671143,-2.3145077228546143,-1.486953616142273,-3.000000476837158,-0.1853126883506775,-0.18113850057125092,-0.1766575127840042,-0.17087867856025696,-0.0646970197558403,-0.0264084804803133,0.019169434905052185,0.06349871307611465
0.8,0.12580083310604095,-0.0085813719779253,0.0,0.6187347173690796,0.0,0.0,-0.7856000065803528,0.20322608947753906,-0.1781856268644333,0.0,0.0,0.0,-1.827979564666748,0.3598111569881439,0.7337263226509094,0.42000001668930054,0.7645744681358337,1.0546692692514625e-06,-4.201124738756334e-06,-0.6445352435112,0.0002715422888286412,-0.0002306441165274009,-8.780625648796558e-05,0.0033525999169796705,0.0033381434623152018,0.00032535690115764737,0.40853151679039,0.7579267621040344,0.5134713649749756,0.28358006477355957,-0.21456651389598846,0.10714022070169449,0.3651648461818695,0.7378671765327454,0.42000001668930054,-0.6343304514884949,-2.9999961853027344,-1.536971926689148,-3.0,-0.18357132375240326,-0.17921210825443268,-0.1742844134569168,-0.1679583191871643,0.0427604578435421,0.07761367410421371,0.13036097586154938,0.18942056596279144
0.8166666666666667,0.1315246820449829,-0.008845946751534939,0.0,0.5908746719360352,0.0,0.0,-0.8067633509635925,0.3949926495552063,0.06454705446958542,0.0,0.0,0.0,-4.9805521965026855,0.3598111569881439,0.7337263226509094,0.42000001668930054,0.7645745873451233,1.084886434910004e-06,-4.29028023063438e-06,-0.6445352435112,0.0002713977883104235,-0.00023038919607643038,-8.7798573076725e-05,0.003347760299220681,0.003335266374051571,0.0003249542787671089,0.41531476378440857,0.7541954517364502,0.5202069282531738,0.5743405222892761,-0.1842288374900818,0.7972748279571533,0.3651648461818695,0.7378671765327454,0.42000001668930054,-0.6843335032463074,-2.9999988079071045,-1.586990237236023,-2.999999761581421,-0.18403635919094086,-0.17930488288402557,-0.1736387312412262,-0.1664143055677414,0.01434398628771305,0.00794071052223444,0.028163453564047813,0.06251579523086548
0.8333333333333334,0.13958929479122162,-0.005268802400678396,0.0,0.5786565542221069,0.0,0.0,-0.8155713081359863,0.5226232409477234,0.2727477252483368,0.0,0.0,0.0,-0.8070604205131531,0.3598111569881439,0.7337263226509094,0.42000001668930054,0.7645743489265442,1.1529372159202467e-06,-4.31797116107191e-06,-0.6445354223251343,0.0002712836139835417,-0.00023065440473146737,-8.762860670685768e-05,0.0033537750132381916,0.0033362358808517456,0.0003255382471252233,0.42213547229766846,0.755535364151001,0.5338928699493408,0.20864197611808777,0.26382505893707275,0.8614118099212646,0.3651648461818695,0.7378671765327454,0.42000001668930054,-0.700203537940979,0.7807376384735107,-1.6370080709457397,-2.999999761581421,-0.18311183154582977,-0.17904706299304962,-0.17365996539592743,-0.1665291041135788,0.10708507895469666,0.04243931546807289,-0.004547880496829748,-0.04470735788345337
0.85,0.14448750019073486,-0.00627103028818965,0.0,0.5915030837059021,0.0,0.0,-0.8063027262687683,0.27860385179519653,-0.14353924989700317,0.0,0.0,0.0,2.608966827392578,0.3598111569881439,0.7337263226509094,0.42000001668930054,0.764574408531189,1.0680604418666917e-06,-4.0892477954912465e-06,-0.6445353627204895,0.00027159633464179933,-0.0002308777329744771,-8.781184442341328e-05,0.003356397617608309,0.0033375935163348913,0.00032584447762928903,0.42266106605529785,0.7639596462249756,0.5458924770355225,-0.1808682084083557,0.560670793056488,0.6027073860168457,0.3651648461818695,0.7378671765327454,0.42000001668930054,-0.667557954788208,2.925528049468994,-1.5978922843933105,3.0000009536743164,-0.17659351229667664,-0.1742587834596634,-0.1703723818063736,-0.164663627743721,0.31779634952545166,0.2386762797832489,0.1654631793498993,0.08926987648010254
0.8666666666666667,0.14575740694999695,-0.008134471252560616,0.0,0.5896497368812561,0.0,0.0,-0.8076590895652771,0.007666758727282286,-0.14204517006874084,0.0,0.0,0.0,-1.2012821435928345,0.3598111569881439,0.7337263226509094,0.42000001668930054,0.7645745277404785,1.1580649470488424e-06,-4.318819264881313e-06,-0.6445353627204895,0.0002713771245907992,-0.00023082438565324992,-8.765142410993576e-05,0.0033570111263543367,0.0033374957274645567,0.0003258029173593968,0.4132520258426666,0.769868016242981,0.5536339282989502,-0.8693187236785889,0.23782600462436676,0.45745205879211426,0.3651648461818695,0.7378671765327454,0.42000001668930054,-0.6477656960487366,-0.288152277469635,-1.5478358268737793,2.999999523162842,-0.17517900466918945,-0.1732061356306076,-0.1696576327085495,-0.16442471742630005,0.025333834812045097,0.025692854076623917,0.025093259289860725,0.014148441143333912
0.8833333333333333,0.14404460787773132,-0.004544002935290337,0.0,0.5996426343917847,0.0,0.0,-0.8002678751945496,-0.14789478480815887,0.3324386775493622,0.0,0.0,0.0,2.3667943477630615,0.3598111569881439,0.7337263226509094,0.42000001668930054,0.7645745277404785,1.0673322776710847e-06,-4.238171641191002e-06,-0.6445353031158447,0.000271327153313905,-0.00023023347603157163,-8.780253119766712e-05,0.0033447553869336843,0.003333884757012129,0.0003246995620429516,0.4020153284072876,0.7724881172180176,0.5612834692001343,-0.5170955061912537,0.17640835046768188,0.4937061071395874,0.3651648461818695,0.7378671765327454,0.42000001668930054,-0.6270564794540405,2.511864185333252,-1.4978327751159668,2.999999761581421,-0.18011726438999176,-0.1769634634256363,-0.17230729758739471,-0.16621114313602448,-0.3404586613178253,-0.25859013199806213,-0.17996057868003845,-0.11425065994262695
