vladlanda/robotic-transformer/data/env_000_episode_0064.csv
sim_time_s,robot_box_x,robot_box_y,robot_box_z,robot_box_quat_w,robot_box_quat_x,robot_box_quat_y,robot_box_quat_z,robot_box_linvel_x,robot_box_linvel_y,robot_box_linvel_z,robot_box_angvel_x,robot_box_angvel_y,robot_box_angvel_z,cube_world_x,cube_world_y,cube_world_z,cube_quat_w,cube_quat_x,cube_quat_y,cube_quat_z,cube_linvel_x,cube_linvel_y,cube_linvel_z,cube_angvel_x,cube_angvel_y,cube_angvel_z,endpoint_world_x,endpoint_world_y,endpoint_world_z,endpoint_linvel_x,endpoint_linvel_y,endpoint_linvel_z,target_cube_world_x,target_cube_world_y,target_cube_world_z,gripper_actual_pos_rad_gp_leftgearjoint,gripper_actual_vel_rad_s_gp_leftgearjoint,gripper_actual_pos_rad_gp_rotatingjoint,gripper_actual_vel_rad_s_gp_rotatingjoint,motor_angle_rad_joint1,motor_angle_rad_joint2,motor_angle_rad_joint3,motor_angle_rad_joint4,motor_speed_rad_s_joint1,motor_speed_rad_s_joint2,motor_speed_rad_s_joint3,motor_speed_rad_s_joint4
0.0,0.0,0.0,0.0,1.0,0.0,0.0,0.0,0.0,0.0,0.0,0.0,0.0,0.0,-0.44524362683296204,0.72467041015625,0.41999998688697815,1.0,0.0,0.0,0.0,0.0,0.0,0.0,0.0,0.0,0.0,3.42540442943573e-06,-0.005000244826078415,1.313499927520752,0.0,0.0,0.0,0.3667986989021301,0.6209433674812317,0.42000001668930054,-1.5707999467849731,0.0,0.0,0.0,0.0,0.0,0.0,0.0,0.0,0.0,0.0,0.0
0.016666666666666666,0.0028778850100934505,0.0021806680597364902,0.0,0.9998081922531128,0.0,0.0,0.019586581736803055,0.24087215960025787,0.18240931630134583,0.0,0.0,0.0,3.1418697834014893,-0.4452437460422516,0.7246701121330261,0.41999998688697815,1.0,3.2799914606584935e-06,-8.339814598912199e-07,8.465387679734704e-08,-1.9833554688375443e-05,0.00017983050202019513,-6.133061833679676e-05,0.0009432226070202887,-0.004689437802881002,-0.0003198152990080416,-0.007110234349966049,0.003379564033821225,1.3159373998641968,-0.8143353462219238,0.9868683815002441,0.18095196783542633,0.3667986989021301,0.6209433674812317,0.42000001668930054,-1.5301095247268677,3.0000011920928955,-0.04584788903594017,-2.9999992847442627,0.0008691533003002405,0.0007963840034790337,0.0007110277656465769,0.0006108740926720202,0.11094217747449875,0.09756709635257721,0.08334315568208694,0.06823883205652237
0.03333333333333333,0.008960974402725697,0.006801914889365435,0.0,0.9997960329055786,0.0,0.0,0.020196842029690742,0.4070209264755249,0.3153087794780731,0.0,0.0,0.0,-0.8691299557685852,-0.44524386525154114,0.7246700525283813,0.4200000464916229,1.0,3.390885240150965e-06,-2.1324319732229924e-06,-3.711133800265998e-08,0.00026357753085903823,0.00026937859365716577,-0.00010509602725505829,-0.0017706351354718208,0.004130707122385502,-0.00013548039714805782,-0.027548741549253464,0.026028960943222046,1.3166223764419556,-1.5915225744247437,1.614920973777771,-0.08203455805778503,0.3667986989021301,0.6209433674812317,0.42000001668930054,-1.4800903797149658,3.000001907348633,-0.09588771313428879,-3.0000007152557373,0.0029901477973908186,0.0026527743320912123,0.0022773626260459423,0.001860834308899939,0.1642221361398697,0.1397668868303299,0.11382712423801422,0.08631040900945663
0.05,0.01772931031882763,0.01376830693334341,0.0,0.9993829131126404,0.0,0.0,0.03512603044509888,0.5934179425239563,0.46491581201553345,0.0,0.0,0.0,2.6512553691864014,-0.4452438950538635,0.7246701121330261,0.4200000464916229,1.0,3.7651666389137972e-06,-2.2119106688478496e-06,5.6201381326559385e-09,0.00026530789909884334,0.00026691396487876773,-0.0001044049859046936,-0.0017242879839614034,0.004177392926067114,-0.00012949586380273104,-0.05966511741280556,0.05353552848100662,1.3117567300796509,-2.1871769428253174,1.7205727100372314,-0.4627319574356079,0.3667986989021301,0.6209433674812317,0.42000001668930054,-1.4300720691680908,2.9999988079071045,-0.1459263563156128,-3.0,0.005701751448214054,0.004910126328468323,0.0040463791228830814,0.003105537500232458,0.192739337682724,0.1558387577533722,0.11706312000751495,0.0763327032327652
0.06666666666666667,0.02903834730386734,0.023059437051415443,0.0,0.9994539022445679,0.0,0.0,0.03304431959986687,0.7199933528900146,0.5950795412063599,0.0,0.0,0.0,-1.2080317735671997,-0.4452438950538635,0.7246700525283813,0.4200000464916229,0.9999999403953552,3.406765927138622e-06,-2.285584969285992e-06,4.3010237504859106e-07,0.0002670253161340952,0.00026791723212227225,-0.00010437797755002975,-0.0017405577236786485,0.004211726598441601,-0.0001285084872506559,-0.0968853086233139,0.0875992625951767,1.2999415397644043,-2.3049397468566895,2.2500956058502197,-0.9303169846534729,0.3667986989021301,0.6209433674812317,0.42000001668930054,-1.3800537586212158,3.0000016689300537,-0.1959536075592041,-3.0,0.008135570213198662,0.006602708250284195,0.004958907142281532,0.0031976972240954638,0.1337323635816574,0.07735098153352737,0.018924780189990997,-0.04163338616490364
0.08333333333333333,0.03440706804394722,0.03569478169083595,0.0,1.0,0.0,0.0,-1.7046755601768382e-05,0.18994206190109253,0.8245190382003784,0.0,0.0,0.0,-4.931653022766113,-0.4452438950538635,0.7246700525283813,0.4200000464916229,1.0,3.697324700624449e-06,-2.1889497929805657e-06,-2.6323201041122957e-07,0.00026389677077531815,0.0002658632874954492,-0.00010433816350996494,-0.001708115916699171,0.004150166176259518,-0.0001299091090913862,-0.13341814279556274,0.12933430075645447,1.2803059816360474,-2.11934232711792,2.6273040771484375,-1.3301242589950562,0.3667986989021301,0.6209433674812317,0.42000001668930054,-1.3300273418426514,2.999993085861206,-0.16218821704387665,3.000001907348633,0.004747022874653339,0.0025640774983912706,0.00021909159841015935,-0.002298678271472454,-0.29990875720977783,-0.34500041604042053,-0.3926631212234497,-0.4431799352169037
0.1,0.04374047368764877,0.049686260521411896,0.0,0.9998933672904968,0.0,0.0,-0.01460186392068863,0.6784307956695557,0.8491571545600891,0.0,0.0,0.0,-0.6947290897369385,-0.4452438950538635,0.7246700525283813,0.4200000464916229,0.9999999403953552,3.6204476145940134e-06,-2.2652093321084976e-06,1.746138025282562e-07,0.00026676998822949827,0.0002674069837667048,-0.00010407832451164722,-0.0017385098617523909,0.0042091780342161655,-0.00012775610957760364,-0.1708621084690094,0.16914018988609314,1.259883165359497,-2.2247214317321777,2.433602809906006,-1.2112672328948975,0.3667986989021301,0.6209433674812317,0.42000001668930054,-1.2800304889678955,3.0000009536743164,-0.19387301802635193,-3.000000238418579,0.004641982726752758,0.000900343875400722,-0.003000440774485469,-0.0070710633881390095,0.024639176204800606,-0.0815032422542572,-0.18673011660575867,-0.2909848690032959
0.11666666666666667,0.05151251703500748,0.06283164024353027,0.0,0.9991334676742554,0.0,0.0,-0.041621215641498566,0.460987389087677,0.759980320930481,0.0,0.0,0.0,-3.925896406173706,-0.4452438950538635,0.7246700525283813,0.4200000464916229,1.0,3.7984607388352742e-06,-2.2627837097388692e-06,-1.502189377333707e-07,0.0002637402794789523,0.000265660259174183,-0.00010428996756672859,-0.001705392962321639,0.004147498402744532,-0.0001297990238526836,-0.20425087213516235,0.21602049469947815,1.2390127182006836,-1.798443078994751,3.1750478744506836,-1.258115530014038,0.3667986989021301,0.6209433674812317,0.42000001668930054,-1.2300078868865967,2.999994993209839,-0.16011154651641846,3.0000009536743164,0.003082945477217436,-0.00258085154928267,-0.008378840051591396,-0.014315965585410595,-0.06372913718223572,-0.19709628820419312,-0.32787367701530457,-0.4553716778755188
0.13333333333333333,0.05642306059598923,0.07736720889806747,0.0,0.9956177473068237,0.0,0.0,-0.09351617842912674,0.2265639752149582,0.9231566190719604,0.0,0.0,0.0,-7.036276817321777,-0.4452438950538635,0.7246701121330261,0.4200000464916229,0.9999999403953552,3.5505347568687284e-06,-2.22979360842146e-06,2.929032234533224e-07,0.00026703241746872663,0.0002677922893781215,-0.00010416889563202858,-0.0017439969815313816,0.004213562235236168,-0.00012800225522369146,-0.2350318431854248,0.27030307054519653,1.2170348167419434,-1.8454898595809937,3.3758392333984375,-1.4415974617004395,0.3667986989021301,0.6209433674812317,0.42000001668930054,-1.1941609382629395,1.4086562395095825,-0.19186235964298248,-3.0,0.000798090361058712,-0.0070030465722084045,-0.014878167770802975,-0.022821802645921707,-0.21152956783771515,-0.3254348635673523,-0.43550705909729004,-0.5412440896034241
0.15,0.05820409581065178,0.0899866595864296,0.0,0.9921998381614685,0.0,0.0,-0.1246575266122818,0.05831494182348251,0.6804764866828918,0.0,0.0,0.0,-2.6822972297668457,-0.4452438950538635,0.7246700525283813,0.4200000464916229,0.9999999403953552,3.3381270441168454e-06,-2.242865321022691e-06,-2.8034685684019678e-08,0.00026674428954720497,0.00026758096646517515,-0.00010427669622004032,-0.001736762817017734,0.004206823650747538,-0.00012831517960876226,-0.27318108081817627,0.32412415742874146,1.186880350112915,-2.343287467956543,3.418882131576538,-2.139643430709839,0.3667986989021301,0.6209433674812317,0.42000001668930054,-1.151038408279419,2.999999761581421,-0.169850692152977,2.999999523162842,-0.0034049376845359802,-0.012771347537636757,-0.022136960178613663,-0.03149127587676048,-0.30373263359069824,-0.37605857849121094,-0.44404181838035583,-0.5075747966766357
0.16666666666666666,0.056535083800554276,0.10311571508646011,0.0,0.9859346747398376,0.0,0.0,-0.16713131964206696,-0.1621520072221756,0.8285699486732483,0.0,0.0,0.0,-6.001717567443848,-0.4452438950538635,0.7246701121330261,0.4200000464916229,0.9999999403953552,3.6478829770203447e-06,-2.3072709609550657e-06,3.525496694578578e-08,0.0002672694972716272,0.00026801449712365866,-0.0001041849609464407,-0.0017472092295065522,0.0042175669223070145,-0.00012798579700756818,-0.3096769154071808,0.384097158908844,1.1498905420303345,-1.932140588760376,3.850796699523926,-2.318603038787842,0.3667986989021301,0.6209433674812317,0.42000001668930054,-1.1016027927398682,2.9033472537994385,-0.20152124762535095,-3.000000476837158,-0.01048927940428257,-0.021052608266472816,-0.03153466805815697,-0.04192362725734711,-0.5120518803596497,-0.5769861936569214,-0.6372998952865601,-0.6929534077644348
0.18333333333333332,0.0597052238881588,0.11711568385362625,0.0,0.9813140034675598,0.0,0.0,-0.19241321086883545,0.3094524145126343,0.8680858016014099,0.0,0.0,0.0,-2.059169292449951,-0.4452438950538635,0.7246700525283813,0.4200000464916229,0.9999999403953552,3.2905975331232185e-06,-2.1938601548754377e-06,-2.792509121718467e-07,0.00026677976711653173,0.000267760653514415,-0.00010434305295348167,-0.0017391698202118278,0.004207034129649401,-0.00012845548917539418,-0.3454279899597168,0.44528910517692566,1.103209137916565,-2.028859853744507,3.77622127532959,-3.23537278175354,0.3667986989021301,0.6209433674812317,0.42000001668930054,-1.068889856338501,1.1468889713287354,-0.25154969096183777,-3.0,-0.01677197590470314,-0.0281258262693882,-0.039323996752500534,-0.05035969614982605,-0.3810732364654541,-0.4041244089603424,-0.42358505725860596,-0.43995341658592224
0.2,0.05966111645102501,0.12823161482810974,0.0,0.9730553030967712,0.0,0.0,-0.2305718958377838,-0.0740698054432869,0.6185624003410339,0.0,0.0,0.0,-5.3144211769104,-0.4452438950538635,0.7246700525283813,0.4200000464916229,1.0,3.2808072774059838e-06,-2.2191500193002867e-06,1.5945313691645424e-07,0.0002662790648173541,0.00026740203611552715,-0.00010425224900245667,-0.0017357355682179332,0.00419772369787097,-0.00012865342432633042,-0.37814149260520935,0.5099966526031494,1.0423591136932373,-1.7411761283874512,4.040448188781738,-4.001445770263672,0.3667986989021301,0.6209433674812317,0.42000001668930054,-1.0244745016098022,2.9999985694885254,-0.3015761077404022,-2.999999761581421,-0.02903219312429428,-0.04019924998283386,-0.05084539204835892,-0.061335667967796326,-0.8439911007881165,-0.8442205786705017,-0.7910465002059937,-0.7388884425163269
0.21666666666666667,0.055569931864738464,0.14001454412937164,0.0,0.9687740802764893,0.0,0.0,-0.24794505536556244,-0.3035237491130829,0.7462441921234131,0.0,0.0,0.0,-1.096540093421936,-0.4452438950538635,0.7246701121330261,0.4200000464916229,1.0,3.6132007608102867e-06,-2.27001987695985e-06,2.209884542025975e-07,0.00026712543331086636,0.000267817173153162,-0.00010414118878543377,-0.0017445571720600128,0.0042151594534516335,-0.00012786350271198899,-0.4093642234802246,0.5703856348991394,0.9688716530799866,-1.672317624092102,3.4734134674072266,-4.760437965393066,0.3667986989021301,0.6209433674812317,0.42000001668930054,-0.9744718670845032,3.000000476837158,-0.3516034781932831,-3.00000262260437,-0.044914666563272476,-0.05564574897289276,-0.06496862322092056,-0.07416486740112305,-0.984951376914978,-0.9502027034759521,-0.8584257364273071,-0.7689575552940369
0.23333333333333334,0.05447890982031822,0.15190036594867706,0.0,0.9604920148849487,0.0,0.0,-0.27830755710601807,-0.059483736753463745,0.7546971440315247,0.0,0.0,0.0,-4.5732421875,-0.4452438950538635,0.7246700525283813,0.4200000464916229,1.0,3.3819155760284048e-06,-2.2908357095730025e-06,2.72774286713684e-07,0.0002669130335561931,0.00026779918698593974,-0.00010433373972773552,-0.0017396233743056655,0.004209747537970543,-0.0001284362078877166,-0.4357822835445404,0.6268389225006104,0.883257269859314,-1.320016622543335,3.1918587684631348,-5.447538375854492,0.3667986989021301,0.6209433674812317,0.42000001668930054,-0.9244630932807922,3.000002145767212,-0.40163305401802063,-2.999999761581421,-0.06068343296647072,-0.07110676914453506,-0.07964030653238297,-0.08748278766870499,-0.9880038499832153,-0.9900048971176147,-0.9915505647659302,-0.9488765001296997
0.25,0.05068153515458107,0.16085277497768402,0.0,0.9565778970718384,0.0,0.0,-0.29147693514823914,-0.3116101622581482,0.18373322486877441,0.0,0.0,0.0,-1.4703593254089355,-0.44524386525154114,0.7246700525283813,0.4200000464916229,0.9999999403953552,3.7066249660711037e-06,-2.222870307377889e-06,-2.2553399503522087e-07,0.00026424837415106595,0.0002665679494384676,-0.00010457751341164112,-0.0017169459024444222,0.004155553411692381,-0.00013062948710285127,-0.4560740292072296,0.6691281795501709,0.7875450849533081,-0.8030303716659546,2.1134696006774902,-5.998522758483887,0.3667986989021301,0.6209433674812317,0.42000001668930054,-0.8744524121284485,2.999995470046997,-0.45166391134262085,-2.9999988079071045,-0.07676691561937332,-0.08718246966600418,-0.09565035998821259,-0.10337734967470169,-0.9785490036010742,-0.9768001437187195,-0.9768136143684387,-0.977523922920227
0.26666666666666666,0.0418219119310379,0.16467918455600739,0.0,0.948418915271759,0.0,0.0,-0.31701982021331787,-0.6421520113945007,0.28028804063796997,0.0,0.0,0.0,-3.87685489654541,-0.4452438950538635,0.7246700525283813,0.4200000464916229,0.9999999403953552,3.719741698660073e-06,-2.40333838519291e-06,-1.8310879568161909e-07,0.00026623293524608016,0.00026729016099125147,-0.00010425737127661705,-0.0017326247179880738,0.004196592606604099,-0.00012851442443206906,-0.4682089686393738,0.7008935213088989,0.6835612058639526,-0.4093809127807617,1.5456081628799438,-6.325666427612305,0.3667986989021301,0.6209433674812317,0.42000001668930054,-0.824442446231842,3.0000009536743164,-0.5016950368881226,-2.9999983310699463,-0.0935387834906578,-0.1039244681596756,-0.11236997693777084,-0.12007682770490646,-0.9985779523849487,-0.9985572099685669,-0.9985682964324951,-0.9985942244529724
0.2833333333333333,0.03610312193632126,0.16570474207401276,0.0,0.9464834928512573,0.0,0.0,-0.32275232672691345,-0.24091851711273193,0.012412584386765957,0.0,0.0,0.0,0.2599017322063446,-0.4452438950538635,0.7246701121330261,0.4200000464916229,0.9999999403953552,3.5841662793245632e-06,-2.315337951586116e-06,7.401188639732936e-08,0.0002652204711921513,0.00026455201441422105,-0.00010317075066268444,-0.001702053239569068,0.004185079596936703,-0.0001249972265213728,-0.4749011993408203,0.7182497978210449,0.57795250415802,-0.14587964117527008,0.5620617866516113,-6.332026481628418,0.3667986989021301,0.6209433674812317,0.42000001668930054,-0.7744336128234863,2.9999992847442627,-0.5517249703407288,-2.999999523162842,-0.10981661826372147,-0.12020298093557358,-0.12858924269676208,-0.13622969388961792,-0.9967796802520752,-0.9968762397766113,-0.9969836473464966,-0.9971532821655273
0.3,0.02789524756371975,0.16484060883522034,0.0,0.9398992657661438,0.0,0.0,-0.3414517939090729,-0.5855919718742371,-0.0819443017244339,0.0,0.0,0.0,-3.271677017211914,-0.4452438950538635,0.7246700525283813,0.4200000464916229,1.0,3.724338057509158e-06,-2.2718145373801235e-06,9.632610442622536e-08,0.0002631258394103497,0.00026525926659815013,-0.00010438263416290283,-0.0016961469082161784,0.00413482217118144,-0.00013027766544837505,-0.46911168098449707,0.723686695098877,0.4754605293273926,0.8326711654663086,0.13692700862884521,-5.77880859375,0.3667986989021301,0.6209433674812317,0.42000001668930054,-0.7244248986244202,3.0,-0.6017536520957947,-3.0000030994415283,-0.12802091240882874,-0.13804280757904053,-0.14615194499492645,-0.15357260406017303,-1.014522671699524,-1.010964035987854,-1.0082448720932007,-1.0060709714889526
0.31666666666666665,0.016095057129859924,0.1622549444437027,0.0,0.9391774535179138,0.0,0.0,-0.34343230724334717,-0.6355242729187012,-0.2578827738761902,0.0,0.0,0.0,0.6846664547920227,-0.4449826180934906,0.7237043976783752,0.4199967086315155,0.9997960925102234,0.00013573408068623394,-2.002391920541413e-05,-0.020190494135022163,0.002556201070547104,-0.17885060608386993,-0.002033666707575321,-0.10033102333545685,-0.0007965966360643506,-6.077939510345459,-0.46201199293136597,0.7254285216331482,0.4280152916908264,0.1673261523246765,-0.07877212017774582,-0.29071134328842163,0.3667986989021301,0.6209433674812317,0.42000001668930054,-0.6744197010993958,2.9999639987945557,-0.6521643400192261,-3.0000555515289307,-0.14161743223667145,-0.1513328105211258,-0.15903210639953613,-0.16588294506072998,-0.2776024043560028,-0.3130553066730499,-0.3316018879413605,-0.32529860734939575
0.3333333333333333,0.003716167062520981,0.15659306943416595,0.0,0.9333874583244324,0.0,0.0,-0.358870267868042,-0.792638897895813,-0.38132336735725403,0.0,0.0,0.0,-2.871851921081543,-0.44402119517326355,0.7229724526405334,0.420179158449173,0.9981430768966675,0.0043700262904167175,-4.488186095841229e-05,-0.060755278915166855,0.24547713994979858,0.26737138628959656,0.0406794436275959,2.264193296432495,-0.33074483275413513,-11.110674858093262,-0.4600690007209778,0.7310845851898193,0.4252071678638458,0.1844436526298523,0.4345148205757141,-0.1880653202533722,0.3667986989021301,0.6209433674812317,0.42000001668930054,-0.6244134902954102,2.9999051094055176,-0.7022476196289062,-2.9999992847442627,-0.14685805141925812,-0.1568349003791809,-0.1645599752664566,-0.17104536294937134,-0.34203392267227173,-0.3418900668621063,-0.33326318860054016,-0.3056895434856415
0.35,-0.010835200548171997,0.14855709671974182,0.0,0.9335307478904724,0.0,0.0,-0.35849729180336,-0.9104176163673401,-0.5233846306800842,0.0,0.0,0.0,0.9931857585906982,-0.4397049844264984,0.7278603315353394,0.4200007915496826,0.98810875415802,-3.5969896998722106e-05,-4.182275733910501e-05,-0.15375620126724243,0.30241522192955017,0.3528619110584259,-0.0007882515783421695,0.03970912843942642,-0.010975444689393044,-13.285472869873047,-0.4544179439544678,0.7388786673545837,0.42196643352508545,0.4703831672668457,0.4740363359451294,-0.18541404604911804,0.3667986989021301,0.6209433674812317,0.42000001668930054,-0.5744084119796753,2.99997878074646,-0.7522890567779541,-2.999983787536621,-0.15480835735797882,-0.16366775333881378,-0.17018142342567444,-0.1751987338066101,-0.520830512046814,-0.4143911898136139,-0.3045928180217743,-0.18183697760105133
0.36666666666666664,-0.021455690264701843,0.137578085064888,0.0,0.9284995198249817,0.0,0.0,-0.3713335692882538,-0.6078370213508606,-0.6957828402519226,0.0,0.0,0.0,-2.478532075881958,-0.43272051215171814,0.7365116477012634,0.41999998688697815,0.9857919216156006,2.576398037490435e-05,-9.214788406097796e-06,-0.1679711788892746,0.44550222158432007,0.5419403910636902,-0.0009318485972471535,-0.04227302595973015,0.03165341541171074,-2.070584297180176,-0.4470352530479431,0.7455358505249023,0.42139697074890137,0.5298271179199219,0.46178585290908813,0.05261152237653732,0.3667986989021301,0.6209433674812317,0.42000001668930054,-0.5244033932685852,2.999990224838257,-0.8023306727409363,-3.0,-0.16299690306186676,-0.1696215271949768,-0.17383645474910736,-0.17634034156799316,-0.550003170967102,-0.3775307238101959,-0.20368692278862,-0.020401688292622566
0.3833333333333333,-0.03541475161910057,0.12509645521640778,0.0,0.9122292995452881,0.0,0.0,-0.4096800684928894,-0.9247463941574097,-0.7746995091438293,0.0,0.0,0.0,-6.0517449378967285,-0.42135539650917053,0.7502227425575256,0.4200010895729065,0.9858288168907166,4.338235157774761e-05,4.5039920223644e-05,-0.16775394976139069,0.8054186701774597,0.9631556868553162,-0.0019318864215165377,-0.06404496729373932,-0.021125365048646927,-1.549402117729187,-0.4337473511695862,0.7564324140548706,0.4195576608181,0.9398472309112549,0.7891762256622314,0.11319568008184433,0.3667986989021301,0.6209433674812317,0.42000001668930054,-0.4743598997592926,2.999988555908203,-0.8523397445678711,-2.999891757965088,-0.17458900809288025,-0.17763760685920715,-0.17825274169445038,-0.1770237237215042,-0.6706300973892212,-0.4481755793094635,-0.22190089523792267,0.014181137084960938
0.4,-0.04633411020040512,0.10958056896924973,0.0,0.8812568783760071,0.0,0.0,-0.4726376235485077,-0.6180696487426758,-0.9776669144630432,0.0,0.0,0.0,-9.169381141662598,-0.39948710799217224,0.7733754515647888,0.4209018349647522,0.9709519147872925,-0.01391332596540451,-0.00703583937138319,-0.23876607418060303,2.3942508697509766,1.7523809671401978,0.26349323987960815,-8.59664249420166,-4.659560203552246,-9.775188446044922,-0.40636569261550903,0.7771616578102112,0.42168986797332764,2.481762170791626,1.6623685359954834,0.14062723517417908,0.3667986989021301,0.6209433674812317,0.42000001668930054,-0.4243262708187103,2.9869494438171387,-0.9023535847663879,-3.000060796737671,-0.18473638594150543,-0.1837863177061081,-0.18030667304992676,-0.1748128980398178,-0.6781635880470276,-0.39653274416923523,-0.11157659441232681,0.1790299266576767
0.4166666666666667,-0.05341557040810585,0.09141121059656143,0.0,0.8344786167144775,0.0,0.0,-0.5510402917861938,-0.35489484667778015,-1.1435052156448364,0.0,0.0,0.0,-11.658526420593262,-0.33463752269744873,0.8064084053039551,0.42485347390174866,0.954926073551178,0.02542356587946415,-0.044412046670913696,-0.29239925742149353,5.266713619232178,2.5563607215881348,0.12030395865440369,25.018333435058594,-21.412321090698242,2.0992116928100586,-0.3412470519542694,0.8121346235275269,0.4252117872238159,5.0594000816345215,2.4997119903564453,0.356297105550766,0.3667986989021301,0.6209433674812317,0.42000001668930054,-0.3886767327785492,1.1093502044677734,-0.8651606440544128,2.99920916557312,-0.19884155690670013,-0.19222402572631836,-0.18322347104549408,-0.17236807942390442,-0.8230962753295898,-0.49154749512672424,-0.17633706331253052,0.1212516725063324
0.43333333333333335,-0.05895170196890831,0.07906550914049149,0.0,0.7672075033187866,0.0,0.0,-0.6413989663124084,-0.25191548466682434,-0.5988249778747559,0.0,0.0,0.0,-14.38665771484375,-0.22817035019397736,0.842800498008728,0.43308693170547485,0.9289791584014893,0.0988108292222023,-0.08500437438488007,-0.3464221954345703,7.840322971343994,1.4682185649871826,0.6269599795341492,11.992091178894043,-16.359853744506836,19.59010124206543,-0.23437055945396423,0.8498833179473877,0.4335920810699463,7.5281524658203125,2.093998432159424,0.6599688529968262,0.3667986989021301,0.6209433674812317,0.42000001668930054,-0.37415754795074463,0.7116939425468445,-0.8151430487632751,2.995832681655884,-0.2150222659111023,-0.20718470215797424,-0.1932949274778366,-0.17634865641593933,-0.9454957246780396,-0.9264360070228577,-0.7393712401390076,-0.38553526997566223
0.45,-0.06676781177520752,0.07332827895879745,0.0,0.7059618830680847,0.0,0.0,-0.7082498073577881,-0.42467203736305237,-0.458861380815506,0.0,0.0,0.0,-9.26138973236084,-0.10695426166057587,0.8587967753410339,0.4444931447505951,0.8765004873275757,0.1311604231595993,-0.09528938680887222,-0.453281044960022,7.337317943572998,-0.16444836556911469,0.8141307830810547,-6.213048458099365,1.9411201477050781,-0.6939008831977844,-0.11360127478837967,0.8689484596252441,0.4447314143180847,7.172277450561523,0.5600598454475403,0.6183553338050842,0.3667986989021301,0.6209433674812317,0.42000001668930054,-0.3612883687019348,0.8323970437049866,-0.8419811725616455,-2.9997153282165527,-0.23006221652030945,-0.22218763828277588,-0.2082480788230896,-0.18569643795490265,-0.5694115161895752,-0.63053297996521,-0.6886310577392578,-0.44053924083709717
0.4666666666666667,-0.07047969102859497,0.059283338487148285,0.0,0.6674944162368774,0.0,0.0,-0.744614839553833,-0.14295880496501923,-0.9920312166213989,0.0,0.0,0.0,-5.329594612121582,0.010717801749706268,0.8592251539230347,0.4534587264060974,0.8065522313117981,0.12135268747806549,-0.11048327386379242,-0.5679264664649963,6.685061931610107,-1.4343088865280151,0.5004091858863831,-16.80587387084961,4.006711483001709,7.886403560638428,0.003170603886246681,0.8707014322280884,0.4544591009616852,6.9195122718811035,-0.5446019768714905,0.6109858751296997,0.3667986989021301,0.6209433674812317,0.42000001668930054,-0.34622082114219666,0.7963449954986572,-0.8920057415962219,-2.999330997467041,-0.2374863177537918,-0.22921784222126007,-0.21506434679031372,-0.188431978225708,-0.3694056272506714,-0.29097315669059753,-0.23123782873153687,4.2264815647286014e-07
0.48333333333333334,-0.0767977386713028,0.04934931546449661,0.0,0.6535391807556152,0.0,0.0,-0.7568926811218262,-0.3432666063308716,-0.5248792171478271,0.0,0.0,0.0,-1.0304975509643555,0.11292122304439545,0.8387965559959412,0.46053546667099,0.7384876012802124,0.10339313745498657,-0.09236207604408264,-0.659859836101532,5.753550052642822,-2.1509737968444824,0.3725833594799042,-5.689102649688721,-6.3208489418029785,9.564399719238281,0.10713780671358109,0.8527888655662537,0.46209943294525146,5.525953769683838,-1.4358432292938232,0.25974929332733154,0.3667986989021301,0.6209433674812317,0.42000001668930054,-0.3352018892765045,0.34497618675231934,-0.9420298337936401,-2.9996678829193115,-0.23990121483802795,-0.23964008688926697,-0.22283659875392914,-0.19193075597286224,0.013124962337315083,-0.4948480427265167,-0.3705903887748718,-0.19245989620685577
0.5,-0.07990875095129013,0.038805704563856125,0.0,0.6319248676300049,0.0,0.0,-0.7750296592712402,-0.12598857283592224,-0.6871806383132935,0.0,0.0,0.0,-4.245905876159668,0.19530019164085388,0.807184100151062,0.4607846438884735,0.6948084235191345,0.08364982903003693,-0.08269474655389786,-0.7095107436180115,4.0282301902771,-3.227933645248413,-0.18639740347862244,-17.004974365234375,-11.332318305969238,31.86838722229004,0.19158291816711426,0.8212465643882751,0.46292489767074585,4.738414764404297,-2.3650364875793457,-0.01870589517056942,0.3667986989021301,0.6209433674812317,0.42000001668930054,-0.33045947551727295,0.058240823447704315,-0.9920538067817688,-3.0000009536743164,-0.2400227189064026,-0.24001212418079376,-0.22939781844615936,-0.19567400217056274,-0.044944703578948975,-0.021569930016994476,-0.2980801463127136,-0.151776984333992
0.5166666666666666,-0.07943440973758698,0.03191355988383293,0.0,0.6252645254135132,0.0,0.0,-0.7804129123687744,0.07033076137304306,-0.29938557744026184,0.0,0.0,0.0,-0.06625185906887054,0.26331329345703125,0.7659247517585754,0.455093115568161,0.6351000666618347,0.03620145842432976,-0.08611083030700684,-0.7667608857154846,3.2771012783050537,-3.0073862075805664,-0.4562762379646301,-1.3383890390396118,-1.2569782733917236,12.385337829589844,0.2601533532142639,0.7795908451080322,0.45845597982406616,3.7255053520202637,-2.6719284057617188,-0.41478368639945984,0.3667986989021301,0.6209433674812317,0.42000001668930054,-0.32711875438690186,0.3520350158214569,-1.0420762300491333,-3.0000009536743164,-0.23994207382202148,-0.23995089530944824,-0.23428839445114136,-0.19917455315589905,-0.009870631620287895,-0.00801385659724474,-0.17327256500720978,-0.16024090349674225
0.5333333333333333,-0.07636008411645889,0.027119694277644157,0.0,0.608708381652832,0.0,0.0,-0.7933940291404724,0.23470865190029144,-0.2391776740550995,0.0,0.0,0.0,-3.442256212234497,0.3163037598133087,0.7240399718284607,0.44223371148109436,0.5767785906791687,-0.0014344436349347234,-0.07845398038625717,-0.8131232261657715,2.7174243927001953,-2.3839223384857178,-0.9897024631500244,-1.0534170866012573,1.9615215063095093,-4.38662576675415,0.31323057413101196,0.7374482154846191,0.44637787342071533,2.738309860229492,-2.519869565963745,-0.8902303576469421,0.3667986989021301,0.6209433674812317,0.42000001668930054,-0.3148360550403595,1.108022689819336,-1.092098355293274,-2.9996092319488525,-0.23710234463214874,-0.23752406239509583,-0.23469851911067963,-0.20094843208789825,0.2687610983848572,0.23944973945617676,0.08115674555301666,-0.06919725984334946
0.55,-0.07079117745161057,0.024393802508711815,0.0,0.6061608195304871,0.0,0.0,-0.7953420877456665,0.368385910987854,-0.06975382566452026,0.0,0.0,0.0,0.4997449815273285,0.35360175371170044,0.6834167838096619,0.4243215024471283,0.5413640141487122,-0.046640004962682724,-0.05582804977893829,-0.8376352787017822,1.6738842725753784,-3.0230207443237305,-1.0068198442459106,-0.6936089396476746,9.631421089172363,8.903996467590332,0.3522610366344452,0.696564257144928,0.4286615550518036,1.8570047616958618,-2.357583999633789,-1.1781350374221802,0.3667986989021301,0.6209433674812317,0.42000001668930054,-0.29602137207984924,0.8351125717163086,-1.1421204805374146,-2.9991071224212646,-0.23232358694076538,-0.23305895924568176,-0.23241834342479706,-0.2018938809633255,0.2943768799304962,0.28198739886283875,0.17190708220005035,-0.05931166931986809
0.5666666666666667,-0.0626799538731575,0.01711440086364746,0.0,0.5914207100868225,0.0,0.0,-0.8063631653785706,0.5366419553756714,-0.5701102614402771,0.0,0.0,0.0,-3.2392194271087646,0.3756529688835144,0.6592949628829956,0.42134687304496765,0.5366621017456055,-0.02112778276205063,0.016340531408786774,-0.8433743715286255,0.8330497741699219,-1.4906344413757324,0.005335644818842411,-10.229702949523926,-3.478890895843506,10.617877006530762,0.3729549050331116,0.6703568696975708,0.42394518852233887,0.8523529767990112,-1.1259031295776367,0.1383432000875473,0.3667986989021301,0.6209433674812317,0.42000001668930054,-0.2842912971973419,0.6606894731521606,-1.1729397773742676,-0.8865970969200134,-0.2201426923274994,-0.22260136902332306,-0.22481830418109894,-0.19963517785072327,0.8694283962249756,0.7478963136672974,0.5741455554962158,0.21766288578510284
0.5833333333333334,-0.05756077915430069,0.012868019752204418,0.0,0.5889511704444885,0.0,0.0,-0.8081685900688171,0.24323724210262299,-0.25431400537490845,0.0,0.0,0.0,0.4523709714412689,0.3865419030189514,0.6414768099784851,0.4205688238143921,0.5439884066581726,-0.007701077964156866,0.013087873347103596,-0.838955283164978,0.4656968414783478,-1.216874361038208,0.016629016026854515,2.8288657665252686,1.932579517364502,9.267955780029297,0.3831613063812256,0.6515647172927856,0.4235675632953644,0.42081111669540405,-0.9404503703117371,0.01614503562450409,0.3667986989021301,0.6209433674812317,0.42000001668930054,-0.27677303552627563,0.4353465437889099,-1.1290720701217651,3.0000052452087402,-0.2088470160961151,-0.21240808069705963,-0.21652300655841827,-0.19690370559692383,0.7375043630599976,0.6548253893852234,0.538515567779541,0.185712531208992
0.6,-0.051746051758527756,0.011599705554544926,0.0,0.5759750604629517,0.0,0.0,-0.8174672722816467,0.39509764313697815,0.0067403605207800865,0.0,0.0,0.0,-2.7948853969573975,0.3891085386276245,0.6323367953300476,0.42128342390060425,0.5606678128242493,-0.0181211456656456,0.027579540386795998,-0.8273828625679016,-0.1716761589050293,-0.798346757888794,0.049269694834947586,-0.5610170364379883,3.4118032455444336,12.498480796813965,0.38529014587402344,0.6414592862129211,0.424744188785553,-0.14691513776779175,-0.33522772789001465,0.14382053911685944,0.3667986989021301,0.6209433674812317,0.42000001668930054,-0.26672250032424927,0.5721633434295654,-1.1356749534606934,-3.0000040531158447,-0.196607306599617,-0.20194284617900848,-0.20811639726161957,-0.19456638395786285,0.6948671340942383,0.593729555606842,0.4844014048576355,0.12820294499397278
0.6166666666666667,-0.04421170428395271,0.00785875041037798,0.0,0.5764302611351013,0.0,0.0,-0.817146360874176,0.4920174479484558,-0.1786712110042572,0.0,0.0,0.0,0.9303170442581177,0.3852645754814148,0.6283572316169739,0.42090076208114624,0.5950976014137268,-0.013802997767925262,0.01814638078212738,-0.8033298850059509,-0.4443809390068054,-0.2337544858455658,-0.05713685601949692,-1.027350902557373,-2.631300210952759,5.129868030548096,0.38033097982406616,0.6372874975204468,0.42389926314353943,-0.5243116021156311,-0.22722050547599792,-0.22554615139961243,0.3667986989021301,0.6209433674812317,0.42000001668930054,-0.27762341499328613,-1.5135220289230347,-1.097967505455017,3.0,-0.18410518765449524,-0.1910066157579422,-0.19879145920276642,-0.19098778069019318,0.48419713973999023,0.45440950989723206,0.4224589169025421,0.1383056938648224
0.6333333333333333,-0.03850802034139633,0.00792664010077715,0.0,0.5992018580436707,0.0,0.0,-0.8005979657173157,0.27981436252593994,0.02087060548365116,0.0,0.0,0.0,4.239874362945557,0.3778883218765259,0.6254251003265381,0.4200003743171692,0.6141343712806702,4.248357072356157e-06,-7.97397478891071e-06,-0.7892014384269714,-0.433490127325058,-0.11844724416732788,-0.0006850213976576924,0.020373491570353508,0.0332312136888504,0.4083019495010376,0.3730650544166565,0.6365057229995728,0.42493802309036255,-0.4318828880786896,0.10779386013746262,-0.011544376611709595,0.3667986989021301,0.6209433674812317,0.42000001668930054,-0.3227529525756836,-2.999990463256836,-1.120931625366211,-3.0,-0.1779872328042984,-0.18487420678138733,-0.1925831288099289,-0.18875731527805328,0.43357014656066895,0.4195081889629364,0.4142075181007385,0.17817431688308716
0.65,-0.03225145488977432,0.005608203820884228,0.0,0.6073288321495056,0.0,0.0,-0.794450581073761,0.3929457366466522,-0.17307016253471375,0.0,0.0,0.0,0.14822250604629517,0.37328118085861206,0.6247048377990723,0.4201273024082184,0.6141756772994995,-0.002492222236469388,-0.0019489920232445002,-0.7891629338264465,-0.20868763327598572,-0.01030017901211977,-0.003627115860581398,0.13048845529556274,-0.036940183490514755,0.07495453953742981,0.3710228204727173,0.6381440162658691,0.4287841320037842,-0.01659320294857025,0.08454818278551102,0.3004031181335449,0.3667986989021301,0.6209433674812317,0.42000001668930054,-0.37284114956855774,-3.0000736713409424,-1.170873999595642,-2.999223232269287,-0.17156140506267548,-0.1780882626771927,-0.1851012259721756,-0.18405386805534363,0.3421870172023773,0.3944231867790222,0.473197340965271,0.3619975745677948
0.6666666666666666,-0.024305982515215874,0.00046610605204477906,0.0,0.591916024684906,0.0,0.0,-0.8059996366500854,0.5157873630523682,-0.3728019595146179,0.0,0.0,0.0,-3.208204746246338,0.37225425243377686,0.6253499984741211,0.42058122158050537,0.61733078956604,-0.011597809381783009,-0.009105117991566658,-0.786565363407135,-0.0649937242269516,0.024830268695950508,-0.00825902447104454,0.4129846394062042,-0.10313759744167328,0.5390903949737549,0.3716183304786682,0.6386302709579468,0.43694132566452026,0.1350323110818863,-0.028842207044363022,0.7969386577606201,0.3667986989021301,0.6209433674812317,0.42000001668930054,-0.42285528779029846,-3.000000238418579,-1.2208924293518066,-3.0000007152557373,-0.16814669966697693,-0.1733384132385254,-0.1784995198249817,-0.1784299612045288,0.1304866522550583,0.230766162276268,0.3645733892917633,0.34708312153816223
0.6833333333333333,-0.013255435042083263,-0.0018253675661981106,0.0,0.5542818903923035,0.0,0.0,-0.8323290348052979,0.6933404803276062,-0.10560794919729233,0.0,0.0,0.0,-6.34510612487793,0.37173566222190857,0.6252619028091431,0.4200007915496826,0.6185877919197083,1.6330175640177913e-05,1.336909281235421e-05,-0.7857155799865723,0.011875140480697155,-0.0002645436325110495,-0.0007765081245452166,-0.03118927776813507,0.00671408511698246,-0.03993789851665497,0.38014620542526245,0.6339151263237,0.4566951096057892,0.942855715751648,-0.4380238652229309,1.6763246059417725,0.3667986989021301,0.6209433674812317,0.42000001668930054,-0.47286826372146606,-2.9998743534088135,-1.2709107398986816,-2.999990463256836,-0.17001110315322876,-0.17314140498638153,-0.17565535008907318,-0.17513830959796906,-0.11366389691829681,-0.007736308965831995,0.1361158788204193,0.1687914878129959
0.7,-3.6415633076103404e-05,-0.0008401044178754091,0.0,0.5324738621711731,0.0,0.0,-0.8464464545249939,0.8290470242500305,0.12691164016723633,0.0,0.0,0.0,-2.092532157897949,0.3717356324195862,0.625262975692749,0.42000001668930054,0.6185876727104187,-1.2852292456955183e-06,-3.7273855468811234e-06,-0.7857156991958618,4.541892121778801e-05,-0.00016708664770703763,-3.445218317210674e-05,0.0008388256537728012,-0.00437107402831316,-0.0004457194881979376,0.39583009481430054,0.6322120428085327,0.48384690284729004,0.8791542053222656,0.1256626397371292,1.618259310722351,0.3667986989021301,0.6209433674812317,0.42000001668930054,-0.49661579728126526,-0.08836889266967773,-1.3209290504455566,-2.999999523162842,-0.17188429832458496,-0.17395205795764923,-0.17485614120960236,-0.1743381768465042,-0.052597105503082275,-0.03141345828771591,0.01658070832490921,-0.01939219795167446
0.7166666666666667,0.00949154794216156,0.0020403005182743073,0.0,0.5377324223518372,0.0,0.0,-0.8431155681610107,0.4787028133869171,0.2140762209892273,0.0,0.0,0.0,1.6345882415771484,0.37173566222190857,0.6252630949020386,0.42000001668930054,0.6185877919197083,-2.2704714410792803e-06,-4.884292593487771e-06,-0.7857156991958618,8.374074241146445e-05,-0.00036608328809961677,-0.00010112719610333443,0.008281058631837368,-0.002380924765020609,-0.00045771352597512305,0.4111550748348236,0.6387944221496582,0.505082905292511,0.8107547760009766,0.5653917789459229,0.9644893407821655,0.3667986989021301,0.6209433674812317,0.42000001668930054,-0.47900593280792236,2.004096508026123,-1.370930552482605,-3.0000007152557373,-0.16978518664836884,-0.17195910215377808,-0.1725708693265915,-0.17290708422660828,0.20440836250782013,0.18939054012298584,0.19318406283855438,0.1393527090549469
0.7333333333333333,0.013683386147022247,-0.00010432607814436778,0.0,0.530765175819397,0.0,0.0,-0.8475189208984375,0.27236658334732056,-0.1728827953338623,0.0,0.0,0.0,-1.7758086919784546,0.3717356324195862,0.6252630949020386,0.42000001668930054,0.618587851524353,-2.22012135964178e-06,-4.6445852603937965e-06,-0.7857155799865723,8.563655865145847e-05,-0.0003675453772302717,-0.00010103452950716019,0.008317713625729084,-0.0023674815893173218,-0.00046264653792604804,0.418574720621109,0.6486988067626953,0.5155339241027832,0.03827189281582832,0.5048951506614685,0.4150252044200897,0.3667986989021301,0.6209433674812317,0.42000001668930054,-0.4522269666194916,1.2521047592163086,-1.3325694799423218,3.0,-0.16254016757011414,-0.16543594002723694,-0.16653665900230408,-0.16812781989574432,0.2203059196472168,0.23029153048992157,0.24509881436824799,0.21730449795722961
0.75,0.016014080494642258,0.00229580863378942,0.0,0.5378648042678833,0.0,0.0,-0.843031108379364,0.1004544198513031,0.2978498339653015,0.0,0.0,0.0,1.8747283220291138,0.37173566222190857,0.6252630949020386,0.42000001668930054,0.6185876727104187,-2.415741846562014e-06,-4.682693088398082e-06,-0.7857158184051514,8.302033529616892e-05,-0.0003668047138489783,-0.00010161846876144409,0.008293850347399712,-0.002391485031694174,-0.0004564122937154025,0.41713547706604004,0.6579965353012085,0.5205018520355225,-0.20333614945411682,0.6323641538619995,0.19828566908836365,0.3667986989021301,0.6209433674812317,0.42000001668930054,-0.4283607006072998,1.5654349327087402,-1.2832591533660889,2.8864917755126953,-0.16398942470550537,-0.16569583117961884,-0.16569404304027557,-0.16686828434467316,-0.18316663801670074,-0.10010679811239243,-0.027785075828433037,0.009139001369476318
0.7666666666666666,0.015479471534490585,0.001082047470845282,0.0,0.5343327522277832,0.0,0.0,-0.8452742099761963,-0.08094839751720428,-0.22204867005348206,0.0,0.0,0.0,-1.773549199104309,0.3717356324195862,0.6252630949020386,0.42000001668930054,0.618587851524353,-2.4101125291053904e-06,-4.7011726564960554e-06,-0.7857155203819275,8.384713873965666e-05,-0.0003675414191093296,-0.0001014957670122385,0.008315300568938255,-0.0023841189686208963,-0.0004586448485497385,0.4095034599304199,0.6658110618591309,0.5181243419647217,-0.726885974407196,0.3311999440193176,-0.30911675095558167,0.3667986989021301,0.6209433674812317,0.42000001668930054,-0.4310759902000427,-1.613999366760254,-1.2332334518432617,3.0,-0.16462872922420502,-0.1652451455593109,-0.16433411836624146,-0.16501328349113464,0.011903886683285236,0.07640200853347778,0.12816192209720612,0.1620790809392929
0.7833333333333333,0.01751112937927246,0.004716338589787483,0.0,0.5419230461120605,0.0,0.0,-0.8404281139373779,0.2292245477437973,0.36156803369522095,0.0,0.0,0.0,2.061009168624878,0.3717356324195862,0.6252630949020386,0.42000001668930054,0.6185876727104187,-2.4174503323592944e-06,-4.7926300794642884e-06,-0.7857157588005066,8.294008148368448e-05,-0.0003669816942419857,-0.00010167504660785198,0.008297916501760483,-0.0023917891085147858,-0.0004562346439342946,0.3987189829349518,0.6701908111572266,0.5130025148391724,-0.4969134032726288,0.2608128786087036,-0.28928953409194946,0.3667986989021301,0.6209433674812317,0.42000001668930054,-0.4594380557537079,-1.7512550354003906,-1.2541899681091309,-3.000000238418579,-0.1723918318748474,-0.1704093962907791,-0.16714584827423096,-0.1657169908285141,-0.5343174338340759,-0.36958733201026917,-0.21675077080726624,-0.0695740133523941
0.8,0.01973390206694603,0.005212768446654081,0.0,0.5403440594673157,0.0,0.0,-0.8414441347122192,0.16369180381298065,-0.05207301676273346,0.0,0.0,0.0,-1.2275439500808716,0.37173566222190857,0.6252630949020386,0.42000001668930054,0.6185877323150635,-2.2500530576508027e-06,-4.6624131755379494e-06,-0.7857157588005066,8.701274782652035e-05,-0.00036752186133526266,-0.00010060821659862995,0.008320201188325882,-0.002350374823436141,-0.00046544699580408633,0.3903631269931793,0.6726404428482056,0.5039612054824829,-0.5231419801712036,-0.07129405438899994,-0.6610977053642273,0.3667986989021301,0.6209433674812317,0.42000001668930054,-0.5058490037918091,-3.000000476837158,-1.3042082786560059,-3.0000011920928955,-0.17513912916183472,-0.17151063680648804,-0.16659076511859894,-0.16329170763492584,-0.1738373190164566,-0.06059172376990318,0.056876976042985916,0.19415634870529175
0.8166666666666667,0.024291645735502243,0.0020320541225373745,0.0,0.5156186819076538,0.0,0.0,-0.8568181991577148,0.32169297337532043,-0.24510176479816437,0.0,0.0,0.0,-4.460343837738037,0.3717356324195862,0.6252630949020386,0.42000001668930054,0.6185877323150635,-2.2117833395896014e-06,-4.746183094539447e-06,-0.7857157588005066,8.564764721086249e-05,-0.00036760681541636586,-0.00010105222463607788,0.008319019339978695,-0.0023675670381635427,-0.0004625770088750869,0.3872320055961609,0.6678712964057922,0.4976307451725006,0.1916566640138626,-0.43523722887039185,0.04409608244895935,0.3667986989021301,0.6209433674812317,0.42000001668930054,-0.5558615922927856,-2.9999537467956543,-1.3542265892028809,-2.9999990463256836,-0.1792248636484146,-0.17386887967586517,-0.1671176552772522,-0.1615716814994812,-0.24584846198558807,-0.15865883231163025,-0.06407063454389572,0.05936392396688461
0.8333333333333334,0.03145682439208031,0.0010781993623822927,0.0,0.5071882009506226,0.0,0.0,-0.8618353009223938,0.4672686755657196,0.020225295796990395,0.0,0.0,0.0,-0.19598422944545746,0.3717356324195862,0.6252630949020386,0.42000001668930054,0.6185879111289978,-2.203487156293704e-06,-4.64745471617789e-06,-0.7857155203819275,8.55125836096704e-05,-0.0003673245955724269,-0.00010100891813635826,0.008311847224831581,-0.0023650354705750942,-0.0004621096304617822,0.39374858140945435,0.666867196559906,0.5029550790786743,0.5189659595489502,0.16690823435783386,0.54654860496521,0.3667986989021301,0.6209433674812317,0.42000001668930054,-0.5764492154121399,0.26257798075675964,-1.4042448997497559,-3.0000009536743164,-0.18231035768985748,-0.17645643651485443,-0.1690547615289688,-0.16231180727481842,-0.10722284018993378,-0.12263039499521255,-0.12986119091510773,-0.10325682908296585
0.85,0.034970756620168686,-0.00395219586789608,0.0,0.524517297744751,0.0,0.0,-0.8513997793197632,0.14958123862743378,-0.3360740542411804,0.0,0.0,0.0,3.0351269245147705,0.37173566222190857,0.6252630949020386,0.42000001668930054,0.6185880303382874,-2.284742549818475e-06,-4.616237674781587e-06,-0.7857154607772827,8.709442045073956e-05,-0.00036807198193855584,-0.00010066316463053226,0.00833569373935461,-0.002351535251364112,-0.0004659773549064994,0.40430450439453125,0.671127200126648,0.5091487169265747,0.6304044127464294,0.17285344004631042,0.20278581976890564,0.3667986989021301,0.6209433674812317,0.42000001668930054,-0.5813710689544678,-0.7620338797569275,-1.3657894134521484,2.999999523162842,-0.18003268539905548,-0.1747201830148697,-0.16774283349514008,-0.16087035834789276,0.03274126350879669,0.038124144077301025,0.0460299588739872,0.08146882057189941
0.8666666666666667,0.034709446132183075,-0.011741084046661854,0.0,0.5286545157432556,0.0,0.0,-0.8488370776176453,-0.06812888383865356,-0.49155116081237793,0.0,0.0,0.0,-0.6255421042442322,0.3717356324195862,0.6252630949020386,0.42000001668930054,0.6185877323150635,-2.1949754227534868e-06,-4.701471425505588e-06,-0.7857157588005066,8.549809717806056e-05,-0.00036762229865416884,-0.0001011076383292675,0.0083187660202384,-0.0023693209514021873,-0.00046225852565839887,0.41419315338134766,0.6699514389038086,0.5089431405067444,0.5564050674438477,-0.23753425478935242,-0.06101103127002716,0.3667986989021301,0.6209433674812317,0.42000001668930054,-0.6131982207298279,-2.8501217365264893,-1.3845288753509521,-3.0,-0.18061232566833496,-0.1747879534959793,-0.16727915406227112,-0.15946967899799347,-0.04557822644710541,-0.003264976665377617,0.03817220777273178,0.1011526808142662
0.8833333333333333,0.03865696117281914,-0.013648753985762596,0.0,0.5246348977088928,0.0,0.0,-0.8513273000717163,0.3515201508998871,0.0431654155254364,0.0,0.0,0.0,-0.5205634832382202,0.37173566222190857,0.6252630949020386,0.42000001668930054,0.6185877323150635,-2.24771247303579e-06,-4.576091669150628e-06,-0.785715639591217,8.66503469296731e-05,-0.0003674119070637971,-0.00010070228017866611,0.008316192775964737,-0.00235311733558774,-0.00046457137796096504,0.42504632472991943,0.6634256839752197,0.5093289613723755,0.7700489163398743,-0.4621274769306183,0.1883261501789093,0.3667986989021301,0.6209433674812317,0.42000001668930054,-0.6511286497116089,-1.7645263671875,-1.4345471858978271,-3.0000007152557373,-0.18738454580307007,-0.17980635166168213,-0.17059937119483948,-0.16082324087619781,-0.47552040219306946,-0.3611798882484436,-0.24857863783836365,-0.12005960941314697
