vladlanda/robotic-transformer/data/env_000_episode_0023.csv
sim_time_s,robot_box_x,robot_box_y,robot_box_z,robot_box_quat_w,robot_box_quat_x,robot_box_quat_y,robot_box_quat_z,robot_box_linvel_x,robot_box_linvel_y,robot_box_linvel_z,robot_box_angvel_x,robot_box_angvel_y,robot_box_angvel_z,cube_world_x,cube_world_y,cube_world_z,cube_quat_w,cube_quat_x,cube_quat_y,cube_quat_z,cube_linvel_x,cube_linvel_y,cube_linvel_z,cube_angvel_x,cube_angvel_y,cube_angvel_z,endpoint_world_x,endpoint_world_y,endpoint_world_z,endpoint_linvel_x,endpoint_linvel_y,endpoint_linvel_z,target_cube_world_x,target_cube_world_y,target_cube_world_z,gripper_actual_pos_rad_gp_leftgearjoint,gripper_actual_vel_rad_s_gp_leftgearjoint,gripper_actual_pos_rad_gp_rotatingjoint,gripper_actual_vel_rad_s_gp_rotatingjoint,motor_angle_rad_joint1,motor_angle_rad_joint2,motor_angle_rad_joint3,motor_angle_rad_joint4,motor_speed_rad_s_joint1,motor_speed_rad_s_joint2,motor_speed_rad_s_joint3,motor_speed_rad_s_joint4
0.0,0.0,0.0,0.0,1.0,0.0,0.0,0.0,0.0,0.0,0.0,0.0,0.0,0.0,-0.39580443501472473,0.6455640196800232,0.41999998688697815,1.0,0.0,0.0,0.0,0.0,0.0,0.0,0.0,0.0,0.0,3.42540442943573e-06,-0.005000244826078415,1.313499927520752,0.0,0.0,0.0,0.36190202832221985,0.6843981146812439,0.42000001668930054,-1.5707999467849731,0.0,0.0,0.0,0.0,0.0,0.0,0.0,0.0,0.0,0.0,0.0
0.016666666666666666,0.0028778850100934505,0.0021806680597364902,0.0,0.9998081922531128,0.0,0.0,0.019586581736803055,0.24087215960025787,0.18240931630134583,0.0,0.0,0.0,3.1418697834014893,-0.3958045542240143,0.6455637216567993,0.41999998688697815,1.0,3.279964630564791e-06,-8.339746386809566e-07,8.465587342243452e-08,-1.9833529222523794e-05,0.00017983045836444944,-6.132945418357849e-05,0.0009432713268324733,-0.004689474124461412,-0.00031981561915017664,-0.007110234349966049,0.003379564033821225,1.3159373998641968,-0.8143353462219238,0.9868683815002441,0.18095196783542633,0.36190202832221985,0.6843981146812439,0.42000001668930054,-1.5301095247268677,3.0000011920928955,-0.04584788903594017,-2.9999992847442627,0.0008691533003002405,0.0007963840034790337,0.0007110277656465769,0.0006108740926720202,0.11094217747449875,0.09756709635257721,0.08334315568208694,0.06823883205652237
0.03333333333333333,0.008960962295532227,0.00680184829980135,0.0,0.9997960329055786,0.0,0.0,0.020196838304400444,0.4070196747779846,0.3153059482574463,0.0,0.0,0.0,-0.8691300749778748,-0.39580467343330383,0.6455636620521545,0.4200000464916229,1.0,3.3908179375430336e-06,-2.132458348569344e-06,-3.7097745320124886e-08,0.00026357852038927376,0.00026937833172269166,-0.00010509369894862175,-0.0017707126680761576,0.004130884539335966,-0.0001354814594378695,-0.02754450961947441,0.025881215929985046,1.3166450262069702,-1.5913276672363281,1.6081211566925049,-0.07920617610216141,0.36190202832221985,0.6843981146812439,0.42000001668930054,-1.4800903797149658,3.000001907348633,-0.09588770568370819,-3.000000238418579,0.0029901836533099413,0.0026528264861553907,0.0022774268873035908,0.001860909629613161,0.16422779858112335,0.13977393507957458,0.11383520066738129,0.08631942421197891
0.05,0.017486270517110825,0.013715333305299282,0.0,0.9994760155677795,0.0,0.0,0.0323675237596035,0.5844959616661072,0.46205851435661316,0.0,0.0,0.0,2.7078347206115723,-0.3958047032356262,0.6455637216567993,0.4200000464916229,1.0,3.7651293496310245e-06,-2.2119379536889028e-06,5.6273887771851605e-09,0.0002653067058417946,0.00026691422681324184,-0.00010440615005791187,-0.0017243530601263046,0.00417736079543829,-0.00012949267693329602,-0.059486858546733856,0.05357247591018677,1.3117337226867676,-2.1849021911621094,1.723698377609253,-0.4634496569633484,0.36190202832221985,0.6843981146812439,0.42000001668930054,-1.4300720691680908,3.0000007152557373,-0.145926371216774,-3.0,0.005610588937997818,0.004823815543204546,0.00396496569737792,0.0030294866301119328,0.19028259813785553,0.15347863733768463,0.11481165140867233,0.07418715953826904
0.06666666666666667,0.028655042871832848,0.022955330088734627,0.0,0.9995276927947998,0.0,0.0,0.030730996280908585,0.7115951180458069,0.5921585559844971,0.0,0.0,0.0,-1.154683232307434,-0.3958047032356262,0.6455636620521545,0.4200000464916229,0.9999999403953552,3.406754103707499e-06,-2.2856077066535363e-06,4.300980265270482e-07,0.0002670255198609084,0.0002679179306142032,-0.0001043803058564663,-0.001740670995786786,0.004211848136037588,-0.00012850687198806554,-0.09776680916547775,0.08749022334814072,1.2995092868804932,-2.428162097930908,2.217137098312378,-0.9778857231140137,0.36190202832221985,0.6843981146812439,0.42000001668930054,-1.3800441026687622,3.000002145767212,-0.13458959758281708,3.0000007152557373,0.00811510719358921,0.006629536394029856,0.005033249966800213,0.003320454154163599,0.14490419626235962,0.09287799149751663,0.03882874175906181,-0.01732468046247959
0.08333333333333333,0.04306672140955925,0.0343465656042099,0.0,0.9999999403953552,0.0,0.0,0.0003333002678118646,0.9291797280311584,0.7249590754508972,0.0,0.0,0.0,-4.473785877227783,-0.3958047032356262,0.6455636620521545,0.4200000464916229,0.9999999403953552,3.6260603337723296e-06,-2.3353738924924983e-06,3.0322857469400333e-07,0.00026613770751282573,0.00026685066404752433,-0.00010405178181827068,-0.0017283547203987837,0.004196325317025185,-0.000127911422168836,-0.13661304116249084,0.12720759212970734,1.281836986541748,-2.3025522232055664,2.430753469467163,-1.1517635583877563,0.36190202832221985,0.6843981146812439,0.42000001668930054,-1.3300400972366333,2.9999988079071045,-0.1664939820766449,-2.999999761581421,0.009787144139409065,0.00730363093316555,0.004667865112423897,0.0018750425660982728,0.07570034265518188,0.006442856043577194,-0.06491046398878098,-0.13834671676158905
0.1,0.05169326812028885,0.0433400496840477,0.0,0.9999182224273682,0.0,0.0,-0.012789033353328705,0.3679867088794708,0.4487323462963104,0.0,0.0,0.0,-0.5434631705284119,-0.3958047032356262,0.6455636620521545,0.4200000464916229,1.0,3.4220743145851884e-06,-2.30867885875341e-06,1.7964234189093986e-07,0.0002668164379429072,0.0002680036413948983,-0.00010440708138048649,-0.0017430284060537815,0.004207152873277664,-0.00012891023652628064,-0.1783011257648468,0.16420333087444305,1.259446144104004,-2.4940571784973145,2.2652416229248047,-1.4593359231948853,0.36190202832221985,0.6843981146812439,0.42000001668930054,-1.2800157070159912,2.9999935626983643,-0.13283418118953705,3.000000476837158,0.004767748527228832,0.0015666434774175286,-0.001837448449805379,-0.0054526301100850105,-0.431012362241745,-0.47378963232040405,-0.5191687345504761,-0.5673932433128357
0.11666666666666667,0.0550919845700264,0.05507529526948929,0.0,0.9992422461509705,0.0,0.0,-0.0389227569103241,0.36283981800079346,0.6432880163192749,0.0,0.0,0.0,-3.5326950550079346,-0.3958047032356262,0.6455637216567993,0.4200000464916229,1.0,3.711451881827088e-06,-2.3327925191551913e-06,2.574467430349614e-07,0.0002648566151037812,0.0002663534542080015,-0.00010423408821225166,-0.0017182299634441733,0.004170136991888285,-0.0001291574299102649,-0.21579495072364807,0.20820459723472595,1.231957197189331,-2.121643543243408,2.949057102203369,-1.5885767936706543,0.36190202832221985,0.6843981146812439,0.42000001668930054,-1.2300134897232056,3.000000238418579,-0.1647363156080246,-3.000000476837158,-0.003123475704342127,-0.0073677049949765205,-0.011825928464531898,-0.016510359942913055,-0.13205745816230774,-0.2564948499202728,-0.3773311674594879,-0.49444976449012756
0.13333333333333333,0.06646711379289627,0.06269209086894989,0.0,0.9958398938179016,0.0,0.0,-0.09112008661031723,0.8813556432723999,0.3492952287197113,0.0,0.0,0.0,-7.272865295410156,-0.3958047032356262,0.6455636620521545,0.4200000464916229,1.0,3.335707106089103e-06,-2.2319818526739255e-06,3.1131835953601694e-07,0.00026669749058783054,0.00026759348111227155,-0.00010428577661514282,-0.0017370672430843115,0.004205907229334116,-0.00012840131239499897,-0.25191229581832886,0.2612062990665436,1.2009327411651611,-2.174957275390625,3.334622383117676,-2.138758897781372,0.36190202832221985,0.6843981146812439,0.42000001668930054,-1.1825933456420898,2.6755547523498535,-0.131127268075943,2.9999990463256836,-0.002233412815257907,-0.008747155778110027,-0.015388043597340584,-0.022165803238749504,0.11713676899671555,-0.012170963920652866,-0.13595029711723328,-0.25409001111984253
0.15,0.07486096769571304,0.06767241656780243,0.0,0.9924617409706116,0.0,0.0,-0.12255498766899109,0.41505855321884155,0.25423097610473633,0.0,0.0,0.0,-2.632859706878662,-0.3958047032356262,0.6455636620521545,0.4200000464916229,1.0,3.518956873449497e-06,-2.2831925434729783e-06,-3.625542035479157e-07,0.0002661838079802692,0.0002673559356480837,-0.00010425667278468609,-0.0017348496476188302,0.004195802379399538,-0.00012861037976108491,-0.29012081027030945,0.3132457733154297,1.1605159044265747,-2.052680492401123,3.338719606399536,-2.598702907562256,0.36190202832221985,0.6843981146812439,0.42000001668930054,-1.1329251527786255,2.999998092651367,-0.16299279034137726,-3.000000238418579,-0.007956214249134064,-0.01573537290096283,-0.02359122969210148,-0.031536150723695755,-0.4574872553348541,-0.5233051776885986,-0.586275041103363,-0.6465858221054077
0.16666666666666666,0.07836517691612244,0.07455381751060486,0.0,0.9865034222602844,0.0,0.0,-0.16374067962169647,0.17435340583324432,0.4110715687274933,0.0,0.0,0.0,-5.649742126464844,-0.3958047032356262,0.6455636620521545,0.4200000464916229,1.0,3.6666233427240513e-06,-2.3392092316498747e-06,-3.150152849684673e-07,0.0002659587189555168,0.00026667414931580424,-0.00010403618216514587,-0.0017253721598535776,0.0041928282007575035,-0.00012778467498719692,-0.32448434829711914,0.3713245689868927,1.1098401546478271,-1.946362853050232,3.6782922744750977,-3.3754255771636963,0.36190202832221985,0.6843981146812439,0.42000001668930054,-1.082922101020813,3.000000238418579,-0.21300779283046722,-3.000000476837158,-0.018454261124134064,-0.026969807222485542,-0.035508692264556885,-0.04408919811248779,-0.6210322380065918,-0.6608551144599915,-0.6966776251792908,-0.7287723422050476
0.18333333333333332,0.07875492423772812,0.08383305370807648,0.0,0.9738027453422546,0.0,0.0,-0.22739435732364655,-0.06210414692759514,0.6176958084106445,0.0,0.0,0.0,-8.738547325134277,-0.3958047032356262,0.6455636620521545,0.4200000464916229,1.0,3.814353021880379e-06,-2.3995974061108427e-06,-2.7029872740058636e-07,0.00026549032190814614,0.0002661117759998888,-0.00010391208343207836,-0.0017177986446768045,0.004184774123132229,-0.0001275356044061482,-0.35518115758895874,0.43704038858413696,1.0455546379089355,-1.4866799116134644,4.208436012268066,-4.24680233001709,0.36190202832221985,0.6843981146812439,0.42000001668930054,-1.0329190492630005,3.0000009536743164,-0.26303553581237793,-2.9999992847442627,-0.031374771147966385,-0.04028430953621864,-0.04914666339755058,-0.05798647552728653,-0.8703029751777649,-0.8773987293243408,-0.880679726600647,-0.8805686831474304
0.2,0.08437529951334,0.08900424838066101,0.0,0.961669385433197,0.0,0.0,-0.27421149611473083,0.4695899188518524,0.18524591624736786,0.0,0.0,0.0,-4.8316426277160645,-0.3958047032356262,0.6455636620521545,0.4200000464916229,1.0,3.6000794807478087e-06,-2.2913106931810034e-06,-2.2022658185960609e-07,0.00026573013747110963,0.00026644987519830465,-0.00010397983714938164,-0.001722664455883205,0.004188813269138336,-0.00012773538765031844,-0.3823443651199341,0.5003911256790161,0.968956708908081,-1.260043978691101,3.809141159057617,-4.990195274353027,0.36190202832221985,0.6843981146812439,0.42000001668930054,-0.9829153418540955,2.999999761581421,-0.3130638599395752,-3.0000009536743164,-0.04207269474864006,-0.05100970342755318,-0.05984829366207123,-0.06862205266952515,-0.6128434538841248,-0.5975103974342346,-0.5804837346076965,-0.5623496174812317
0.21666666666666667,0.08688930422067642,0.09723100811243057,0.0,0.9574521780014038,0.0,0.0,-0.28859204053878784,0.06695911288261414,0.6068391799926758,0.0,0.0,0.0,-0.7770817279815674,-0.3958047032356262,0.6455636620521545,0.4200000464916229,0.9999999403953552,3.639640453911852e-06,-2.2620747586188372e-06,2.2244168462748348e-07,0.00026687351055443287,0.0002675433352123946,-0.00010412069968879223,-0.0017403893871232867,0.004211045801639557,-0.00012783610145561397,-0.40531665086746216,0.5516684055328369,0.8828355073928833,-1.1038336753845215,2.8110527992248535,-5.342844009399414,0.36190202832221985,0.6843981146812439,0.42000001668930054,-0.9329046607017517,3.0000014305114746,-0.36309418082237244,-3.0000007152557373,-0.05781938135623932,-0.06662318855524063,-0.07482875883579254,-0.08296207338571548,-0.9720154404640198,-0.9652915000915527,-0.9619730710983276,-0.9594103097915649
0.23333333333333334,0.0857074186205864,0.10245547443628311,0.0,0.949684202671051,0.0,0.0,-0.31320902705192566,-0.15407800674438477,0.24520018696784973,0.0,0.0,0.0,-3.843590259552002,-0.39580467343330383,0.6455636620521545,0.4200000464916229,1.0,3.4207046155643184e-06,-2.3169197902461747e-06,2.955582374397636e-07,0.00026680153678171337,0.00026803999207913876,-0.00010442547500133514,-0.0017437575152143836,0.004206853453069925,-0.00012899478315375745,-0.42181330919265747,0.5961621999740601,0.7872987985610962,-0.7004501819610596,2.3813114166259766,-5.999854564666748,0.36190202832221985,0.6843981146812439,0.42000001668930054,-0.882893979549408,2.9999985694885254,-0.4131258428096771,-3.000000476837158,-0.07370723783969879,-0.08256068825721741,-0.09083457291126251,-0.09903939068317413,-0.9908964037895203,-0.9924104809761047,-0.9935675263404846,-0.9944556951522827
0.25,0.08616699278354645,0.10338941961526871,0.0,0.9480428099632263,0.0,0.0,-0.31814277172088623,0.09035280346870422,-0.039219457656145096,0.0,0.0,0.0,0.24825045466423035,-0.3958047032356262,0.6455636620521545,0.4200000464916229,0.9999999403953552,3.347574192957836e-06,-2.2592728328163503e-06,1.8080250185903424e-07,0.0002668772649485618,0.0002679102180991322,-0.00010439311154186726,-0.001740425475873053,0.0042082504369318485,-0.00012870212958659977,-0.4336327314376831,0.6246997117996216,0.6855233907699585,-0.4872550368309021,1.2020766735076904,-6.19578742980957,0.36190202832221985,0.6843981146812439,0.42000001668930054,-0.8328836560249329,2.999988555908203,-0.4631575047969818,-2.999999761581421,-0.0904170498251915,-0.09921403974294662,-0.10739178955554962,-0.11548464000225067,-0.9932336807250977,-0.9941914677619934,-0.9949731230735779,-0.994441032409668
0.26666666666666666,0.08265627920627594,0.10342969000339508,0.0,0.9413062930107117,0.0,0.0,-0.33755365014076233,-0.3037223219871521,-0.017622029408812523,0.0,0.0,0.0,-3.3639280796051025,-0.3958047032356262,0.6455636620521545,0.4200000464916229,0.9999999403953552,3.5356974876776803e-06,-2.300349251527223e-06,-1.2690559003658564e-07,0.0002660165191628039,0.00026712179533205926,-0.0001041970681399107,-0.0017316269222646952,0.004192802589386702,-0.0001284941245103255,-0.4335545003414154,0.6358038187026978,0.5832139253616333,0.46020007133483887,0.21920247375965118,-5.930257320404053,0.36190202832221985,0.6843981146812439,0.42000001668930054,-0.7828748226165771,3.0,-0.5131879448890686,-3.0000009536743164,-0.10876187682151794,-0.11714409291744232,-0.12500543892383575,-0.13284766674041748,-1.0048251152038574,-1.0036277770996094,-1.0027151107788086,-1.00199294090271
0.2833333333333333,0.0821932926774025,0.10086462646722794,0.0,0.9403747916221619,0.0,0.0,-0.34014010429382324,0.03421252220869064,-0.18893977999687195,0.0,0.0,0.0,0.4673464000225067,-0.3958047032356262,0.6455637216567993,0.4200000464916229,1.0,3.5934608604293317e-06,-2.2626772988587618e-06,-5.659101631749763e-08,0.00026704638730734587,0.0002677501179277897,-0.00010416633449494839,-0.0017431543674319983,0.0042140609584748745,-0.00012789462925866246,-0.4255169630050659,0.642409086227417,0.4902540147304535,0.7293902635574341,0.3295153081417084,-5.168378829956055,0.36190202832221985,0.6843981146812439,0.42000001668930054,-0.7328660488128662,3.0000030994415283,-0.5632166862487793,-2.999998092651367,-0.12532353401184082,-0.13376283645629883,-0.14172711968421936,-0.14967605471611023,-1.035033941268921,-1.0264830589294434,-1.0199517011642456,-1.0147262811660767
0.3,0.07969347387552261,0.09655068069696426,0.0,0.9342323541641235,0.0,0.0,-0.3566649556159973,-0.16247034072875977,-0.31034737825393677,0.0,0.0,0.0,-2.999809503555298,-0.39580467343330383,0.6455636620521545,0.4200000464916229,0.9999999403953552,3.725033366208663e-06,-2.2360766251949826e-06,3.8281430647657544e-07,0.0002647967776283622,0.0002667308144737035,-0.00010453932918608189,-0.0017188972560688853,0.004166559781879187,-0.0001301638112636283,-0.40709495544433594,0.6477150321006775,0.4065706133842468,1.4626212120056152,0.39882463216781616,-4.971127510070801,0.36190202832221985,0.6843981146812439,0.42000001668930054,-0.6828687787055969,2.9999940395355225,-0.6132433414459229,-2.9999985694885254,-0.14240702986717224,-0.150709867477417,-0.1586049497127533,-0.16651350259780884,-0.9722744226455688,-0.9741474390029907,-0.9791751503944397,-0.9839064478874207
0.31666666666666665,0.07523957639932632,0.09001029282808304,0.0,0.9341601133346558,0.0,0.0,-0.3568542003631592,-0.3117440640926361,-0.42800647020339966,0.0,0.0,0.0,0.918746292591095,-0.39536988735198975,0.6466878056526184,0.4203314781188965,0.999710738658905,0.006896886508911848,0.0014288106467574835,-0.02299397997558117,0.09759766608476639,0.2230602651834488,0.07049067318439484,3.5179734230041504,0.006742624565958977,-8.628861427307129,-0.40695661306381226,0.6515010595321655,0.4273228049278259,0.25277820229530334,0.3285181224346161,-0.1518876552581787,0.36190202832221985,0.6843981146812439,0.42000001668930054,-0.6330980062484741,3.000000476837158,-0.6638928651809692,-2.9998271465301514,-0.14512336254119873,-0.1538507342338562,-0.16174447536468506,-0.16912882030010223,-0.32036101818084717,-0.30372682213783264,-0.26945459842681885,-0.21247920393943787
0.3333333333333333,0.068256676197052,0.08138401061296463,0.0,0.9287359118461609,0.0,0.0,-0.37074193358421326,-0.46632710099220276,-0.5563400387763977,0.0,0.0,0.0,-2.705422878265381,-0.3934585750102997,0.6507294774055481,0.4202961027622223,0.9956821203231812,0.0073686144314706326,-0.0008518258691765368,-0.09253169596195221,0.13266538083553314,0.2684115767478943,-0.018412230536341667,-0.8727747201919556,0.05643457919359207,-8.888381004333496,-0.4011334180831909,0.6562049984931946,0.424913227558136,0.4669530391693115,0.3223631978034973,-0.13650766015052795,0.36190202832221985,0.6843981146812439,0.42000001668930054,-0.5830928087234497,2.99998140335083,-0.7139471769332886,-2.999671697616577,-0.1514720469713211,-0.15955188870429993,-0.16651217639446259,-0.17260056734085083,-0.4145128130912781,-0.35303163528442383,-0.2773776948451996,-0.1833672672510147
0.35,0.058892350643873215,0.07066595554351807,0.0,0.9293613433837891,0.0,0.0,-0.3691713213920593,-0.6024506688117981,-0.6805948615074158,0.0,0.0,0.0,1.1426599025726318,-0.3879408538341522,0.6595306992530823,0.4202505350112915,0.9878769516944885,0.006129464600235224,-0.0008111618808470666,-0.15511582791805267,0.5011003613471985,0.7031334042549133,0.01696229726076126,0.9826606512069702,-0.3766987919807434,-4.211755752563477,-0.3927868604660034,0.6642950177192688,0.42298638820648193,0.562398374080658,0.6331930160522461,-0.08072850853204727,0.36190202832221985,0.6843981146812439,0.42000001668930054,-0.5330879092216492,2.999985456466675,-0.7639896869659424,-2.999988079071045,-0.1592070609331131,-0.16582080721855164,-0.17107093334197998,-0.17514923214912415,-0.4501386880874634,-0.3503008782863617,-0.2362333983182907,-0.10488589107990265
0.36666666666666664,0.04719981551170349,0.057804908603429794,0.0,0.9242568612098694,0.0,0.0,-0.38177117705345154,-0.7455388903617859,-0.8106083273887634,0.0,0.0,0.0,-2.570484161376953,-0.378579318523407,0.6721397042274475,0.42000213265419006,0.9816258549690247,-8.131397771649063e-05,6.367637979565188e-05,-0.19081585109233856,0.7240261435508728,0.9126032590866089,-0.005196675192564726,0.22602321207523346,-0.13010133802890778,-5.933223247528076,-0.3807476758956909,0.675536036491394,0.4223176836967468,0.8922206163406372,0.7683152556419373,-0.018293160945177078,0.36190202832221985,0.6843981146812439,0.42000001668930054,-0.48308345675468445,2.999990463256836,-0.8140397667884827,-2.999993085861206,-0.1666978895664215,-0.17141486704349518,-0.17446555197238922,-0.17600400745868683,-0.42205938696861267,-0.2953719198703766,-0.15001548826694489,0.015710365027189255
0.3833333333333333,0.03813667222857475,0.042319342494010925,0.0,0.9075280427932739,0.0,0.0,-0.41999149322509766,-0.46819382905960083,-0.9808166027069092,0.0,0.0,0.0,-5.858232021331787,-0.3616684675216675,0.692298173904419,0.42075520753860474,0.9729901552200317,0.015463490970432758,-0.006002997048199177,-0.23024974763393402,1.4191733598709106,1.2549415826797485,0.21397313475608826,3.843127727508545,-6.511188983917236,-7.244424819946289,-0.3626939058303833,0.6926741600036621,0.4234665632247925,1.3670446872711182,1.309688925743103,0.13103285431861877,0.36190202832221985,0.6843981146812439,0.42000001668930054,-0.4330799877643585,2.9759457111358643,-0.8640873432159424,-2.9988150596618652,-0.17308029532432556,-0.17562201619148254,-0.1761237382888794,-0.17472295463085175,-0.35402026772499084,-0.21777723729610443,-0.05957771837711334,0.12105190753936768
0.4,0.03322364017367363,0.023856906220316887,0.0,0.8768439888954163,0.0,0.0,-0.48077499866485596,-0.22278589010238647,-1.1715749502182007,0.0,0.0,0.0,-8.967966079711914,-0.32518821954727173,0.7198618054389954,0.4255414307117462,0.9590583443641663,0.04325806722044945,-0.04037589207291603,-0.27695760130882263,3.357060670852661,2.1945600509643555,0.3657152056694031,17.73894500732422,-13.202919960021973,4.7653117179870605,-0.32621824741363525,0.7208940982818604,0.42802685499191284,3.041909694671631,2.11767578125,0.5524866580963135,0.36190202832221985,0.6843981146812439,0.42000001668930054,-0.3954247236251831,1.3169927597045898,-0.867108166217804,2.1873674392700195,-0.1812634915113449,-0.18079911172389984,-0.17802265286445618,-0.17309534549713135,-0.552843451499939,-0.342801958322525,-0.12189774960279465,0.10719896852970123
0.4166666666666667,0.030474316328763962,0.010494932532310486,0.0,0.829278826713562,0.0,0.0,-0.5588350296020508,-0.12344305962324142,-0.6726993322372437,0.0,0.0,0.0,-11.762334823608398,-0.2488526850938797,0.7598345279693604,0.4342384934425354,0.9343656301498413,0.11299445480108261,-0.08240240067243576,-0.3277239203453064,6.107290267944336,2.2133383750915527,0.6783729791641235,13.396817207336426,-17.53535270690918,22.295289993286133,-0.25018757581710815,0.7608792185783386,0.43694937229156494,5.752040863037109,2.771089553833008,0.6872925162315369,0.36190202832221985,0.6843981146812439,0.42000001668930054,-0.3775649964809418,1.072265625,-0.8184654712677002,2.9947123527526855,-0.19659005105495453,-0.19300049543380737,-0.18516072630882263,-0.17542533576488495,-0.9236258268356323,-0.8407247066497803,-0.5361388325691223,-0.25835317373275757
0.43333333333333335,0.023914340883493423,0.004617649130523205,0.0,0.7886168360710144,0.0,0.0,-0.6148849129676819,-0.5121701955795288,-0.3450527787208557,0.0,0.0,0.0,-7.071326732635498,-0.1541350781917572,0.7936622500419617,0.4479734003543854,0.889260470867157,0.14252911508083344,-0.09699401259422302,-0.42366650700569153,5.731527805328369,1.2784574031829834,0.991073727607727,16.089534759521484,-4.520798206329346,0.042811378836631775,-0.15590500831604004,0.7950636148452759,0.45017433166503906,5.6602044105529785,1.5965449810028076,0.8725682497024536,0.36190202832221985,0.6843981146812439,0.42000001668930054,-0.3574586510658264,1.4002922773361206,-0.8454490900039673,-3.000002861022949,-0.21067197620868683,-0.2074635922908783,-0.19875609874725342,-0.18418146669864655,-0.6109089851379395,-0.6799361109733582,-0.7458913326263428,-0.5433962345123291
0.45,0.021765923127532005,-0.008522617630660534,0.0,0.7676836848258972,0.0,0.0,-0.6408289074897766,0.0024391445331275463,-0.951805591583252,0.0,0.0,0.0,-2.978633403778076,-0.0552581287920475,0.8130506873130798,0.46206599473953247,0.838657796382904,0.17286092042922974,-0.05591908469796181,-0.5134638547897339,6.147393226623535,-0.14445987343788147,0.48398515582084656,-21.181625366210938,2.47221040725708,7.040517330169678,-0.05689546838402748,0.8161084651947021,0.46152764558792114,6.195431709289551,0.7653896808624268,0.7515231370925903,0.36190202832221985,0.6843981146812439,0.42000001668930054,-0.33570706844329834,1.055950403213501,-0.8954734206199646,-3.0000011920928955,-0.21518802642822266,-0.21255695819854736,-0.20442511141300201,-0.18678927421569824,-0.1888877898454666,-0.16083891689777374,-0.13753938674926758,0.05577295646071434
0.4666666666666667,0.018510635942220688,-0.01965630054473877,0.0,0.7402496337890625,0.0,0.0,-0.6723321080207825,-0.23909343779087067,-0.6051473021507263,0.0,0.0,0.0,-6.072033882141113,0.0448574461042881,0.8165985941886902,0.4714183807373047,0.7832173705101013,0.1756758838891983,-0.05866685509681702,-0.5935205221176147,5.81663179397583,-0.9047115445137024,0.2793770730495453,-4.217715740203857,-18.356929779052734,24.785810470581055,0.043126728385686874,0.8210562467575073,0.47102999687194824,6.034142971038818,-0.025532960891723633,0.6461562514305115,0.36190202832221985,0.6843981146812439,0.42000001668930054,-0.3219222128391266,0.5397348403930664,-0.9454985857009888,-3.0000040531158447,-0.22096523642539978,-0.21725648641586304,-0.20836777985095978,-0.18805880844593048,-0.29867157340049744,-0.23866885900497437,-0.2062504142522812,-0.10170294344425201
0.48333333333333334,0.016877245157957077,-0.026069652289152145,0.0,0.7258257269859314,0.0,0.0,-0.6878786683082581,-0.03425835445523262,-0.2945398986339569,0.0,0.0,0.0,-1.3596693277359009,0.1365436464548111,0.8068141937255859,0.476317435503006,0.7273088097572327,0.16564242541790009,-0.06426768749952316,-0.6629132628440857,4.889155387878418,-1.5548241138458252,0.13814009726047516,5.947540283203125,-4.665356159210205,15.356941223144531,0.13467523455619812,0.811977744102478,0.4761824309825897,5.186738967895508,-1.032794713973999,0.1687001883983612,0.36190202832221985,0.6843981146812439,0.42000001668930054,-0.3131571114063263,0.5170234441757202,-0.9955226182937622,-2.9989824295043945,-0.2278214544057846,-0.22232158482074738,-0.21224913001060486,-0.19027502834796906,-0.41372910141944885,-0.28273823857307434,-0.19550110399723053,-0.11528138816356659
0.5,0.015032380819320679,-0.027981260791420937,0.0,0.704827606678009,0.0,0.0,-0.7093786597251892,-0.1829710602760315,-0.04497355595231056,0.0,0.0,0.0,-4.475557804107666,0.2141353189945221,0.785352885723114,0.47229599952697754,0.6692410111427307,0.13539686799049377,-0.07552981376647949,-0.7266905903816223,3.963510513305664,-1.8793120384216309,-0.46414467692375183,-4.7489519119262695,-3.9135425090789795,11.646161079406738,0.21129447221755981,0.7919415235519409,0.4734508991241455,4.2510666847229,-1.4964091777801514,-0.33269816637039185,0.36190202832221985,0.6843981146812439,0.42000001668930054,-0.3031867444515228,0.6383371949195862,-1.0455459356307983,-3.000001907348633,-0.2337886542081833,-0.22634732723236084,-0.215004563331604,-0.19223764538764954,-0.2901914715766907,-0.17616978287696838,-0.10308457165956497,-0.08024545013904572
0.5166666666666666,0.014378856867551804,-0.026641681790351868,0.0,0.697701096534729,0.0,0.0,-0.716389000415802,0.004316460341215134,0.1297595500946045,0.0,0.0,0.0,-0.20467181503772736,0.2752964496612549,0.7582089900970459,0.4618789553642273,0.6289163827896118,0.1057165339589119,-0.059393201023340225,-0.7679587006568909,3.0310757160186768,-1.9772357940673828,-0.8477106690406799,-7.763980388641357,-3.275247812271118,3.777231454849243,0.2727492153644562,0.7647007703781128,0.4633220434188843,3.2073678970336914,-1.7770020961761475,-0.742306113243103,0.36190202832221985,0.6843981146812439,0.42000001668930054,-0.2905724048614502,0.7821419835090637,-1.095568060874939,-3.000001907348633,-0.23747773468494415,-0.22839391231536865,-0.21609081327915192,-0.19349244236946106,-0.10989737510681152,-0.03550698608160019,-0.0022980100475251675,-0.050484493374824524
0.5333333333333333,0.017651377245783806,-0.031121263280510902,0.0,0.6800929307937622,0.0,0.0,-0.7331259250640869,0.17369334399700165,-0.22884149849414825,0.0,0.0,0.0,-3.6457390785217285,0.3240058422088623,0.7340954542160034,0.44318825006484985,0.5925984978675842,0.07216738909482956,-0.04744558781385422,-0.8008544445037842,2.7499780654907227,-1.3775216341018677,-1.3781468868255615,-0.31149059534072876,-4.608580112457275,-15.76901626586914,0.32073700428009033,0.739282488822937,0.4449114203453064,2.323916435241699,-1.5333473682403564,-1.247807264328003,0.36190202832221985,0.6843981146812439,0.42000001668930054,-0.27584072947502136,1.0420175790786743,-1.1455901861190796,-2.999027729034424,-0.2313740849494934,-0.2227555215358734,-0.21149274706840515,-0.19129936397075653,0.2708127200603485,0.26472362875938416,0.22039315104484558,0.08093859255313873
0.55,0.022204777225852013,-0.03030606359243393,0.0,0.6761898994445801,0.0,0.0,-0.7367273569107056,0.2982480525970459,0.1335957795381546,0.0,0.0,0.0,0.2894318699836731,0.35965612530708313,0.7148643732070923,0.41890788078308105,0.5164369940757751,-0.036350272595882416,0.04285414516925812,-0.8544792532920837,1.7576496601104736,-0.9771000146865845,-0.8991379737854004,11.435566902160645,60.978275299072266,-24.443195343017578,0.3541750907897949,0.712966799736023,0.4229815602302551,1.5746755599975586,-1.5044629573822021,-1.389233946800232,0.36190202832221985,0.6843981146812439,0.42000001668930054,-0.25233322381973267,1.7890098094940186,-1.1956123113632202,-2.9999871253967285,-0.2292642891407013,-0.2205379605293274,-0.20983082056045532,-0.1919129639863968,0.18101680278778076,0.15737973153591156,0.0958394855260849,-0.06992724537849426
0.5666666666666667,0.02950558438897133,-0.03342290222644806,0.0,0.6620624661445618,0.0,0.0,-0.7494486570358276,0.4908025860786438,-0.18529081344604492,0.0,0.0,0.0,-2.964482307434082,0.3692178428173065,0.7095034122467041,0.4237684905529022,0.5790671706199646,-0.02203613519668579,0.056512221693992615,-0.8130201697349548,0.24508953094482422,-0.5152043104171753,0.08620532602071762,-4.354493618011475,-3.03286075592041,6.609604358673096,0.36508989334106445,0.7042043209075928,0.4227401316165924,0.3413800895214081,-0.4430394172668457,-0.00952613539993763,0.36190202832221985,0.6843981146812439,0.42000001668930054,-0.2195524126291275,1.9188123941421509,-1.1587438583374023,3.0010476112365723,-0.22091393172740936,-0.2138105183839798,-0.20504789054393768,-0.19050545990467072,0.33766552805900574,0.26686370372772217,0.17442387342453003,-0.007712847553193569
0.5833333333333334,0.034711338579654694,-0.033786457031965256,0.0,0.6618958115577698,0.0,0.0,-0.7495958209037781,0.24079737067222595,0.017123857513070107,0.0,0.0,0.0,0.8174662590026855,0.3720438480377197,0.7008669376373291,0.4221111536026001,0.6110703349113464,-0.02903103083372116,0.037377480417490005,-0.7901601791381836,0.011097977869212627,-0.6841839551925659,-0.20110130310058594,-1.0813840627670288,-0.5210976004600525,3.6660983562469482,0.36816635727882385,0.694862961769104,0.42125535011291504,0.03807859122753143,-0.4563863277435303,0.08044350147247314,0.36190202832221985,0.6843981146812439,0.42000001668930054,-0.22860808670520782,-2.2765109539031982,-1.1808457374572754,-2.9997317790985107,-0.2161732167005539,-0.2101963311433792,-0.20286709070205688,-0.19118666648864746,0.32943692803382874,0.2467816174030304,0.14988455176353455,-0.02611946500837803
0.6,0.03998834639787674,-0.031088054180145264,0.0,0.6510403156280518,0.0,0.0,-0.7590431571006775,0.35659053921699524,0.2213066965341568,0.0,0.0,0.0,-2.653655529022217,0.3722080588340759,0.6926093697547913,0.4200252592563629,0.657627522945404,-0.0003303280391264707,-0.00036223692586645484,-0.7533429861068726,0.018148226663470268,-0.38674941658973694,-0.004836923908442259,-0.1009327620267868,0.06088004633784294,6.073770046234131,0.3703528642654419,0.6928926110267639,0.4230327606201172,0.21178865432739258,0.02652425691485405,0.11960497498512268,0.36190202832221985,0.6843981146812439,0.42000001668930054,-0.25262051820755005,-0.7082741856575012,-1.2308061122894287,-2.9992334842681885,-0.20889027416706085,-0.20509479939937592,-0.19998298585414886,-0.19156529009342194,0.532806932926178,0.3775031566619873,0.22487321496009827,0.018854964524507523
0.6166666666666667,0.047294337302446365,-0.03208519518375397,0.0,0.6525022983551025,0.0,0.0,-0.757786750793457,0.47286710143089294,-0.06430332362651825,0.0,0.0,0.0,1.1267684698104858,0.3739737570285797,0.6921427845954895,0.42181396484375,0.6591300368309021,-0.025698598474264145,0.020617978647351265,-0.7513067722320557,-0.032375264912843704,-0.03320431709289551,0.06718798726797104,-0.3618183434009552,1.907356858253479,-2.8720180988311768,0.3701099753379822,0.6923630237579346,0.42530858516693115,-0.22149839997291565,-0.10663772374391556,0.15834513306617737,0.36190202832221985,0.6843981146812439,0.42000001668930054,-0.2967449128627777,-2.999737024307251,-1.2807865142822266,-2.9987196922302246,-0.19797798991203308,-0.1967254877090454,-0.194120854139328,-0.18902666866779327,0.4670053720474243,0.37382304668426514,0.2782166004180908,0.13201548159122467
0.6333333333333333,0.05410376563668251,-0.02973303198814392,0.0,0.6753736138343811,0.0,0.0,-0.7374757528305054,0.33660411834716797,0.15008793771266937,0.0,0.0,0.0,4.484854221343994,0.3730263411998749,0.691450834274292,0.4214244782924652,0.64873868227005,-0.024006670340895653,0.026935895904898643,-0.760155439376831,-0.08749918639659882,-0.041691090911626816,-0.033500440418720245,0.532045841217041,-1.1150071620941162,-1.9201884269714355,0.3674873411655426,0.6909852027893066,0.4280219078063965,-0.13930070400238037,0.0438082292675972,0.1825365573167801,0.36190202832221985,0.6843981146812439,0.42000001668930054,-0.3467698395252228,-2.9999072551727295,-1.3307605981826782,-2.999323844909668,-0.19217351078987122,-0.19198383390903473,-0.19045309722423553,-0.1871771216392517,0.42192018032073975,0.3487075865268707,0.27804869413375854,0.17126739025115967
0.65,0.0609065480530262,-0.030572110787034035,0.0,0.6838659048080444,0.0,0.0,-0.7296077609062195,0.4333546459674835,-0.10460062325000763,0.0,0.0,0.0,0.3320525884628296,0.37106871604919434,0.6911085844039917,0.42001965641975403,0.6505315899848938,0.0006092049297876656,0.00010112833842867985,-0.7594788074493408,-0.11762318760156631,0.009594712406396866,-0.016744013875722885,-0.8578413724899292,0.13932617008686066,-1.067675232887268,0.3656006455421448,0.6923766136169434,0.43240630626678467,-0.14463065564632416,0.02292807400226593,0.3082277476787567,0.36190202832221985,0.6843981146812439,0.42000001668930054,-0.39679065346717834,-2.9991984367370605,-1.380743145942688,-2.9999406337738037,-0.18550553917884827,-0.18581834435462952,-0.1846037358045578,-0.18204106390476227,0.3437402546405792,0.36010482907295227,0.3919162154197693,0.40767747163772583
0.6666666666666666,0.06935372203588486,-0.03502936288714409,0.0,0.6706733703613281,0.0,0.0,-0.7417528033256531,0.5460376739501953,-0.3406306803226471,0.0,0.0,0.0,-3.0077006816864014,0.3701554238796234,0.6911910772323608,0.4200000464916229,0.6487248539924622,1.267554381456648e-07,2.9881775276408007e-07,-0.7610229253768921,-0.028774535283446312,0.0017875368939712644,-1.406087540090084e-05,-0.0006704324623569846,6.248670251807198e-05,-0.26284071803092957,0.36562487483024597,0.694135308265686,0.4446612596511841,0.147361621260643,0.15424193441867828,1.2463440895080566,0.36190202832221985,0.6843981146812439,0.42000001668930054,-0.44680479168891907,-2.9999866485595703,-1.4307613372802734,-2.9999990463256836,-0.18178699910640717,-0.18158505856990814,-0.17959053814411163,-0.1764296144247055,0.16351744532585144,0.20248384773731232,0.25687938928604126,0.30450835824012756
0.6833333333333333,0.08128340542316437,-0.03479573130607605,0.0,0.6355683207511902,0.0,0.0,-0.7720445990562439,0.691190779209137,0.025794753804802895,0.0,0.0,0.0,-6.389674663543701,0.37015512585639954,0.6911913752555847,0.42000001668930054,0.6487249732017517,-3.418936103116721e-07,-4.388488378026523e-06,-0.7610228657722473,0.0002043167332885787,-0.0003939883899874985,-8.292705751955509e-05,0.008265071548521519,0.0004719618009403348,-0.0003477439167909324,0.3760589063167572,0.6927664875984192,0.4709608554840088,1.1922149658203125,-0.14993816614151,2.0100162029266357,0.36190202832221985,0.6843981146812439,0.42000001668930054,-0.4968177080154419,-2.9999477863311768,-1.4807796478271484,-2.999997138977051,-0.18553894758224487,-0.18361453711986542,-0.17970514297485352,-0.17476175725460052,-0.15154407918453217,-0.07154527306556702,0.023114686831831932,0.11740633100271225
0.7,0.0899999663233757,-0.03268123418092728,0.0,0.6148295402526855,0.0,0.0,-0.7886599898338318,0.4627162516117096,0.122296541929245,0.0,0.0,0.0,-2.070725202560425,0.3701550364494324,0.6911914944648743,0.41999998688697815,0.6487249732017517,-1.981582613552746e-07,-5.389396392274648e-06,-0.7610229253768921,0.00022877003357280046,-0.00040659058140590787,-9.050942026078701e-05,0.008714204654097557,-0.0008247164660133421,-0.0005024331621825695,0.394650399684906,0.6930097937583923,0.5051317811012268,1.011123776435852,0.16722792387008667,2.064293384552002,0.36190202832221985,0.6843981146812439,0.42000001668930054,-0.5197272896766663,0.007216514088213444,-1.5307979583740234,-3.000000238418579,-0.18693649768829346,-0.18428769707679749,-0.17950697243213654,-0.17371930181980133,0.05564921349287033,0.04773992300033569,0.04436234384775162,0.04009510949254036
0.7166666666666667,0.09436476230621338,-0.029098931699991226,0.0,0.6195168495178223,0.0,0.0,-0.7849833369255066,0.1941782683134079,0.2645411193370819,0.0,0.0,0.0,1.544177770614624,0.3701550364494324,0.6911914348602295,0.41999998688697815,0.6487250328063965,-1.3443356294828845e-07,-5.651591436617309e-06,-0.7610227465629578,0.00023007475829217583,-0.00040764929144643247,-9.051896631717682e-05,0.008746507577598095,-0.0008145134197548032,-0.0005053018103353679,0.40835896134376526,0.697273313999176,0.5336353778839111,0.557744026184082,0.3111010789871216,1.4070720672607422,0.36190202832221985,0.6843981146812439,0.42000001668930054,-0.499970018863678,2.15895414352417,-1.4919811487197876,2.9999990463256836,-0.1844310313463211,-0.18209710717201233,-0.17759662866592407,-0.1720953732728958,0.22067034244537354,0.19535325467586517,0.168277770280838,0.13982683420181274
0.7333333333333333,0.09504427760839462,-0.02973315492272377,0.0,0.6132246851921082,0.0,0.0,-0.7899085283279419,0.03081270307302475,-0.1003752127289772,0.0,0.0,0.0,-1.7783342599868774,0.3701550364494324,0.6911914944648743,0.41999998688697815,0.6487247943878174,-3.4985686170330155e-07,-5.690811576641863e-06,-0.7610229849815369,0.00023061972751747817,-0.0004072380834259093,-9.052804671227932e-05,0.008736648596823215,-0.0008071605116128922,-0.0005065372679382563,0.41163748502731323,0.7016881704330444,0.5503257513046265,-0.18665185570716858,0.13648122549057007,0.745551347732544,0.36190202832221985,0.6843981146812439,0.42000001668930054,-0.4802831709384918,0.34418314695358276,-1.441928505897522,3.0000009536743164,-0.17843227088451385,-0.17669016122817993,-0.17287196218967438,-0.16809342801570892,0.2834515869617462,0.2761524021625519,0.2571629583835602,0.23072725534439087
0.75,0.09352731704711914,-0.02540469542145729,0.0,0.6200757622718811,0.0,0.0,-0.7845419645309448,-0.14072285592556,0.3978603184223175,0.0,0.0,0.0,1.9411784410476685,0.3701550364494324,0.6911914944648743,0.41999998688697815,0.6487248539924622,-1.7756789816303353e-07,-5.612775112240342e-06,-0.7610230445861816,0.000227993237785995,-0.00040606269612908363,-9.030359797179699e-05,0.008703241124749184,-0.0008233585976995528,-0.0005002482794225216,0.4078442454338074,0.7027946710586548,0.5590001344680786,-0.25428545475006104,0.08701711893081665,0.3348623514175415,0.36190202832221985,0.6843981146812439,0.42000001668930054,-0.4650227725505829,1.3846546411514282,-1.3918949365615845,3.0000009536743164,-0.1787741482257843,-0.176061749458313,-0.17161795496940613,-0.1664857119321823,-0.07167752832174301,-0.00644143158569932,0.034893378615379333,0.05769151821732521
0.7666666666666666,0.09336666762828827,-0.02362806908786297,0.0,0.6158537268638611,0.0,0.0,-0.7878605127334595,0.01929791085422039,0.011171321384608746,0.0,0.0,0.0,-1.4256144762039185,0.3701550364494324,0.6911914348602295,0.41999998688697815,0.6487249732017517,-2.633981637245597e-07,-5.6280659919139e-06,-0.7610229253768921,0.00023127513122744858,-0.00040793060907162726,-9.057042188942432e-05,0.008757050149142742,-0.0008059488027356565,-0.0005082206916995347,0.40021267533302307,0.7031029462814331,0.5580050945281982,-0.6361280679702759,-0.05990475416183472,-0.2552858591079712,0.36190202832221985,0.6843981146812439,0.42000001668930054,-0.471481591463089,-1.8712292909622192,-1.3418422937393188,3.0,-0.17816007137298584,-0.1748664379119873,-0.17019875347614288,-0.16508746147155762,0.08108683675527573,0.1026090756058693,0.10336661338806152,0.09095142036676407
0.7833333333333333,0.09543059766292572,-0.024436242878437042,0.0,0.6230230927467346,0.0,0.0,-0.7822034358978271,0.17586427927017212,-0.09819414466619492,0.0,0.0,0.0,1.922964334487915,0.3701550364494324,0.6911914944648743,0.41999998688697815,0.6487246751785278,-3.565917836567678e-07,-5.671307462762343e-06,-0.7610230445861816,0.00023052528558764607,-0.00040717676165513694,-9.052152745425701e-05,0.008735015988349915,-0.0008077810052782297,-0.0005063217249698937,0.3954668641090393,0.7021403312683105,0.5526465177536011,-0.005602178163826466,-0.06608384847640991,-0.3245680034160614,0.36190202832221985,0.6843981146812439,0.42000001668930054,-0.5055789351463318,-2.1680407524108887,-1.361000418663025,-3.000000476837158,-0.1773471087217331,-0.17340712249279022,-0.16831977665424347,-0.16289854049682617,0.036383066326379776,0.08983214199542999,0.13424649834632874,0.17641812562942505
0.8,0.0997428223490715,-0.02806767262518406,0.0,0.6181073784828186,0.0,0.0,-0.7860936522483826,0.30120909214019775,-0.27692922949790955,0.0,0.0,0.0,-1.6212399005889893,0.3701550364494324,0.6911914348602295,0.41999998688697815,0.6487249732017517,-2.494492150617589e-07,-5.4652869039273355e-06,-0.7610228061676025,0.00022905520745553076,-0.0004075230099260807,-9.048753418028355e-05,0.008740436285734177,-0.000822462432552129,-0.0005027459119446576,0.39823219180107117,0.6980440616607666,0.5427364110946655,0.3293808102607727,-0.3947256803512573,-0.6580783724784851,0.36190202832221985,0.6843981146812439,0.42000001668930054,-0.554058849811554,-2.999997615814209,-1.4110187292099,-3.000000476837158,-0.17759782075881958,-0.17247265577316284,-0.16624701023101807,-0.15963594615459442,-0.01747237890958786,0.06798238307237625,0.15428215265274048,0.2467804253101349
0.8166666666666667,0.10675220936536789,-0.031548481434583664,0.0,0.5919182896614075,0.0,0.0,-0.8059979677200317,0.46899715065956116,-0.16488733887672424,0.0,0.0,0.0,-4.86488151550293,0.3701550364494324,0.6911914348602295,0.41999998688697815,0.6487250328063965,-3.954141618578433e-07,-5.579066964855883e-06,-0.7610227465629578,0.00022891115804668516,-0.00040808733319863677,-9.060325101017952e-05,0.008751597255468369,-0.0008285443764179945,-0.0005024007987231016,0.40742555260658264,0.6893525123596191,0.5360441207885742,0.7678922414779663,-0.594461977481842,-0.008248385041952133,0.36190202832221985,0.6843981146812439,0.42000001668930054,-0.6040657162666321,-2.9999823570251465,-1.461037039756775,-3.000000238418579,-0.17800801992416382,-0.1719629168510437,-0.16471317410469055,-0.15688522160053253,0.020746376365423203,0.04733497276902199,0.0834883600473404,0.13475623726844788
0.8333333333333334,0.116082563996315,-0.03144257143139839,0.0,0.5809699296951294,0.0,0.0,-0.81392502784729,0.5949721932411194,0.07883994281291962,0.0,0.0,0.0,-0.6260820031166077,0.3701550364494324,0.6911914348602295,0.41999998688697815,0.6487246751785278,-2.8415857400432287e-07,-5.570173016167246e-06,-0.7610231041908264,0.00022880536562297493,-0.00040700557292439044,-9.047822095453739e-05,0.008725674822926521,-0.0008222353644669056,-0.0005021084798499942,0.41875576972961426,0.6848945617675781,0.539948582649231,0.5782523155212402,-0.052804358303546906,0.43044349551200867,0.36190202832221985,0.6843981146812439,0.42000001668930054,-0.6229671835899353,0.4487689435482025,-1.51105535030365,-3.000000238418579,-0.17680291831493378,-0.1711750030517578,-0.16420695185661316,-0.15642812848091125,0.13254401087760925,0.0660158097743988,0.004034443758428097,-0.04626663774251938
0.85,0.12240754067897797,-0.02886960469186306,0.0,0.594829797744751,0.0,0.0,-0.8038516640663147,0.31050342321395874,0.21653436124324799,0.0,0.0,0.0,2.8776330947875977,0.3701550364494324,0.6911914944648743,0.41999998688697815,0.6487247943878174,-2.978864301894646e-07,-5.777487785962876e-06,-0.7610230445861816,0.00022808992071077228,-0.0004066896508447826,-9.042210876941681e-05,0.008716925978660583,-0.0008279329049400985,-0.000500511669088155,0.4289635419845581,0.6874307990074158,0.5436538457870483,0.5874526500701904,0.27171599864959717,0.04030260443687439,0.36190202832221985,0.6843981146812439,0.42000001668930054,-0.5991402268409729,2.2349369525909424,-1.4722951650619507,3.0000009536743164,-0.17217262089252472,-0.16818459331989288,-0.16278256475925446,-0.1563747525215149,0.3198443651199341,0.2125433385372162,0.10691404342651367,0.01023008581250906
0.8666666666666667,0.12466229498386383,-0.030290160328149796,0.0,0.5949254035949707,0.0,0.0,-0.8037809133529663,0.10947169363498688,-0.15774030983448029,0.0,0.0,0.0,-0.9838743805885315,0.3701550364494324,0.6911914348602295,0.41999998688697815,0.6487250924110413,-2.560683753927151e-07,-5.798929578304524e-06,-0.7610228061676025,0.0002323099470231682,-0.00040810552309267223,-9.05932392925024e-05,0.008764497935771942,-0.0007972989114932716,-0.0005107598844915628,0.4345453381538391,0.6912081241607666,0.5409629344940186,0.08171844482421875,0.15566948056221008,-0.20700103044509888,0.36190202832221985,0.6843981146812439,0.42000001668930054,-0.5904175043106079,-0.9225602149963379,-1.422242522239685,3.000000238418579,-0.1650199294090271,-0.16309642791748047,-0.15976715087890625,-0.15531672537326813,0.34317460656166077,0.23885172605514526,0.12925659120082855,0.021197790279984474
