vladlanda/robotic-transformer/data/env_000_episode_0268.csv
sim_time_s,robot_box_x,robot_box_y,robot_box_z,robot_box_quat_w,robot_box_quat_x,robot_box_quat_y,robot_box_quat_z,robot_box_linvel_x,robot_box_linvel_y,robot_box_linvel_z,robot_box_angvel_x,robot_box_angvel_y,robot_box_angvel_z,cube_world_x,cube_world_y,cube_world_z,cube_quat_w,cube_quat_x,cube_quat_y,cube_quat_z,cube_linvel_x,cube_linvel_y,cube_linvel_z,cube_angvel_x,cube_angvel_y,cube_angvel_z,endpoint_world_x,endpoint_world_y,endpoint_world_z,endpoint_linvel_x,endpoint_linvel_y,endpoint_linvel_z,target_cube_world_x,target_cube_world_y,target_cube_world_z,gripper_actual_pos_rad_gp_leftgearjoint,gripper_actual_vel_rad_s_gp_leftgearjoint,gripper_actual_pos_rad_gp_rotatingjoint,gripper_actual_vel_rad_s_gp_rotatingjoint,motor_angle_rad_joint1,motor_angle_rad_joint2,motor_angle_rad_joint3,motor_angle_rad_joint4,motor_speed_rad_s_joint1,motor_speed_rad_s_joint2,motor_speed_rad_s_joint3,motor_speed_rad_s_joint4
0.0,0.0,0.0,0.0,1.0,0.0,0.0,0.0,0.0,0.0,0.0,0.0,0.0,0.0,-0.4039921462535858,0.671037495136261,0.41999998688697815,1.0,0.0,0.0,0.0,0.0,0.0,0.0,0.0,0.0,0.0,3.42540442943573e-06,-0.005000244826078415,1.313499927520752,0.0,0.0,0.0,0.44229453802108765,0.6970077157020569,0.42000001668930054,-1.5707999467849731,0.0,0.0,0.0,0.0,0.0,0.0,0.0,0.0,0.0,0.0,0.0
0.016666666666666666,0.0028778850100934505,0.0021806680597364902,0.0,0.9998081922531128,0.0,0.0,0.019586581736803055,0.24087215960025787,0.18240931630134583,0.0,0.0,0.0,3.1418697834014893,-0.40399226546287537,0.6710371971130371,0.41999998688697815,1.0,3.279964630564791e-06,-8.339746386809566e-07,8.465587342243452e-08,-1.9833529222523794e-05,0.00017983045836444944,-6.132945418357849e-05,0.0009432713268324733,-0.004689474124461412,-0.00031981561915017664,-0.007110234349966049,0.003379564033821225,1.3159373998641968,-0.8143353462219238,0.9868683815002441,0.18095196783542633,0.44229453802108765,0.6970077157020569,0.42000001668930054,-1.5301095247268677,3.0000011920928955,-0.04584788903594017,-2.9999992847442627,0.0008691533003002405,0.0007963840034790337,0.0007110277656465769,0.0006108740926720202,0.11094217747449875,0.09756709635257721,0.08334315568208694,0.06823883205652237
0.03333333333333333,0.00896097905933857,0.006801951676607132,0.0,0.9997960329055786,0.0,0.0,0.020196838304400444,0.40702149271965027,0.31530824303627014,0.0,0.0,0.0,-0.8691313862800598,-0.4039923846721649,0.6710371375083923,0.4200000464916229,1.0,3.3908179375430336e-06,-2.132458348569344e-06,-3.7097745320124886e-08,0.00026357852038927376,0.00026937833172269166,-0.00010509369894862175,-0.0017707126680761576,0.004130884539335966,-0.0001354814594378695,-0.02755098044872284,0.026122834533452988,1.3166077136993408,-1.591475248336792,1.6157231330871582,-0.08356551826000214,0.44229453802108765,0.6970077157020569,0.42000001668930054,-1.4800903797149658,3.0000014305114746,-0.095887690782547,-2.9999992847442627,0.0029901291709393263,0.002652746858075261,0.0022773249074816704,0.0018607878591865301,0.1642192155122757,0.13976338505744934,0.11382295191287994,0.08630558848381042
0.05,0.01727207377552986,0.01361958310008049,0.0,0.9999134540557861,0.0,0.0,0.01315410528331995,0.5394421219825745,0.44897371530532837,0.0,0.0,0.0,-0.8281239867210388,-0.4039924144744873,0.6710371971130371,0.4200000464916229,1.0,3.7651293496310245e-06,-2.2119379536889028e-06,5.6273887771851605e-09,0.0002653067058417946,0.00026691422681324184,-0.00010440615005791187,-0.0017243530601263046,0.00417736079543829,-0.00012949267693329602,-0.058375705033540726,0.05564829707145691,1.3115110397338867,-2.063469886779785,1.9062199592590332,-0.4895835220813751,0.44229453802108765,0.6970077157020569,0.42000001668930054,-1.4300720691680908,2.9999992847442627,-0.1459263563156128,-3.0,0.0055333469063043594,0.00473941583186388,0.0038733785040676594,0.002930557122454047,0.17250460386276245,0.13548296689987183,0.09660197794437408,0.055745065212249756
0.06666666666666667,0.02879822999238968,0.022686591371893883,0.0,0.9999141097068787,0.0,0.0,-0.013106032274663448,0.7590791583061218,0.5890103578567505,0.0,0.0,0.0,-4.115625381469727,-0.4039924144744873,0.6710371375083923,0.4200000464916229,0.9999999403953552,3.406754103707499e-06,-2.2856077066535363e-06,4.300980265270482e-07,0.0002670255198609084,0.0002679179306142032,-0.0001043803058564663,-0.001740670995786786,0.004211848136037588,-0.00012850687198806554,-0.09413506090641022,0.0914631336927414,1.2999483346939087,-2.2096896171569824,2.3586158752441406,-0.8939265012741089,0.44229453802108765,0.6970077157020569,0.42000001668930054,-1.3800537586212158,3.0000009536743164,-0.19593515992164612,-2.999999761581421,0.008172969333827496,0.006639943458139896,0.004996051546186209,0.0032356407027691603,0.16212573647499084,0.10750550776720047,0.05083688348531723,-0.007938951253890991
0.08333333333333333,0.03735675662755966,0.035181544721126556,0.0,0.9997416138648987,0.0,0.0,-0.02273128554224968,0.3695535361766815,0.8304237723350525,0.0,0.0,0.0,-0.16072218120098114,-0.4039924144744873,0.6710371375083923,0.4200000464916229,0.9999999403953552,3.6260603337723296e-06,-2.3353738924924983e-06,3.0322857469400333e-07,0.00026613770751282573,0.00026685066404752433,-0.00010405178181827068,-0.0017283547203987837,0.004196325317025185,-0.000127911422168836,-0.13380828499794006,0.12868507206439972,1.2812590599060059,-2.3779683113098145,2.3105967044830322,-1.2884184122085571,0.44229453802108765,0.6970077157020569,0.42000001668930054,-1.3300243616104126,2.9999942779541016,-0.16212213039398193,3.0000011920928955,0.006585157476365566,0.004335349425673485,0.0019295171368867159,-0.000642554194200784,-0.21526484191417694,-0.260756254196167,-0.3087623119354248,-0.3594718277454376
0.1,0.04724904149770737,0.04960425943136215,0.0,0.998932421207428,0.0,0.0,-0.0461951345205307,0.6860547065734863,0.8947086334228516,0.0,0.0,0.0,-3.6706039905548096,-0.4039924144744873,0.6710371375083923,0.4200000464916229,1.0,3.4220743145851884e-06,-2.30867885875341e-06,1.7964234189093986e-07,0.0002668164379429072,0.0002680036413948983,-0.00010440708138048649,-0.0017430284060537815,0.004207152873277664,-0.00012891023652628064,-0.16960231959819794,0.16992762684822083,1.2606922388076782,-1.9550117254257202,2.654482841491699,-1.2189797163009644,0.44229453802108765,0.6970077157020569,0.42000001668930054,-1.280022382736206,2.9999988079071045,-0.19385340809822083,-3.000000476837158,0.0037254155613482,0.0002588131173979491,-0.003391319653019309,-0.007235687226057053,-0.17822706699371338,-0.2686471939086914,-0.3599510192871094,-0.4520834982395172
0.11666666666666667,0.056337542831897736,0.06164466217160225,0.0,0.996040940284729,0.0,0.0,-0.08889582753181458,0.5587813258171082,0.6791277527809143,0.0,0.0,0.0,-5.876725196838379,-0.4039924144744873,0.6710371971130371,0.4200000464916229,1.0,3.7114557471795706e-06,-2.332793883397244e-06,2.5744137133187905e-07,0.0002648575755301863,0.00026635421090759337,-0.00010423525236546993,-0.001718215993605554,0.004170078784227371,-0.00012915751722175628,-0.2031651884317398,0.21716786921024323,1.2389380931854248,-1.9928181171417236,3.0747249126434326,-1.385928988456726,0.44229453802108765,0.6970077157020569,0.42000001668930054,-1.2300057411193848,2.9999890327453613,-0.16009101271629333,2.999999761581421,0.0008829828002490103,-0.0042902142740786076,-0.009630070067942142,-0.015145762823522091,-0.09916582703590393,-0.2142726629972458,-0.3267422914505005,-0.4364074170589447
0.13333333333333333,0.06296708434820175,0.07153835892677307,0.0,0.9939209222793579,0.0,0.0,-0.11009655147790909,0.3322342038154602,0.5294367074966431,0.0,0.0,0.0,-1.4513334035873413,-0.4039924144744873,0.6710371375083923,0.4200000464916229,1.0,3.335647988933488e-06,-2.2320116386254085e-06,3.113250670594425e-07,0.00026669682119973004,0.000267594848992303,-0.00010428694076836109,-0.0017371177673339844,0.004205875098705292,-0.00012840732233598828,-0.24093014001846313,0.2636886537075043,1.2134171724319458,-2.222641944885254,2.9327378273010254,-1.690847396850586,0.44229453802108765,0.6970077157020569,0.42000001668930054,-1.180018424987793,3.0,-0.19178763031959534,-2.9999990463256836,-0.0016529728891327977,-0.00870431400835514,-0.015860147774219513,-0.023127105087041855,-0.21051354706287384,-0.3148196339607239,-0.41514095664024353,-0.5113690495491028
0.15,0.06567847728729248,0.08222824335098267,0.0,0.9899440407752991,0.0,0.0,-0.14145967364311218,0.09630662202835083,0.6949074268341064,0.0,0.0,0.0,-4.596508502960205,-0.4039924144744873,0.6710371375083923,0.4200000464916229,1.0,3.518864104989916e-06,-2.283212324982742e-06,-3.625428917075624e-07,0.00026618369156494737,0.00026735756546258926,-0.00010425550863146782,-0.0017349214758723974,0.004195664543658495,-0.00012860912829637527,-0.27819526195526123,0.3171957731246948,1.1795523166656494,-2.149109363555908,3.4924840927124023,-2.3614113330841064,0.44229453802108765,0.6970077157020569,0.42000001668930054,-1.1300052404403687,2.9999966621398926,-0.15803584456443787,2.9999992847442627,-0.00666938116773963,-0.015263000503182411,-0.023882362991571426,-0.032533399760723114,-0.37429937720298767,-0.4498540461063385,-0.5207576155662537,-0.5870532393455505
0.16666666666666666,0.07352227717638016,0.0904146283864975,0.0,0.979338526725769,0.0,0.0,-0.20222780108451843,0.5289060473442078,0.4864066541194916,0.0,0.0,0.0,-8.04445743560791,-0.4039924144744873,0.6710371375083923,0.4200000464916229,1.0,3.666546717795427e-06,-2.3392813091049902e-06,-3.150027225728991e-07,0.0002659583115018904,0.00026667400379665196,-0.00010403734631836414,-0.001725324080325663,0.004192811902612448,-0.00012778834206983447,-0.31166309118270874,0.3805525302886963,1.13493812084198,-1.7400907278060913,4.139499187469482,-3.0596108436584473,0.44229453802108765,0.6970077157020569,0.42000001668930054,-1.085452675819397,2.362065315246582,-0.1897909790277481,-2.9999990463256836,-0.010463075712323189,-0.020421216264367104,-0.030319198966026306,-0.040164656937122345,-0.43301641941070557,-0.4759840965270996,-0.5158955454826355,-0.5529493093490601
0.18333333333333332,0.07673253864049911,0.10109970718622208,0.0,0.9702538847923279,0.0,0.0,-0.24208956956863403,0.17022405564785004,0.6238532662391663,0.0,0.0,0.0,-3.6333885192871094,-0.4039924144744873,0.6710371375083923,0.4200000464916229,1.0,3.8142911762406584e-06,-2.3995992251002463e-06,-2.7027797955270216e-07,0.00026548971072770655,0.000266111281234771,-0.00010391324758529663,-0.0017178148264065385,0.004184778779745102,-0.00012754148337990046,-0.34413275122642517,0.4439270496368408,1.074499249458313,-1.7477021217346191,3.973296642303467,-4.0124640464782715,0.44229453802108765,0.6970077157020569,0.42000001668930054,-1.0376056432724,3.0000014305114746,-0.23981937766075134,-2.999999761581421,-0.023770678788423538,-0.033412348479032516,-0.04297838360071182,-0.05249014124274254,-0.7452201247215271,-0.7272613644599915,-0.7072476744651794,-0.685860276222229
0.2,0.07688876986503601,0.1128987967967987,0.0,0.9569123983383179,0.0,0.0,-0.29037678241729736,-0.07494834065437317,0.78865647315979,0.0,0.0,0.0,-6.836818218231201,-0.4039924144744873,0.6710371375083923,0.4200000464916229,1.0,3.5999869396619033e-06,-2.2913013708603103e-06,-2.201937832069234e-07,0.00026573010836727917,0.0002664492931216955,-0.00010398332960903645,-0.0017227825010195374,0.004188841208815575,-0.00012773113849107176,-0.37225306034088135,0.5097253322601318,0.999997079372406,-1.3751420974731445,3.9984960556030273,-4.850259304046631,0.44229453802108765,0.6970077157020569,0.42000001668930054,-0.9875987768173218,2.9999992847442627,-0.28984665870666504,-2.9999990463256836,-0.038337428122758865,-0.047448500990867615,-0.05644708499312401,-0.06536732614040375,-0.9548530578613281,-0.9102627635002136,-0.8638463020324707,-0.8163540959358215
0.21666666666666667,0.08179068565368652,0.12089641392230988,0.0,0.9471017718315125,0.0,0.0,-0.32093337178230286,0.37433183193206787,0.4569346606731415,0.0,0.0,0.0,-2.6834981441497803,-0.4039924144744873,0.6710371375083923,0.4200000464916229,0.9999999403953552,3.639563374235877e-06,-2.2620122308580903e-06,2.2247465381042275e-07,0.00026687391800805926,0.0002675444120541215,-0.00010411837138235569,-0.001740379841066897,0.004211025312542915,-0.00012783984129782766,-0.39655801653862,0.56868577003479,0.9148658514022827,-1.0872623920440674,3.366886854171753,-5.435971260070801,0.44229453802108765,0.6970077157020569,0.42000001668930054,-0.9375899434089661,3.000000238418579,-0.3398764729499817,-2.999999761581421,-0.05105675011873245,-0.05937231704592705,-0.06756527721881866,-0.07568300515413284,-0.9078102111816406,-0.8262915015220642,-0.7467221021652222,-0.6700381636619568
0.23333333333333334,0.08106302469968796,0.1323641687631607,0.0,0.9459827542304993,0.0,0.0,-0.3242169916629791,-0.0362948514521122,0.6419872045516968,0.0,0.0,0.0,0.9617347717285156,-0.4039923846721649,0.6710371375083923,0.4200000464916229,1.0,3.420630036998773e-06,-2.3168879579316126e-06,2.955902687062917e-07,0.0002668013039510697,0.0002680388279259205,-0.00010442384518682957,-0.0017437251517549157,0.004206957295536995,-0.00012900005094707012,-0.41619011759757996,0.6091980338096619,0.8205562829971313,-1.0745739936828613,1.892594814300537,-5.727447986602783,0.44229453802108765,0.6970077157020569,0.42000001668930054,-0.8875792622566223,2.9999938011169434,-0.38990768790245056,-2.999997615814209,-0.06702376902103424,-0.07535510510206223,-0.08355499804019928,-0.09162437915802002,-0.6759489178657532,-0.7270407676696777,-0.7743644118309021,-0.8167164325714111
0.25,0.08464054018259048,0.13816827535629272,0.0,0.9414785504341125,0.0,0.0,-0.33707284927368164,0.25134792923927307,0.2630932629108429,0.0,0.0,0.0,-2.3991005420684814,-0.4039924144744873,0.6710371375083923,0.4200000464916229,0.9999999403953552,3.347485289850738e-06,-2.2592903405893594e-06,1.8084206487856136e-07,0.0002668781380634755,0.00026791184791363776,-0.0001043954398483038,-0.001740514999255538,0.004208283498883247,-0.000128701634821482,-0.43014028668403625,0.6395561695098877,0.719741702079773,-0.558456540107727,1.4851810932159424,-6.21433162689209,0.44229453802108765,0.6970077157020569,0.42000001668930054,-0.8375690579414368,2.99999737739563,-0.43993934988975525,-3.0000014305114746,-0.08025360107421875,-0.08872941136360168,-0.09705965220928192,-0.10523402690887451,-0.9883400797843933,-0.954378604888916,-0.9219692945480347,-0.8909086585044861
0.26666666666666666,0.08406172692775726,0.14057543873786926,0.0,0.942746102809906,0.0,0.0,-0.3335113823413849,-0.13017737865447998,0.10371840000152588,0.0,0.0,0.0,1.2976731061935425,-0.4039924144744873,0.6710371375083923,0.4200000464916229,0.9999999403953552,3.707919859152753e-06,-2.392595661149244e-06,-1.2726982845379098e-07,0.00026603692094795406,0.00026716693537309766,-0.00010421336628496647,-0.0017321702325716615,0.004193120636045933,-0.00012854926171712577,-0.43703728914260864,0.6555132269859314,0.6209626793861389,-0.12899070978164673,0.45669007301330566,-5.559749603271484,0.44229453802108765,0.6970077157020569,0.42000001668930054,-0.787560224533081,3.0000007152557373,-0.4899701774120331,-3.0000009536743164,-0.09783722460269928,-0.1060815155506134,-0.11424319446086884,-0.12229075282812119,-1.0143557786941528,-1.010786771774292,-1.0080705881118774,-1.0059161186218262
0.2833333333333333,0.07965695112943649,0.14051562547683716,0.0,0.9387577772140503,0.0,0.0,-0.3445778489112854,-0.23193420469760895,-0.07452261447906494,0.0,0.0,0.0,-2.2100961208343506,-0.4039924144744873,0.6710371971130371,0.4200000464916229,0.9999999403953552,3.5725404359254753e-06,-2.304164354427485e-06,1.2984229158519156e-07,0.0002652165130712092,0.00026455134502612054,-0.00010317238047719002,-0.0017021878156811,0.004185077268630266,-0.00012500181037466973,-0.4321410059928894,0.6621243953704834,0.5312248468399048,0.6106793284416199,0.35871782898902893,-5.164994239807129,0.44229453802108765,0.6970077157020569,0.42000001668930054,-0.7375514507293701,2.9999942779541016,-0.5399997234344482,-2.9999983310699463,-0.11471021920442581,-0.12287004292011261,-0.13101522624492645,-0.13905680179595947,-0.831508219242096,-0.8661960959434509,-0.9013576507568359,-0.9304824471473694
0.3,0.0742623433470726,0.1375928372144699,0.0,0.9405308961868286,0.0,0.0,-0.3397081792354584,-0.3675297498703003,-0.21653985977172852,0.0,0.0,0.0,1.4755016565322876,-0.4039924144744873,0.6710371375083923,0.4200000464916229,1.0,3.744931063920376e-06,-2.238220076833386e-06,-1.7679303709883243e-07,0.00026436246116645634,0.00026623631129041314,-0.00010443315841257572,-0.0017120876582339406,0.004158840514719486,-0.0001299011637456715,-0.42175784707069397,0.6717326641082764,0.4483802914619446,0.7938024997711182,0.6174671649932861,-4.709835052490234,0.44229453802108765,0.6970077157020569,0.42000001668930054,-0.6875442862510681,3.0,-0.5900275111198425,-3.0000033378601074,-0.1315600574016571,-0.13968762755393982,-0.1478026956319809,-0.15580527484416962,-1.0161205530166626,-1.0122129917144775,-1.0092252492904663,-1.0068272352218628
0.31666666666666665,0.06653951108455658,0.13245107233524323,0.0,0.936901867389679,0.0,0.0,-0.34959253668785095,-0.5119825005531311,-0.34842559695243835,0.0,0.0,0.0,-2.1335818767547607,-0.40376710891723633,0.6718694567680359,0.4204444885253906,0.9997508525848389,0.0003942977637052536,0.010764476843178272,-0.01955001801252365,0.059881243854761124,0.1905519962310791,0.0963185578584671,0.11857287585735321,4.708232402801514,-8.643935203552246,-0.4145953059196472,0.6772682666778564,0.4210546910762787,0.38830840587615967,0.143980473279953,-0.12159570306539536,0.44229453802108765,0.6970077157020569,0.42000001668930054,-0.6377705931663513,2.9804399013519287,-0.6406432390213013,-2.803565263748169,-0.14166764914989471,-0.149808868765831,-0.15770785510540009,-0.16521812975406647,-0.3294808566570282,-0.3097672760486603,-0.26593825221061707,-0.19448532164096832
0.3333333333333333,0.05660822615027428,0.12503457069396973,0.0,0.9390023946762085,0.0,0.0,-0.34391066431999207,-0.635674238204956,-0.4844176173210144,0.0,0.0,0.0,1.6414144039154053,-0.40213871002197266,0.6764083504676819,0.42111510038375854,0.992770791053772,0.003814146388322115,0.027628419920802116,-0.11674028635025024,0.12657982110977173,0.32422348856925964,0.018709003925323486,0.2853858768939972,0.7545753717422485,-13.666876792907715,-0.4112181067466736,0.6839570999145508,0.4229643642902374,0.2935970425605774,0.48455414175987244,-0.156342551112175,0.44229453802108765,0.6970077157020569,0.42000001668930054,-0.5877646803855896,2.999983310699463,-0.6906821131706238,-3.0000009536743164,-0.14780192077159882,-0.15508709847927094,-0.161760613322258,-0.1676427572965622,-0.4238934814929962,-0.34906619787216187,-0.25624802708625793,-0.1445510983467102
0.35,0.044417161494493484,0.11540745198726654,0.0,0.9356212615966797,0.0,0.0,-0.3530054986476898,-0.7750788927078247,-0.6166471838951111,0.0,0.0,0.0,-2.1017367839813232,-0.3979230523109436,0.684248685836792,0.42046836018562317,0.9888573288917542,0.001823672093451023,0.011533224955201149,-0.14840765297412872,0.37009555101394653,0.6011261343955994,-0.04497545585036278,-0.6028249263763428,-2.2197256088256836,-2.467677116394043,-0.4043627977371216,0.6910147070884705,0.42079421877861023,0.5318483710289001,0.4574616551399231,-0.12134303152561188,0.44229453802108765,0.6970077157020569,0.42000001668930054,-0.5377597808837891,2.999972105026245,-0.7407333850860596,-2.999971628189087,-0.1555527299642563,-0.16127198934555054,-0.16607293486595154,-0.16977934539318085,-0.46465787291526794,-0.3578059673309326,-0.23409678041934967,-0.09450658410787582
0.36666666666666664,0.03475947305560112,0.10306192934513092,0.0,0.922690749168396,0.0,0.0,-0.3855408728122711,-0.5659806132316589,-0.7826980352401733,0.0,0.0,0.0,-5.162296772003174,-0.3900594711303711,0.695927619934082,0.4200018644332886,0.9861522912979126,1.7097025192924775e-05,-3.3772852475522086e-05,-0.16584180295467377,0.5905015468597412,0.8203195929527283,-0.003596191294491291,-0.0359380841255188,0.13621939718723297,-2.4738941192626953,-0.39394283294677734,0.7000650763511658,0.4200519621372223,0.7261552214622498,0.6602720022201538,0.08759920299053192,0.44229453802108765,0.6970077157020569,0.42000001668930054,-0.4877220094203949,3.0000016689300537,-0.7907615900039673,-2.9998526573181152,-0.16341134905815125,-0.1670052707195282,-0.1693500578403473,-0.1703048050403595,-0.5037388205528259,-0.35648125410079956,-0.1884593665599823,-0.0027379754465073347
0.3833333333333333,0.021881897002458572,0.08901228755712509,0.0,0.8959442973136902,0.0,0.0,-0.4441663920879364,-0.7703692317008972,-0.9116896390914917,0.0,0.0,0.0,-8.592639923095703,-0.3724396526813507,0.7174765467643738,0.4208225905895233,0.9799472689628601,-0.008773132227361202,-0.01243115495890379,-0.1986752152442932,1.6361032724380493,1.859514594078064,0.09727777540683746,-1.182020902633667,-5.201310634613037,-5.866162300109863,-0.3726264536380768,0.7181212306022644,0.4216761291027069,1.8807860612869263,1.6504509449005127,0.12359529733657837,0.44229453802108765,0.6970077157020569,0.42000001668930054,-0.4376828670501709,2.9998044967651367,-0.840773344039917,-2.999962091445923,-0.17438355088233948,-0.17479456961154938,-0.1736031323671341,-0.17074735462665558,-0.5402209758758545,-0.3610329329967499,-0.15827752649784088,0.06311946362257004
0.4,0.012291931547224522,0.07159670442342758,0.0,0.8524749279022217,0.0,0.0,-0.5227680802345276,-0.5234346389770508,-1.103614330291748,0.0,0.0,0.0,-11.554250717163086,-0.3160833418369293,0.753868818283081,0.4252464175224304,0.9661355018615723,0.024691754952073097,-0.04876800626516342,-0.25217875838279724,4.6029253005981445,2.435563325881958,-0.0090627521276474,42.697975158691406,-22.249832153320312,13.939416885375977,-0.3167549669742584,0.7551791667938232,0.4258764088153839,4.56669807434082,2.8054323196411133,0.45591992139816284,0.44229453802108765,0.6970077157020569,0.42000001668930054,-0.39431506395339966,1.6134487390518188,-0.8041457533836365,2.9902453422546387,-0.18723653256893158,-0.1831263303756714,-0.1771824210882187,-0.1694769561290741,-0.8276150822639465,-0.5328996777534485,-0.23090972006320953,0.06936753541231155
0.4166666666666667,0.005431904923170805,0.05839381739497185,0.0,0.7887057065963745,0.0,0.0,-0.6147709488868713,-0.3401913642883301,-0.7911865711212158,0.0,0.0,0.0,-14.154672622680664,-0.21384337544441223,0.8003659248352051,0.43186959624290466,0.9376115798950195,0.09923925995826721,-0.09389481693506241,-0.31971824169158936,7.665693759918213,2.5935142040252686,0.5024843811988831,13.71415901184082,-14.932822227478027,5.43804931640625,-0.21423989534378052,0.8022300004959106,0.4330023527145386,7.338137626647949,3.0287227630615234,0.5302017331123352,0.44229453802108765,0.6970077157020569,0.42000001668930054,-0.3764760196208954,0.9530304670333862,-0.7723491787910461,0.9977304339408875,-0.20144310593605042,-0.196889266371727,-0.18675851821899414,-0.17316339910030365,-0.5660386085510254,-0.6375487446784973,-0.5656671524047852,-0.27530258893966675
0.43333333333333335,0.0020034960471093655,0.04837387055158615,0.0,0.7323540449142456,0.0,0.0,-0.6809240579605103,-0.1573338657617569,-0.5318157076835632,0.0,0.0,0.0,-9.299453735351562,-0.0935349091887474,0.8365961909294128,0.4415578246116638,0.8867406845092773,0.1333581507205963,-0.11655440926551819,-0.42699122428894043,7.343482971191406,1.0616657733917236,0.7416627407073975,-3.281205892562866,-0.16242727637290955,-2.0514042377471924,-0.09517806768417358,0.840088963508606,0.44207972288131714,7.174525260925293,1.5434671640396118,0.5746734738349915,0.44229453802108765,0.6970077157020569,0.42000001668930054,-0.3591611087322235,1.0819683074951172,-0.8120912909507751,-3.0,-0.21565444767475128,-0.20992037653923035,-0.19706310331821442,-0.1781797558069229,-0.8848984837532043,-0.7648990750312805,-0.5867995619773865,-0.29832425713539124
0.45,-0.0032272357493638992,0.0430956594645977,0.0,0.6976974010467529,0.0,0.0,-0.7163926362991333,-0.31502795219421387,-0.29229459166526794,0.0,0.0,0.0,-4.671719551086426,0.023896537721157074,0.8502535223960876,0.4515160024166107,0.8112604022026062,0.15401935577392578,-0.11700651794672012,-0.5517644882202148,6.870918273925781,-0.620248019695282,0.630461573600769,-6.8709235191345215,4.848130702972412,3.3857295513153076,0.02018224261701107,0.8549646139144897,0.45077401399612427,6.855447769165039,0.23629507422447205,0.5280964374542236,0.44229453802108765,0.6970077157020569,0.42000001668930054,-0.34122490882873535,0.955486536026001,-0.8621161580085754,-3.000000476837158,-0.23085090517997742,-0.2245287001132965,-0.20822520554065704,-0.18407262861728668,-0.8462402820587158,-0.7747639417648315,-0.575141191482544,-0.2976607382297516
0.4666666666666667,-0.005300399847328663,0.03266552835702896,0.0,0.6872517466545105,0.0,0.0,-0.7264193296432495,-0.09979104995727539,-0.6111801266670227,0.0,0.0,0.0,-0.794058084487915,0.12853583693504333,0.8446286916732788,0.45803993940353394,0.7447471022605896,0.13774879276752472,-0.09666503965854645,-0.6457807421684265,5.852768421173096,-0.8418265581130981,0.16991707682609558,-0.7571777105331421,-12.816669464111328,2.4760425090789795,0.12489750981330872,0.8516504764556885,0.4576066732406616,5.602348327636719,-0.9243913888931274,0.4305218458175659,0.44229453802108765,0.6970077157020569,0.42000001668930054,-0.33094292879104614,0.40641334652900696,-0.9121416211128235,-3.0000033378601074,-0.24003608524799347,-0.23249214887619019,-0.21314282715320587,-0.18509423732757568,-0.32616907358169556,-0.5444085597991943,-0.3195948004722595,-0.07453547418117523
0.48333333333333334,-0.005269303452223539,0.026878859847784042,0.0,0.6677387952804565,0.0,0.0,-0.7443956732749939,0.04425987973809242,-0.2573173940181732,0.0,0.0,0.0,-4.1041154861450195,0.21563799679279327,0.8234105706214905,0.4603586792945862,0.6840629577636719,0.1236034408211708,-0.09133949130773544,-0.7130477428436279,4.8815484046936035,-1.8882697820663452,0.01739085093140602,-2.977010488510132,-4.078665733337402,-1.5744088888168335,0.21205195784568787,0.8312375545501709,0.46004313230514526,4.88667106628418,-1.6154358386993408,-0.004557732492685318,0.44229453802108765,0.6970077157020569,0.42000001668930054,-0.32476815581321716,0.5228450298309326,-0.9621656537055969,-3.000000238418579,-0.24000994861125946,-0.2400071769952774,-0.22036421298980713,-0.18876957893371582,-0.011762497946619987,-0.008530300110578537,-0.3859052062034607,-0.2291707843542099
0.5,-0.0024208775721490383,0.024863777682185173,0.0,0.6625714302062988,0.0,0.0,-0.748998761177063,0.21491919457912445,-0.08015557378530502,0.0,0.0,0.0,0.14125245809555054,0.289975643157959,0.7937060594558716,0.45675596594810486,0.6274814605712891,0.10218008607625961,-0.08828424662351608,-0.7668324708938599,3.8922832012176514,-2.0970242023468018,-0.3645557761192322,0.4576902985572815,6.418652534484863,-0.995227038860321,0.28719276189804077,0.8016465902328491,0.45676493644714355,4.14697790145874,-1.9932937622070312,-0.3256932497024536,0.44229453802108765,0.6970077157020569,0.42000001668930054,-0.3109813332557678,0.9429283142089844,-1.012189269065857,-2.9996883869171143,-0.2393079400062561,-0.23901812732219696,-0.2253146916627884,-0.19232210516929626,0.09917040914297104,0.13347874581813812,-0.16447238624095917,-0.1554613709449768
0.5166666666666666,0.0033353257458657026,0.019002599641680717,0.0,0.6470826864242554,0.0,0.0,-0.7624198198318481,0.3421708047389984,-0.4065386652946472,0.0,0.0,0.0,-3.256124496459961,0.3505191206932068,0.7639158964157104,0.44621139764785767,0.5886985659599304,0.07384022325277328,-0.07368140667676926,-0.8015937805175781,3.063800096511841,-1.897418737411499,-0.7196571826934814,-6.630542278289795,3.268428087234497,-1.5778700113296509,0.34841305017471313,0.7712612152099609,0.4466029107570648,3.1719822883605957,-1.879949927330017,-0.7554067373275757,0.44229453802108765,0.6970077157020569,0.42000001668930054,-0.29557421803474426,0.8173441886901855,-1.0622113943099976,-3.0000016689300537,-0.23257820308208466,-0.2324972003698349,-0.22403915226459503,-0.19265411794185638,0.3627850413322449,0.3806092441082001,0.11701158434152603,-0.016185341402888298
0.5333333333333333,0.011120283976197243,0.016972051933407784,0.0,0.6448521018028259,0.0,0.0,-0.7643073797225952,0.503945529460907,-0.08805178850889206,0.0,0.0,0.0,0.532063901424408,0.3959261178970337,0.7338038086891174,0.43128296732902527,0.5449227690696716,0.04357360675930977,-0.060479700565338135,-0.8351662755012512,2.2293152809143066,-1.9172945022583008,-0.9367789626121521,3.387350082397461,4.85945987701416,-1.7293281555175781,0.39313027262687683,0.7398162484169006,0.4320206344127655,2.3086748123168945,-1.8273606300354004,-0.9941422343254089,0.44229453802108765,0.6970077157020569,0.42000001668930054,-0.27925461530685425,1.0442777872085571,-1.1122335195541382,-2.999910593032837,-0.2291957139968872,-0.22828450798988342,-0.22324968874454498,-0.1944049894809723,0.30012229084968567,0.320496141910553,0.11679572612047195,-0.09177964925765991
0.55,0.020793261006474495,0.018223389983177185,0.0,0.6319046020507812,0.0,0.0,-0.775046169757843,0.6199064254760742,0.13410350680351257,0.0,0.0,0.0,-2.960312843322754,0.4234423339366913,0.713711678981781,0.42227137088775635,0.5401726365089417,0.016554566100239754,-0.029032984748482704,-0.8408902883529663,0.9279541969299316,-1.077365756034851,-0.3444608151912689,-11.364639282226562,-6.396854877471924,18.15741539001465,0.4206024408340454,0.7190481424331665,0.4231967329978943,1.2327394485473633,-0.9051566123962402,-0.1991581916809082,0.44229453802108765,0.6970077157020569,0.42000001668930054,-0.2622338533401489,0.9335154891014099,-1.1623804569244385,-2.9951577186584473,-0.22261947393417358,-0.22223283350467682,-0.22075155377388,-0.196183979511261,0.45412322878837585,0.40257614850997925,0.1997084617614746,-0.0860067680478096
0.5666666666666667,0.027218766510486603,0.014693796634674072,0.0,0.6312310099601746,0.0,0.0,-0.7755948901176453,0.3523349463939667,-0.21936319768428802,0.0,0.0,0.0,0.768018364906311,0.4366873502731323,0.7029194235801697,0.4222710430622101,0.5428099632263184,-0.0061040413565933704,0.002984980121254921,-0.8398280739784241,0.35394996404647827,-1.0032511949539185,0.12194832414388657,-5.12148904800415,2.103595018386841,10.85986614227295,0.43325287103652954,0.7075241804122925,0.42383643984794617,0.40538108348846436,-0.6838557720184326,0.115864597260952,0.44229453802108765,0.6970077157020569,0.42000001668930054,-0.25147005915641785,0.3978896141052246,-1.212343692779541,-3.00028920173645,-0.21113915741443634,-0.211903914809227,-0.2136392891407013,-0.19422708451747894,0.48086050152778625,0.46920302510261536,0.3519653081893921,0.08253533393144608
0.5833333333333334,0.035829655826091766,0.016264643520116806,0.0,0.6188057661056519,0.0,0.0,-0.7855439782142639,0.49282488226890564,0.08207277208566666,0.0,0.0,0.0,-2.7387609481811523,0.44075503945350647,0.6960161924362183,0.4209812879562378,0.5645540952682495,0.004419866017997265,0.0009755485807545483,-0.8253835439682007,0.09627096354961395,-0.27504223585128784,-0.07442325353622437,-1.1980934143066406,-5.564382076263428,7.209597110748291,0.4366382956504822,0.6997981071472168,0.42274153232574463,0.10267097502946854,-0.1608288735151291,-0.08005601167678833,0.44229453802108765,0.6970077157020569,0.42000001668930054,-0.24350659549236298,0.569025456905365,-1.174376368522644,2.998166561126709,-0.2050560712814331,-0.20609088242053986,-0.2094469666481018,-0.19449645280838013,0.5481835603713989,0.47740480303764343,0.3525209128856659,0.05099637806415558
0.6,0.04182891920208931,0.013257322832942009,0.0,0.6192286610603333,0.0,0.0,-0.7852107286453247,0.2629251480102539,-0.18722514808177948,0.0,0.0,0.0,0.8943017721176147,0.44183313846588135,0.6927793025970459,0.42000144720077515,0.5898993611335754,1.4055339306651149e-05,2.1832406673638616e-06,-0.8074766397476196,-0.00012613738363143057,-0.16749690473079681,-0.0004719104908872396,-0.009372223168611526,0.025703463703393936,-1.0373238325119019,0.4366900324821472,0.6972452402114868,0.42381832003593445,-0.1657242625951767,-0.1690150648355484,0.1432918906211853,0.44229453802108765,0.6970077157020569,0.42000001668930054,-0.2773316204547882,-3.000000476837158,-1.1959123611450195,-2.9996166229248047,-0.19564880430698395,-0.19747091829776764,-0.20225027203559875,-0.19185756146907806,0.37588316202163696,0.37790238857269287,0.35372641682624817,0.13120833039283752
0.6166666666666667,0.04846493899822235,0.014882136136293411,0.0,0.6122742295265198,0.0,0.0,-0.7906454801559448,0.41168421506881714,0.10948366671800613,0.0,0.0,0.0,-2.1057472229003906,0.44110336899757385,0.6914262771606445,0.4200000762939453,0.5951374173164368,-1.012402935884893e-05,-2.902256028392003e-06,-0.8036239147186279,-0.03713396191596985,-0.05459626019001007,-0.00021419623226393014,0.007503948640078306,-0.00503828190267086,2.095275402069092,0.43588459491729736,0.6982624530792236,0.4263734817504883,0.08875644207000732,0.24804818630218506,0.1616596281528473,0.44229453802108765,0.6970077157020569,0.42000001668930054,-0.30909013748168945,-0.9371398091316223,-1.245861291885376,-2.9983882904052734,-0.1908463090658188,-0.1927335560321808,-0.1977093517780304,-0.1907285749912262,0.4590521454811096,0.40570616722106934,0.36211931705474854,0.13634583353996277
0.6333333333333333,0.05654510483145714,0.012225551530718803,0.0,0.6170722842216492,0.0,0.0,-0.7869064807891846,0.493918776512146,-0.18608149886131287,0.0,0.0,0.0,1.6286860704421997,0.44091981649398804,0.6912195086479187,0.4200000464916229,0.5978677868843079,8.902958370526903e-07,9.02303963812301e-06,-0.8015947341918945,0.001793893170543015,0.0014589803759008646,-0.00011731742415577173,0.006233368534594774,-0.00308617134578526,-0.08829878270626068,0.4352955222129822,0.7022036910057068,0.42920005321502686,-0.21443399786949158,0.22469815611839294,0.18574108183383942,0.44229453802108765,0.6970077157020569,0.42000001668930054,-0.353400319814682,-2.999999523162842,-1.2958605289459229,-2.9999802112579346,-0.18163976073265076,-0.18449272215366364,-0.19015175104141235,-0.18680518865585327,0.4643007516860962,0.4323820173740387,0.4205668270587921,0.23468118906021118
0.65,0.06718737632036209,0.012879304587841034,0.0,0.633122444152832,0.0,0.0,-0.7740516662597656,0.6597186326980591,0.06525922566652298,0.0,0.0,0.0,2.8671820163726807,0.4397686719894409,0.6918035745620728,0.42003998160362244,0.5936434268951416,0.0005953920190222561,-0.0008109221234917641,-0.8047274947166443,-0.07579909265041351,0.05297139659523964,0.009572307579219341,-0.13692083954811096,-0.4615693986415863,-1.6197466850280762,0.43388575315475464,0.704848051071167,0.43290188908576965,-0.08939837664365768,0.18067023158073425,0.2657652795314789,0.44229453802108765,0.6970077157020569,0.42000001668930054,-0.40339022874832153,-2.998091697692871,-1.345841884613037,-2.9999990463256836,-0.17580504715442657,-0.17886275053024292,-0.1841796636581421,-0.18310444056987762,0.4235353171825409,0.40100839734077454,0.421805739402771,0.303560733795166
0.6666666666666666,0.07924411445856094,0.010826299898326397,0.0,0.6333136558532715,0.0,0.0,-0.7738952040672302,0.7512465715408325,-0.16883574426174164,0.0,0.0,0.0,-0.981651246547699,0.43922385573387146,0.6921783089637756,0.4200000464916229,0.5899457931518555,3.1236768904818746e-07,-4.473819359418485e-08,-0.8074427247047424,-0.014623194001615047,0.009481638669967651,-1.0615680366754532e-05,-0.0005088469479233027,0.00022928787802811712,-0.18218562006950378,0.43364858627319336,0.7077860236167908,0.43766140937805176,0.019676299765706062,0.08745725452899933,0.308364599943161,0.44229453802108765,0.6970077157020569,0.42000001668930054,-0.4534026086330414,-2.9999892711639404,-1.3958569765090942,-3.000000238418579,-0.16933585703372955,-0.17240023612976074,-0.1768968105316162,-0.1770462691783905,0.2945210933685303,0.3281760811805725,0.4136333763599396,0.38885605335235596
0.6833333333333333,0.09291421622037888,0.005469857715070248,0.0,0.6108647584915161,0.0,0.0,-0.7917349338531494,0.8546354174613953,-0.3884499669075012,0.0,0.0,0.0,-4.358598232269287,0.4392237365245819,0.6921786069869995,0.41999998688697815,0.5899457931518555,-2.1477155769389356e-06,-3.871248736686539e-06,-0.8074427843093872,3.7694902857765555e-05,-0.0003069750964641571,-7.973192259669304e-05,0.0075316461734473705,-0.0025180913507938385,-0.0005342445801943541,0.4384859502315521,0.7094967365264893,0.4502893090248108,0.5862865447998047,0.09940436482429504,1.31294584274292,0.44229453802108765,0.6970077157020569,0.42000001668930054,-0.5034147500991821,-2.99995493888855,-1.4458751678466797,-2.99999737739563,-0.16717641055583954,-0.1693497747182846,-0.17209488153457642,-0.1721150428056717,0.042711291462183,0.10664965212345123,0.2209683209657669,0.24990113079547882
0.7,0.10957865417003632,0.00415809266269207,0.0,0.601447343826294,0.0,0.0,-0.7989124059677124,0.994046151638031,-0.07390733063220978,0.0,0.0,0.0,-0.4160641133785248,0.4392237365245819,0.6921786665916443,0.41999998688697815,0.5899462103843689,-2.6952559437631862e-06,-4.289289790904149e-06,-0.8074424266815186,3.546764492057264e-05,-0.00035702253808267415,-9.920075535774231e-05,0.008619694970548153,-0.002998174401000142,-0.000608420989010483,0.45032376050949097,0.713814377784729,0.4792500138282776,0.8965976238250732,0.47545337677001953,2.1030731201171875,0.44229453802108765,0.6970077157020569,0.42000001668930054,-0.5534209609031677,-2.9999964237213135,-1.4958934783935547,-2.999999761581421,-0.17000538110733032,-0.17095282673835754,-0.17168113589286804,-0.17091690003871918,-0.020734842866659164,-0.008954530581831932,0.05332091823220253,0.059975042939186096
0.7166666666666667,0.12257912755012512,0.004650953225791454,0.0,0.6168019771575928,0.0,0.0,-0.7871183156967163,0.7017050981521606,0.07335249334573746,0.0,0.0,0.0,3.194037675857544,0.4392237067222595,0.6921786665916443,0.41999998688697815,0.5899460911750793,-2.677992597455159e-06,-4.336745405453257e-06,-0.8074426054954529,3.4587126719998196e-05,-0.0003568531828932464,-9.943172335624695e-05,0.008613389916718006,-0.0030048706103116274,-0.0006064687622711062,0.4680140018463135,0.7206244468688965,0.5078116655349731,1.1044684648513794,0.3579850494861603,1.4111202955245972,0.44229453802108765,0.6970077157020569,0.42000001668930054,-0.5767322182655334,-0.03717593848705292,-1.5459117889404297,-3.000000238418579,-0.16916492581367493,-0.16989728808403015,-0.16964100301265717,-0.1686566174030304,0.10307157039642334,0.12174421548843384,0.1802506148815155,0.19976793229579926
0.7333333333333333,0.13085171580314636,0.0009920188458636403,0.0,0.619028627872467,0.0,0.0,-0.7853683829307556,0.45181387662887573,-0.26536476612091064,0.0,0.0,0.0,-0.7142511606216431,0.4392237067222595,0.6921786665916443,0.41999998688697815,0.5899461507797241,-2.849340717148152e-06,-4.477549282455584e-06,-0.8074425458908081,3.4104090445907786e-05,-0.00035657983971759677,-9.95283480733633e-05,0.008604646660387516,-0.0030051132198423147,-0.000605012581218034,0.482194185256958,0.7244607210159302,0.5246056318283081,0.5903507471084595,0.024242166429758072,0.7743719220161438,0.44229453802108765,0.6970077157020569,0.42000001668930054,-0.6076604127883911,-3.0,-1.5070531368255615,2.9999988079071045,-0.16531811654567719,-0.1658128798007965,-0.1648007035255432,-0.1636296957731247,0.12770704925060272,0.17630691826343536,0.24525326490402222,0.2805727422237396
0.75,0.1414627879858017,0.0024546466302126646,0.0,0.6326982975006104,0.0,0.0,-0.7743983864784241,0.5822961330413818,0.12548622488975525,0.0,0.0,0.0,2.909848213195801,0.4392237067222595,0.6921786665916443,0.41999998688697815,0.5899460315704346,-2.8485651455412153e-06,-4.4573926061275415e-06,-0.8074427247047424,3.398079570615664e-05,-0.00035644060699269176,-9.953347034752369e-05,0.008600516244769096,-0.003004292957484722,-0.0006045374320819974,0.4910346269607544,0.724292516708374,0.5371134281158447,0.519534170627594,0.1497863233089447,0.7456257343292236,0.44229453802108765,0.6970077157020569,0.42000001668930054,-0.6263319253921509,0.4715586304664612,-1.5230588912963867,-3.0,-0.167623832821846,-0.1666264683008194,-0.16394288837909698,-0.1616424173116684,0.017143191769719124,0.06021054834127426,0.1132722720503807,0.14429223537445068
0.7666666666666666,0.14768797159194946,0.00020464512635953724,0.0,0.6331840753555298,0.0,0.0,-0.7740012407302856,0.30047860741615295,-0.17236194014549255,0.0,0.0,0.0,-0.9257224202156067,0.4392237067222595,0.6921786665916443,0.41999998688697815,0.5899459719657898,-2.822300302796066e-06,-4.456032002053689e-06,-0.8074426651000977,3.3925236493814737e-05,-0.0003565246588550508,-9.9570257589221e-05,0.008602742105722427,-0.0030059136915951967,-0.0006045580375939608,0.4975471794605255,0.7248804569244385,0.5443031787872314,0.2373698353767395,-0.1473780870437622,0.2767332196235657,0.44229453802108765,0.6970077157020569,0.42000001668930054,-0.6524085402488708,-3.0000016689300537,-1.484269618988037,3.000000238418579,-0.1662684679031372,-0.16456954181194305,-0.16107666492462158,-0.158234104514122,-0.02182341180741787,0.04795151203870773,0.11866806447505951,0.1754634976387024
0.7833333333333333,0.15488281846046448,0.0015311691677197814,0.0,0.64433354139328,0.0,0.0,-0.7647445797920227,0.4535878002643585,0.08881372958421707,0.0,0.0,0.0,2.510056495666504,0.4392237067222595,0.6921786665916443,0.41999998688697815,0.5899458527565002,-2.741900061664637e-06,-4.422232450451702e-06,-0.8074427247047424,3.4652548492886126e-05,-0.00035666965413838625,-9.92482528090477e-05,0.008611942641437054,-0.0029991024639457464,-0.0006058603175915778,0.5026089549064636,0.7223532795906067,0.5500023365020752,0.420688271522522,-0.05914808064699173,0.4338781237602234,0.44229453802108765,0.6970077157020569,0.42000001668930054,-0.6693337559700012,0.6650619506835938,-1.500738263130188,-2.999999761581421,-0.1683473140001297,-0.1653749942779541,-0.16058973968029022,-0.156568244099617,-6.85249688103795e-08,0.040726516395807266,0.08563415706157684,0.13389724493026733
0.8,0.15895241498947144,-0.0014144763117656112,0.0,0.6436018943786621,0.0,0.0,-0.765360414981842,0.16000549495220184,-0.21702085435390472,0.0,0.0,0.0,-1.1443222761154175,0.4392237067222595,0.6921786665916443,0.41999998688697815,0.5899460315704346,-2.826336640282534e-06,-4.4055200305592734e-06,-0.8074426651000977,3.380009366082959e-05,-0.000356389646185562,-9.958096779882908e-05,0.008598645217716694,-0.0030048061162233353,-0.0006040592561475933,0.5081276893615723,0.7215496301651001,0.5551135540008545,0.20096468925476074,-0.12568967044353485,0.31006094813346863,0.44229453802108765,0.6970077157020569,0.42000001668930054,-0.6842042803764343,-2.1888909339904785,-1.462015986442566,3.000000238418579,-0.16646645963191986,-0.16315507888793945,-0.1579892784357071,-0.1534617841243744,0.026677509769797325,0.06317844986915588,0.09789726883172989,0.14002767205238342
0.8166666666666667,0.164171040058136,3.431332152104005e-05,0.0,0.6535775661468506,0.0,0.0,-0.756859540939331,0.3419412076473236,0.07827621698379517,0.0,0.0,0.0,2.272679090499878,0.4392237067222595,0.6921786665916443,0.41999998688697815,0.5899461507797241,-2.6967140911438037e-06,-4.2736005525512155e-06,-0.8074426054954529,3.4335196687607095e-05,-0.00035657238913699985,-9.94410365819931e-05,0.00860515795648098,-0.003002297831699252,-0.0006054327241145074,0.5119755864143372,0.718869686126709,0.5621764063835144,0.3546890616416931,-0.04958043619990349,0.545907735824585,0.44229453802108765,0.6970077157020569,0.42000001668930054,-0.6886467933654785,1.3521993160247803,-1.478943109512329,-3.000000476837158,-0.1689552515745163,-0.1646384596824646,-0.15853041410446167,-0.15289145708084106,0.011714986525475979,0.02742067351937294,0.04390498250722885,0.08000475913286209
0.8333333333333334,0.16662774980068207,-0.0031532575376331806,0.0,0.6523439884185791,0.0,0.0,-0.7579230070114136,0.08925607800483704,-0.22670230269432068,0.0,0.0,0.0,-1.2336512804031372,0.4392237067222595,0.6921786665916443,0.41999998688697815,0.5899459719657898,-2.850722694347496e-06,-4.450318556337152e-06,-0.8074426651000977,3.399295746930875e-05,-0.0003564856306184083,-9.954278357326984e-05,0.008601609617471695,-0.0030046775937080383,-0.0006046339403837919,0.51619952917099,0.7191376686096191,0.5700242519378662,0.1021009087562561,-0.00980905257165432,0.5130234360694885,0.44229453802108765,0.6970077157020569,0.42000001668930054,-0.6911290884017944,-1.4083865880966187,-1.4402834177017212,2.9999992847442627,-0.16660258173942566,-0.16245441138744354,-0.15651479363441467,-0.15069657564163208,0.045577023178339005,0.05085466429591179,0.05248552933335304,0.07196488231420517
0.85,0.17056243121623993,-0.002047073794528842,0.0,0.6615405082702637,0.0,0.0,-0.7499094009399414,0.2705807685852051,0.06676121801137924,0.0,0.0,0.0,2.153566360473633,0.4392237067222595,0.6921786665916443,0.41999998688697815,0.5899458527565002,-2.7396893074183026e-06,-4.416275260155089e-06,-0.8074427247047424,3.4654374758247286e-05,-0.00035667468910105526,-9.924592450261116e-05,0.00861207116395235,-0.0029992451891303062,-0.000605879642535001,0.5177990794181824,0.7180550694465637,0.5790601968765259,0.18906231224536896,0.026936538517475128,0.594760537147522,0.44229453802108765,0.6970077157020569,0.42000001668930054,-0.6844537854194641,1.9153904914855957,-1.457626223564148,-3.0,-0.16843555867671967,-0.1638122946023941,-0.15747609734535217,-0.15098877251148224,0.038832198828458786,0.02880645915865898,0.018745804205536842,0.03016459010541439
0.8666666666666667,0.1720815747976303,-0.005288878455758095,0.0,0.6585471630096436,0.0,0.0,-0.7525394558906555,0.03684035316109657,-0.21298709511756897,0.0,0.0,0.0,-1.3508812189102173,0.4392237067222595,0.6921786665916443,0.41999998688697815,0.5899460315704346,-2.8158699478808558e-06,-4.5875776777393185e-06,-0.8074426651000977,3.371440834598616e-05,-0.00035636438406072557,-9.960541501641273e-05,0.008597645908594131,-0.003005347913131118,-0.0006038540159352124,0.5184140205383301,0.7202297449111938,0.5870217084884644,-0.1702215075492859,0.12001137435436249,0.48853015899658203,0.44229453802108765,0.6970077157020569,0.42000001668930054,-0.6765181422233582,-0.7391987442970276,-1.4190263748168945,3.0000007152557373,-0.16567640006542206,-0.1616552323102951,-0.15593446791172028,-0.14971612393856049,0.06309085339307785,0.04520029574632645,0.02245633490383625,0.01543587539345026
0.8833333333333333,0.1740420013666153,-0.004405831452459097,0.0,0.6666529774665833,0.0,0.0,-0.745368242263794,0.16622014343738556,0.0695425346493721,0.0,0.0,0.0,1.9716041088104248,0.4392237365245819,0.6921786665916443,0.41999998688697815,0.5899460911750793,-2.5985291358665563e-06,-4.228216766932746e-06,-0.8074425458908081,3.715255661518313e-05,-0.00035752481198869646,-9.856140241026878e-05,0.00864356942474842,-0.002985005034133792,-0.0006122077465988696,0.5155506134033203,0.7210582494735718,0.594955563545227,-0.09199441969394684,0.13772112131118774,0.4918636977672577,0.44229453802108765,0.6970077157020569,0.42000001668930054,-0.6610839366912842,2.313002586364746,-1.4367709159851074,-3.000000476837158,-0.1666966676712036,-0.16265836358070374,-0.15701442956924438,-0.15065062046051025,0.05844669044017792,0.026763711124658585,-0.006424244958907366,-0.023042811080813408
