vladlanda/robotic-transformer/data/env_000_episode_0212.csv
sim_time_s,robot_box_x,robot_box_y,robot_box_z,robot_box_quat_w,robot_box_quat_x,robot_box_quat_y,robot_box_quat_z,robot_box_linvel_x,robot_box_linvel_y,robot_box_linvel_z,robot_box_angvel_x,robot_box_angvel_y,robot_box_angvel_z,cube_world_x,cube_world_y,cube_world_z,cube_quat_w,cube_quat_x,cube_quat_y,cube_quat_z,cube_linvel_x,cube_linvel_y,cube_linvel_z,cube_angvel_x,cube_angvel_y,cube_angvel_z,endpoint_world_x,endpoint_world_y,endpoint_world_z,endpoint_linvel_x,endpoint_linvel_y,endpoint_linvel_z,target_cube_world_x,target_cube_world_y,target_cube_world_z,gripper_actual_pos_rad_gp_leftgearjoint,gripper_actual_vel_rad_s_gp_leftgearjoint,gripper_actual_pos_rad_gp_rotatingjoint,gripper_actual_vel_rad_s_gp_rotatingjoint,motor_angle_rad_joint1,motor_angle_rad_joint2,motor_angle_rad_joint3,motor_angle_rad_joint4,motor_speed_rad_s_joint1,motor_speed_rad_s_joint2,motor_speed_rad_s_joint3,motor_speed_rad_s_joint4
0.0,0.0,0.0,0.0,1.0,0.0,0.0,0.0,0.0,0.0,0.0,0.0,0.0,0.0,-0.34400415420532227,0.622180163860321,0.41999998688697815,1.0,0.0,0.0,0.0,0.0,0.0,0.0,0.0,0.0,0.0,3.42540442943573e-06,-0.005000244826078415,1.313499927520752,0.0,0.0,0.0,0.3922043740749359,0.7676441073417664,0.42000001668930054,-1.5707999467849731,0.0,0.0,0.0,0.0,0.0,0.0,0.0,0.0,0.0,0.0,0.0
0.016666666666666666,0.0029016020707786083,0.0021445658057928085,0.0,0.9998597502708435,0.0,0.0,0.016748400405049324,0.2413371056318283,0.18142515420913696,0.0,0.0,0.0,3.14196515083313,-0.3440042734146118,0.6221798658370972,0.41999998688697815,1.0,3.2799905511637917e-06,-8.339794135281409e-07,8.465515577427141e-08,-1.9833774786093272e-05,0.00017983047291636467,-6.132945418357849e-05,0.0009432245860807598,-0.004689525347203016,-0.00031981084612198174,-0.007098453119397163,0.0034503082279115915,1.3159445524215698,-0.8123345375061035,0.9891015291213989,0.18093740940093994,0.3922043740749359,0.7676441073417664,0.42000001668930054,-1.5301096439361572,3.0000038146972656,-0.04585358873009682,-3.0000011920928955,0.0008758674957789481,0.0008022033143788576,0.0007164636626839638,0.0006168941035866737,0.11082040518522263,0.09746652841567993,0.08324988931417465,0.06812863796949387
0.03333333333333333,0.00898726936429739,0.00675079133361578,0.0,0.9998493194580078,0.0,0.0,0.01735994964838028,0.407174676656723,0.3144124150276184,0.0,0.0,0.0,-0.8684414625167847,-0.34400439262390137,0.6221798062324524,0.4200000464916229,1.0,3.3908531804627273e-06,-2.132488134520827e-06,-3.710428941872124e-08,0.0002635785494931042,0.0002693783608265221,-0.00010509602725505829,-0.0017707846127450466,0.004130862653255463,-0.00013547409616876394,-0.02742188423871994,0.026170849800109863,1.3166335821151733,-1.583142638206482,1.6218726634979248,-0.08124499768018723,0.3922043740749359,0.7676441073417664,0.42000001668930054,-1.4800903797149658,3.000000238418579,-0.09589342772960663,-3.000000476837158,0.0029894663020968437,0.002651945687830448,0.0022766778711229563,0.0018608691170811653,0.16375502943992615,0.1393435150384903,0.11343550682067871,0.08592886477708817
0.05,0.018491219729185104,0.013839497230947018,0.0,0.999953031539917,0.0,0.0,-0.009690243750810623,0.6355680823326111,0.4712839722633362,0.0,0.0,0.0,-4.074483394622803,-0.34400442242622375,0.6221798658370972,0.4200000464916229,1.0,3.7651284401363228e-06,-2.2118861124909017e-06,5.622759147172474e-09,0.00026530996547080576,0.00026691515813581645,-0.00010440382175147533,-0.00172425655182451,0.004177390597760677,-0.00012948956282343715,-0.05697447061538696,0.056688785552978516,1.3122121095657349,-1.9496455192565918,1.9740543365478516,-0.4286755323410034,0.3922043740749359,0.7676441073417664,0.42000001668930054,-1.4300720691680908,2.999999761581421,-0.14591218531131744,-3.000000238418579,0.005998394917696714,0.00516071543097496,0.004250661004334688,0.0032641799189150333,0.20618127286434174,0.16595935821533203,0.12381043285131454,0.0796450674533844
0.06666666666666667,0.030788157135248184,0.023313146084547043,0.0,0.9998348355293274,0.0,0.0,-0.01817466877400875,0.7716830968856812,0.6152957081794739,0.0,0.0,0.0,-0.03796378895640373,-0.34400442242622375,0.6221798062324524,0.4200000464916229,0.9999999403953552,3.406779342185473e-06,-2.285526988998754e-06,4.300881926155853e-07,0.00026702668401412666,0.00026791810523718596,-0.00010437914170324802,-0.0017406379338353872,0.004211799707263708,-0.00012850595521740615,-0.0947633683681488,0.08838692307472229,1.3017652034759521,-2.4233436584472656,2.001314878463745,-0.8129298686981201,0.3922043740749359,0.7676441073417664,0.42000001668930054,-1.38004469871521,3.0,-0.1291903406381607,3.0,0.008759318850934505,0.0072300005704164505,0.005588104482740164,0.003828710177913308,0.1559855192899704,0.10733277350664139,0.05654671788215637,0.003539628116413951
0.08333333333333333,0.045550715178251266,0.030576644465327263,0.0,0.9991647005081177,0.0,0.0,-0.040864247828722,0.9497544169425964,0.3765347898006439,0.0,0.0,0.0,-3.5369386672973633,-0.34400442242622375,0.6221798062324524,0.4200000464916229,0.9999999403953552,3.6260987599234795e-06,-2.3352677089860663e-06,3.032194797469856e-07,0.00026614003581926227,0.0002668494707904756,-0.00010405294597148895,-0.001728319562971592,0.004196429159492254,-0.00012790538312401623,-0.13024207949638367,0.1263902485370636,1.2875736951828003,-1.8815245628356934,2.524885892868042,-0.8719800710678101,0.3922043740749359,0.7676441073417664,0.42000001668930054,-1.330036997795105,3.000002145767212,-0.1611173301935196,-3.0000007152557373,0.009922735393047333,0.007284102961421013,0.004490334074944258,0.0015350349713116884,0.018103279173374176,-0.0666450634598732,-0.1536942422389984,-0.24294504523277283
0.1,0.054420020431280136,0.040212761610746384,0.0,0.9956440925598145,0.0,0.0,-0.09323549270629883,0.3923279047012329,0.6617996692657471,0.0,0.0,0.0,-7.290469169616699,-0.34400442242622375,0.6221798062324524,0.4200000464916229,1.0,3.422146846787655e-06,-2.30855562222132e-06,1.7962889842237928e-07,0.0002668158267624676,0.00026800387422554195,-0.00010440708138048649,-0.001743036205880344,0.00420708442106843,-0.00012890443031210452,-0.16403216123580933,0.171530082821846,1.2669532299041748,-2.1121253967285156,2.8775529861450195,-1.5093047618865967,0.3922043740749359,0.7676441073417664,0.42000001668930054,-1.28001868724823,2.999995231628418,-0.12753352522850037,2.9999985694885254,0.003766442183405161,0.0003708478470798582,-0.0032328912056982517,-0.007054135203361511,-0.483898401260376,-0.5189533233642578,-0.5565366744995117,-0.5969223380088806
0.11666666666666667,0.06522613018751144,0.052541911602020264,0.0,0.9919748306274414,0.0,0.0,-0.12643545866012573,0.842411458492279,0.6871864199638367,0.0,0.0,0.0,-2.837733268737793,-0.34400442242622375,0.6221798658370972,0.4200000464916229,1.0,3.711535555339651e-06,-2.332714984731865e-06,2.574262509824621e-07,0.0002648575755301863,0.0002663539780769497,-0.00010423525236546993,-0.0017182475421577692,0.004170094151049852,-0.00012915261322632432,-0.2045259028673172,0.21354931592941284,1.2390003204345703,-2.4195592403411865,2.6543264389038086,-1.8069539070129395,0.3922043740749359,0.7676441073417664,0.42000001668930054,-1.230018973350525,2.9999988079071045,-0.1594311147928238,-2.9999985694885254,-0.002723491983488202,-0.006996567361056805,-0.01149279996752739,-0.016223810613155365,-0.18389876186847687,-0.26800405979156494,-0.35045838356018066,-0.43122774362564087
0.13333333333333333,0.07556495815515518,0.06105630472302437,0.0,0.9851757884025574,0.0,0.0,-0.17154783010482788,0.7009293437004089,0.5018507838249207,0.0,0.0,0.0,-6.0361504554748535,-0.34400442242622375,0.6221798062324524,0.4200000464916229,0.9999999403953552,3.424748229008401e-06,-2.302055008840398e-06,1.559933053840723e-07,0.00026707007782533765,0.00026811257703229785,-0.0001044438686221838,-0.0017433564644306898,0.004212007392197847,-0.00012876644905190915,-0.2420395314693451,0.26240435242652893,1.2053297758102417,-2.0129013061523438,3.3274450302124023,-2.1345555782318115,0.3922043740749359,0.7676441073417664,0.42000001668930054,-1.1799993515014648,3.0000011920928955,-0.1259015053510666,2.9999988079071045,-0.008365974761545658,-0.013978260569274426,-0.01977880857884884,-0.025780437514185905,-0.19717052578926086,-0.3069145977497101,-0.41214197874069214,-0.512727677822113
0.15,0.08499076217412949,0.06670058518648148,0.0,0.9808377623558044,0.0,0.0,-0.1948264092206955,0.5031834244728088,0.2701704800128937,0.0,0.0,0.0,-1.6241233348846436,-0.34400442242622375,0.6221798062324524,0.4200000464916229,1.0,3.7139056985324714e-06,-2.207889565397636e-06,-1.6909206124182674e-07,0.00026353474822826684,0.0002653609844855964,-0.00010421895422041416,-0.00170131993945688,0.004144174512475729,-0.0001296033151447773,-0.27865785360336304,0.315317302942276,1.1635048389434814,-2.081272602081299,3.357841968536377,-2.876413345336914,0.3922043740749359,0.7676441073417664,0.42000001668930054,-1.1300009489059448,3.000000476837158,-0.1578039675951004,-2.9999990463256836,-0.012498741038143635,-0.019643591716885567,-0.02689417637884617,-0.03426387161016464,-0.3029579520225525,-0.3762814998626709,-0.44486886262893677,-0.5088528394699097
0.16666666666666666,0.09073594212532043,0.06915808469057083,0.0,0.9737951159477234,0.0,0.0,-0.227427139878273,0.2674989700317383,0.08680322021245956,0.0,0.0,0.0,-4.756083011627197,-0.34400442242622375,0.6221798062324524,0.4200000464916229,0.9999999403953552,3.638332827904378e-06,-2.278889496665215e-06,2.700760148854897e-07,0.00026682682801038027,0.00026750026154331863,-0.00010410090908408165,-0.0017399408388882875,0.004210108891129494,-0.00012781588884536177,-0.31139039993286133,0.3748595118522644,1.1071321964263916,-1.7527697086334229,3.7491793632507324,-3.8053464889526367,0.3922043740749359,0.7676441073417664,0.42000001668930054,-1.079993486404419,3.0000009536743164,-0.13417930901050568,3.0,-0.019803069531917572,-0.027775956317782402,-0.035781893879175186,-0.04383951798081398,-0.5475665330886841,-0.5740554332733154,-0.5969869494438171,-0.616763710975647
0.18333333333333332,0.09737642109394073,0.0726998820900917,0.0,0.9585241675376892,0.0,0.0,-0.28501132130622864,0.4532601535320282,0.2647666931152344,0.0,0.0,0.0,-8.005472183227539,-0.34400442242622375,0.6221798062324524,0.4200000464916229,1.0,3.3864146189444e-06,-2.3003433398116613e-06,1.4393724256933638e-07,0.00026674557011574507,0.00026787290698848665,-0.00010437075980007648,-0.0017413449240848422,0.004206009674817324,-0.0001287815102841705,-0.33657824993133545,0.4412418305873871,1.0348446369171143,-1.1102046966552734,4.125771999359131,-4.713454246520996,0.3922043740749359,0.7676441073417664,0.42000001668930054,-1.0299830436706543,3.000000238418579,-0.16607478260993958,-3.000000476837158,-0.03247135877609253,-0.04035533219575882,-0.04824249818921089,-0.056160904467105865,-0.8557955622673035,-0.8326484560966492,-0.808665931224823,-0.7844502925872803
0.2,0.10167323052883148,0.07963977754116058,0.0,0.9473230242729187,0.0,0.0,-0.3202797770500183,0.18498918414115906,0.47399386763572693,0.0,0.0,0.0,-3.263322591781616,-0.34400442242622375,0.6221798658370972,0.4200000464916229,1.0,3.6755166092916625e-06,-2.326601588720223e-06,2.2114075193258032e-07,0.00026484514819458127,0.0002663140476215631,-0.00010421662591397762,-0.0017176842084154487,0.004169825464487076,-0.00012909446377307177,-0.3577652871608734,0.500819742679596,0.9504716396331787,-0.9097743630409241,3.4190804958343506,-5.38877010345459,0.3922043740749359,0.7676441073417664,0.42000001668930054,-0.9799726605415344,3.000000238418579,-0.2161044329404831,-3.000001907348633,-0.04868176579475403,-0.0562114492058754,-0.06358542293310165,-0.07067188620567322,-0.9857808351516724,-0.9846439361572266,-0.9649656414985657,-0.9035504460334778
0.21666666666666667,0.11012941598892212,0.08287860453128815,0.0,0.9309313297271729,0.0,0.0,-0.36519432067871094,0.5356263518333435,0.15236850082874298,0.0,0.0,0.0,-6.471639633178711,-0.34400442242622375,0.6221798062324524,0.4200000464916229,1.0,3.322310249131988e-06,-2.2080130293034017e-06,2.742734466210095e-07,0.0002666299988050014,0.00026749627431854606,-0.0001042631920427084,-0.001735798199661076,0.0042047807946801186,-0.00012833732762373984,-0.3707347512245178,0.5556861162185669,0.8540706038475037,-0.3739297091960907,3.0927109718322754,-6.125036239624023,0.3922043740749359,0.7676441073417664,0.42000001668930054,-0.9299619793891907,3.0,-0.26613643765449524,-3.000000476837158,-0.06340721249580383,-0.07091209292411804,-0.0780731588602066,-0.0843852236866951,-0.9883283972740173,-0.9901691675186157,-0.9916247725486755,-0.9664939641952515
0.23333333333333334,0.11341049522161484,0.09033627063035965,0.0,0.9199919104576111,0.0,0.0,-0.39193740487098694,0.19706733524799347,0.4214246869087219,0.0,0.0,0.0,-2.190866231918335,-0.34400442242622375,0.6221798062324524,0.4200000464916229,1.0,3.656517264971626e-06,-2.373446250203415e-06,-4.076827906374092e-07,0.0002661174803506583,0.00026726184296421707,-0.00010423432104289532,-0.001733548240736127,0.00419463450089097,-0.0001285507169086486,-0.3741821050643921,0.5889343023300171,0.7511882781982422,0.14149756729602814,1.3974835872650146,-6.133829593658447,0.3922043740749359,0.7676441073417664,0.42000001668930054,-0.8799512982368469,2.9999940395355225,-0.31616905331611633,-3.0000030994415283,-0.08053731918334961,-0.08782657235860825,-0.09485860913991928,-0.10109461843967438,-0.72383052110672,-0.7712917327880859,-0.8168732523918152,-0.859171986579895
0.25,0.1151791587471962,0.09242875128984451,0.0,0.9219750165939331,0.0,0.0,-0.3872493505477905,0.017065558582544327,0.12045364826917648,0.0,0.0,0.0,1.3559859991073608,-0.34400442242622375,0.6221798658370972,0.4200000464916229,1.0,3.6305575576989213e-06,-2.2426402210840024e-06,1.1203578509366707e-08,0.000266801449470222,0.00026706093922257423,-0.00010390859097242355,-0.00173426594119519,0.004210660234093666,-0.00012702868843916804,-0.378240168094635,0.6035850048065186,0.6527819633483887,-0.16001981496810913,0.3383026719093323,-5.792482376098633,0.3922043740749359,0.7676441073417664,0.42000001668930054,-0.8299417495727539,2.9999794960021973,-0.3662012219429016,-2.9999985694885254,-0.09274467825889587,-0.10052385181188583,-0.10800696909427643,-0.11469483375549316,-0.9581748843193054,-0.957575798034668,-0.9371761679649353,-0.9220993518829346
0.26666666666666666,0.11318739503622055,0.0922996774315834,0.0,0.9183775186538696,0.0,0.0,-0.3957054018974304,-0.17103169858455658,-0.04975718632340431,0.0,0.0,0.0,-1.9530227184295654,-0.34400439262390137,0.6221798062324524,0.4200000464916229,0.9999999403953552,3.7401903227873845e-06,-2.2363135485647945e-06,4.4995837811256933e-07,0.0002647954097483307,0.0002667296212166548,-0.00010453932918608189,-0.0017188823549076915,0.004166571889072657,-0.00013016258890274912,-0.375282883644104,0.6109859943389893,0.556951105594635,0.4866626262664795,0.28276216983795166,-5.406192302703857,0.3922043740749359,0.7676441073417664,0.42000001668930054,-0.7799329161643982,3.0,-0.41623231768608093,-3.0000038146972656,-0.11000905185937881,-0.11765789985656738,-0.12504836916923523,-0.13166385889053345,-1.0180373191833496,-1.0136092901229858,-1.0102301836013794,-1.0075360536575317
0.2833333333333333,0.10886124521493912,0.08977092802524567,0.0,0.9211562871932983,0.0,0.0,-0.3891928791999817,-0.3047569990158081,-0.19346864521503448,0.0,0.0,0.0,1.6847831010818481,-0.34400442242622375,0.6221798062324524,0.4200000464916229,1.0,3.3917124255822273e-06,-2.2911347059562104e-06,1.2458362164124992e-07,0.00026677135610952973,0.0002678919117897749,-0.00010437588207423687,-0.0017412183806300163,0.004206273704767227,-0.00012878302368335426,-0.3679206967353821,0.6170278787612915,0.4728001356124878,0.5504168272018433,0.2888108491897583,-4.755049705505371,0.3922043740749359,0.7676441073417664,0.42000001668930054,-0.7299246788024902,3.0,-0.4662613868713379,-2.9999992847442627,-0.12725402414798737,-0.1347777545452118,-0.1420765370130539,-0.1486213505268097,-1.0127198696136475,-1.0096443891525269,-1.007291316986084,-1.0054038763046265
0.3,0.10220049321651459,0.08501720428466797,0.0,0.9176214933395386,0.0,0.0,-0.3974553942680359,-0.4463039040565491,-0.3237544000148773,0.0,0.0,0.0,-1.9601783752441406,-0.3440040946006775,0.6221809983253479,0.4200001060962677,1.0,-1.0022670721809845e-05,-6.715973768223193e-07,-9.247953016711108e-07,-0.0007188098970800638,-0.000948144996073097,-0.0002576347324065864,0.00910674873739481,-0.013835424557328224,0.0027280186768621206,-0.3619915246963501,0.6207852363586426,0.42673707008361816,0.10637086629867554,-0.02997872605919838,-0.2544032335281372,0.3922043740749359,0.7676441073417664,0.42000001668930054,-0.6799206733703613,2.9999606609344482,-0.5167011022567749,-3.000112533569336,-0.14204244315624237,-0.14933568239212036,-0.15648913383483887,-0.16206374764442444,-0.6068871021270752,-0.596460223197937,-0.592885434627533,-0.4817878305912018
0.31666666666666665,0.09333273023366928,0.07802210003137589,0.0,0.9205357432365417,0.0,0.0,-0.39065834879875183,-0.571838915348053,-0.4590682089328766,0.0,0.0,0.0,1.799296259880066,-0.34400445222854614,0.6221798062324524,0.4200000464916229,1.0,3.5481220947986003e-06,-2.437029479551711e-06,8.1001942930925e-08,0.00029337601154111326,0.00027122048777528107,-0.00010620523244142532,-0.0016373606631532311,0.004753739107400179,-0.00010225175356026739,-0.3607580065727234,0.6279655694961548,0.42313286662101746,0.2153216153383255,0.594607949256897,-0.19721554219722748,0.3922043740749359,0.7676441073417664,0.42000001668930054,-0.6299147605895996,2.9999663829803467,-0.5667674541473389,-3.0000014305114746,-0.1528678834438324,-0.15922920405864716,-0.16546981036663055,-0.1686307042837143,-0.6409807205200195,-0.5583648681640625,-0.4722622334957123,-0.31166523694992065
0.3333333333333333,0.08633831888437271,0.06850463151931763,0.0,0.9174544215202332,0.0,0.0,-0.3978408873081207,-0.3787936568260193,-0.6020339727401733,0.0,0.0,0.0,-1.7787559032440186,-0.3421493470668793,0.6260215044021606,0.420174241065979,0.9981940388679504,-0.000830087170470506,0.0032686919439584017,-0.059976495802402496,0.10008729994297028,0.22590754926204681,-0.005745545029640198,-0.4205978512763977,-0.6670114994049072,-7.000081539154053,-0.357535719871521,0.6322660446166992,0.42383337020874023,0.3599749505519867,0.20651470124721527,-0.01893991231918335,0.3922043740749359,0.7676441073417664,0.42000001668930054,-0.5799095630645752,2.9999921321868896,-0.6167936325073242,-3.000000238418579,-0.16334906220436096,-0.16770842671394348,-0.1718221753835678,-0.17187638580799103,-0.6813948154449463,-0.5248847007751465,-0.36003226041793823,-0.15290609002113342
0.35,0.0770852267742157,0.0576646625995636,0.0,0.9210008978843689,0.0,0.0,-0.3895604610443115,-0.5470569133758545,-0.7098422646522522,0.0,0.0,0.0,1.9999064207077026,-0.3380802571773529,0.6334007978439331,0.4200189411640167,0.9910854697227478,0.00022905954392626882,0.00018593309505376965,-0.13322713971138,0.43500858545303345,0.7654150128364563,-0.0021326113492250443,0.3492974042892456,-0.441079318523407,-5.994207859039307,-0.34951716661453247,0.6404318809509277,0.42057982087135315,0.5714429020881653,0.7340695858001709,-0.29760777950286865,0.3922043740749359,0.7676441073417664,0.42000001668930054,-0.5299046039581299,2.999995708465576,-0.6668194532394409,-2.9999988079071045,-0.1765609234571457,-0.1776781529188156,-0.1783992052078247,-0.1746116280555725,-0.6237324476242065,-0.4566982090473175,-0.2758355736732483,-0.0754031091928482
0.36666666666666664,0.07168672233819962,0.04400886967778206,0.0,0.918350338935852,0.0,0.0,-0.39576849341392517,-0.257675439119339,-0.8590872287750244,0.0,0.0,0.0,-1.7418984174728394,-0.3311285674571991,0.6455727219581604,0.4200000464916229,0.9840027689933777,2.617703103169333e-07,1.880028321465943e-06,-0.178152933716774,0.393488347530365,0.6943729519844055,-1.7369166016578674e-06,8.311721467180178e-05,-2.775269422272686e-05,-5.142823696136475,-0.3379514217376709,0.6497402787208557,0.4186928868293762,0.8461682796478271,0.5481317043304443,0.002130892127752304,0.3922043740749359,0.7676441073417664,0.42000001668930054,-0.47990044951438904,2.9999754428863525,-0.7168869376182556,-2.999990463256836,-0.18600699305534363,-0.18411287665367126,-0.18150076270103455,-0.17416435480117798,-0.5029832124710083,-0.3144136667251587,-0.10439971834421158,0.11084026843309402
0.3833333333333333,0.06282464414834976,0.03462158516049385,0.0,0.9033429026603699,0.0,0.0,-0.42891910672187805,-0.5532602071762085,-0.4631909728050232,0.0,0.0,0.0,-5.0213751792907715,-0.3188401758670807,0.6625927686691284,0.42043250799179077,0.9778360724449158,-0.0036104191094636917,-0.008211609907448292,-0.20917925238609314,1.1197270154953003,1.396912693977356,0.07613275200128555,-0.9551709294319153,-4.729625701904297,-5.434349060058594,-0.32053476572036743,0.6635316610336304,0.4204624891281128,1.2725787162780762,1.2197197675704956,0.14882129430770874,0.3922043740749359,0.7676441073417664,0.42000001668930054,-0.4298631548881531,2.9668850898742676,-0.7669095396995544,-3.0039615631103516,-0.19560904800891876,-0.1908521205186844,-0.18494050204753876,-0.17426930367946625,-0.3643341362476349,-0.26371443271636963,-0.130243718624115,0.007011938840150833
0.4,0.05896609649062157,0.021309074014425278,0.0,0.8740166425704956,0.0,0.0,-0.48589596152305603,-0.2077351212501526,-0.7756678462028503,0.0,0.0,0.0,-8.348867416381836,-0.28556329011917114,0.690510630607605,0.4247088134288788,0.9651832580566406,-0.005068419501185417,-0.04082771763205528,-0.25831884145736694,3.0755300521850586,2.082115888595581,0.12533827126026154,28.81168556213379,-19.906984329223633,4.958911895751953,-0.28692084550857544,0.692175030708313,0.42414742708206177,2.8412113189697266,2.0624940395355225,0.45805758237838745,0.3922043740749359,0.7676441073417664,0.42000001668930054,-0.3918253779411316,1.2712860107421875,-0.8169333338737488,-3.0000007152557373,-0.1965363770723343,-0.19065053761005402,-0.18307077884674072,-0.1707378774881363,-0.2815532386302948,-0.14875027537345886,0.008909111842513084,0.1530696004629135
0.4166666666666667,0.056804146617650986,0.01361298281699419,0.0,0.8281823992729187,0.0,0.0,-0.5604586601257324,-0.05706740915775299,-0.47693565487861633,0.0,0.0,0.0,-11.176889419555664,-0.2112976312637329,0.7305746078491211,0.4299103021621704,0.9441233277320862,0.053145598620176315,-0.08910784125328064,-0.312836229801178,5.835274696350098,2.3537039756774902,0.3011763095855713,17.301498413085938,-16.176807403564453,21.515850067138672,-0.21238461136817932,0.7325330972671509,0.4294697642326355,5.541522026062012,2.9462199211120605,0.4184606075286865,0.3922043740749359,0.7676441073417664,0.42000001668930054,-0.37500858306884766,0.9330439567565918,-0.7801927924156189,2.9950978755950928,-0.20795214176177979,-0.19831262528896332,-0.18690475821495056,-0.17136913537979126,-0.5002598762512207,-0.3294922113418579,-0.15951499342918396,-0.03166382014751434
0.43333333333333335,0.058080852031707764,0.008052435703575611,0.0,0.7909899353981018,0.0,0.0,-0.6118291616439819,0.1282612532377243,-0.2746768295764923,0.0,0.0,0.0,-6.471191883087158,-0.11918483674526215,0.776311993598938,0.43863043189048767,0.8976306915283203,0.09323593974113464,-0.12090922892093658,-0.4134575128555298,5.745104789733887,2.019404888153076,0.6263235807418823,14.622426986694336,-7.190791130065918,10.29366683959961,-0.12086720019578934,0.7787593007087708,0.43780067563056946,5.614379405975342,2.4452195167541504,0.5752354860305786,0.3922043740749359,0.7676441073417664,0.42000001668930054,-0.35728204250335693,1.1715540885925293,-0.8073291182518005,-3.000004768371582,-0.2158813625574112,-0.20384185016155243,-0.19017793238162994,-0.17319931089878082,-0.42858222126960754,-0.30060964822769165,-0.18644295632839203,-0.1254686713218689
0.45,0.05616047978401184,0.007888184860348701,0.0,0.7743763327598572,0.0,0.0,-0.6327252388000488,-0.08257186412811279,0.007264688611030579,0.0,0.0,0.0,-1.8217201232910156,-0.02538994699716568,0.8073579668998718,0.44875121116638184,0.8261900544166565,0.1131192296743393,-0.14492696523666382,-0.532550573348999,5.610551357269287,0.7900927066802979,0.6234700083732605,-10.510558128356934,-0.15917907655239105,5.982158660888672,-0.02841142565011978,0.810594379901886,0.44703054428100586,5.697292804718018,1.5890326499938965,0.6533573269844055,0.3922043740749359,0.7676441073417664,0.42000001668930054,-0.33701157569885254,1.1219894886016846,-0.857353150844574,-3.0,-0.22627736628055573,-0.21145890653133392,-0.19534429907798767,-0.1769057810306549,-0.475299209356308,-0.3564101457595825,-0.25324979424476624,-0.20359644293785095
0.4666666666666667,0.05876396968960762,0.0016945679672062397,0.0,0.749788224697113,0.0,0.0,-0.661677896976471,0.11474238336086273,-0.3839481770992279,0.0,0.0,0.0,-5.28715705871582,0.06720419228076935,0.8227891325950623,0.45595231652259827,0.7674202919006348,0.10606814920902252,-0.14460912346839905,-0.6155515909194946,5.509498596191406,0.23941254615783691,0.3055497407913208,2.7303388118743896,-19.215402603149414,1.425798773765564,0.06366679817438126,0.8289482593536377,0.45408231019973755,5.363861083984375,0.4575868248939514,0.49078062176704407,0.3922043740749359,0.7676441073417664,0.42000001668930054,-0.3206879496574402,0.8376790881156921,-0.9073783755302429,-3.0000033378601074,-0.22880183160305023,-0.2126845121383667,-0.19539372622966766,-0.17648965120315552,-0.2864060699939728,-0.16308780014514923,-0.0465364083647728,0.027832476422190666
0.48333333333333334,0.0621194913983345,0.00025478278985247016,0.0,0.737636923789978,0.0,0.0,-0.6751975417137146,0.2624046206474304,-0.03739161416888237,0.0,0.0,0.0,-1.0644949674606323,0.15158207714557648,0.8254457712173462,0.462069034576416,0.7195996642112732,0.09341289848089218,-0.1368573009967804,-0.6743295192718506,4.567869663238525,-0.8296474814414978,0.2745729982852936,-14.140057563781738,-11.618188858032227,21.346281051635742,0.14962030947208405,0.8313226699829102,0.4604734182357788,5.068242073059082,-0.12246575206518173,0.4421464800834656,0.3922043740749359,0.7676441073417664,0.42000001668930054,-0.30796486139297485,0.48703911900520325,-0.9574029445648193,-3.0000030994415283,-0.23643922805786133,-0.2179594784975052,-0.19857293367385864,-0.17838822305202484,-0.3538447916507721,-0.25462648272514343,-0.1722993701696396,-0.13579191267490387
0.5,0.06448492407798767,0.0018046501791104674,0.0,0.7190373539924622,0.0,0.0,-0.6949714422225952,0.0993969663977623,0.14570854604244232,0.0,0.0,0.0,-4.092942714691162,0.2254420518875122,0.8193134069442749,0.4627193212509155,0.6754084825515747,0.08763120323419571,-0.13015487790107727,-0.7205579280853271,3.766345739364624,-0.9994547367095947,-0.21754910051822662,-9.059743881225586,-5.156754970550537,11.324131965637207,0.223409503698349,0.8255423903465271,0.4613795280456543,4.041258811950684,-0.6117439866065979,-0.057775355875492096,0.3922043740749359,0.7676441073417664,0.42000001668930054,-0.30021852254867554,0.47258901596069336,-1.0074267387390137,-3.0000016689300537,-0.24000048637390137,-0.22093422710895538,-0.20103493332862854,-0.18090446293354034,-0.02266736701130867,-0.13806270062923431,-0.13136149942874908,-0.15328727662563324
0.5166666666666666,0.0680895671248436,0.004741630516946316,0.0,0.7134237289428711,0.0,0.0,-0.7007328867912292,0.2543824017047882,0.2469482272863388,0.0,0.0,0.0,0.014025002717971802,0.28344711661338806,0.8074736595153809,0.4557929039001465,0.6381956338882446,0.0539192296564579,-0.1306489109992981,-0.7567890882492065,2.794292449951172,-1.0831252336502075,-0.6448237895965576,-9.215510368347168,7.294294357299805,3.4621896743774414,0.2812395989894867,0.8133914470672607,0.45568251609802246,3.0474295616149902,-0.8733294010162354,-0.47734856605529785,0.3922043740749359,0.7676441073417664,0.42000001668930054,-0.2884176969528198,0.8608435392379761,-1.0574488639831543,-3.0000009536743164,-0.23847641050815582,-0.22156451642513275,-0.2021215707063675,-0.18284332752227783,0.14927580952644348,0.013774325139820576,-0.03917229175567627,-0.11208038777112961
0.5333333333333333,0.07383344322443008,0.004325253888964653,0.0,0.6985432505607605,0.0,0.0,-0.7155678272247314,0.3925621509552002,-0.03826112672686577,0.0,0.0,0.0,-3.2791197299957275,0.32866936922073364,0.7956030964851379,0.44016924500465393,0.6055305004119873,0.0021985480561852455,-0.1365487277507782,-0.7840167284011841,2.2728612422943115,-0.9823858141899109,-1.1338880062103271,-5.674858093261719,-5.243027210235596,7.065670013427734,0.326012521982193,0.8013352155685425,0.4416995644569397,2.385890245437622,-0.8000417351722717,-1.000506043434143,0.3922043740749359,0.7676441073417664,0.42000001668930054,-0.27180150151252747,0.9794628620147705,-1.107470989227295,-3.0000014305114746,-0.23249876499176025,-0.2184421569108963,-0.20075325667858124,-0.18344731628894806,0.26173776388168335,0.11895560473203659,0.022372500970959663,-0.08833646774291992
0.55,0.07733623683452606,0.007372911088168621,0.0,0.6965233087539673,0.0,0.0,-0.7175341844558716,0.15005870163440704,0.1854015290737152,0.0,0.0,0.0,0.5852162837982178,0.3601805567741394,0.7820349931716919,0.42612984776496887,0.566057562828064,-0.017465637996792793,-0.11727538704872131,-0.8157942891120911,1.110321283340454,-1.1779084205627441,0.026523597538471222,-2.3523998260498047,4.059851169586182,11.889324188232422,0.35670435428619385,0.7869231700897217,0.4281439781188965,1.2064743041992188,-0.616990327835083,-0.20061074197292328,0.3922043740749359,0.7676441073417664,0.42000001668930054,-0.2525573968887329,1.0888224840164185,-1.1575911045074463,-2.995450019836426,-0.23021945357322693,-0.21805332601070404,-0.2017374187707901,-0.18600624799728394,0.24031305313110352,0.10707859694957733,-0.0003536846488714218,-0.11233139038085938
0.5666666666666667,0.08186709135770798,0.006779841613024473,0.0,0.6852824687957764,0.0,0.0,-0.7282773852348328,0.28814560174942017,-0.08669058978557587,0.0,0.0,0.0,-2.6855084896087646,0.3737407624721527,0.7769123315811157,0.4248104393482208,0.5757443904876709,-0.032661352306604385,-0.08704517781734467,-0.8123267889022827,0.48683831095695496,-0.7189598679542542,0.079131580889225,-2.744691848754883,-1.6256273984909058,15.031105995178223,0.3700776696205139,0.781170129776001,0.4271395802497864,0.4698403477668762,-0.2310968041419983,-0.04054751247167587,0.3922043740749359,0.7676441073417664,0.42000001668930054,-0.23998500406742096,0.3779680132865906,-1.2076131105422974,-3.00000262260437,-0.22351902723312378,-0.21406984329223633,-0.2001364529132843,-0.1867000162601471,0.3994435667991638,0.2480374574661255,0.10638938844203949,-0.02770378254354
0.5833333333333334,0.08402199298143387,0.009749150834977627,0.0,0.6860963106155396,0.0,0.0,-0.7275107502937317,0.06856107711791992,0.17771677672863007,0.0,0.0,0.0,0.9279664754867554,0.3799351453781128,0.76917564868927,0.4232013523578644,0.5900901556015015,-0.06941211223602295,-0.050051309168338776,-0.8027891516685486,0.33473899960517883,-0.4726089537143707,-0.03304529935121536,3.112398386001587,-0.16148005425930023,2.729353189468384,0.37610408663749695,0.7731934785842896,0.4243873059749603,0.3193841874599457,-0.5217981338500977,-0.3818044066429138,0.3922043740749359,0.7676441073417664,0.42000001668930054,-0.25935661792755127,-2.1686108112335205,-1.2576351165771484,-3.0000007152557373,-0.2201194018125534,-0.21232140064239502,-0.20007872581481934,-0.188262939453125,0.30887743830680847,0.19276905059814453,0.06897031515836716,-0.046615343540906906
0.6,0.08722073584794998,0.008588875643908978,0.0,0.6761845350265503,0.0,0.0,-0.7367323040962219,0.21225467324256897,-0.11449477076530457,0.0,0.0,0.0,-2.3625402450561523,0.38224002718925476,0.764326274394989,0.4214380979537964,0.5964896082878113,-0.029010431841015816,-0.022022180259227753,-0.8017939329147339,0.03815243020653725,-0.19690707325935364,-0.11593179404735565,6.387526035308838,-2.090290069580078,2.8263235092163086,0.37773290276527405,0.7723828554153442,0.42545974254608154,0.07480361312627792,0.03202714025974274,0.1513024866580963,0.3922043740749359,0.7676441073417664,0.42000001668930054,-0.2890681028366089,-1.5006382465362549,-1.3075662851333618,-2.998838424682617,-0.2115584760904312,-0.20628400146961212,-0.19668158888816833,-0.18721148371696472,0.5000900030136108,0.36258912086486816,0.21274664998054504,0.08120527118444443
0.6166666666666667,0.09260459989309311,0.010657018050551414,0.0,0.6791139245033264,0.0,0.0,-0.7340328693389893,0.34527266025543213,0.13187143206596375,0.0,0.0,0.0,1.3361698389053345,0.3823170065879822,0.7619715332984924,0.4200000464916229,0.6018496155738831,-1.51344721643909e-07,-9.246342642654781e-07,-0.7986093759536743,-0.01701291650533676,-0.09152910113334656,-2.7124769985675812e-05,0.0019977164920419455,3.704659684444778e-05,-0.5898821949958801,0.3780389726161957,0.7715091705322266,0.42776304483413696,-0.0211024172604084,0.03566847741603851,0.144886314868927,0.3922043740749359,0.7676441073417664,0.42000001668930054,-0.3361351788043976,-2.9982352256774902,-1.357566475868225,-2.999880313873291,-0.20572516322135925,-0.20232288539409637,-0.19490580260753632,-0.18735629320144653,0.4353492259979248,0.3011418581008911,0.14628708362579346,0.009834900498390198
0.6333333333333333,0.09970193356275558,0.008750613778829575,0.0,0.6712785363197327,0.0,0.0,-0.7412051558494568,0.45308631658554077,-0.15571385622024536,0.0,0.0,0.0,-2.1994714736938477,0.38221341371536255,0.7614228129386902,0.4200000464916229,0.6007993817329407,3.335487406275206e-07,-1.919082706081099e-07,-0.7993997931480408,-0.0022604477126151323,-0.011398708447813988,-1.0865158401429653e-05,5.738750769523904e-05,0.0005301801720634103,-0.04238848388195038,0.3784536123275757,0.7735474109649658,0.430814266204834,-0.05585472285747528,0.06827844679355621,0.2394644021987915,0.3922043740749359,0.7676441073417664,0.42000001668930054,-0.38611912727355957,-2.9953784942626953,-1.4075392484664917,-2.999934196472168,-0.19602049887180328,-0.1948908269405365,-0.18998576700687408,-0.18450462818145752,0.5131403803825378,0.4207296073436737,0.31463921070098877,0.23576049506664276
0.65,0.10907234996557236,0.009691140614449978,0.0,0.6733683943748474,0.0,0.0,-0.7393071055412292,0.5770376324653625,0.1210307776927948,0.0,0.0,0.0,1.5639581680297852,0.38221311569213867,0.7614230513572693,0.4200000464916229,0.6007992029190063,5.173745307729405e-07,-3.8076859709690325e-06,-0.7993999123573303,0.0001348376681562513,-0.00014050118625164032,-5.9360405430197716e-05,-0.0002256497973576188,-0.0021388360764831305,-0.0006745099672116339,0.3767321705818176,0.7747582197189331,0.44242358207702637,-0.08235576748847961,0.17506100237369537,1.1372771263122559,0.3922043740749359,0.7676441073417664,0.42000001668930054,-0.4361335039138794,-3.000000238418579,-1.4575573205947876,-3.0,-0.19112646579742432,-0.19088880717754364,-0.1870936155319214,-0.18227529525756836,0.2992395758628845,0.2353925257921219,0.16311395168304443,0.12217235565185547
0.6666666666666666,0.11980243027210236,0.007735464256256819,0.0,0.6662046909332275,0.0,0.0,-0.7457689046859741,0.6766504645347595,-0.16059355437755585,0.0,0.0,0.0,-2.099477529525757,0.38221314549446106,0.7614229917526245,0.4200000464916229,0.6007993817329407,3.611155534599675e-07,-3.284885679022409e-06,-0.7993998527526855,0.00014162276056595147,-0.0002740927448030561,-9.590527042746544e-05,0.006101141218096018,-0.0010323214810341597,-0.0006444197497330606,0.3806397318840027,0.7778890132904053,0.4579055607318878,0.4964582920074463,0.08363652974367142,0.8943244218826294,0.3922043740749359,0.7676441073417664,0.42000001668930054,-0.48614704608917236,-2.99999737739563,-1.5075756311416626,-3.000000238418579,-0.18491555750370026,-0.18553857505321503,-0.18267974257469177,-0.17823654413223267,0.2916065454483032,0.2827819883823395,0.2696676552295685,0.2878536581993103
0.6833333333333333,0.1324477344751358,0.0022936156019568443,0.0,0.6384644508361816,0.0,0.0,-0.7696512937545776,0.797450840473175,-0.4084879755973816,0.0,0.0,0.0,-5.268178939819336,0.38221314549446106,0.7614229917526245,0.4200000464916229,0.6007995009422302,4.62382502064429e-07,-3.181855163347791e-06,-0.7993997931480408,0.00013834879791829735,-0.00027392280753701925,-9.537744335830212e-05,0.0061151678673923016,-0.0010756633710116148,-0.0006373269716277719,0.3917451500892639,0.7791935801506042,0.4799196124076843,0.8745830059051514,0.07466153800487518,1.8486742973327637,0.3922043740749359,0.7676441073417664,0.42000001668930054,-0.5361596941947937,-2.999957323074341,-1.5575939416885376,-2.999998092651367,-0.18257315456867218,-0.18280325829982758,-0.17966976761817932,-0.17452527582645416,0.07508009672164917,0.11448894441127777,0.14457373321056366,0.1957172304391861
0.7,0.142864391207695,0.0010813996195793152,0.0,0.6240831613540649,0.0,0.0,-0.7813578844070435,0.552367091178894,-0.11371073871850967,0.0,0.0,0.0,-1.146256923675537,0.38221314549446106,0.7614230513572693,0.4200000464916229,0.600799560546875,3.2992781484608713e-07,-3.3149485716421623e-06,-0.7993996143341064,0.00013599012163467705,-0.00027518041315488517,-9.478116407990456e-05,0.006158588919788599,-0.001109668635763228,-0.0006332800257951021,0.40525001287460327,0.7814047336578369,0.513763964176178,0.8405674695968628,0.3552159070968628,2.133915424346924,0.3922043740749359,0.7676441073417664,0.42000001668930054,-0.5575472116470337,0.1752064973115921,-1.6076122522354126,-3.000000238418579,-0.18595433235168457,-0.1848977655172348,-0.18083852529525757,-0.17467455565929413,0.026747606694698334,0.026461344212293625,0.005202276166528463,-0.010355046950280666
0.7166666666666667,0.14893172681331635,0.0012881774455308914,0.0,0.6340436339378357,0.0,0.0,-0.7732972502708435,0.3020531237125397,0.06332392990589142,0.0,0.0,0.0,2.364638566970825,0.38221314549446106,0.7614230513572693,0.4200000464916229,0.6007996797561646,3.390869949271291e-07,-3.462703034529113e-06,-0.7993996143341064,0.0001361969334539026,-0.00027537147980183363,-9.479536674916744e-05,0.006163069512695074,-0.0011065987637266517,-0.0006337806698866189,0.4188283085823059,0.7858560085296631,0.5421401262283325,0.6758338212966919,0.18322080373764038,1.3633463382720947,0.3922043740749359,0.7676441073417664,0.42000001668930054,-0.5397437810897827,1.8022371530532837,-1.568574070930481,2.999999523162842,-0.18475627899169922,-0.18365378677845,-0.17990219593048096,-0.17401039600372314,0.11366546154022217,0.12319867312908173,0.10931963473558426,0.09272601455450058
0.7333333333333333,0.1512126624584198,-0.0016465798253193498,0.0,0.631347119808197,0.0,0.0,-0.7755003571510315,0.09737338870763779,-0.29574164748191833,0.0,0.0,0.0,-1.3182953596115112,0.38221314549446106,0.7614229917526245,0.4200000464916229,0.6007994413375854,4.2286197299290507e-07,-3.1880585993349086e-06,-0.799399733543396,0.00013871476403437555,-0.0002742844808381051,-9.54188872128725e-05,0.006123092491179705,-0.0010713695082813501,-0.0006383182480931282,0.42350780963897705,0.7874243259429932,0.5575699210166931,-0.08675114065408707,-0.014364968985319138,0.6538594365119934,0.3922043740749359,0.7676441073417664,0.42000001668930054,-0.5302082896232605,-0.4686427116394043,-1.5185176134109497,3.0000007152557373,-0.18169789016246796,-0.18036572635173798,-0.1768060326576233,-0.17122992873191833,0.21502262353897095,0.23863476514816284,0.2342517226934433,0.21714875102043152
0.75,0.1504216343164444,-0.00011134846863569692,0.0,0.6403723955154419,0.0,0.0,-0.768064558506012,-0.07232841849327087,0.07010026276111603,0.0,0.0,0.0,2.131227493286133,0.38221314549446106,0.7614230513572693,0.4200000464916229,0.600799560546875,3.301037168057519e-07,-3.3229835025849752e-06,-0.7993996739387512,0.0001361352187814191,-0.00027516300906427205,-9.481934830546379e-05,0.006157314404845238,-0.0011079346295446157,-0.0006335921352729201,0.4245397746562958,0.7845085263252258,0.5656936168670654,0.2898327112197876,-0.07551154494285583,0.3439795970916748,0.3922043740749359,0.7676441073417664,0.42000001668930054,-0.5164869427680969,1.8985400199890137,-1.5309721231460571,-3.000000476837158,-0.1836741864681244,-0.18080972135066986,-0.17627456784248352,-0.17009595036506653,0.08727815747261047,0.12199260294437408,0.13060171902179718,0.12312345951795578
0.7666666666666666,0.15208838880062103,-0.001553452922962606,0.0,0.6366603374481201,0.0,0.0,-0.7711443305015564,0.04407072812318802,-0.12270263582468033,0.0,0.0,0.0,-1.2345149517059326,0.38221314549446106,0.7614230513572693,0.4200000464916229,0.6007996201515198,3.165634723245603e-07,-3.473219749139389e-06,-0.7993995547294617,0.00013637093070428818,-0.00027539642178453505,-9.483681060373783e-05,0.006162798032164574,-0.0011046369327232242,-0.0006341844564303756,0.42469626665115356,0.7835071086883545,0.5671886801719666,-0.3127184808254242,-0.08742443472146988,-0.0056830160319805145,0.3922043740749359,0.7676441073417664,0.42000001668930054,-0.510915994644165,-0.9859917759895325,-1.4921600818634033,3.0,-0.18063688278198242,-0.17760856449604034,-0.17330656945705414,-0.16761432588100433,0.10635638236999512,0.12955108284950256,0.12904497981071472,0.11105439811944962
0.7833333333333333,0.15503180027008057,-0.0006592696299776435,0.0,0.6449082493782043,0.0,0.0,-0.7642599940299988,0.21183660626411438,0.0714060515165329,0.0,0.0,0.0,2.0034730434417725,0.38221314549446106,0.7614229917526245,0.4200000464916229,0.6007994413375854,4.403448485845729e-07,-3.2005302728066454e-06,-0.7993997931480408,0.00013885600492358208,-0.0002742652141023427,-9.545707143843174e-05,0.006121841724961996,-0.0010696192039176822,-0.0006386219174601138,0.42384183406829834,0.7808462977409363,0.5657769441604614,0.15821775794029236,-0.16102664172649384,-0.08622972667217255,0.3922043740749359,0.7676441073417664,0.42000001668930054,-0.5323253273963928,-1.520898699760437,-1.5084689855575562,-2.999999761581421,-0.1793917715549469,-0.17601671814918518,-0.17159231007099152,-0.16593974828720093,0.1602546125650406,0.16248606145381927,0.1600138545036316,0.1551203578710556
0.8,0.1596546322107315,-0.002628916874527931,0.0,0.6403703093528748,0.0,0.0,-0.7680663466453552,0.3110109567642212,-0.18015815317630768,0.0,0.0,0.0,-1.6070963144302368,0.38221314549446106,0.7614230513572693,0.4200000464916229,0.6007995009422302,3.475194603197451e-07,-3.3354638162563788e-06,-0.7993996143341064,0.0001360839669359848,-0.0002751130086835474,-9.480700828135014e-05,0.006156429648399353,-0.0011083080898970366,-0.0006334351492114365,0.42771875858306885,0.7766439914703369,0.5601844191551208,0.31497782468795776,-0.3657205402851105,-0.42410513758659363,0.3922043740749359,0.7676441073417664,0.42000001668930054,-0.5743235945701599,-2.999763011932373,-1.518967628479004,1.3704067468643188,-0.17684437334537506,-0.17325755953788757,-0.16863927245140076,-0.16280275583267212,0.12975233793258667,0.15839752554893494,0.18737593293190002,0.21565550565719604
0.8166666666666667,0.16701939702033997,-0.0017446603160351515,0.0,0.614433765411377,0.0,0.0,-0.7889683842658997,0.4817080497741699,0.08333966881036758,0.0,0.0,0.0,-4.840731620788574,0.38221314549446106,0.7614230513572693,0.4200000464916229,0.6007997989654541,3.259972345404094e-07,-3.3046792395907687e-06,-0.7993994951248169,0.00013894382573198527,-0.0002759685448836535,-9.537721052765846e-05,0.006162459496408701,-0.001075586536899209,-0.0006403429433703423,0.43560877442359924,0.7703824043273926,0.5565716028213501,0.6611517667770386,-0.3478771448135376,0.09828652441501617,0.3922043740749359,0.7676441073417664,0.42000001668930054,-0.6237475872039795,-2.8979570865631104,-1.5502606630325317,-2.999999523162842,-0.17644831538200378,-0.17255976796150208,-0.1675514578819275,-0.16127097606658936,0.07886005192995071,0.06967884302139282,0.07044350355863571,0.0788506492972374
0.8333333333333334,0.17645245790481567,0.002067135414108634,0.0,0.6031240224838257,0.0,0.0,-0.7976474165916443,0.603015661239624,0.28699854016304016,0.0,0.0,0.0,-0.7190287709236145,0.38221314549446106,0.7614229917526245,0.4200000464916229,0.6007993221282959,3.106934798324801e-07,-3.297776174804312e-06,-0.7993998527526855,0.00013344977924134582,-0.00027672239230014384,-9.405496530234814e-05,0.006211558356881142,-0.0011439946247264743,-0.0006285225972533226,0.44338059425354004,0.7677178382873535,0.557815670967102,0.26306718587875366,-0.033849626779556274,0.07177343219518661,0.3922043740749359,0.7676441073417664,0.42000001668930054,-0.6404827833175659,0.5998871922492981,-1.6002789735794067,-3.000000476837158,-0.17462675273418427,-0.17132346332073212,-0.1667570322751999,-0.1608159840106964,0.14777356386184692,0.09398747980594635,0.04535011947154999,6.644404493272305e-08
0.85,0.1824273020029068,0.0017581484280526638,0.0,0.6167055368423462,0.0,0.0,-0.7871938943862915,0.3577572703361511,-0.10806450992822647,0.0,0.0,0.0,2.7301485538482666,0.38221314549446106,0.7614229917526245,0.4200000464916229,0.6007994413375854,4.5580924279420287e-07,-3.1876588764134794e-06,-0.7993997931480408,0.00013833833509124815,-0.00027400432736612856,-9.536813013255596e-05,0.006117418874055147,-0.001075953827239573,-0.0006373606156557798,0.44612979888916016,0.7721711993217468,0.5585829615592957,0.05682293325662613,0.33215364813804626,0.02809983119368553,0.3922043740749359,0.7676441073417664,0.42000001668930054,-0.6161805987358093,2.1636407375335693,-1.5612653493881226,2.999999761581421,-0.16685280203819275,-0.16540580987930298,-0.162624329328537,-0.15840467810630798,0.3319496810436249,0.2499309778213501,0.165196031332016,0.076638363301754
0.8666666666666667,0.1855696439743042,0.004425074439495802,0.0,0.6163144111633301,0.0,0.0,-0.7875001430511475,0.11899743974208832,0.19284513592720032,0.0,0.0,0.0,-0.9791191816329956,0.38221314549446106,0.7614230513572693,0.4200000464916229,0.6007995009422302,3.2913419545366196e-07,-3.322092425150913e-06,-0.7993996143341064,0.00013612682232633233,-0.00027515814872458577,-9.48137603700161e-05,0.006157190538942814,-0.0011080020340159535,-0.0006335700745694339,0.44270700216293335,0.7762477397918701,0.5575133562088013,-0.37749603390693665,0.2688853442668915,-0.04212186112999916,0.3922043740749359,0.7676441073417664,0.42000001668930054,-0.6068838834762573,-0.7987530827522278,-1.5112088918685913,3.0000007152557373,-0.1652212291955948,-0.16457194089889526,-0.1626729667186737,-0.15945424139499664,0.13089650869369507,0.06938575953245163,0.0041142357513308525,-0.06662525236606598
