vladlanda/robotic-transformer/data/env_000_episode_0055.csv
sim_time_s,robot_box_x,robot_box_y,robot_box_z,robot_box_quat_w,robot_box_quat_x,robot_box_quat_y,robot_box_quat_z,robot_box_linvel_x,robot_box_linvel_y,robot_box_linvel_z,robot_box_angvel_x,robot_box_angvel_y,robot_box_angvel_z,cube_world_x,cube_world_y,cube_world_z,cube_quat_w,cube_quat_x,cube_quat_y,cube_quat_z,cube_linvel_x,cube_linvel_y,cube_linvel_z,cube_angvel_x,cube_angvel_y,cube_angvel_z,endpoint_world_x,endpoint_world_y,endpoint_world_z,endpoint_linvel_x,endpoint_linvel_y,endpoint_linvel_z,target_cube_world_x,target_cube_world_y,target_cube_world_z,gripper_actual_pos_rad_gp_leftgearjoint,gripper_actual_vel_rad_s_gp_leftgearjoint,gripper_actual_pos_rad_gp_rotatingjoint,gripper_actual_vel_rad_s_gp_rotatingjoint,motor_angle_rad_joint1,motor_angle_rad_joint2,motor_angle_rad_joint3,motor_angle_rad_joint4,motor_speed_rad_s_joint1,motor_speed_rad_s_joint2,motor_speed_rad_s_joint3,motor_speed_rad_s_joint4
0.0,0.0,0.0,0.0,1.0,0.0,0.0,0.0,0.0,0.0,0.0,0.0,0.0,0.0,-0.46377086639404297,0.7365907430648804,0.41999998688697815,1.0,0.0,0.0,0.0,0.0,0.0,0.0,0.0,0.0,0.0,3.42540442943573e-06,-0.005000244826078415,1.313499927520752,0.0,0.0,0.0,0.3848131000995636,0.6959235072135925,0.42000001668930054,-1.5707999467849731,0.0,0.0,0.0,0.0,0.0,0.0,0.0,0.0,0.0,0.0,0.0
0.016666666666666666,0.0028778850100934505,0.0021806680597364902,0.0,0.9998081922531128,0.0,0.0,0.019586581736803055,0.24087215960025787,0.18240931630134583,0.0,0.0,0.0,3.1418697834014893,-0.4637709856033325,0.7365904450416565,0.41999998688697815,1.0,3.2799832752061775e-06,-8.339598593920527e-07,8.465660528145236e-08,-1.9833856640616432e-05,0.00017983021098189056,-6.132945418357849e-05,0.0009432561928406358,-0.004689492750912905,-0.0003198107879143208,-0.007110234349966049,0.003379564033821225,1.3159373998641968,-0.8143353462219238,0.9868683815002441,0.18095196783542633,0.3848131000995636,0.6959235072135925,0.42000001668930054,-1.5301095247268677,3.0000011920928955,-0.04584788903594017,-2.9999992847442627,0.0008691533003002405,0.0007963840034790337,0.0007110277656465769,0.0006108740926720202,0.11094217747449875,0.09756709635257721,0.08334315568208694,0.06823883205652237
0.03333333333333333,0.008960980921983719,0.006801953073590994,0.0,0.9997960329055786,0.0,0.0,0.020196838304400444,0.40702155232429504,0.3153083920478821,0.0,0.0,0.0,-0.8691306114196777,-0.46377110481262207,0.7365903854370117,0.4200000464916229,1.0,3.3908236218849197e-06,-2.1324740373529494e-06,-3.7087911408661967e-08,0.0002635786950122565,0.00026937879738397896,-0.00010509719140827656,-0.0017707741353660822,0.004130927845835686,-0.00013548358401749283,-0.027551162987947464,0.026124799624085426,1.3166077136993408,-1.59147310256958,1.6157276630401611,-0.08359228819608688,0.3848131000995636,0.6959235072135925,0.42000001668930054,-1.4800903797149658,3.00000262260437,-0.09588770568370819,-3.0000009536743164,0.00299012940376997,0.0026527477893978357,0.002277325140312314,0.0018607876263558865,0.1642192304134369,0.13976344466209412,0.11382292956113815,0.08630554378032684
0.05,0.01775650680065155,0.013772593811154366,0.0,0.9993755221366882,0.0,0.0,0.03533563017845154,0.5939362049102783,0.46514350175857544,0.0,0.0,0.0,2.647822618484497,-0.46377113461494446,0.7365904450416565,0.4200000464916229,1.0,3.7651166167051997e-06,-2.2119024833955336e-06,5.637348365894468e-09,0.0002653102274052799,0.00026691530365496874,-0.0001044049859046936,-0.0017243424663320184,0.004177475813776255,-0.00012949523807037622,-0.05968797206878662,0.05404634028673172,1.3116118907928467,-2.1876959800720215,1.7677700519561768,-0.4784788489341736,0.3848131000995636,0.6959235072135925,0.42000001668930054,-1.4300720691680908,3.0000014305114746,-0.1459263563156128,-3.0000011920928955,0.005710248369723558,0.004918083548545837,0.0040537952445447445,0.003112936392426491,0.19268213212490082,0.1557837277650833,0.11701143532991409,0.07627061754465103
0.06666666666666667,0.029073920100927353,0.023067237809300423,0.0,0.9994478225708008,0.0,0.0,0.03322644904255867,0.7204989194869995,0.5952755212783813,0.0,0.0,0.0,-1.2113571166992188,-0.46377113461494446,0.7365903854370117,0.4200000464916229,0.9999999403953552,3.4067338674503844e-06,-2.2856738723930903e-06,4.301002434203838e-07,0.0002670263347681612,0.0002679180761333555,-0.00010437914170324802,-0.001740648876875639,0.004211838357150555,-0.00012851078645326197,-0.0974370539188385,0.08870546519756317,1.2991636991500854,-2.363041400909424,2.275452136993408,-0.988551139831543,0.3848131000995636,0.6959235072135925,0.42000001668930054,-1.3800537586212158,2.999999761581421,-0.19596368074417114,-3.0,0.008203916251659393,0.006693993229418993,0.005073069129139185,0.0033354703336954117,0.14110159873962402,0.08717267215251923,0.031201237812638283,-0.02689160779118538
0.08333333333333333,0.03444923087954521,0.035702187567949295,0.0,0.9999997019767761,0.0,0.0,0.0008104089647531509,0.19042225182056427,0.8242890238761902,0.0,0.0,0.0,-4.935853004455566,-0.46377113461494446,0.7365903854370117,0.4200000464916229,1.0,3.6972542147850618e-06,-2.189012548114988e-06,-2.632233417898533e-07,0.0002638970036059618,0.00026586418971419334,-0.00010433932766318321,-0.0017081733094528317,0.004150197375565767,-0.0001299117284361273,-0.13464920222759247,0.13080909848213196,1.2783536911010742,-2.151306629180908,2.660219669342041,-1.4130960702896118,0.3848131000995636,0.6959235072135925,0.42000001668930054,-1.3300296068191528,3.000000238418579,-0.21190036833286285,0.7766804695129395,0.004962726030498743,0.002832956612110138,0.0005412827013060451,-0.0019222073024138808,-0.2898866832256317,-0.3337379992008209,-0.38015007972717285,-0.4294074475765228
0.1,0.04406091198325157,0.04965747147798538,0.0,0.999907910823822,0.0,0.0,-0.013572816736996174,0.6749677658081055,0.8508021235466003,0.0,0.0,0.0,-0.7055966854095459,-0.46377113461494446,0.7365903854370117,0.4200000464916229,0.9999999403953552,3.620308916651993e-06,-2.2652425286651123e-06,1.7463578672050062e-07,0.00026676832931116223,0.0002674081770237535,-0.0001040799543261528,-0.0017385705141350627,0.004209125880151987,-0.0001277521369047463,-0.17281535267829895,0.17139440774917603,1.2562106847763062,-2.2618751525878906,2.4971303939819336,-1.3348394632339478,0.3848131000995636,0.6959235072135925,0.42000001668930054,-1.2800254821777344,3.000000238418579,-0.25458070635795593,-3.0,0.0050701722502708435,0.0014009145088493824,-0.002427522325888276,-0.006425403989851475,0.03197205439209938,-0.07288419455289841,-0.1768551915884018,-0.2798900306224823
0.11666666666666667,0.05163385719060898,0.0657111406326294,0.0,0.9991707801818848,0.0,0.0,-0.04071491211652756,0.4581410884857178,1.0247982740402222,0.0,0.0,0.0,-3.937748908996582,-0.46377113461494446,0.7365903854370117,0.4200000464916229,1.0,3.798331817961298e-06,-2.2628737497143447e-06,-1.5019459453924355e-07,0.0002637395809870213,0.00026566043379716575,-0.00010428996756672859,-0.0017054103082045913,0.0041475603356957436,-0.0001298010174650699,-0.20653483271598816,0.21869371831417084,1.2346367835998535,-1.7937726974487305,3.1824893951416016,-1.235669732093811,0.3848131000995636,0.6959235072135925,0.42000001668930054,-1.2300004959106445,2.9999895095825195,-0.2205071747303009,2.999999761581421,0.0034653961192816496,-0.0021433099173009396,-0.00788353756070137,-0.013764052651822567,-0.0526612214744091,-0.19184741377830505,-0.3279136121273041,-0.4606168866157532
0.13333333333333333,0.05674681439995766,0.08208578079938889,0.0,0.9956908822059631,0.0,0.0,-0.09273411333560944,0.24628803133964539,0.9558172225952148,0.0,0.0,0.0,-7.127042293548584,-0.46377113461494446,0.7365904450416565,0.4200000464916229,0.9999999403953552,3.5504490369930863e-06,-2.2298452222457854e-06,2.929317872713e-07,0.0002670326502993703,0.00026779386098496616,-0.00010417005978524685,-0.0017441416857764125,0.004213591571897268,-0.00012799994146917015,-0.2364799976348877,0.27328062057495117,1.2138139009475708,-1.7698326110839844,3.3964531421661377,-1.3218159675598145,0.3848131000995636,0.6959235072135925,0.42000001668930054,-1.1948386430740356,1.333451271057129,-0.25183260440826416,-3.000000238418579,0.0015016692923381925,-0.006373757030814886,-0.014313527382910252,-0.02232201024889946,-0.1911826729774475,-0.3144870698451996,-0.43362027406692505,-0.5483545064926147
0.15,0.0584169402718544,0.0977625921368599,0.0,0.9922189116477966,0.0,0.0,-0.1245054304599762,0.03580383211374283,0.940835177898407,0.0,0.0,0.0,-2.7699854373931885,-0.46377113461494446,0.7365903854370117,0.4200000464916229,0.9999999403953552,3.3379828892066143e-06,-2.2429737782658776e-06,-2.8000011198514585e-08,0.0002667461521923542,0.0002675800060387701,-0.00010427623055875301,-0.001736729289405048,0.004206979181617498,-0.00012831634376198053,-0.2742634117603302,0.32727259397506714,1.1859784126281738,-2.361083507537842,3.432375192642212,-1.9917302131652832,0.3848131000995636,0.6959235072135925,0.42000001668930054,-1.1522270441055298,2.9999921321868896,-0.21773965656757355,3.0,-0.0027559108566492796,-0.012306434102356434,-0.02184177376329899,-0.03136405721306801,-0.3213169276714325,-0.39771848917007446,-0.46954581141471863,-0.5367881655693054
0.16666666666666666,0.0565001517534256,0.11465144902467728,0.0,0.9857486486434937,0.0,0.0,-0.1682249903678894,-0.1815650463104248,1.0761024951934814,0.0,0.0,0.0,-6.170301914215088,-0.46377113461494446,0.7365904450416565,0.4200000464916229,0.9999999403953552,3.6477658795774914e-06,-2.3074287582858233e-06,3.527969738570391e-08,0.00026727005024440587,0.0002680135949049145,-0.00010418915189802647,-0.0017472486943006516,0.004217661917209625,-0.00012798381794709712,-0.31106844544410706,0.38753700256347656,1.1518608331680298,-1.9641330242156982,3.8777456283569336,-2.1320090293884277,0.3848131000995636,0.6959235072135925,0.42000001668930054,-1.1053826808929443,2.6137163639068604,-0.24907466769218445,-2.999999761581421,-0.009816565550863743,-0.020652592182159424,-0.03138851746916771,-0.04202546179294586,-0.514706552028656,-0.584000825881958,-0.648461103439331,-0.7080212831497192
0.18333333333333332,0.06003570556640625,0.12785698473453522,0.0,0.9808452725410461,0.0,0.0,-0.1947886198759079,0.23896199464797974,0.7812312841415405,0.0,0.0,0.0,-2.0997092723846436,-0.46377113461494446,0.7365903854370117,0.4200000464916229,0.9999999403953552,3.290518861831515e-06,-2.1940602437098278e-06,-2.792300222154154e-07,0.0002667784283403307,0.0002677590528037399,-0.00010434072464704514,-0.001739021739922464,0.004206892568618059,-0.00012845716264564544,-0.3479043245315552,0.4495552182197571,1.1088207960128784,-2.0562984943389893,3.922697067260742,-3.1252896785736084,0.3848131000995636,0.6959235072135925,0.42000001668930054,-1.0739977359771729,1.2463054656982422,-0.2991029918193817,-2.999795913696289,-0.014639289118349552,-0.026466894894838333,-0.03811080753803253,-0.04957503080368042,-0.5408210754394531,-0.5399497747421265,-0.5371115803718567,-0.5327500700950623
0.2,0.058402933180332184,0.14444909989833832,0.0,0.9721492528915405,0.0,0.0,-0.23436260223388672,-0.11754943430423737,0.9360072612762451,0.0,0.0,0.0,-5.628445625305176,-0.46377113461494446,0.7365903854370117,0.4200000464916229,1.0,3.2806988201627973e-06,-2.2193432869244134e-06,1.5948184284297895e-07,0.0002662798506207764,0.00026740229805000126,-0.0001042510848492384,-0.0017357115866616368,0.004197767470031977,-0.00012865093594882637,-0.3807673454284668,0.5155990719795227,1.0485265254974365,-1.8484008312225342,4.074141979217529,-3.905379295349121,0.3848131000995636,0.6959235072135925,0.42000001668930054,-1.0289627313613892,3.000000476837158,-0.34912940859794617,-3.0000009536743164,-0.028411773964762688,-0.040072061121463776,-0.051540348678827286,-0.06277894228696823,-0.6009476780891418,-0.6550084352493286,-0.7051865458488464,-0.7482832074165344
0.21666666666666667,0.06166441738605499,0.15553894639015198,0.0,0.9668477773666382,0.0,0.0,-0.25535351037979126,0.18937456607818604,0.5714594721794128,0.0,0.0,0.0,-1.4529889822006226,-0.46377113461494446,0.7365904450416565,0.4200000464916229,1.0,3.613101398514118e-06,-2.270231107104337e-06,2.210174301353618e-07,0.00026712517137639225,0.00026781667838804424,-0.00010414118878543377,-0.001744576497003436,0.0042152018286287785,-0.00012786168372258544,-0.4131195545196533,0.5776969194412231,0.9761651754379272,-1.7101833820343018,3.639012336730957,-4.786771774291992,0.3848131000995636,0.6959235072135925,0.42000001668930054,-0.9809911847114563,2.73717999458313,-0.39915627241134644,-2.9999983310699463,-0.037966035306453705,-0.04985170066356659,-0.061514873057603836,-0.07288166880607605,-0.8264756202697754,-0.780360221862793,-0.7354114055633545,-0.690325140953064
0.23333333333333334,0.05860811844468117,0.16915331780910492,0.0,0.95721036195755,0.0,0.0,-0.28939294815063477,-0.2779929041862488,0.8035836219787598,0.0,0.0,0.0,-5.1017746925354,-0.46377113461494446,0.7365903854370117,0.4200000464916229,1.0,3.3818532756413333e-06,-2.291060127390665e-06,2.727961714299454e-07,0.0002669147797860205,0.0002677999727893621,-0.00010433257557451725,-0.0017395797185599804,0.004209762904793024,-0.00012843632430303842,-0.43720364570617676,0.6329712271690369,0.8901302814483643,-1.159134864807129,3.099106550216675,-5.309720039367676,0.3848131000995636,0.6959235072135925,0.42000001668930054,-0.931057870388031,3.000000476837158,-0.4491855502128601,-3.0000007152557373,-0.05439673736691475,-0.06622736901044846,-0.07785622775554657,-0.08915236592292786,-0.876882791519165,-0.8904440999031067,-0.9060527682304382,-0.921526312828064
0.25,0.06089889630675316,0.17775088548660278,0.0,0.952301025390625,0.0,0.0,-0.3051602840423584,0.15465831756591797,0.42205798625946045,0.0,0.0,0.0,-0.8518913984298706,-0.46377110481262207,0.7365903854370117,0.4200000464916229,0.9999999403953552,3.7065613014419796e-06,-2.22313519770978e-06,-2.2550631229023566e-07,0.0002642478502821177,0.0002665684442035854,-0.00010457867756485939,-0.0017169876955449581,0.004155559465289116,-0.00013063046208117157,-0.45778554677963257,0.6773064732551575,0.7985591292381287,-0.9873857498168945,2.2951550483703613,-5.761198997497559,0.3848131000995636,0.6959235072135925,0.42000001668930054,-0.8810473680496216,2.9999959468841553,-0.4992159903049469,-3.0000011920928955,-0.06677787005901337,-0.07841245085000992,-0.08988889306783676,-0.10105609148740768,-0.9815427660942078,-0.9104583859443665,-0.8444971442222595,-0.7835193276405334
0.26666666666666666,0.057399358600378036,0.1893937587738037,0.0,0.9426294565200806,0.0,0.0,-0.33384081721305847,-0.20850327610969543,0.683042049407959,0.0,0.0,0.0,-4.31571102142334,-0.46377113461494446,0.7365903854370117,0.4200000464916229,0.9999999403953552,3.7196393805061234e-06,-2.4035975911829155e-06,-1.830753433296195e-07,0.0002662325860001147,0.00026729193632490933,-0.00010425969958305359,-0.0017327084206044674,0.004196519032120705,-0.00012850586790591478,-0.4684246778488159,0.7070214748382568,0.7005602121353149,-0.3302931785583496,1.458606243133545,-5.769343376159668,0.3848131000995636,0.6959235072135925,0.42000001668930054,-0.8310369253158569,2.999995708465576,-0.5492463707923889,-3.0,-0.08403810113668442,-0.09548333287239075,-0.10684564709663391,-0.11794117093086243,-0.7669580578804016,-0.8142830729484558,-0.8586863875389099,-0.8983820080757141
0.2833333333333333,0.054636914283037186,0.19618846476078033,0.0,0.9390738010406494,0.0,0.0,-0.3437156081199646,-0.25344550609588623,0.3894575536251068,0.0,0.0,0.0,-0.25302621722221375,-0.46377113461494446,0.7365904450416565,0.4200000464916229,0.9999999403953552,3.584038495318964e-06,-2.3155648705142085e-06,7.404717194958721e-08,0.0002652202092576772,0.00026455349870957434,-0.00010317075066268444,-0.0017022540559992194,0.004185175523161888,-0.00012499988952185959,-0.47594621777534485,0.7249312400817871,0.6065572500228882,-0.21908852458000183,0.6726180911064148,-5.589003086090088,0.3848131000995636,0.6959235072135925,0.42000001668930054,-0.7810280919075012,2.999997854232788,-0.5992761254310608,-3.0000040531158447,-0.09729879349470139,-0.10899488627910614,-0.12059181183576584,-0.13177284598350525,-0.9973395466804504,-0.9969468712806702,-0.9971612691879272,-0.9645088911056519
0.3,0.04843279346823692,0.19996173679828644,0.0,0.943152129650116,0.0,0.0,-0.3323613107204437,-0.42823854088783264,0.17002303898334503,0.0,0.0,0.0,2.359982490539551,-0.46377113461494446,0.7365903854370117,0.4200000464916229,1.0,3.7242393773340154e-06,-2.272014398840838e-06,9.635331821300497e-08,0.000263127323705703,0.0002652598777785897,-0.00010438216850161552,-0.0016961408546194434,0.004134894348680973,-0.00013027827662881464,-0.47922807931900024,0.732408881187439,0.5140813589096069,-0.07766082882881165,0.17631717026233673,-5.437950134277344,0.3848131000995636,0.6959235072135925,0.42000001668930054,-0.7310193181037903,2.9999802112579346,-0.6493045687675476,-2.9999992847442627,-0.11404235661029816,-0.1256662905216217,-0.13722111284732819,-0.14837932586669922,-1.0019267797470093,-1.0014753341674805,-1.0011250972747803,-1.0008430480957031
0.31666666666666665,0.03985191136598587,0.20091311633586884,0.0,0.9418648481369019,0.0,0.0,-0.3359919488430023,-0.5575181245803833,0.016926957294344902,0.0,0.0,0.0,-1.3844596147537231,-0.46377113461494446,0.7365903854370117,0.4200000464916229,1.0,3.6662170259660343e-06,-2.392615215285332e-06,1.6798600199763314e-07,0.0002660210302565247,0.00026706853532232344,-0.00010418705642223358,-0.0017310666153207421,0.004193499684333801,-0.00012849338236264884,-0.47318312525749207,0.7338374853134155,0.4219670295715332,0.7676911354064941,-0.04518672823905945,-5.437634468078613,0.3848131000995636,0.6959235072135925,0.42000001668930054,-0.6810123920440674,3.000002145767212,-0.6993314027786255,-3.000000476837158,-0.13143034279346466,-0.1428700089454651,-0.15428504347801208,-0.16533245146274567,-1.0021458864212036,-1.001629114151001,-1.0012351274490356,-1.0009177923202515
0.3333333333333333,0.02919001691043377,0.19931858777999878,0.0,0.9456730484962463,0.0,0.0,-0.3251192271709442,-0.6848112940788269,-0.138779878616333,0.0,0.0,0.0,2.2376654148101807,-0.46357646584510803,0.7364382743835449,0.4200003445148468,0.9999874830245972,2.7621150366030633e-05,-2.588838106021285e-05,-0.004987824708223343,0.0025666551664471626,0.0003202389634680003,-0.000886337598785758,-0.016960904002189636,0.027930989861488342,-0.08987860381603241,-0.4749372899532318,0.737145185470581,0.42531293630599976,-0.10877430438995361,0.17130255699157715,-0.22396430373191833,0.3848131000995636,0.6959235072135925,0.42000001668930054,-0.6310461759567261,2.999985694885254,-0.7498067021369934,-3.0000033378601074,-0.13291415572166443,-0.14531008899211884,-0.15727077424526215,-0.1683596670627594,-0.179946631193161,-0.1952711045742035,-0.19059962034225464,-0.1623893529176712
0.35,0.016650337725877762,0.19521479308605194,0.0,0.9440525770187378,0.0,0.0,-0.3297950327396393,-0.8303894400596619,-0.30171194672584534,0.0,0.0,0.0,-1.4511115550994873,-0.46357572078704834,0.736439049243927,0.4200000464916229,0.9999875426292419,3.2640589324728353e-06,-2.236235332020442e-06,-0.004987884778529406,0.0002785328251775354,0.00024249668058473617,-9.736930951476097e-05,-0.001272381516173482,0.004603454377502203,-0.0001012862630886957,-0.47409164905548096,0.7413257360458374,0.42190486192703247,0.16027778387069702,0.3862043023109436,-0.19701462984085083,0.3848131000995636,0.6959235072135925,0.42000001668930054,-0.5810407996177673,3.0000016689300537,-0.799848198890686,-2.9992165565490723,-0.13776220381259918,-0.1498725712299347,-0.1612471640110016,-0.17141859233379364,-0.36927786469459534,-0.32926762104034424,-0.2732769250869751,-0.20085641741752625
0.36666666666666664,0.0073054139502346516,0.18799073994159698,0.0,0.9473184943199158,0.0,0.0,-0.3202930688858032,-0.46678605675697327,-0.4830324351787567,0.0,0.0,0.0,2.016474723815918,-0.4611613154411316,0.7415688037872314,0.42000725865364075,0.9965720176696777,0.0001591093314345926,-0.0002182633470511064,-0.0827287882566452,0.17878282070159912,0.352228045463562,-0.012370364740490913,-0.6227989196777344,0.06654810905456543,-10.425881385803223,-0.47093871235847473,0.7469975352287292,0.4198097586631775,0.24914482235908508,0.37336331605911255,0.030887536704540253,0.3848131000995636,0.6959235072135925,0.42000001668930054,-0.5310087203979492,2.9999635219573975,-0.8498661518096924,-2.999962091445923,-0.145583376288414,-0.15603457391262054,-0.16546936333179474,-0.1734466701745987,-0.5018470287322998,-0.3657859265804291,-0.21244537830352783,-0.04463106393814087
0.3833333333333333,-0.004307745024561882,0.1789623647928238,0.0,0.9450894594192505,0.0,0.0,-0.326811820268631,-0.7876447439193726,-0.5693954229354858,0.0,0.0,0.0,-1.7833806276321411,-0.4552490711212158,0.7508494853973389,0.420184463262558,0.9890903830528259,-0.004701757803559303,0.0006141410558484495,-0.14723342657089233,0.5178490281105042,0.8295085430145264,0.05684659257531166,-2.2230539321899414,1.2549620866775513,-4.230437755584717,-0.46469196677207947,0.7563389539718628,0.4206988215446472,0.5090930461883545,0.74872887134552,0.050338178873062134,0.3848131000995636,0.6959235072135925,0.42000001668930054,-0.48098281025886536,2.999110460281372,-0.8998836874961853,-3.000011444091797,-0.15690504014492035,-0.1643245816230774,-0.17046834528446198,-0.1749689280986786,-0.6857109665870667,-0.49590763449668884,-0.2915309965610504,-0.07755272835493088
0.4,-0.012706912122666836,0.16711585223674774,0.0,0.9329521059989929,0.0,0.0,-0.36000049114227295,-0.46876099705696106,-0.7590761780738831,0.0,0.0,0.0,-4.975301265716553,-0.4445573091506958,0.7669751644134521,0.42122384905815125,0.9822211265563965,-0.030831817537546158,0.005459832958877087,-0.18509802222251892,0.9856380820274353,0.9163898825645447,0.24680118262767792,-11.970185279846191,3.3919646739959717,-9.243074417114258,-0.4530960023403168,0.7708516120910645,0.4222305119037628,0.8788610696792603,0.9671672582626343,0.1292210966348648,0.3848131000995636,0.6959235072135925,0.42000001668930054,-0.4309159517288208,2.989227771759033,-0.9498913288116455,-2.9977989196777344,-0.1660630702972412,-0.17020604014396667,-0.172732874751091,-0.173370361328125,-0.5521609783172607,-0.3240400552749634,-0.07384908944368362,0.19148539006710052
0.4166666666666667,-0.02463075891137123,0.1534399688243866,0.0,0.9084079265594482,0.0,0.0,-0.41808491945266724,-0.8007779121398926,-0.8468940854072571,0.0,0.0,0.0,-8.474224090576172,-0.4196867048740387,0.7889643907546997,0.4250399172306061,0.9671794176101685,-0.06980440020561218,0.011575707234442234,-0.24404379725456238,2.2505831718444824,1.7490438222885132,0.10154761373996735,29.192913055419922,-17.650449752807617,4.778860569000244,-0.4278973937034607,0.7945653796195984,0.42486944794654846,2.138756275177002,1.8360538482666016,0.4010944366455078,0.3848131000995636,0.6959235072135925,0.42000001668930054,-0.38659194111824036,1.718967080116272,-0.9998965859413147,-3.000002145767212,-0.17843176424503326,-0.17812523245811462,-0.17589469254016876,-0.17160791158676147,-0.7889352440834045,-0.5084074139595032,-0.21291054785251617,0.08841145783662796
0.43333333333333335,-0.03310003876686096,0.13711433112621307,0.0,0.8682879209518433,0.0,0.0,-0.4960605502128601,-0.46250391006469727,-1.0121114253997803,0.0,0.0,0.0,-11.113722801208496,-0.36166781187057495,0.8281653523445129,0.4295728802680969,0.951876163482666,-0.009695375338196754,-0.0287476796656847,-0.3049775958061218,4.949245452880859,2.405395984649658,0.4374030828475952,18.54086685180664,-12.396221160888672,16.218557357788086,-0.36896565556526184,0.834538459777832,0.4294053912162781,4.587913990020752,2.8769826889038086,0.39880311489105225,0.3848131000995636,0.6959235072135925,0.42000001668930054,-0.3703157901763916,0.7258833646774292,-0.9624964594841003,2.9971485137939453,-0.19272704422473907,-0.1871039867401123,-0.17950496077537537,-0.1699744164943695,-0.9226080179214478,-0.5907632112503052,-0.2647554278373718,0.044281065464019775
0.45,-0.038912247866392136,0.12606370449066162,0.0,0.8100871443748474,0.0,0.0,-0.5863094329833984,-0.2664019763469696,-0.713395893573761,0.0,0.0,0.0,-13.514313697814941,-0.26234227418899536,0.873013973236084,0.4375114440917969,0.919076681137085,0.065364770591259,-0.06610474735498428,-0.3829563558101654,7.175431728363037,2.2659595012664795,0.6300238966941833,14.549479484558105,-17.934799194335938,22.14413070678711,-0.2699353098869324,0.8805477619171143,0.4372568726539612,6.957432746887207,2.9601199626922607,0.6007618308067322,0.3848131000995636,0.6959235072135925,0.42000001668930054,-0.3575078547000885,0.8057470917701721,-0.9124523997306824,2.995581865310669,-0.20816265046596527,-0.20199909806251526,-0.18981027603149414,-0.17426639795303345,-0.5370540618896484,-0.6270270943641663,-0.5601239204406738,-0.28102907538414
0.4666666666666667,-0.046681299805641174,0.11835835874080658,0.0,0.7582600116729736,0.0,0.0,-0.6519522666931152,-0.4522460699081421,-0.4200053811073303,0.0,0.0,0.0,-8.684617042541504,-0.14810875058174133,0.9039134979248047,0.44739556312561035,0.8736838698387146,0.09067150950431824,-0.11078620702028275,-0.46495309472084045,6.929214954376221,0.7196405529975891,0.7004681825637817,-2.230544328689575,-4.067327499389648,7.573174953460693,-0.1561269462108612,0.9159317016601562,0.44837266206741333,6.852097988128662,1.4551706314086914,0.7316429615020752,0.3848131000995636,0.6959235072135925,0.42000001668930054,-0.3456876277923584,0.6377674341201782,-0.9258897304534912,-3.0000016689300537,-0.22239643335342407,-0.21611227095127106,-0.20160701870918274,-0.18059492111206055,-0.727577269077301,-0.7520561814308167,-0.6590449213981628,-0.37865158915519714
0.48333333333333334,-0.05047313868999481,0.10553810745477676,0.0,0.7266630530357361,0.0,0.0,-0.6869940161705017,-0.237815260887146,-0.7738538384437561,0.0,0.0,0.0,-4.399728775024414,-0.035460926592350006,0.9149692058563232,0.4534844756126404,0.8035750985145569,0.00014070600445847958,-0.22545000910758972,-0.5508531332015991,6.352080821990967,-0.8486643433570862,1.1301392316818237,17.366113662719727,5.708322525024414,31.249380111694336,-0.044599127024412155,0.9301718473434448,0.4609054923057556,6.69861364364624,-0.003741636872291565,0.6255843639373779,0.3848131000995636,0.6959235072135925,0.42000001668930054,-0.3363988697528839,0.36973562836647034,-0.9759137034416199,-2.9999959468841553,-0.23318099975585938,-0.22562076151371002,-0.2085036337375641,-0.18258993327617645,-0.8373291492462158,-0.6464641690254211,-0.4098172187805176,-0.08266786485910416
0.5,-0.05627298727631569,0.09861042350530624,0.0,0.7185776233673096,0.0,0.0,-0.695446789264679,-0.3320690393447876,-0.32232919335365295,0.0,0.0,0.0,-0.3003617823123932,0.060885630548000336,0.9033703207969666,0.46338698267936707,0.7539125084877014,0.0015768981538712978,-0.17222626507282257,-0.6339963674545288,4.879275798797607,-2.0971546173095703,0.7463051676750183,4.27886438369751,6.1166863441467285,33.0982780456543,0.05502603203058243,0.9201513528823853,0.4708264470100403,5.356668949127197,-1.0524911880493164,0.39693760871887207,0.3848131000995636,0.6959235072135925,0.42000001668930054,-0.33243924379348755,0.01124483346939087,-1.0259368419647217,-2.9985342025756836,-0.23994387686252594,-0.23975297808647156,-0.21883761882781982,-0.1873406320810318,-0.0585385300219059,-0.4741477370262146,-0.6075079441070557,-0.34388187527656555
0.5166666666666666,-0.058967094868421555,0.08816714584827423,0.0,0.7017362117767334,0.0,0.0,-0.712436854839325,-0.1369837373495102,-0.6647975444793701,0.0,0.0,0.0,-3.6996943950653076,0.1390368640422821,0.88169926404953,0.4668312966823578,0.7241106629371643,-0.013461299240589142,-0.15428726375102997,-0.6720698475837708,4.023307800292969,-2.4016177654266357,0.20714879035949707,-0.7954208850860596,2.1531004905700684,20.94403839111328,0.13600802421569824,0.8982991576194763,0.47466033697128296,4.576167106628418,-1.7780593633651733,0.1083560511469841,0.3848131000995636,0.6959235072135925,0.42000001668930054,-0.3315615653991699,0.07848598062992096,-1.0759589672088623,-2.9996261596679688,-0.23762673139572144,-0.24000170826911926,-0.22407034039497375,-0.18954119086265564,0.08013007789850235,-0.0029218532145023346,-0.1869669258594513,-0.03609922528266907
0.5333333333333333,-0.05878804251551628,0.08293808996677399,0.0,0.6974248290061951,0.0,0.0,-0.7166579365730286,0.06766433268785477,-0.22217145562171936,0.0,0.0,0.0,0.26484745740890503,0.20578894019126892,0.847568929195404,0.46515071392059326,0.6744035482406616,-0.04217352718114853,-0.11761093884706497,-0.7277147769927979,3.3577990531921387,-2.7888994216918945,-0.22203022241592407,-1.0402204990386963,5.539059638977051,15.782342910766602,0.20487836003303528,0.863682746887207,0.47293639183044434,3.94346284866333,-2.270120859146118,-0.2985324263572693,0.3848131000995636,0.6959235072135925,0.42000001668930054,-0.3274231553077698,0.3492943346500397,-1.125981092453003,-2.999314069747925,-0.2395823895931244,-0.23991701006889343,-0.22778820991516113,-0.1914355456829071,0.032694749534130096,0.01167720090597868,-0.0763683170080185,-0.056320931762456894
0.55,-0.05522943660616875,0.0739220678806305,0.0,0.6836023926734924,0.0,0.0,-0.7298546433448792,0.23159204423427582,-0.5824539065361023,0.0,0.0,0.0,-3.12092661857605,0.2624491751194,0.8128017783164978,0.45430031418800354,0.6373230218887329,-0.08736713230609894,-0.10217639058828354,-0.7587794065475464,2.5827455520629883,-2.639793634414673,-0.6042097806930542,1.60057532787323,7.36456298828125,19.293100357055664,0.2635851204395294,0.8282815217971802,0.462871789932251,3.1976468563079834,-2.201154947280884,-0.8264615535736084,0.3848131000995636,0.6959235072135925,0.42000001668930054,-0.3184274733066559,0.5709969401359558,-1.1760032176971436,-2.998384952545166,-0.23323208093643188,-0.234492689371109,-0.2246072143316269,-0.18981178104877472,0.39047908782958984,0.36918944120407104,0.25201109051704407,0.10923398286104202
0.5666666666666667,-0.049282122403383255,0.06943055987358093,0.0,0.6820125579833984,0.0,0.0,-0.7313404679298401,0.3851360082626343,-0.2532741129398346,0.0,0.0,0.0,0.5808265805244446,0.3061642050743103,0.7758680582046509,0.4384928345680237,0.5923510193824768,-0.13160817325115204,-0.07367458939552307,-0.7914364337921143,2.3525173664093018,-2.372972249984741,-0.8544036746025085,-2.6449661254882812,15.418689727783203,-14.227862358093262,0.3084050416946411,0.7897742986679077,0.446799099445343,2.321150779724121,-2.296614170074463,-1.1732233762741089,0.3848131000995636,0.6959235072135925,0.42000001668930054,-0.30679795145988464,0.7416335940361023,-1.2260253429412842,-2.999067783355713,-0.2292003035545349,-0.23001724481582642,-0.2214888632297516,-0.18943668901920319,0.40067484974861145,0.3975095748901367,0.28547340631484985,0.053656939417123795
0.5833333333333334,-0.04108235612511635,0.06217319890856743,0.0,0.6695032715797424,0.0,0.0,-0.7428091168403625,0.5331547856330872,-0.486431360244751,0.0,0.0,0.0,-2.789729595184326,0.3438277840614319,0.7490536570549011,0.42255115509033203,0.5341337323188782,-0.022455107420682907,0.041917119175195694,-0.8440614342689514,1.6038858890533447,-1.2104254961013794,-0.39581334590911865,11.578367233276367,-11.539874076843262,20.765045166015625,0.3430846333503723,0.7573388814926147,0.4244922995567322,1.635037899017334,-1.707637071609497,-1.095216155052185,0.3848131000995636,0.6959235072135925,0.42000001668930054,-0.2886672616004944,1.3160408735275269,-1.24787437915802,0.12970805168151855,-0.21859344840049744,-0.2203955352306366,-0.21461747586727142,-0.18773870170116425,0.6037142276763916,0.5522541403770447,0.3944089114665985,0.06503733992576599
0.6,-0.03503910452127457,0.057979751378297806,0.0,0.6700243949890137,0.0,0.0,-0.7423390746116638,0.3006085157394409,-0.19791707396507263,0.0,0.0,0.0,0.9262520670890808,0.3642081320285797,0.7329943776130676,0.42194822430610657,0.4963499903678894,-0.02670097164809704,0.031092626973986626,-0.8671544790267944,1.0086450576782227,-1.1040879487991333,0.1497507244348526,6.555327415466309,6.815619945526123,6.261012554168701,0.3620816767215729,0.7397491931915283,0.4302014708518982,1.0612635612487793,-1.0051496028900146,0.16573932766914368,0.3848131000995636,0.6959235072135925,0.42000001668930054,-0.25614625215530396,1.9177978038787842,-1.2884236574172974,-3.0000009536743164,-0.20961493253707886,-0.21227124333381653,-0.20891813933849335,-0.1874687820672989,0.5449854731559753,0.4836985766887665,0.328874796628952,-0.020445246249437332
0.6166666666666667,-0.02839842066168785,0.05101899057626724,0.0,0.659379780292511,0.0,0.0,-0.7518100142478943,0.43943458795547485,-0.43556538224220276,0.0,0.0,0.0,-2.5579657554626465,0.37780654430389404,0.721467137336731,0.42140570282936096,0.5048689842224121,-0.017437176778912544,0.03099304810166359,-0.8624630570411682,0.4969026744365692,-1.3844233751296997,0.4571039080619812,18.525880813598633,-11.74344539642334,20.020339965820312,0.3759218454360962,0.7274407148361206,0.4299930930137634,0.46553289890289307,-0.5677183866500854,-0.12304020673036575,0.3848131000995636,0.6959235072135925,0.42000001668930054,-0.2375524491071701,0.161887064576149,-1.2502785921096802,2.99910306930542,-0.19839920103549957,-0.20236963033676147,-0.20177586376667023,-0.18637889623641968,0.55058354139328,0.5082166790962219,0.38078537583351135,0.04875066876411438
0.6333333333333333,-0.023832933977246284,0.04731578752398491,0.0,0.6611233353614807,0.0,0.0,-0.7502772212028503,0.20587773621082306,-0.1782619208097458,0.0,0.0,0.0,1.0702002048492432,0.3839854896068573,0.7085223197937012,0.4215049147605896,0.5195415616035461,-0.02029801346361637,0.0334944911301136,-0.8535470366477966,0.18521000444889069,-0.8509792685508728,0.011844220571219921,0.2965153455734253,0.5790035128593445,2.473027229309082,0.3810747265815735,0.7158032059669495,0.42970097064971924,0.22856752574443817,-0.659839928150177,-0.15200527012348175,0.3848131000995636,0.6959235072135925,0.42000001668930054,-0.2742532789707184,-2.9997787475585938,-1.2708714008331299,-2.999999761581421,-0.19101707637310028,-0.1953343003988266,-0.19637221097946167,-0.18595898151397705,0.4608761966228485,0.4359286427497864,0.34066787362098694,0.050055358558893204
0.65,-0.018911903724074364,0.047142039984464645,0.0,0.6526554226875305,0.0,0.0,-0.7576548457145691,0.3429650366306305,0.051446061581373215,0.0,0.0,0.0,-2.206589698791504,0.3853880763053894,0.7019003629684448,0.4221976697444916,0.5228883028030396,-0.03146355599164963,0.043188173323869705,-0.8507246971130371,0.12619297206401825,-0.08984746783971786,0.12263357639312744,0.20536531507968903,4.872302055358887,1.2776572704315186,0.3833290934562683,0.7129024267196655,0.43133652210235596,0.18474815785884857,-0.017660340294241905,0.14015236496925354,0.3848131000995636,0.6959235072135925,0.42000001668930054,-0.3045401871204376,-0.8827931880950928,-1.3208115100860596,-2.998919725418091,-0.1822434514760971,-0.18769493699073792,-0.19075481593608856,-0.18528291583061218,0.5937145948410034,0.5052801370620728,0.3722241520881653,0.076884925365448
0.6666666666666666,-0.011242399923503399,0.04238887503743172,0.0,0.6567510962486267,0.0,0.0,-0.7541074156761169,0.4395761489868164,-0.27784860134124756,0.0,0.0,0.0,1.5106892585754395,0.3870714604854584,0.7007781267166138,0.42279407382011414,0.523128867149353,-0.040665846318006516,0.05875097215175629,-0.8492530584335327,0.03653481602668762,0.0008866476709954441,-0.025504503399133682,0.2757016122341156,-0.9402858018875122,-3.6441261768341064,0.383208692073822,0.7120866775512695,0.43110132217407227,-0.22848767042160034,-0.02907194197177887,-0.035255856812000275,0.3848131000995636,0.6959235072135925,0.42000001668930054,-0.34762465953826904,-2.9999778270721436,-1.2881243228912354,2.9998695850372314,-0.16985517740249634,-0.17687243223190308,-0.182175412774086,-0.18147781491279602,0.5717591643333435,0.527983546257019,0.4440155029296875,0.2137497365474701
0.6833333333333333,-0.002151711145415902,0.04236026853322983,0.0,0.6525554656982422,0.0,0.0,-0.7577409148216248,0.5850966572761536,0.0031067323870956898,0.0,0.0,0.0,-1.9360982179641724,0.3869286775588989,0.7010818123817444,0.42159879207611084,0.5163149833679199,-0.021334195509552956,0.035406555980443954,-0.8554005026817322,-0.02555965445935726,0.030660998076200485,-0.07686071842908859,-2.028902053833008,-3.8954684734344482,0.07059065252542496,0.38251620531082153,0.7136009931564331,0.43316346406936646,0.03321835398674011,0.1937018632888794,0.217446431517601,0.3848131000995636,0.6959235072135925,0.42000001668930054,-0.39762380719184875,-2.9987123012542725,-1.3076462745666504,-2.999587297439575,-0.16212986409664154,-0.16988718509674072,-0.17645509541034698,-0.1791791021823883,0.5642223358154297,0.48729294538497925,0.38773655891418457,0.17673559486865997
0.7,0.008987054228782654,0.03837652504444122,0.0,0.6582240462303162,0.0,0.0,-0.7528220415115356,0.6961803436279297,-0.22903163731098175,0.0,0.0,0.0,1.7736274003982544,0.38559311628341675,0.701906144618988,0.4200385808944702,0.5223838090896606,0.00042164165643043816,-0.0006450825021602213,-0.8527100682258606,-0.1269974559545517,0.03271287679672241,0.023939598351716995,-0.5350703001022339,-1.0275626182556152,3.032071590423584,0.381089985370636,0.7159255146980286,0.4392128586769104,-0.2225876748561859,0.03210586681962013,0.5332212448120117,0.3848131000995636,0.6959235072135925,0.42000001668930054,-0.4476374089717865,-2.9999356269836426,-1.3576648235321045,-2.999999523162842,-0.15368391573429108,-0.1619655042886734,-0.16931822896003723,-0.17443004250526428,0.2428177297115326,0.28499308228492737,0.31524112820625305,0.26005592942237854
0.7166666666666667,0.021786170080304146,0.03263699263334274,0.0,0.6520893573760986,0.0,0.0,-0.7581421136856079,0.7963157296180725,-0.4124012887477875,0.0,0.0,0.0,-1.9377931356430054,0.38413292169570923,0.7021983861923218,0.42000001668930054,0.5345456004142761,1.2646236200453131e-06,1.0188811074840487e-06,-0.8451395630836487,-0.06714620441198349,0.011022420600056648,-1.306631020270288e-05,-0.0005805924301967025,-1.3660307558893692e-05,1.1778082847595215,0.3818647861480713,0.7160569429397583,0.44590187072753906,0.28185418248176575,-0.049966372549533844,0.44710567593574524,0.3848131000995636,0.6959235072135925,0.42000001668930054,-0.49765026569366455,-3.000000476837158,-1.4076831340789795,-2.9999992847442627,-0.15151455998420715,-0.15857823193073273,-0.16477592289447784,-0.1698743999004364,0.08354177325963974,0.17918147146701813,0.2771463394165039,0.32107219099998474
0.7333333333333333,0.03720299154520035,0.026960713788866997,0.0,0.6234589219093323,0.0,0.0,-0.781856119632721,0.974367082118988,-0.3374679684638977,0.0,0.0,0.0,-5.4339280128479,0.383874773979187,0.7022280693054199,0.42000022530555725,0.5362182855606079,-1.457853386455099e-06,-8.10060191724915e-06,-0.8440792560577393,-0.0003957822627853602,-0.00043315847869962454,-0.00022487106616608799,0.006561138667166233,-0.018222834914922714,-0.0017573557561263442,0.3912578225135803,0.7143886089324951,0.46137791872024536,0.8912989497184753,-0.14728063344955444,1.5163381099700928,0.3848131000995636,0.6959235072135925,0.42000001668930054,-0.5476628541946411,-2.9999611377716064,-1.4577014446258545,-2.999997854232788,-0.1546623557806015,-0.15945476293563843,-0.1633264571428299,-0.1668519377708435,-0.3012606203556061,-0.14878036081790924,0.008451313711702824,0.129672110080719
0.75,0.04987344145774841,0.02273845486342907,0.0,0.6090463399887085,0.0,0.0,-0.7931346297264099,0.6840954422950745,-0.2047978937625885,0.0,0.0,0.0,-1.160549521446228,0.3838752210140228,0.7022275924682617,0.4200000464916229,0.5362173318862915,5.489102150590952e-08,-2.4781550109764794e-06,-0.8440799117088318,3.199945786036551e-05,-0.0002517223765607923,-7.075350731611252e-05,0.0067200069315731525,-0.002047857968136668,-0.0007282918668352067,0.40898528695106506,0.716960608959198,0.49025800824165344,1.1464763879776,0.3866755962371826,1.9077506065368652,0.3848131000995636,0.6959235072135925,0.42000001668930054,-0.568609356880188,0.22222110629081726,-1.5077197551727295,-3.000000476837158,-0.1577025204896927,-0.16111567616462708,-0.16352948546409607,-0.16605085134506226,-0.11630617827177048,-0.08385119587182999,-0.04890131950378418,-0.03531017154455185
0.7666666666666666,0.05806397646665573,0.021641382947564125,0.0,0.619234025478363,0.0,0.0,-0.7852064967155457,0.424854576587677,-0.011737736873328686,0.0,0.0,0.0,2.377838611602783,0.3838752210140228,0.7022275924682617,0.4200000464916229,0.5362172722816467,1.4609614140681515e-07,-2.6908705876849126e-06,-0.8440799117088318,2.4753464458626695e-05,-0.00024468221818096936,-7.315375842154026e-05,0.0065395100973546505,-0.002210494363680482,-0.0007050897693261504,0.42649638652801514,0.7221883535385132,0.5155696868896484,0.9010235667228699,0.28779417276382446,1.1956332921981812,0.3848131000995636,0.6959235072135925,0.42000001668930054,-0.5439066886901855,2.5204343795776367,-1.4689687490463257,3.0,-0.15955772995948792,-0.16229183971881866,-0.1639910787343979,-0.16606323421001434,-0.08483099937438965,-0.04012265428900719,0.004920991603285074,0.03773612156510353
0.7833333333333333,0.06186680123209953,0.017850425094366074,0.0,0.6170415282249451,0.0,0.0,-0.7869305610656738,0.14037629961967468,-0.29050183296203613,0.0,0.0,0.0,-1.1443865299224854,0.3838752210140228,0.7022275924682617,0.4200000464916229,0.5362172722816467,1.29016157757178e-07,-2.6885891202255152e-06,-0.8440799117088318,2.5136181648122147e-05,-0.00024541225866414607,-7.324363104999065e-05,0.00655636191368103,-0.002209765138104558,-0.000707739673089236,0.4344850778579712,0.7258543372154236,0.5290036201477051,0.04167221486568451,0.1673261672258377,0.5988055467605591,0.3848131000995636,0.6959235072135925,0.42000001668930054,-0.513581395149231,1.2061541080474854,-1.41891610622406,2.9999985694885254,-0.1613941192626953,-0.16312803328037262,-0.16386672854423523,-0.16515131294727325,-0.142218679189682,-0.06617340445518494,0.004173269495368004,0.06485271453857422
0.8,0.06203272566199303,0.01853829249739647,0.0,0.6268168091773987,0.0,0.0,-0.7791666388511658,-0.019619759172201157,0.027576275169849396,0.0,0.0,0.0,2.2102200984954834,0.3838752210140228,0.7022275924682617,0.4200000464916229,0.5362173914909363,1.4088988109506317e-07,-2.7241328552918276e-06,-0.8440799117088318,2.4129782104864717e-05,-0.0002450441534165293,-7.303035818040371e-05,0.0065522571094334126,-0.0022194734774529934,-0.0007046534446999431,0.43432101607322693,0.7259815335273743,0.5372205972671509,0.05641791224479675,0.018626125529408455,0.40317898988723755,0.3848131000995636,0.6959235072135925,0.42000001668930054,-0.49482807517051697,1.0447334051132202,-1.4366686344146729,-2.999999523162842,-0.16805896162986755,-0.1675938218832016,-0.1662563681602478,-0.16561461985111237,-0.23743124306201935,-0.14426755905151367,-0.052544884383678436,0.04001236706972122
0.8166666666666667,0.06419429928064346,0.015135734342038631,0.0,0.6239047646522522,0.0,0.0,-0.7815003395080566,0.12422572076320648,-0.22084516286849976,0.0,0.0,0.0,-1.2269381284713745,0.3838752210140228,0.7022275924682617,0.4200000464916229,0.536217451095581,1.2128342063988384e-07,-2.580360842330265e-06,-0.8440797924995422,2.482240233803168e-05,-0.0002454146451782435,-7.313815876841545e-05,0.006558357737958431,-0.0022122440859675407,-0.0007072201697155833,0.43119722604751587,0.7273777723312378,0.5370531678199768,-0.4768125116825104,0.09665851294994354,-0.23703286051750183,0.3848131000995636,0.6959235072135925,0.42000001668930054,-0.4887171685695648,-0.20966358482837677,-1.3981209993362427,2.999999523162842,-0.16934502124786377,-0.16789022088050842,-0.16557785868644714,-0.16388039290905,-0.10535091906785965,-0.038994643837213516,0.024260640144348145,0.09204127639532089
0.8333333333333334,0.06858465075492859,0.015326665714383125,0.0,0.6326424479484558,0.0,0.0,-0.774444043636322,0.3031778037548065,0.01686256006360054,0.0,0.0,0.0,2.0064518451690674,0.3838752210140228,0.7022275924682617,0.4200000464916229,0.536217212677002,1.1688634771189754e-07,-2.4442515496048145e-06,-0.8440800309181213,2.5286983145633712e-05,-0.0002453080960549414,-7.325527258217335e-05,0.0065528471022844315,-0.0022071085404604673,-0.0007077669724822044,0.42504453659057617,0.7271784543991089,0.5347888469696045,-0.22021067142486572,0.0044900793582201,-0.014691248536109924,0.3848131000995636,0.6959235072135925,0.42000001668930054,-0.515470027923584,-2.7576193809509277,-1.416288137435913,-3.000000476837158,-0.17255333065986633,-0.16990414261817932,-0.16635404527187347,-0.16323122382164001,-0.061881959438323975,-0.026617879047989845,0.019060146063566208,0.08534107357263565
0.85,0.07486144453287125,0.012206444516777992,0.0,0.6280531287193298,0.0,0.0,-0.7781704664230347,0.41005682945251465,-0.2209130972623825,0.0,0.0,0.0,-1.6236145496368408,0.3838752210140228,0.7022275924682617,0.4200000464916229,0.5362173318862915,1.5453068158421956e-07,-2.6365848952991655e-06,-0.8440799117088318,2.460915857227519e-05,-0.00024544846382923424,-7.311045192182064e-05,0.0065601663663983345,-0.0022153875324875116,-0.0007066206308081746,0.42399704456329346,0.7261722087860107,0.5289450883865356,0.034628044813871384,-0.20700041949748993,-0.4981117248535156,0.3848131000995636,0.6959235072135925,0.42000001668930054,-0.5650053024291992,-2.9999964237213135,-1.466306447982788,-3.0000007152557373,-0.17233437299728394,-0.16908423602581024,-0.16469299793243408,-0.1603144109249115,-0.04026498273015022,0.024882782250642776,0.10449771583080292,0.20858189463615417
0.8666666666666667,0.08345924317836761,0.006404212210327387,0.0,0.60235995054245,0.0,0.0,-0.7982246279716492,0.555209755897522,-0.441032737493515,0.0,0.0,0.0,-4.774585247039795,0.3838752210140228,0.7022275924682617,0.4200000464916229,0.5362173318862915,1.4291154570855724e-07,-2.6388368041807553e-06,-0.8440799117088318,2.4803390260785818e-05,-0.0002454753266647458,-7.317285053431988e-05,0.006559695117175579,-0.0022139488719403744,-0.0007071748841553926,0.42768803238868713,0.7208975553512573,0.5249700546264648,0.43205201625823975,-0.4017549455165863,0.15669196844100952,0.3848131000995636,0.6959235072135925,0.42000001668930054,-0.6150121688842773,-2.999979257583618,-1.516324758529663,-2.9999992847442627,-0.17470555007457733,-0.1702142208814621,-0.16435004770755768,-0.15810255706310272,-0.15305806696414948,-0.08064044266939163,0.004952126182615757,0.11367981880903244
0.8833333333333333,0.09497147798538208,0.0037971590645611286,0.0,0.5908284187316895,0.0,0.0,-0.8067972660064697,0.701850175857544,-0.11795784533023834,0.0,0.0,0.0,-0.6645587086677551,0.3838752210140228,0.7022275924682617,0.4200000464916229,0.5362173318862915,1.3849209778982186e-07,-2.6399732178106206e-06,-0.8440799117088318,2.4926470359787345e-05,-0.0002454211935400963,-7.31979962438345e-05,0.0065575591288506985,-0.0022122187074273825,-0.0007073060842230916,0.43351152539253235,0.7188595533370972,0.532134473323822,0.34402725100517273,0.16566093266010284,0.644971489906311,0.3848131000995636,0.6959235072135925,0.42000001668930054,-0.6334976553916931,0.4947924017906189,-1.566343069076538,-3.0000007152557373,-0.1785137951374054,-0.17331907153129578,-0.1666347086429596,-0.1592773050069809,-0.06733617931604385,-0.09823064506053925,-0.12317781895399094,-0.1304958015680313
0.9,0.10317973792552948,0.003557207528501749,0.0,0.6043165326118469,0.0,0.0,-0.7967443466186523,0.4191801846027374,0.027256637811660767,0.0,0.0,0.0,2.8563928604125977,0.3838752210140228,0.7022275924682617,0.4200000464916229,0.5362173318862915,1.3393992048804648e-07,-2.641341552589438e-06,-0.8440799117088318,2.4928192942752503e-05,-0.00024541898164898157,-7.319985888898373e-05,0.006557524669915438,-0.0022122161462903023,-0.0007073073065839708,0.43999817967414856,0.7229727506637573,0.538275957107544,0.3619067370891571,0.2985159754753113,0.12943336367607117,0.3848131000995636,0.6959235072135925,0.42000001668930054,-0.6050460338592529,2.702934741973877,-1.527422547340393,3.0,-0.177560493350029,-0.17327046394348145,-0.16740669310092926,-0.16059653460979462,0.12723596394062042,0.06347087770700455,0.0015280806692317128,-0.047467563301324844
0.9166666666666666,0.10666480660438538,-0.0007923186640255153,0.0,0.6049566864967346,0.0,0.0,-0.7962583303451538,0.17685918509960175,-0.28913259506225586,0.0,0.0,0.0,-0.8567786812782288,0.3838752210140228,0.7022275924682617,0.4200000464916229,0.5362173318862915,1.2210212219088135e-07,-2.6438176519150147e-06,-0.8440799117088318,2.4926130208768882e-05,-0.0002455061476211995,-7.320428267121315e-05,0.006559723988175392,-0.0022127910051494837,-0.0007075385074131191,0.4415282607078552,0.7274678349494934,0.5371840000152588,-0.19292457401752472,0.13773688673973083,-0.12381397187709808,0.3848131000995636,0.6959235072135925,0.42000001668930054,-0.5935031771659851,-1.0050020217895508,-1.4773660898208618,3.0,-0.17291246354579926,-0.16997936367988586,-0.16546273231506348,-0.15980756282806396,0.13789261877536774,0.09260956197977066,0.0427490696310997,-0.002211747458204627
