vladlanda/robotic-transformer/data/env_000_episode_0089.csv
sim_time_s,robot_box_x,robot_box_y,robot_box_z,robot_box_quat_w,robot_box_quat_x,robot_box_quat_y,robot_box_quat_z,robot_box_linvel_x,robot_box_linvel_y,robot_box_linvel_z,robot_box_angvel_x,robot_box_angvel_y,robot_box_angvel_z,cube_world_x,cube_world_y,cube_world_z,cube_quat_w,cube_quat_x,cube_quat_y,cube_quat_z,cube_linvel_x,cube_linvel_y,cube_linvel_z,cube_angvel_x,cube_angvel_y,cube_angvel_z,endpoint_world_x,endpoint_world_y,endpoint_world_z,endpoint_linvel_x,endpoint_linvel_y,endpoint_linvel_z,target_cube_world_x,target_cube_world_y,target_cube_world_z,gripper_actual_pos_rad_gp_leftgearjoint,gripper_actual_vel_rad_s_gp_leftgearjoint,gripper_actual_pos_rad_gp_rotatingjoint,gripper_actual_vel_rad_s_gp_rotatingjoint,motor_angle_rad_joint1,motor_angle_rad_joint2,motor_angle_rad_joint3,motor_angle_rad_joint4,motor_speed_rad_s_joint1,motor_speed_rad_s_joint2,motor_speed_rad_s_joint3,motor_speed_rad_s_joint4
0.0,0.0,0.0,0.0,1.0,0.0,0.0,0.0,0.0,0.0,0.0,0.0,0.0,0.0,-0.3374387323856354,0.7718762755393982,0.41999998688697815,1.0,0.0,0.0,0.0,0.0,0.0,0.0,0.0,0.0,0.0,3.42540442943573e-06,-0.005000244826078415,1.313499927520752,0.0,0.0,0.0,0.3848157823085785,0.6375199556350708,0.42000001668930054,-1.5707999467849731,0.0,0.0,0.0,0.0,0.0,0.0,0.0,0.0,0.0,0.0,0.0
0.016666666666666666,0.002877597464248538,0.0021456757094711065,0.0,0.9998407959938049,0.0,0.0,-0.017844710499048233,0.23937800526618958,0.17987796664237976,0.0,0.0,0.0,-3.1457343101501465,-0.3374388515949249,0.7718759775161743,0.41999998688697815,1.0,3.2799914606584935e-06,-8.339814598912199e-07,8.465387679734704e-08,-1.9833554688375443e-05,0.00017983050202019513,-6.133061833679676e-05,0.0009432226070202887,-0.004689437802881002,-0.0003198152990080416,-0.006985895335674286,0.004085978958755732,1.3159288167953491,-0.7941960096359253,1.0444221496582031,0.1792883276939392,0.3848157823085785,0.6375199556350708,0.42000001668930054,-1.5301092863082886,3.000002145767212,-0.04586897790431976,-3.0000009536743164,0.0008666077628731728,0.0007931367726996541,0.0007074284949339926,0.0006081689498387277,0.1104336827993393,0.09699605405330658,0.08269955962896347,0.06748838722705841
0.03333333333333333,0.008884614333510399,0.0067293415777385235,0.0,0.9998260140419006,0.0,0.0,-0.018653953447937965,0.4029705822467804,0.31386205554008484,0.0,0.0,0.0,0.8655920028686523,-0.3374389708042145,0.7718759179115295,0.4200000464916229,1.0,3.3908515888469992e-06,-2.13249495573109e-06,-3.7115494677664174e-08,0.000263578025624156,0.00026937643997371197,-0.00010509369894862175,-0.0017706367652863264,0.004130816552788019,-0.00013547707931138575,-0.024370547384023666,0.02568637579679489,1.3170702457427979,-1.2397027015686035,1.5751032829284668,-0.020141281187534332,0.3848157823085785,0.6375199556350708,0.42000001668930054,-1.4800899028778076,2.999999761581421,-0.0959087610244751,-3.0000011920928955,0.002701134653761983,0.0022781130392104387,0.0018177935853600502,0.001317139365710318,0.13212190568447113,0.09923340380191803,0.0648464560508728,0.0288705974817276
0.05,0.017542781308293343,0.013527421280741692,0.0,0.9994316101074219,0.0,0.0,-0.03371092677116394,0.5819218158721924,0.45046889781951904,0.0,0.0,0.0,-2.6382269859313965,-0.33743900060653687,0.7718759775161743,0.4200000464916229,1.0,3.765189603655017e-06,-2.2119716049928684e-06,5.599928076804872e-09,0.00026530888862907887,0.00026691562379710376,-0.00010440615005791187,-0.0017244024202227592,0.004177452065050602,-0.00012949395750183612,-0.04517459496855736,0.05759575217962265,1.3144466876983643,-1.251444697380066,2.2020325660705566,-0.2735651433467865,0.3848157823085785,0.6375199556350708,0.42000001668930054,-1.4300715923309326,3.000000476837158,-0.14592976868152618,-3.0000011920928955,0.004319448489695787,0.003157283179461956,0.001924476702697575,0.0006160472985357046,0.09344792366027832,0.034357380121946335,-0.026624295860528946,-0.08954222500324249
0.06666666666666667,0.02972729317843914,0.02280454896390438,0.0,0.9971394538879395,0.0,0.0,-0.07558366656303406,0.7909352779388428,0.6014806032180786,0.0,0.0,0.0,-5.860718727111816,-0.33743900060653687,0.7718759179115295,0.4200000464916229,0.9999999403953552,3.4067852539010346e-06,-2.285639766341774e-06,4.30075232316085e-07,0.0002670250250957906,0.00026791656273417175,-0.0001043803058564663,-0.001740635372698307,0.004211715888231993,-0.00012850323400925845,-0.06704883277416229,0.0970982015132904,1.3083302974700928,-1.3633474111557007,2.5145764350891113,-0.46331605315208435,0.3848157823085785,0.6375199556350708,0.42000001668930054,-1.3800517320632935,2.9999921321868896,-0.11242496967315674,2.999999523162842,0.00534958066418767,0.0031805341131985188,0.0009017874835990369,-0.0014914368512108922,0.049287863075733185,-0.015639252960681915,-0.08262687921524048,-0.15166515111923218
0.08333333333333333,0.0360819511115551,0.036798812448978424,0.0,0.994965136051178,0.0,0.0,-0.10022182017564774,0.24810445308685303,0.9306746125221252,0.0,0.0,0.0,-1.9049030542373657,-0.33743900060653687,0.7718759179115295,0.4200000464916229,0.9999999403953552,3.6261167224438395e-06,-2.3353582037088927e-06,3.0319867505568254e-07,0.0002661397447809577,0.00026685098418965936,-0.00010405061766505241,-0.0017283124616369605,0.004196389112621546,-0.00012790902110282332,-0.09316116571426392,0.13612012565135956,1.2983167171478271,-1.573696494102478,2.3957033157348633,-0.6561703085899353,0.3848157823085785,0.6375199556350708,0.42000001668930054,-1.3300572633743286,3.000000476837158,-0.14441657066345215,-3.0,-2.4458884581690654e-05,-0.0028453271370381117,-0.005828825291246176,-0.00898310448974371,-0.42882782220840454,-0.4697501063346863,-0.5133056044578552,-0.5597438216209412
0.1,0.047057993710041046,0.051212720572948456,0.0,0.9907256960868835,0.0,0.0,-0.13587702810764313,0.7326723337173462,0.8954816460609436,0.0,0.0,0.0,-5.154344081878662,-0.33743900060653687,0.7718759179115295,0.4200000464916229,1.0,3.4221743590023834e-06,-2.3086338387656724e-06,1.7961099274543812e-07,0.00026681629242375493,0.00026800515479408205,-0.00010440824553370476,-0.0017429791623726487,0.004207039251923561,-0.00012891215737909079,-0.11523483693599701,0.17871999740600586,1.2892398834228516,-1.0868034362792969,2.8298137187957764,-0.564623236656189,0.3848157823085785,0.6375199556350708,0.42000001668930054,-1.2800469398498535,3.0000009536743164,-0.19442661106586456,-2.9999992847442627,-0.0012441378785297275,-0.0057799071073532104,-0.010463731363415718,-0.01530275959521532,-0.12132656574249268,-0.23004068434238434,-0.3376164138317108,-0.4439524710178375
0.11666666666666667,0.05613591894507408,0.06343551725149155,0.0,0.9875696301460266,0.0,0.0,-0.15718196332454681,0.5042807459831238,0.6806250810623169,0.0,0.0,0.0,-0.9692664742469788,-0.33743900060653687,0.7718759775161743,0.4200000464916229,1.0,3.7115494251338532e-06,-2.3327434064412955e-06,2.5741127274159226e-07,0.00026485565467737615,0.0002663536579348147,-0.00010423408821225166,-0.0017182460287585855,0.004170051775872707,-0.00012915929255541414,-0.13918711245059967,0.22621868550777435,1.2765510082244873,-1.6011090278625488,3.0341804027557373,-0.8888040781021118,0.3848157823085785,0.6375199556350708,0.42000001668930054,-1.2392151355743408,1.9564355611801147,-0.16063661873340607,3.0000011920928955,-0.004337987396866083,-0.010480980388820171,-0.016739455983042717,-0.023119306191802025,-0.1806657910346985,-0.27190181612968445,-0.3603200614452362,-0.4457959234714508
0.13333333333333333,0.06161614507436752,0.075445756316185,0.0,0.9827242493629456,0.0,0.0,-0.1850758194923401,0.25829362869262695,0.7705997824668884,0.0,0.0,0.0,-4.175085544586182,-0.33743900060653687,0.7718759179115295,0.4200000464916229,1.0,3.3357478059770074e-06,-2.231917051176424e-06,3.1129582112043863e-07,0.00026669760700315237,0.0002675955183804035,-0.00010428694076836109,-0.0017371423309668899,0.004205842036753893,-0.00012839908595196903,-0.16358649730682373,0.2816373407840729,1.2599775791168213,-1.3279708623886108,3.626499891281128,-1.128066062927246,0.3848157823085785,0.6375199556350708,0.42000001668930054,-1.1923578977584839,3.000001907348633,-0.19237802922725677,-2.999999761581421,-0.008238790556788445,-0.01593594253063202,-0.023683927953243256,-0.03148623928427696,-0.291197270154953,-0.3785956799983978,-0.4618399739265442,-0.5407971739768982
0.15,0.06335317343473434,0.08989989757537842,0.0,0.9711703658103943,0.0,0.0,-0.2383866310119629,0.027332253754138947,0.937857449054718,0.0,0.0,0.0,-7.362690448760986,-0.33743900060653687,0.7718759179115295,0.4200000464916229,1.0,3.518990752127138e-06,-2.2831172827864066e-06,-3.6256801649869885e-07,0.00026618465199135244,0.00026735785650089383,-0.0001042571384459734,-0.0017350201960653067,0.004195850808173418,-0.0001286099577555433,-0.1889912486076355,0.3456977307796478,1.2362124919891357,-1.5894157886505127,4.0676727294921875,-1.7235227823257446,0.3848157823085785,0.6375199556350708,0.42000001668930054,-1.163179636001587,0.6772222518920898,-0.15863211452960968,3.0000007152557373,-0.013938064686954021,-0.022862695157527924,-0.03175570070743561,-0.04061869904398918,-0.3953605890274048,-0.4490794539451599,-0.4979899823665619,-0.5420492887496948
0.16666666666666666,0.07018483430147171,0.10052777081727982,0.0,0.9617823362350464,0.0,0.0,-0.2738152742385864,0.47779160737991333,0.619953989982605,0.0,0.0,0.0,-3.235889196395874,-0.33743900060653687,0.7718759179115295,0.4200000464916229,1.0,3.6666649521066574e-06,-2.339138518436812e-06,-3.1501363650932035e-07,0.0002659583406057209,0.00026667420752346516,-0.0001040350180119276,-0.0017253097612410784,0.00419278210029006,-0.0001277868141187355,-0.22094294428825378,0.412929892539978,1.2029813528060913,-1.8153283596038818,4.304746627807617,-2.346076011657715,0.3848157823085785,0.6375199556350708,0.42000001668930054,-1.1217819452285767,2.9999990463256836,-0.19033995270729065,-3.0000014305114746,-0.016523974016308784,-0.026460571214556694,-0.03627822920680046,-0.04597838968038559,-0.3078080415725708,-0.33362141251564026,-0.35630860924720764,-0.37598004937171936
0.18333333333333332,0.07267505675554276,0.1104564368724823,0.0,0.9469897150993347,0.0,0.0,-0.3212638199329376,0.045403774827718735,0.5353009104728699,0.0,0.0,0.0,-6.8571648597717285,-0.33743900060653687,0.7718759179115295,0.4200000464916229,1.0,3.814403271462652e-06,-2.3994771254365332e-06,-2.7028366389458824e-07,0.00026548991445451975,0.0002661106991581619,-0.00010391208343207836,-0.0017177541740238667,0.004184815101325512,-0.00012754372437484562,-0.24952106177806854,0.4857577085494995,1.1550438404083252,-1.4248366355895996,4.581214904785156,-3.2713112831115723,0.3848157823085785,0.6375199556350708,0.42000001668930054,-1.0717825889587402,3.0000038146972656,-0.2403707206249237,-2.999999761581421,-0.02825985476374626,-0.03764769434928894,-0.046925392001867294,-0.05610693246126175,-0.8405097723007202,-0.7857755422592163,-0.7328157424926758,-0.6825100779533386
0.2,0.07684186846017838,0.1205945760011673,0.0,0.9368128180503845,0.0,0.0,-0.34983107447624207,0.2895185053348541,0.6103759407997131,0.0,0.0,0.0,-2.4809443950653076,-0.33743900060653687,0.7718759179115295,0.4200000464916229,1.0,3.600100171752274e-06,-2.291180180691299e-06,-2.2019816015017568e-07,0.00026572911883704364,0.0002664491184987128,-0.00010398216545581818,-0.0017227096250280738,0.004188808612525463,-0.00012773361231666058,-0.2769664227962494,0.5593236684799194,1.0907366275787354,-1.4433040618896484,4.471686840057373,-4.346092700958252,0.3848157823085785,0.6375199556350708,0.42000001668930054,-1.0217795372009277,3.000000238418579,-0.290399968624115,-3.0000009536743164,-0.042497266083955765,-0.050632357597351074,-0.05869615450501442,-0.066720150411129,-0.879772961139679,-0.7930005192756653,-0.708824872970581,-0.6282473206520081
0.21666666666666667,0.0784047544002533,0.13263453543186188,0.0,0.9217236638069153,0.0,0.0,-0.38784730434417725,0.016592660918831825,0.77623450756073,0.0,0.0,0.0,-5.752804756164551,-0.33743900060653687,0.7718759179115295,0.4200000464916229,0.9999999403953552,3.63963158633851e-06,-2.2618542061536573e-06,2.2247830600008456e-07,0.0002668750239536166,0.0002675459545571357,-0.00010411837138235569,-0.0017403949750587344,0.004211075138300657,-0.00012783941929228604,-0.3002791404724121,0.6318972110748291,1.0109785795211792,-1.1163393259048462,4.248108863830566,-5.157720565795898,0.3848157823085785,0.6375199556350708,0.42000001668930054,-0.9717692136764526,2.999999523162842,-0.34042733907699585,-2.999999761581421,-0.05853448063135147,-0.06572689861059189,-0.07232291251420975,-0.07893001288175583,-0.971651017665863,-0.9461586475372314,-0.8589069247245789,-0.7744142413139343
0.23333333333333334,0.07947006821632385,0.13831503689289093,0.0,0.9147696495056152,0.0,0.0,-0.40397587418556213,-0.14486582577228546,0.06541597843170166,0.0,0.0,0.0,-0.4043457806110382,-0.3374389708042145,0.7718759179115295,0.4200000464916229,1.0,3.4206832424388267e-06,-2.316702875759802e-06,2.955990794362151e-07,0.00026680328301154077,0.000268039497314021,-0.0001044231466948986,-0.0017437469214200974,0.0042069340124726295,-0.00012899030116386712,-0.3194124698638916,0.6929375529289246,0.9176316261291504,-0.7574824094772339,3.237539291381836,-6.060384750366211,0.3848157823085785,0.6375199556350708,0.42000001668930054,-0.9217603206634521,2.9999589920043945,-0.3904551863670349,-2.9999923706054688,-0.07288523018360138,-0.07986801862716675,-0.08571574091911316,-0.09152302891016006,-0.8988521695137024,-0.9042451977729797,-0.9049428701400757,-0.9040619134902954
0.25,0.07122601568698883,0.14157801866531372,0.0,0.9094308018684387,0.0,0.0,-0.4158553183078766,-0.58287513256073,0.23020769655704498,0.0,0.0,0.0,-1.920379638671875,-0.33743900060653687,0.7718759179115295,0.4200000464916229,0.9999999403953552,3.3475635063950904e-06,-2.25901885642088e-06,1.8085036401771504e-07,0.00026687642093747854,0.0002679110039025545,-0.00010439194738864899,-0.0017404319951310754,0.004208163358271122,-0.0001287051709368825,-0.33298295736312866,0.7379816174507141,0.8117685914039612,-0.6837765574455261,2.2616162300109863,-6.546751976013184,0.3848157823085785,0.6375199556350708,0.42000001668930054,-0.8717509508132935,2.9999911785125732,-0.440485417842865,-2.999887228012085,-0.0859648734331131,-0.09348238259553909,-0.099861741065979,-0.10614165663719177,-0.763843297958374,-0.7951383590698242,-0.8268054723739624,-0.853692352771759
0.26666666666666666,0.0653233528137207,0.14625588059425354,0.0,0.9108734130859375,0.0,0.0,-0.4126858115196228,-0.34522005915641785,0.3473767042160034,0.0,0.0,0.0,1.753397822380066,-0.33743900060653687,0.7718759179115295,0.4200000464916229,0.9999999403953552,3.535622909112135e-06,-2.300120968357078e-06,-1.2684515127148188e-07,0.00026601762510836124,0.00026712229009717703,-0.00010419590398669243,-0.0017317035235464573,0.0041929371654987335,-0.00012849301856476814,-0.34738725423812866,0.7659330368041992,0.7012640237808228,-0.8850923776626587,0.9573109149932861,-6.653050422668457,0.3848157823085785,0.6375199556350708,0.42000001668930054,-0.8217417597770691,2.99993896484375,-0.4905165433883667,-3.0000007152557373,-0.09987656772136688,-0.10748704522848129,-0.11398501694202423,-0.12016408145427704,-0.9452828168869019,-0.9505554437637329,-0.956238329410553,-0.921558141708374
0.2833333333333333,0.06431154906749725,0.1470479518175125,0.0,0.9077913761138916,0.0,0.0,-0.4194220006465912,0.02406366914510727,-0.01899418607354164,0.0,0.0,0.0,-1.6672885417938232,-0.33743900060653687,0.7718759775161743,0.4200000464916229,1.0,3.5933812796429265e-06,-2.2624792563874507e-06,-5.652345791418156e-08,0.0002670473186299205,0.00026774994330480695,-0.00010416517034173012,-0.0017431509913876653,0.004214108921587467,-0.00012789087486453354,-0.358440101146698,0.7790542840957642,0.5877844095230103,-0.3847227990627289,0.36277514696121216,-6.688827991485596,0.3848157823085785,0.6375199556350708,0.42000001668930054,-0.7717329859733582,3.0000007152557373,-0.5405470728874207,-3.0000007152557373,-0.11629398912191391,-0.12392664700746536,-0.13043102622032166,-0.13641299307346344,-1.009621024131775,-1.0072389841079712,-1.0054216384887695,-1.0039772987365723
0.3,0.061743542551994324,0.14581239223480225,0.0,0.9113811254501343,0.0,0.0,-0.4115633964538574,-0.23100587725639343,-0.09578210115432739,0.0,0.0,0.0,1.894045352935791,-0.3374389708042145,0.7718759179115295,0.4200000464916229,0.9999999403953552,3.7249433262331877e-06,-2.2358831301971804e-06,3.829069044058997e-07,0.00026479671942070127,0.00026673165848478675,-0.00010453932918608189,-0.0017189139034599066,0.004166595172137022,-0.00013016266166232526,-0.36040306091308594,0.7807943820953369,0.48471999168395996,0.19909068942070007,-0.16078314185142517,-5.725634574890137,0.3848157823085785,0.6375199556350708,0.42000001668930054,-0.721724271774292,3.0000016689300537,-0.5905756950378418,-3.000001907348633,-0.13420981168746948,-0.1415552794933319,-0.14784568548202515,-0.15366092324256897,-1.0202691555023193,-1.0153201818466187,-1.011539340019226,-1.00851309299469
0.31666666666666665,0.055187247693538666,0.14300601184368134,0.0,0.908196747303009,0.0,0.0,-0.4185434877872467,-0.4712275266647339,-0.1952720582485199,0.0,0.0,0.0,-1.8193964958190918,-0.33743900060653687,0.7718759179115295,0.4200000464916229,0.9999999403953552,3.557635409379145e-06,-2.2786798581364565e-06,2.283793776314269e-07,0.0002659858437255025,0.0002665850333869457,-0.00010399171151220798,-0.0017241572495549917,0.004193597007542849,-0.00012769611203111708,-0.35838472843170166,0.7801844477653503,0.4304884076118469,0.09397386014461517,-0.02174457162618637,-0.22279122471809387,0.3848157823085785,0.6375199556350708,0.42000001668930054,-0.6717190742492676,2.999753713607788,-0.6409613490104675,-3.000072956085205,-0.1492394506931305,-0.1566658616065979,-0.16286146640777588,-0.16832423210144043,-0.5876771211624146,-0.6368219256401062,-0.6523602604866028,-0.6274851560592651
0.3333333333333333,0.04513830691576004,0.13866111636161804,0.0,0.9116979837417603,0.0,0.0,-0.4108610451221466,-0.6537991762161255,-0.292277455329895,0.0,0.0,0.0,1.9229212999343872,-0.3358992040157318,0.7741036415100098,0.4200000464916229,0.9998575448989868,8.963902331515783e-08,3.779377095725067e-07,-0.016878297552466393,0.07586775720119476,0.10451778769493103,-1.6980338841676712e-06,8.463736594421789e-05,-1.7211646081705112e-06,-1.1010735034942627,-0.3547305464744568,0.7826881408691406,0.4275510907173157,0.40490514039993286,0.040024109184741974,-0.2223999798297882,0.3848157823085785,0.6375199556350708,0.42000001668930054,-0.6217126846313477,2.9999797344207764,-0.691023051738739,-2.999865770339966,-0.16220250725746155,-0.168707475066185,-0.17350973188877106,-0.17702895402908325,-0.8433086276054382,-0.7272660136222839,-0.5873277187347412,-0.4199284613132477
0.35,0.03368672728538513,0.13156352937221527,0.0,0.9086101651191711,0.0,0.0,-0.41764524579048157,-0.6564450860023499,-0.4995202422142029,0.0,0.0,0.0,-1.8383063077926636,-0.3301039934158325,0.7742376923561096,0.42000001668930054,0.9945454597473145,7.198707862698939e-06,9.418537416649997e-08,-0.10430405288934708,0.3465825319290161,-0.02379348874092102,-2.5766436010599136e-05,-0.0012726897839456797,0.00014628359349444509,-9.532096862792969,-0.3468581438064575,0.7817734479904175,0.42398715019226074,0.6120441555976868,-0.05527833476662636,-0.20670203864574432,0.3848157823085785,0.6375199556350708,0.42000001668930054,-0.5717077851295471,2.999976396560669,-0.7410669326782227,-2.999950408935547,-0.175048366189003,-0.1793127954006195,-0.1814863681793213,-0.18194042146205902,-0.6327332854270935,-0.4948626756668091,-0.3354020118713379,-0.1516919881105423
0.36666666666666664,0.02137485332787037,0.12161271274089813,0.0,0.9121056199073792,0.0,0.0,-0.4099552631378174,-0.7773377299308777,-0.6366989612579346,0.0,0.0,0.0,1.9375519752502441,-0.3239729702472687,0.7751947641372681,0.4200000464916229,0.981548011302948,8.762172143406133e-08,3.2029797694121953e-06,-0.1912156492471695,0.4576307237148285,0.17099504172801971,-0.00015235958562698215,0.008044571615755558,-0.003491718089208007,-14.7674560546875,-0.33479180932044983,0.7837762832641602,0.42115968465805054,0.7783359885215759,0.23922425508499146,-0.12564988434314728,0.3848157823085785,0.6375199556350708,0.42000001668930054,-0.5217028856277466,2.999966621398926,-0.7911149859428406,-2.9999642372131348,-0.18551947176456451,-0.18718445301055908,-0.18647171556949615,-0.18372415006160736,-0.5440945029258728,-0.3932237923145294,-0.22865286469459534,-0.04879062995314598
0.3833333333333333,0.007836113683879375,0.10947806388139725,0.0,0.9090300798416138,0.0,0.0,-0.4167305529117584,-0.8990715742111206,-0.7814042568206787,0.0,0.0,0.0,-1.770430088043213,-0.31354907155036926,0.7802671790122986,0.4200007915496826,0.9606068730354309,2.0102834241697565e-06,2.3772812710376456e-05,-0.27791067957878113,0.7325184941291809,0.3800511658191681,-0.0009525228524580598,-0.005064946133643389,-0.04163401946425438,-4.760182857513428,-0.3199598491191864,0.7865342497825623,0.4198712110519409,1.00363290309906,0.1880035400390625,-0.08413080871105194,0.3848157823085785,0.6375199556350708,0.42000001668930054,-0.47169870138168335,2.9999637603759766,-0.8411659598350525,-2.9984030723571777,-0.19421622157096863,-0.1930551826953888,-0.18928903341293335,-0.18325643241405487,-0.4368649423122406,-0.274394154548645,-0.09657885134220123,0.09605048596858978
0.4,-0.003519671503454447,0.09464751929044724,0.0,0.8937067985534668,0.0,0.0,-0.4486514925956726,-0.6037103533744812,-0.9407944679260254,0.0,0.0,0.0,-5.109324932098389,-0.29533398151397705,0.7894446849822998,0.4215664863586426,0.9489073157310486,-0.014704993925988674,-0.007069342769682407,-0.315132737159729,1.2695108652114868,0.7294237613677979,0.19067417085170746,9.04378890991211,-4.824876308441162,-6.715682029724121,-0.3007412552833557,0.7941664457321167,0.42108723521232605,1.464306354522705,0.7536165714263916,0.1468418389558792,0.3848157823085785,0.6375199556350708,0.42000001668930054,-0.42165446281433105,2.945161819458008,-0.8911898732185364,-3.000636339187622,-0.20033013820648193,-0.19657254219055176,-0.18987947702407837,-0.18061555922031403,-0.2635328471660614,-0.11964160203933716,0.04477621614933014,0.22786785662174225
0.4166666666666667,-0.010576660744845867,0.07678239792585373,0.0,0.8640347123146057,0.0,0.0,-0.5034322142601013,-0.35445818305015564,-1.128915786743164,0.0,0.0,0.0,-8.317899703979492,-0.26107871532440186,0.8059893846511841,0.4263453185558319,0.92787104845047,-0.024366989731788635,-0.03261938318610191,-0.37067148089408875,3.129462480545044,1.121544599533081,0.28222477436065674,23.053213119506836,-20.49993896484375,11.811375617980957,-0.2656469941139221,0.8112211227416992,0.4251643419265747,2.8023667335510254,1.2870838642120361,0.5856904983520508,0.3848157823085785,0.6375199556350708,0.42000001668930054,-0.38801032304763794,1.1249908208847046,-0.9412122964859009,-3.000000476837158,-0.2056063413619995,-0.19918812811374664,-0.18956252932548523,-0.17714637517929077,-0.34261199831962585,-0.16355213522911072,0.026433493942022324,0.2232145369052887
0.43333333333333335,-0.015152192674577236,0.06429525464773178,0.0,0.8173115253448486,0.0,0.0,-0.576196014881134,-0.22894588112831116,-0.6140657067298889,0.0,0.0,0.0,-11.151123046875,-0.18877649307250977,0.8283205032348633,0.4335412085056305,0.9050326943397522,0.021657731384038925,-0.07414094358682632,-0.418270081281662,5.84921932220459,0.9856023788452148,0.46280255913734436,10.58989143371582,-15.280434608459473,19.58651351928711,-0.19252800941467285,0.8341374397277832,0.4323022961616516,5.630242824554443,1.621084451675415,0.5360961556434631,0.3848157823085785,0.6375199556350708,0.42000001668930054,-0.37274935841560364,0.8649203777313232,-0.9079940915107727,2.9969873428344727,-0.2190544307231903,-0.20787440240383148,-0.19367186725139618,-0.17702236771583557,-0.8956052660942078,-0.5995274186134338,-0.3243647515773773,-0.08368324488401413
0.45,-0.023479679599404335,0.058743249624967575,0.0,0.7788930535316467,0.0,0.0,-0.6271567940711975,-0.5506774187088013,-0.33114951848983765,0.0,0.0,0.0,-6.3522491455078125,-0.09825056791305542,0.8473355174064636,0.44523850083351135,0.8625205755233765,0.057978756725788116,-0.09604790061712265,-0.49342823028564453,5.507956504821777,0.34182214736938477,0.8421301245689392,3.3524954319000244,-12.216341972351074,13.799708366394043,-0.10115410387516022,0.8547188639640808,0.4440743029117584,5.547075271606445,0.991312563419342,0.8283106088638306,0.3848157823085785,0.6375199556350708,0.42000001668930054,-0.35787299275398254,0.9300034642219543,-0.9340351223945618,-3.0000016689300537,-0.2329442948102951,-0.2206171751022339,-0.2019980400800705,-0.1816922128200531,-0.6340759992599487,-0.6093963980674744,-0.421602338552475,-0.27609115839004517
0.4666666666666667,-0.026768876239657402,0.04604030027985573,0.0,0.7612512707710266,0.0,0.0,-0.6484570503234863,-0.10648483783006668,-0.9076735377311707,0.0,0.0,0.0,-2.362196922302246,-0.00707906112074852,0.8552467226982117,0.45792821049690247,0.8116356730461121,0.06014333292841911,-0.0906292125582695,-0.5739482045173645,5.470794200897217,-0.8578590750694275,0.8429447412490845,-0.6002899408340454,-8.761484146118164,11.124720573425293,-0.00883759930729866,0.8624114990234375,0.45723098516464233,5.529112815856934,-0.15168330073356628,0.8971077799797058,0.3848157823085785,0.6375199556350708,0.42000001668930054,-0.34033530950546265,1.047837734222412,-0.9840590953826904,-3.0000011920928955,-0.23744156956672668,-0.22454074025154114,-0.20319104194641113,-0.18070700764656067,-0.18371346592903137,-0.10270652920007706,0.07454878836870193,0.22187161445617676
0.48333333333333334,-0.03186974674463272,0.03535274788737297,0.0,0.7352859973907471,0.0,0.0,-0.6777569651603699,-0.3389643728733063,-0.5678818821907043,0.0,0.0,0.0,-5.45499324798584,0.08055777847766876,0.8453367352485657,0.46831926703453064,0.7550105452537537,0.047207433730363846,-0.08508864045143127,-0.6484523415565491,4.882058143615723,-1.7562808990478516,0.5109940767288208,1.4192808866500854,-11.404132843017578,28.068424224853516,0.07921791076660156,0.8531754612922668,0.46847209334373474,5.2691569328308105,-0.931037962436676,0.6286306381225586,0.3848157823085785,0.6375199556350708,0.42000001668930054,-0.3241763710975647,0.7664926648139954,-1.0340818166732788,-3.0000014305114746,-0.24001656472682953,-0.22734017670154572,-0.20335999131202698,-0.17870524525642395,-0.039555471390485764,-0.11666534841060638,0.00851576216518879,0.10942643135786057
0.5,-0.03484656661748886,0.029594270512461662,0.0,0.7238372564315796,0.0,0.0,-0.6899707317352295,-0.1064765527844429,-0.22824329137802124,0.0,0.0,0.0,-0.8341577649116516,0.15878213942050934,0.8246492147445679,0.47493496537208557,0.7089793682098389,0.0340166836977005,-0.060681600123643875,-0.7017897963523865,4.059677600860596,-2.250692844390869,0.2143990397453308,0.1420639455318451,-5.316749095916748,19.303403854370117,0.15854135155677795,0.8315484523773193,0.47509658336639404,4.4600067138671875,-1.6315245628356934,0.3269200623035431,0.3848157823085785,0.6375199556350708,0.42000001668930054,-0.31206464767456055,0.6400052905082703,-1.0841039419174194,-3.0000016689300537,-0.23990724980831146,-0.22944405674934387,-0.2038591206073761,-0.17802594602108002,0.012492630630731583,-0.07921423017978668,-0.017820117995142937,0.01725202612578869
0.5166666666666666,-0.03418297320604324,0.022081533446907997,0.0,0.7048789858818054,0.0,0.0,-0.7093275785446167,0.09488467127084732,-0.49647846817970276,0.0,0.0,0.0,-4.088229656219482,0.22547905147075653,0.7963645458221436,0.4740246832370758,0.6644172072410583,0.006359073333442211,-0.043407950550317764,-0.7460730075836182,3.347696542739868,-2.4454402923583984,-0.11022822558879852,9.112567901611328,-8.809358596801758,21.405195236206055,0.2253699004650116,0.8033401966094971,0.47533339262008667,3.7273378372192383,-1.9102036952972412,-0.14899128675460815,0.3848157823085785,0.6375199556350708,0.42000001668930054,-0.2998950779438019,0.6967626214027405,-1.13412606716156,-3.000001907348633,-0.23715278506278992,-0.2280626893043518,-0.20224635303020477,-0.176531583070755,0.170107901096344,0.12414422631263733,0.1218193843960762,0.09906341880559921
0.5333333333333333,-0.033822089433670044,0.019121242687106133,0.0,0.6985422968864441,0.0,0.0,-0.7155687212944031,-0.021685153245925903,-0.0775662288069725,0.0,0.0,0.0,-0.011893871240317822,0.27925968170166016,0.7615795135498047,0.4684063196182251,0.6281160116195679,-0.032176725566387177,-0.02418932132422924,-0.7770776748657227,2.562511682510376,-2.6391682624816895,-0.3970087170600891,1.6535812616348267,-1.182460069656372,15.061485290527344,0.27955782413482666,0.7675529718399048,0.470429390668869,2.9505069255828857,-2.2505719661712646,-0.4297966957092285,0.3848157823085785,0.6375199556350708,0.42000001668930054,-0.2874336540699005,0.7352562546730042,-1.1841481924057007,-3.0000016689300537,-0.23618659377098083,-0.22726555168628693,-0.20169509947299957,-0.17659097909927368,0.15516439080238342,0.12806668877601624,0.06143871322274208,-0.02123916521668434
0.55,-0.03155742585659027,0.01227295771241188,0.0,0.6828703880310059,0.0,0.0,-0.7305395007133484,0.15482056140899658,-0.44594693183898926,0.0,0.0,0.0,-3.438265085220337,0.32351627945899963,0.728404700756073,0.45555269718170166,0.5983729958534241,-0.06351754814386368,0.001946914941072464,-0.7986935973167419,1.9482640027999878,-2.426346778869629,-0.8608854413032532,-0.08567909151315689,0.2929013669490814,20.283241271972656,0.32414400577545166,0.7336243391036987,0.45785582065582275,2.4170708656311035,-2.010294198989868,-0.9233253002166748,0.3848157823085785,0.6375199556350708,0.42000001668930054,-0.27454638481140137,0.6769188046455383,-1.2341703176498413,-3.000000476837158,-0.2275068759918213,-0.22018608450889587,-0.1973014920949936,-0.17497247457504272,0.5184687972068787,0.43243181705474854,0.25323179364204407,0.06868638843297958
0.5666666666666667,-0.02714519202709198,0.009865066036581993,0.0,0.679685652256012,0.0,0.0,-0.733503520488739,0.30540141463279724,-0.14227040112018585,0.0,0.0,0.0,0.3267515003681183,0.35598233342170715,0.6951466202735901,0.4374343156814575,0.573566198348999,-0.07765066623687744,-0.0016444233478978276,-0.8154688477516174,1.2645494937896729,-2.34415340423584,-1.1298158168792725,-0.18534916639328003,-3.4615015983581543,18.29863166809082,0.35607755184173584,0.6994820833206177,0.43988561630249023,1.6954917907714844,-2.0040597915649414,-1.199573040008545,0.3848157823085785,0.6375199556350708,0.42000001668930054,-0.26247918605804443,0.6733928322792053,-1.2022044658660889,2.9989771842956543,-0.22115449607372284,-0.21487295627593994,-0.1949458122253418,-0.175678089261055,0.5021749138832092,0.4050622284412384,0.18259887397289276,-0.03881348669528961
0.5833333333333334,-0.020285319536924362,0.003288127249106765,0.0,0.6657213568687439,0.0,0.0,-0.7462003827095032,0.4278835356235504,-0.42440375685691833,0.0,0.0,0.0,-3.1343436241149902,0.3750123381614685,0.6746571660041809,0.4261625111103058,0.5634838342666626,-0.11954929679632187,0.00907957460731268,-0.8173808455467224,0.6398190855979919,-0.5356932282447815,-0.14237529039382935,-1.320764183998108,-6.703136920928955,21.88436508178711,0.3747948408126831,0.6781934499740601,0.42963069677352905,0.5552324652671814,-0.737000584602356,0.11629275977611542,0.3848157823085785,0.6375199556350708,0.42000001668930054,-0.24821823835372925,0.957783579826355,-1.2231895923614502,-3.0003302097320557,-0.20882393419742584,-0.2051554173231125,-0.1899319291114807,-0.17514218389987946,0.7246702313423157,0.5685198307037354,0.283625066280365,0.016442902386188507
0.6,-0.015591477043926716,0.00016470988339278847,0.0,0.6648595333099365,0.0,0.0,-0.7469684481620789,0.2203495353460312,-0.1466153860092163,0.0,0.0,0.0,0.7123562693595886,0.3831343650817871,0.6613346934318542,0.42501917481422424,0.5606566071510315,-0.09382075816392899,0.01691899262368679,-0.822542130947113,0.5309627056121826,-0.9038938879966736,-0.16867847740650177,-3.6625547409057617,-9.633625984191895,-0.7713047862052917,0.38157761096954346,0.6641207933425903,0.4280802309513092,0.2669001519680023,-0.7264024019241333,-0.11904706805944443,0.3848157823085785,0.6375199556350708,0.42000001668930054,-0.23653315007686615,0.3776634633541107,-1.1852251291275024,2.994936227798462,-0.19987915456295013,-0.19827234745025635,-0.187311589717865,-0.17651492357254028,0.5874099731445312,0.44967982172966003,0.1819366067647934,-0.06645563244819641
0.6166666666666667,-0.01010244619101286,-0.005052825435996056,0.0,0.6534456014633179,0.0,0.0,-0.7569735050201416,0.3628888726234436,-0.3829556703567505,0.0,0.0,0.0,-2.631676435470581,0.3867988884449005,0.6544245481491089,0.4216017723083496,0.558387815952301,-0.03356441482901573,-0.02341756969690323,-0.8285698294639587,-0.06602202355861664,-0.3015730679035187,-0.11255249381065369,5.725165367126465,-2.696824550628662,4.412353038787842,0.38325172662734985,0.6573718786239624,0.42614588141441345,0.007159017026424408,-0.2701699435710907,-0.12478701770305634,0.3848157823085785,0.6375199556350708,0.42000001668930054,-0.22961799800395966,0.43700990080833435,-1.1351765394210815,3.000002145767212,-0.1894698590040207,-0.19027625024318695,-0.1838090717792511,-0.1771440953016281,0.5597063302993774,0.4344053864479065,0.1870191991329193,-0.04065898060798645
0.6333333333333333,-0.0026780765037983656,-0.007610988337546587,0.0,0.6550629734992981,0.0,0.0,-0.7555742859840393,0.4891006052494049,-0.0911017432808876,0.0,0.0,0.0,1.1051620244979858,0.38468676805496216,0.6481289267539978,0.4211834669113159,0.5839411616325378,-0.02352089062333107,-0.018171211704611778,-0.811251699924469,-0.20985490083694458,-0.48596081137657166,-0.03365083783864975,2.0393075942993164,-1.3472211360931396,4.18705940246582,0.38178303837776184,0.6536452770233154,0.4269266128540039,-0.12361712753772736,-0.11890910565853119,0.10801499336957932,0.3848157823085785,0.6375199556350708,0.42000001668930054,-0.26610705256462097,-2.999990701675415,-1.1572009325027466,-2.9996769428253174,-0.18252328038215637,-0.18506072461605072,-0.1822042018175125,-0.17880412936210632,0.4003017544746399,0.2991197109222412,0.09329919517040253,-0.09138568490743637
0.65,0.0069731357507407665,-0.006697593256831169,0.0,0.6753451824188232,0.0,0.0,-0.7375018000602722,0.6329150795936584,0.11269864439964294,0.0,0.0,0.0,4.32692289352417,0.3826678991317749,0.6429871320724487,0.4201435446739197,0.586483359336853,-0.0025892138946801424,-0.001781026367098093,-0.8099550604820251,-0.21748967468738556,-0.36790406703948975,-0.11652649939060211,5.372657775878906,-1.7336180210113525,0.028663022443652153,0.37981951236724854,0.6538314819335938,0.4288400709629059,-0.1365756094455719,0.08453000336885452,0.14219538867473602,0.3848157823085785,0.6375199556350708,0.42000001668930054,-0.3161064386367798,-2.996177911758423,-1.2071688175201416,-3.0000903606414795,-0.1760086864233017,-0.18029814958572388,-0.1807173192501068,-0.18018600344657898,0.4278413653373718,0.32050541043281555,0.13093240559101105,-0.03433027118444443
0.6666666666666666,0.013750728219747543,-0.01109708845615387,0.0,0.6842179894447327,0.0,0.0,-0.7292775511741638,0.37669315934181213,-0.20568788051605225,0.0,0.0,0.0,0.4008845090866089,0.3816108703613281,0.6407685875892639,0.42000725865364075,0.5804667472839355,-0.00016761478036642075,0.0002068904577754438,-0.8142837882041931,-0.1490388810634613,-0.22544343769550323,-0.008890287019312382,-0.12559647858142853,-0.43084365129470825,0.8672277927398682,0.37946125864982605,0.6578031778335571,0.43238765001296997,-0.08291648328304291,0.10663117468357086,0.2285843938589096,0.3848157823085785,0.6375199556350708,0.42000001668930054,-0.3661157786846161,-2.9999992847442627,-1.2571426630020142,-2.9996774196624756,-0.1632414013147354,-0.16979172825813293,-0.17361308634281158,-0.17601028084754944,0.4664163589477539,0.4150972366333008,0.30046379566192627,0.2069845199584961
0.6833333333333333,0.022448724135756493,-0.017897697165608406,0.0,0.6736567616462708,0.0,0.0,-0.7390443682670593,0.5052404403686523,-0.42036426067352295,0.0,0.0,0.0,-2.8653171062469482,0.37971973419189453,0.6379263997077942,0.4200000464916229,0.5848156213760376,1.9388919270113547e-07,3.977052642767376e-07,-0.8111662268638611,-0.101957306265831,-0.1534334421157837,-3.7049176171422005e-06,-0.00016243172285612673,-4.012896533822641e-05,0.5632752776145935,0.3808387219905853,0.6590121984481812,0.43664729595184326,0.1629575788974762,0.01835784502327442,0.3502005934715271,0.3848157823085785,0.6375199556350708,0.42000001668930054,-0.4161292016506195,-3.0,-1.3071616888046265,-3.0000014305114746,-0.15684577822685242,-0.16354601085186005,-0.1683560162782669,-0.1713670939207077,0.20504875481128693,0.2553977966308594,0.2650304436683655,0.2954016923904419
0.7,0.033722903579473495,-0.01930604875087738,0.0,0.639593780040741,0.0,0.0,-0.7687130570411682,0.6439499855041504,-0.05778158828616142,0.0,0.0,0.0,-6.210722923278809,0.37858009338378906,0.6362151503562927,0.4200000464916229,0.5873047709465027,6.123963203208405e-08,2.604556073038111e-07,-0.8093658685684204,-0.05699704959988594,-0.08534149080514908,-2.4621840566396713e-07,2.8770842618541792e-05,9.467774361837655e-06,0.29668909311294556,0.3893558382987976,0.6558466553688049,0.4510576128959656,0.9881486296653748,-0.2495255172252655,1.4499237537384033,0.3848157823085785,0.6375199556350708,0.42000001668930054,-0.4661424160003662,-2.999998092651367,-1.3571799993515015,-3.000000238418579,-0.16127415001392365,-0.16572314500808716,-0.16887855529785156,-0.17000944912433624,-0.2414473593235016,-0.11487448960542679,-0.013385884463787079,0.10348150134086609
0.7166666666666667,0.046335700899362564,-0.017800278961658478,0.0,0.6204854249954224,0.0,0.0,-0.7842179536819458,0.8085320591926575,0.10258770734071732,0.0,0.0,0.0,-1.8431744575500488,0.378179669380188,0.6356169581413269,0.4200001060962677,0.5881265997886658,6.067662070563529e-07,7.290538519555412e-07,-0.8087687492370605,-0.011796356178820133,-0.017434051260352135,-8.082238491624594e-05,-0.0014838946517556906,-0.0003382513241376728,0.0530114620923996,0.40785056352615356,0.6564508080482483,0.47885626554489136,1.2351100444793701,0.26623690128326416,1.859159231185913,0.3848157823085785,0.6375199556350708,0.42000001668930054,-0.49330759048461914,-0.45732104778289795,-1.4071983098983765,-3.000000238418579,-0.1648661345243454,-0.16812215745449066,-0.1704147756099701,-0.170468270778656,-0.1074029728770256,-0.09668826311826706,-0.10106329619884491,-0.09416854381561279
0.7333333333333333,0.05624530091881752,-0.014544429257512093,0.0,0.6268945932388306,0.0,0.0,-0.7791040539741516,0.5131438374519348,0.23622873425483704,0.0,0.0,0.0,1.8756701946258545,0.3781794309616089,0.6356173157691956,0.42000001668930054,0.5881268382072449,-6.566421575371351e-07,-4.1233970478060655e-06,-0.8087686896324158,6.0667021898552775e-05,-0.00017622910672798753,-3.446522168815136e-05,0.00034804537426680326,-0.002969841007143259,-0.0006479811854660511,0.42776381969451904,0.6615920066833496,0.5026548504829407,1.087468147277832,0.3697289526462555,1.067322015762329,0.3848157823085785,0.6375199556350708,0.42000001668930054,-0.48091670870780945,1.7417594194412231,-1.3867250680923462,3.0,-0.16515453159809113,-0.16837315261363983,-0.17081128060817719,-0.17087982594966888,0.057701464742422104,0.05398939922451973,0.041008539497852325,0.03146089240908623
0.75,0.06085051968693733,-0.01693577878177166,0.0,0.6211888194084167,0.0,0.0,-0.783660888671875,0.3014603555202484,-0.13758134841918945,0.0,0.0,0.0,-1.5962215662002563,0.3781793713569641,0.6356173753738403,0.41999995708465576,0.5881265997886658,-1.0960873169096885e-06,-5.562791102420306e-06,-0.8087687492370605,0.00012617713946383446,-0.0004018318431917578,-7.982505485415459e-05,0.009846974164247513,-0.0026417335029691458,-0.0008686381042934954,0.43995440006256104,0.6702121496200562,0.5153792500495911,0.2526983916759491,0.3889649510383606,0.5727078914642334,0.3848157823085785,0.6375199556350708,0.42000001668930054,-0.45983633399009705,0.8492631316184998,-1.3366724252700806,2.999999523162842,-0.158669114112854,-0.16272501647472382,-0.16610819101333618,-0.16709063947200775,0.08774538338184357,0.10853283852338791,0.11819949001073837,0.11826182901859283
0.7666666666666666,0.06318040937185287,-0.01431005634367466,0.0,0.6283684968948364,0.0,0.0,-0.7779158353805542,0.08734063804149628,0.20312489569187164,0.0,0.0,0.0,1.880675196647644,0.3781793713569641,0.6356173753738403,0.41999995708465576,0.5881269574165344,-1.470793790758762e-06,-5.664170657837531e-06,-0.8087685704231262,0.00012515908747445792,-0.00040150192216970026,-7.997127249836922e-05,0.009828091599047184,-0.0026314579881727695,-0.0008656290010549128,0.4402899146080017,0.6756048798561096,0.5215035676956177,-0.1303837150335312,0.37413156032562256,0.18274100124835968,0.3848157823085785,0.6375199556350708,0.42000001668930054,-0.4404101073741913,1.418103575706482,-1.3559151887893677,-3.0,-0.1608690768480301,-0.16379208862781525,-0.1662648767232895,-0.16662579774856567,-0.07680817693471909,-0.022799450904130936,0.019968541339039803,0.04424070194363594
0.7833333333333333,0.06276064366102219,-0.015635458752512932,0.0,0.6231756806373596,0.0,0.0,-0.7820819020271301,-0.05597184598445892,-0.1615387499332428,0.0,0.0,0.0,-1.693949818611145,0.3781793713569641,0.6356173753738403,0.41999995708465576,0.5881268382072449,-1.148556407315482e-06,-5.650295406667283e-06,-0.8087687492370605,0.00012915350089315325,-0.00040333386277779937,-8.000829257071018e-05,0.009891671128571033,-0.0026417614426463842,-0.000878083286806941,0.43182259798049927,0.6819585561752319,0.5184944868087769,-0.8846081495285034,0.36365267634391785,-0.3537561297416687,0.3848157823085785,0.6375199556350708,0.42000001668930054,-0.43931880593299866,-1.0728203058242798,-1.3175933361053467,2.999999523162842,-0.16037015616893768,-0.16268767416477203,-0.1647108793258667,-0.1649380475282669,0.028782004490494728,0.0691952109336853,0.10001250356435776,0.10931413620710373
0.8,0.06424722820520401,-0.011658037081360817,0.0,0.6302500367164612,0.0,0.0,-0.7763922214508057,0.005677821580320597,0.29213687777519226,0.0,0.0,0.0,1.7935882806777954,0.3781793713569641,0.6356173753738403,0.41999995708465576,0.5881268978118896,-1.4347205024023424e-06,-5.670322480000323e-06,-0.808768630027771,0.00012470828369259834,-0.00040134662413038313,-7.997453212738037e-05,0.009822318330407143,-0.002631740877404809,-0.0008643657783977687,0.4172321557998657,0.6863139867782593,0.5116333961486816,-0.7752116918563843,0.3777470588684082,-0.44755882024765015,0.3848157823085785,0.6375199556350708,0.42000001668930054,-0.4549618363380432,-0.8127624988555908,-1.337185263633728,-2.999999761581421,-0.1657954454421997,-0.16638502478599548,-0.16683408617973328,-0.16589422523975372,-0.18849320709705353,-0.1243128627538681,-0.06094430759549141,-0.014100151136517525
0.8166666666666667,0.06634561717510223,-0.011574876494705677,0.0,0.625779390335083,0.0,0.0,-0.7800000905990601,0.18007388710975647,-0.025567546486854553,0.0,0.0,0.0,-1.5012952089309692,0.3781793713569641,0.6356173753738403,0.41999995708465576,0.5881267786026001,-1.0373453278589295e-06,-5.885460268473253e-06,-0.8087687492370605,0.00012204131053294986,-0.00040122109930962324,-7.99521803855896e-05,0.00981453899294138,-0.0026357986498624086,-0.0008574137464165688,0.40621644258499146,0.6901580095291138,0.5012108087539673,-0.627700686454773,0.029809007421135902,-0.6374804377555847,0.3848157823085785,0.6375199556350708,0.42000001668930054,-0.49752888083457947,-3.0000011920928955,-1.3671448230743408,-0.7646247148513794,-0.16692480444908142,-0.1665509194135666,-0.16588661074638367,-0.16395707428455353,-0.1883946806192398,-0.08777599781751633,0.025706490501761436,0.13409587740898132
0.8333333333333334,0.0711616650223732,-0.014695508405566216,0.0,0.6011227965354919,0.0,0.0,-0.799156665802002,0.3361886143684387,-0.2493424266576767,0.0,0.0,0.0,-4.648972511291504,0.3781793713569641,0.6356173753738403,0.41999995708465576,0.5881268382072449,-1.453124355066393e-06,-5.709028755518375e-06,-0.8087685704231262,0.00012425014574546367,-0.00040135165909305215,-7.996615022420883e-05,0.0098217548802495,-0.0026308970991522074,-0.0008631065720692277,0.40238478779792786,0.6890376806259155,0.49494171142578125,0.17087087035179138,-0.14830240607261658,0.032030340284109116,0.3848157823085785,0.6375199556350708,0.42000001668930054,-0.5475432276725769,-2.999938488006592,-1.4127097129821777,-2.999995708465576,-0.17153939604759216,-0.16945898532867432,-0.16682173311710358,-0.16295358538627625,-0.3055473268032074,-0.20586414635181427,-0.08856412023305893,0.02872234396636486
0.85,0.07876855134963989,-0.015070402063429356,0.0,0.5913763046264648,0.0,0.0,-0.8063957691192627,0.4826693534851074,0.03295272961258888,0.0,0.0,0.0,-0.40877336263656616,0.3781793713569641,0.6356173753738403,0.41999995708465576,0.5881268978118896,-1.4581927416656981e-06,-5.769511972175678e-06,-0.8087685704231262,0.00012479098222684115,-0.0004014817241113633,-7.997779175639153e-05,0.009826522320508957,-0.002631819574162364,-0.0008646779460832477,0.40745827555656433,0.6912158727645874,0.5001044869422913,0.43941187858581543,0.3648534417152405,0.5417747497558594,0.3848157823085785,0.6375199556350708,0.42000001668930054,-0.5684592127799988,0.22674459218978882,-1.4627280235290527,-3.0,-0.1769106090068817,-0.17381969094276428,-0.16989484429359436,-0.16473530232906342,-0.22222085297107697,-0.21479618549346924,-0.19125914573669434,-0.1660102903842926
0.8666666666666667,0.08328615874052048,-0.019800515845417976,0.0,0.6062902212142944,0.0,0.0,-0.7952434420585632,0.20933786034584045,-0.31724944710731506,0.0,0.0,0.0,2.8708386421203613,0.3781793713569641,0.6356173753738403,0.41999995708465576,0.5881269574165344,-1.0452968126628548e-06,-5.807970865134848e-06,-0.8087685704231262,0.00012099468585802242,-0.00040123809594661,-7.994868792593479e-05,0.009813403710722923,-0.0026386629324406385,-0.0008549102931283414,0.4155539572238922,0.6961363554000854,0.5053882002830505,0.4328819513320923,0.13676172494888306,0.10877661406993866,0.3848157823085785,0.6375199556350708,0.42000001668930054,-0.5759270787239075,-1.0111092329025269,-1.4241020679473877,2.999999523162842,-0.17757980525493622,-0.1742592751979828,-0.169846773147583,-0.16416996717453003,-0.14307279884815216,-0.08464854955673218,-0.014036446809768677,0.05482572317123413
0.8833333333333333,0.08422303944826126,-0.026366712525486946,0.0,0.6065484881401062,0.0,0.0,-0.7950465083122253,0.009955051355063915,-0.44722068309783936,0.0,0.0,0.0,-0.9973496198654175,0.3781793713569641,0.6356173753738403,0.41999995708465576,0.5881269574165344,-1.177988792733231e-06,-5.989989858790068e-06,-0.808768630027771,0.0001268945779884234,-0.0004031917778775096,-7.99945555627346e-05,0.009883921593427658,-0.00264746998436749,-0.0008722958737052977,0.4221159517765045,0.6952773332595825,0.5033956170082092,0.34760940074920654,-0.1716761291027069,-0.17912936210632324,0.3848157823085785,0.6375199556350708,0.42000001668930054,-0.6059104204177856,-2.4389896392822266,-1.4417647123336792,-2.999999523162842,-0.18116876482963562,-0.17651629447937012,-0.17059564590454102,-0.16345953941345215,-0.19811156392097473,-0.11333342641592026,-0.019501855596899986,0.07092495262622833
0.9,0.08862566202878952,-0.027474666014313698,0.0,0.5817261934280396,0.0,0.0,-0.8133846521377563,0.20676428079605103,-0.01377464085817337,0.0,0.0,0.0,-4.4898271560668945,0.3781793713569641,0.6356173753738403,0.41999995708465576,0.5881268382072449,-1.374979319734848e-06,-5.678484740201384e-06,-0.808768630027771,0.00012501741002779454,-0.00040160262142308056,-7.99915287643671e-05,0.00983020756393671,-0.002632641466334462,-0.0008654219564050436,0.4295995831489563,0.6890876293182373,0.5014902353286743,0.651762068271637,-0.3436732292175293,0.09560918807983398,0.3848157823085785,0.6375199556350708,0.42000001668930054,-0.6430599093437195,-2.025571823120117,-1.4917830228805542,-2.999979019165039,-0.19012044370174408,-0.18324404954910278,-0.17498211562633514,-0.16559593379497528,-0.3394152820110321,-0.26225733757019043,-0.16960977017879486,-0.07211389392614365
