vladlanda/robotic-transformer/data/env_000_episode_0044.csv
sim_time_s,robot_box_x,robot_box_y,robot_box_z,robot_box_quat_w,robot_box_quat_x,robot_box_quat_y,robot_box_quat_z,robot_box_linvel_x,robot_box_linvel_y,robot_box_linvel_z,robot_box_angvel_x,robot_box_angvel_y,robot_box_angvel_z,cube_world_x,cube_world_y,cube_world_z,cube_quat_w,cube_quat_x,cube_quat_y,cube_quat_z,cube_linvel_x,cube_linvel_y,cube_linvel_z,cube_angvel_x,cube_angvel_y,cube_angvel_z,endpoint_world_x,endpoint_world_y,endpoint_world_z,endpoint_linvel_x,endpoint_linvel_y,endpoint_linvel_z,target_cube_world_x,target_cube_world_y,target_cube_world_z,gripper_actual_pos_rad_gp_leftgearjoint,gripper_actual_vel_rad_s_gp_leftgearjoint,gripper_actual_pos_rad_gp_rotatingjoint,gripper_actual_vel_rad_s_gp_rotatingjoint,motor_angle_rad_joint1,motor_angle_rad_joint2,motor_angle_rad_joint3,motor_angle_rad_joint4,motor_speed_rad_s_joint1,motor_speed_rad_s_joint2,motor_speed_rad_s_joint3,motor_speed_rad_s_joint4
0.0,0.0,0.0,0.0,1.0,0.0,0.0,0.0,0.0,0.0,0.0,0.0,0.0,0.0,-0.3878362774848938,0.7428920865058899,0.41999998688697815,1.0,0.0,0.0,0.0,0.0,0.0,0.0,0.0,0.0,0.0,3.42540442943573e-06,-0.005000244826078415,1.313499927520752,0.0,0.0,0.0,0.3359014391899109,0.6707162261009216,0.42000001668930054,-1.5707999467849731,0.0,0.0,0.0,0.0,0.0,0.0,0.0,0.0,0.0,0.0,0.0
0.016666666666666666,0.0028778850100934505,0.0021806680597364902,0.0,0.9998081922531128,0.0,0.0,0.019586581736803055,0.24087215960025787,0.18240931630134583,0.0,0.0,0.0,3.1418697834014893,-0.38783639669418335,0.742891788482666,0.41999998688697815,1.0,3.279964630564791e-06,-8.339746386809566e-07,8.465587342243452e-08,-1.9833529222523794e-05,0.00017983045836444944,-6.132945418357849e-05,0.0009432713268324733,-0.004689474124461412,-0.00031981561915017664,-0.007110234349966049,0.003379564033821225,1.3159373998641968,-0.8143353462219238,0.9868683815002441,0.18095196783542633,0.3359014391899109,0.6707162261009216,0.42000001668930054,-1.5301095247268677,3.0000011920928955,-0.04584788903594017,-2.9999992847442627,0.0008691533003002405,0.0007963840034790337,0.0007110277656465769,0.0006108740926720202,0.11094217747449875,0.09756709635257721,0.08334315568208694,0.06823883205652237
0.03333333333333333,0.008960992097854614,0.006802006624639034,0.0,0.9997960329055786,0.0,0.0,0.02019684575498104,0.4070221781730652,0.3153078258037567,0.0,0.0,0.0,-0.8691328763961792,-0.3878365159034729,0.7428917288780212,0.4200000464916229,1.0,3.3908477234945167e-06,-2.1324151475710096e-06,-3.7116176798690503e-08,0.00026357846218161285,0.0002693776914384216,-0.00010509602725505829,-0.0017706857761368155,0.004130810499191284,-0.0001354778796667233,-0.02754918485879898,0.026257913559675217,1.3165876865386963,-1.590651035308838,1.6162326335906982,-0.08611434698104858,0.3359014391899109,0.6707162261009216,0.42000001668930054,-1.4800904989242554,3.0000011920928955,-0.09588772058486938,-3.0000007152557373,0.0029894113540649414,0.0026517780497670174,0.002276104874908924,0.0018593162531033158,0.1641334593296051,0.13965225219726562,0.11368630081415176,0.08614299446344376
0.05,0.018468137830495834,0.013897303491830826,0.0,0.9999790191650391,0.0,0.0,-0.006481437478214502,0.6362531781196594,0.47217077016830444,0.0,0.0,0.0,-4.074916362762451,-0.3878365457057953,0.742891788482666,0.4200000464916229,1.0,3.7651484490197618e-06,-2.211842684118892e-06,5.60227420010051e-09,0.00026531011098995805,0.000266915129031986,-0.0001044049859046936,-0.0017243394395336509,0.004177437163889408,-0.00012949485972058028,-0.05669949948787689,0.05746947228908539,1.3120408058166504,-1.9061157703399658,2.0579402446746826,-0.4427541494369507,0.3359014391899109,0.6707162261009216,0.42000001668930054,-1.4300721883773804,2.9999992847442627,-0.14592640101909637,-3.000000238418579,0.0059428950771689415,0.005082473624497652,0.004149558488279581,0.003139980835840106,0.19981837272644043,0.1576845496892929,0.11363295465707779,0.06758438795804977
0.06666666666666667,0.030742468312382698,0.023383531719446182,0.0,0.9998888373374939,0.0,0.0,-0.014911116100847721,0.7728015780448914,0.6157684922218323,0.0,0.0,0.0,-0.03942161425948143,-0.3878365457057953,0.7428917288780212,0.4200000464916229,0.9999999403953552,3.40674955623399e-06,-2.2855595034343423e-06,4.3007116801163647e-07,0.00026702447212301195,0.00026791708660311997,-0.0001043803058564663,-0.0017406379338353872,0.004211765248328447,-0.00012851084466092288,-0.09165538847446442,0.09071861207485199,1.3023052215576172,-2.1492457389831543,2.09914231300354,-0.7146838903427124,0.3359014391899109,0.6707162261009216,0.42000001668930054,-1.3800442218780518,3.0000007152557373,-0.1278199702501297,3.0000007152557373,0.008325519040226936,0.006662133615463972,0.004886067938059568,0.002991314511746168,0.11976978927850723,0.061367303133010864,7.211929187178612e-08,-0.061984408646821976
0.08333333333333333,0.0367799736559391,0.03674515336751938,0.0,0.9992470741271973,0.0,0.0,-0.038797471672296524,0.22715535759925842,0.8750239014625549,0.0,0.0,0.0,-3.810553550720215,-0.3878365457057953,0.7428917288780212,0.4200000464916229,0.9999999403953552,3.6261044442653656e-06,-2.33528248827497e-06,3.0319426969072083e-07,0.00026613858062773943,0.00026685057673603296,-0.00010405061766505241,-0.0017283286433666945,0.004196317866444588,-0.0001279078860534355,-0.12160312384366989,0.12999966740608215,1.2888522148132324,-1.4817688465118408,2.6189963817596436,-0.8290215730667114,0.3359014391899109,0.6707162261009216,0.42000001668930054,-1.3300435543060303,3.0000016689300537,-0.1597578525543213,-3.000000238418579,0.003955257125198841,0.0014421406667679548,-0.0012492943787947297,-0.004095231182873249,-0.39432644844055176,-0.45971983671188354,-0.5284461975097656,-0.5990839004516602
0.1,0.04663539677858353,0.051688212901353836,0.0,0.9959244728088379,0.0,0.0,-0.09019133448600769,0.7380532026290894,0.9034631848335266,0.0,0.0,0.0,-6.968006134033203,-0.3878365457057953,0.7428917288780212,0.4200000464916229,1.0,3.4221338864881545e-06,-2.3085876819095574e-06,1.796027504497033e-07,0.00026681541930884123,0.0002680059114936739,-0.00010440708138048649,-0.001743128290399909,0.004207063931971788,-0.0001289125211769715,-0.14790202677249908,0.17564547061920166,1.2749310731887817,-1.6683909893035889,2.887174129486084,-0.8974394798278809,0.3359014391899109,0.6707162261009216,0.42000001668930054,-1.2800288200378418,3.000004291534424,-0.1619282364845276,2.2875287532806396,0.0018107451032847166,-0.002319442806765437,-0.006638991180807352,-0.011102365329861641,-0.040679194033145905,-0.14477208256721497,-0.24819593131542206,-0.34988224506378174
0.11666666666666667,0.055162493139505386,0.06373456120491028,0.0,0.992535412311554,0.0,0.0,-0.12195675820112228,0.5390316247940063,0.6850222945213318,0.0,0.0,0.0,-2.5803117752075195,-0.3878365457057953,0.742891788482666,0.4200000464916229,1.0,3.711474846568308e-06,-2.3326983864535578e-06,2.574058726168005e-07,0.0002648566442076117,0.00026635400718078017,-0.00010423525236546993,-0.0017183306626975536,0.004170096945017576,-0.00012915683328174055,-0.17943966388702393,0.2210204303264618,1.2583720684051514,-1.858115792274475,2.926656723022461,-1.0030100345611572,0.3359014391899109,0.6707162261009216,0.42000001668930054,-1.2300394773483276,3.0000007152557373,-0.1976815164089203,-3.000000238418579,-0.0010863618226721883,-0.006841287482529879,-0.01276372466236353,-0.018796000629663467,-0.08894788473844528,-0.20441119372844696,-0.3167150318622589,-0.4252287447452545
0.13333333333333333,0.061077915132045746,0.07641500234603882,0.0,0.9866412878036499,0.0,0.0,-0.1629079133272171,0.2900950312614441,0.8048143982887268,0.0,0.0,0.0,-5.707583427429199,-0.3878365457057953,0.7428917288780212,0.4200000464916229,0.9999999403953552,3.424648184591206e-06,-2.30197656492237e-06,1.5597707658798754e-07,0.0002670702524483204,0.0002681133337318897,-0.00010444503277540207,-0.0017433364409953356,0.0042120302096009254,-0.0001287761697312817,-0.2092173993587494,0.2747105658054352,1.2389299869537354,-1.6449332237243652,3.5864200592041016,-1.3095834255218506,0.3359014391899109,0.6707162261009216,0.42000001668930054,-1.1800247430801392,2.9999899864196777,-0.1638999581336975,2.9999992847442627,-0.004225884564220905,-0.011827521957457066,-0.01953032799065113,-0.027270149439573288,-0.24463337659835815,-0.34912288188934326,-0.4492053985595703,-0.5446778535842896
0.15,0.06409938633441925,0.08679588884115219,0.0,0.9826562404632568,0.0,0.0,-0.18543656170368195,0.13514494895935059,0.5276798009872437,0.0,0.0,0.0,-1.4424906969070435,-0.3878365457057953,0.7428917288780212,0.4200000464916229,1.0,3.7137983781576622e-06,-2.207822262789705e-06,-1.6912022715587227e-07,0.00026353259454481304,0.0002653595001902431,-0.00010421662591397762,-0.0017011979361996055,0.004144062753766775,-0.00012960298045072705,-0.2419835925102234,0.33173197507858276,1.2111692428588867,-2.0214037895202637,3.5041911602020264,-1.9780813455581665,0.3359014391899109,0.6707162261009216,0.42000001668930054,-1.152993083000183,0.44446030259132385,-0.19557629525661469,-2.999999761581421,-0.008499869145452976,-0.01758258230984211,-0.026682309806346893,-0.035735998302698135,-0.2880410850048065,-0.3580631613731384,-0.42318421602249146,-0.48370179533958435
0.16666666666666666,0.0692104771733284,0.09750192612409592,0.0,0.9757742881774902,0.0,0.0,-0.21877962350845337,0.3256267309188843,0.6831193566322327,0.0,0.0,0.0,-4.878819465637207,-0.3878365457057953,0.7428917288780212,0.4200000464916229,0.9999999403953552,3.638302587205544e-06,-2.2787849047745112e-06,2.700390098198113e-07,0.0002668272063601762,0.00026750180404633284,-0.00010409974493086338,-0.0017399356001988053,0.0042100450955331326,-0.00012781673285644501,-0.27456963062286377,0.39728981256484985,1.171177625656128,-1.7948362827301025,4.329836845397949,-2.8062028884887695,0.3359014391899109,0.6707162261009216,0.42000001668930054,-1.112627625465393,3.000001907348633,-0.16624680161476135,3.000000476837158,-0.015325400047004223,-0.025047315284609795,-0.03472978621721268,-0.044319890439510345,-0.5611754655838013,-0.56760573387146,-0.5721082091331482,-0.5754787921905518
0.18333333333333332,0.07140371948480606,0.11072192341089249,0.0,0.9611670970916748,0.0,0.0,-0.275967001914978,0.07088252156972885,0.8552432656288147,0.0,0.0,0.0,-8.03321647644043,-0.3878365457057953,0.7428917288780212,0.4200000464916229,1.0,3.3863352655316703e-06,-2.300278083566809e-06,1.4389989644314483e-07,0.00026674530818127096,0.0002678712480701506,-0.00010436796583235264,-0.0017412264132872224,0.0042059896513819695,-0.00012878300913143903,-0.30515092611312866,0.46913373470306396,1.1193041801452637,-1.6161659955978394,4.475407600402832,-3.4007558822631836,0.3359014391899109,0.6707162261009216,0.42000001668930054,-1.0698522329330444,2.1686363220214844,-0.19794926047325134,-2.999999761581421,-0.02706068567931652,-0.036693863570690155,-0.04625081643462181,-0.055694688111543655,-0.7496222257614136,-0.7390949130058289,-0.7261462807655334,-0.711750328540802
0.2,0.07768905162811279,0.12038224190473557,0.0,0.9491594433784485,0.0,0.0,-0.31479573249816895,0.41045865416526794,0.49227485060691833,0.0,0.0,0.0,-3.646778106689453,-0.3878365457057953,0.742891788482666,0.4200000464916229,1.0,3.6754631764779333e-06,-2.3266181869985303e-06,2.2109479402843135e-07,0.0002648438676260412,0.0002663126797415316,-0.00010421546176075935,-0.0017176977125927806,0.004169917199760675,-0.00012910606164950877,-0.3348773717880249,0.5405851006507874,1.0538907051086426,-1.479672908782959,4.430705547332764,-4.448964595794678,0.3359014391899109,0.6707162261009216,0.42000001668930054,-1.021860122680664,3.0000007152557373,-0.2479756474494934,-3.0000016689300537,-0.03845864161849022,-0.047518469393253326,-0.05648519843816757,-0.06534221768379211,-0.8197245597839355,-0.7508485317230225,-0.6829274296760559,-0.6173243522644043
0.21666666666666667,0.07833745330572128,0.13337403535842896,0.0,0.9467445015907288,0.0,0.0,-0.32198581099510193,0.049241747707128525,0.7373743057250977,0.0,0.0,0.0,0.2297598123550415,-0.3878365457057953,0.7428917288780212,0.4200000464916229,1.0,3.3222122510778718e-06,-2.20804554373899e-06,2.742411027156777e-07,0.00026662787422537804,0.00026749519747681916,-0.00010426202788949013,-0.0017358181066811085,0.004204723052680492,-0.0001283369492739439,-0.36125481128692627,0.6012526750564575,0.9716429710388184,-1.3968322277069092,3.417275905609131,-5.20503044128418,0.3359014391899109,0.6707162261009216,0.42000001668930054,-0.9718505144119263,2.999998092651367,-0.29800307750701904,-3.000001907348633,-0.054037924855947495,-0.06317507475614548,-0.07214691489934921,-0.0804876908659935,-0.5985130071640015,-0.664034903049469,-0.7236708998680115,-0.7772581577301025
0.23333333333333334,0.07800611853599548,0.14103129506111145,0.0,0.9400046467781067,0.0,0.0,-0.3411616384983063,-0.06030671298503876,0.37318673729896545,0.0,0.0,0.0,-3.3184010982513428,-0.3878365457057953,0.7428917288780212,0.4200000464916229,1.0,3.656415628938703e-06,-2.3734403384878533e-06,-4.077129176494054e-07,0.0002661167527548969,0.0002672596601769328,-0.00010423315688967705,-0.0017335204174742103,0.004194542765617371,-0.0001285481994273141,-0.3816971182823181,0.6565072536468506,0.8787161111831665,-0.9884679913520813,3.045982837677002,-5.87850284576416,0.3359014391899109,0.6707162261009216,0.42000001668930054,-0.9218416810035706,3.000001907348633,-0.3480333089828491,-2.9999988079071045,-0.06430986523628235,-0.07414709031581879,-0.08374141901731491,-0.09264633059501648,-0.6813585162162781,-0.6966476440429688,-0.7088929414749146,-0.7202751636505127
0.25,0.073773093521595,0.15155453979969025,0.0,0.9389412999153137,0.0,0.0,-0.3440774381160736,-0.29343050718307495,0.6116408109664917,0.0,0.0,0.0,0.5798336863517761,-0.3878365457057953,0.742891788482666,0.4200000464916229,1.0,3.6304120385466376e-06,-2.2426145278586773e-06,1.1181708003960011e-08,0.00026680054725147784,0.00026706064818426967,-0.00010390975512564182,-0.0017342400969937444,0.004210646729916334,-0.00012703398533631116,-0.3972153067588806,0.697094738483429,0.7774998545646667,-0.8343230485916138,1.922549843788147,-6.163712978363037,0.3359014391899109,0.6707162261009216,0.42000001668930054,-0.8718310594558716,2.9998700618743896,-0.3980649709701538,-2.9999592304229736,-0.08025052398443222,-0.08977160602807999,-0.09906083345413208,-0.10765287280082703,-0.8162358403205872,-0.8457387089729309,-0.8718293905258179,-0.8939240574836731
0.26666666666666666,0.07016628235578537,0.15578600764274597,0.0,0.935191810131073,0.0,0.0,-0.35414156317710876,-0.372641384601593,0.1024748831987381,0.0,0.0,0.0,-1.364267349243164,-0.3878365159034729,0.7428917288780212,0.4200000464916229,0.9999999403953552,3.739990006579319e-06,-2.2363544758263743e-06,4.4994595782554825e-07,0.00026479660300537944,0.000266730145085603,-0.00010453932918608189,-0.0017189461505040526,0.004166724160313606,-0.00013016641605645418,-0.40724122524261475,0.7251465320587158,0.6710159182548523,-0.2512483596801758,1.1580865383148193,-6.444256782531738,0.3359014391899109,0.6707162261009216,0.42000001668930054,-0.8218209147453308,2.9984970092773438,-0.44809672236442566,-2.9998767375946045,-0.09342223405838013,-0.10324660688638687,-0.1128636971116066,-0.12178359180688858,-0.7559932470321655,-0.7980586290359497,-0.8382055759429932,-0.8754234313964844
0.2833333333333333,0.06385491043329239,0.15389062464237213,0.0,0.9285340309143066,0.0,0.0,-0.3712473213672638,-0.3887481093406677,-0.18436644971370697,0.0,0.0,0.0,-2.661393880844116,-0.3878365457057953,0.7428917288780212,0.4200000464916229,1.0,3.391518930584425e-06,-2.2911697215022286e-06,1.2456727915832744e-07,0.00026677147252485156,0.00026789188268594444,-0.00010437238961458206,-0.0017411535372957587,0.004206198733299971,-0.00012877908011432737,-0.40767771005630493,0.7416688203811646,0.5638678669929504,0.29486188292503357,0.6714086532592773,-6.225425720214844,0.3359014391899109,0.6707162261009216,0.42000001668930054,-0.7718121409416199,2.9992573261260986,-0.4981277883052826,-2.9998064041137695,-0.10953473299741745,-0.11938396096229553,-0.12904803454875946,-0.13802719116210938,-1.0125877857208252,-1.0095133781433105,-1.0071626901626587,-1.0052974224090576
0.3,0.05202788487076759,0.15595680475234985,0.0,0.9293770790100098,0.0,0.0,-0.3691316843032837,-0.6572235226631165,0.19981399178504944,0.0,0.0,0.0,1.2389910221099854,-0.3878365457057953,0.742891788482666,0.4200000464916229,1.0,3.680642066683504e-06,-2.3191096261143684e-06,2.0105352405153099e-07,0.00026479020016267896,0.00026625703321769834,-0.00010421290062367916,-0.00171678327023983,0.004168916493654251,-0.00012909506040159613,-0.40036022663116455,0.7424019575119019,0.4697468876838684,0.6342577338218689,-0.3382113575935364,-5.231890678405762,0.3359014391899109,0.6707162261009216,0.42000001668930054,-0.7218036651611328,2.999938488006592,-0.5481564402580261,-2.999979019165039,-0.12785103917121887,-0.13729888200759888,-0.14666765928268433,-0.1554177701473236,-0.7947707772254944,-0.8403288125991821,-0.8832760453224182,-0.9218761324882507
0.31666666666666665,0.045624762773513794,0.154324471950531,0.0,0.9251883029937744,0.0,0.0,-0.37950843572616577,-0.34815970063209534,-0.10574612021446228,0.0,0.0,0.0,-2.040207862854004,-0.38794636726379395,0.7419140338897705,0.4206507205963135,0.9998156428337097,0.014528908766806126,-0.0014735753647983074,-0.012463466264307499,0.03866203874349594,-0.02446047216653824,0.07439038902521133,4.316732883453369,0.3609361946582794,-1.33644437789917,-0.3958214521408081,0.7427096366882324,0.42931848764419556,0.05643266439437866,-0.04435846209526062,-0.17283226549625397,0.3359014391899109,0.6707162261009216,0.42000001668930054,-0.6717992424964905,2.9999306201934814,-0.5986230373382568,-3.0026652812957764,-0.13360311090946198,-0.1442362368106842,-0.1544584482908249,-0.1636987328529358,-0.18021193146705627,-0.22574052214622498,-0.2403838187456131,-0.22318147122859955
0.3333333333333333,0.037178415805101395,0.15130728483200073,0.0,0.927658200263977,0.0,0.0,-0.373430460691452,-0.5195695161819458,-0.23680517077445984,0.0,0.0,0.0,1.641609787940979,-0.38760265707969666,0.7422595024108887,0.4209161400794983,0.9989532232284546,0.02339353784918785,-0.0008143624872900546,-0.03929927945137024,0.03971116617321968,0.18094417452812195,0.031242365017533302,1.8092719316482544,-0.1471850425004959,-11.397045135498047,-0.3970373868942261,0.746805727481842,0.42725083231925964,-0.027054298669099808,0.3358726501464844,-0.17875616252422333,0.3359014391899109,0.6707162261009216,0.42000001668930054,-0.6217929124832153,2.999927282333374,-0.648669421672821,-2.99981951713562,-0.14007225632667542,-0.15038932859897614,-0.1599087417125702,-0.16808398067951202,-0.3730410635471344,-0.3464891016483307,-0.30112800002098083,-0.23932528495788574
0.35,0.026973705738782883,0.14564421772956848,0.0,0.9241883158683777,0.0,0.0,-0.381937175989151,-0.6594380736351013,-0.3829798400402069,0.0,0.0,0.0,-1.9691139459609985,-0.3870278596878052,0.7451847791671753,0.42020100355148315,0.9933252930641174,0.004740999545902014,-0.0010675742523744702,-0.11524419486522675,0.03030765801668167,0.1715666800737381,-0.06865718215703964,-3.529771089553833,0.5761197209358215,-8.310872077941895,-0.3958570957183838,0.7490129470825195,0.4241560101509094,0.16932088136672974,0.063881516456604,-0.19386687874794006,0.3359014391899109,0.6707162261009216,0.42000001668930054,-0.5717878937721252,2.9999823570251465,-0.6987267732620239,-2.9999241828918457,-0.14767278730869293,-0.1569427102804184,-0.16513583064079285,-0.17176954448223114,-0.5047515034675598,-0.41184258460998535,-0.3054112195968628,-0.1904294639825821
0.36666666666666664,0.014571835286915302,0.1375892013311386,0.0,0.926935613155365,0.0,0.0,-0.3752204477787018,-0.784183144569397,-0.52287358045578,0.0,0.0,0.0,1.7809704542160034,-0.38639649748802185,0.7477521896362305,0.42000067234039307,0.9884982109069824,5.159175543667516e-06,2.9415554308798164e-05,-0.15123192965984344,0.1674494445323944,0.3017697036266327,-0.0008436076459474862,-0.011476266197860241,-0.04062410816550255,-9.43991756439209,-0.39116406440734863,0.7523927688598633,0.42121827602386475,0.35244423151016235,0.2864990234375,-0.14166884124279022,0.3359014391899109,0.6707162261009216,0.42000001668930054,-0.5217829942703247,2.9999537467956543,-0.748776912689209,-2.9999942779541016,-0.157028466463089,-0.16419818997383118,-0.17007088661193848,-0.17426615953445435,-0.5345731377601624,-0.3971099555492401,-0.2470473051071167,-0.09089319407939911
0.3833333333333333,0.0001538254728075117,0.12718014419078827,0.0,0.9236915111541748,0.0,0.0,-0.3831370174884796,-0.9148195385932922,-0.6650264263153076,0.0,0.0,0.0,-1.9694023132324219,-0.38234850764274597,0.753734290599823,0.4199991226196289,0.9761804938316345,6.622816727031022e-05,-3.56982127414085e-05,-0.21695996820926666,0.4614233374595642,0.5451124906539917,-0.0013565000845119357,-0.03530287742614746,0.1319129914045334,-3.632310628890991,-0.3835929036140442,0.7567089796066284,0.41954296827316284,0.5918655395507812,0.3712627589702606,-0.08536477386951447,0.3359014391899109,0.6707162261009216,0.42000001668930054,-0.4717787504196167,2.9999942779541016,-0.7988173961639404,-3.000000238418579,-0.16615073382854462,-0.17069131135940552,-0.1736740618944168,-0.1748400330543518,-0.5116330981254578,-0.3411741554737091,-0.15502174198627472,0.039189670234918594
0.4,-0.0116267753764987,0.11395005881786346,0.0,0.909199595451355,0.0,0.0,-0.4163604974746704,-0.6333484053611755,-0.8471576571464539,0.0,0.0,0.0,-5.172670364379883,-0.3714423179626465,0.7650892734527588,0.4204642176628113,0.9683118462562561,-0.004599082283675671,-0.008004225790500641,-0.24957361817359924,1.3644086122512817,0.5017781853675842,0.7406334280967712,-8.163521766662598,-5.019854545593262,-4.606372356414795,-0.37184587121009827,0.7660535573959351,0.4209907650947571,0.8268080949783325,0.7538366317749023,0.14514614641666412,0.3359014391899109,0.6707162261009216,0.42000001668930054,-0.4216996133327484,2.98897123336792,-0.8488168120384216,-2.99479603767395,-0.17375876009464264,-0.1753906011581421,-0.17511619627475739,-0.17281027138233185,-0.3949187397956848,-0.21772155165672302,-0.018087338656187057,0.19590823352336884
0.4166666666666667,-0.019322475418448448,0.09760686755180359,0.0,0.8814684748649597,0.0,0.0,-0.47224292159080505,-0.3963480293750763,-1.0350027084350586,0.0,0.0,0.0,-8.320024490356445,-0.3442687392234802,0.7850891351699829,0.4239780306816101,0.9535471796989441,-0.02037620171904564,-0.0360986702144146,-0.2983778417110443,2.609922409057617,1.3398195505142212,0.11228152364492416,30.14181137084961,-20.85822296142578,4.767025947570801,-0.3446313142776489,0.7861273288726807,0.4241185784339905,2.425015926361084,1.6320581436157227,0.45682862401008606,0.3359014391899109,0.6707162261009216,0.42000001668930054,-0.38702335953712463,1.1659420728683472,-0.8988397121429443,-3.000002861022949,-0.18097734451293945,-0.17931249737739563,-0.17539538443088531,-0.1692473292350769,-0.481341153383255,-0.25565478205680847,-0.013238034211099148,0.23641802370548248
0.43333333333333335,-0.024855874478816986,0.08631189167499542,0.0,0.8369967341423035,0.0,0.0,-0.5472078323364258,-0.29095691442489624,-0.5473256707191467,0.0,0.0,0.0,-11.241357803344727,-0.27680760622024536,0.8162983655929565,0.42857640981674194,0.9356480836868286,0.02934977039694786,-0.08165167272090912,-0.34210261702537537,5.531839370727539,1.7776023149490356,0.2792716324329376,8.128884315490723,-11.234457969665527,16.13286781311035,-0.2772440016269684,0.817600429058075,0.42890337109565735,5.313824653625488,2.3274664878845215,0.37582892179489136,0.3359014391899109,0.6707162261009216,0.42000001668930054,-0.36979079246520996,1.0025886297225952,-0.8617496490478516,2.997551918029785,-0.19583089649677277,-0.1900446116924286,-0.18059682846069336,-0.16919098794460297,-0.9049821496009827,-0.7392399907112122,-0.4084443747997284,-0.10567659139633179
0.45,-0.03135853260755539,0.08022397011518478,0.0,0.7987074255943298,0.0,0.0,-0.6017196178436279,-0.5090267062187195,-0.315494179725647,0.0,0.0,0.0,-6.658480167388916,-0.18824943900108337,0.8499405384063721,0.43775054812431335,0.8974642753601074,0.06579172611236572,-0.1117660254240036,-0.4215894937515259,5.436522006988525,1.3331552743911743,0.6360177397727966,5.8095316886901855,-10.08512020111084,7.189529895782471,-0.18849338591098785,0.85240638256073,0.43800801038742065,5.430874824523926,1.9004230499267578,0.6903111934661865,0.3359014391899109,0.6707162261009216,0.42000001668930054,-0.35177212953567505,1.100438117980957,-0.8880930542945862,-3.000002384185791,-0.21069999039173126,-0.20395827293395996,-0.18940559029579163,-0.17351965606212616,-0.7171549201011658,-0.7285096049308777,-0.493257611989975,-0.2928029000759125
0.4666666666666667,-0.034809794276952744,0.06823035329580307,0.0,0.7796298265457153,0.0,0.0,-0.626240611076355,-0.13317523896694183,-0.820858895778656,0.0,0.0,0.0,-2.687930107116699,-0.09647922962903976,0.8729662895202637,0.44963034987449646,0.8489355444908142,0.06643562018871307,-0.11228536069393158,-0.5121392011642456,5.59653902053833,0.13379044830799103,0.8518204689025879,2.4082047939300537,-7.656414031982422,11.3994779586792,-0.09692322462797165,0.8749569654464722,0.44999223947525024,5.622672080993652,0.7186977863311768,0.8821980357170105,0.3359014391899109,0.6707162261009216,0.42000001668930054,-0.3314298987388611,1.1955863237380981,-0.9381170272827148,-3.000002384185791,-0.21765537559986115,-0.21041709184646606,-0.19216999411582947,-0.17307467758655548,-0.417996883392334,-0.31515979766845703,-0.06962114572525024,0.1483270525932312
0.48333333333333334,-0.04005314037203789,0.06063937395811081,0.0,0.753216564655304,0.0,0.0,-0.6577726006507874,-0.30809545516967773,-0.40384674072265625,0.0,0.0,0.0,-5.4066667556762695,-0.0061151981353759766,0.8745421171188354,0.4610733687877655,0.7960959672927856,0.05804600566625595,-0.1091042309999466,-0.5924171209335327,5.179337978363037,-0.9817763566970825,0.7223506569862366,3.3327476978302,-6.465522289276123,20.816198348999023,-0.006819173693656921,0.8770968914031982,0.4619852304458618,5.412764549255371,-0.3014688789844513,0.6690852642059326,0.3359014391899109,0.6707162261009216,0.42000001668930054,-0.31288427114486694,0.9112744331359863,-0.9881410598754883,-3.000002861022949,-0.2289840430021286,-0.21914154291152954,-0.19648532569408417,-0.17347079515457153,-0.5619015097618103,-0.43159016966819763,-0.21535679697990417,-0.02075219713151455
0.5,-0.042154524475336075,0.050802089273929596,0.0,0.7409052848815918,0.0,0.0,-0.6716095209121704,-0.06609125435352325,-0.6115239262580872,0.0,0.0,0.0,-1.153679609298706,0.07544258236885071,0.8616072535514832,0.4707268476486206,0.7711267471313477,0.04857466742396355,-0.0756322368979454,-0.6303043961524963,4.5713629722595215,-1.370500087738037,0.4287377595901489,-2.6156225204467773,2.6649231910705566,-4.741273880004883,0.07604856044054031,0.8645540475845337,0.47122251987457275,4.603377342224121,-1.2206859588623047,0.5332955121994019,0.3359014391899109,0.6707162261009216,0.42000001668930054,-0.2979840040206909,0.9981299638748169,-1.038163661956787,-3.0000009536743164,-0.23717135190963745,-0.22463342547416687,-0.19866761565208435,-0.17279374599456787,-0.43542587757110596,-0.2626475989818573,-0.09259811788797379,0.048725828528404236
0.5166666666666666,-0.04556904733181,0.044934313744306564,0.0,0.7205864787101746,0.0,0.0,-0.6933650970458984,-0.2496490180492401,-0.3101915121078491,0.0,0.0,0.0,-4.34785795211792,0.14725171029567719,0.836671769618988,0.47513553500175476,0.7306340336799622,0.02734772488474846,-0.04704643785953522,-0.680597186088562,3.86958384513855,-2.433429002761841,0.09243912994861603,-1.1665607690811157,-6.9797515869140625,22.28546142578125,0.1478731781244278,0.8394736051559448,0.47586309909820557,4.124625205993652,-1.7565070390701294,0.17999893426895142,0.3359014391899109,0.6707162261009216,0.42000001668930054,-0.285803884267807,0.504697859287262,-1.0881857872009277,-3.0000014305114746,-0.23969365656375885,-0.23028050363063812,-0.20184414088726044,-0.1738853007555008,0.05927862599492073,-0.2121119499206543,-0.11403998732566833,-0.03084550052881241
0.5333333333333333,-0.04694635421037674,0.035811249166727066,0.0,0.7128384709358215,0.0,0.0,-0.7013282179832458,-0.04970448091626167,-0.5572013854980469,0.0,0.0,0.0,-0.3238411545753479,0.2086264044046402,0.8053645491600037,0.4746631383895874,0.6981536746025085,-0.0058340225368738174,-0.02054111286997795,-0.7156293392181396,3.0832297801971436,-2.4677789211273193,-0.1335841566324234,1.5041440725326538,-0.5316933989524841,8.648283958435059,0.2093612253665924,0.8073916435241699,0.4757598042488098,3.3093066215515137,-2.1036264896392822,-0.09720059484243393,0.3359014391899109,0.6707162261009216,0.42000001668930054,-0.27571696043014526,0.6909462213516235,-1.1382079124450684,-3.000000476837158,-0.2355431765317917,-0.22992335259914398,-0.20092949271202087,-0.1726718544960022,0.2562961280345917,0.0857926532626152,0.08101405948400497,0.05891574174165726
0.55,-0.04536738991737366,0.03028883971273899,0.0,0.696733832359314,0.0,0.0,-0.717329740524292,0.15667839348316193,-0.29436787962913513,0.0,0.0,0.0,-3.5327627658843994,0.2586146891117096,0.772418200969696,0.46662116050720215,0.6671800017356873,-0.041078150272369385,-0.0002592525561340153,-0.7437629103660583,2.485349416732788,-2.415961742401123,-0.5917094945907593,2.0305020809173584,-2.627533197402954,15.746454238891602,0.25937655568122864,0.7741497755050659,0.46852171421051025,2.788231611251831,-1.9622265100479126,-0.6407051682472229,0.3359014391899109,0.6707162261009216,0.42000001668930054,-0.2627033591270447,0.7447758913040161,-1.188230037689209,-3.0000011920928955,-0.2302509993314743,-0.22749260067939758,-0.19984838366508484,-0.17307059466838837,0.4443345069885254,0.27207082509994507,0.12449968606233597,-0.023995548486709595
0.5666666666666667,-0.0412089079618454,0.028012501075863838,0.0,0.6940222978591919,0.0,0.0,-0.7199534773826599,0.28061458468437195,-0.06419289857149124,0.0,0.0,0.0,0.4172975420951843,0.2982872724533081,0.7400957345962524,0.4534408748149872,0.6343027949333191,-0.0778522863984108,0.028806505724787712,-0.7686150074005127,1.669918179512024,-2.4876348972320557,-0.7893932461738586,5.102771759033203,-1.1617790460586548,18.460002899169922,0.29900145530700684,0.7409011125564575,0.45536649227142334,2.0870842933654785,-1.9771718978881836,-0.8883181214332581,0.3359014391899109,0.6707162261009216,0.42000001668930054,-0.2508876919746399,0.5568947792053223,-1.2382445335388184,-3.0000011920928955,-0.22215189039707184,-0.22203372418880463,-0.19757354259490967,-0.17391519248485565,0.5114970207214355,0.3709573745727539,0.14754122495651245,-0.06988685578107834
0.5833333333333334,-0.034239236265420914,0.0213476475328207,0.0,0.6805956363677979,0.0,0.0,-0.7326592206954956,0.41460534930229187,-0.4237242639064789,0.0,0.0,0.0,-3.0312883853912354,0.3284977078437805,0.7123403549194336,0.43371057510375977,0.6245697736740112,-0.09102977067232132,0.02621348761022091,-0.7752024531364441,1.170863389968872,-1.9620150327682495,-1.203170895576477,1.4791533946990967,-4.916342258453369,18.86199951171875,0.32890546321868896,0.7126204967498779,0.43577146530151367,1.515188455581665,-1.5623857975006104,-1.3040261268615723,0.3359014391899109,0.6707162261009216,0.42000001668930054,-0.24197828769683838,0.4209291338920593,-1.200242280960083,2.99885892868042,-0.20877885818481445,-0.2113301008939743,-0.19197599589824677,-0.17317795753479004,0.6994104981422424,0.6052283644676208,0.29702043533325195,0.0016701025888323784
0.6,-0.030093902722001076,0.01867581531405449,0.0,0.679777979850769,0.0,0.0,-0.7334179282188416,0.20798811316490173,-0.1429140567779541,0.0,0.0,0.0,0.7709163427352905,0.34192073345184326,0.6927804350852966,0.42565998435020447,0.6366328597068787,-0.11003270000219345,-0.0034809669014066458,-0.763268768787384,-0.012453527189791203,-1.8047449588775635,0.13509520888328552,-9.129674911499023,0.9470827579498291,32.20572280883789,0.3437572717666626,0.6932005882263184,0.43096840381622314,0.6856725811958313,-0.9279245734214783,0.06562303006649017,0.3359014391899109,0.6707162261009216,0.42000001668930054,-0.2298940122127533,0.21104007959365845,-1.2207492589950562,-3.0001604557037354,-0.20000876486301422,-0.203538715839386,-0.18887846171855927,-0.1745089590549469,0.5365180969238281,0.47283196449279785,0.18200820684432983,-0.08872361481189728
0.6166666666666667,-0.024091338738799095,0.0160511527210474,0.0,0.6685832738876343,0.0,0.0,-0.7436372637748718,0.37573349475860596,-0.16723103821277618,0.0,0.0,0.0,-2.5912418365478516,0.3490411639213562,0.6826633214950562,0.4244570732116699,0.6483567953109741,-0.08370030671358109,0.004014340229332447,-0.756710946559906,-0.021407177671790123,-0.6953247785568237,-0.06951402872800827,-0.47017019987106323,-3.682487964630127,16.11479377746582,0.349122554063797,0.6822468042373657,0.42964422702789307,0.18704813718795776,-0.437921404838562,-0.10034962743520737,0.3359014391899109,0.6707162261009216,0.42000001668930054,-0.23148511350154877,-0.21791838109493256,-1.1827608346939087,2.9996423721313477,-0.18973946571350098,-0.19478850066661835,-0.18538528680801392,-0.17585983872413635,0.604218602180481,0.51552414894104,0.20589172840118408,-0.0779435858130455
0.6333333333333333,-0.020796995609998703,0.015823088586330414,0.0,0.6704569458961487,0.0,0.0,-0.7419484257698059,0.1395128220319748,0.04051029682159424,0.0,0.0,0.0,1.096923589706421,0.3482225239276886,0.674089252948761,0.4229428172111511,0.6929903030395508,-0.0549333356320858,-0.016654260456562042,-0.7186579704284668,-0.23133349418640137,-0.44957825541496277,-0.11234050989151001,-1.296246886253357,-6.722605228424072,10.750020027160645,0.34939831495285034,0.6756143569946289,0.43053627014160156,-0.083716981112957,-0.2955799698829651,0.1172623410820961,0.3359014391899109,0.6707162261009216,0.42000001668930054,-0.26536035537719727,-2.9999866485595703,-1.2041070461273193,-2.9992449283599854,-0.18096722662448883,-0.18717814981937408,-0.1824551522731781,-0.17716680467128754,0.5037910342216492,0.44444653391838074,0.1827436089515686,-0.053496409207582474
0.65,-0.017091378569602966,0.01830798014998436,0.0,0.6613776683807373,0.0,0.0,-0.7500530481338501,0.2589004933834076,0.24645133316516876,0.0,0.0,0.0,-2.3326704502105713,0.34823498129844666,0.672581672668457,0.42325398325920105,0.7219794988632202,-0.059622872620821,-0.02227059192955494,-0.6889808773994446,0.07559657841920853,0.08607333153486252,0.10758388042449951,-3.9064040184020996,1.8418288230895996,1.8179033994674683,0.3500303328037262,0.6759072542190552,0.43245065212249756,0.11031945049762726,0.1727893054485321,0.11934506893157959,0.3359014391899109,0.6707162261009216,0.42000001668930054,-0.2974424362182617,-0.9895787835121155,-1.2540552616119385,-2.9977943897247314,-0.17128686606884003,-0.1790841519832611,-0.17899571359157562,-0.17781555652618408,0.6014295220375061,0.496662437915802,0.22317743301391602,-0.01862221583724022
0.6666666666666666,-0.011219742707908154,0.017501050606369972,0.0,0.6645961403846741,0.0,0.0,-0.7472027540206909,0.35439079999923706,-0.08493125438690186,0.0,0.0,0.0,1.4104310274124146,0.34839391708374023,0.6743916869163513,0.4238061010837555,0.7234591841697693,-0.0708976462483406,-0.03116435371339321,-0.6860094666481018,-0.08249180018901825,0.15600529313087463,0.01722213625907898,-1.6567933559417725,-0.7008302807807922,-1.7948986291885376,0.34932941198349,0.6783359050750732,0.4351710379123688,-0.1862151026725769,0.12410114705562592,0.1932123452425003,0.3359014391899109,0.6707162261009216,0.42000001668930054,-0.34166160225868225,-2.9999618530273438,-1.3040285110473633,-2.9987270832061768,-0.15980958938598633,-0.1691257655620575,-0.1731697916984558,-0.17568425834178925,0.5758174061775208,0.5270548462867737,0.3311040699481964,0.15337784588336945
0.6833333333333333,-0.0031121561769396067,0.013723189011216164,0.0,0.6869051456451416,0.0,0.0,-0.7267470359802246,0.5365468859672546,-0.3104709982872009,0.0,0.0,0.0,4.499695777893066,0.34705883264541626,0.6766377091407776,0.42279505729675293,0.7130461931228638,-0.052836161106824875,-0.05414411425590515,-0.6970234513282776,-0.09296732395887375,0.09044362604618073,-0.012855952605605125,0.7642514109611511,0.02652548812329769,-2.723644495010376,0.34691178798675537,0.6798429489135742,0.4384126365184784,-0.14682947099208832,0.1449432224035263,0.21619707345962524,0.3359014391899109,0.6707162261009216,0.42000001668930054,-0.39167049527168274,-2.999967575073242,-1.3539917469024658,-2.9988458156585693,-0.15373241901397705,-0.16278690099716187,-0.16875214874744415,-0.172950878739357,0.31858816742897034,0.3621806800365448,0.2901565134525299,0.22983047366142273
0.7,0.008262701332569122,0.01409123931080103,0.0,0.6964577436447144,0.0,0.0,-0.7175978422164917,0.6370763778686523,0.07290968298912048,0.0,0.0,0.0,0.5264341235160828,0.34561124444007874,0.6776644587516785,0.4219933748245239,0.6970264315605164,-0.03769939765334129,-0.036470599472522736,-0.7151243090629578,-0.0924021303653717,0.052633821964263916,-0.05627782642841339,3.2737200260162354,0.010279161855578423,-3.455430507659912,0.34471288323402405,0.6823906302452087,0.4428406357765198,-0.0291012991219759,0.21158328652381897,0.31470978260040283,0.3359014391899109,0.6707162261009216,0.42000001668930054,-0.4416782557964325,-2.999995231628418,-1.4039596319198608,-2.9995763301849365,-0.15334218740463257,-0.16061493754386902,-0.1664302796125412,-0.17031311988830566,0.12003681808710098,0.21744221448898315,0.23684102296829224,0.269768089056015
0.7166666666666667,0.020823316648602486,0.01034811045974493,0.0,0.6836274266242981,0.0,0.0,-0.7298311591148376,0.799502968788147,-0.24310167133808136,0.0,0.0,0.0,-2.945314407348633,0.3444148898124695,0.6781327724456787,0.4201327860355377,0.6844599843025208,-0.001958461245521903,-0.0015209553530439734,-0.729046106338501,-0.06532904505729675,0.019272252917289734,-0.12989763915538788,6.932685852050781,-0.32685476541519165,-1.9078357219696045,0.3480665683746338,0.6862788200378418,0.45230862498283386,0.31360340118408203,0.09678786993026733,0.936432421207428,0.3359014391899109,0.6707162261009216,0.42000001668930054,-0.491690993309021,-3.0,-1.4539779424667358,-3.0,-0.15048637986183167,-0.15611891448497772,-0.16130009293556213,-0.16430045664310455,-0.061008136719465256,0.09175585210323334,0.19605903327465057,0.3112053871154785
0.7333333333333333,0.03595186769962311,0.007027295883744955,0.0,0.6506091356277466,0.0,0.0,-0.7594127655029297,0.9480234980583191,-0.1987609565258026,0.0,0.0,0.0,-6.195717811584473,0.34439921379089355,0.6780338287353516,0.42000019550323486,0.6844645142555237,1.0954792742268182e-05,1.1426929631852545e-05,-0.729046106338501,0.0003869168576784432,0.0006275578052736819,-0.00036153988912701607,-0.005799748003482819,0.0026770918630063534,0.0007125028059817851,0.3627448081970215,0.6860227584838867,0.4740458130836487,1.410688042640686,-0.09813015162944794,1.815953016281128,0.3359014391899109,0.6707162261009216,0.42000001668930054,-0.5417035818099976,-2.9999170303344727,-1.5039962530136108,-2.9999918937683105,-0.15440326929092407,-0.15717408061027527,-0.16008800268173218,-0.16067193448543549,-0.2596820294857025,-0.09379247575998306,0.04812084138393402,0.1983073502779007
0.75,0.0487506203353405,0.005884455516934395,0.0,0.6315019726753235,0.0,0.0,-0.7753742337226868,0.6960490942001343,-0.014494627714157104,0.0,0.0,0.0,-1.9585789442062378,0.34439903497695923,0.6780351400375366,0.4200000464916229,0.6844646334648132,6.23161042767606e-07,-4.3562463361013215e-06,-0.7290459275245667,0.00025285978335887194,-0.0003042454191017896,-0.00010898895561695099,0.00526645639911294,0.0008913663914427161,-0.0002514176885597408,0.3875398337841034,0.6896790862083435,0.5075002908706665,1.5086652040481567,0.4609147906303406,2.152557134628296,0.3359014391899109,0.6707162261009216,0.42000001668930054,-0.5629090666770935,0.19310353696346283,-1.554013967514038,-2.9999985694885254,-0.15766093134880066,-0.15872421860694885,-0.160240039229393,-0.159369558095932,-0.10381618142127991,-0.062089573591947556,-0.034756820648908615,-0.008072758093476295
0.7666666666666666,0.0570320300757885,0.0076839434914290905,0.0,0.6370006203651428,0.0,0.0,-0.7708632946014404,0.42408180236816406,0.16045545041561127,0.0,0.0,0.0,1.7258195877075195,0.3443990647792816,0.6780350804328918,0.4200000464916229,0.6844646334648132,8.425524811173091e-07,-3.7619463455484947e-06,-0.7290459871292114,0.00024975917767733335,-0.0002755787572823465,-0.0001059237401932478,0.004653461277484894,0.0010452717542648315,-0.00026845638058148324,0.4079934358596802,0.697701096534729,0.5383962392807007,0.916451096534729,0.5230889320373535,1.5938915014266968,0.3359014391899109,0.6707162261009216,0.42000001668930054,-0.5389305949211121,2.4669599533081055,-1.5151325464248657,2.9999988079071045,-0.15853102505207062,-0.15901534259319305,-0.1600983738899231,-0.15886834263801575,0.002508200006559491,0.028276581317186356,0.04869965463876724,0.060898732393980026
0.7833333333333333,0.06070975959300995,0.006354834418743849,0.0,0.6312142014503479,0.0,0.0,-0.7756085395812988,0.140108123421669,-0.14729580283164978,0.0,0.0,0.0,-1.7432774305343628,0.3443990647792816,0.6780350804328918,0.4200000464916229,0.6844645142555237,8.662113373247848e-07,-3.7440920550579904e-06,-0.729046106338501,0.00025163230020552874,-0.0002760391216725111,-0.0001064955722540617,0.004655834753066301,0.0010690520284697413,-0.000271502387477085,0.41612088680267334,0.7056509852409363,0.5582965612411499,0.02638467401266098,0.4515267014503479,1.0014556646347046,0.3359014391899109,0.6707162261009216,0.42000001668930054,-0.5042768716812134,1.7252709865570068,-1.4650799036026,3.0000011920928955,-0.1589038074016571,-0.1588412970304489,-0.15943023562431335,-0.15791919827461243,-0.037220776081085205,0.002537000924348831,0.039892759174108505,0.05985826253890991
0.8,0.060568831861019135,0.0093949344009161,0.0,0.637580931186676,0.0,0.0,-0.770383358001709,-0.035125162452459335,0.16333366930484772,0.0,0.0,0.0,1.7036430835723877,0.3443990647792816,0.6780350804328918,0.4200000464916229,0.6844643950462341,8.729154501452285e-07,-3.908570306521142e-06,-0.7290462255477905,0.00025152708985842764,-0.00027599374880082905,-0.00010647042654454708,0.00465531786903739,0.0010676938109099865,-0.0002713631256483495,0.4112248420715332,0.7106624841690063,0.5712791085243225,-0.4540082812309265,0.3118644058704376,0.5840253233909607,0.3359014391899109,0.6707162261009216,0.42000001668930054,-0.4720791280269623,2.0848135948181152,-1.4150387048721313,3.0000009536743164,-0.1639331430196762,-0.16211263835430145,-0.16100233793258667,-0.15819543600082397,-0.12458991259336472,-0.05519421026110649,0.01803741417825222,0.07181210070848465
0.8166666666666667,0.058509036898612976,0.007655751891434193,0.0,0.6313604712486267,0.0,0.0,-0.7754895091056824,-0.15780971944332123,-0.1880122274160385,0.0,0.0,0.0,-1.8823511600494385,0.3443990647792816,0.6780350804328918,0.4200000464916229,0.6844642758369446,8.470590842080128e-07,-3.7075508316775085e-06,-0.7290463447570801,0.0002514825901016593,-0.00027595681603997946,-0.00010645412839949131,0.004654777701944113,0.0010674131335690618,-0.0002713067806325853,0.3991944193840027,0.714936375617981,0.5759614706039429,-1.0200392007827759,0.17213174700737,0.15606413781642914,0.3359014391899109,0.6707162261009216,0.42000001668930054,-0.46305301785469055,-0.7630428075790405,-1.3649860620498657,3.000000238418579,-0.1640779972076416,-0.16145747900009155,-0.1594284474849701,-0.1560005396604538,0.012355649843811989,0.06007430702447891,0.11546631902456284,0.15211227536201477
0.8333333333333334,0.058588191866874695,0.010684013366699219,0.0,0.6372494697570801,0.0,0.0,-0.7706575989723206,-0.01932259276509285,0.2244434952735901,0.0,0.0,0.0,1.6407772302627563,0.3443990647792816,0.6780350804328918,0.4200000464916229,0.6844643950462341,9.024750511343882e-07,-4.2308115553169046e-06,-0.7290462255477905,0.00025203422410413623,-0.0002759986964520067,-0.00010666577145457268,0.0046530007384717464,0.0010734479874372482,-0.0002723962243180722,0.3854829967021942,0.7175984382629395,0.5782256126403809,-0.548629105091095,0.3265949487686157,0.1621648371219635,0.3359014391899109,0.6707162261009216,0.42000001668930054,-0.45598989725112915,1.4176478385925293,-1.3837589025497437,-3.000000238418579,-0.16878995299339294,-0.1646745204925537,-0.16100859642028809,-0.15626876056194305,-0.11967821419239044,-0.0800723135471344,-0.0237931776791811,0.021883321925997734
0.85,0.06012134999036789,0.009381563402712345,0.0,0.6313243508338928,0.0,0.0,-0.7755188941955566,0.14917726814746857,-0.10111680626869202,0.0,0.0,0.0,-1.6644606590270996,0.34439903497695923,0.6780350804328918,0.4200000464916229,0.6844642162322998,8.030091294131125e-07,-4.02638261221e-06,-0.7290463447570801,0.0002498247195035219,-0.00027532814419828355,-0.0001060357317328453,0.004646551329642534,0.0010441760532557964,-0.0002688431122805923,0.3782077133655548,0.7213170528411865,0.577521562576294,-0.39560559391975403,0.016946058720350266,-0.08941362053155899,0.3359014391899109,0.6707162261009216,0.42000001668930054,-0.4774859845638275,-2.9999992847442627,-1.345357894897461,2.999999761581421,-0.16770006716251373,-0.1633889228105545,-0.15914440155029297,-0.15388241410255432,-0.0686231181025505,-0.018301311880350113,0.054474808275699615,0.12299387156963348
0.8666666666666667,0.06420976668596268,0.006157663185149431,0.0,0.6358208656311035,0.0,0.0,-0.7718366980552673,0.2845465838909149,-0.2796829640865326,0.0,0.0,0.0,1.8969348669052124,0.3443990647792816,0.6780350804328918,0.4200000464916229,0.6844642162322998,8.855862461132347e-07,-3.958296474593226e-06,-0.7290464043617249,0.00025059550534933805,-0.0002756085596047342,-0.00010621058754622936,0.004649606067687273,0.001054998836480081,-0.00026993328356184065,0.37479281425476074,0.7209611535072327,0.5789926052093506,-0.02606966905295849,-0.030318714678287506,0.31105560064315796,0.3359014391899109,0.6707162261009216,0.42000001668930054,-0.5122923254966736,-1.2953016757965088,-1.364477276802063,-3.000000476837158,-0.169937863945961,-0.16445909440517426,-0.15867486596107483,-0.15193501114845276,-0.10498178005218506,-0.03646036610007286,0.05496859550476074,0.14463816583156586
0.8833333333333333,0.07049296051263809,-0.00012876537221018225,0.0,0.6306219100952148,0.0,0.0,-0.7760902047157288,0.41475909948349,-0.4354908764362335,0.0,0.0,0.0,-1.707706332206726,0.3443990647792816,0.6780350804328918,0.4200000464916229,0.6844645738601685,9.14775171168003e-07,-4.008362793683773e-06,-0.7290459871292114,0.000252079451456666,-0.0002761908690445125,-0.00010665063746273518,0.004657250363379717,0.0010739607969298959,-0.00027223789948038757,0.3775769770145416,0.7174933552742004,0.578981876373291,0.36491456627845764,-0.37611818313598633,-0.09165539592504501,0.3359014391899109,0.6707162261009216,0.42000001668930054,-0.5481983423233032,-2.8491873741149902,-1.3266240358352661,3.0000011920928955,-0.1726449877023697,-0.1656748652458191,-0.1579844057559967,-0.1493191421031952,-0.14113262295722961,-0.03926039859652519,0.08794796466827393,0.21810893714427948
0.9,0.07959455251693726,-0.003491656854748726,0.0,0.6042598485946655,0.0,0.0,-0.7967873215675354,0.5860730409622192,-0.16559426486492157,0.0,0.0,0.0,-4.827415466308594,0.3443990647792816,0.6780350208282471,0.4200000464916229,0.6844645738601685,9.096088433580007e-07,-4.371324394014664e-06,-0.7290459871292114,0.0002524815790820867,-0.00027623208006843925,-0.00010678404942154884,0.004656445235013962,0.001079091220162809,-0.00027299890643917024,0.3868366479873657,0.7104133367538452,0.5786681175231934,0.7441234588623047,-0.3932812809944153,0.21640577912330627,0.3359014391899109,0.6707162261009216,0.42000001668930054,-0.5696617364883423,0.04024428874254227,-1.3460773229599,-3.0,-0.17571067810058594,-0.1677009016275406,-0.15858295559883118,-0.14843280613422394,-0.0727565810084343,-0.06229007989168167,-0.030309664085507393,0.006420522462576628
0.9166666666666666,0.08628581464290619,-0.004461539443582296,0.0,0.5932998061180115,0.0,0.0,-0.804981529712677,0.3194504380226135,-0.010482875630259514,0.0,0.0,0.0,-0.6222726702690125,0.3443990647792816,0.6780350804328918,0.4200000464916229,0.684464693069458,7.893866609265388e-07,-3.916644345736131e-06,-0.7290459275245667,0.00025008508237078786,-0.0002756422618404031,-0.00010605296120047569,0.004652300849556923,0.001047631842084229,-0.00026909084408544004,0.3970184326171875,0.7076364755630493,0.5837118029594421,0.45873400568962097,-0.00681940047070384,0.3284834921360016,0.3359014391899109,0.6707162261009216,0.42000001668930054,-0.5475696921348572,2.3882551193237305,-1.3165079355239868,3.000000476837158,-0.17449498176574707,-0.1670425832271576,-0.1581946313381195,-0.14825710654258728,0.17873342335224152,0.10926587879657745,0.0521182082593441,-0.003692719154059887
