vladlanda/robotic-transformer/data/env_000_episode_0264.csv
sim_time_s,robot_box_x,robot_box_y,robot_box_z,robot_box_quat_w,robot_box_quat_x,robot_box_quat_y,robot_box_quat_z,robot_box_linvel_x,robot_box_linvel_y,robot_box_linvel_z,robot_box_angvel_x,robot_box_angvel_y,robot_box_angvel_z,cube_world_x,cube_world_y,cube_world_z,cube_quat_w,cube_quat_x,cube_quat_y,cube_quat_z,cube_linvel_x,cube_linvel_y,cube_linvel_z,cube_angvel_x,cube_angvel_y,cube_angvel_z,endpoint_world_x,endpoint_world_y,endpoint_world_z,endpoint_linvel_x,endpoint_linvel_y,endpoint_linvel_z,target_cube_world_x,target_cube_world_y,target_cube_world_z,gripper_actual_pos_rad_gp_leftgearjoint,gripper_actual_vel_rad_s_gp_leftgearjoint,gripper_actual_pos_rad_gp_rotatingjoint,gripper_actual_vel_rad_s_gp_rotatingjoint,motor_angle_rad_joint1,motor_angle_rad_joint2,motor_angle_rad_joint3,motor_angle_rad_joint4,motor_speed_rad_s_joint1,motor_speed_rad_s_joint2,motor_speed_rad_s_joint3,motor_speed_rad_s_joint4
0.0,0.0,0.0,0.0,1.0,0.0,0.0,0.0,0.0,0.0,0.0,0.0,0.0,0.0,-0.43663179874420166,0.7551670074462891,0.41999998688697815,1.0,0.0,0.0,0.0,0.0,0.0,0.0,0.0,0.0,0.0,3.42540442943573e-06,-0.005000244826078415,1.313499927520752,0.0,0.0,0.0,0.45485132932662964,0.7211005687713623,0.42000001668930054,-1.5707999467849731,0.0,0.0,0.0,0.0,0.0,0.0,0.0,0.0,0.0,0.0,0.0
0.016666666666666666,0.0028778850100934505,0.0021806680597364902,0.0,0.9998081922531128,0.0,0.0,0.019586581736803055,0.24087215960025787,0.18240931630134583,0.0,0.0,0.0,3.1418697834014893,-0.4366319179534912,0.7551667094230652,0.41999998688697815,1.0,3.279964630564791e-06,-8.339746386809566e-07,8.465587342243452e-08,-1.9833529222523794e-05,0.00017983045836444944,-6.132945418357849e-05,0.0009432713268324733,-0.004689474124461412,-0.00031981561915017664,-0.007110234349966049,0.003379564033821225,1.3159373998641968,-0.8143353462219238,0.9868683815002441,0.18095196783542633,0.45485132932662964,0.7211005687713623,0.42000001668930054,-1.5301095247268677,3.0000011920928955,-0.04584788903594017,-2.9999992847442627,0.0008691533003002405,0.0007963840034790337,0.0007110277656465769,0.0006108740926720202,0.11094217747449875,0.09756709635257721,0.08334315568208694,0.06823883205652237
0.03333333333333333,0.00896099116653204,0.006802027579396963,0.0,0.9997960329055786,0.0,0.0,0.020196840167045593,0.4070222079753876,0.3153079152107239,0.0,0.0,0.0,-0.8691337704658508,-0.43663203716278076,0.7551666498184204,0.4200000464916229,1.0,3.390805204617209e-06,-2.132404688381939e-06,-3.708747797759315e-08,0.0002635775599628687,0.0002693787682801485,-0.0001050964929163456,-0.0017706695944070816,0.004130705259740353,-0.00013547964044846594,-0.027556639164686203,0.02629934810101986,1.3165804147720337,-1.5912965536117554,1.6163429021835327,-0.08707208186388016,0.45485132932662964,0.7211005687713623,0.42000001668930054,-1.4800903797149658,3.0000007152557373,-0.09588771313428879,-3.000000238418579,0.002990090986713767,0.0026526888832449913,0.0022772483061999083,0.0018606933299452066,0.1642124056816101,0.13975512981414795,0.11381323635578156,0.08629471808671951
0.05,0.017560113221406937,0.013732042163610458,0.0,0.999441921710968,0.0,0.0,0.03340400382876396,0.5880568027496338,0.4635303318500519,0.0,0.0,0.0,2.6847362518310547,-0.43663206696510315,0.7551667094230652,0.4200000464916229,1.0,3.765131168620428e-06,-2.2118479137134273e-06,5.629145594099327e-09,0.00026531046023592353,0.00026691515813581645,-0.00010440382175147533,-0.001724305097013712,0.004177468363195658,-0.00012949509255122393,-0.05957683175802231,0.05506107211112976,1.3112974166870117,-2.1858997344970703,1.8443197011947632,-0.5052467584609985,0.45485132932662964,0.7211005687713623,0.42000001668930054,-1.4300720691680908,3.0000009536743164,-0.145926371216774,-3.000000476837158,0.005635595880448818,0.004847212694585323,0.003986780997365713,0.0030497831758111715,0.19109147787094116,0.15421098470687866,0.11546842753887177,0.0747697576880455
0.06666666666666667,0.028784798458218575,0.02299884706735611,0.0,0.9995009899139404,0.0,0.0,0.03158653900027275,0.7149571776390076,0.5937068462371826,0.0,0.0,0.0,-1.1762478351593018,-0.43663206696510315,0.7551666498184204,0.4200000464916229,0.9999999403953552,3.406752739465446e-06,-2.2855651877762284e-06,4.3010143713217985e-07,0.0002670265967026353,0.000267917406745255,-0.00010437914170324802,-0.0017406505066901445,0.004211799707263708,-0.00012850486382376403,-0.0954320877790451,0.09136128425598145,1.2989606857299805,-2.156423568725586,2.386890411376953,-0.9450453519821167,0.45485132932662964,0.7211005687713623,0.42000001668930054,-1.3800537586212158,3.000000238418579,-0.19596368074417114,-3.0000014305114746,0.007921192795038223,0.006344793364405632,0.004657454323023558,0.002853583311662078,0.11780571937561035,0.05654049292206764,-0.0067808786407113075,-0.07221996784210205
0.08333333333333333,0.034182000905275345,0.0356142558157444,0.0,0.999998927116394,0.0,0.0,-0.001455055782571435,0.18415021896362305,0.8249590396881104,0.0,0.0,0.0,-4.900879383087158,-0.43663206696510315,0.7551666498184204,0.4200000464916229,1.0,3.6972376165067544e-06,-2.188903863498126e-06,-2.6322030066694424e-07,0.00026389601407572627,0.0002658639568835497,-0.00010434049181640148,-0.0017081866972148418,0.004150202497839928,-0.00012991315452381968,-0.12881508469581604,0.13531115651130676,1.2796149253845215,-1.9097670316696167,2.7599198818206787,-1.2955914735794067,0.45485132932662964,0.7211005687713623,0.42000001668930054,-1.3300269842147827,2.9999983310699463,-0.1765623241662979,2.99999737739563,0.004275825340300798,0.0019645888824015856,-0.0005088242469355464,-0.0031538768671453,-0.3243984878063202,-0.3735821843147278,-0.4253685474395752,-0.4800229072570801
0.1,0.044200923293828964,0.04987293481826782,0.0,0.9987934827804565,0.0,0.0,-0.0491076298058033,0.7131652235984802,0.8811037540435791,0.0,0.0,0.0,-6.135833740234375,-0.43663206696510315,0.7551666498184204,0.4200000464916229,0.9999999403953552,3.6203459785610903e-06,-2.2651347535429522e-06,1.7462500068177178e-07,0.000266767485300079,0.0002674072457011789,-0.0001040799543261528,-0.0017386269755661488,0.0042091254144907,-0.0001277512201340869,-0.1590537577867508,0.18189749121665955,1.2609950304031372,-1.6703965663909912,2.969571352005005,-1.0679798126220703,0.45485132932662964,0.7211005687713623,0.42000001668930054,-1.2800320386886597,3.000001907348633,-0.20818202197551727,-3.0000007152557373,0.004054579883813858,3.095893043791875e-05,-0.0041502234525978565,-0.008498253300786018,-6.600748747587204e-08,-0.11526104807853699,-0.2283441573381424,-0.34042251110076904
0.11666666666666667,0.05167457088828087,0.066441111266613,0.0,0.9972627758979797,0.0,0.0,-0.07393866032361984,0.4381999969482422,1.0333482027053833,0.0,0.0,0.0,-1.8263636827468872,-0.43663206696510315,0.7551666498184204,0.4200000464916229,1.0,3.7984141272318084e-06,-2.2627370981354034e-06,-1.5020638954865717e-07,0.00026374036679044366,0.0002656599972397089,-0.00010428996756672859,-0.0017054114723578095,0.004147567320615053,-0.00012979685561731458,-0.19248871505260468,0.22742095589637756,1.2425341606140137,-2.011962413787842,2.9055795669555664,-1.083143711090088,0.45485132932662964,0.7211005687713623,0.42000001668930054,-1.2300118207931519,2.9999871253967285,-0.1743130087852478,3.0,0.0012434780364856124,-0.00454684579744935,-0.010454194620251656,-0.016504423692822456,-0.10565631091594696,-0.22749754786491394,-0.3454347550868988,-0.4601218104362488
0.13333333333333333,0.05650663375854492,0.08242932707071304,0.0,0.9939676523208618,0.0,0.0,-0.10967372357845306,0.23549750447273254,0.9123000502586365,0.0,0.0,0.0,-5.139017581939697,-0.43663206696510315,0.7551667094230652,0.4200000464916229,0.9999999403953552,3.550497694959631e-06,-2.2297181203612126e-06,2.9291419423316256e-07,0.0002670333778951317,0.00026779333711601794,-0.00010416889563202858,-0.0017439303919672966,0.004213552922010422,-0.0001280046853935346,-0.22312703728675842,0.27915889024734497,1.2247925996780396,-1.6535435914993286,3.3722972869873047,-1.1076273918151855,0.45485132932662964,0.7211005687713623,0.42000001668930054,-1.1825379133224487,2.6833114624023438,-0.20595470070838928,-2.999999523162842,-0.0015179583569988608,-0.009436109103262424,-0.01739276945590973,-0.025420935824513435,-0.23939184844493866,-0.36178624629974365,-0.47944971919059753,-0.5926616787910461
0.15,0.05756261572241783,0.09896311908960342,0.0,0.9916924834251404,0.0,0.0,-0.1286311000585556,-0.012254875153303146,1.0219300985336304,0.0,0.0,0.0,-0.9373877644538879,-0.43663203716278076,0.7551666498184204,0.4200000464916229,1.0,3.332216692797374e-06,-2.1019013729528524e-06,1.313122055535132e-07,0.0002673068374861032,0.00026859444915317,-0.00010459451004862785,-0.0017497956287115812,0.004215684719383717,-0.00012927704665344208,-0.2584138810634613,0.33339253067970276,1.19962477684021,-2.2883386611938477,3.359879970550537,-1.8815054893493652,0.45485132932662964,0.7211005687713623,0.42000001668930054,-1.1534744501113892,0.9335536360740662,-0.17697061598300934,2.9999992847442627,-0.006653137039393187,-0.016172274947166443,-0.025642912834882736,-0.03510179743170738,-0.36791303753852844,-0.4365467429161072,-0.5002889037132263,-0.5593690872192383
0.16666666666666666,0.06334754079580307,0.11600862443447113,0.0,0.9871106743812561,0.0,0.0,-0.16003921627998352,0.4735174775123596,1.0307787656784058,0.0,0.0,0.0,-4.787166595458984,-0.43663206696510315,0.7551666498184204,0.4200000464916229,1.0,3.7372994938777993e-06,-2.233063014500658e-06,-1.8764163201012707e-07,0.00026432870072312653,0.0002662685001268983,-0.00010446133092045784,-0.0017119026742875576,0.004157518967986107,-0.00013001746265217662,-0.29392707347869873,0.3938639163970947,1.1663835048675537,-1.9615448713302612,3.8678460121154785,-2.165494918823242,0.45485132932662964,0.7211005687713623,0.42000001668930054,-1.110923171043396,3.000000476837158,-0.20859640836715698,-3.0000007152557373,-0.010378887876868248,-0.021196164190769196,-0.03187822178006172,-0.04246489703655243,-0.23756952583789825,-0.30531182885169983,-0.36851799488067627,-0.42733094096183777
0.18333333333333332,0.06592260301113129,0.12972909212112427,0.0,0.9773622155189514,0.0,0.0,-0.21157293021678925,0.09941347688436508,0.7758907675743103,0.0,0.0,0.0,-6.920632839202881,-0.43663206696510315,0.7551667094230652,0.4200000464916229,0.9999999403953552,3.6603269109036773e-06,-2.3022055302135414e-06,2.5285271476604976e-07,0.00026690986123867333,0.0002676024450920522,-0.00010412652045488358,-0.0017412863671779633,0.004211564548313618,-0.0001278719719266519,-0.3271837830543518,0.460099995136261,1.1228926181793213,-1.7848966121673584,4.295767784118652,-3.0148112773895264,0.45485132932662964,0.7211005687713623,0.42000001668930054,-1.076717734336853,1.2290867567062378,-0.2586250603199005,-2.9999992847442627,-0.02069738507270813,-0.03167171776294708,-0.04248075187206268,-0.053171511739492416,-0.7259184122085571,-0.714692234992981,-0.7022204399108887,-0.6888391971588135
0.2,0.06499875336885452,0.1441805213689804,0.0,0.9703990817070007,0.0,0.0,-0.24150705337524414,-0.14796289801597595,0.9064685702323914,0.0,0.0,0.0,-2.6247260570526123,-0.43663206696510315,0.7551666498184204,0.4200000464916229,1.0,3.59091814061685e-06,-2.3004013200988993e-06,1.3872175941287423e-07,0.00026654574321582913,0.000267320079728961,-0.0001042394433170557,-0.0017326025990769267,0.004203422926366329,-0.0001282018783967942,-0.3620471954345703,0.5276632308959961,1.0647046566009521,-1.9214025735855103,4.183816909790039,-3.9617857933044434,0.45485132932662964,0.7211005687713623,0.42000001668930054,-1.0323506593704224,3.000002145767212,-0.3086514472961426,-3.0,-0.034519050270318985,-0.044806718826293945,-0.0549120157957077,-0.06489108502864838,-0.8879931569099426,-0.826749324798584,-0.7650278806686401,-0.7034193277359009
0.21666666666666667,0.06659557670354843,0.16034559905529022,0.0,0.9587850570678711,0.0,0.0,-0.28413233160972595,0.11132819950580597,1.0131001472473145,0.0,0.0,0.0,-6.181576251983643,-0.43663206696510315,0.7551667094230652,0.4200000464916229,1.0,3.607027110774652e-06,-2.2609576717513846e-06,1.960636986098052e-08,0.0002644723863340914,0.00026558543322607875,-0.00010396563448011875,-0.001708892290480435,0.004164312966167927,-0.0001283241290366277,-0.39350050687789917,0.5967918634414673,0.9917879104614258,-1.6378531455993652,4.131277561187744,-4.765590667724609,0.45485132932662964,0.7211005687713623,0.42000001668930054,-0.9823476076126099,3.0,-0.3586774170398712,-2.9999988079071045,-0.0490880124270916,-0.058361705392599106,-0.06732792407274246,-0.07618468999862671,-0.9849789142608643,-0.9193563461303711,-0.8281164169311523,-0.7397595047950745
0.23333333333333334,0.06541234254837036,0.1739511936903,0.0,0.951174259185791,0.0,0.0,-0.3086543381214142,-0.10727734863758087,0.7432617545127869,0.0,0.0,0.0,-1.9928807020187378,-0.43663203716278076,0.7551666498184204,0.4200000464916229,0.9999999403953552,3.7423217236209894e-06,-2.2274525690590963e-06,4.588922308812471e-07,0.0002647516375873238,0.00026671364321373403,-0.0001045342069119215,-0.0017189101781696081,0.004165767692029476,-0.00013019373000133783,-0.42100954055786133,0.6567925214767456,0.90423583984375,-1.3372225761413574,3.4027886390686035,-5.644001007080078,0.45485132932662964,0.7211005687713623,0.42000001668930054,-0.9323388338088989,2.9999985694885254,-0.40870630741119385,-3.0000011920928955,-0.06521978229284286,-0.0744210034608841,-0.08292645961046219,-0.09037897735834122,-0.9868943691253662,-0.9702195525169373,-0.9297803044319153,-0.8507981300354004
0.25,0.067371666431427,0.18320812284946442,0.0,0.93930584192276,0.0,0.0,-0.343080997467041,0.17348527908325195,0.4264683425426483,0.0,0.0,0.0,-5.071256637573242,-0.43663206696510315,0.7551666498184204,0.4200000464916229,1.0,3.39448661179631e-06,-2.2819845071353484e-06,1.3360543960061477e-07,0.00026679469738155603,0.0002679398749023676,-0.0001043959055095911,-0.0017417483031749725,0.004206670913845301,-0.0001288425992242992,-0.4405832588672638,0.7085570096969604,0.8029943108558655,-0.8713541030883789,2.767756462097168,-6.387604236602783,0.45485132932662964,0.7211005687713623,0.42000001668930054,-0.8823281526565552,3.0000007152557373,-0.45873701572418213,-2.9999990463256836,-0.08123520016670227,-0.09025503695011139,-0.09866952151060104,-0.10556668788194656,-0.9761645197868347,-0.9557618498802185,-0.9403601884841919,-0.9290976524353027
0.26666666666666666,0.06414158642292023,0.1954280138015747,0.0,0.9329670071601868,0.0,0.0,-0.35996192693710327,-0.32232239842414856,0.8943321704864502,0.0,0.0,0.0,-1.2025392055511475,-0.43663206696510315,0.7551667094230652,0.4200000464916229,1.0,3.683507657115115e-06,-2.3100117232388584e-06,2.1007953421303682e-07,0.0002647930814418942,0.0002662573242560029,-0.00010421173647046089,-0.0017168023623526096,0.004168960731476545,-0.00012909334327559918,-0.451774537563324,0.7373085021972656,0.6939497590065002,-0.24767786264419556,0.9543472528457642,-6.610422134399414,0.45485132932662964,0.7211005687713623,0.42000001668930054,-0.8323177695274353,2.999997138977051,-0.508768618106842,-3.0,-0.098894402384758,-0.10761857777833939,-0.11581317335367203,-0.12254159152507782,-1.0000089406967163,-1.0000048875808716,-1.0000020265579224,-1.0000005960464478
0.2833333333333333,0.06517858058214188,0.20322884619235992,0.0,0.9368672370910645,0.0,0.0,-0.34968531131744385,0.09156124293804169,0.3867141008377075,0.0,0.0,0.0,1.9402353763580322,-0.43663206696510315,0.7551666498184204,0.4200000464916229,1.0,3.307009365016711e-06,-2.2123917915450875e-06,2.6254483032062126e-07,0.00026660889852792025,0.00026745148352347314,-0.00010424572974443436,-0.0017353077419102192,0.004204495809972286,-0.0001282844168599695,-0.4603787660598755,0.7454660534858704,0.585665225982666,-0.37836384773254395,-0.10057743638753891,-6.448640823364258,0.45485132932662964,0.7211005687713623,0.42000001668930054,-0.7823089361190796,2.999999761581421,-0.5587993264198303,-3.0,-0.11180154979228973,-0.12076858431100845,-0.129010871052742,-0.13582666218280792,-0.9938281178474426,-0.9584276080131531,-0.9111391305923462,-0.8721503019332886
0.3,0.06282167136669159,0.20736679434776306,0.0,0.9344601035118103,0.0,0.0,-0.3560678958892822,-0.15909256041049957,0.15734705328941345,0.0,0.0,0.0,-1.6392123699188232,-0.43663206696510315,0.7551666498184204,0.4200000464916229,1.0,3.6413346151675796e-06,-2.3777658952894853e-06,-4.194106395516428e-07,0.0002661141334101558,0.00026725803036242723,-0.00010423245839774609,-0.0017334752483293414,0.0041945013217628,-0.00012854678789153695,-0.45728668570518494,0.7485429048538208,0.4827933609485626,0.6204735040664673,0.3724760413169861,-5.6499857902526855,0.45485132932662964,0.7211005687713623,0.42000001668930054,-0.7323002219200134,2.9999849796295166,-0.6088279485702515,-2.999995708465576,-0.12956826388835907,-0.13830247521400452,-0.14637736976146698,-0.15306302905082703,-0.9064385890960693,-0.9332379698753357,-0.9575037956237793,-0.9760452508926392
0.31666666666666665,0.058538924902677536,0.20807123184204102,0.0,0.9377555847167969,0.0,0.0,-0.3472959101200104,-0.30459505319595337,0.0001617278321646154,0.0,0.0,0.0,1.954717755317688,-0.43663206696510315,0.7551667094230652,0.4200000464916229,1.0,3.6219364574208157e-06,-2.288903033331735e-06,1.9688533825501509e-07,0.00026734021957963705,0.00026802706997841597,-0.00010420568287372589,-0.0017466004937887192,0.004219025373458862,-0.00012794003123417497,-0.451776385307312,0.7538477182388306,0.43227046728134155,0.1912541389465332,-0.0016513317823410034,-0.29940351843833923,0.45485132932662964,0.7211005687713623,0.42000001668930054,-0.6822945475578308,2.9999942779541016,-0.6592392921447754,-3.0000100135803223,-0.14033299684524536,-0.14957675337791443,-0.15802809596061707,-0.1649065762758255,-0.20431339740753174,-0.2713012397289276,-0.3209763765335083,-0.3486538231372833
0.3333333333333333,0.05188390240073204,0.20627252757549286,0.0,0.9353876709938049,0.0,0.0,-0.35362398624420166,-0.44706958532333374,-0.15157465636730194,0.0,0.0,0.0,-1.6839942932128906,-0.43663206696510315,0.7551666498184204,0.4200000464916229,1.0,3.4145293739129556e-06,-2.2853535028843908e-06,2.50700850301655e-07,0.00026700369198806584,0.00026794098084792495,-0.00010437308810651302,-0.0017414725152775645,0.004211280029267073,-0.00012855412205681205,-0.4490601122379303,0.7612159252166748,0.4286554157733917,0.31044232845306396,0.6325396299362183,-0.20122240483760834,0.45485132932662964,0.7211005687713623,0.42000001668930054,-0.6322879195213318,2.9999802112579346,-0.7093185186386108,-3.0,-0.1444094181060791,-0.15437357127666473,-0.1632557362318039,-0.1702384650707245,-0.2899492383003235,-0.3088938295841217,-0.31321677565574646,-0.30283233523368835
0.35,0.04295339807868004,0.20202015340328217,0.0,0.938570499420166,0.0,0.0,-0.3450874984264374,-0.5808287262916565,-0.29548919200897217,0.0,0.0,0.0,1.9572018384933472,-0.4336928725242615,0.7615182399749756,0.42000001668930054,0.9951831698417664,4.475249625102151e-06,5.983878963888856e-06,-0.09803257882595062,0.16811661422252655,0.36813977360725403,-2.883228262362536e-05,-0.0014327761018648744,0.003394902218133211,-10.929386138916016,-0.44276565313339233,0.7693653106689453,0.424707293510437,0.5067136287689209,0.4475673735141754,-0.2352295219898224,0.45485132932662964,0.7211005687713623,0.42000001668930054,-0.5822826027870178,2.9999825954437256,-0.7593586444854736,-2.999997138977051,-0.15148763358592987,-0.1606915295124054,-0.16860748827457428,-0.1744668036699295,-0.48000216484069824,-0.3931463658809662,-0.29584333300590515,-0.1930793821811676
0.36666666666666664,0.03174355626106262,0.19534382224082947,0.0,0.9362247586250305,0.0,0.0,-0.35140180587768555,-0.7166045904159546,-0.44586971402168274,0.0,0.0,0.0,-1.6791123151779175,-0.4282345771789551,0.7709029316902161,0.4200001358985901,0.9894481897354126,-4.5095483073964715e-05,5.981190497550415e-06,-0.14488717913627625,0.4644683003425598,0.7109383344650269,-0.0015096734277904034,0.06840195506811142,-0.013383433222770691,-1.3843439817428589,-0.4332672655582428,0.7770310640335083,0.4213492274284363,0.6658042669296265,0.5478371977806091,-0.17168593406677246,0.45485132932662964,0.7211005687713623,0.42000001668930054,-0.5322776436805725,2.999985456466675,-0.8094145059585571,-2.9999966621398926,-0.16007736325263977,-0.16756531596183777,-0.17356379330158234,-0.17741020023822784,-0.5017094612121582,-0.39132604002952576,-0.26889196038246155,-0.1416623890399933
0.3833333333333333,0.018383024260401726,0.18625953793525696,0.0,0.9391390681266785,0.0,0.0,-0.34353727102279663,-0.8430936336517334,-0.5834275484085083,0.0,0.0,0.0,2.058917284011841,-0.4182441234588623,0.7850820422172546,0.42000025510787964,0.98381108045578,-6.097798177506775e-05,2.8105756427976303e-05,-0.17920845746994019,0.7636639475822449,1.005751132965088,-0.0025162608362734318,0.12201710790395737,-0.04789695516228676,-6.223236083984375,-0.4206410348415375,0.7886646389961243,0.41925662755966187,0.8097409009933472,0.887861967086792,-0.00452611967921257,0.45485132932662964,0.7211005687713623,0.42000001668930054,-0.48227179050445557,2.9996566772460938,-0.8594480752944946,-2.989806890487671,-0.16915257275104523,-0.17430590093135834,-0.1777416467666626,-0.17894247174263,-0.5056044459342957,-0.3538725674152374,-0.18772688508033752,-0.016490887850522995
0.4,0.008730228990316391,0.17439277470111847,0.0,0.9370019435882568,0.0,0.0,-0.349324107170105,-0.4913555383682251,-0.758414626121521,0.0,0.0,0.0,-1.640641212463379,-0.40504422783851624,0.8021304607391357,0.4200027287006378,0.9747305512428284,-4.8144454922294244e-05,1.2553629176181857e-06,-0.22338350117206573,0.8782710433006287,1.104977011680603,0.0031944054644554853,-0.20309315621852875,0.12497267872095108,-5.831881046295166,-0.4055714011192322,0.8029888272285461,0.4206794500350952,1.0718337297439575,0.8835819959640503,0.11183047294616699,0.45485132932662964,0.7211005687713623,0.42000001668930054,-0.43221062421798706,2.9999783039093018,-0.909453809261322,-2.9999840259552,-0.1767258197069168,-0.1790730208158493,-0.17939729988574982,-0.17735297977924347,-0.39028504490852356,-0.21158334612846375,-0.013925603590905666,0.19195517897605896
0.4166666666666667,-0.0035492652095854282,0.16090421378612518,0.0,0.9237819314002991,0.0,0.0,-0.3829190135002136,-0.828335702419281,-0.8330658078193665,0.0,0.0,0.0,-5.262797832489014,-0.3822464048862457,0.821427047252655,0.4225768446922302,0.9578312635421753,-0.023442137986421585,-0.016022052615880966,-0.2859247326850891,1.9092941284179688,0.9977859854698181,0.05073624849319458,22.39635467529297,-14.617026329040527,9.373285293579102,-0.3824889659881592,0.8227853775024414,0.4229627251625061,1.6738476753234863,1.368056058883667,0.34774351119995117,0.45485132932662964,0.7211005687713623,0.42000001668930054,-0.3948989808559418,1.188704013824463,-0.9594762921333313,-3.000000476837158,-0.18542265892028809,-0.1844298094511032,-0.18112793564796448,-0.17536187171936035,-0.5386715531349182,-0.3361698389053345,-0.11903568357229233,0.10136155039072037
0.43333333333333335,-0.012636933475732803,0.14447785913944244,0.0,0.8972815871238708,0.0,0.0,-0.44145864248275757,-0.5149381160736084,-1.027405023574829,0.0,0.0,0.0,-8.483624458312988,-0.3461172580718994,0.8469504117965698,0.4272337257862091,0.9391887187957764,-0.01837937720119953,-0.04387133941054344,-0.34009110927581787,2.7649948596954346,1.1083474159240723,0.6014096140861511,-7.413708686828613,1.855947494506836,10.776834487915039,-0.3464571237564087,0.8477064371109009,0.42779988050460815,2.6694278717041016,1.6384241580963135,0.4969947040081024,0.45485132932662964,0.7211005687713623,0.42000001668930054,-0.377179354429245,1.132219672203064,-1.0094983577728271,-3.0,-0.1932966113090515,-0.1889100819826126,-0.18199197947978973,-0.17257925868034363,-0.5572956204414368,-0.3225507438182831,-0.07822547852993011,0.1632760912179947
0.45,-0.01994318701326847,0.1325039267539978,0.0,0.8541365265846252,0.0,0.0,-0.5200488567352295,-0.39604267477989197,-0.5750647187232971,0.0,0.0,0.0,-11.55308723449707,-0.275773823261261,0.8774633407592773,0.43464410305023193,0.9152668714523315,0.01911880448460579,-0.08013907074928284,-0.3943331241607666,5.532953262329102,1.6896798610687256,0.5117940902709961,15.650554656982422,-17.214374542236328,10.198660850524902,-0.2765654921531677,0.8788198232650757,0.4349379539489746,5.49526834487915,2.2519378662109375,0.5282607674598694,0.45485132932662964,0.7211005687713623,0.42000001668930054,-0.3562931418418884,1.3010329008102417,-0.972225546836853,2.9966344833374023,-0.2085113823413849,-0.20010630786418915,-0.18764236569404602,-0.17311984300613403,-0.9110429883003235,-0.7827741503715515,-0.4464511573314667,-0.1484285295009613
0.4666666666666667,-0.0233683492988348,0.1202099472284317,0.0,0.7909249067306519,0.0,0.0,-0.6119132041931152,-0.14896580576896667,-0.8383680582046509,0.0,0.0,0.0,-14.23448371887207,-0.16515780985355377,0.9111272096633911,0.44416213035583496,0.8769825100898743,0.04627838730812073,-0.09357544034719467,-0.4690452814102173,7.852266788482666,1.4193629026412964,0.5759152770042419,0.9672354459762573,-18.909677505493164,14.938482284545898,-0.16616234183311462,0.9137306213378906,0.4442867636680603,7.71547794342041,2.0160536766052246,0.7572500705718994,0.45485132932662964,0.7211005687713623,0.42000001668930054,-0.3342847526073456,1.301207184791565,-0.997196614742279,-3.0000038146972656,-0.2228529304265976,-0.21264371275901794,-0.19460703432559967,-0.17532913386821747,-0.8255332112312317,-0.6938391327857971,-0.3888685405254364,-0.13836348056793213
0.48333333333333334,-0.02951834350824356,0.11125799268484116,0.0,0.7333110570907593,0.0,0.0,-0.6798933148384094,-0.33079075813293457,-0.5281547904014587,0.0,0.0,0.0,-9.253470420837402,-0.04453550651669502,0.9271348118782043,0.45512571930885315,0.8500879406929016,0.10086881369352341,-0.12255632877349854,-0.5021513104438782,7.048445224761963,-0.034633371978998184,0.5359058380126953,4.195260524749756,-12.590044021606445,7.683547496795654,-0.0440526008605957,0.932380735874176,0.4559949040412903,7.181131362915039,0.44464758038520813,0.6984096169471741,0.45485132932662964,0.7211005687713623,0.42000001668930054,-0.3137112259864807,1.1958818435668945,-0.9596919417381287,2.9981164932250977,-0.23701241612434387,-0.22717852890491486,-0.20558412373065948,-0.18109315633773804,-0.609576940536499,-0.6827924251556396,-0.5921894311904907,-0.339706689119339
0.5,-0.03228835389018059,0.10529423505067825,0.0,0.6994178295135498,0.0,0.0,-0.7147129774093628,-0.11131751537322998,-0.29482412338256836,0.0,0.0,0.0,-4.689411163330078,0.0692552775144577,0.921459436416626,0.4644831418991089,0.790124237537384,0.110445037484169,-0.12233347445726395,-0.5903726816177368,6.28451681137085,-1.927899718284607,0.6987466216087341,-8.411385536193848,8.359537124633789,13.201050758361816,0.06860055029392242,0.9292190074920654,0.46515703201293945,6.521745204925537,-0.9067797660827637,0.5087132453918457,0.45485132932662964,0.7211005687713623,0.42000001668930054,-0.29868215322494507,0.5037091970443726,-0.9844632148742676,-2.999575614929199,-0.24005499482154846,-0.24002592265605927,-0.21735802292823792,-0.18803094327449799,-0.012661031447350979,-0.038263119757175446,-0.8072971105575562,-0.5181793570518494
0.5166666666666666,-0.03112170659005642,0.09461355954408646,0.0,0.6888401508331299,0.0,0.0,-0.7249132394790649,0.06362126767635345,-0.5874663591384888,0.0,0.0,0.0,-0.8296555876731873,0.16814404726028442,0.8999678492546082,0.46782493591308594,0.7192021012306213,0.02797607332468033,-0.16086038947105408,-0.6753439903259277,4.943087100982666,-2.5974159240722656,0.5607181787490845,12.488814353942871,-2.534655809402466,27.916433334350586,0.16682061553001404,0.9092851877212524,0.4715975821018219,5.399534225463867,-1.7458382844924927,0.20097343623638153,0.45485132932662964,0.7211005687713623,0.42000001668930054,-0.294455885887146,-0.09507147967815399,-1.034485936164856,-3.00000262260437,-0.2364770472049713,-0.23638439178466797,-0.2247685045003891,-0.19194068014621735,-0.01796107180416584,0.09324570745229721,-0.3951314389705658,-0.19317202270030975
0.5333333333333333,-0.02833862416446209,0.08905577659606934,0.0,0.6689454913139343,0.0,0.0,-0.7433114647865295,0.20423546433448792,-0.24821141362190247,0.0,0.0,0.0,-4.167694091796875,0.2487456351518631,0.8697372078895569,0.46626657247543335,0.687038242816925,0.005552143789827824,-0.14068707823753357,-0.7128496766090393,4.3451433181762695,-2.2500431537628174,-0.17977342009544373,8.261317253112793,1.1624960899353027,5.741844177246094,0.24823744595050812,0.8782020211219788,0.4701591730117798,4.568757057189941,-2.1095964908599854,-0.3543914556503296,0.45485132932662964,0.7211005687713623,0.42000001668930054,-0.29583847522735596,0.16506515443325043,-1.0845080614089966,-3.0,-0.23709042370319366,-0.23503006994724274,-0.23016680777072906,-0.1952887922525406,0.022818489000201225,0.14050857722759247,-0.19645559787750244,-0.14976075291633606
0.55,-0.022678159177303314,0.08685926347970963,0.0,0.6637020707130432,0.0,0.0,-0.7479970455169678,0.37324845790863037,-0.05621068924665451,0.0,0.0,0.0,0.10855737328529358,0.31714925169944763,0.8321977853775024,0.4560302793979645,0.6237850785255432,-0.05108834430575371,-0.14083442091941833,-0.7671035528182983,3.4546091556549072,-2.754077672958374,-0.8303095698356628,-14.49783992767334,9.708725929260254,-4.194231986999512,0.31693875789642334,0.8413309454917908,0.4613417983055115,3.708348274230957,-2.3538739681243896,-0.6527811288833618,0.45485132932662964,0.7211005687713623,0.42000001668930054,-0.2880077660083771,0.6376616358757019,-1.1345301866531372,-2.9994544982910156,-0.23597709834575653,-0.23212531208992004,-0.23181572556495667,-0.1972566545009613,0.10972823202610016,0.2107488512992859,-0.005709965247660875,-0.08320354670286179
0.5666666666666667,-0.014610213227570057,0.08053500950336456,0.0,0.6479158997535706,0.0,0.0,-0.761711835861206,0.48834168910980225,-0.3980162739753723,0.0,0.0,0.0,-3.337920904159546,0.3725120723247528,0.7963048219680786,0.4384269416332245,0.5772779583930969,-0.09888315200805664,-0.11534447968006134,-0.8022891283035278,2.6374764442443848,-2.412299633026123,-1.1455892324447632,-5.310852527618408,10.03122615814209,6.598123073577881,0.3731718063354492,0.805451512336731,0.44406306743621826,2.989659070968628,-2.1566579341888428,-1.2241394519805908,0.45485132932662964,0.7211005687713623,0.42000001668930054,-0.27783316373825073,0.44496721029281616,-1.1845523118972778,-2.99897837638855,-0.22870276868343353,-0.22434595227241516,-0.22771978378295898,-0.19609825313091278,0.40548014640808105,0.4429247975349426,0.281114786863327,0.07463731616735458
0.5833333333333334,-0.004268359858542681,0.07881730794906616,0.0,0.6451243758201599,0.0,0.0,-0.7640776038169861,0.6480211615562439,-0.07742271572351456,0.0,0.0,0.0,0.48615503311157227,0.41381585597991943,0.7650339007377625,0.42200767993927,0.5588817596435547,-0.02201768197119236,-0.011347618885338306,-0.8288772106170654,1.952711820602417,-1.5455886125564575,-0.5688073039054871,40.62514877319336,-17.31005096435547,11.682036399841309,0.4136004149913788,0.7696835994720459,0.4227149486541748,1.9645891189575195,-1.9613606929779053,-1.1750644445419312,0.45485132932662964,0.7211005687713623,0.42000001668930054,-0.2682205140590668,0.7658133506774902,-1.234574317932129,-2.9956533908843994,-0.22469811141490936,-0.21952706575393677,-0.2245774269104004,-0.19662579894065857,0.37611478567123413,0.36748582124710083,0.261069118976593,-0.015542314387857914
0.6,0.0034356473479419947,0.07444944232702255,0.0,0.6314576864242554,0.0,0.0,-0.7754102945327759,0.38931509852409363,-0.3408977687358856,0.0,0.0,0.0,-2.9052488803863525,0.4386967122554779,0.748760461807251,0.4202542006969452,0.471897155046463,-0.0017876429483294487,-0.00424128258600831,-0.8816415667533875,1.2421627044677734,-0.8527494072914124,-0.09057088196277618,3.0141849517822266,1.0008087158203125,-16.640338897705078,0.43394142389297485,0.7536818385124207,0.4243222177028656,0.9536300897598267,-0.8339444994926453,-0.10087595880031586,0.45485132932662964,0.7211005687713623,0.42000001668930054,-0.24398313462734222,1.8128862380981445,-1.2337324619293213,2.4434940814971924,-0.2142515629529953,-0.2104846090078354,-0.21765656769275665,-0.19515353441238403,0.5537108778953552,0.47839537262916565,0.39035260677337646,0.06134762987494469
0.6166666666666667,0.011951050721108913,0.07330711930990219,0.0,0.6312362551689148,0.0,0.0,-0.7755905985832214,0.5310803055763245,-0.021762754768133163,0.0,0.0,0.0,0.8504397869110107,0.4478302299976349,0.738764762878418,0.4212283790111542,0.5048031210899353,-0.01609589159488678,0.024237772449851036,-0.8627440333366394,0.3112640976905823,-1.2740769386291504,0.010959325358271599,-5.984969615936279,-1.2120380401611328,15.950318336486816,0.4448843002319336,0.741044282913208,0.42565861344337463,0.34840142726898193,-0.5692727565765381,0.04002198576927185,0.45485132932662964,0.7211005687713623,0.42000001668930054,-0.2211073637008667,0.6462520956993103,-1.2595446109771729,-3.0000040531158447,-0.20793595910072327,-0.20513395965099335,-0.21298064291477203,-0.19559843838214874,0.41088688373565674,0.33104461431503296,0.29513585567474365,-0.022708015516400337
0.6333333333333333,0.01767493225634098,0.06789741665124893,0.0,0.619697093963623,0.0,0.0,-0.7848410606384277,0.26800522208213806,-0.3495241403579712,0.0,0.0,0.0,-2.5578880310058594,0.45161938667297363,0.7335447669029236,0.42053595185279846,0.5365952849388123,-0.007052311673760414,0.01107737235724926,-0.8437375426292419,-0.06683312356472015,-0.2747819423675537,0.023487314581871033,0.13270604610443115,2.174312114715576,4.485445022583008,0.44759994745254517,0.7353906631469727,0.42496544122695923,-0.08928069472312927,-0.22144201397895813,-0.032319262623786926,0.45485132932662964,0.7211005687713623,0.42000001668930054,-0.2269946038722992,-0.7095012664794922,-1.22144615650177,3.000000238418579,-0.1973237246274948,-0.19648529589176178,-0.2051820605993271,-0.19340293109416962,0.5037378668785095,0.4212525486946106,0.4190405607223511,0.12490039318799973
0.65,0.024739321321249008,0.06725937128067017,0.0,0.6213627457618713,0.0,0.0,-0.7835230231285095,0.43327096104621887,-0.03163769096136093,0.0,0.0,0.0,1.064610242843628,0.4491598904132843,0.7300415635108948,0.4200032353401184,0.5553876161575317,2.7616886654868722e-05,-1.9973243979620747e-05,-0.8315915465354919,-0.16921500861644745,-0.14454418420791626,-0.002069094916805625,-0.09350326657295227,0.04826534539461136,1.9019523859024048,0.4444119334220886,0.7319159507751465,0.4248768985271454,-0.1474793702363968,-0.040911320596933365,0.12892253696918488,0.45485132932662964,0.7211005687713623,0.42000001668930054,-0.24995510280132294,-1.9239284992218018,-1.2423911094665527,-2.999328374862671,-0.19303745031356812,-0.1929028034210205,-0.20079323649406433,-0.19303712248802185,0.3514080047607422,0.27891144156455994,0.3106324374675751,0.06662745773792267
0.6666666666666666,0.033174075186252594,0.06936183571815491,0.0,0.6111471056938171,0.0,0.0,-0.7915170192718506,0.5434529185295105,0.19380851089954376,0.0,0.0,0.0,-2.507897138595581,0.44710034132003784,0.7283140420913696,0.4200000464916229,0.566082239151001,-3.296259592389106e-06,1.538762717245845e-07,-0.8243487477302551,-0.1085161566734314,-0.08992553502321243,-0.00012334436178207397,0.00283770146779716,-0.0034247899893671274,1.4410426616668701,0.44486916065216064,0.7333730459213257,0.4275883734226227,0.024075370281934738,0.17115774750709534,0.21024273335933685,0.45485132932662964,0.7211005687713623,0.42000001668930054,-0.29525113105773926,-3.0000009536743164,-1.2923495769500732,-2.9990456104278564,-0.1856483519077301,-0.18742644786834717,-0.1952894628047943,-0.19172456860542297,0.4985201358795166,0.37087082862854004,0.3633083999156952,0.11934374272823334
0.6833333333333333,0.04405761510133743,0.06639188528060913,0.0,0.6136571168899536,0.0,0.0,-0.7895726561546326,0.6970049738883972,-0.3004383444786072,0.0,0.0,0.0,1.3278651237487793,0.4466603100299835,0.7279424071311951,0.4200004041194916,0.5685622096061707,6.639383354922757e-05,4.0298040403285995e-05,-0.8226402401924133,-0.04889514297246933,-0.03816032409667969,-0.003093062900006771,-0.1407635509967804,0.05342812091112137,0.9104971289634705,0.4443291127681732,0.7370306253433228,0.4310244023799896,-0.09219592064619064,0.24878084659576416,0.2057463526725769,0.45485132932662964,0.7211005687713623,0.42000001668930054,-0.34525901079177856,-2.999995470046997,-1.342352032661438,-2.9999735355377197,-0.17377667129039764,-0.17809773981571198,-0.18654635548591614,-0.18720482289791107,0.7267991900444031,0.5856549739837646,0.5554616451263428,0.3212805986404419
0.7,0.05632295459508896,0.06733321398496628,0.0,0.6391598582267761,0.0,0.0,-0.7690739035606384,0.7790427207946777,0.17287148535251617,0.0,0.0,0.0,4.821657657623291,0.4464951455593109,0.7278345823287964,0.4199996590614319,0.5703687071800232,3.8224939089559484e-06,-9.781554581422824e-06,-0.8213886618614197,-0.00011038201046176255,-0.0009918021969497204,4.041101783514023e-05,0.03985000029206276,-0.01913704164326191,0.0009657981572672725,0.4435637593269348,0.7405408620834351,0.43463170528411865,-0.02238762006163597,0.23570916056632996,0.24770931899547577,0.45485132932662964,0.7211005687713623,0.42000001668930054,-0.39526620507240295,-2.998645305633545,-1.3923290967941284,-2.999382734298706,-0.16625720262527466,-0.17187535762786865,-0.17986632883548737,-0.1831635683774948,0.40030884742736816,0.3413609564304352,0.38266733288764954,0.25818967819213867
0.7166666666666667,0.06638023257255554,0.06528103351593018,0.0,0.6506216526031494,0.0,0.0,-0.7594020366668701,0.5112055540084839,-0.1448323279619217,0.0,0.0,0.0,0.6651554107666016,0.44648128747940063,0.7278355360031128,0.42000219225883484,0.570128321647644,8.866241842042655e-05,2.156158006982878e-05,-0.8215556144714355,-0.05071135610342026,-0.0052497549913823605,0.00016432729898951948,-0.1279182732105255,-0.06411178410053253,-2.8685073852539062,0.44296956062316895,0.7432380318641663,0.4400506019592285,-0.09818116575479507,-0.025312550365924835,0.3488933742046356,0.45485132932662964,0.7211005687713623,0.42000001668930054,-0.44525086879730225,-2.9998018741607666,-1.4423161745071411,-2.9997527599334717,-0.15912751853466034,-0.1650714874267578,-0.17174369096755981,-0.17605283856391907,0.21145124733448029,0.27060645818710327,0.42185136675834656,0.4515191316604614
0.7333333333333333,0.07606524974107742,0.06048477441072464,0.0,0.6384664177894592,0.0,0.0,-0.7696496844291687,0.6159636974334717,-0.35464122891426086,0.0,0.0,0.0,-2.80141544342041,0.44627439975738525,0.7277552485466003,0.4199996888637543,0.5668776035308838,-2.974639028252568e-05,-2.823462864398607e-06,-0.8238019943237305,-0.0019468633690848947,-0.000579734449274838,-0.0008396164048463106,-0.009028271771967411,-0.01251103077083826,0.01288081519305706,0.4465371072292328,0.7441776990890503,0.4525644779205322,0.4960983097553253,0.08956316113471985,1.2339462041854858,0.45485132932662964,0.7211005687713623,0.42000001668930054,-0.4952637553215027,-2.999983072280884,-1.4923343658447266,-3.000000476837158,-0.157894566655159,-0.16259054839611053,-0.16660697758197784,-0.16994532942771912,0.005962582305073738,0.08982083946466446,0.25010836124420166,0.3274258077144623
0.75,0.08885661512613297,0.05941592901945114,0.0,0.6038578748703003,0.0,0.0,-0.7970919609069824,0.7559261918067932,0.017757950350642204,0.0,0.0,0.0,-6.177610874176025,0.446272075176239,0.7277542948722839,0.41999998688697815,0.5668817758560181,-2.7921885248360923e-06,-3.8818843677290715e-06,-0.823799192905426,2.081968887068797e-06,-0.0003425790346227586,-9.268149733543396e-05,0.008730625733733177,-0.0033979148138314486,-0.0007138315122574568,0.4626850485801697,0.7424548268318176,0.47901129722595215,1.4634588956832886,-0.18729257583618164,2.036140203475952,0.45485132932662964,0.7211005687713623,0.42000001668930054,-0.5452763438224792,-2.9998879432678223,-1.5423526763916016,-2.999988555908203,-0.1632194072008133,-0.16567717492580414,-0.1663554608821869,-0.1674956977367401,-0.31638234853744507,-0.19159726798534393,-0.006711399182677269,0.1277492642402649
0.7666666666666666,0.10326050221920013,0.06102726235985756,0.0,0.5844091176986694,0.0,0.0,-0.8114591836929321,0.9100567102432251,0.1616467833518982,0.0,0.0,0.0,-1.8781640529632568,0.446272075176239,0.7277542948722839,0.41999998688697815,0.5668818354606628,-2.8825811568822246e-06,-4.361343144410057e-06,-0.8237990140914917,-2.662475708348211e-06,-0.00034283328568562865,-9.584380313754082e-05,0.008673040196299553,-0.0033338319044560194,-0.0007039895281195641,0.487701952457428,0.7428190112113953,0.5136653184890747,1.4307045936584473,0.20066925883293152,2.142986536026001,0.45485132932662964,0.7211005687713623,0.42000001668930054,-0.5662980079650879,0.2104278802871704,-1.592368721961975,-3.0,-0.16692528128623962,-0.16822516918182373,-0.16691648960113525,-0.16668500006198883,-0.150541290640831,-0.12159090489149094,-0.05484161153435707,-0.015599442645907402
0.7833333333333333,0.11453837156295776,0.06461847573518753,0.0,0.5908704996109009,0.0,0.0,-0.8067663908004761,0.5936087965965271,0.27023687958717346,0.0,0.0,0.0,1.853003978729248,0.446272075176239,0.7277542948722839,0.41999998688697815,0.5668819546699524,-3.072721710850601e-06,-4.3926347643719055e-06,-0.8237990140914917,-2.9209113563410938e-06,-0.0003428019699640572,-9.591924026608467e-05,0.008671593852341175,-0.0033346135169267654,-0.0007031091954559088,0.5092082023620605,0.7473434209823608,0.5436052083969116,1.0683485269546509,0.3258054256439209,1.5057258605957031,0.45485132932662964,0.7211005687713623,0.42000001668930054,-0.5419124364852905,2.4959709644317627,-1.553376317024231,3.0000016689300537,-0.1669321209192276,-0.16803580522537231,-0.16604934632778168,-0.1654283106327057,0.07251538336277008,0.07929147034883499,0.10517877340316772,0.12063762545585632
0.8,0.1205710619688034,0.06329511851072311,0.0,0.585227906703949,0.0,0.0,-0.8108687996864319,0.3691038191318512,-0.10409785062074661,0.0,0.0,0.0,-1.6362531185150146,0.446272075176239,0.7277542948722839,0.41999998688697815,0.5668819546699524,-3.0843682452541543e-06,-4.0904296838562004e-06,-0.8237989544868469,-3.8033849705243483e-06,-0.0003426212933845818,-9.620655328035355e-05,0.00866334605962038,-0.0033387127332389355,-0.000701121985912323,0.5202453136444092,0.7547540664672852,0.5626071095466614,0.19479896128177643,0.3402157127857208,0.898783802986145,0.45485132932662964,0.7211005687713623,0.42000001668930054,-0.5148493647575378,0.8723343014717102,-1.5033198595046997,2.999999523162842,-0.16106130182743073,-0.16266416013240814,-0.16099029779434204,-0.16072241961956024,0.14061884582042694,0.1643316000699997,0.1864987313747406,0.20489466190338135
0.8166666666666667,0.1241200640797615,0.06709060072898865,0.0,0.5929077863693237,0.0,0.0,-0.8052703738212585,0.14934499561786652,0.23469693958759308,0.0,0.0,0.0,1.9034260511398315,0.446272075176239,0.7277542948722839,0.41999998688697815,0.5668817162513733,-2.877478209484252e-06,-4.415674538904568e-06,-0.8237991333007812,-2.732825123530347e-06,-0.00034279871033504605,-9.586010128259659e-05,0.008671978488564491,-0.0033342125825583935,-0.0007035252056084573,0.5186965465545654,0.7597547173500061,0.5748553276062012,-0.2377680093050003,0.40892162919044495,0.585280179977417,0.45485132932662964,0.7211005687713623,0.42000001668930054,-0.48561352491378784,2.475078821182251,-1.4785925149917603,0.19011175632476807,-0.16321802139282227,-0.16347898542881012,-0.16069263219833374,-0.15941916406154633,0.01463342271745205,0.057662755250930786,0.08439912647008896,0.1119549348950386
0.8333333333333334,0.12398360669612885,0.0658390149474144,0.0,0.5874918103218079,0.0,0.0,-0.8092300891876221,-0.0546477809548378,-0.1628657579421997,0.0,0.0,0.0,-1.7119674682617188,0.4462721049785614,0.7277542948722839,0.41999998688697815,0.5668817162513733,-3.149650183331687e-06,-4.099894795217551e-06,-0.8237991333007812,-2.7714013413060457e-06,-0.0003427084884606302,-9.594345465302467e-05,0.00866660661995411,-0.0033315420150756836,-0.0007032551802694798,0.5090563893318176,0.7657477259635925,0.5784804821014404,-0.9294509887695312,0.31233733892440796,0.050894271582365036,0.45485132932662964,0.7211005687713623,0.42000001668930054,-0.47841623425483704,-1.2919914722442627,-1.4307347536087036,3.000000476837158,-0.16152052581310272,-0.1612514853477478,-0.1582498997449875,-0.15666763484477997,0.12064750492572784,0.15507356822490692,0.1666751503944397,0.18578672409057617
0.85,0.12690839171409607,0.07034915685653687,0.0,0.5950803160667419,0.0,0.0,-0.8036662340164185,0.2386179119348526,0.43694841861724854,0.0,0.0,0.0,2.05047345161438,0.446272075176239,0.7277542948722839,0.41999998688697815,0.5668818950653076,-2.9214040750957793e-06,-4.196560894342838e-06,-0.8237990140914917,-3.163921974191908e-06,-0.00034292845521122217,-9.602168574929237e-05,0.008674697950482368,-0.003338898764923215,-0.0007029389380477369,0.4957587420940399,0.7691832780838013,0.5774807333946228,-0.6476503014564514,0.2251676321029663,-0.12958112359046936,0.45485132932662964,0.7211005687713623,0.42000001668930054,-0.4781358540058136,1.1169030666351318,-1.4482795000076294,-3.000000238418579,-0.16646412014961243,-0.16440221667289734,-0.16010040044784546,-0.1571626514196396,-0.3875442445278168,-0.2735450565814972,-0.18979816138744354,-0.10055021941661835
0.8666666666666667,0.12573514878749847,0.07215353846549988,0.0,0.6162111759185791,0.0,0.0,-0.7875809669494629,-0.06399186700582504,0.06799937039613724,0.0,0.0,0.0,3.681162118911743,0.446272075176239,0.7277542948722839,0.41999998688697815,0.5668816566467285,-3.061140887439251e-06,-4.3203708628425375e-06,-0.823799192905426,-2.992201189044863e-06,-0.00034271544427610934,-9.593437425792217e-05,0.008668790571391582,-0.0033342193346470594,-0.0007028232212178409,0.48120933771133423,0.7724521160125732,0.5720528364181519,-1.1147809028625488,0.003933317959308624,-0.5106279850006104,0.45485132932662964,0.7211005687713623,0.42000001668930054,-0.5027137398719788,-3.0,-1.4096935987472534,2.9999992847442627,-0.16748619079589844,-0.16425549983978271,-0.15922099351882935,-0.15535405278205872,-0.17199566960334778,-0.07142874598503113,6.402842700481415e-09,0.08319095522165298
0.8833333333333333,0.12642709910869598,0.07056155800819397,0.0,0.6196162104606628,0.0,0.0,-0.7849048972129822,0.07855938374996185,-0.1455772966146469,0.0,0.0,0.0,-0.41510114073753357,0.446272075176239,0.7277542948722839,0.41999998688697815,0.5668819546699524,-3.058662741750595e-06,-4.3373815969971474e-06,-0.8237990736961365,-2.9006496333749965e-06,-0.0003427210613153875,-9.59115568548441e-05,0.008669066242873669,-0.0033337522763758898,-0.0007030258420854807,0.4694574475288391,0.771477222442627,0.5591564178466797,-0.37322890758514404,-0.16472026705741882,-0.8400454521179199,0.45485132932662964,0.7211005687713623,0.42000001668930054,-0.5502616763114929,-2.693892240524292,-1.4276262521743774,-2.9999990463256836,-0.17025530338287354,-0.16541628539562225,-0.15909017622470856,-0.15358927845954895,-0.16228340566158295,-0.05729866027832031,0.03432440757751465,0.15071573853492737
0.9,0.1296529769897461,0.0657845064997673,0.0,0.6017695069313049,0.0,0.0,-0.7986698150634766,0.24153383076190948,-0.3457607328891754,0.0,0.0,0.0,-3.597022771835327,0.4462721049785614,0.7277542948722839,0.41999998688697815,0.5668817758560181,-3.1631645924790064e-06,-4.192985215922818e-06,-0.8237990736961365,-2.5398294383194298e-06,-0.00034272699849680066,-9.586010128259659e-05,0.008667975664138794,-0.003329811617732048,-0.0007036997703835368,0.46900975704193115,0.765984296798706,0.5473223924636841,0.29836800694465637,-0.4618540406227112,-0.41319143772125244,0.45485132932662964,0.7211005687713623,0.42000001668930054,-0.6000288128852844,-2.9999773502349854,-1.4776445627212524,-2.9999990463256836,-0.17410807311534882,-0.16755980253219604,-0.159669429063797,-0.15215149521827698,-0.23396944999694824,-0.13828933238983154,-0.04806865006685257,0.07051439583301544
0.9166666666666666,0.13600842654705048,0.0635947659611702,0.0,0.5630496740341187,0.0,0.0,-0.8264230489730835,0.43423783779144287,-0.06702271848917007,0.0,0.0,0.0,-6.609706878662109,0.4462721049785614,0.7277542948722839,0.41999998688697815,0.5668817758560181,-3.1085066893865587e-06,-4.0715963223192375e-06,-0.823799192905426,-2.267233867314644e-06,-0.0003428948693908751,-9.579886682331562e-05,0.008673621341586113,-0.0033314272295683622,-0.0007046301034279168,0.48229265213012695,0.7568528056144714,0.5420448184013367,1.2743545770645142,-0.6080078482627869,-0.0810411274433136,0.45485132932662964,0.7211005687713623,0.42000001668930054,-0.6187352538108826,0.4686223864555359,-1.5276628732681274,-2.9999849796295166,-0.17871366441249847,-0.1712271273136139,-0.16245071589946747,-0.15357396006584167,-0.23437923192977905,-0.21510528028011322,-0.19867752492427826,-0.15546667575836182
0.9333333333333333,0.14033330976963043,0.06389317661523819,0.0,0.5398347973823547,0.0,0.0,-0.8417710065841675,0.1865847408771515,0.05795556679368019,0.0,0.0,0.0,-2.250824451446533,0.446272075176239,0.7277542948722839,0.41999998688697815,0.5668818354606628,-2.7047299226978794e-06,-3.906837264366914e-06,-0.8237991333007812,-1.791482645785436e-06,-0.0003429455100558698,-9.526987560093403e-05,0.00868750549852848,-0.0033305459655821323,-0.000705069163814187,0.5006106495857239,0.7520893812179565,0.5420610904693604,0.8851480484008789,-0.07258354872465134,-0.013652734458446503,0.45485132932662964,0.7211005687713623,0.42000001668930054,-0.5888874530792236,2.880300283432007,-1.497064232826233,2.9999990463256836,-0.1800578534603119,-0.17298980057239532,-0.16468855738639832,-0.15588578581809998,0.027321375906467438,-0.03461595997214317,-0.1013442650437355,-0.1472633183002472
