vladlanda/robotic-transformer/data/env_000_episode_0011.csv
sim_time_s,robot_box_x,robot_box_y,robot_box_z,robot_box_quat_w,robot_box_quat_x,robot_box_quat_y,robot_box_quat_z,robot_box_linvel_x,robot_box_linvel_y,robot_box_linvel_z,robot_box_angvel_x,robot_box_angvel_y,robot_box_angvel_z,cube_world_x,cube_world_y,cube_world_z,cube_quat_w,cube_quat_x,cube_quat_y,cube_quat_z,cube_linvel_x,cube_linvel_y,cube_linvel_z,cube_angvel_x,cube_angvel_y,cube_angvel_z,endpoint_world_x,endpoint_world_y,endpoint_world_z,endpoint_linvel_x,endpoint_linvel_y,endpoint_linvel_z,target_cube_world_x,target_cube_world_y,target_cube_world_z,gripper_actual_pos_rad_gp_leftgearjoint,gripper_actual_vel_rad_s_gp_leftgearjoint,gripper_actual_pos_rad_gp_rotatingjoint,gripper_actual_vel_rad_s_gp_rotatingjoint,motor_angle_rad_joint1,motor_angle_rad_joint2,motor_angle_rad_joint3,motor_angle_rad_joint4,motor_speed_rad_s_joint1,motor_speed_rad_s_joint2,motor_speed_rad_s_joint3,motor_speed_rad_s_joint4
0.0,0.0,0.0,0.0,1.0,0.0,0.0,0.0,0.0,0.0,0.0,0.0,0.0,0.0,-0.344570130109787,0.6612867116928101,0.41999998688697815,1.0,0.0,0.0,0.0,0.0,0.0,0.0,0.0,0.0,0.0,3.42540442943573e-06,-0.005000244826078415,1.313499927520752,0.0,0.0,0.0,0.465970903635025,0.6980048418045044,0.42000001668930054,-1.5707999467849731,0.0,0.0,0.0,0.0,0.0,0.0,0.0,0.0,0.0,0.0,0.0
0.016666666666666666,0.0028796650003641844,0.0019241097616031766,0.0,0.9999696016311646,0.0,0.0,-0.007799835875630379,0.2431076020002365,0.1712104082107544,0.0,0.0,0.0,-1.5682352781295776,-0.34457024931907654,0.6612864136695862,0.41999998688697815,1.0,3.2799914606584935e-06,-8.339814598912199e-07,8.465387679734704e-08,-1.9833554688375443e-05,0.00017983050202019513,-6.133061833679676e-05,0.0009432226070202887,-0.004689437802881002,-0.0003198152990080416,-0.007026979699730873,0.003945686388760805,1.3159326314926147,-0.797782301902771,1.033707618713379,0.18062587082386017,0.465970903635025,0.6980048418045044,0.42000001668930054,-1.5301092863082886,3.000002384185791,-0.04586232826113701,-3.0000014305114746,0.0008726082160137594,0.0007983107352629304,0.0007113377214409411,0.0006111494149081409,0.11202874034643173,0.09848511219024658,0.084095798432827,0.06878920644521713
0.03333333333333333,0.009591836482286453,0.006720115430653095,0.0,0.9995576739311218,0.0,0.0,-0.02973896637558937,0.4673120677471161,0.33614134788513184,0.0,0.0,0.0,-3.2837562561035156,-0.3445703685283661,0.6612863540649414,0.4200000464916229,1.0,3.39090593115543e-06,-2.1324372028175276e-06,-3.7106541839193596e-08,0.0002635782293509692,0.0002693790593184531,-0.00010509486310184002,-0.0017707175575196743,0.004130743443965912,-0.00013547750131692737,-0.026124488562345505,0.02678707242012024,1.3169620037078857,-1.4280881881713867,1.698947548866272,-0.043907247483730316,0.465970903635025,0.6980048418045044,0.42000001668930054,-1.4800899028778076,3.0000014305114746,-0.09590215981006622,-3.0000007152557373,0.0032221293076872826,0.002856212668120861,0.0024521583691239357,0.0020081147085875273,0.18390712141990662,0.157359778881073,0.12931445240974426,0.0996607095003128
0.05,0.01893414556980133,0.013922069221735,0.0,0.9994790554046631,0.0,0.0,-0.03227458894252777,0.5960628986358643,0.47687941789627075,0.0,0.0,0.0,0.6777704954147339,-0.3445703983306885,0.6612864136695862,0.4200000464916229,1.0,3.765230758290272e-06,-2.211922264905297e-06,5.6083799826467384e-09,0.0002653090050444007,0.00026691501261666417,-0.00010440615005791187,-0.00172435212880373,0.0041774665005505085,-0.0001294955873163417,-0.05561130866408348,0.05600649490952492,1.312697410583496,-1.9722365140914917,1.9311096668243408,-0.43293893337249756,0.465970903635025,0.6980048418045044,0.42000001668930054,-1.4300715923309326,3.000002384185791,-0.14591924846172333,-3.000000238418579,0.0059590269811451435,0.005117781460285187,0.004203685559332371,0.003212971845641732,0.17673750221729279,0.1395316869020462,0.10041552037000656,0.059250619262456894
0.06666666666666667,0.030634844675660133,0.02334112673997879,0.0,0.9987894296646118,0.0,0.0,-0.049190666526556015,0.7596127986907959,0.6044961214065552,0.0,0.0,0.0,-2.886655569076538,-0.3445703983306885,0.6612863540649414,0.4200000464916229,0.9999999403953552,3.406835730856983e-06,-2.2856456780573353e-06,4.3008122929677484e-07,0.0002670265967026353,0.0002679176104720682,-0.0001043803058564663,-0.0017406701808795333,0.004211854189634323,-0.0001285061298403889,-0.08702044188976288,0.09344659745693207,1.302616000175476,-1.7886364459991455,2.520270824432373,-0.7511125802993774,0.465970903635025,0.6980048418045044,0.42000001668930054,-1.3800448179244995,3.000000238418579,-0.11569973826408386,3.0000014305114746,0.007957853376865387,0.006280071102082729,0.004489624407142401,0.002581246430054307,0.09835722297430038,0.032406456768512726,-0.03566006198525429,-0.10591329634189606
0.08333333333333333,0.045415736734867096,0.034985098987817764,0.0,0.995633602142334,0.0,0.0,-0.09334734082221985,0.9594781994819641,0.744145393371582,0.0,0.0,0.0,-6.137293815612793,-0.3445703983306885,0.6612863540649414,0.4200000464916229,1.0,3.6973383430449758e-06,-2.188984808526584e-06,-2.6323331780986337e-07,0.0002638960722833872,0.0002658652374520898,-0.00010433932766318321,-0.0017081378027796745,0.00415008282288909,-0.0001299151626881212,-0.1169959157705307,0.1367070972919464,1.289281964302063,-1.8222393989562988,2.665741443634033,-0.8649437427520752,0.465970903635025,0.6980048418045044,0.42000001668930054,-1.330045223236084,2.9999985694885254,-0.14772143959999084,-3.0000009536743164,0.008644221350550652,0.005855525378137827,0.0029126962181180716,-0.000189699960174039,0.020400341600179672,-0.05068507418036461,-0.12389706075191498,-0.19921323657035828
0.1,0.05492241308093071,0.0448698028922081,0.0,0.9928877949714661,0.0,0.0,-0.11905407160520554,0.4405941069126129,0.5357001423835754,0.0,0.0,0.0,-2.0799636840820312,-0.3445703983306885,0.6612863540649414,0.4200000464916229,0.9999999403953552,3.6204280604579253e-06,-2.265225475639454e-06,1.7461863421885937e-07,0.00026676725246943533,0.0002674070419743657,-0.00010408065281808376,-0.0017385295359417796,0.004209065344184637,-0.00012775739014614373,-0.152164027094841,0.178423672914505,1.2714226245880127,-2.1160552501678467,2.635044574737549,-1.1973294019699097,0.465970903635025,0.6980048418045044,0.42000001668930054,-1.2800250053405762,2.9999964237213135,-0.11415743082761765,3.0000009536743164,0.0031295937951654196,-0.00038810810656286776,-0.004111334681510925,-0.00804805662482977,-0.4417956471443176,-0.4843186140060425,-0.5293850302696228,-0.5771861672401428
0.11666666666666667,0.05919451266527176,0.0583847351372242,0.0,0.9875591993331909,0.0,0.0,-0.15724772214889526,0.3986820876598358,0.722030520439148,0.0,0.0,0.0,-4.9500932693481445,-0.3445703983306885,0.6612863540649414,0.4200000464916229,1.0,3.7983741094649304e-06,-2.2627561975241406e-06,-1.5019411137018324e-07,0.00026374030858278275,0.00026566023007035255,-0.00010428880341351032,-0.001705368747934699,0.004147524479776621,-0.00012980001338291913,-0.18393324315547943,0.226587176322937,1.248227596282959,-1.755009651184082,3.177387237548828,-1.3085482120513916,0.465970903635025,0.6980048418045044,0.42000001668930054,-1.230024814605713,3.000001907348633,-0.14617584645748138,-3.0000016689300537,-0.00585846696048975,-0.010257437825202942,-0.014878416433930397,-0.01973336562514305,-0.18107691407203674,-0.2974204123020172,-0.41012895107269287,-0.5190551280975342
0.13333333333333333,0.0723624974489212,0.06573218107223511,0.0,0.9844178557395935,0.0,0.0,-0.17584504187107086,0.7157155275344849,0.4740104079246521,0.0,0.0,0.0,-1.0168538093566895,-0.3445703983306885,0.6612864136695862,0.4200000464916229,0.9999999403953552,3.550490419002017e-06,-2.2297924715530826e-06,2.9292351655385573e-07,0.0002670329122338444,0.0002677924057934433,-0.00010416773147881031,-0.001743975793942809,0.004213578533381224,-0.0001280030410271138,-0.21921274065971375,0.2771667242050171,1.2208189964294434,-2.2402095794677734,3.1763858795166016,-2.0471460819244385,0.465970903635025,0.6980048418045044,0.42000001668930054,-1.1839802265167236,2.5267066955566406,-0.11262692511081696,2.999999761581421,-0.004347740672528744,-0.010865569114685059,-0.017517291009426117,-0.024312090128660202,-0.18444247543811798,-0.2601052224636078,-0.3328382670879364,-0.4026109576225281
0.15,0.08077152073383331,0.07125543802976608,0.0,0.9787577390670776,0.0,0.0,-0.20502036809921265,0.4533832371234894,0.27195078134536743,0.0,0.0,0.0,-4.4046406745910645,-0.3445703983306885,0.6612863540649414,0.4200000464916229,0.9999999403953552,3.3380592867615633e-06,-2.2428412194130942e-06,-2.8008338759377693e-08,0.00026674458058550954,0.00026758271269500256,-0.00010427972301840782,-0.0017367512919008732,0.004206824116408825,-0.0001283210440305993,-0.2525597810745239,0.3339482545852661,1.1827924251556396,-1.7609052658081055,3.620028018951416,-2.4703078269958496,0.465970903635025,0.6980048418045044,0.42000001668930054,-1.1343048810958862,2.9999990463256836,-0.14465072751045227,-3.000000476837158,-0.01032435055822134,-0.01788412407040596,-0.025532923638820648,-0.03328219801187515,-0.41187596321105957,-0.47215336561203003,-0.5294904112815857,-0.5840360522270203
0.16666666666666666,0.0846148356795311,0.07937849313020706,0.0,0.9656080007553101,0.0,0.0,-0.26000240445137024,0.1944701075553894,0.46891069412231445,0.0,0.0,0.0,-7.397988319396973,-0.3445703983306885,0.6612864136695862,0.4200000464916229,0.9999999403953552,3.647774974524509e-06,-2.3072600470186444e-06,3.529923020550996e-08,0.00026726865326054394,0.0002680135366972536,-0.00010418612509965897,-0.001747232861816883,0.0042175790295004845,-0.00012798202806152403,-0.27994203567504883,0.40011775493621826,1.132582187652588,-1.4704805612564087,4.235830307006836,-3.3695859909057617,0.465970903635025,0.6980048418045044,0.42000001668930054,-1.0843050479888916,3.0000016689300537,-0.19467562437057495,-2.999999523162842,-0.02087416499853134,-0.028970221057534218,-0.037106771022081375,-0.045301713049411774,-0.586507260799408,-0.6218117475509644,-0.6528231501579285,-0.6797921061515808
0.18333333333333332,0.09304020553827286,0.08813544362783432,0.0,0.9556429982185364,0.0,0.0,-0.29452747106552124,0.6007558107376099,0.570941150188446,0.0,0.0,0.0,-3.256279230117798,-0.3445703983306885,0.6612863540649414,0.4200000464916229,0.9999999403953552,3.2904902127484092e-06,-2.1938533336651744e-06,-2.7920296474803763e-07,0.0002667788357939571,0.0002677598677109927,-0.00010434072464704514,-0.0017390816938132048,0.004206937272101641,-0.00012845655146520585,-0.30739885568618774,0.46605437994003296,1.0691099166870117,-1.3734616041183472,4.021150588989258,-4.208581924438477,0.465970903635025,0.6980048418045044,0.42000001668930054,-1.034301996231079,2.999999761581421,-0.24470272660255432,-3.000000238418579,-0.028941892087459564,-0.037478554993867874,-0.04598575830459595,-0.05448810011148453,-0.4908342957496643,-0.5025795698165894,-0.5107858777046204,-0.5159050822257996
0.2,0.09818588942289352,0.09487587958574295,0.0,0.9427547454833984,0.0,0.0,-0.333486944437027,0.27005961537361145,0.3888760805130005,0.0,0.0,0.0,-5.583388328552246,-0.3445703983306885,0.6612863540649414,0.4200000464916229,1.0,3.2807631669129478e-06,-2.219166617578594e-06,1.5949673581872048e-07,0.0002662794722709805,0.0002674015995580703,-0.0001042510848492384,-0.00173571624327451,0.0041978564113378525,-0.00012865439930465072,-0.3292691707611084,0.5296519994735718,0.9902747869491577,-0.9526293277740479,3.8277316093444824,-5.1395673751831055,0.465970903635025,0.6980048418045044,0.42000001668930054,-0.9842919707298279,2.99999737739563,-0.2947298288345337,-3.0,-0.04193286597728729,-0.0502861924469471,-0.05857576057314873,-0.06640933454036713,-0.7963318824768066,-0.8197458982467651,-0.8408944010734558,-0.7939947843551636
0.21666666666666667,0.09956400841474533,0.10302674770355225,0.0,0.9363084435462952,0.0,0.0,-0.35117873549461365,0.007955442182719707,0.5291882157325745,0.0,0.0,0.0,-1.2078921794891357,-0.3445703983306885,0.6612864136695862,0.4200000464916229,1.0,3.6130975331616355e-06,-2.2699948658555513e-06,2.2104775609932403e-07,0.00026712531689554453,0.0002678169694263488,-0.00010414118878543377,-0.0017444599652662873,0.004215109162032604,-0.0001278673007618636,-0.3486531972885132,0.5828737020492554,0.9007583260536194,-0.9377902746200562,2.856780529022217,-5.601414680480957,0.465970903635025,0.6980048418045044,0.42000001668930054,-0.9342823028564453,2.9999990463256836,-0.3447597622871399,-3.000000476837158,-0.057513412088155746,-0.0657387301325798,-0.0738527774810791,-0.0805942490696907,-0.9862885475158691,-0.963580846786499,-0.9364873170852661,-0.8657605051994324
0.23333333333333334,0.10415499657392502,0.10723505169153214,0.0,0.9249457120895386,0.0,0.0,-0.38009920716285706,0.31535932421684265,0.17219600081443787,0.0,0.0,0.0,-4.391941070556641,-0.3445703983306885,0.6612863540649414,0.4200000464916229,1.0,3.3817855182860512e-06,-2.2908213850314496e-06,2.728465915424749e-07,0.0002669155946932733,0.0002678002056200057,-0.00010433141142129898,-0.0017395844915881753,0.0042098211124539375,-0.00012844095181208104,-0.36212605237960815,0.6275146007537842,0.8012839555740356,-0.5448516607284546,2.3189988136291504,-6.209444999694824,0.465970903635025,0.6980048418045044,0.42000001668930054,-0.8842716217041016,2.9999985694885254,-0.39479103684425354,-3.000001907348633,-0.07260429859161377,-0.08068240433931351,-0.08861002326011658,-0.09486813843250275,-0.9745122194290161,-0.9622486233711243,-0.9528307914733887,-0.9468815326690674
0.25,0.10382300615310669,0.1153581365942955,0.0,0.9202019572257996,0.0,0.0,-0.39144396781921387,-0.014466455206274986,0.4375123977661133,0.0,0.0,0.0,-0.46891242265701294,-0.3445703685283661,0.6612863540649414,0.4200000464916229,0.9999999403953552,3.7064864955027588e-06,-2.2228989564609947e-06,-2.2546814193447062e-07,0.0002642463950905949,0.00026656698901206255,-0.00010457634925842285,-0.0017169405473396182,0.00415548961609602,-0.00013063351798336953,-0.36924970149993896,0.6493161916732788,0.69851154088974,-0.20001517236232758,0.6485885381698608,-6.030303001403809,0.465970903635025,0.6980048418045044,0.42000001668930054,-0.8342616558074951,2.999959707260132,-0.4448226988315582,-3.0000009536743164,-0.08976268023252487,-0.09763574600219727,-0.10543949902057648,-0.11162251234054565,-0.686910092830658,-0.744236171245575,-0.7982158660888672,-0.848231852054596
0.26666666666666666,0.10756542533636093,0.1174868792295456,0.0,0.9213163256645203,0.0,0.0,-0.38881388306617737,0.22739209234714508,0.061766330152750015,0.0,0.0,0.0,0.6920004487037659,-0.3445703983306885,0.6612863540649414,0.4200000464916229,0.9999999403953552,3.719608457686263e-06,-2.4033261070144363e-06,-1.8304078253095213e-07,0.00026623241137713194,0.0002672903356142342,-0.00010425737127661705,-0.001732598408125341,0.004196526482701302,-0.0001285126927541569,-0.375087171792984,0.6555421352386475,0.5996972322463989,-0.24543435871601105,-0.0527268648147583,-5.813840389251709,0.465970903635025,0.6980048418045044,0.42000001668930054,-0.7842528223991394,2.9999892711639404,-0.4948531687259674,-3.000002145767212,-0.10166545957326889,-0.10998355597257614,-0.1182236298918724,-0.12488896399736404,-0.9622546434402466,-0.9388563632965088,-0.9176886677742004,-0.905562162399292
0.2833333333333333,0.10743461549282074,0.11713176220655441,0.0,0.9152505993843079,0.0,0.0,-0.40288496017456055,-0.09277353435754776,-0.05483896657824516,0.0,0.0,0.0,-2.7083306312561035,-0.3445703983306885,0.6612864136695862,0.4200000464916229,0.9999999403953552,3.5840300824929727e-06,-2.3153043002821505e-06,7.407601998465907e-08,0.00026522009284235537,0.00026455309125594795,-0.00010317424312233925,-0.0017022202955558896,0.00418515969067812,-0.000124995582154952,-0.3710634708404541,0.6561625003814697,0.5056261420249939,0.6226726174354553,-0.0023372890427708626,-5.177877902984619,0.465970903635025,0.6980048418045044,0.42000001668930054,-0.7342440485954285,3.0000011920928955,-0.5448818206787109,-2.9999990463256836,-0.11953619867563248,-0.12758974730968475,-0.13563312590122223,-0.1421450525522232,-1.0238286256790161,-1.018011450767517,-1.0135663747787476,-1.0100120306015015
0.3,0.10374382138252258,0.11507868021726608,0.0,0.9161025881767273,0.0,0.0,-0.4009440243244171,-0.19444744288921356,-0.19225382804870605,0.0,0.0,0.0,1.1146167516708374,-0.3445703983306885,0.6612863540649414,0.4200000464916229,1.0,3.7242095913825324e-06,-2.271762923555798e-06,9.639254727744628e-08,0.00026312656700611115,0.00026525757857598364,-0.00010438100434839725,-0.00169602339155972,0.004134845454245806,-0.00013027741806581616,-0.36063599586486816,0.6564692258834839,0.4260607063770294,0.7476476430892944,0.011379197239875793,-4.5694804191589355,0.465970903635025,0.6980048418045044,0.42000001668930054,-0.6842371225357056,2.9999940395355225,-0.5949084758758545,-2.9999988079071045,-0.13604384660720825,-0.14412179589271545,-0.15222731232643127,-0.15880489349365234,-0.8435274958610535,-0.8794078826904297,-0.913837730884552,-0.9444418549537659
0.31666666666666665,0.0988101214170456,0.11036301404237747,0.0,0.9111572504043579,0.0,0.0,-0.41205888986587524,-0.34542128443717957,-0.3230823874473572,0.0,0.0,0.0,-2.466416358947754,-0.3445902466773987,0.6591681241989136,0.42000025510787964,0.9993190169334412,-1.5839384559512837e-06,-6.381704679370159e-06,-0.0368979349732399,0.009370235726237297,-0.07134851068258286,-2.4858862161636353e-05,0.0008410871960222721,-0.000681704783346504,-2.1528453826904297,-0.3606839179992676,0.6583465337753296,0.4250617027282715,0.08929072320461273,0.08465009182691574,-0.2200341820716858,0.465970903635025,0.6980048418045044,0.42000001668930054,-0.6343117356300354,3.0000011920928955,-0.6453524827957153,-2.999851703643799,-0.14389166235923767,-0.15175656974315643,-0.1592874974012375,-0.16496655344963074,-0.5159144401550293,-0.47869858145713806,-0.42298954725265503,-0.3545171320438385
0.3333333333333333,0.09157479554414749,0.10342878103256226,0.0,0.9126169681549072,0.0,0.0,-0.4088157117366791,-0.4731729030609131,-0.4546225070953369,0.0,0.0,0.0,1.3565608263015747,-0.3445098102092743,0.6588435769081116,0.4200000464916229,0.9991745352745056,-5.813615366889735e-09,7.721599217802577e-07,-0.04062328115105629,-0.000280026433756575,4.230959893902764e-05,-3.1007875804789364e-05,7.014043512754142e-05,-0.0015117895090952516,0.012166306376457214,-0.3575836420059204,0.6658434271812439,0.42185378074645996,0.31604090332984924,0.7112469673156738,-0.14078685641288757,0.465970903635025,0.6980048418045044,0.42000001668930054,-0.584306538105011,2.999966621398926,-0.6954112648963928,-2.999999761581421,-0.1531575322151184,-0.15985818207263947,-0.1659054458141327,-0.1699289083480835,-0.5359100699424744,-0.4501087963581085,-0.3446838855743408,-0.2306070178747177
0.35,0.08202218264341354,0.09429888427257538,0.0,0.9078464508056641,0.0,0.0,-0.419302761554718,-0.6231198310852051,-0.5878626108169556,0.0,0.0,0.0,-2.2507293224334717,-0.3389573395252228,0.6664634943008423,0.420841246843338,0.9942246675491333,0.021371321752667427,-0.002160160569474101,-0.10514680296182632,0.4327475130558014,0.5840253829956055,0.016383962705731392,0.8361992835998535,-0.1490967571735382,-1.883366584777832,-0.3503837287425995,0.6736156940460205,0.4197150468826294,0.593114972114563,0.4614301323890686,-0.12007404863834381,0.465970903635025,0.6980048418045044,0.42000001668930054,-0.5343018174171448,2.9999732971191406,-0.7454665303230286,-2.9999678134918213,-0.16285164654254913,-0.16763204336166382,-0.17139866948127747,-0.17300239205360413,-0.5840439796447754,-0.449650377035141,-0.29323044419288635,-0.12967802584171295
0.36666666666666664,0.07014284282922745,0.0829748585820198,0.0,0.9098763465881348,0.0,0.0,-0.41487959027290344,-0.7521647214889526,-0.7178325057029724,0.0,0.0,0.0,1.567284107208252,-0.3290726840496063,0.6800234317779541,0.42035117745399475,0.9882652759552002,-0.00846407376229763,0.000622862484306097,-0.15251129865646362,0.7218629717826843,1.0011301040649414,0.098314069211483,-4.632598876953125,1.1563820838928223,-7.528589248657227,-0.34000930190086365,0.6860328316688538,0.41927778720855713,0.6928731799125671,0.9634695053100586,0.06802605837583542,0.465970903635025,0.6980048418045044,0.42000001668930054,-0.48426616191864014,2.999613046646118,-0.7954838871955872,-3.0000085830688477,-0.17249581217765808,-0.17480674386024475,-0.17570318281650543,-0.17430415749549866,-0.5137937068939209,-0.3661261200904846,-0.1934693604707718,-0.012231986969709396
0.3833333333333333,0.06148691475391388,0.06896830350160599,0.0,0.9056733846664429,0.0,0.0,-0.4239761233329773,-0.43622520565986633,-0.8886287212371826,0.0,0.0,0.0,-2.125638008117676,-0.3161333501338959,0.6974950432777405,0.4211359918117523,0.9779472947120667,-0.028513392433524132,0.005783458705991507,-0.2068149596452713,0.9205127954483032,1.1901782751083374,0.038258954882621765,-1.7138973474502563,0.2681489884853363,-7.255720138549805,-0.32436931133270264,0.7018299102783203,0.42128998041152954,1.1898484230041504,1.029643177986145,0.13024431467056274,0.465970903635025,0.6980048418045044,0.42000001668930054,-0.4342077970504761,3.0000035762786865,-0.8454917073249817,-3.0000009536743164,-0.18022491037845612,-0.179860919713974,-0.17761604487895966,-0.17289593815803528,-0.38693708181381226,-0.22026482224464417,-0.025725899264216423,0.17931997776031494
0.4,0.05681224539875984,0.052281834185123444,0.0,0.8885241150856018,0.0,0.0,-0.4588298797607422,-0.18057091534137726,-1.057935118675232,0.0,0.0,0.0,-5.5148701667785645,-0.2911396920681,0.7176165580749512,0.42454636096954346,0.9631136059761047,-0.03717564791440964,-0.020558038726449013,-0.265720397233963,2.0732409954071045,1.4206043481826782,0.17233122885227203,25.840160369873047,-13.960051536560059,6.025300025939941,-0.298780620098114,0.7233108282089233,0.4238865375518799,1.8224717378616333,1.4418790340423584,0.39105749130249023,0.465970903635025,0.6980048418045044,0.42000001668930054,-0.39298897981643677,1.4840632677078247,-0.8955143690109253,-2.9999992847442627,-0.18659204244613647,-0.18353447318077087,-0.1781502366065979,-0.17013008892536163,-0.3308415412902832,-0.1808263659477234,-0.006907301023602486,0.17458611726760864
0.4166666666666667,0.04897216707468033,0.040972642600536346,0.0,0.855103611946106,0.0,0.0,-0.5184571146965027,-0.6467885375022888,-0.5248967409133911,0.0,0.0,0.0,-9.152832984924316,-0.2449192851781845,0.7458717823028564,0.4318264424800873,0.9463983774185181,0.011400695890188217,-0.059266626834869385,-0.31731295585632324,4.059496879577637,1.615722417831421,0.803169846534729,-1.437300443649292,-1.175960659980774,12.631331443786621,-0.2515726685523987,0.751541018486023,0.4307859539985657,3.819406747817993,2.1218676567077637,0.6248966455459595,0.465970903635025,0.6980048418045044,0.42000001668930054,-0.3765410780906677,0.8505228161811829,-0.8937807679176331,2.702280044555664,-0.1992216855287552,-0.19238437712192535,-0.18308086693286896,-0.17129038274288177,-0.9195176362991333,-0.6612496376037598,-0.4049674868583679,-0.16782298684120178
0.43333333333333335,0.04337504506111145,0.027158625423908234,0.0,0.8026303052902222,0.0,0.0,-0.5964767932891846,-0.27254077792167664,-0.8380383253097534,0.0,0.0,0.0,-11.798957824707031,-0.15941792726516724,0.7821128368377686,0.44140371680259705,0.9135211110115051,0.04382241144776344,-0.09056800603866577,-0.3941524624824524,6.450155258178711,1.5999186038970947,0.6837702989578247,22.056058883666992,-6.92647123336792,25.993391036987305,-0.16540369391441345,0.7891972661018372,0.4400259852409363,6.261380195617676,2.351872205734253,0.6373096704483032,0.465970903635025,0.6980048418045044,0.42000001668930054,-0.3612857758998871,0.9473958611488342,-0.9220072031021118,-3.0000035762786865,-0.21073512732982635,-0.19982586801052094,-0.18665511906147003,-0.1714690923690796,-0.8483263850212097,-0.5712247490882874,-0.3172966539859772,-0.10314977914094925
0.45,0.04136712849140167,0.01603078655898571,0.0,0.7589879631996155,0.0,0.0,-0.6511046290397644,-0.044088199734687805,-0.6617714166641235,0.0,0.0,0.0,-7.0992431640625,-0.05553778260946274,0.8116627335548401,0.45288947224617004,0.8654270172119141,0.10320398956537247,-0.11890839040279388,-0.4756528437137604,6.416762828826904,1.0126168727874756,0.584675133228302,3.333549737930298,-34.9002685546875,8.461581230163574,-0.060371316969394684,0.8211529850959778,0.451133668422699,6.371552467346191,1.4856778383255005,0.7381246089935303,0.465970903635025,0.6980048418045044,0.42000001668930054,-0.34630757570266724,0.7530801296234131,-0.8850375413894653,2.9957826137542725,-0.22231325507164001,-0.2108941674232483,-0.19352082908153534,-0.17490912973880768,-0.5353162884712219,-0.5201687216758728,-0.32440996170043945,-0.17239850759506226
0.4666666666666667,0.03868335485458374,0.008547310717403889,0.0,0.7392702698707581,0.0,0.0,-0.6734088063240051,-0.2145373821258545,-0.36442315578460693,0.0,0.0,0.0,-2.3944177627563477,0.04930674284696579,0.8264882564544678,0.46335723996162415,0.7905471920967102,0.11416798830032349,-0.15296998620033264,-0.5818943381309509,6.0472187995910645,-0.347484827041626,0.7234377264976501,-10.666812896728516,5.039687633514404,6.723380088806152,0.044564228504896164,0.8368369936943054,0.46227630972862244,6.361082077026367,0.376583456993103,0.7626275420188904,0.465970903635025,0.6980048418045044,0.42000001668930054,-0.335346519947052,0.5310620069503784,-0.9106674790382385,-2.999760866165161,-0.23304489254951477,-0.22058314085006714,-0.19991479814052582,-0.1787351667881012,-0.6408187747001648,-0.5581247806549072,-0.3795892894268036,-0.2431245744228363
0.48333333333333334,0.03759586066007614,0.005081265699118376,0.0,0.7124873399734497,0.0,0.0,-0.7016849517822266,-0.009141287766397,-0.1498129516839981,0.0,0.0,0.0,-5.574254989624023,0.1492699533700943,0.8200559020042419,0.47120094299316406,0.7085663080215454,0.11395975947380066,-0.13454130291938782,-0.6832609176635742,5.459278583526611,-1.7851871252059937,0.18131262063980103,-15.127571105957031,-14.32076644897461,26.1668701171875,0.14463213086128235,0.833438515663147,0.4697211980819702,5.979102611541748,-0.8042930960655212,0.4329853653907776,0.465970903635025,0.6980048418045044,0.42000001668930054,-0.3271898925304413,0.3250056803226471,-0.9606919288635254,-3.0000038146972656,-0.24004888534545898,-0.22993949055671692,-0.20628513395786285,-0.18263642489910126,-0.04851944372057915,-0.5593506693840027,-0.3736431896686554,-0.21199873089790344
0.5,0.03959909453988075,0.004984485451132059,0.0,0.6993194222450256,0.0,0.0,-0.7148092985153198,0.15822827816009521,0.05183226615190506,0.0,0.0,0.0,-1.1508108377456665,0.2398189753293991,0.8007989525794983,0.4731782078742981,0.6365525722503662,0.09632665663957596,-0.12501482665538788,-0.7549126744270325,4.894561767578125,-1.8038153648376465,-0.07325632870197296,-5.742344856262207,-3.400858163833618,5.043963432312012,0.23679015040397644,0.8146846294403076,0.47196823358535767,5.274310111999512,-1.4921059608459473,0.03880813717842102,0.465970903635025,0.6980048418045044,0.42000001668930054,-0.32168275117874146,0.3438442051410675,-1.0107156038284302,-3.0000011920928955,-0.23995144665241241,-0.2377072125673294,-0.21178655326366425,-0.18623997271060944,0.003467586822807789,-0.33396100997924805,-0.24861401319503784,-0.18373802304267883
0.5166666666666666,0.04551304131746292,-0.000567900890018791,0.0,0.6760004162788391,0.0,0.0,-0.7369012236595154,0.430208683013916,-0.4954659342765808,0.0,0.0,0.0,-4.899672508239746,0.319503515958786,0.7785112261772156,0.4671672582626343,0.5718490481376648,0.08784768730401993,-0.13129687309265137,-0.8050045967102051,4.285362243652344,-1.5954622030258179,-0.506303071975708,-2.0481176376342773,1.1790456771850586,-5.183722019195557,0.316314697265625,0.7910960912704468,0.4668310880661011,4.35759162902832,-1.5197761058807373,-0.4916837811470032,0.465970903635025,0.6980048418045044,0.42000001668930054,-0.3111729919910431,1.0474225282669067,-1.0607377290725708,-2.999967098236084,-0.23320060968399048,-0.23649811744689941,-0.21104997396469116,-0.1861342042684555,0.5695741176605225,0.28342172503471375,0.1931505650281906,0.09703021496534348
0.5333333333333333,0.05085010454058647,-0.0037224055267870426,0.0,0.6649420261383057,0.0,0.0,-0.7468949556350708,0.29622912406921387,-0.06634100526571274,0.0,0.0,0.0,-0.7734454274177551,0.3816317915916443,0.7521156072616577,0.4565415382385254,0.5335468053817749,0.05720102787017822,-0.11005955934524536,-0.8366256952285767,3.112996816635132,-1.778822898864746,-0.476108580827713,1.3812222480773926,7.792878150939941,-7.578842639923096,0.3793922960758209,0.7639260292053223,0.45651566982269287,3.288160800933838,-1.7406857013702393,-0.766667366027832,0.465970903635025,0.6980048418045044,0.42000001668930054,-0.2882841229438782,1.344165325164795,-1.1107598543167114,-2.999887466430664,-0.22765421867370605,-0.2337426096200943,-0.20954883098602295,-0.18608294427394867,0.28124862909317017,0.1781359761953354,0.0816640630364418,-0.027039675042033195
0.55,0.057647839188575745,-0.0027998231817036867,0.0,0.6456817984580994,0.0,0.0,-0.7636065483093262,0.4781225323677063,0.06534869223833084,0.0,0.0,0.0,-3.877549409866333,0.4289487302303314,0.7276903390884399,0.4393267333507538,0.5072600245475769,0.022744135931134224,-0.09119505435228348,-0.8566524982452393,2.4413702487945557,-1.9935141801834106,-0.9086820483207703,-2.0694961547851562,2.922898054122925,14.441202163696289,0.42707324028015137,0.7388108968734741,0.43987709283828735,2.428576946258545,-1.4018471240997314,-1.1939928531646729,0.465970903635025,0.6980048418045044,0.42000001668930054,-0.2765182554721832,0.16927091777324677,-1.160781979560852,-3.0000011920928955,-0.22139813005924225,-0.22931049764156342,-0.207847461104393,-0.1871088147163391,0.43756726384162903,0.34225136041641235,0.1368274837732315,-0.06276734173297882
0.5666666666666667,0.06680849939584732,0.0006856061518192291,0.0,0.6402487754821777,0.0,0.0,-0.7681676149368286,0.5874776840209961,0.2681799530982971,0.0,0.0,0.0,0.0951453149318695,0.4608735144138336,0.7066872715950012,0.42335444688796997,0.5002317428588867,-0.013925544917583466,-0.05954345688223839,-0.8637295365333557,1.1776323318481445,-1.0400491952896118,-0.1825316697359085,5.700494766235352,7.725307941436768,4.178837299346924,0.45868778228759766,0.7174639701843262,0.4240797460079193,1.225372552871704,-0.9200748205184937,-0.2842426598072052,0.465970903635025,0.6980048418045044,0.42000001668930054,-0.2758735418319702,0.17215286195278168,-1.2109267711639404,-2.99133038520813,-0.214751735329628,-0.22366809844970703,-0.20574051141738892,-0.18834015727043152,0.40772441029548645,0.37419238686561584,0.15671251714229584,-0.042506083846092224
0.5833333333333334,0.07304654270410538,0.0011725970543920994,0.0,0.6251590847969055,0.0,0.0,-0.7804973721504211,0.30029264092445374,-0.03329704701900482,0.0,0.0,0.0,-3.1996660232543945,0.4752255082130432,0.6975240707397461,0.422078013420105,0.5242036581039429,-0.0051728119142353535,-0.037696849554777145,-0.8507423996925354,0.5391149520874023,-0.41744929552078247,-0.002907664980739355,-0.4687840938568115,1.187271237373352,4.577469825744629,0.47196656465530396,0.7078359127044678,0.42297059297561646,0.49623051285743713,-0.4415435194969177,-0.014775682240724564,0.465970903635025,0.6980048418045044,0.42000001668930054,-0.27667471766471863,-0.17078359425067902,-1.178109049797058,2.99912691116333,-0.20727300643920898,-0.2163294404745102,-0.20201222598552704,-0.18786151707172394,0.42776334285736084,0.44975098967552185,0.241606667637825,0.05392148718237877
0.6,0.08081188052892685,0.006061065476387739,0.0,0.6229791045188904,0.0,0.0,-0.7822384834289551,0.4502633810043335,0.34059712290763855,0.0,0.0,0.0,0.5880979299545288,0.48020073771476746,0.6910744309425354,0.4208274483680725,0.5510132908821106,0.0013554106699302793,-0.01532480213791132,-0.8343546390533447,0.12640701234340668,-0.349600225687027,-0.055451493710279465,2.6363441944122314,-1.3270822763442993,4.268012046813965,0.4756928086280823,0.7005215883255005,0.4234510660171509,0.08498524129390717,-0.24887803196907043,0.1714448630809784,0.465970903635025,0.6980048418045044,0.42000001668930054,-0.2948038876056671,-1.8572078943252563,-1.199844479560852,-2.999237298965454,-0.20454522967338562,-0.21220870316028595,-0.20059528946876526,-0.18890030682086945,0.25325265526771545,0.3204275071620941,0.13827042281627655,-0.02531789429485798
0.6166666666666667,0.09004297107458115,0.006490898318588734,0.0,0.6352560520172119,0.0,0.0,-0.7723015546798706,0.5841631889343262,0.0026830227579921484,0.0,0.0,0.0,2.492063522338867,0.4812261760234833,0.6869269609451294,0.4200003743171692,0.5650584697723389,5.5040263760020025e-06,4.199171598884277e-06,-0.8250508904457092,-0.05314645543694496,-0.11195630580186844,-0.0004322146996855736,-0.01985856518149376,0.007831444032490253,1.3417479991912842,0.4761219322681427,0.6993087530136108,0.42623305320739746,-0.11184697598218918,-0.0030425891745835543,0.16781355440616608,0.465970903635025,0.6980048418045044,0.42000001668930054,-0.33909592032432556,-2.999995708465576,-1.249812364578247,-2.9987590312957764,-0.19693633913993835,-0.20398923754692078,-0.19585615396499634,-0.1872686743736267,0.3462991714477539,0.41413256525993347,0.2374940663576126,0.07897559553384781
0.6333333333333333,0.10108797997236252,0.009666473604738712,0.0,0.6331185698509216,0.0,0.0,-0.7740548253059387,0.6942465305328369,0.24213644862174988,0.0,0.0,0.0,-1.3391408920288086,0.48075154423713684,0.6859641671180725,0.4200000762939453,0.5689018368721008,-1.104795046558138e-06,-4.042011028104753e-07,-0.8224053382873535,-0.024602392688393593,-0.034016840159893036,-7.064758392516524e-05,0.0026438478380441666,-0.0009533987613394856,1.0092908143997192,0.475772887468338,0.7022496461868286,0.42951956391334534,-0.05025108903646469,0.3099581003189087,0.2293396145105362,0.465970903635025,0.6980048418045044,0.42000001668930054,-0.38911667466163635,-2.9999969005584717,-1.2997653484344482,-2.9987974166870117,-0.1898062378168106,-0.19645559787750244,-0.1917136162519455,-0.186094731092453,0.5254761576652527,0.5219720602035522,0.3039630353450775,0.11346107721328735
0.65,0.11391347646713257,0.009450463578104973,0.0,0.6426064372062683,0.0,0.0,-0.7661964297294617,0.8006632924079895,-0.03917835280299187,0.0,0.0,0.0,2.3515026569366455,0.4789101779460907,0.68672114610672,0.42036914825439453,0.5903933048248291,0.00528725003823638,-0.007634681649506092,-0.8070621490478516,-0.2500438392162323,0.13487109541893005,0.035812243819236755,-0.9225056767463684,-1.093799114227295,1.7160533666610718,0.47299546003341675,0.7063922882080078,0.4335809051990509,-0.3187076449394226,0.1519348919391632,0.2784722149372101,0.465970903635025,0.6980048418045044,0.42000001668930054,-0.43913453817367554,-2.998918056488037,-1.3497782945632935,-3.0001041889190674,-0.18085609376430511,-0.18713527917861938,-0.1853504329919815,-0.18226511776447296,0.3753308355808258,0.4471135437488556,0.3318769633769989,0.2367488145828247
0.6666666666666666,0.12780526280403137,0.006318449042737484,0.0,0.6396809220314026,0.0,0.0,-0.7686405777931213,0.8913934826850891,-0.24225418269634247,0.0,0.0,0.0,-1.457741379737854,0.47520822286605835,0.6887086033821106,0.4200398921966553,0.5999078154563904,0.0005963250296190381,-0.0007211208576336503,-0.8000684976577759,-0.21080711483955383,0.11387820541858673,-0.03726067394018173,0.5518985986709595,1.8147811889648438,1.342771291732788,0.4723772704601288,0.708768367767334,0.4385567307472229,0.08664583414793015,0.12562109529972076,0.32358518242836,0.465970903635025,0.6980048418045044,0.42000001668930054,-0.48915088176727295,-2.9984560012817383,-1.3997814655303955,-2.99998140335083,-0.17574858665466309,-0.18046720325946808,-0.17985206842422485,-0.1775517761707306,0.28818270564079285,0.3942212462425232,0.35625553131103516,0.34229129552841187
0.6833333333333333,0.14377819001674652,-9.956794383469969e-05,0.0,0.6143112778663635,0.0,0.0,-0.7890637516975403,0.9909746646881104,-0.4574398398399353,0.0,0.0,0.0,-4.830152988433838,0.4728454649448395,0.6899861693382263,0.42000001668930054,0.605002224445343,1.626177663638373e-06,-2.672836671990808e-06,-0.7962236404418945,-0.1229720339179039,0.06603677570819855,-4.9212947487831116e-05,0.0019305944442749023,0.002220459748059511,0.6062915325164795,0.4781065583229065,0.7101754546165466,0.45120856165885925,0.637365460395813,0.04808736965060234,1.3102829456329346,0.465970903635025,0.6980048418045044,0.42000001668930054,-0.53916335105896,-2.9999289512634277,-1.44979989528656,-2.999995470046997,-0.17384375631809235,-0.1764862984418869,-0.17591679096221924,-0.1733274608850479,0.02707236260175705,0.15799006819725037,0.1769670844078064,0.21258540451526642
0.7,0.1575716733932495,-0.0014257932780310512,0.0,0.6020950078964233,0.0,0.0,-0.7984244227409363,0.7445218563079834,-0.10148926824331284,0.0,0.0,0.0,-0.8369724154472351,0.4716842472553253,0.6906096339225769,0.4200000464916229,0.6068230271339417,4.3145516315235e-07,-1.6727788931802934e-07,-0.7948369383811951,-0.0511532798409462,0.027235040441155434,-4.106201231479645e-06,-0.00023343738575931638,0.00023368161055259407,0.17482119798660278,0.48913609981536865,0.7134997248649597,0.4789014160633087,0.7935101985931396,0.4384610056877136,1.8924874067306519,0.465970903635025,0.6980048418045044,0.42000001668930054,-0.5816013216972351,-2.1324920654296875,-1.499818205833435,-2.999755382537842,-0.17898912727832794,-0.17897124588489532,-0.17748768627643585,-0.17392125725746155,-0.11231629550457001,-0.03849749267101288,-0.05184882879257202,-0.05918002128601074
0.7166666666666667,0.16662457585334778,-0.0019837720319628716,0.0,0.6142650842666626,0.0,0.0,-0.7890997529029846,0.4722464680671692,0.008880986832082272,0.0,0.0,0.0,2.6818742752075195,0.4715428054332733,0.6906858682632446,0.41999995708465576,0.6069599390029907,5.24911399679695e-07,-1.2725065062113572e-05,-0.7947324514389038,0.0007008068496361375,-0.0010835337452590466,-0.00028485956136137247,0.013175038620829582,0.011790337041020393,0.0015373642090708017,0.5047391653060913,0.7210854291915894,0.5031593441963196,0.912243127822876,0.46003222465515137,1.1113802194595337,0.465970903635025,0.6980048418045044,0.42000001668930054,-0.5890730619430542,0.969999372959137,-1.54983651638031,-2.999999761581421,-0.1788160651922226,-0.17798949778079987,-0.1768816113471985,-0.1736106425523758,0.07426086068153381,0.11520534008741379,0.09597272425889969,0.07704345881938934
0.7333333333333333,0.17150002717971802,-0.005953385028988123,0.0,0.613169252872467,0.0,0.0,-0.7899515628814697,0.22806504368782043,-0.3177301585674286,0.0,0.0,0.0,-1.1464102268218994,0.4715430438518524,0.6906850337982178,0.4200000464916229,0.6069607734680176,2.7444130523690546e-07,-3.1706015306554036e-06,-0.7947316765785217,0.00013423763448372483,-0.0002884757413994521,-9.354879148304462e-05,0.006441147997975349,-0.0011668832739815116,-0.0005950018530711532,0.5152963995933533,0.7257508635520935,0.5143610239028931,0.3524819612503052,0.11995884776115417,0.4367544651031494,0.465970903635025,0.6980048418045044,0.42000001668930054,-0.6033053398132324,-2.3765504360198975,-1.5109694004058838,3.000000238418579,-0.17700782418251038,-0.17543311417102814,-0.17442475259304047,-0.17134277522563934,0.11343660950660706,0.16618286073207855,0.17527560889720917,0.17307187616825104
0.75,0.1797381043434143,-0.004652864765375853,0.0,0.6245933175086975,0.0,0.0,-0.7809501886367798,0.5957033038139343,0.2116783857345581,0.0,0.0,0.0,2.7076358795166016,0.47154301404953003,0.6906850337982178,0.4200000464916229,0.6069607734680176,5.301087071529764e-07,-3.287100298621226e-06,-0.7947316765785217,0.00014739234757144004,-0.00027816768852062523,-9.66095831245184e-05,0.006101908162236214,-0.0009672771557234228,-0.0006177737377583981,0.5199599862098694,0.7253049612045288,0.5207164883613586,0.22649168968200684,-0.0375426709651947,0.36659789085388184,0.465970903635025,0.6980048418045044,0.42000001668930054,-0.6237815618515015,-0.2489374876022339,-1.5268933773040771,-3.000000476837158,-0.18135587871074677,-0.17779290676116943,-0.1754445731639862,-0.17135874927043915,-0.31789231300354004,-0.19741451740264893,-0.10700155049562454,-0.03811994940042496
0.7666666666666666,0.18360477685928345,-0.007297837641090155,0.0,0.6327729821205139,0.0,0.0,-0.7743373513221741,0.13879473507404327,-0.12074695527553558,0.0,0.0,0.0,0.46051573753356934,0.47154301404953003,0.6906850337982178,0.4200000464916229,0.6069605350494385,5.239712095317373e-07,-3.2669747724867193e-06,-0.794731855392456,0.00014214943803381175,-0.0002785312826745212,-9.530317038297653e-05,0.006139813922345638,-0.0010304665192961693,-0.0006062753382138908,0.5214303731918335,0.7260236740112305,0.5203392505645752,-0.11369767785072327,-0.15824952721595764,-0.31164562702178955,0.465970903635025,0.6980048418045044,0.42000001668930054,-0.6431441307067871,-1.9102438688278198,-1.4956902265548706,3.0,-0.17944583296775818,-0.17516714334487915,-0.17237532138824463,-0.16809611022472382,-0.09239474684000015,-0.0076004196889698505,0.0647059977054596,0.11675325036048889
0.7833333333333333,0.18761184811592102,-0.010221465490758419,0.0,0.6229792237281799,0.0,0.0,-0.7822383642196655,0.28345808386802673,-0.2495071440935135,0.0,0.0,0.0,-2.773897886276245,0.4715430438518524,0.6906850337982178,0.4200000464916229,0.6069605350494385,5.43221176485531e-07,-3.13837358589808e-06,-0.794731855392456,0.00015018918202258646,-0.00027735953335650265,-9.723333641886711e-05,0.0060673663392663,-0.0009281742968596518,-0.0006232676678337157,0.5215839147567749,0.7232312560081482,0.5166726112365723,0.14171601831912994,-0.20144763588905334,-0.029409412294626236,0.465970903635025,0.6980048418045044,0.42000001668930054,-0.6855098605155945,-2.999990701675415,-1.511952519416809,-3.000000476837158,-0.18133138120174408,-0.17587020993232727,-0.17186498641967773,-0.16657757759094238,-0.0947992131114006,-0.03322398290038109,0.04067748039960861,0.10769464075565338
0.8,0.19436995685100555,-0.01147444173693657,0.0,0.5941480994224548,0.0,0.0,-0.8043556809425354,0.459403395652771,-0.006330094765871763,0.0,0.0,0.0,-5.491728782653809,0.4715430438518524,0.6906850337982178,0.4200000464916229,0.6069605350494385,5.534308797905396e-07,-3.200004812242696e-06,-0.794731855392456,0.00015075365081429482,-0.00027733674505725503,-9.742449037730694e-05,0.006063207518309355,-0.0009228986455127597,-0.0006246289703994989,0.5274515748023987,0.7219735383987427,0.5195349454879761,0.6079034209251404,-0.06307339668273926,0.46946918964385986,0.465970903635025,0.6980048418045044,0.42000001668930054,-0.7114279866218567,-0.3181958496570587,-1.561970829963684,-2.9999234676361084,-0.18291522562503815,-0.17716526985168457,-0.17248812317848206,-0.16652239859104156,-0.10232789814472198,-0.10243655741214752,-0.07498754560947418,-0.0452607087790966
0.8166666666666667,0.19891181588172913,-0.010079974308609962,0.0,0.579099178314209,0.0,0.0,-0.8152571320533752,0.19440342485904694,0.1224449872970581,0.0,0.0,0.0,-1.1747573614120483,0.4715430438518524,0.6906850337982178,0.4200000464916229,0.6069605350494385,5.735732884204481e-07,-3.0748619792575482e-06,-0.794731855392456,0.0001502425002399832,-0.0002773015876300633,-9.729433804750443e-05,0.006065204739570618,-0.0009286340209655464,-0.0006234499160200357,0.5345340967178345,0.7245228290557861,0.5276501774787903,0.18671731650829315,0.31919562816619873,0.4749187231063843,0.465970903635025,0.6980048418045044,0.42000001668930054,-0.6889322400093079,2.7307770252227783,-1.6119890213012695,-3.000000238418579,-0.18294644355773926,-0.1777338683605194,-0.1731390655040741,-0.16724075376987457,0.07396123558282852,0.015521024353802204,-0.017472947016358376,-0.05169059708714485
0.8333333333333334,0.19934192299842834,-0.01315587479621172,0.0,0.5886591672897339,0.0,0.0,-0.8083813786506653,-0.014010901562869549,-0.17258214950561523,0.0,0.0,0.0,1.9184813499450684,0.47154301404953003,0.6906850337982178,0.4200000464916229,0.6069604158401489,5.72014130284515e-07,-2.8791255317628384e-06,-0.7947319746017456,0.00014822458615526557,-0.00027733331080526114,-9.681121446192265e-05,0.0060774581506848335,-0.0009526734356768429,-0.0006190356216393411,0.533734917640686,0.7316220998764038,0.5350693464279175,-0.40103864669799805,0.40598616003990173,0.4146004319190979,0.465970903635025,0.6980048418045044,0.42000001668930054,-0.6547507047653198,1.4518331289291382,-1.5729460716247559,2.999999523162842,-0.17898805439472198,-0.17505893111228943,-0.17135414481163025,-0.1663915514945984,0.038799088448286057,0.003343053162097931,-0.014005344361066818,-0.0405779629945755
0.85,0.19747333228588104,-0.010835161432623863,0.0,0.5833157300949097,0.0,0.0,-0.8122454881668091,-0.12950357794761658,0.14548784494400024,0.0,0.0,0.0,-1.677082896232605,0.4715430438518524,0.6906850337982178,0.4200000464916229,0.6069605946540833,4.4921091557625914e-07,-3.454339548625285e-06,-0.7947317957878113,0.00014554020890500396,-0.0002795214531943202,-9.597605094313622e-05,0.00614548334851861,-0.000991772161796689,-0.0006142324418760836,0.5237112045288086,0.7349286079406738,0.5386531352996826,-0.6193702220916748,0.1744575798511505,0.11621583998203278,0.465970903635025,0.6980048418045044,0.42000001668930054,-0.6496255993843079,-0.6563186645507812,-1.5228896141052246,3.0000007152557373,-0.1830708086490631,-0.1787807196378708,-0.17445117235183716,-0.16906718909740448,-0.08967189490795135,-0.10658003389835358,-0.10127288103103638,-0.10009989142417908
0.8666666666666667,0.19782157242298126,-0.012017626315355301,0.0,0.5900752544403076,0.0,0.0,-0.8073482513427734,0.04375162348151207,-0.07612799853086472,0.0,0.0,0.0,1.7088314294815063,0.4715430438518524,0.6906850337982178,0.4200000464916229,0.6069605946540833,5.479597007251868e-07,-3.1600538932252675e-06,-0.7947317957878113,0.00015056510164868087,-0.00027749562286771834,-9.735370986163616e-05,0.006068306043744087,-0.0009252624586224556,-0.0006242672097869217,0.5146372318267822,0.7389944195747375,0.5412354469299316,-0.5760418176651001,0.2660060524940491,0.22852542996406555,0.465970903635025,0.6980048418045044,0.42000001668930054,-0.642864465713501,1.2913442850112915,-1.5385721921920776,-3.0000007152557373,-0.183615043759346,-0.17961739003658295,-0.17520830035209656,-0.16978545486927032,-0.1117018312215805,-0.10978846997022629,-0.08693264424800873,-0.06681299954652786
0.8833333333333333,0.19646601378917694,-0.01644732989370823,0.0,0.61516934633255,0.0,0.0,-0.7883949875831604,-0.1497759073972702,-0.3424856662750244,0.0,0.0,0.0,4.708162784576416,0.47154301404953003,0.6906850337982178,0.4200000464916229,0.6069604754447937,5.791052331005631e-07,-2.973792106786277e-06,-0.7947319149971008,0.00014864606782794,-0.00027733604656532407,-9.691575542092323e-05,0.006075187120586634,-0.0009477033745497465,-0.0006199771305546165,0.5071314573287964,0.7402535676956177,0.5441998839378357,-0.3409949243068695,-0.07104786485433578,0.22108471393585205,0.465970903635025,0.6980048418045044,0.42000001668930054,-0.6570072770118713,-2.637178421020508,-1.4997355937957764,2.999999761581421,-0.18648961186408997,-0.18180270493030548,-0.1763300597667694,-0.16985322535037994,-0.17873170971870422,-0.1161515936255455,-0.029937874525785446,0.05797594040632248
