vladlanda/robotic-transformer/data/env_000_episode_0231.csv
sim_time_s,robot_box_x,robot_box_y,robot_box_z,robot_box_quat_w,robot_box_quat_x,robot_box_quat_y,robot_box_quat_z,robot_box_linvel_x,robot_box_linvel_y,robot_box_linvel_z,robot_box_angvel_x,robot_box_angvel_y,robot_box_angvel_z,cube_world_x,cube_world_y,cube_world_z,cube_quat_w,cube_quat_x,cube_quat_y,cube_quat_z,cube_linvel_x,cube_linvel_y,cube_linvel_z,cube_angvel_x,cube_angvel_y,cube_angvel_z,endpoint_world_x,endpoint_world_y,endpoint_world_z,endpoint_linvel_x,endpoint_linvel_y,endpoint_linvel_z,target_cube_world_x,target_cube_world_y,target_cube_world_z,gripper_actual_pos_rad_gp_leftgearjoint,gripper_actual_vel_rad_s_gp_leftgearjoint,gripper_actual_pos_rad_gp_rotatingjoint,gripper_actual_vel_rad_s_gp_rotatingjoint,motor_angle_rad_joint1,motor_angle_rad_joint2,motor_angle_rad_joint3,motor_angle_rad_joint4,motor_speed_rad_s_joint1,motor_speed_rad_s_joint2,motor_speed_rad_s_joint3,motor_speed_rad_s_joint4
0.0,0.0,0.0,0.0,1.0,0.0,0.0,0.0,0.0,0.0,0.0,0.0,0.0,0.0,-0.4031005799770355,0.7020589709281921,0.41999998688697815,1.0,0.0,0.0,0.0,0.0,0.0,0.0,0.0,0.0,0.0,3.42540442943573e-06,-0.005000244826078415,1.313499927520752,0.0,0.0,0.0,0.37623268365859985,0.7323082089424133,0.42000001668930054,-1.5707999467849731,0.0,0.0,0.0,0.0,0.0,0.0,0.0,0.0,0.0,0.0,0.0
0.016666666666666666,0.0028778850100934505,0.0021806680597364902,0.0,0.9998081922531128,0.0,0.0,0.019586581736803055,0.24087215960025787,0.18240931630134583,0.0,0.0,0.0,3.1418697834014893,-0.4031006991863251,0.7020586729049683,0.41999998688697815,1.0,3.279964630564791e-06,-8.339746386809566e-07,8.465587342243452e-08,-1.9833529222523794e-05,0.00017983045836444944,-6.132945418357849e-05,0.0009432713268324733,-0.004689474124461412,-0.00031981561915017664,-0.007110234349966049,0.003379564033821225,1.3159373998641968,-0.8143353462219238,0.9868683815002441,0.18095196783542633,0.37623268365859985,0.7323082089424133,0.42000001668930054,-1.5301095247268677,3.0000011920928955,-0.04584788903594017,-2.9999992847442627,0.0008691533003002405,0.0007963840034790337,0.0007110277656465769,0.0006108740926720202,0.11094217747449875,0.09756709635257721,0.08334315568208694,0.06823883205652237
0.03333333333333333,0.008960984647274017,0.006801987532526255,0.0,0.9997960329055786,0.0,0.0,0.020196836441755295,0.40702182054519653,0.31530824303627014,0.0,0.0,0.0,-0.8691321015357971,-0.4031008183956146,0.7020586133003235,0.4200000464916229,1.0,3.3908179375430336e-06,-2.132458348569344e-06,-3.7097745320124886e-08,0.00026357852038927376,0.00026937833172269166,-0.00010509369894862175,-0.0017707126680761576,0.004130884539335966,-0.0001354814594378695,-0.027553102001547813,0.026200104504823685,1.3165959119796753,-1.591407060623169,1.6159924268722534,-0.08506366610527039,0.37623268365859985,0.7323082089424133,0.42000001668930054,-1.4800903797149658,3.000000476837158,-0.09588772058486938,-3.000000238418579,0.00299010775052011,0.0026527177542448044,0.0022772883530706167,0.001860744203440845,0.1642157882452011,0.13975948095321655,0.11381851136684418,0.08630074560642242
0.05,0.017613081261515617,0.013551841489970684,0.0,0.9999613165855408,0.0,0.0,0.00879389513283968,0.5735709071159363,0.44251686334609985,0.0,0.0,0.0,-1.6196298599243164,-0.403100848197937,0.7020586729049683,0.4200000464916229,1.0,3.7651293496310245e-06,-2.2119379536889028e-06,5.6273887771851605e-09,0.0002653067058417946,0.00026691422681324184,-0.00010440615005791187,-0.0017243530601263046,0.00417736079543829,-0.00012949267693329602,-0.05812525004148483,0.05626310780644417,1.311549425125122,-2.0327885150909424,1.9675397872924805,-0.4854685366153717,0.37623268365859985,0.7323082089424133,0.42000001668930054,-1.4300720691680908,3.0000009536743164,-0.14592638611793518,-3.000000476837158,0.005668776109814644,0.004862283356487751,0.003983608912676573,0.0030282153747975826,0.18484359979629517,0.14669771492481232,0.1066766008734703,0.06467678397893906
0.06666666666666667,0.028548989444971085,0.02260914258658886,0.0,0.999898374080658,0.0,0.0,0.014255302958190441,0.7030147910118103,0.587009072303772,0.0,0.0,0.0,2.0520362854003906,-0.403100848197937,0.7020586133003235,0.4200000464916229,0.9999999403953552,3.406754103707499e-06,-2.2856077066535363e-06,4.300980265270482e-07,0.0002670255198609084,0.0002679179306142032,-0.0001043803058564663,-0.001740670995786786,0.004211848136037588,-0.00012850687198806554,-0.09547124803066254,0.0890352725982666,1.299938440322876,-2.364011526107788,2.0509040355682373,-0.8826754093170166,0.37623268365859985,0.7323082089424133,0.42000001668930054,-1.3800537586212158,3.0000014305114746,-0.19594502449035645,-2.9999990463256836,0.007889687083661556,0.0063633969984948635,0.004725564271211624,0.0029722144827246666,0.12515166401863098,0.07168761640787125,0.01619982160627842,-0.04142754152417183
0.08333333333333333,0.041723690927028656,0.033842604607343674,0.0,0.9999722242355347,0.0,0.0,0.007454225793480873,0.8364318013191223,0.7096853852272034,0.0,0.0,0.0,-1.7560844421386719,-0.403100848197937,0.7020586133003235,0.4200000464916229,0.9999999403953552,3.6260603337723296e-06,-2.3353738924924983e-06,3.0322857469400333e-07,0.00026613770751282573,0.00026685066404752433,-0.00010405178181827068,-0.0017283547203987837,0.004196325317025185,-0.000127911422168836,-0.1324158012866974,0.12922583520412445,1.2826285362243652,-2.1168313026428223,2.6280407905578613,-1.179031252861023,0.37623268365859985,0.7323082089424133,0.42000001668930054,-1.3300238847732544,2.9999961853027344,-0.16217809915542603,2.999999761581421,0.008641550317406654,0.0060640377923846245,0.0033341965172439814,0.0004485472454689443,0.004312452394515276,-0.07124269008636475,-0.14879629015922546,-0.2284097522497177
0.1,0.048964545130729675,0.04860326647758484,0.0,0.999535858631134,0.0,0.0,-0.03046313300728798,0.30265629291534424,0.9568716287612915,0.0,0.0,0.0,-5.4884562492370605,-0.403100848197937,0.7020586133003235,0.4200000464916229,1.0,3.4220743145851884e-06,-2.30867885875341e-06,1.7964234189093986e-07,0.0002668164379429072,0.0002680036413948983,-0.00010440708138048649,-0.0017430284060537815,0.004207152873277664,-0.00012891023652628064,-0.16469541192054749,0.17540545761585236,1.2614989280700684,-1.838111162185669,2.8286428451538086,-1.3005075454711914,0.37623268365859985,0.7323082089424133,0.42000001668930054,-1.2800310850143433,3.000002145767212,-0.19391636550426483,-2.9999988079071045,0.002522751223295927,-0.0009349942556582391,-0.004593912046402693,-0.00846167653799057,-0.48495420813560486,-0.5392094254493713,-0.5958079695701599,-0.6550281047821045
0.11666666666666667,0.0530700758099556,0.06397663056850433,0.0,0.998630702495575,0.0,0.0,-0.052312999963760376,0.3010425269603729,0.9697239398956299,0.0,0.0,0.0,-0.9863477945327759,-0.403100848197937,0.7020586729049683,0.4200000464916229,1.0,3.7114557471795706e-06,-2.332793883397244e-06,2.5744137133187905e-07,0.0002648575755301863,0.00026635421090759337,-0.00010423525236546993,-0.001718215993605554,0.004170078784227371,-0.00012915751722175628,-0.20148123800754547,0.21852460503578186,1.2405235767364502,-2.3425934314727783,2.6726198196411133,-1.313246250152588,0.37623268365859985,0.7323082089424133,0.42000001668930054,-1.2300280332565308,3.00000262260437,-0.2439500093460083,-2.9999985694885254,-0.002806434640660882,-0.007673820946365595,-0.012727079913020134,-0.017975497990846634,-0.13245226442813873,-0.24395625293254852,-0.3517940640449524,-0.45587366819381714
0.13333333333333333,0.06480604410171509,0.07635901123285294,0.0,0.9964714050292969,0.0,0.0,-0.08393251895904541,0.6976518630981445,0.7706888914108276,0.0,0.0,0.0,-4.4321208000183105,-0.403100848197937,0.7020586133003235,0.4200000464916229,1.0,3.335647988933488e-06,-2.2320116386254085e-06,3.113250670594425e-07,0.00026669682119973004,0.000267594848992303,-0.00010428694076836109,-0.0017371177673339844,0.004205875098705292,-0.00012840732233598828,-0.23603194952011108,0.269841730594635,1.217583417892456,-1.8790298700332642,3.470280885696411,-1.5558841228485107,0.37623268365859985,0.7323082089424133,0.42000001668930054,-1.1800090074539185,2.9996654987335205,-0.20992808043956757,3.0000007152557373,-0.0010854577412828803,-0.008360173553228378,-0.015728970989584923,-0.023198597133159637,-0.15415948629379272,-0.2668074369430542,-0.37605682015419006,-0.4816944897174835
0.15,0.07229400426149368,0.08676312118768692,0.0,0.9898708462715149,0.0,0.0,-0.14197060465812683,0.39057114720344543,0.5705034732818604,0.0,0.0,0.0,-7.8537421226501465,-0.403100848197937,0.7020586133003235,0.4200000464916229,1.0,3.518864104989916e-06,-2.283212324982742e-06,-3.625428917075624e-07,0.00026618369156494737,0.00026735756546258926,-0.00010425550863146782,-0.0017349214758723974,0.004195664543658495,-0.00012860912829637527,-0.266471266746521,0.32923823595046997,1.187986135482788,-1.6886646747589111,3.781799554824829,-1.9988722801208496,0.37623268365859985,0.7323082089424133,0.42000001668930054,-1.1461206674575806,1.1935211420059204,-0.24132999777793884,-2.999999761581421,-0.007766489405184984,-0.016429536044597626,-0.025140071287751198,-0.03390568122267723,-0.47915351390838623,-0.5485920310020447,-0.6151312589645386,-0.6788942813873291
0.16666666666666666,0.07534319907426834,0.09918992966413498,0.0,0.983770489692688,0.0,0.0,-0.1794314980506897,0.17032091319561005,0.6986786723136902,0.0,0.0,0.0,-3.2775790691375732,-0.403100848197937,0.7020586133003235,0.4200000464916229,1.0,3.666546717795427e-06,-2.3392813091049902e-06,-3.150027225728991e-07,0.0002659583115018904,0.00026667400379665196,-0.00010403734631836414,-0.001725324080325663,0.004192811902612448,-0.00012778834206983447,-0.3013319969177246,0.3894444406032562,1.1458499431610107,-2.0977377891540527,3.8599014282226562,-2.900986671447754,0.37623268365859985,0.7323082089424133,0.42000001668930054,-1.1037044525146484,3.0000016689300537,-0.29134538769721985,-2.999999523162842,-0.018716346472501755,-0.02790508046746254,-0.03709385544061661,-0.04629744961857796,-0.5849513411521912,-0.6147127151489258,-0.640320897102356,-0.6620765924453735
0.18333333333333332,0.07611239701509476,0.11097212135791779,0.0,0.9740999937057495,0.0,0.0,-0.2261177897453308,-0.016016345471143723,0.7152332663536072,0.0,0.0,0.0,-6.570769786834717,-0.403100848197937,0.7020586133003235,0.4200000464916229,1.0,3.8142911762406584e-06,-2.3995992251002463e-06,-2.7027797955270216e-07,0.00026548971072770655,0.000266111281234771,-0.00010391324758529663,-0.0017178148264065385,0.004184778779745102,-0.00012754148337990046,-0.3352651298046112,0.45584404468536377,1.0910906791687012,-1.7780773639678955,4.199431896209717,-3.642040252685547,0.37623268365859985,0.7323082089424133,0.42000001668930054,-1.0537039041519165,2.999998092651367,-0.3413727581501007,-3.000000238418579,-0.030049212276935577,-0.03951792046427727,-0.04891650378704071,-0.05826679989695549,-0.7495241165161133,-0.7511575222015381,-0.7491522431373596,-0.7439771294593811
0.2,0.08209323137998581,0.11868645995855331,0.0,0.9667822122573853,0.0,0.0,-0.25560152530670166,0.5005572438240051,0.28010886907577515,0.0,0.0,0.0,-2.670640468597412,-0.403100848197937,0.7020586133003235,0.4200000464916229,1.0,3.5999869396619033e-06,-2.2913013708603103e-06,-2.201937832069234e-07,0.00026573010836727917,0.0002664492931216955,-0.00010398332960903645,-0.0017227825010195374,0.004188841208815575,-0.00012773113849107176,-0.36703094840049744,0.5212043523788452,1.0230071544647217,-1.6529619693756104,3.941882610321045,-4.494716644287109,0.37623268365859985,0.7323082089424133,0.42000001668930054,-1.0037041902542114,3.0000009536743164,-0.39139828085899353,-2.999999761581421,-0.03913842514157295,-0.04850127920508385,-0.057747732847929,-0.06690981984138489,-0.47651776671409607,-0.458025723695755,-0.43781501054763794,-0.41650500893592834
0.21666666666666667,0.08399524539709091,0.12868642807006836,0.0,0.9549497365951538,0.0,0.0,-0.29676753282546997,0.04695672541856766,0.5943700075149536,0.0,0.0,0.0,-5.738511562347412,-0.403100848197937,0.7020586133003235,0.4200000464916229,0.9999999403953552,3.639563374235877e-06,-2.2620122308580903e-06,2.2247465381042275e-07,0.00026687391800805926,0.0002675444120541215,-0.00010411837138235569,-0.001740379841066897,0.004211025312542915,-0.00012783984129782766,-0.3907129466533661,0.5839660167694092,0.9402686357498169,-1.142540454864502,3.7115378379821777,-5.191031455993652,0.37623268365859985,0.7323082089424133,0.42000001668930054,-0.9536952376365662,3.000001907348633,-0.4414256811141968,-3.000002145767212,-0.053365424275398254,-0.06279468536376953,-0.07171420753002167,-0.08040080964565277,-0.7058464884757996,-0.7462005019187927,-0.7873251438140869,-0.8260260820388794
0.23333333333333334,0.08769731968641281,0.13437633216381073,0.0,0.9489209651947021,0.0,0.0,-0.31551387906074524,0.30720531940460205,0.2359171211719513,0.0,0.0,0.0,-1.2688944339752197,-0.4031008183956146,0.7020586133003235,0.4200000464916229,1.0,3.420630036998773e-06,-2.3168879579316126e-06,2.955902687062917e-07,0.0002668013039510697,0.0002680388279259205,-0.00010442384518682957,-0.0017437251517549157,0.004206957295536995,-0.00012900005094707012,-0.41107162833213806,0.6359757781028748,0.8475700616836548,-0.9447076320648193,2.807839870452881,-5.8801116943359375,0.37623268365859985,0.7323082089424133,0.42000001668930054,-0.9036864638328552,3.0000016689300537,-0.49145495891571045,-3.000000238418579,-0.06835126876831055,-0.07751600444316864,-0.08597782254219055,-0.09425392001867294,-0.9720534682273865,-0.9365141987800598,-0.877174973487854,-0.82282555103302
0.25,0.08663029223680496,0.1432371735572815,0.0,0.9376406669616699,0.0,0.0,-0.3476061522960663,-0.060791775584220886,0.5033006072044373,0.0,0.0,0.0,-4.781068801879883,-0.403100848197937,0.7020586133003235,0.4200000464916229,0.9999999403953552,3.347485289850738e-06,-2.2592903405893594e-06,1.8084206487856136e-07,0.0002668781380634755,0.00026791184791363776,-0.0001043954398483038,-0.001740514999255538,0.004208283498883247,-0.000128701634821482,-0.4210495352745056,0.6712687611579895,0.744023323059082,-0.2500028610229492,1.6753239631652832,-6.285594463348389,0.37623268365859985,0.7323082089424133,0.42000001668930054,-0.8536757826805115,2.9999868869781494,-0.5414849519729614,-2.999998092651367,-0.08578401803970337,-0.09468749910593033,-0.10297947376966476,-0.1111394390463829,-0.7253323793411255,-0.7747453451156616,-0.8227505683898926,-0.8663157820701599
0.26666666666666666,0.09018191695213318,0.14665620028972626,0.0,0.9324294924736023,0.0,0.0,-0.3613520562648773,0.22463944554328918,0.1266280561685562,0.0,0.0,0.0,-0.6225299835205078,-0.403100848197937,0.7020586133003235,0.4200000464916229,0.9999999403953552,3.707919859152753e-06,-2.392595661149244e-06,-1.2726982845379098e-07,0.00026603692094795406,0.00026716693537309766,-0.00010421336628496647,-0.0017321702325716615,0.004193120636045933,-0.00012854926171712577,-0.42657190561294556,0.6908252239227295,0.6403401494026184,-0.0876593291759491,0.682044267654419,-6.226435661315918,0.37623268365859985,0.7323082089424133,0.42000001668930054,-0.8036662936210632,2.9999983310699463,-0.5915147066116333,-3.0000016689300537,-0.09812545031309128,-0.10712545365095139,-0.11553149670362473,-0.12380412966012955,-0.9921610951423645,-0.9514040350914001,-0.9019136428833008,-0.8564471006393433
0.2833333333333333,0.08905670791864395,0.14905622601509094,0.0,0.9360599517822266,0.0,0.0,-0.3518404960632324,-0.15154002606868744,0.10979777574539185,0.0,0.0,0.0,2.17893123626709,-0.403100848197937,0.7020586729049683,0.4200000464916229,0.9999999403953552,3.5725404359254753e-06,-2.304164354427485e-06,1.2984229158519156e-07,0.0002652165130712092,0.00026455134502612054,-0.00010317238047719002,-0.0017021878156811,0.004185077268630266,-0.00012500181037466973,-0.42707937955856323,0.6974983215332031,0.5432944297790527,0.17196865379810333,0.0985129177570343,-5.327993392944336,0.37623268365859985,0.7323082089424133,0.42000001668930054,-0.7536575198173523,3.000000476837158,-0.641543447971344,-3.0000009536743164,-0.1157681941986084,-0.12454205751419067,-0.1327866166830063,-0.14093896746635437,-1.01906418800354,-1.0144072771072388,-1.0108596086502075,-1.0080270767211914
0.3,0.08625232428312302,0.14834532141685486,0.0,0.9341906905174255,0.0,0.0,-0.35677409172058105,-0.20087139308452606,-0.09218748658895493,0.0,0.0,0.0,-1.5011427402496338,-0.403100848197937,0.7020586133003235,0.4200000464916229,1.0,3.744931063920376e-06,-2.238220076833386e-06,-1.7679303709883243e-07,0.00026436246116645634,0.00026623631129041314,-0.00010443315841257572,-0.0017120876582339406,0.004158840514719486,-0.0001299011637456715,-0.41895318031311035,0.7012325525283813,0.4547571539878845,0.8152133822441101,0.20060092210769653,-5.214544296264648,0.37623268365859985,0.7323082089424133,0.42000001668930054,-0.7036497592926025,3.0000009536743164,-0.6915702819824219,-3.0000007152557373,-0.13226087391376495,-0.14104366302490234,-0.14933881163597107,-0.1575535386800766,-1.007705807685852,-1.0058388710021973,-1.0044136047363281,-1.0032705068588257
0.31666666666666665,0.08130817860364914,0.14513424038887024,0.0,0.9377170205116272,0.0,0.0,-0.3474000096321106,-0.3437533974647522,-0.2356516271829605,0.0,0.0,0.0,2.025146484375,-0.403100848197937,0.7020586729049683,0.4200000464916229,0.9999999403953552,3.6680191897175973e-06,-2.3073625925462693e-06,2.637042086917063e-07,0.00026690878439694643,0.00026760288164950907,-0.0001041253563016653,-0.0017413778696209192,0.0042116218246519566,-0.00012786732986569405,-0.41149231791496277,0.7047668695449829,0.4240657687187195,0.20035448670387268,-0.004296008497476578,-0.15319441258907318,0.37623268365859985,0.7323082089424133,0.42000001668930054,-0.6537303328514099,3.000058174133301,-0.7420899868011475,-2.8252768516540527,-0.1401330530643463,-0.1497911661863327,-0.15872256457805634,-0.1672600656747818,-0.13393835723400116,-0.19778937101364136,-0.24016183614730835,-0.25378912687301636
0.3333333333333333,0.07397890090942383,0.1396067887544632,0.0,0.9354387521743774,0.0,0.0,-0.3534888029098511,-0.48486971855163574,-0.37083178758621216,0.0,0.0,0.0,-1.6921671628952026,-0.4030087888240814,0.7026810050010681,0.4200001358985901,0.9999467730522156,4.256717147654854e-06,-1.917188228617306e-06,-0.01030823402106762,0.006134875118732452,0.04632139950990677,-9.102851618081331e-05,0.0014660299057140946,0.0030897785909473896,-1.358721137046814,-0.4095191955566406,0.7060508728027344,0.42497849464416504,0.2792315185070038,0.029025554656982422,-0.18732810020446777,0.37623268365859985,0.7323082089424133,0.42000001668930054,-0.60372394323349,2.999992847442627,-0.7921470999717712,-2.999997615814209,-0.14349010586738586,-0.1534140408039093,-0.1622404158115387,-0.17019493877887726,-0.3179734945297241,-0.28197047114372253,-0.22767814993858337,-0.14972209930419922
0.35,0.0643858015537262,0.1317465454339981,0.0,0.9386570453643799,0.0,0.0,-0.3448520600795746,-0.6180827021598816,-0.5108559131622314,0.0,0.0,0.0,1.9991796016693115,-0.4014523923397064,0.7061249613761902,0.41999998688697815,0.9980975389480591,-1.7726588339428417e-06,9.430618774786126e-06,-0.06165429577231407,0.1670851707458496,0.3554772436618805,-0.00014151926734484732,0.009316060692071915,-0.002709746127948165,-11.023219108581543,-0.40389251708984375,0.7097426056861877,0.42198920249938965,0.40888845920562744,0.39501768350601196,-0.14454171061515808,0.37623268365859985,0.7323082089424133,0.42000001668930054,-0.5537189841270447,2.9999840259552,-0.8421804308891296,-2.999999761581421,-0.15022344887256622,-0.15904094278812408,-0.16646118462085724,-0.17263582348823547,-0.4185020327568054,-0.33499857783317566,-0.2351445108652115,-0.11492574214935303
0.36666666666666664,0.05254257470369339,0.12159886211156845,0.0,0.9362677931785583,0.0,0.0,-0.3512871563434601,-0.7525586485862732,-0.6485397815704346,0.0,0.0,0.0,-1.7635951042175293,-0.3969968557357788,0.7136334180831909,0.41999924182891846,0.986440896987915,8.548826008336619e-05,-2.784164280456025e-05,-0.16411682963371277,0.33534327149391174,0.5161686539649963,-0.0015830256743356586,-0.07282771915197372,0.02701493911445141,-14.332273483276367,-0.3959849178791046,0.716562032699585,0.4214097857475281,0.5808940529823303,0.5157850980758667,0.06590202450752258,0.37623268365859985,0.7323082089424133,0.42000001668930054,-0.5036882758140564,3.0,-0.8922052383422852,-2.9999656677246094,-0.15751348435878754,-0.16468966007232666,-0.17016024887561798,-0.17402169108390808,-0.4245811402797699,-0.31331032514572144,-0.1841556876897812,-0.03430844098329544
0.3833333333333333,0.04189331457018852,0.10896220803260803,0.0,0.9233409762382507,0.0,0.0,-0.38398104906082153,-0.5434206128120422,-0.8147007822990417,0.0,0.0,0.0,-5.019876003265381,-0.38540032505989075,0.7281780242919922,0.4210149347782135,0.9781173467636108,-0.024021616205573082,0.0031421943567693233,-0.2066384106874466,0.9888888001441956,1.1644853353500366,0.08996975421905518,-2.832679510116577,-1.5599446296691895,-5.291590213775635,-0.3841152489185333,0.7292065620422363,0.422801673412323,0.9060815572738647,1.056197166442871,0.10415717959403992,0.37623268365859985,0.7323082089424133,0.42000001668930054,-0.4536440372467041,2.999678373336792,-0.9422163367271423,-2.999993324279785,-0.16469670832157135,-0.16979026794433594,-0.17283815145492554,-0.17390410602092743,-0.37647658586502075,-0.24782754480838776,-0.0981263667345047,0.07418209314346313
0.4,0.035511165857315063,0.09323127567768097,0.0,0.8980872631072998,0.0,0.0,-0.4398173391819,-0.299052357673645,-1.0016653537750244,0.0,0.0,0.0,-8.165863990783691,-0.35874873399734497,0.7553837895393372,0.4231339395046234,0.9647674560546875,-0.0340658538043499,-0.021509751677513123,-0.26000118255615234,2.3323559761047363,2.088393449783325,0.07915180921554565,34.82490158081055,-16.33349609375,5.591688632965088,-0.3584572672843933,0.7558670043945312,0.42481812834739685,2.241352081298828,2.093904972076416,0.3680783808231354,0.37623268365859985,0.7323082089424133,0.42000001668930054,-0.40554073452949524,2.1890316009521484,-0.9922341108322144,-2.999999761581421,-0.17223836481571198,-0.17474468052387238,-0.17488285899162292,-0.17271454632282257,-0.5008132457733154,-0.3190811574459076,-0.12167713046073914,0.09034428000450134
0.4166666666666667,0.03152849152684212,0.08207938075065613,0.0,0.856974720954895,0.0,0.0,-0.5153583884239197,-0.19970594346523285,-0.5473400354385376,0.0,0.0,0.0,-11.089184761047363,-0.29564177989959717,0.7976676821708679,0.427708238363266,0.9464564919471741,0.03115023858845234,-0.05997970327734947,-0.31567707657814026,5.246405124664307,2.506699800491333,0.4052164852619171,15.784029006958008,-12.080427169799805,15.081459999084473,-0.2954781651496887,0.797758936882019,0.42973747849464417,4.939544677734375,3.0217268466949463,0.40727993845939636,0.37623268365859985,0.7323082089424133,0.42000001668930054,-0.3800538182258606,1.2209151983261108,-0.9548280239105225,2.9977049827575684,-0.18727605044841766,-0.18644045293331146,-0.1816977709531784,-0.17479552328586578,-0.9308688640594482,-0.8126202821731567,-0.5100786089897156,-0.22875738143920898
0.43333333333333335,0.02329312637448311,0.07749084383249283,0.0,0.8087221384048462,0.0,0.0,-0.5881908535957336,-0.6021987199783325,-0.24135729670524597,0.0,0.0,0.0,-10.029946327209473,-0.21072998642921448,0.8405756950378418,0.4360155463218689,0.917605459690094,0.0883416160941124,-0.09078056365251541,-0.3767687976360321,5.581169605255127,1.8919835090637207,0.5537775158882141,10.327142715454102,-13.448108673095703,12.726329803466797,-0.21027880907058716,0.8416815996170044,0.43795931339263916,5.330098628997803,2.363764524459839,0.5580328106880188,0.37623268365859985,0.7323082089424133,0.42000001668930054,-0.362064927816391,1.0679796934127808,-0.9419528245925903,-1.0466233491897583,-0.20232971012592316,-0.20138812065124512,-0.19441625475883484,-0.18267440795898438,-0.8619333505630493,-0.8300755620002747,-0.712455153465271,-0.4619743227958679
0.45,0.020357584580779076,0.06615688651800156,0.0,0.7736538648605347,0.0,0.0,-0.6336084604263306,-0.0732983946800232,-0.8251118063926697,0.0,0.0,0.0,-5.910715103149414,-0.11686956137418747,0.8753020763397217,0.44453147053718567,0.8689777255058289,0.09094050526618958,-0.09770148247480392,-0.4765099883079529,5.890907287597656,0.9175446629524231,0.4956214725971222,8.752120971679688,-8.957856178283691,18.9725341796875,-0.11718499660491943,0.8765774965286255,0.4456941783428192,5.864020824432373,1.6118643283843994,0.566653847694397,0.37623268365859985,0.7323082089424133,0.42000001668930054,-0.342252641916275,1.140195608139038,-0.9893608093261719,-3.00000262260437,-0.21058252453804016,-0.20882534980773926,-0.19998791813850403,-0.184657022356987,-0.43330663442611694,-0.331583172082901,-0.18983237445354462,0.025369955226778984
0.4666666666666667,0.015976987779140472,0.05751241371035576,0.0,0.7594411969184875,0.0,0.0,-0.6505759358406067,-0.2967606484889984,-0.431684285402298,0.0,0.0,0.0,-1.4137134552001953,-0.02080802246928215,0.8926793932914734,0.4546433389186859,0.8100824356079102,0.11429581791162491,-0.04962587356567383,-0.5729225277900696,5.5796403884887695,0.07354049384593964,0.5168320536613464,9.580275535583496,-8.530434608459473,16.77459716796875,-0.021570798009634018,0.8946827054023743,0.45385512709617615,5.755863189697266,0.6853656768798828,0.5721200108528137,0.37623268365859985,0.7323082089424133,0.42000001668930054,-0.3225288987159729,0.9316310882568359,-1.0393832921981812,-2.9998586177825928,-0.2216264009475708,-0.2171751707792282,-0.2054298371076584,-0.18654857575893402,-0.6177666187286377,-0.46115642786026,-0.3092377483844757,-0.14134737849235535
0.48333333333333334,0.01085662841796875,0.048760734498500824,0.0,0.7388021349906921,0.0,0.0,-0.6739224195480347,-0.32911524176597595,-0.5617725849151611,0.0,0.0,0.0,-4.561638355255127,0.07192651927471161,0.8892362713813782,0.4589666724205017,0.736270546913147,0.10117092728614807,-0.07546016573905945,-0.6648126244544983,5.201779842376709,-1.4333996772766113,0.09034793078899384,-18.180011749267578,6.065859794616699,5.794989585876465,0.06945326924324036,0.8939199447631836,0.4597759246826172,5.455428123474121,-0.6990243792533875,0.2941296100616455,0.37623268365859985,0.7323082089424133,0.42000001668930054,-0.30902308225631714,0.47943979501724243,-1.0894054174423218,-2.999999523162842,-0.23492734134197235,-0.22629228234291077,-0.21065138280391693,-0.1879735141992569,-0.827388346195221,-0.5274146199226379,-0.2533222436904907,-3.3586260883566865e-07
0.5,0.008036978542804718,0.043676845729351044,0.0,0.7310775518417358,0.0,0.0,-0.6822943687438965,-0.09649734199047089,-0.20940111577510834,0.0,0.0,0.0,-0.30579012632369995,0.15608501434326172,0.8693251013755798,0.4577898383140564,0.661700963973999,0.05286448448896408,-0.09262217581272125,-0.7421443462371826,4.570121765136719,-1.8977196216583252,-0.37094631791114807,-17.953256607055664,7.339591979980469,-5.919927597045898,0.1525968611240387,0.8750942945480347,0.46029794216156006,4.692539215087891,-1.5069527626037598,-0.07354454696178436,0.37623268365859985,0.7323082089424133,0.42000001668930054,-0.3028377890586853,0.3941323459148407,-1.1394275426864624,-3.0000007152557373,-0.23996134102344513,-0.23660176992416382,-0.21660593152046204,-0.1902162879705429,-0.009266532957553864,-0.5238353610038757,-0.31176167726516724,-0.14879561960697174
0.5166666666666666,0.009094741195440292,0.03536324203014374,0.0,0.7145121693611145,0.0,0.0,-0.6996229887008667,0.08951354771852493,-0.5385777354240417,0.0,0.0,0.0,-3.735358476638794,0.22903917729854584,0.841679573059082,0.44811299443244934,0.5908160209655762,-0.030056053772568703,-0.12266506254673004,-0.7968602776527405,4.073558330535889,-2.0365309715270996,-0.4897877871990204,-9.002063751220703,5.13970947265625,-0.9264803528785706,0.225709468126297,0.8502010107040405,0.4540761709213257,4.0754289627075195,-1.719599962234497,-0.5880700945854187,0.37623268365859985,0.7323082089424133,0.42000001668930054,-0.289844274520874,0.9998894929885864,-1.189449667930603,-2.999333381652832,-0.23635059595108032,-0.2400025874376297,-0.2180396020412445,-0.19027942419052124,0.19435130059719086,-0.01001074817031622,-0.02941644936800003,0.01413059327751398
0.5333333333333333,0.012587451376020908,0.031117310747504234,0.0,0.7101097106933594,0.0,0.0,-0.7040910124778748,0.23795053362846375,-0.22464554011821747,0.0,0.0,0.0,0.20171643793582916,0.2905721962451935,0.8089889883995056,0.43683430552482605,0.5367512106895447,-0.06369965523481369,-0.10352542996406555,-0.8349388241767883,3.382683515548706,-2.5950891971588135,-0.49669525027275085,-2.3952476978302,4.015225887298584,3.224128246307373,0.28840428590774536,0.8177894949913025,0.44328391551971436,3.423488140106201,-1.9954533576965332,-0.7602548599243164,0.37623268365859985,0.7323082089424133,0.42000001668930054,-0.2756597697734833,0.561298131942749,-1.2394717931747437,-3.0,-0.236062690615654,-0.23984454572200775,-0.21996907889842987,-0.19199427962303162,0.15623140335083008,0.04223485291004181,-0.021241795271635056,-0.08311678469181061
0.55,0.01825437881052494,0.029974715784192085,0.0,0.6973422169685364,0.0,0.0,-0.7167382836341858,0.38851162791252136,-0.005338934250175953,0.0,0.0,0.0,-3.023606777191162,0.34121173620224,0.7811640501022339,0.42279186844825745,0.5078542232513428,-0.06265810132026672,-0.033018533140420914,-0.8585265278816223,2.491313934326172,-1.2385897636413574,-0.09055585414171219,0.12339556962251663,-3.814626455307007,1.4332669973373413,0.33971351385116577,0.7885777354240417,0.4281555116176605,2.467912197113037,-1.500199794769287,-0.6551015377044678,0.37623268365859985,0.7323082089424133,0.42000001668930054,-0.26630935072898865,0.6738648414611816,-1.2894933223724365,-2.9956674575805664,-0.23125296831130981,-0.2372356653213501,-0.21959011256694794,-0.1939595490694046,0.3953566551208496,0.2662949562072754,0.08866587281227112,-0.10575883835554123
0.5666666666666667,0.02170819602906704,0.025102389976382256,0.0,0.6966522932052612,0.0,0.0,-0.7174089550971985,0.15775619447231293,-0.27218806743621826,0.0,0.0,0.0,0.7681390643119812,0.3739699721336365,0.7615814805030823,0.42010197043418884,0.4967537224292755,0.0010592361213639379,-0.0011890331516042352,-0.8678900599479675,1.1514474153518677,-1.651699423789978,-0.09851181507110596,1.3352580070495605,3.83483624458313,-1.1368794441223145,0.37100720405578613,0.7664299011230469,0.42302513122558594,1.4227209091186523,-1.3225171566009521,-0.12210097908973694,0.37623268365859985,0.7323082089424133,0.42000001668930054,-0.2512853741645813,1.1948779821395874,-1.2622723579406738,2.992690086364746,-0.22210340201854706,-0.22975705564022064,-0.21531008183956146,-0.19337394833564758,0.3701511323451996,0.34574607014656067,0.18944589793682098,-0.014097298495471478
0.5833333333333334,0.02677331119775772,0.024778084829449654,0.0,0.6858150362968445,0.0,0.0,-0.7277758717536926,0.31033939123153687,-0.008393395692110062,0.0,0.0,0.0,-2.571361780166626,0.3901907503604889,0.7475054264068604,0.42051824927330017,0.5027762055397034,-0.006562895607203245,0.011250870302319527,-0.8643183708190918,0.5448727011680603,-1.0362815856933594,0.31296566128730774,9.248445510864258,14.149517059326172,6.922921657562256,0.38722723722457886,0.7515830993652344,0.4237089157104492,0.6719058752059937,-0.5602214336395264,0.11928006261587143,0.37623268365859985,0.7323082089424133,0.42000001668930054,-0.23614256083965302,0.48905032873153687,-1.2832634449005127,-2.9960904121398926,-0.21601080894470215,-0.2241763025522232,-0.2127687931060791,-0.19466909766197205,0.5071704387664795,0.45177924633026123,0.23012188076972961,-0.03825518116354942
0.6,0.03357233479619026,0.0202900692820549,0.0,0.6872659921646118,0.0,0.0,-0.7264058589935303,0.4290676712989807,-0.2581131160259247,0.0,0.0,0.0,1.0639517307281494,0.3978769779205322,0.736888587474823,0.4207414388656616,0.5255061388015747,-0.009346450679004192,0.01608183979988098,-0.8505863547325134,0.23742592334747314,-0.5856776833534241,0.004689003806561232,-0.4476991891860962,2.1110119819641113,2.3496761322021484,0.3936062455177307,0.741223931312561,0.422719269990921,0.08395546674728394,-0.6497081518173218,-0.10817819833755493,0.37623268365859985,0.7323082089424133,0.42000001668930054,-0.2596779763698578,-2.649669885635376,-1.245142936706543,2.998410701751709,-0.20550978183746338,-0.21437861025333405,-0.20668308436870575,-0.19314992427825928,0.46620434522628784,0.48111093044281006,0.302743524312973,0.06509442627429962
0.6166666666666667,0.0417192205786705,0.019984465092420578,0.0,0.6779249906539917,0.0,0.0,-0.7351310849189758,0.5414190888404846,-2.364035026403144e-05,0.0,0.0,0.0,-2.360919237136841,0.3993362486362457,0.7302674055099487,0.4200027287006378,0.5546785593032837,-5.0723436288535595e-05,-3.147344250464812e-05,-0.832064688205719,0.06323565542697906,-0.3031606376171112,-0.0001378888264298439,-0.000969155749771744,0.0073328763246536255,3.2468297481536865,0.3947492837905884,0.736833930015564,0.4242110848426819,0.13415047526359558,-0.07873024046421051,0.18256941437721252,0.37623268365859985,0.7323082089424133,0.42000001668930054,-0.3000415563583374,-2.2171075344085693,-1.265282392501831,-2.9989917278289795,-0.19795769453048706,-0.2068181186914444,-0.20226673781871796,-0.19275709986686707,0.6152557730674744,0.5753821134567261,0.35239195823669434,0.08415829390287399
0.6333333333333333,0.05192403495311737,0.022586315870285034,0.0,0.68105548620224,0.0,0.0,-0.7322317957878113,0.645942211151123,0.2154659479856491,0.0,0.0,0.0,1.4146521091461182,0.3995608687400818,0.7264912128448486,0.4201163053512573,0.5755338072776794,0.0016215679934248328,-0.002411487279459834,-0.8177727460861206,-0.11406007409095764,-0.12401408702135086,0.037175312638282776,-0.6994926929473877,-1.7414637804031372,2.5043938159942627,0.3933491110801697,0.735158383846283,0.427415132522583,-0.18103158473968506,-0.08275111019611359,0.21623490750789642,0.37623268365859985,0.7323082089424133,0.42000001668930054,-0.3486047089099884,-2.9999659061431885,-1.3152587413787842,-2.9992408752441406,-0.18912442028522491,-0.19833795726299286,-0.197091206908226,-0.19161152839660645,0.500694751739502,0.49411457777023315,0.3149847388267517,0.09219200164079666
0.65,0.05951157584786415,0.02044614590704441,0.0,0.6761254668235779,0.0,0.0,-0.7367865443229675,0.39715397357940674,-0.15852314233779907,0.0,0.0,0.0,-2.118929147720337,0.3980848789215088,0.7248828411102295,0.4200001060962677,0.5896435976028442,8.06843218015274e-07,3.526515911289607e-06,-0.8076635003089905,-0.07545573264360428,-0.07771787792444229,-4.033988807350397e-05,-0.0010221952106803656,-0.0021254525054246187,1.703711986541748,0.392314612865448,0.7370970845222473,0.4313012957572937,-0.1283232718706131,0.08757740259170532,0.24964937567710876,0.37623268365859985,0.7323082089424133,0.42000001668930054,-0.3986431658267975,-2.999999761581421,-1.3652238845825195,-2.9987363815307617,-0.17641982436180115,-0.18598264455795288,-0.18819397687911987,-0.18680116534233093,0.5848572254180908,0.6371495723724365,0.47575557231903076,0.27421438694000244
0.6666666666666666,0.06840240955352783,0.022829968482255936,0.0,0.6804048418998718,0.0,0.0,-0.7328364253044128,0.5251263380050659,0.13849474489688873,0.0,0.0,0.0,1.5257471799850464,0.3965610861778259,0.7246080040931702,0.42020976543426514,0.5997669100761414,0.003088319208472967,-0.004256682004779577,-0.800157368183136,-0.10969499498605728,0.0220020841807127,0.004712240304797888,-0.05719001963734627,-0.22647620737552643,0.42573004961013794,0.3890545964241028,0.7382473945617676,0.43518686294555664,-0.1618446558713913,0.21578435599803925,0.22058632969856262,0.37623268365859985,0.7323082089424133,0.42000001668930054,-0.44865256547927856,-2.997025489807129,-1.415242075920105,-3.0,-0.17141185700893402,-0.1796601563692093,-0.1838410198688507,-0.18515722453594208,0.37126439809799194,0.4043498933315277,0.2625883221626282,0.08110518008470535
0.6833333333333333,0.07860700786113739,0.020747678354382515,0.0,0.7002918720245361,0.0,0.0,-0.7138566374778748,0.6464520692825317,-0.15007731318473816,0.0,0.0,0.0,4.196558952331543,0.39435651898384094,0.725357711315155,0.42016541957855225,0.5957846641540527,0.0024867148604243994,-0.0033166289795190096,-0.8031334280967712,-0.220618337392807,0.04033317789435387,0.04717084392905235,-0.6727165579795837,-2.2639365196228027,-0.4770948886871338,0.38646358251571655,0.7408900260925293,0.4379534125328064,-0.24662043154239655,0.07134027779102325,0.24089094996452332,0.37623268365859985,0.7323082089424133,0.42000001668930054,-0.49867212772369385,-2.999303102493286,-1.4652180671691895,-2.999986410140991,-0.16482992470264435,-0.17217062413692474,-0.17791421711444855,-0.1813472956418991,0.2096623033285141,0.3197219967842102,0.3032858967781067,0.25583529472351074
0.7,0.0905604287981987,0.015760481357574463,0.0,0.7070986032485962,0.0,0.0,-0.7071149349212646,0.7504881024360657,-0.3555878698825836,0.0,0.0,0.0,0.1349315196275711,0.39124977588653564,0.7259241342544556,0.4200931489467621,0.5933802723884583,0.0013678462710231543,-0.0018662397051230073,-0.8049189448356628,-0.17422112822532654,0.03176413103938103,-0.021268246695399284,0.31599172949790955,1.0308326482772827,-0.3443860709667206,0.38527634739875793,0.7433136701583862,0.44248414039611816,-0.02758180722594261,0.13289187848567963,0.2976578176021576,0.37623268365859985,0.7323082089424133,0.42000001668930054,-0.5486823916435242,-2.9992733001708984,-1.515212893486023,-2.9999217987060547,-0.1627003699541092,-0.1678367704153061,-0.1730521023273468,-0.17634664475917816,0.10150214284658432,0.24631667137145996,0.3122044503688812,0.36027824878692627
0.7166666666666667,0.1043306365609169,0.007932527922093868,0.0,0.6926368474960327,0.0,0.0,-0.7212864756584167,0.8569208383560181,-0.5715740919113159,0.0,0.0,0.0,-3.286891222000122,0.3894708454608917,0.7262409925460815,0.4200000464916229,0.5921639204025269,2.608672673432011e-07,-9.317877669445807e-08,-0.8058175444602966,-0.08344001322984695,0.014927631244063377,-5.4746633395552635e-06,-0.000200752227101475,0.00019679554679896683,-0.1394399255514145,0.38894379138946533,0.7477988004684448,0.45438152551651,0.4609840512275696,0.3423764109611511,1.2246732711791992,0.37623268365859985,0.7323082089424133,0.42000001668930054,-0.5986937284469604,-2.9999876022338867,-1.5652307271957397,-3.0,-0.16335496306419373,-0.16602545976638794,-0.1697717308998108,-0.17182840406894684,-0.09795576333999634,0.04744609445333481,0.14944294095039368,0.24080686271190643
0.7333333333333333,0.12166127562522888,0.005124001298099756,0.0,0.6564252972602844,0.0,0.0,-0.754391074180603,1.1140490770339966,-0.034177638590335846,0.0,0.0,0.0,-6.898376941680908,0.38904809951782227,0.7263167500495911,0.4200000464916229,0.5919410586357117,1.9400727069296408e-07,3.5856093205666184e-08,-0.8059811592102051,-0.002991173416376114,0.0005698207532986999,-1.0256888344883919e-05,0.0005994443199597299,-1.4619733519793954e-05,-0.002192671410739422,0.4077456593513489,0.7465336322784424,0.48055553436279297,1.7984192371368408,-0.38297754526138306,2.026440143585205,0.37623268365859985,0.7323082089424133,0.42000001668930054,-0.6487005949020386,-2.9996652603149414,-1.6152452230453491,-2.999960422515869,-0.17410436272621155,-0.1726265251636505,-0.17280657589435577,-0.17158345878124237,-0.827846348285675,-0.5473390221595764,-0.2908306121826172,-0.05204209312796593
0.75,0.1349475085735321,0.00560983968898654,0.0,0.6336958408355713,0.0,0.0,-0.7735822796821594,0.7274928092956543,-0.06544901430606842,0.0,0.0,0.0,-2.3435885906219482,0.3890478312969208,0.7263169884681702,0.4200000464916229,0.5919411778450012,2.1530918559165002e-07,-3.5340210615686374e-06,-0.8059810996055603,0.0001220021367771551,-0.0002799161884468049,-8.445791900157928e-05,0.006514222361147404,-0.0010829713428393006,-0.0006498084403574467,0.4349362850189209,0.7446050047874451,0.515184223651886,1.528331995010376,0.07370302081108093,2.095421075820923,0.37623268365859985,0.7323082089424133,0.42000001668930054,-0.6657052040100098,0.6456521153450012,-1.6652597188949585,-2.999999523162842,-0.18310119211673737,-0.17899155616760254,-0.17631670832633972,-0.17245738208293915,-0.22777613997459412,-0.1747683882713318,-0.09929142892360687,-0.03049481101334095
0.7666666666666666,0.14367392659187317,0.006577718071639538,0.0,0.6370044350624084,0.0,0.0,-0.7708601355552673,0.44766250252723694,0.10816659778356552,0.0,0.0,0.0,1.4009454250335693,0.3890478312969208,0.7263169288635254,0.4200000464916229,0.5919411778450012,4.2406719558130135e-07,-3.279039219705737e-06,-0.8059811592102051,0.0001237749238498509,-0.0002708163228817284,-9.288545697927475e-05,0.006213665474206209,-0.0012498546857386827,-0.0006616971222683787,0.45652562379837036,0.746627151966095,0.5439895391464233,0.9688106775283813,0.14045079052448273,1.4419097900390625,0.37623268365859985,0.7323082089424133,0.42000001668930054,-0.6317387223243713,2.9999823570251465,-1.6260640621185303,2.999999761581421,-0.18540790677070618,-0.18072563409805298,-0.17706038057804108,-0.17230674624443054,-0.04332289099693298,-0.02649388648569584,0.01569920778274536,0.051544029265642166
0.7833333333333333,0.14784204959869385,0.00290388404391706,0.0,0.6297450065612793,0.0,0.0,-0.7768019437789917,0.2531804144382477,-0.2714994549751282,0.0,0.0,0.0,-1.9938379526138306,0.3890478312969208,0.7263169288635254,0.4200000464916229,0.5919411778450012,3.504606240767316e-07,-3.2086657029140042e-06,-0.8059810996055603,0.00012314083869569004,-0.0002706089580897242,-9.276019409298897e-05,0.0062107667326927185,-0.0012577808229252696,-0.0006601889035664499,0.46559804677963257,0.7508740425109863,0.5617282390594482,0.08153422921895981,0.14472270011901855,0.8036730289459229,0.37623268365859985,0.7323082089424133,0.42000001668930054,-0.5896779894828796,2.093554735183716,-1.576007604598999,3.0,-0.18137480318546295,-0.17722438275814056,-0.17365026473999023,-0.1690552830696106,0.1080988347530365,0.11009757220745087,0.1330728977918625,0.1459190994501114
0.8,0.14927354454994202,0.004396793898195028,0.0,0.6349871158599854,0.0,0.0,-0.7725227475166321,0.042670346796512604,0.09161175787448883,0.0,0.0,0.0,1.574875831604004,0.3890478312969208,0.7263169288635254,0.4200000464916229,0.5919411778450012,3.613323542595026e-07,-3.1364465939986985e-06,-0.8059810400009155,0.00012289019650779665,-0.0002706723171286285,-9.269989095628262e-05,0.00621363939717412,-0.0012611537240445614,-0.0006597003666684031,0.4625217318534851,0.7521545886993408,0.572749137878418,-0.32475388050079346,0.18078163266181946,0.5318920612335205,0.37623268365859985,0.7323082089424133,0.42000001668930054,-0.5428652763366699,2.9999966621398926,-1.525970220565796,3.0000011920928955,-0.1839340180158615,-0.17897967994213104,-0.17437203228473663,-0.16903389990329742,0.012109560891985893,0.009615248069167137,0.02316434495151043,0.023980196565389633
0.8166666666666667,0.14845003187656403,0.0020582296419888735,0.0,0.6285638809204102,0.0,0.0,-0.7777579426765442,-0.08117271214723587,-0.2317456156015396,0.0,0.0,0.0,-1.912742257118225,0.3890478312969208,0.7263169288635254,0.4200000464916229,0.5919411778450012,3.93821181887688e-07,-3.2447428566229064e-06,-0.8059810996055603,0.00012259374489076436,-0.0002706757513806224,-9.263097308576107e-05,0.006215343717485666,-0.0012646238319575787,-0.0006590494886040688,0.45099368691444397,0.7541904449462891,0.5752438902854919,-1.0478401184082031,0.04427807033061981,-0.05868847668170929,0.37623268365859985,0.7323082089424133,0.42000001668930054,-0.5197803974151611,0.01008083950728178,-1.4759137630462646,3.000000238418579,-0.18214790523052216,-0.1773919314146042,-0.1726997047662735,-0.16744138300418854,0.14476928114891052,0.13626328110694885,0.1435675024986267,0.14167529344558716
0.8333333333333334,0.14521217346191406,0.004357220605015755,0.0,0.634478747844696,0.0,0.0,-0.7729402780532837,-0.19553270936012268,0.13556553423404694,0.0,0.0,0.0,1.6817513704299927,0.3890478312969208,0.7263169288635254,0.4200000464916229,0.5919411778450012,3.486636330762849e-07,-3.1732279239804484e-06,-0.8059810400009155,0.00012300153321120888,-0.00027064132154919207,-9.272550232708454e-05,0.0062123979441821575,-0.0012595074949786067,-0.0006599057232961059,0.4362337589263916,0.7540243864059448,0.5736052989959717,-0.6367772221565247,0.13836783170700073,-0.1399722546339035,0.37623268365859985,0.7323082089424133,0.42000001668930054,-0.5001921653747559,2.1419267654418945,-1.4858916997909546,-3.0000007152557373,-0.18446989357471466,-0.178984597325325,-0.17338354885578156,-0.16743819415569305,0.024377532303333282,0.016688989475369453,0.024965327233076096,0.02826687879860401
0.85,0.14429020881652832,0.0036550587974488735,0.0,0.6290861964225769,0.0,0.0,-0.777335524559021,-0.03658272698521614,-0.07375035434961319,0.0,0.0,0.0,-1.6293630599975586,0.3890478312969208,0.7263169288635254,0.4200000464916229,0.5919411778450012,3.477818211194972e-07,-3.098452225458459e-06,-0.8059810996055603,0.00012276422057766467,-0.00027070127543993294,-9.267008863389492e-05,0.006215087603777647,-0.0012627275427803397,-0.0006594494916498661,0.423271119594574,0.7562456130981445,0.5675075054168701,-0.8908976316452026,0.09198208898305893,-0.4133371114730835,0.37623268365859985,0.7323082089424133,0.42000001668930054,-0.5040462613105774,-2.221799612045288,-1.4472061395645142,2.999999761581421,-0.18302781879901886,-0.17804870009422302,-0.17265523970127106,-0.1669226884841919,0.07989660650491714,0.04603220894932747,0.02990884892642498,0.015483209863305092
0.8666666666666667,0.14556162059307098,0.0008140213903971016,0.0,0.6357117891311646,0.0,0.0,-0.7719264626502991,0.12740841507911682,-0.23331089317798615,0.0,0.0,0.0,1.853096604347229,0.3890478312969208,0.7263169288635254,0.4200000464916229,0.5919411778450012,4.336801850968186e-07,-3.3787605389079545e-06,-0.8059811592102051,0.00012458280252758414,-0.0002701926277950406,-9.3135517090559e-05,0.006192334461957216,-0.0012397170066833496,-0.0006630216375924647,0.4139963388442993,0.7565444707870483,0.5617595911026001,-0.282715380191803,-0.028510285541415215,-0.22995129227638245,0.37623268365859985,0.7323082089424133,0.42000001668930054,-0.5514718294143677,-3.000000238418579,-1.4644405841827393,-3.0,-0.18321610987186432,-0.1782074123620987,-0.1724449247121811,-0.16625547409057617,-0.047956954687833786,-0.02345127798616886,0.022571159526705742,0.07663870602846146
0.8833333333333333,0.14926500618457794,-0.004813735838979483,0.0,0.6304036974906921,0.0,0.0,-0.7762674689292908,0.26590102910995483,-0.394625723361969,0.0,0.0,0.0,-1.704101324081421,0.3890478312969208,0.7263169288635254,0.4200000464916229,0.5919411778450012,3.8111670619400684e-07,-3.12585666506493e-06,-0.8059810400009155,0.00012272562889847904,-0.00027057775878347456,-9.26540233194828e-05,0.006212442647665739,-0.0012621823698282242,-0.0006591958808712661,0.4144653081893921,0.7544627785682678,0.5542322397232056,0.33250999450683594,-0.23923265933990479,-0.4835498631000519,0.37623268365859985,0.7323082089424133,0.42000001668930054,-0.6014786958694458,-2.9999873638153076,-1.5144588947296143,-3.000000238418579,-0.18467405438423157,-0.17897379398345947,-0.17211399972438812,-0.16462382674217224,-0.08338281512260437,-0.02630211040377617,0.055506251752376556,0.15138964354991913
0.9,0.15574710071086884,-0.008108429610729218,0.0,0.6048349142074585,0.0,0.0,-0.79635089635849,0.440414160490036,-0.1290929764509201,0.0,0.0,0.0,-4.758569717407227,0.3890478312969208,0.7263169288635254,0.4200000464916229,0.5919411778450012,3.55509087057726e-07,-3.2350226319977082e-06,-0.8059810400009155,0.00012326719297561795,-0.0002705264778342098,-9.279767982661724e-05,0.006207937840372324,-0.0012561052571982145,-0.0006604045047424734,0.42233917117118835,0.7485285401344299,0.5491741299629211,0.6152529716491699,-0.44506949186325073,0.00980963185429573,0.37623268365859985,0.7323082089424133,0.42000001668930054,-0.6509084701538086,-2.8999898433685303,-1.5644772052764893,-2.999999523162842,-0.18662522733211517,-0.18045130372047424,-0.172691211104393,-0.16401591897010803,-0.09908492118120193,-0.09023253619670868,-0.05808667093515396,-0.008897630497813225
0.9166666666666666,0.16474038362503052,-0.007517025340348482,0.0,0.594805121421814,0.0,0.0,-0.803869903087616,0.5741550922393799,0.10510758310556412,0.0,0.0,0.0,-0.5097664594650269,0.3890478312969208,0.7263169288635254,0.4200000464916229,0.591941237449646,3.724435941876436e-07,-3.163949713780312e-06,-0.8059810996055603,0.00012296529894229025,-0.0002705971128307283,-9.27201472222805e-05,0.006211387924849987,-0.0012597986496984959,-0.000659777841065079,0.43091627955436707,0.7450839877128601,0.5512434244155884,0.3859514594078064,-0.05783679336309433,0.2199435532093048,0.37623268365859985,0.7323082089424133,0.42000001668930054,-0.6666058897972107,0.7152742147445679,-1.6144955158233643,-2.999999523162842,-0.18740341067314148,-0.18174391984939575,-0.17418240010738373,-0.16545370221138,0.013825143687427044,-0.04737727716565132,-0.095826655626297,-0.13279058039188385
