vladlanda/robotic-transformer/data/env_000_episode_0090.csv
sim_time_s,robot_box_x,robot_box_y,robot_box_z,robot_box_quat_w,robot_box_quat_x,robot_box_quat_y,robot_box_quat_z,robot_box_linvel_x,robot_box_linvel_y,robot_box_linvel_z,robot_box_angvel_x,robot_box_angvel_y,robot_box_angvel_z,cube_world_x,cube_world_y,cube_world_z,cube_quat_w,cube_quat_x,cube_quat_y,cube_quat_z,cube_linvel_x,cube_linvel_y,cube_linvel_z,cube_angvel_x,cube_angvel_y,cube_angvel_z,endpoint_world_x,endpoint_world_y,endpoint_world_z,endpoint_linvel_x,endpoint_linvel_y,endpoint_linvel_z,target_cube_world_x,target_cube_world_y,target_cube_world_z,gripper_actual_pos_rad_gp_leftgearjoint,gripper_actual_vel_rad_s_gp_leftgearjoint,gripper_actual_pos_rad_gp_rotatingjoint,gripper_actual_vel_rad_s_gp_rotatingjoint,motor_angle_rad_joint1,motor_angle_rad_joint2,motor_angle_rad_joint3,motor_angle_rad_joint4,motor_speed_rad_s_joint1,motor_speed_rad_s_joint2,motor_speed_rad_s_joint3,motor_speed_rad_s_joint4
0.0,0.0,0.0,0.0,1.0,0.0,0.0,0.0,0.0,0.0,0.0,0.0,0.0,0.0,-0.38507238030433655,0.7516886591911316,0.41999998688697815,1.0,0.0,0.0,0.0,0.0,0.0,0.0,0.0,0.0,0.0,3.42540442943573e-06,-0.005000244826078415,1.313499927520752,0.0,0.0,0.0,0.46891695261001587,0.6283464431762695,0.42000001668930054,-1.5707999467849731,0.0,0.0,0.0,0.0,0.0,0.0,0.0,0.0,0.0,0.0,0.0
0.016666666666666666,0.0028803141321986914,0.002177847782149911,0.0,0.9998138546943665,0.0,0.0,0.0192937683314085,0.240944504737854,0.18230608105659485,0.0,0.0,0.0,3.141810655593872,-0.3850724995136261,0.7516883611679077,0.41999998688697815,1.0,3.279964630564791e-06,-8.339746386809566e-07,8.465587342243452e-08,-1.9833529222523794e-05,0.00017983045836444944,-6.132945418357849e-05,0.0009432713268324733,-0.004689474124461412,-0.00031981561915017664,-0.007109096273779869,0.0033870653714984655,1.3159379959106445,-0.8140797019004822,0.9871524572372437,0.18096019327640533,0.46891695261001587,0.6283464431762695,0.42000001668930054,-1.5301095247268677,3.0000011920928955,-0.045848626643419266,-3.0000016689300537,0.0008700007456354797,0.0007966574630700052,0.0007112264283932745,0.0006110842805355787,0.11094727367162704,0.09758522361516953,0.08336212486028671,0.0682566836476326
0.03333333333333333,0.008964195847511292,0.006797718815505505,0.0,0.9998018741607666,0.0,0.0,0.01990417204797268,0.4070769250392914,0.3152226209640503,0.0,0.0,0.0,-0.8690529465675354,-0.38507261872291565,0.7516883015632629,0.4200000464916229,1.0,3.3908731893461663e-06,-2.1324503904907033e-06,-3.710378493337885e-08,0.0002635771525092423,0.00026937818620353937,-0.00010509602725505829,-0.0017707280348986387,0.0041307248175144196,-0.00013547952403314412,-0.026936976239085197,0.026342984288930893,1.3166682720184326,-1.5221953392028809,1.620930552482605,-0.07629073411226273,0.46891695261001587,0.6283464431762695,0.42000001668930054,-1.4800902605056763,3.00000262260437,-0.09588846564292908,-3.000001907348633,0.002923909341916442,0.0025628814473748207,0.002164124511182308,0.0017243347829207778,0.15616050362586975,0.12930110096931458,0.10094630718231201,0.07101593911647797
0.05,0.018478963524103165,0.013908995315432549,0.0,0.9999735355377197,0.0,0.0,-0.007277447264641523,0.636375367641449,0.47259777784347534,0.0,0.0,0.0,-4.0721354484558105,-0.38507264852523804,0.7516883611679077,0.4200000464916229,1.0,3.765210749406833e-06,-2.211951823483105e-06,5.613643327961881e-09,0.00026530795730650425,0.0002669148670975119,-0.00010440382175147533,-0.001724369591102004,0.004177452996373177,-0.00012949664960615337,-0.05468297004699707,0.057990703731775284,1.312486171722412,-1.8176913261413574,2.1004581451416016,-0.41465386748313904,0.46891695261001587,0.6283464431762695,0.42000001668930054,-1.4300719499588013,2.9999985694885254,-0.14592716097831726,-2.999999523162842,0.005684781353920698,0.00475942250341177,0.003761725267395377,0.0026875382754951715,0.18486766517162323,0.14054901897907257,0.09430425614118576,0.04606986418366432
0.06666666666666667,0.030702682211995125,0.023414677008986473,0.0,0.999870777130127,0.0,0.0,-0.016075309365987778,0.7746564149856567,0.6160649061203003,0.0,0.0,0.0,-0.02764011360704899,-0.38507264852523804,0.7516883015632629,0.4200000464916229,0.9999999403953552,3.4067904834955698e-06,-2.285614755237475e-06,4.3009768546653504e-07,0.00026702461764216423,0.00026791743584908545,-0.00010437914170324802,-0.0017406983533874154,0.004211690742522478,-0.00012850519851781428,-0.08797584474086761,0.09230600297451019,1.3033068180084229,-2.0420141220092773,2.1706910133361816,-0.6726727485656738,0.46891695261001587,0.6283464431762695,0.42000001668930054,-1.3800468444824219,3.0000009536743164,-0.12268504500389099,3.0000014305114746,0.007769215852022171,0.006012618541717529,0.004143224563449621,0.0021558119915425777,0.1020599976181984,0.04228873923420906,-0.019649295136332512,-0.08377508074045181
0.08333333333333333,0.03676795959472656,0.03679425269365311,0.0,0.9992048740386963,0.0,0.0,-0.03986933454871178,0.22876356542110443,0.8763200044631958,0.0,0.0,0.0,-3.7999260425567627,-0.38507264852523804,0.7516883015632629,0.4200000464916229,0.9999999403953552,3.6261469631426735e-06,-2.335380486329086e-06,3.03218911312797e-07,0.00026613997761160135,0.00026685072225518525,-0.00010405411012470722,-0.00172830477822572,0.004196411930024624,-0.00012791113113053143,-0.11651121824979782,0.13256749510765076,1.2902429103851318,-1.417255163192749,2.6663475036621094,-0.8246142864227295,0.46891695261001587,0.6283464431762695,0.42000001668930054,-1.330047845840454,3.0000040531158447,-0.15465512871742249,-3.0000009536743164,0.003138933563604951,0.0005424194387160242,-0.0022213454358279705,-0.0051607899367809296,-0.40818676352500916,-0.4713786840438843,-0.5373395085334778,-0.6062799096107483
0.1,0.04667732119560242,0.05174175277352333,0.0,0.995830237865448,0.0,0.0,-0.09122569859027863,0.7387003898620605,0.9042447805404663,0.0,0.0,0.0,-6.957346439361572,-0.38507264852523804,0.7516883015632629,0.4200000464916229,1.0,3.422160716581857e-06,-2.3086697638063924e-06,1.7963446907742764e-07,0.0002668171364348382,0.00026800541672855616,-0.00010440940968692303,-0.0017430626321583986,0.0042071714997291565,-0.00012891193910036236,-0.14128759503364563,0.1787780374288559,1.276782751083374,-1.55787992477417,2.9135751724243164,-0.8503535389900208,0.46891695261001587,0.6283464431762695,0.42000001668930054,-1.2800408601760864,3.0000014305114746,-0.18358084559440613,-0.6469070315361023,0.0007871150737628341,-0.0034041537437587976,-0.007765861693769693,-0.012306117452681065,-0.05554432421922684,-0.1585448533296585,-0.260517954826355,-0.36137229204177856
0.11666666666666667,0.05514807999134064,0.06402332335710526,0.0,0.9923992156982422,0.0,0.0,-0.12306006252765656,0.5421676635742188,0.6838011741638184,0.0,0.0,0.0,-2.5712761878967285,-0.38507264852523804,0.7516883611679077,0.4200000464916229,1.0,3.711574436238152e-06,-2.3327409053308656e-06,2.57429746852722e-07,0.0002648569061420858,0.00026635389076545835,-0.00010423175990581512,-0.001718113082461059,0.00417000986635685,-0.00012916083505842835,-0.1715300977230072,0.22529619932174683,1.2606728076934814,-1.786700963973999,3.009979486465454,-0.9806464910507202,0.46891695261001587,0.6283464431762695,0.42000001668930054,-1.23009192943573,2.979757070541382,-0.14674215018749237,3.0000009536743164,-0.002466752426698804,-0.00823567621409893,-0.014149623923003674,-0.020216237753629684,-0.09897829592227936,-0.21250668168067932,-0.32262924313545227,-0.42915859818458557
0.13333333333333333,0.060978349298238754,0.07755089551210403,0.0,0.9865116477012634,0.0,0.0,-0.16369107365608215,0.2840341031551361,0.8539295196533203,0.0,0.0,0.0,-5.687021732330322,-0.38507264852523804,0.7516883015632629,0.4200000464916229,1.0,3.335777364554815e-06,-2.2319622985378373e-06,3.113137267973798e-07,0.0002666980435606092,0.0002675949945114553,-0.00010428577661514282,-0.001737120095640421,0.004205959849059582,-0.0001284073368879035,-0.19939228892326355,0.27848488092422485,1.2434427738189697,-1.4911625385284424,3.49310302734375,-1.1177351474761963,0.46891695261001587,0.6283464431762695,0.42000001668930054,-1.182862639427185,2.673767328262329,-0.17856602370738983,-3.000000238418579,-0.005882172379642725,-0.013529746793210506,-0.021251998841762543,-0.029053376987576485,-0.2696404457092285,-0.37771305441856384,-0.4812493622303009,-0.5800496339797974
0.15,0.06342223286628723,0.09042765200138092,0.0,0.9826474189758301,0.0,0.0,-0.18548323214054108,0.08970174938440323,0.718158483505249,0.0,0.0,0.0,-1.4670683145523071,-0.38507264852523804,0.7516883015632629,0.4200000464916229,1.0,3.518996436469024e-06,-2.2831670776213286e-06,-3.625500255566294e-07,0.0002661844191607088,0.00026735776918940246,-0.0001042571384459734,-0.0017350405687466264,0.004195826128125191,-0.00012860792048741132,-0.23183658719062805,0.3357016146183014,1.2174214124679565,-2.0756211280822754,3.592015266418457,-1.9478790760040283,0.46891695261001587,0.6283464431762695,0.42000001668930054,-1.1572206020355225,0.5662278532981873,-0.14485052227973938,3.0,-0.010946723632514477,-0.019996386021375656,-0.029036859050393105,-0.03807138651609421,-0.34412258863449097,-0.4030036926269531,-0.45720237493515015,-0.5067858695983887
0.16666666666666666,0.0694085881114006,0.10347414016723633,0.0,0.9755979180335999,0.0,0.0,-0.21956472098827362,0.3576439321041107,0.8024898767471313,0.0,0.0,0.0,-5.005342960357666,-0.38507264852523804,0.7516883015632629,0.4200000464916229,1.0,3.6666856431111228e-06,-2.3392326511384454e-06,-3.1500661634709104e-07,0.0002659590682014823,0.0002666739746928215,-0.00010403734631836414,-0.001725408830679953,0.004192907828837633,-0.00012778787640854716,-0.26494306325912476,0.3997038006782532,1.1823899745941162,-1.8348777294158936,4.097692966461182,-2.328057289123535,0.46891695261001587,0.6283464431762695,0.42000001668930054,-1.115943431854248,2.999999761581421,-0.1766863465309143,-3.0000007152557373,-0.01579371839761734,-0.025833211839199066,-0.0357862263917923,-0.04565735533833504,-0.4642363488674164,-0.4947071373462677,-0.5222888588905334,-0.5471433401107788
0.18333333333333332,0.07188885658979416,0.11441157758235931,0.0,0.966381311416626,0.0,0.0,-0.2571130692958832,0.12541350722312927,0.5883697867393494,0.0,0.0,0.0,-4.394241809844971,-0.38507264852523804,0.7516883015632629,0.4200000464916229,1.0,3.8144271456985734e-06,-2.399574441369623e-06,-2.7028085014535463e-07,0.00026549104950390756,0.0002661106700543314,-0.00010391208343207836,-0.0017177473055198789,0.004184795543551445,-0.00012754145427607,-0.2976638674736023,0.4674229621887207,1.1345269680023193,-1.8015577793121338,4.26436710357666,-3.3204779624938965,0.46891695261001587,0.6283464431762695,0.42000001668930054,-1.0775892734527588,1.683890700340271,-0.22671514749526978,-2.999999761581421,-0.02709549106657505,-0.036906078457832336,-0.04661135375499725,-0.056225065141916275,-0.6987979412078857,-0.6708428859710693,-0.6419782638549805,-0.6127937436103821
0.2,0.07091870158910751,0.12673236429691315,0.0,0.950320839881897,0.0,0.0,-0.31127211451530457,-0.14380064606666565,0.768616259098053,0.0,0.0,0.0,-7.586950302124023,-0.38507264852523804,0.7516883015632629,0.4200000464916229,1.0,3.600128366088029e-06,-2.2912661279406166e-06,-2.201928452905122e-07,0.0002657302829902619,0.0002664499043021351,-0.00010398216545581818,-0.0017227501375600696,0.004188836552202702,-0.00012773204070981592,-0.3267301917076111,0.5409994125366211,1.0711630582809448,-1.4681282043457031,4.588425636291504,-4.19816255569458,0.46891695261001587,0.6283464431762695,0.42000001668930054,-1.030348539352417,3.0000009536743164,-0.2767421305179596,-3.0000007152557373,-0.04148246720433235,-0.05050235241651535,-0.05940542742609978,-0.06821846961975098,-0.8948831558227539,-0.8426328897476196,-0.7894313931465149,-0.7359970211982727
0.21666666666666667,0.07353974878787994,0.13667048513889313,0.0,0.9377331733703613,0.0,0.0,-0.34735649824142456,0.15760278701782227,0.5450279116630554,0.0,0.0,0.0,-3.2627170085906982,-0.38507264852523804,0.7516883015632629,0.4200000464916229,0.9999999403953552,3.6396832001628354e-06,-2.2619790343014756e-06,2.2247580488965468e-07,0.000266876129899174,0.0002675456053111702,-0.00010411837138235569,-0.0017403995152562857,0.004211102146655321,-0.0001278344279853627,-0.35311436653137207,0.6114566326141357,0.9928946495056152,-1.2389699220657349,4.161126613616943,-5.207114219665527,0.46891695261001587,0.6283464431762695,0.42000001668930054,-0.9803454875946045,2.9999959468841553,-0.32676851749420166,-2.9999988079071045,-0.05479484423995018,-0.06265333294868469,-0.07038801163434982,-0.0780658945441246,-0.9731062650680542,-0.8847069144248962,-0.7764773368835449,-0.6731014251708984
0.23333333333333334,0.07173454761505127,0.14903342723846436,0.0,0.9361816644668579,0.0,0.0,-0.35151660442352295,-0.13209977746009827,0.7404724359512329,0.0,0.0,0.0,0.604701042175293,-0.38507261872291565,0.7516883015632629,0.4200000464916229,1.0,3.4207012049591867e-06,-2.3168170173448743e-06,2.956003584131395e-07,0.00026680107112042606,0.000268039817456156,-0.00010442431084811687,-0.001743763918057084,0.004206912126392126,-0.00012899679131805897,-0.37685590982437134,0.6673287153244019,0.899565577507019,-1.300268292427063,2.952643632888794,-5.862770080566406,0.46891695261001587,0.6283464431762695,0.42000001668930054,-0.9303364753723145,2.999995231628418,-0.37679755687713623,-3.0000009536743164,-0.07021136581897736,-0.07808873057365417,-0.08583763241767883,-0.09338577091693878,-0.8836970329284668,-0.8813424706459045,-0.8768966197967529,-0.8697373270988464
0.25,0.07413468509912491,0.15639284253120422,0.0,0.9302802085876465,0.0,0.0,-0.366849809885025,0.16767217218875885,0.3746855854988098,0.0,0.0,0.0,-2.648521900177002,-0.38507264852523804,0.7516883015632629,0.4200000464916229,0.9999999403953552,3.3475778309366433e-06,-2.2591987089981558e-06,1.80843230168648e-07,0.00026687668287195265,0.0002679106837604195,-0.00010439427569508553,-0.0017404770478606224,0.004208184313029051,-0.00012870125647168607,-0.3956294059753418,0.713154673576355,0.7959913015365601,-0.8852096796035767,2.3303775787353516,-6.485877990722656,0.46891695261001587,0.6283464431762695,0.42000001668930054,-0.8803258538246155,3.000000476837158,-0.4268287122249603,-3.000002384185791,-0.0843810960650444,-0.09222714602947235,-0.09960407018661499,-0.10666519403457642,-0.989026665687561,-0.9867962002754211,-0.9339643120765686,-0.868509829044342
0.26666666666666666,0.07255858927965164,0.1613699048757553,0.0,0.9310153126716614,0.0,0.0,-0.3649800717830658,-0.16706062853336334,0.1918480098247528,0.0,0.0,0.0,1.077284336090088,-0.38507264852523804,0.7516883015632629,0.4200000464916229,0.9999999403953552,3.5356292755750474e-06,-2.3003199203230906e-06,-1.268551699240561e-07,0.00026601855643093586,0.0002671205438673496,-0.00010419590398669243,-0.0017316712765023112,0.004192938096821308,-0.00012849338236264884,-0.4085785746574402,0.7393521070480347,0.6874692440032959,-0.5741249322891235,0.9606719613075256,-6.458650588989258,0.46891695261001587,0.6283464431762695,0.42000001668930054,-0.8303157687187195,2.9999852180480957,-0.476860374212265,-3.000002145767212,-0.10119776427745819,-0.10893558710813522,-0.116242416203022,-0.12326131761074066,-0.9842981696128845,-0.9863350987434387,-0.9879963994026184,-0.9893269538879395
0.2833333333333333,0.06694027781486511,0.16252440214157104,0.0,0.9260650277137756,0.0,0.0,-0.37736400961875916,-0.31561291217803955,-0.0067142825573682785,0.0,0.0,0.0,-2.4040181636810303,-0.38507264852523804,0.7516883611679077,0.4200000464916229,1.0,3.593386736611137e-06,-2.262666157548665e-06,-5.653454238085942e-08,0.00026704760966822505,0.0002677501179277897,-0.0001041668001562357,-0.0017431536689400673,0.004214164335280657,-0.0001278952695429325,-0.41125690937042236,0.7478519678115845,0.5801759958267212,0.19144731760025024,0.10502049326896667,-6.244726181030273,0.46891695261001587,0.6283464431762695,0.42000001668930054,-0.7803069353103638,3.000001907348633,-0.526890754699707,-2.9999990463256836,-0.1188204362988472,-0.12630905210971832,-0.13343799114227295,-0.1403225064277649,-0.8259579539299011,-0.8609679937362671,-0.8938784599304199,-0.9234021902084351
0.3,0.06025588512420654,0.1606784462928772,0.0,0.9275197982788086,0.0,0.0,-0.37377411127090454,-0.4390343725681305,-0.15248405933380127,0.0,0.0,0.0,1.3324373960494995,-0.38507261872291565,0.7516883015632629,0.4200000464916229,0.9999999403953552,3.7249612887535477e-06,-2.2361150513461325e-06,3.82876550020228e-07,0.0002647988440003246,0.0002667312219273299,-0.00010453863069415092,-0.0017189474310725927,0.004166778642684221,-0.00013016737648285925,-0.4066864848136902,0.7517999410629272,0.48316919803619385,0.4819595217704773,0.18990421295166016,-5.318000793457031,0.46891695261001587,0.6283464431762695,0.42000001668930054,-0.7302981615066528,3.000001907348633,-0.576919436454773,-3.0000011920928955,-0.135874941945076,-0.14331887662410736,-0.1504136621952057,-0.15726162493228912,-1.0248839855194092,-1.0188244581222534,-1.0141932964324951,-1.010482907295227
0.31666666666666665,0.051453519612550735,0.15654689073562622,0.0,0.9231122732162476,0.0,0.0,-0.38453051447868347,-0.5764926671981812,-0.28833648562431335,0.0,0.0,0.0,-2.2623414993286133,-0.38507264852523804,0.7516883015632629,0.4200000464916229,0.9999999403953552,3.557703621481778e-06,-2.27888676818111e-06,2.283357218857418e-07,0.000265985174337402,0.0002665847714524716,-0.00010399101302027702,-0.0017240674933418632,0.004193439148366451,-0.00012769292516168207,-0.40230780839920044,0.754555881023407,0.43066471815109253,0.10391770303249359,-0.014260325580835342,-0.22912627458572388,0.46891695261001587,0.6283464431762695,0.42000001668930054,-0.6802931427955627,2.9999327659606934,-0.6273399591445923,-3.0002036094665527,-0.15022774040699005,-0.15768785774707794,-0.16478264331817627,-0.17085319757461548,-0.4820179343223572,-0.5157256722450256,-0.5425889492034912,-0.45850569009780884
0.3333333333333333,0.040505941957235336,0.1500374674797058,0.0,0.9250473976135254,0.0,0.0,-0.37985169887542725,-0.6951361298561096,-0.4308629333972931,0.0,0.0,0.0,1.5262947082519531,-0.3844453692436218,0.7527410387992859,0.4199998378753662,0.9999486207962036,1.3571872841566801e-05,-5.461931777972495e-07,-0.010137593373656273,0.09067588299512863,0.13102929294109344,-0.0002608442446216941,-0.0146479532122612,0.009624487720429897,-1.8559582233428955,-0.3995916247367859,0.7582089304924011,0.42740875482559204,0.30110400915145874,0.10818663984537125,-0.24390341341495514,0.46891695261001587,0.6283464431762695,0.42000001668930054,-0.6302863955497742,2.999976873397827,-0.6774018406867981,-2.9999260902404785,-0.15955884754657745,-0.16640284657478333,-0.17272606492042542,-0.17647142708301544,-0.5945935249328613,-0.5094373226165771,-0.4140499532222748,-0.24220910668373108
0.35,0.02737106755375862,0.14125844836235046,0.0,0.920977771282196,0.0,0.0,-0.38961511850357056,-0.8313514590263367,-0.565851628780365,0.0,0.0,0.0,-2.2068710327148438,-0.3820352852344513,0.7557889223098755,0.4200001060962677,0.9996365308761597,2.216269194832421e-06,1.6251277656920138e-07,-0.026958635076880455,0.1746712327003479,0.21169091761112213,-9.399516420671716e-05,-0.002910047536715865,-1.0511154869163875e-05,-2.1250648498535156,-0.3930368423461914,0.7594388723373413,0.4237557053565979,0.5164201259613037,0.09783508628606796,-0.19641952216625214,0.46891695261001587,0.6283464431762695,0.42000001668930054,-0.5802813768386841,2.9999821186065674,-0.7274647355079651,-2.9996302127838135,-0.17000529170036316,-0.17492474615573883,-0.17911288142204285,-0.17968755960464478,-0.6003605127334595,-0.4671223759651184,-0.32070866227149963,-0.1260424256324768
0.36666666666666664,0.012166928499937057,0.13019077479839325,0.0,0.9231194853782654,0.0,0.0,-0.3845132887363434,-0.9505096077919006,-0.7039027214050293,0.0,0.0,0.0,1.6025102138519287,-0.3771578073501587,0.7595929503440857,0.4200000464916229,0.9946373105049133,3.991354788013268e-06,2.5117558379861293e-06,-0.10342436283826828,0.2979452311992645,0.23395487666130066,-1.3433746062219143e-06,6.922359170857817e-05,-1.2454702300601639e-05,-8.894725799560547,-0.3830704092979431,0.7632628679275513,0.42102038860321045,0.6783761978149414,0.3477679491043091,-0.12619876861572266,0.46891695261001587,0.6283464431762695,0.42000001668930054,-0.5302764773368835,2.999969720840454,-0.7775090932846069,-2.9999825954437256,-0.18018494546413422,-0.1824897676706314,-0.1838250756263733,-0.18095359206199646,-0.5427039861679077,-0.3848477900028229,-0.21172082424163818,-0.013223071582615376
0.3833333333333333,-2.667051558091771e-05,0.11646949499845505,0.0,0.919365406036377,0.0,0.0,-0.3934047520160675,-0.6632834076881409,-0.8674458861351013,0.0,0.0,0.0,-2.0688698291778564,-0.370267778635025,0.7652323842048645,0.4200001060962677,0.9811565279960632,7.576942380183027e-07,-2.0989557469874853e-06,-0.19321408867835999,0.4254961609840393,0.3574720025062561,-5.275355579215102e-05,0.002144088502973318,-0.00012333071208558977,-12.048707008361816,-0.3712546229362488,0.7673054933547974,0.4197479486465454,0.8509039282798767,0.27205127477645874,-0.06595519930124283,0.46891695261001587,0.6283464431762695,0.42000001668930054,-0.48027217388153076,2.999979257583618,-0.8275629281997681,-2.999987840652466,-0.18900302052497864,-0.18835847079753876,-0.18642184138298035,-0.17997142672538757,-0.47135868668556213,-0.2878541946411133,-0.08385952562093735,0.1309366524219513
0.4,-0.014479407109320164,0.10118445754051208,0.0,0.9030089378356934,0.0,0.0,-0.42962178587913513,-0.8738710284233093,-0.9756365418434143,0.0,0.0,0.0,-5.67879056930542,-0.35551509261131287,0.7768734693527222,0.4207051694393158,0.9605774283409119,-0.0073401969857513905,-0.01236176211386919,-0.27764034271240234,1.4508068561553955,0.8264416456222534,0.23177725076675415,-8.664873123168945,0.10746795684099197,-11.82593822479248,-0.354240357875824,0.776328444480896,0.42138615250587463,1.2628936767578125,0.8751119375228882,0.14348848164081573,0.46891695261001587,0.6283464431762695,0.42000001668930054,-0.430229514837265,2.982542037963867,-0.8775703310966492,-2.9970450401306152,-0.1975906640291214,-0.19379828870296478,-0.1883193701505661,-0.17821988463401794,-0.3413470387458801,-0.19211243093013763,-0.015613344497978687,0.16604578495025635
0.4166666666666667,-0.025468917563557625,0.08266671746969223,0.0,0.8721693158149719,0.0,0.0,-0.489204078912735,-0.6107603311538696,-1.1576577425003052,0.0,0.0,0.0,-8.855052947998047,-0.3213096261024475,0.7966043949127197,0.42550134658813477,0.9414381384849548,-0.014338103123009205,-0.03983330354094505,-0.33451738953590393,3.2590503692626953,1.3623080253601074,0.3485022187232971,23.22538185119629,-19.168651580810547,9.565390586853027,-0.31989389657974243,0.7963497042655945,0.4258677363395691,2.8859593868255615,1.528376579284668,0.5807533264160156,0.46891695261001587,0.6283464431762695,0.42000001668930054,-0.39276039600372314,1.4804871082305908,-0.9275928139686584,-2.9999477863311768,-0.20418858528137207,-0.19751454889774323,-0.18875394761562347,-0.17543652653694153,-0.4719732701778412,-0.26546725630760193,-0.03980599716305733,0.17262610793113708
0.43333333333333335,-0.03366928547620773,0.06892987340688705,0.0,0.8242970705032349,0.0,0.0,-0.5661575198173523,-0.408468633890152,-0.8241205811500549,0.0,0.0,0.0,-11.55370044708252,-0.2469179928302765,0.825007438659668,0.43246448040008545,0.9183250665664673,0.039541006088256836,-0.08351525664329529,-0.38489046692848206,5.96158504486084,1.6370285749435425,0.48964786529541016,17.197843551635742,-20.307371139526367,15.991456031799316,-0.24548636376857758,0.8249518871307373,0.43329644203186035,5.567834854125977,2.0738000869750977,0.5198185443878174,0.46891695261001587,0.6283464431762695,0.42000001668930054,-0.3720901906490326,1.0844417810440063,-0.8902692794799805,2.996448516845703,-0.21716168522834778,-0.20664691925048828,-0.19312097132205963,-0.17566238343715668,-0.5485222339630127,-0.43700897693634033,-0.20776069164276123,-0.022003652527928352
0.45,-0.037818219512701035,0.05800602585077286,0.0,0.7808693051338196,0.0,0.0,-0.6246944069862366,-0.19592614471912384,-0.5923570990562439,0.0,0.0,0.0,-7.279099464416504,-0.15119625627994537,0.8557302355766296,0.44248026609420776,0.8761721849441528,0.06887315213680267,-0.11640990525484085,-0.46263089776039124,6.002502918243408,1.2448514699935913,0.7553837895393372,20.15521812438965,-7.508981704711914,9.215133666992188,-0.15105709433555603,0.8572672605514526,0.44316232204437256,5.901651859283447,1.626713514328003,0.6677260398864746,0.46891695261001587,0.6283464431762695,0.42000001668930054,-0.3534662127494812,1.1751936674118042,-0.9164962768554688,-3.000002384185791,-0.225987508893013,-0.21380645036697388,-0.19722023606300354,-0.17753414809703827,-0.4732157588005066,-0.3822714388370514,-0.23310337960720062,-0.13849815726280212
0.4666666666666667,-0.039108000695705414,0.044336073100566864,0.0,0.7593962550163269,0.0,0.0,-0.650628387928009,-0.021839940920472145,-0.913138210773468,0.0,0.0,0.0,-2.8825249671936035,-0.052941497415304184,0.8715043663978577,0.45451125502586365,0.8172152638435364,0.07632734626531601,-0.12501370906829834,-0.5574091672897339,5.951215744018555,-0.33826568722724915,0.748702347278595,10.288678169250488,-9.36129093170166,16.294649124145508,-0.05315003544092178,0.8736610412597656,0.4545186460018158,5.956972122192383,0.3331672251224518,0.8094526529312134,0.46891695261001587,0.6283464431762695,0.42000001668930054,-0.3336651027202606,1.0916014909744263,-0.9665203094482422,-3.0000011920928955,-0.23429690301418304,-0.21949400007724762,-0.19967709481716156,-0.1777389645576477,-0.49897491931915283,-0.3039877414703369,-0.08894956856966019,0.06714384257793427
0.48333333333333334,-0.04268985241651535,0.035633694380521774,0.0,0.7287511825561523,0.0,0.0,-0.6847785711288452,-0.16523870825767517,-0.500281572341919,0.0,0.0,0.0,-6.236360549926758,0.04217298701405525,0.8657011985778809,0.4643746018409729,0.7736616730690002,0.058019619435071945,-0.12899282574653625,-0.6176099181175232,5.567305564880371,-1.4278336763381958,0.7121063470840454,10.417194366455078,-4.82599401473999,17.323631286621094,0.04238216578960419,0.8680292963981628,0.46545663475990295,5.760149002075195,-0.8268382549285889,0.5807746648788452,0.46891695261001587,0.6283464431762695,0.42000001668930054,-0.317203164100647,0.9144241213798523,-1.0165437459945679,-3.000000476837158,-0.24003271758556366,-0.2298518419265747,-0.2056078165769577,-0.18029868602752686,-0.030249562114477158,-0.5138712525367737,-0.29506775736808777,-0.1287863701581955
0.5,-0.042841024696826935,0.02939687669277191,0.0,0.7121566534042358,0.0,0.0,-0.7020205855369568,0.021958647295832634,-0.2901362180709839,0.0,0.0,0.0,-1.560202956199646,0.13165216147899628,0.8452551364898682,0.4708474576473236,0.7209024429321289,0.05014018714427948,-0.11142762750387192,-0.6821798086166382,5.064016342163086,-1.857433795928955,0.11529279500246048,-4.7287492752075195,0.14597605168819427,-2.4232585430145264,0.13219696283340454,0.8477327227592468,0.4717198312282562,5.100824356079102,-1.5850752592086792,0.26463234424591064,0.46891695261001587,0.6283464431762695,0.42000001668930054,-0.3001144826412201,1.1000113487243652,-1.0665658712387085,-3.0000009536743164,-0.23983460664749146,-0.23684774339199066,-0.20968681573867798,-0.18229350447654724,0.018245559185743332,-0.26735615730285645,-0.1531085968017578,-0.08281335234642029
0.5166666666666666,-0.04472241923213005,0.019331058487296104,0.0,0.6875619888305664,0.0,0.0,-0.7261256575584412,-0.11731748282909393,-0.6317416429519653,0.0,0.0,0.0,-4.9733357429504395,0.21256515383720398,0.8158354163169861,0.4696415960788727,0.6834300756454468,0.022810721769928932,-0.0888211727142334,-0.7242332100868225,4.3978352546691895,-2.8415796756744385,-0.25788766145706177,-6.079076290130615,-5.676012992858887,18.988313674926758,0.21379896998405457,0.8178675770759583,0.4709814190864563,4.700167655944824,-2.1961846351623535,-0.14200229942798615,0.46891695261001587,0.6283464431762695,0.42000001668930054,-0.28498348593711853,0.701953649520874,-1.1165879964828491,-3.0000007152557373,-0.2360353320837021,-0.23671942949295044,-0.20850056409835815,-0.18061402440071106,0.11857639998197556,0.013563891872763634,0.08512023836374283,0.12387121468782425
0.5333333333333333,-0.04456913843750954,0.014349611476063728,0.0,0.6766231060028076,0.0,0.0,-0.7363295555114746,0.027554985135793686,-0.2334105372428894,0.0,0.0,0.0,-0.6464316248893738,0.282316118478775,0.7744007706642151,0.4633406102657318,0.6275394558906555,-0.02106994204223156,-0.07359618693590164,-0.7748121619224548,3.4540793895721436,-3.030970335006714,-0.48158013820648193,-2.2735002040863037,-0.49175846576690674,12.50975227355957,0.2831742763519287,0.77638179063797,0.4652869403362274,3.8148953914642334,-2.6269426345825195,-0.473629891872406,0.46891695261001587,0.6283464431762695,0.42000001668930054,-0.27396684885025024,0.6076130867004395,-1.1666101217269897,-3.0000011920928955,-0.23712307214736938,-0.23805144429206848,-0.20881931483745575,-0.18050716817378998,0.06075136736035347,0.05798371881246567,0.0520855076611042,0.01845821551978588
0.55,-0.04157320410013199,0.00645474111661315,0.0,0.657148003578186,0.0,0.0,-0.7537615299224854,0.2317698448896408,-0.5410347580909729,0.0,0.0,0.0,-3.850750207901001,0.3408989906311035,0.7339931726455688,0.44949421286582947,0.5911257266998291,-0.05946211516857147,-0.05260688066482544,-0.8026625514030457,2.849698781967163,-2.7216007709503174,-0.9125596284866333,-0.6804738640785217,10.938868522644043,14.592137336730957,0.3419332504272461,0.735323429107666,0.45183300971984863,3.244802951812744,-2.5616836547851562,-0.9923765063285828,0.46891695261001587,0.6283464431762695,0.42000001668930054,-0.2616437077522278,0.7839879989624023,-1.2166322469711304,-2.9998273849487305,-0.23146997392177582,-0.23292429745197296,-0.20533280074596405,-0.17892993986606598,0.2949789762496948,0.30324897170066833,0.1843380630016327,0.05001823976635933
0.5666666666666667,-0.03606131300330162,0.0014687086222693324,0.0,0.6522683501243591,0.0,0.0,-0.7579880952835083,0.3602832555770874,-0.22490142285823822,0.0,0.0,0.0,0.16379940509796143,0.38769757747650146,0.6915960907936096,0.43041864037513733,0.5437567234039307,-0.12387116253376007,-0.05879046767950058,-0.8279662728309631,2.252378463745117,-2.4347100257873535,-1.0808582305908203,-3.899168014526367,20.6198787689209,6.323404788970947,0.3887980878353119,0.6930625438690186,0.43463417887687683,2.551051139831543,-2.5215020179748535,-1.1089328527450562,0.46891695261001587,0.6283464431762695,0.42000001668930054,-0.24758274853229523,0.8949441313743591,-1.2666536569595337,-2.9987072944641113,-0.2274409383535385,-0.22861579060554504,-0.20358817279338837,-0.17990966141223907,0.3120467960834503,0.31186720728874207,0.10707975924015045,-0.1007094755768776
0.5833333333333334,-0.028376974165439606,0.00046836998080834746,0.0,0.6384243965148926,0.0,0.0,-0.7696844935417175,0.5101947784423828,-2.306463102286216e-05,0.0,0.0,0.0,-3.0641071796417236,0.4214271306991577,0.6638033986091614,0.4234088659286499,0.5318700075149536,-0.07076843827962875,-0.0510542057454586,-0.8423179984092712,1.095090389251709,-1.6655443906784058,0.02454819343984127,-3.8108696937561035,4.553952217102051,20.059785842895508,0.42142754793167114,0.6641896367073059,0.42615699768066406,1.5922281742095947,-1.2805345058441162,-0.10789411514997482,0.46891695261001587,0.6283464431762695,0.42000001668930054,-0.23605842888355255,0.4016542434692383,-1.2285313606262207,2.9972431659698486,-0.21928489208221436,-0.22171452641487122,-0.2015043944120407,-0.18235303461551666,0.5603779554367065,0.4624490439891815,0.13662871718406677,-0.1638716757297516
0.6,-0.023274358361959457,-0.005609525367617607,0.0,0.6373425722122192,0.0,0.0,-0.7705805897712708,0.15473437309265137,-0.5468399524688721,0.0,0.0,0.0,0.788756251335144,0.4423428475856781,0.6473552584648132,0.4235776662826538,0.5214702486991882,-0.08019518852233887,-0.03862224891781807,-0.848613977432251,0.5996232628822327,-0.985038697719574,0.1870305985212326,2.92901611328125,8.247865676879883,11.485108375549316,0.44118523597717285,0.6472735404968262,0.4272212088108063,0.9835695028305054,-0.8691536784172058,0.13151511549949646,0.46891695261001587,0.6283464431762695,0.42000001668930054,-0.2293766438961029,0.4275682270526886,-1.2493916749954224,-3.0003514289855957,-0.2045249491930008,-0.2088000774383545,-0.19457347691059113,-0.18090365827083588,0.98650062084198,0.9137784242630005,0.5511932969093323,0.21892113983631134
0.6166666666666667,-0.015730921179056168,-0.00828434806317091,0.0,0.6256558895111084,0.0,0.0,-0.7800991535186768,0.42553141713142395,-0.131093829870224,0.0,0.0,0.0,-2.5078916549682617,0.4558625817298889,0.6357641816139221,0.42271625995635986,0.527897834777832,-0.04660743474960327,-0.04052305221557617,-0.8470592498779297,0.4114634394645691,-0.7100497484207153,0.05152754858136177,-2.32509183883667,-3.1845479011535645,16.87132453918457,0.45409172773361206,0.6348880529403687,0.4257141947746277,0.764187216758728,-0.46895527839660645,-0.10250398516654968,0.46891695261001587,0.6283464431762695,0.42000001668930054,-0.2198578119277954,0.5521398186683655,-1.211355209350586,2.999783992767334,-0.19421903789043427,-0.19902488589286804,-0.19003959000110626,-0.18116721510887146,0.7286025285720825,0.6550189256668091,0.31631287932395935,0.010674679651856422
0.6333333333333333,-0.007461561821401119,-0.0075377956964075565,0.0,0.6281993389129639,0.0,0.0,-0.7780524492263794,0.5289522409439087,0.12191889435052872,0.0,0.0,0.0,1.2833088636398315,0.4629588723182678,0.6292284727096558,0.4225548505783081,0.5381777286529541,-0.05770191177725792,-0.0368509441614151,-0.8400459289550781,0.2529449760913849,-0.3190540373325348,0.01910082995891571,-1.0195635557174683,0.47375139594078064,1.7224138975143433,0.4610125422477722,0.6293972730636597,0.42673593759536743,0.19675107300281525,-0.20633676648139954,0.12332963943481445,0.46891695261001587,0.6283464431762695,0.42000001668930054,-0.24070481956005096,-2.6168715953826904,-1.2324093580245972,-2.999981164932251,-0.18351073563098907,-0.1894785612821579,-0.18575413525104523,-0.18157579004764557,0.5836220383644104,0.5218377113342285,0.2299201637506485,-0.03054068237543106
0.65,0.002912996569648385,-0.008439316414296627,0.0,0.6185885667800903,0.0,0.0,-0.7857151031494141,0.655760645866394,-0.02310739830136299,0.0,0.0,0.0,-2.470364570617676,0.46609339118003845,0.6256600022315979,0.4219008684158325,0.5387468934059143,-0.04198772460222244,-0.026874491944909096,-0.8409913182258606,0.1364322453737259,-0.13066871464252472,-0.0487864725291729,2.567915678024292,-1.1689425706863403,-1.5396281480789185,0.4652906656265259,0.631318211555481,0.4293527603149414,0.17471471428871155,0.2156360149383545,0.18018335103988647,0.46891695261001587,0.6283464431762695,0.42000001668930054,-0.2893522381782532,-2.9999961853027344,-1.282357096672058,-2.9999914169311523,-0.16952408850193024,-0.17749960720539093,-0.17919069528579712,-0.17981423437595367,0.6986713409423828,0.615160346031189,0.34261128306388855,0.0999729186296463
0.6666666666666666,0.014912275597453117,-0.006058056838810444,0.0,0.6213194131851196,0.0,0.0,-0.7835574150085449,0.7561159729957581,0.18776917457580566,0.0,0.0,0.0,1.3379424810409546,0.46734344959259033,0.6244029402732849,0.4204336702823639,0.5206802487373352,-0.009102217853069305,-0.005296662915498018,-0.8536867499351501,0.028417689725756645,-0.02440532296895981,-0.05819186568260193,2.5244650840759277,-1.5741808414459229,-3.2151148319244385,0.46616631746292114,0.6343145370483398,0.4322660565376282,-0.014759939163923264,0.18991440534591675,0.20604632794857025,0.46891695261001587,0.6283464431762695,0.42000001668930054,-0.33935481309890747,-2.9999513626098633,-1.332349419593811,-2.9996793270111084,-0.15957728028297424,-0.1687379628419876,-0.1743958294391632,-0.17852783203125,0.5555775165557861,0.4922105669975281,0.2808716297149658,0.09331604838371277
0.6833333333333333,0.0286537054926157,-0.006831851322203875,0.0,0.6470893025398254,0.0,0.0,-0.7624141573905945,0.8709611892700195,-0.07431641221046448,0.0,0.0,0.0,4.839616775512695,0.46711301803588867,0.6242510676383972,0.42013582587242126,0.5137019753456116,0.0017493478953838348,-0.0029044297989457846,-0.8579619526863098,-0.05543786659836769,0.03050367161631584,0.029732942581176758,-0.6895658373832703,-1.3262261152267456,-1.3146347999572754,0.46556413173675537,0.6366292238235474,0.43604201078414917,-0.09468233585357666,0.10041338950395584,0.23456811904907227,0.46891695261001587,0.6283464431762695,0.42000001668930054,-0.3893764913082123,-2.9995522499084473,-1.3823268413543701,-2.9994800090789795,-0.15038584172725677,-0.16012190282344818,-0.1684817373752594,-0.17498087882995605,0.38368284702301025,0.4002286195755005,0.30579501390457153,0.22529102861881256
0.7,0.03954258933663368,-0.011164688505232334,0.0,0.6580972671508789,0.0,0.0,-0.7529329061508179,0.5703459978103638,-0.3197401762008667,0.0,0.0,0.0,0.6927987337112427,0.4667344093322754,0.6244275569915771,0.4200001060962677,0.5099198818206787,1.1220168744330294e-05,-2.370354013692122e-05,-0.8602219223976135,-0.010140671394765377,0.002253446029499173,-0.0008654771372675896,0.018676849082112312,0.027143720537424088,-0.2917219400405884,0.46524935960769653,0.637709379196167,0.4408774971961975,-0.03288505598902702,-0.014828667044639587,0.31815510988235474,0.46891695261001587,0.6283464431762695,0.42000001668930054,-0.43936944007873535,-2.9997880458831787,-1.432299256324768,-2.9999866485595703,-0.14655695855617523,-0.1549479067325592,-0.16342654824256897,-0.16980993747711182,0.15978194773197174,0.2828052043914795,0.3373089134693146,0.40502774715423584
0.7166666666666667,0.050332918763160706,-0.018521910533308983,0.0,0.6460205316543579,0.0,0.0,-0.7633200287818909,0.6814191341400146,-0.5018783807754517,0.0,0.0,0.0,-2.817380428314209,0.4667350947856903,0.624427080154419,0.42000001668930054,0.5099200010299683,4.308322161250544e-07,-2.5091073894145666e-06,-0.8602218627929688,7.969133002916351e-05,-0.00021074201504234225,-6.508058868348598e-05,0.0055628931149840355,-0.000870928168296814,-0.0007651132182218134,0.47044694423675537,0.6388770341873169,0.4522586166858673,0.5923781991004944,0.09571672230958939,1.1335396766662598,0.46891695261001587,0.6283464431762695,0.42000001668930054,-0.4893825054168701,-2.9999852180480957,-1.482317566871643,-2.999999761581421,-0.1464567333459854,-0.1525336503982544,-0.15955035388469696,-0.164275661110878,-0.07422441989183426,0.07458394765853882,0.18689416348934174,0.30911144614219666
0.7333333333333333,0.06542060524225235,-0.020126638934016228,0.0,0.6106230020523071,0.0,0.0,-0.7919214367866516,0.9900818467140198,0.0366230309009552,0.0,0.0,0.0,-6.522933483123779,0.4667351245880127,0.6244271397590637,0.4200000464916229,0.5099201798439026,-2.1817557183112513e-07,-2.5689021185826277e-06,-0.8602216243743896,-2.0193987438688055e-05,-0.00023448446881957352,-6.323982961475849e-05,0.006620236672461033,-0.0025777702685445547,-0.0006591646815650165,0.48739099502563477,0.6364722847938538,0.47761213779449463,1.5018807649612427,-0.36676037311553955,2.0273895263671875,0.46891695261001587,0.6283464431762695,0.42000001668930054,-0.5393950939178467,-2.999911308288574,-1.532335877418518,-2.999990224838257,-0.1562056541442871,-0.15843962132930756,-0.16207996010780334,-0.16340821981430054,-0.7542855739593506,-0.49827563762664795,-0.2601628005504608,-0.024525023996829987
0.75,0.07609526067972183,-0.01916884444653988,0.0,0.589178740978241,0.0,0.0,-0.8080027103424072,0.5502866506576538,-0.0334746427834034,0.0,0.0,0.0,-2.0243122577667236,0.4667351245880127,0.6244271397590637,0.4200000464916229,0.5099200010299683,-1.0095813962607281e-07,-2.4700025278434623e-06,-0.860221803188324,-1.275328395422548e-05,-0.00023115523799788207,-6.437674164772034e-05,0.006495075765997171,-0.0024698174092918634,-0.0006644430686719716,0.5116193890571594,0.6354458928108215,0.5136852860450745,1.433788776397705,0.10618514567613602,2.282480239868164,0.46891695261001587,0.6283464431762695,0.42000001668930054,-0.5607498288154602,0.1805851012468338,-1.582354187965393,-3.000000238418579,-0.1631254106760025,-0.16284118592739105,-0.16407524049282074,-0.1630202829837799,-0.14133499562740326,-0.08292141556739807,-0.02222241647541523,0.03785638138651848
0.7666666666666666,0.08167552947998047,-0.018035298213362694,0.0,0.5944193601608276,0.0,0.0,-0.8041552305221558,0.26173484325408936,0.11729833483695984,0.0,0.0,0.0,1.6312695741653442,0.4667351245880127,0.6244271397590637,0.4200000464916229,0.5099201202392578,-7.308115357318457e-08,-2.6058651201310568e-06,-0.8602217435836792,-1.761252133292146e-05,-0.000231428217375651,-6.343098357319832e-05,0.006527401972562075,-0.002527093281969428,-0.0006547391531057656,0.5324105024337769,0.6377645134925842,0.5449855327606201,1.0017359256744385,0.1778794229030609,1.564866542816162,0.46891695261001587,0.6283464431762695,0.42000001668930054,-0.5369715690612793,2.4536447525024414,-1.5433902740478516,2.9999990463256836,-0.16363608837127686,-0.16269341111183167,-0.1631321907043457,-0.1613381803035736,0.04835277795791626,0.07397811859846115,0.11085963994264603,0.14084042608737946
0.7833333333333333,0.08341626822948456,-0.02041453681886196,0.0,0.5879784226417542,0.0,0.0,-0.8088765740394592,0.07175161689519882,-0.22194761037826538,0.0,0.0,0.0,-1.8694077730178833,0.4667351245880127,0.6244271397590637,0.4200000464916229,0.509920060634613,-8.007734209058981e-08,-2.6126740522158798e-06,-0.8602216839790344,-1.756169876898639e-05,-0.00023147952742874622,-6.343447603285313e-05,0.006528595928102732,-0.0025265286676585674,-0.0006549793179146945,0.5417040586471558,0.6421489715576172,0.5646191835403442,0.087191142141819,0.3051450252532959,0.9585127830505371,0.46891695261001587,0.6283464431762695,0.42000001668930054,-0.5085503458976746,1.0535417795181274,-1.4933338165283203,2.999999761581421,-0.16193623840808868,-0.16067366302013397,-0.16058161854743958,-0.15843980014324188,0.08283714205026627,0.10949020087718964,0.14816293120384216,0.17073580622673035
0.8,0.08271469920873642,-0.018248185515403748,0.0,0.5942690968513489,0.0,0.0,-0.8042662739753723,-0.08326534926891327,0.2615547180175781,0.0,0.0,0.0,1.8284038305282593,0.4667351245880127,0.6244271397590637,0.4200000464916229,0.509920060634613,-5.378957723678468e-08,-2.621162138893851e-06,-0.8602217435836792,-1.769582559063565e-05,-0.00023146111925598234,-6.340071558952332e-05,0.006528896279633045,-0.0025278511457145214,-0.0006546095828525722,0.5394250154495239,0.6457192897796631,0.5773239731788635,-0.2765761613845825,0.23805338144302368,0.6056034564971924,0.46891695261001587,0.6283464431762695,0.42000001668930054,-0.4746417999267578,2.8332786560058594,-1.44329035282135,2.9999992847442627,-0.16528841853141785,-0.16266606748104095,-0.1611003875732422,-0.15791113674640656,-0.23959599435329437,-0.15910933911800385,-0.0724620521068573,-0.014026262797415257
0.8166666666666667,0.08412616699934006,-0.018909867852926254,0.0,0.5882108211517334,0.0,0.0,-0.808707594871521,0.08255361020565033,0.0064167059026658535,0.0,0.0,0.0,-1.564820408821106,0.4667350947856903,0.6244271397590637,0.4200000464916229,0.5099201798439026,-2.1561052676588588e-07,-2.690227574930759e-06,-0.8602216243743896,-1.9536466425051913e-05,-0.0002314722369192168,-6.301747635006905e-05,0.006538667716085911,-0.0025486904196441174,-0.0006506168865598738,0.5294362902641296,0.650763750076294,0.5815145969390869,-1.0493979454040527,0.3210681676864624,0.06728025525808334,0.46891695261001587,0.6283464431762695,0.42000001668930054,-0.4619041681289673,-0.9875536561012268,-1.3932362794876099,3.0,-0.1662493497133255,-0.16293282806873322,-0.16049376130104065,-0.15682601928710938,-0.1912204921245575,-0.12368941307067871,-0.045676469802856445,0.007148692384362221
0.8333333333333334,0.08771304041147232,-0.01568281650543213,0.0,0.5954428315162659,0.0,0.0,-0.8033976554870605,0.19232922792434692,0.1293928325176239,0.0,0.0,0.0,1.7282801866531372,0.4667350947856903,0.624427080154419,0.4200000464916229,0.5099198818206787,-8.926586048119134e-08,-2.5671649837022414e-06,-0.8602218627929688,-1.25676424431731e-05,-0.00022955740860197693,-6.419746205210686e-05,0.006452708970755339,-0.002455576090142131,-0.0006595259765163064,0.5171209573745728,0.654681384563446,0.5811688303947449,-0.35782358050346375,0.28853970766067505,-0.06252980977296829,0.46891695261001587,0.6283464431762695,0.42000001668930054,-0.4579395651817322,1.265728235244751,-1.4114840030670166,-3.0000009536743164,-0.16952042281627655,-0.16524654626846313,-0.16155292093753815,-0.15692441165447235,0.06314646452665329,0.057065993547439575,0.079661525785923,0.09721588343381882
0.85,0.09206851571798325,-0.01684468239545822,0.0,0.5891238451004028,0.0,0.0,-0.8080427646636963,0.2986268103122711,-0.10090828686952591,0.0,0.0,0.0,-1.853845477104187,0.4667350947856903,0.6244271397590637,0.4200000464916229,0.5099200010299683,-1.1644014108469491e-07,-2.3606594368175138e-06,-0.860221803188324,-1.3802320609102026e-05,-0.00023092357150744647,-6.415694952011108e-05,0.006493974942713976,-0.0024808496236801147,-0.0006615056772716343,0.5131690502166748,0.6589642763137817,0.5778163075447083,-0.14994090795516968,0.14136537909507751,-0.16872626543045044,0.46891695261001587,0.6283464431762695,0.42000001668930054,-0.4811815321445465,-3.000000476837158,-1.3730069398880005,2.999999761581421,-0.1678183227777481,-0.16386353969573975,-0.15997442603111267,-0.15516731142997742,0.01932871714234352,0.018320301547646523,0.04654313251376152,0.07355377078056335
0.8666666666666667,0.09867243468761444,-0.015979917719960213,0.0,0.5953752994537354,0.0,0.0,-0.8034477233886719,0.42294493317604065,0.15927477180957794,0.0,0.0,0.0,1.817710280418396,0.4667351245880127,0.6244271397590637,0.4200000464916229,0.5099201798439026,-2.8530330098419654e-08,-2.4040994048846187e-06,-0.8602217435836792,-1.73394255398307e-05,-0.0002345385728403926,-6.369361653923988e-05,0.006608349736779928,-0.002541842171922326,-0.0006651172298006713,0.5139181613922119,0.6600122451782227,0.5772185921669006,0.23031851649284363,0.023693446069955826,0.11857828497886658,0.46891695261001587,0.6283464431762695,0.42000001668930054,-0.5177393555641174,-1.4875097274780273,-1.3916380405426025,-3.0,-0.16805334389209747,-0.16403739154338837,-0.15957064926624298,-0.15414705872535706,-0.0023502560798078775,-0.004520814400166273,0.025690162554383278,0.06182524934411049
0.8833333333333333,0.10682351142168045,-0.017180895432829857,0.0,0.5935825109481812,0.0,0.0,-0.8047731518745422,0.5106075406074524,-0.11264242231845856,0.0,0.0,0.0,-1.4155993461608887,0.4667351245880127,0.6244271397590637,0.4200000464916229,0.5099201202392578,-1.6189389384635433e-07,-2.4681421564309858e-06,-0.8602217435836792,-1.9824676201096736e-05,-0.00023462103854399174,-6.322422996163368e-05,0.0066230325028300285,-0.00257141818292439,-0.0006600582273676991,0.5188987851142883,0.6592118740081787,0.5747897624969482,0.33914512395858765,-0.17711955308914185,-0.2551250457763672,0.46891695261001587,0.6283464431762695,0.42000001668930054,-0.5594971179962158,-3.0,-1.353215217590332,2.999999523162842,-0.16635429859161377,-0.16243746876716614,-0.1575361043214798,-0.15154024958610535,0.067711241543293,0.0860094428062439,0.13258786499500275,0.18579380214214325
0.9,0.11710763722658157,-0.016553465276956558,0.0,0.6010737419128418,0.0,0.0,-0.7991935610771179,0.6428207755088806,0.1434752494096756,0.0,0.0,0.0,2.280399799346924,0.4667350947856903,0.624427080154419,0.4200000464916229,0.5099199414253235,-7.343194141640197e-08,-2.480527427906054e-06,-0.860221803188324,-1.2511809472925961e-05,-0.00022963277297094464,-6.428011693060398e-05,0.006453859154134989,-0.0024571577087044716,-0.0006600797059945762,0.5268406271934509,0.6567671298980713,0.5758583545684814,0.6106046438217163,-0.088486447930336,0.3977074921131134,0.46891695261001587,0.6283464431762695,0.42000001668930054,-0.5932676792144775,-1.1817598342895508,-1.3722009658813477,-3.0000011920928955,-0.16555824875831604,-0.16158922016620636,-0.15619195997714996,-0.14957112073898315,0.07688461244106293,0.05765862390398979,0.0638316348195076,0.07937391847372055
0.9166666666666666,0.1243293285369873,-0.01862928457558155,0.0,0.6315767168998718,0.0,0.0,-0.7753133773803711,0.36549392342567444,-0.20001870393753052,0.0,0.0,0.0,5.462255954742432,0.4667351245880127,0.6244271397590637,0.4200000464916229,0.509920060634613,-7.67454721994909e-08,-2.629385335239931e-06,-0.8602217435836792,-1.764777334756218e-05,-0.00023130574845708907,-6.338395178318024e-05,0.00652418565005064,-0.002526303753256798,-0.0006542741321027279,0.534541130065918,0.65341717004776,0.5789141058921814,0.32099321484565735,-0.2812751233577728,0.04642779380083084,0.46891695261001587,0.6283464431762695,0.42000001668930054,-0.6162349581718445,-1.526408314704895,-1.3338327407836914,2.999999761581421,-0.16297459602355957,-0.15901285409927368,-0.1533115655183792,-0.14630535244941711,0.1506265103816986,0.1686621606349945,0.19897566735744476,0.2299014776945114
