vladlanda/robotic-transformer/data/env_000_episode_0046.csv
sim_time_s,robot_box_x,robot_box_y,robot_box_z,robot_box_quat_w,robot_box_quat_x,robot_box_quat_y,robot_box_quat_z,robot_box_linvel_x,robot_box_linvel_y,robot_box_linvel_z,robot_box_angvel_x,robot_box_angvel_y,robot_box_angvel_z,cube_world_x,cube_world_y,cube_world_z,cube_quat_w,cube_quat_x,cube_quat_y,cube_quat_z,cube_linvel_x,cube_linvel_y,cube_linvel_z,cube_angvel_x,cube_angvel_y,cube_angvel_z,endpoint_world_x,endpoint_world_y,endpoint_world_z,endpoint_linvel_x,endpoint_linvel_y,endpoint_linvel_z,target_cube_world_x,target_cube_world_y,target_cube_world_z,gripper_actual_pos_rad_gp_leftgearjoint,gripper_actual_vel_rad_s_gp_leftgearjoint,gripper_actual_pos_rad_gp_rotatingjoint,gripper_actual_vel_rad_s_gp_rotatingjoint,motor_angle_rad_joint1,motor_angle_rad_joint2,motor_angle_rad_joint3,motor_angle_rad_joint4,motor_speed_rad_s_joint1,motor_speed_rad_s_joint2,motor_speed_rad_s_joint3,motor_speed_rad_s_joint4
0.0,0.0,0.0,0.0,1.0,0.0,0.0,0.0,0.0,0.0,0.0,0.0,0.0,0.0,-0.39860692620277405,0.7359031438827515,0.41999998688697815,1.0,0.0,0.0,0.0,0.0,0.0,0.0,0.0,0.0,0.0,3.42540442943573e-06,-0.005000244826078415,1.313499927520752,0.0,0.0,0.0,0.36406123638153076,0.7463982701301575,0.42000001668930054,-1.5707999467849731,0.0,0.0,0.0,0.0,0.0,0.0,0.0,0.0,0.0,0.0,0.0
0.016666666666666666,0.0028778850100934505,0.0021806680597364902,0.0,0.9998081922531128,0.0,0.0,0.019586581736803055,0.24087215960025787,0.18240931630134583,0.0,0.0,0.0,3.1418697834014893,-0.3986070454120636,0.7359028458595276,0.41999998688697815,1.0,3.279964630564791e-06,-8.339746386809566e-07,8.465587342243452e-08,-1.9833529222523794e-05,0.00017983045836444944,-6.132945418357849e-05,0.0009432713268324733,-0.004689474124461412,-0.00031981561915017664,-0.007110234349966049,0.003379564033821225,1.3159373998641968,-0.8143353462219238,0.9868683815002441,0.18095196783542633,0.36406123638153076,0.7463982701301575,0.42000001668930054,-1.5301095247268677,3.0000011920928955,-0.04584788903594017,-2.9999992847442627,0.0008691533003002405,0.0007963840034790337,0.0007110277656465769,0.0006108740926720202,0.11094217747449875,0.09756709635257721,0.08334315568208694,0.06823883205652237
0.03333333333333333,0.008960997685790062,0.0068020205944776535,0.0,0.9997960329055786,0.0,0.0,0.02019684761762619,0.4070223271846771,0.31530773639678955,0.0,0.0,0.0,-0.8691332936286926,-0.39860716462135315,0.7359027862548828,0.4200000464916229,1.0,3.3908179375430336e-06,-2.132458348569344e-06,-3.7097745320124886e-08,0.00026357852038927376,0.00026937833172269166,-0.00010509369894862175,-0.0017707126680761576,0.004130884539335966,-0.0001354814594378695,-0.027556123211979866,0.026291105896234512,1.3165817260742188,-1.5913059711456299,1.6163133382797241,-0.0868995264172554,0.36406123638153076,0.7463982701301575,0.42000001668930054,-1.4800904989242554,3.000000238418579,-0.09588772058486938,-3.0000011920928955,0.002990094479173422,0.002652693074196577,0.002277253894135356,0.0018606996163725853,0.16421261429786682,0.13975553214550018,0.11381381750106812,0.08629529178142548
0.05,0.018444417044520378,0.01386339496821165,0.0,0.999984622001648,0.0,0.0,-0.005551813170313835,0.6359990239143372,0.4711519777774811,0.0,0.0,0.0,-4.080134868621826,-0.39860719442367554,0.7359028458595276,0.4200000464916229,1.0,3.7651293496310245e-06,-2.2119379536889028e-06,5.6273887771851605e-09,0.0002653067058417946,0.00026691422681324184,-0.00010440615005791187,-0.0017243530601263046,0.00417736079543829,-0.00012949267693329602,-0.057253189384937286,0.05768849700689316,1.3117833137512207,-1.9505869150161743,2.0851991176605225,-0.4699723422527313,0.36406123638153076,0.7463982701301575,0.42000001668930054,-1.4300721883773804,3.0000035762786865,-0.14592641592025757,-3.000000238418579,0.006003326270729303,0.005165082402527332,0.00425439840182662,0.003267065156251192,0.2073507308959961,0.16693483293056488,0.12460578233003616,0.08028170466423035
0.06666666666666667,0.030749985948204994,0.023330608382821083,0.0,0.9999018311500549,0.0,0.0,-0.014013183303177357,0.7724536061286926,0.6148730516433716,0.0,0.0,0.0,-0.04515603929758072,-0.39860719442367554,0.7359027862548828,0.4200000464916229,0.9999999403953552,3.406754103707499e-06,-2.2856077066535363e-06,4.300980265270482e-07,0.0002670255198609084,0.0002679179306142032,-0.0001043803058564663,-0.001740670995786786,0.004211848136037588,-0.00012850687198806554,-0.09280426055192947,0.09135077893733978,1.3013405799865723,-2.1805789470672607,2.1298952102661133,-0.7719405889511108,0.36406123638153076,0.7463982701301575,0.42000001668930054,-1.3800538778305054,2.9999988079071045,-0.195932075381279,-3.000000238418579,0.008557233959436417,0.006940167862921953,0.005210512317717075,0.0033627997618168592,0.13061194121837616,0.0735381469130516,0.014303180389106274,-0.047140639275312424
0.08333333333333333,0.03687813878059387,0.036647334694862366,0.0,0.9992804527282715,0.0,0.0,-0.03792804852128029,0.2258274108171463,0.8738250136375427,0.0,0.0,0.0,-3.8158700466156006,-0.39860719442367554,0.7359027862548828,0.4200000464916229,1.0,3.697269221447641e-06,-2.188940243286197e-06,-2.6321629320591455e-07,0.00026389610138721764,0.0002658638986758888,-0.00010433932766318321,-0.0017081708647310734,0.004150133114308119,-0.00012991161202080548,-0.12484390288591385,0.13192637264728546,1.2856838703155518,-1.6626701354980469,2.718350648880005,-1.02507746219635,0.36406123638153076,0.7463982701301575,0.42000001668930054,-1.3300271034240723,2.9999940395355225,-0.16216109693050385,2.999999761581421,0.004538106732070446,0.00213435897603631,-0.0004360040184110403,-0.003182033309713006,-0.3700772523880005,-0.4293351173400879,-0.491365522146225,-0.5564042329788208
0.1,0.04667730629444122,0.05160130187869072,0.0,0.9959903955459595,0.0,0.0,-0.08946036547422409,0.7363777160644531,0.903217613697052,0.0,0.0,0.0,-6.974469184875488,-0.39860719442367554,0.7359027862548828,0.4200000464916229,0.9999999403953552,3.6203723539074417e-06,-2.2652432107861387e-06,1.7462606649587542e-07,0.00026676998822949827,0.00026740916655398905,-0.0001040794886648655,-0.0017386159161105752,0.0042092096991837025,-0.00012775268987752497,-0.15184876322746277,0.17871582508087158,1.269892692565918,-1.6042280197143555,2.927778720855713,-0.9379849433898926,0.36406123638153076,0.7463982701301575,0.42000001668930054,-1.2800348997116089,3.0000011920928955,-0.19390228390693665,-3.0000011920928955,0.002622780855745077,-0.0013995958724990487,-0.005593386013060808,-0.009967539459466934,-0.02890496328473091,-0.13911199569702148,-0.24834078550338745,-0.3564947843551636
0.11666666666666667,0.05496159568428993,0.06437264382839203,0.0,0.9926027059555054,0.0,0.0,-0.12140773981809616,0.543264627456665,0.6810660362243652,0.0,0.0,0.0,-2.588454484939575,-0.39860719442367554,0.7359027862548828,0.4200000464916229,1.0,3.7983443235134473e-06,-2.2628721580986166e-06,-1.5019327292975504e-07,0.00026374091976322234,0.0002656608703546226,-0.00010428996756672859,-0.0017054241616278887,0.004147560801357031,-0.00012980113388039172,-0.18425938487052917,0.22504690289497375,1.2513669729232788,-1.9789159297943115,2.997591495513916,-1.1721419095993042,0.36406123638153076,0.7463982701301575,0.42000001668930054,-1.2300173044204712,2.9999895095825195,-0.16010676324367523,2.9999988079071045,-0.0003353412030264735,-0.005971495993435383,-0.011755719780921936,-0.01769673265516758,-0.055991869419813156,-0.17128124833106995,-0.2831895053386688,-0.3915402889251709
0.13333333333333333,0.06089380383491516,0.07770181447267532,0.0,0.9867905378341675,0.0,0.0,-0.1620013415813446,0.2833672761917114,0.8529466986656189,0.0,0.0,0.0,-5.699069023132324,-0.39860719442367554,0.7359028458595276,0.4200000464916229,0.9999999403953552,3.550494056980824e-06,-2.2298402200249257e-06,2.929137679075211e-07,0.00026703279581852257,0.0002677927550394088,-0.00010417005978524685,-0.0017440064111724496,0.00421349098905921,-0.00012799979595001787,-0.2147778570652008,0.2784090042114258,1.231522798538208,-1.6162903308868408,3.5216891765594482,-1.256253957748413,0.36406123638153076,0.7463982701301575,0.42000001668930054,-1.1800287961959839,2.9999983310699463,-0.19184692203998566,-3.0000007152557373,-0.0029194087255746126,-0.01052761822938919,-0.01821315847337246,-0.025981200858950615,-0.23629936575889587,-0.3502034842967987,-0.4596637785434723,-0.5644628405570984
0.15,0.06327328085899353,0.09061277657747269,0.0,0.983143150806427,0.0,0.0,-0.18283742666244507,0.08552096784114838,0.725271463394165,0.0,0.0,0.0,-1.486032485961914,-0.39860719442367554,0.7359027862548828,0.4200000464916229,0.9999999403953552,3.338043143230607e-06,-2.2429089767683763e-06,-2.8016239994599346e-08,0.00026674362015910447,0.0002675791038200259,-0.00010427739471197128,-0.0017366725951433182,0.0042068627662956715,-0.00012831800268031657,-0.2487306147813797,0.3350667655467987,1.2030656337738037,-2.120941400527954,3.5313916206359863,-2.099372386932373,0.36406123638153076,0.7463982701301575,0.42000001668930054,-1.150505542755127,0.717701256275177,-0.15806075930595398,3.000000238418579,-0.007577304728329182,-0.016691019758582115,-0.025799358263611794,-0.03490610048174858,-0.3279873728752136,-0.39345377683639526,-0.4542630910873413,-0.5104770660400391
0.16666666666666666,0.06931044906377792,0.10380224138498306,0.0,0.9761376976966858,0.0,0.0,-0.217152401804924,0.35615435242652893,0.8112426400184631,0.0,0.0,0.0,-5.02878999710083,-0.39860719442367554,0.7359028458595276,0.4200000464916229,0.9999999403953552,3.6478172660281416e-06,-2.3073148440744262e-06,3.5270211640181515e-08,0.00026726824580691755,0.0002680130710359663,-0.00010418565943837166,-0.0017472313484176993,0.004217550624161959,-0.0001279815041925758,-0.28249046206474304,0.39833471179008484,1.1651780605316162,-1.870676040649414,4.051928520202637,-2.5174560546875,0.36406123638153076,0.7463982701301575,0.42000001668930054,-1.1082452535629272,2.999999523162842,-0.18981564044952393,-3.0,-0.0121053671464324,-0.022307028993964195,-0.032424867153167725,-0.04246402531862259,-0.4561612606048584,-0.4901881515979767,-0.5213068127632141,-0.5496858954429626
0.18333333333333332,0.0715976282954216,0.11449752748012543,0.0,0.9723787307739258,0.0,0.0,-0.23340857028961182,0.10445854067802429,0.5627614855766296,0.0,0.0,0.0,-0.8466558456420898,-0.39860719442367554,0.7359027862548828,0.4200000464916229,0.9999999403953552,3.2905281841522083e-06,-2.1939001726423157e-06,-2.7923803713747475e-07,0.0002667795342858881,0.00026776199229061604,-0.0001043418888002634,-0.001739125233143568,0.004206986166536808,-0.00012845758465118706,-0.3174164891242981,0.4619404077529907,1.11371648311615,-1.9664801359176636,3.9180068969726562,-3.5406761169433594,0.36406123638153076,0.7463982701301575,0.42000001668930054,-1.066493034362793,2.0571484565734863,-0.2398439645767212,-3.0,-0.023062091320753098,-0.03303143009543419,-0.04289625585079193,-0.052671659737825394,-0.6746898889541626,-0.6447851061820984,-0.6138520240783691,-0.5825395584106445
0.2,0.07435032725334167,0.12625259160995483,0.0,0.9649712443351746,0.0,0.0,-0.2623557448387146,0.19706743955612183,0.7139049172401428,0.0,0.0,0.0,-4.407639026641846,-0.39860719442367554,0.7359027862548828,0.4200000464916229,1.0,3.2807477055030176e-06,-2.2192027699929895e-06,1.594728331610895e-07,0.00026627787156030536,0.00026740014436654747,-0.0001042510848492384,-0.0017356369644403458,0.004197677131742239,-0.00012865001917816699,-0.3476301431655884,0.5282688736915588,1.0486459732055664,-1.6141828298568726,4.001492023468018,-4.194058418273926,0.36406123638153076,0.7463982701301575,0.42000001668930054,-1.0178749561309814,3.000002145767212,-0.28986966609954834,-3.0,-0.03655313700437546,-0.045686326920986176,-0.05472113937139511,-0.0636875107884407,-0.8790437579154968,-0.8198109269142151,-0.7614765763282776,-0.7048441171646118
0.21666666666666667,0.07457318902015686,0.13928045332431793,0.0,0.9612405896186829,0.0,0.0,-0.27571097016334534,-0.06345944851636887,0.8378546833992004,0.0,0.0,0.0,-0.3003552258014679,-0.39860719442367554,0.7359028458595276,0.4200000464916229,1.0,3.613160288296058e-06,-2.270090135425562e-06,2.210125700230492e-07,0.00026712537510320544,0.0002678160381037742,-0.0001041400246322155,-0.0017444418044760823,0.0042151897214353085,-0.0001278668933082372,-0.37598901987075806,0.5893509387969971,0.9717272520065308,-1.5230755805969238,3.4473419189453125,-4.960637092590332,0.36406123638153076,0.7463982701301575,0.42000001668930054,-0.9678680896759033,2.9999990463256836,-0.3398970067501068,-3.000000238418579,-0.05260655656456947,-0.0606502965092659,-0.06836529076099396,-0.07604825496673584,-0.9811084866523743,-0.924967885017395,-0.8361575603485107,-0.7498510479927063
0.23333333333333334,0.07846669107675552,0.14854444563388824,0.0,0.9542146921157837,0.0,0.0,-0.29912269115448,0.2702265977859497,0.47060662508010864,0.0,0.0,0.0,-3.677280902862549,-0.39860719442367554,0.7359027862548828,0.4200000464916229,1.0,3.3818625979620265e-06,-2.290899601575802e-06,2.7279764935883577e-07,0.0002669132372830063,0.00026779971085488796,-0.00010433327406644821,-0.0017395989270880818,0.004209729842841625,-0.00012843607692047954,-0.39877456426620483,0.6456075310707092,0.8824918270111084,-1.1141517162322998,3.1449434757232666,-5.680450439453125,0.36406123638153076,0.7463982701301575,0.42000001668930054,-0.917858362197876,3.000002384185791,-0.3899264931678772,-3.000002384185791,-0.06766315549612045,-0.07524648308753967,-0.08159481734037399,-0.08781210333108902,-0.9863893389701843,-0.981023371219635,-0.8935293555259705,-0.7874565124511719
0.25,0.07682814449071884,0.1610608547925949,0.0,0.9520962834358215,0.0,0.0,-0.30579841136932373,-0.07722689211368561,0.7323547005653381,0.0,0.0,0.0,0.18197022378444672,-0.39860716462135315,0.7359027862548828,0.4200000464916229,0.9999999403953552,3.706540383063839e-06,-2.2229808109841542e-06,-2.2549713207808963e-07,0.00026424849056638777,0.00026656684349291027,-0.00010457984171807766,-0.0017169424099847674,0.0041556889191269875,-0.0001306327903876081,-0.4148922860622406,0.6839131116867065,0.7845505475997925,-0.7241730690002441,1.8197407722473145,-5.901159286499023,0.36406123638153076,0.7463982701301575,0.42000001668930054,-0.8678476810455322,2.999863386154175,-0.43995755910873413,-2.9999840259552,-0.08423895388841629,-0.09173357486724854,-0.09805464744567871,-0.10426584631204605,-0.6888065338134766,-0.7435397505760193,-0.7960470914840698,-0.8434737324714661
0.26666666666666666,0.08046472817659378,0.16827502846717834,0.0,0.9456892609596252,0.0,0.0,-0.3250720500946045,0.22801317274570465,0.36360350251197815,0.0,0.0,0.0,-3.0918338298797607,-0.39860719442367554,0.7359027862548828,0.4200000464916229,0.9999999403953552,3.719671894941712e-06,-2.403462985967053e-06,-1.8307585492038925e-07,0.00026623281883075833,0.00026729030651040375,-0.00010425737127661705,-0.0017326161032542586,0.004196559078991413,-0.0001285147009184584,-0.42477473616600037,0.7123690843582153,0.6816693544387817,-0.2961865961551666,1.3716444969177246,-6.31044340133667,0.36406123638153076,0.7463982701301575,0.42000001668930054,-0.8178380131721497,2.9999983310699463,-0.48998895287513733,-2.999997854232788,-0.09605281800031662,-0.10402052104473114,-0.11085063219070435,-0.11752869933843613,-0.9671871066093445,-0.9411194920539856,-0.922024130821228,-0.9041604995727539
0.2833333333333333,0.07968692481517792,0.17208369076251984,0.0,0.9452903866767883,0.0,0.0,-0.32623007893562317,-0.13389049470424652,0.17254553735256195,0.0,0.0,0.0,0.7507593035697937,-0.39860719442367554,0.7359028458595276,0.4200000464916229,0.9999999403953552,3.58410306944279e-06,-2.3154889277066104e-06,7.404336344052354e-08,0.0002652212860994041,0.0002645532658789307,-0.00010317191481590271,-0.0017022429965436459,0.004185271915048361,-0.00012499967124313116,-0.42613649368286133,0.7276490926742554,0.581240177154541,0.25089359283447266,0.5453835129737854,-5.6626057624816895,0.36406123638153076,0.7463982701301575,0.42000001668930054,-0.7678292393684387,3.0000007152557373,-0.5400190353393555,-2.999997615814209,-0.1135932132601738,-0.12134695053100586,-0.12802164256572723,-0.13458269834518433,-1.0141910314559937,-1.010665774345398,-1.0079814195632935,-1.0058491230010986
0.3,0.07542096078395844,0.17253810167312622,0.0,0.9405828714370728,0.0,0.0,-0.33956417441368103,-0.26645034551620483,-0.03274666517972946,0.0,0.0,0.0,-2.5080623626708984,-0.39860719442367554,0.7359027862548828,0.4200000464916229,1.0,3.724301677721087e-06,-2.271899347761064e-06,9.634896969146212e-08,0.0002631264796946198,0.00026525871362537146,-0.00010438216850161552,-0.0016960971988737583,0.004134890157729387,-0.00013027788372710347,-0.41685014963150024,0.7346571087837219,0.48802056908607483,0.8442022800445557,0.33968743681907654,-5.513846397399902,0.36406123638153076,0.7463982701301575,0.42000001668930054,-0.7178207039833069,3.000001907348633,-0.5900477170944214,-2.9999988079071045,-0.1303413361310959,-0.13806256651878357,-0.14472584426403046,-0.15128371119499207,-1.0025978088378906,-1.001960277557373,-1.0014724731445312,-1.0010844469070435
0.31666666666666665,0.06941372901201248,0.1703265905380249,0.0,0.9416742920875549,0.0,0.0,-0.33652570843696594,-0.40299999713897705,-0.17342104017734528,0.0,0.0,0.0,1.2514070272445679,-0.39860719442367554,0.7359027862548828,0.4200000464916229,1.0,3.6662129332398763e-06,-2.3925058485474437e-06,1.6798929891592707e-07,0.0002660205645952374,0.0002670693211257458,-0.00010418589226901531,-0.0017311713891103864,0.004193530417978764,-0.0001284943282371387,-0.40011003613471985,0.7377501726150513,0.39851129055023193,1.235102891921997,-0.023701082915067673,-5.224865436553955,0.36406123638153076,0.7463982701301575,0.42000001668930054,-0.6678138375282288,2.999999523162842,-0.640074610710144,-3.0000038146972656,-0.14749079942703247,-0.15508785843849182,-0.16165956854820251,-0.16814720630645752,-1.0034657716751099,-1.002629280090332,-1.0019867420196533,-1.0014710426330566
0.3333333333333333,0.0611695721745491,0.16576789319515228,0.0,0.9381575584411621,0.0,0.0,-0.3462086319923401,-0.5442361831665039,-0.31391626596450806,0.0,0.0,0.0,-2.3439416885375977,-0.3973177373409271,0.7387859225273132,0.4216398298740387,0.9976195693016052,0.02133852057158947,0.019422676414251328,-0.06262954324483871,0.08752000331878662,0.1893036812543869,0.08072737604379654,2.0572352409362793,1.9789379835128784,-7.8892951011657715,-0.40035372972488403,0.7415426969528198,0.42543572187423706,0.2300548553466797,0.28808480501174927,-0.14297857880592346,0.36406123638153076,0.7463982701301575,0.42000001668930054,-0.6181844472885132,3.000001907348633,-0.6905036568641663,-2.9894752502441406,-0.14626926183700562,-0.15499404072761536,-0.16222573816776276,-0.16877968609333038,-0.14624065160751343,-0.17706678807735443,-0.18464958667755127,-0.16097712516784668
0.35,0.05071304738521576,0.1588834524154663,0.0,0.9396749138832092,0.0,0.0,-0.34206873178482056,-0.6659523248672485,-0.45323383808135986,0.0,0.0,0.0,1.4476336240768433,-0.3947572708129883,0.7431650161743164,0.4218981862068176,0.9891611337661743,0.03931419923901558,0.006448076106607914,-0.14132604002952576,0.22933055460453033,0.3485298752784729,0.019817756488919258,3.552398681640625,-3.942241668701172,-12.165291786193848,-0.39565014839172363,0.7483194470405579,0.42311912775039673,0.3072492778301239,0.48493891954421997,-0.11883486062288284,0.36406123638153076,0.7463982701301575,0.42000001668930054,-0.5681793689727783,2.99997615814209,-0.7405462265014648,-2.9999992847442627,-0.15009555220603943,-0.1587667614221573,-0.1656627357006073,-0.1714644581079483,-0.24962235987186432,-0.22918803989887238,-0.1973741054534912,-0.14575938880443573
0.36666666666666664,0.03804287686944008,0.14974850416183472,0.0,0.9357897043228149,0.0,0.0,-0.3525587022304535,-0.8051642775535583,-0.5871701240539551,0.0,0.0,0.0,-2.2725167274475098,-0.3893582224845886,0.7507725358009338,0.4212498664855957,0.9834280014038086,0.031558822840452194,-0.005849407985806465,-0.17843502759933472,0.41083207726478577,0.5491809844970703,-0.0519871823489666,-2.690700054168701,0.9341781735420227,-3.082090377807617,-0.3893008530139923,0.7549083232879639,0.4214162230491638,0.4815393090248108,0.40329164266586304,-0.09523766487836838,0.36406123638153076,0.7463982701301575,0.42000001668930054,-0.5181745290756226,2.9999783039093018,-0.7905973792076111,-2.999992847442627,-0.1553017646074295,-0.1631067991256714,-0.16895133256912231,-0.1733824610710144,-0.3332248032093048,-0.25639671087265015,-0.17056725919246674,-0.06800040602684021
0.3833333333333333,0.027914538979530334,0.1377566009759903,0.0,0.9217145442962646,0.0,0.0,-0.3878689706325531,-0.5957081913948059,-0.7629578709602356,0.0,0.0,0.0,-5.281545162200928,-0.38008400797843933,0.7621250748634338,0.4200083613395691,0.9789203405380249,-0.00013157482317183167,-0.0001251430221600458,-0.20424211025238037,0.6981834769248962,0.8139433860778809,-0.0022350226063281298,0.09661129862070084,-0.04146074503660202,-3.0156686305999756,-0.37953126430511475,0.7637902498245239,0.42083126306533813,0.742213785648346,0.6862561702728271,0.015030622482299805,0.36406123638153076,0.7463982701301575,0.42000001668930054,-0.46817007660865784,3.0000014305114746,-0.8406546115875244,-2.9999711513519287,-0.16110548377037048,-0.16716501116752625,-0.1710677146911621,-0.1732458472251892,-0.40245866775512695,-0.2666321098804474,-0.11903509497642517,0.0463203601539135
0.4,0.018296465277671814,0.12330152094364166,0.0,0.8949310183525085,0.0,0.0,-0.4462045431137085,-0.5513068437576294,-0.9161962270736694,0.0,0.0,0.0,-8.538615226745605,-0.35766270756721497,0.7826701402664185,0.4214378595352173,0.9698585867881775,-0.006344543769955635,-0.02219459041953087,-0.24257232248783112,2.689081907272339,1.3949830532073975,0.19550780951976776,17.051015853881836,0.6525481939315796,11.700226783752441,-0.35719043016433716,0.7826344966888428,0.4225887656211853,2.1478590965270996,1.6832530498504639,0.1949831247329712,0.36406123638153076,0.7463982701301575,0.42000001668930054,-0.4182112514972687,2.891232490539551,-0.8906945586204529,-3.000000476837158,-0.16981637477874756,-0.17282040417194366,-0.1734679788351059,-0.17212100327014923,-0.6137797832489014,-0.38080868124961853,-0.13848121464252472,0.11566397547721863
0.4166666666666667,0.012010512873530388,0.10618401318788528,0.0,0.8522607088088989,0.0,0.0,-0.5231172442436218,-0.2973061501979828,-1.1032205820083618,0.0,0.0,0.0,-11.242053031921387,-0.2972449064254761,0.8180153965950012,0.425466388463974,0.9533196091651917,0.035481393337249756,-0.05702338367700577,-0.2943994104862213,5.131663799285889,2.6226696968078613,0.11345791071653366,24.528200149536133,-16.757709503173828,10.28834056854248,-0.2969852089881897,0.8185203075408936,0.42671018838882446,4.684537410736084,2.593308687210083,0.3829655051231384,0.36406123638153076,0.7463982701301575,0.42000001668930054,-0.3862464129924774,1.1420247554779053,-0.8589769005775452,2.995863437652588,-0.18336577713489532,-0.18132257461547852,-0.17696484923362732,-0.1706618368625641,-0.8303489685058594,-0.5207556486129761,-0.2216976135969162,0.06555663049221039
0.43333333333333335,0.008256353437900543,0.0943034440279007,0.0,0.7909243106842041,0.0,0.0,-0.6119139790534973,-0.1696661412715912,-0.5768223404884338,0.0,0.0,0.0,-13.877809524536133,-0.19663719832897186,0.858487606048584,0.4332229495048523,0.9315336346626282,0.07303538918495178,-0.08424538373947144,-0.3461410701274872,7.312775611877441,2.1438095569610596,0.5868451595306396,11.45964241027832,-10.040532112121582,1.6096241474151611,-0.19684775173664093,0.8600056171417236,0.4346548914909363,7.1504669189453125,2.428133487701416,0.6490880846977234,0.36406123638153076,0.7463982701301575,0.42000001668930054,-0.36902832984924316,1.159216284751892,-0.8854620456695557,-3.0000007152557373,-0.19970130920410156,-0.19649437069892883,-0.18770191073417664,-0.17540805041790009,-0.9486764073371887,-0.9318810701370239,-0.7810329794883728,-0.42975327372550964
0.45,0.0012844662414863706,0.08904196321964264,0.0,0.7348272204399109,0.0,0.0,-0.6782543659210205,-0.3575578033924103,-0.4116358458995819,0.0,0.0,0.0,-8.822229385375977,-0.0814565047621727,0.8812759518623352,0.444186806678772,0.8829027414321899,0.08372276276350021,-0.08796939253807068,-0.4535798132419586,6.830724716186523,0.6128580570220947,0.7139269113540649,10.84213924407959,-5.038888454437256,-2.9066696166992188,-0.08311733603477478,0.8848947286605835,0.44547492265701294,6.731877326965332,0.9588435888290405,0.6243463754653931,0.36406123638153076,0.7463982701301575,0.42000001668930054,-0.3480750620365143,1.3375606536865234,-0.9354725480079651,-2.998936653137207,-0.21472729742527008,-0.21158094704151154,-0.20287705957889557,-0.18626095354557037,-0.557267963886261,-0.636120617389679,-0.7143929600715637,-0.5490556955337524
0.4666666666666667,-0.004974834620952606,0.08462434262037277,0.0,0.703109622001648,0.0,0.0,-0.7110815048217773,-0.4405040442943573,-0.17516668140888214,0.0,0.0,0.0,-4.31433629989624,0.029164917767047882,0.8872826099395752,0.4539355933666229,0.8151440024375916,0.08969014137983322,-0.0743604525923729,-0.5674207210540771,6.248845100402832,-1.1851118803024292,0.49838823080062866,10.22906494140625,-8.426861763000488,31.844083786010742,0.02601509727537632,0.8922823667526245,0.45472797751426697,6.469078540802002,-0.19768984615802765,0.5817327499389648,0.36406123638153076,0.7463982701301575,0.42000001668930054,-0.3300479054450989,0.7459937334060669,-0.9854965806007385,-3.000002861022949,-0.22763177752494812,-0.22373618185520172,-0.2144586145877838,-0.19425009191036224,-0.8313621878623962,-0.7171580195426941,-0.6199195981025696,-0.3921988606452942
0.48333333333333334,-0.008879724889993668,0.07508627325296402,0.0,0.6945338845252991,0.0,0.0,-0.7194599509239197,-0.16664794087409973,-0.7075311541557312,0.0,0.0,0.0,-0.512555718421936,0.12519019842147827,0.8781775236129761,0.4599618911743164,0.7497570514678955,0.08169609308242798,-0.0634569600224495,-0.6535772681236267,5.079323768615723,-1.321163296699524,0.3670036494731903,-0.161639004945755,12.092814445495605,-1.8263459205627441,0.1216941550374031,0.8840876817703247,0.4610365927219391,5.090104103088379,-0.9248698949813843,0.25950634479522705,0.36406123638153076,0.7463982701301575,0.42000001668930054,-0.3218575417995453,0.42875730991363525,-1.0355192422866821,-2.9990224838256836,-0.23536717891693115,-0.22979958355426788,-0.2191592901945114,-0.19608357548713684,-0.2728714048862457,-0.17122724652290344,-0.09016245603561401,0.04479198902845383
0.5,-0.00985345896333456,0.06787846237421036,0.0,0.6769759058952332,0.0,0.0,-0.7360051870346069,-0.018791962414979935,-0.3297824561595917,0.0,0.0,0.0,-3.796497106552124,0.20089498162269592,0.858565092086792,0.45954641699790955,0.703876793384552,0.0651683658361435,-0.05310143530368805,-0.7053301930427551,3.8217644691467285,-1.9529273509979248,-0.25183096528053284,-6.294226169586182,-2.3515655994415283,15.736868858337402,0.19759736955165863,0.8655245304107666,0.46096381545066833,4.216297626495361,-1.4353716373443604,-0.1576681137084961,0.36406123638153076,0.7463982701301575,0.42000001668930054,-0.31288862228393555,0.5756341814994812,-1.0855413675308228,-3.000001907348633,-0.2399924099445343,-0.23290623724460602,-0.22091303765773773,-0.19623064994812012,-0.014513599686324596,-0.17178569734096527,-0.0920310765504837,-0.03119426593184471
0.5166666666666666,-0.008946430869400501,0.06643148511648178,0.0,0.672680675983429,0.0,0.0,-0.7399328947067261,0.07909806072711945,-0.0041488646529614925,0.0,0.0,0.0,0.21659010648727417,0.26082271337509155,0.8330428600311279,0.45282888412475586,0.6697931885719299,0.035046324133872986,-0.036359645426273346,-0.7408283352851868,2.881411075592041,-2.126636028289795,-0.5624130368232727,-6.364305019378662,-0.5398480892181396,13.803314208984375,0.25853270292282104,0.8391605615615845,0.45461294054985046,3.2818496227264404,-1.7511141300201416,-0.4853135347366333,0.36406123638153076,0.7463982701301575,0.42000001668930054,-0.3010347783565521,0.7611554861068726,-1.1355634927749634,-3.0,-0.23994740843772888,-0.23583024740219116,-0.22250249981880188,-0.19728462398052216,-0.008633306249976158,-0.0876227542757988,-0.02301437221467495,-0.029404805973172188
0.5333333333333333,-0.00471555907279253,0.05969853326678276,0.0,0.6573084592819214,0.0,0.0,-0.7536216378211975,0.3209313452243805,-0.5388419032096863,0.0,0.0,0.0,-3.482656717300415,0.3077961504459381,0.8084245920181274,0.4387938678264618,0.644320011138916,0.0009197225444950163,-0.01863946206867695,-0.7645281553268433,2.0787136554718018,-1.8515543937683105,-0.9617395401000977,-6.01399564743042,0.8403177261352539,18.172260284423828,0.3059055209159851,0.8136800527572632,0.44123128056526184,2.526986598968506,-1.4753899574279785,-0.9441449046134949,0.36406123638153076,0.7463982701301575,0.42000001668930054,-0.2862669825553894,0.8559876084327698,-1.185585618019104,-3.0,-0.23210443556308746,-0.2304731011390686,-0.21785642206668854,-0.19461679458618164,0.6254514455795288,0.47710660099983215,0.39624258875846863,0.227564737200737
0.55,0.001167939160950482,0.05662032961845398,0.0,0.654462456703186,0.0,0.0,-0.7560944557189941,0.38884592056274414,-0.0831293910741806,0.0,0.0,0.0,0.42529296875,0.34155556559562683,0.784765899181366,0.42125433683395386,0.6159396171569824,-0.036104653030633926,0.003304795129224658,-0.786958634853363,1.5420078039169312,-1.5430363416671753,-1.0975724458694458,-4.843841552734375,-0.7692413926124573,6.483872413635254,0.3393495976924896,0.788935661315918,0.42404472827911377,1.680765151977539,-1.437485694885254,-1.082782506942749,0.36406123638153076,0.7463982701301575,0.42000001668930054,-0.27085861563682556,0.8756359219551086,-1.235607624053955,-3.0,-0.22601743042469025,-0.22593288123607635,-0.21435174345970154,-0.19382143020629883,0.3247157037258148,0.24123159050941467,0.1599678099155426,-0.026400258764624596
0.5666666666666667,0.00857684388756752,0.052838560193777084,0.0,0.6413286328315735,0.0,0.0,-0.7672663331031799,0.5106898546218872,-0.30993208289146423,0.0,0.0,0.0,-2.956289052963257,0.3558942973613739,0.7739790081977844,0.4209743142127991,0.6082412004470825,-0.01670292392373085,0.006696189288049936,-0.7935482263565063,0.46432849764823914,-1.058205008506775,-0.07453218847513199,4.376332759857178,-0.47045913338661194,13.149139404296875,0.3522319793701172,0.7767590880393982,0.42366573214530945,0.4932754635810852,-0.5664199590682983,-0.1333506852388382,0.36406123638153076,0.7463982701301575,0.42000001668930054,-0.24905143678188324,1.1747819185256958,-1.213801383972168,2.995673179626465,-0.21967993676662445,-0.22111472487449646,-0.21126052737236023,-0.19406913220882416,0.40416043996810913,0.3224467635154724,0.20525717735290527,-0.0106193320825696
0.5833333333333334,0.014095418155193329,0.05093856155872345,0.0,0.6410651803016663,0.0,0.0,-0.7674863934516907,0.26101651787757874,-0.0752166286110878,0.0,0.0,0.0,0.8118560910224915,0.3612077534198761,0.7645050287246704,0.42118415236473083,0.6242517828941345,-0.018872512504458427,0.024025995284318924,-0.7806255221366882,0.19014984369277954,-0.4749012887477875,0.0793561115860939,0.4047817885875702,4.146062850952148,7.240417003631592,0.35692960023880005,0.7667832374572754,0.42413464188575745,0.11335766315460205,-0.513434648513794,0.09224993735551834,0.36406123638153076,0.7463982701301575,0.42000001668930054,-0.2532443404197693,-0.9975114464759827,-1.234792947769165,-2.9963173866271973,-0.2144761085510254,-0.21667444705963135,-0.20843654870986938,-0.19447098672389984,0.3610529899597168,0.31865936517715454,0.21305568516254425,0.01570485159754753
0.6,0.01965702697634697,0.05248106271028519,0.0,0.6301500201225281,0.0,0.0,-0.7764734029769897,0.3840664327144623,0.14669780433177948,0.0,0.0,0.0,-2.579782009124756,0.36256781220436096,0.7602052688598633,0.42209380865097046,0.6395468711853027,-0.035666149109601974,0.03377748653292656,-0.7671810984611511,0.12800417840480804,-0.08940180391073227,0.14532126486301422,2.3033876419067383,3.8496694564819336,3.7100861072540283,0.35840916633605957,0.762853741645813,0.4256969690322876,0.1698046177625656,-0.0493774451315403,0.1134609505534172,0.36406123638153076,0.7463982701301575,0.42000001668930054,-0.2596217691898346,0.04791417345404625,-1.2847421169281006,-2.9950835704803467,-0.20793397724628448,-0.2111419141292572,-0.20500585436820984,-0.19445446133613586,0.46198341250419617,0.3907265365123749,0.24959121644496918,0.038690194487571716
0.6166666666666667,0.022808624431490898,0.049656257033348083,0.0,0.631774365901947,0.0,0.0,-0.775152325630188,0.10203491151332855,-0.18707731366157532,0.0,0.0,0.0,1.0262000560760498,0.3646453619003296,0.7592633366584778,0.4227464199066162,0.6514590382575989,-0.04843716323375702,0.056184474378824234,-0.7550485134124756,0.06992115825414658,-0.09385441243648529,0.01689332351088524,0.30071085691452026,1.1714757680892944,-1.9507108926773071,0.3596731722354889,0.7613389492034912,0.42669689655303955,-0.10821066796779633,-0.16695785522460938,0.032297685742378235,0.36406123638153076,0.7463982701301575,0.42000001668930054,-0.29502972960472107,-2.999985933303833,-1.3000324964523315,0.8394111394882202,-0.19878393411636353,-0.20275667309761047,-0.1986890435218811,-0.19133032858371735,0.36152002215385437,0.3786783516407013,0.30908969044685364,0.17080305516719818
0.6333333333333333,0.027093036100268364,0.05192567780613899,0.0,0.6228880882263184,0.0,0.0,-0.782310962677002,0.28292208909988403,0.1244938001036644,0.0,0.0,0.0,-2.4097182750701904,0.3645109236240387,0.7582730054855347,0.42223498225212097,0.6485717296600342,-0.038643449544906616,0.04518793895840645,-0.7588276863098145,-0.026304548606276512,-0.04171553999185562,-0.0382678285241127,-0.3550741970539093,-2.2023463249206543,-0.7216776609420776,0.3579367995262146,0.7612013816833496,0.4291834235191345,0.003617614507675171,0.14301949739456177,0.20081855356693268,0.36406123638153076,0.7463982701301575,0.42000001668930054,-0.34499552845954895,-2.993317127227783,-1.3370370864868164,-2.996553897857666,-0.19530591368675232,-0.19871149957180023,-0.19549983739852905,-0.19000546634197235,0.4095759093761444,0.39074939489364624,0.2932914197444916,0.14961610734462738
0.65,0.03289707005023956,0.049152571707963943,0.0,0.6256698369979858,0.0,0.0,-0.7800880074501038,0.3799162805080414,-0.1697862297296524,0.0,0.0,0.0,1.2587639093399048,0.36354759335517883,0.7580180764198303,0.4207957684993744,0.6498405337333679,-0.012788748368620872,0.01497152354568243,-0.759815514087677,-0.10290633141994476,0.00281144049949944,-0.09517084062099457,-0.7890164852142334,-5.088161468505859,3.880378484725952,0.35722628235816956,0.7638860940933228,0.4338809847831726,-0.15813301503658295,0.07066263258457184,0.39844179153442383,0.36406123638153076,0.7463982701301575,0.42000001668930054,-0.3950091600418091,-2.9999985694885254,-1.387055516242981,-2.999999523162842,-0.18690845370292664,-0.19058188796043396,-0.18887056410312653,-0.18549655377864838,0.3021955192089081,0.34126147627830505,0.30732491612434387,0.23864814639091492
0.6666666666666666,0.04048016294836998,0.04436676204204559,0.0,0.6167467832565308,0.0,0.0,-0.7871615886688232,0.490805059671402,-0.34959426522254944,0.0,0.0,0.0,-2.2819995880126953,0.36266443133354187,0.7581239938735962,0.42000001668930054,0.6503165364265442,3.3767398690542905e-06,-9.168972610495985e-06,-0.7596632242202759,0.0011405192781239748,-7.087872654665262e-05,-0.0002660753671079874,0.008136143907904625,0.007133400067687035,-0.015275876969099045,0.3570580780506134,0.7643533945083618,0.43841075897216797,0.15702584385871887,-0.012688212096691132,0.30369359254837036,0.36406123638153076,0.7463982701301575,0.42000001668930054,-0.44502270221710205,-3.0000011920928955,-1.437073826789856,-3.000000238418579,-0.18330536782741547,-0.18587586283683777,-0.18412840366363525,-0.18113502860069275,0.19323088228702545,0.27639254927635193,0.3030903935432434,0.31283456087112427
0.6833333333333333,0.05034855753183365,0.036385901272296906,0.0,0.5865301489830017,0.0,0.0,-0.8099274039268494,0.6325011253356934,-0.5508017539978027,0.0,0.0,0.0,-5.447333812713623,0.3626643419265747,0.758124053478241,0.42000001668930054,0.6503164172172546,1.6304708196912543e-06,-4.7190360419335775e-06,-0.7596634030342102,0.0003214570751879364,-0.00030108538339845836,-0.00013609626330435276,0.005182719323784113,0.0013045849045738578,-0.0006706345593556762,0.36290061473846436,0.7614498138427734,0.4511159062385559,0.6336743831634521,-0.2994646728038788,1.322073221206665,0.36406123638153076,0.7463982701301575,0.42000001668930054,-0.4950355589389801,-2.999931812286377,-1.487092137336731,-2.9999959468841553,-0.1830684393644333,-0.18381823599338531,-0.1811276227235794,-0.17742568254470825,-0.068850077688694,0.050130125135183334,0.12039027363061905,0.17972926795482635
0.7,0.06451907753944397,0.03333556652069092,0.0,0.5694489479064941,0.0,0.0,-0.8220266699790955,0.7807175517082214,-0.117635577917099,0.0,0.0,0.0,-1.4408594369888306,0.36266446113586426,0.758124053478241,0.4200000464916229,0.6503165364265442,7.194564091150824e-07,-3.884757461491972e-06,-0.7596632838249207,0.00021501437004189938,-0.00028393996763043106,-0.0001053039450198412,0.005373844411224127,0.00012183104990981519,-0.0004518186906352639,0.37255463004112244,0.7594789266586304,0.47710543870925903,0.5316052436828613,0.17845748364925385,1.7543318271636963,0.36406123638153076,0.7463982701301575,0.42000001668930054,-0.5262385010719299,-0.9036033153533936,-1.537110447883606,-3.0,-0.1891985833644867,-0.18755392730236053,-0.1833135485649109,-0.1783130019903183,-0.18780507147312164,-0.12169014662504196,-0.09789121150970459,-0.08048713952302933
0.7166666666666667,0.07373674213886261,0.03161017969250679,0.0,0.5783499479293823,0.0,0.0,-0.815788745880127,0.4723930060863495,-0.08559751510620117,0.0,0.0,0.0,2.1568260192871094,0.36266443133354187,0.758124053478241,0.4200000464916229,0.650316596031189,6.737428748238017e-07,-3.971926616941346e-06,-0.7596632838249207,0.00021175725851207972,-0.0002841060922946781,-0.00010442943312227726,0.005392970517277718,7.807931251591071e-05,-0.0004450017004273832,0.38597428798675537,0.7645436525344849,0.4991168975830078,0.8539419174194336,0.3417539596557617,0.9681648015975952,0.36406123638153076,0.7463982701301575,0.42000001668930054,-0.5271767377853394,0.6530340909957886,-1.5871249437332153,-3.000000476837158,-0.18829745054244995,-0.18640193343162537,-0.18246760964393616,-0.177761048078537,0.15924003720283508,0.16061609983444214,0.13137049973011017,0.10353340208530426
0.7333333333333333,0.07849336415529251,0.028725605458021164,0.0,0.57435142993927,0.0,0.0,-0.818608820438385,0.24787189066410065,-0.20190370082855225,0.0,0.0,0.0,-1.5457676649093628,0.36266446113586426,0.758124053478241,0.4200000464916229,0.6503167152404785,6.591733949790068e-07,-3.843626927846344e-06,-0.7596631646156311,0.0002115174720529467,-0.0002841852547135204,-0.00010426156222820282,0.0053965141996741295,7.74535074015148e-05,-0.0004443223588168621,0.3952704071998596,0.7673803567886353,0.5080463886260986,0.28665995597839355,-0.011689141392707825,0.27656710147857666,0.36406123638153076,0.7463982701301575,0.42000001668930054,-0.5361852049827576,-1.5362539291381836,-1.5481493473052979,3.000000476837158,-0.1853947788476944,-0.18329723179340363,-0.17966614663600922,-0.1752878576517105,0.09506584703922272,0.13622592389583588,0.1453504115343094,0.14786021411418915
0.75,0.07992909103631973,0.028822144493460655,0.0,0.581826388835907,0.0,0.0,-0.8133130073547363,0.02948000282049179,0.04427044466137886,0.0,0.0,0.0,1.91051185131073,0.36266443133354187,0.7581239938735962,0.4200000464916229,0.6503166556358337,8.010505325728445e-07,-3.753768396563828e-06,-0.7596632838249207,0.0002146864280803129,-0.00028332843794487417,-0.00010537565685808659,0.0053620911203324795,0.00011768514377763495,-0.0004516335029620677,0.39854615926742554,0.7665755748748779,0.5107259154319763,0.08515696227550507,-0.04107435792684555,0.08780459314584732,0.36406123638153076,0.7463982701301575,0.42000001668930054,-0.5656545162200928,-1.9416199922561646,-1.5632634162902832,-3.000000238418579,-0.18517351150512695,-0.18217098712921143,-0.17811408638954163,-0.17342649400234222,0.0821361094713211,0.11919635534286499,0.1319027990102768,0.1396542489528656
0.7666666666666666,0.08337148278951645,0.025458093732595444,0.0,0.5792204737663269,0.0,0.0,-0.8151708841323853,0.17067889869213104,-0.13468950986862183,0.0,0.0,0.0,-1.6443252563476562,0.36266443133354187,0.758124053478241,0.4200000464916229,0.6503168940544128,7.970437536641839e-07,-3.833217760984553e-06,-0.759662926197052,0.00021095968259032816,-0.00028269339236430824,-0.00010443385690450668,0.00536416657269001,6.987231608945876e-05,-0.0004442349309101701,0.40185385942459106,0.7647107243537903,0.5075326561927795,0.1793985813856125,-0.24764207005500793,-0.29711467027664185,0.36406123638153076,0.7463982701301575,0.42000001668930054,-0.6056295037269592,-2.755438804626465,-1.6132800579071045,-3.000000238418579,-0.18194198608398438,-0.1785871535539627,-0.17446482181549072,-0.16971641778945923,0.007883827202022076,0.0711279958486557,0.11961130797863007,0.16627192497253418
0.7833333333333333,0.08824525773525238,0.021383341401815414,0.0,0.5522187948226929,0.0,0.0,-0.8336992263793945,0.3356523811817169,-0.32309308648109436,0.0,0.0,0.0,-4.840511798858643,0.36266443133354187,0.758124053478241,0.4200000464916229,0.6503165364265442,7.77154298248206e-07,-3.824602572422009e-06,-0.7596632838249207,0.000211614795261994,-0.0002826133568305522,-0.00010463222861289978,0.005360044538974762,7.903065124992281e-05,-0.00044548886944539845,0.40577128529548645,0.7578960061073303,0.5057142972946167,0.3683687448501587,-0.5259138941764832,0.20433226227760315,0.36406123638153076,0.7463982701301575,0.42000001668930054,-0.6555115580558777,-2.9999680519104004,-1.6632945537567139,-2.999999761581421,-0.18363012373447418,-0.1790027618408203,-0.1737542748451233,-0.16786102950572968,-0.11962596327066422,-0.04361347109079361,0.02896723337471485,0.10555683076381683
0.8,0.09641899913549423,0.02042890340089798,0.0,0.5400099754333496,0.0,0.0,-0.8416585922241211,0.474714070558548,-0.05511133745312691,0.0,0.0,0.0,-0.6145047545433044,0.36266443133354187,0.758124053478241,0.4200000464916229,0.6503165364265442,6.795875719944888e-07,-3.886284048348898e-06,-0.7596632838249207,0.00021136680152267218,-0.00028382419259287417,-0.00010432605631649494,0.005388686899095774,7.47267622500658e-05,-0.0004442612116690725,0.40812230110168457,0.7535066604614258,0.512080192565918,-0.02551538124680519,0.026953119784593582,0.512742817401886,0.36406123638153076,0.7463982701301575,0.42000001668930054,-0.6725131273269653,0.6570547819137573,-1.7133090496063232,-3.0,-0.18705952167510986,-0.18157346546649933,-0.17554113268852234,-0.16884365677833557,0.0018998333252966404,-0.0275752954185009,-0.05684138461947441,-0.0802602618932724
0.8166666666666667,0.10060162842273712,0.020878518000245094,0.0,0.5540538430213928,0.0,0.0,-0.8324808478355408,0.17865554988384247,0.0692528486251831,0.0,0.0,0.0,2.830950975418091,0.36266443133354187,0.758124053478241,0.4200000464916229,0.6503169536590576,6.779289947189682e-07,-3.84116765417275e-06,-0.759662926197052,0.00021300409571267664,-0.000283879810012877,-0.00010474491864442825,0.005382654257118702,9.684923134045675e-05,-0.0004477300390135497,0.41071099042892456,0.7579430341720581,0.5176490545272827,0.21913883090019226,0.3923666179180145,0.21174827218055725,0.36406123638153076,0.7463982701301575,0.42000001668930054,-0.6488169431686401,2.044735908508301,-1.673988938331604,2.999999523162842,-0.1842871457338333,-0.179966539144516,-0.17500421404838562,-0.16920499503612518,0.22407202422618866,0.14355714619159698,0.06987891346216202,0.006479646544903517
0.8333333333333334,0.10096747428178787,0.01700911484658718,0.0,0.5537667870521545,0.0,0.0,-0.8326718211174011,-0.022114040330052376,-0.21006476879119873,0.0,0.0,0.0,-0.8546465039253235,0.36266443133354187,0.758124053478241,0.4200000464916229,0.6503165364265442,7.34926857148821e-07,-4.0082363739202265e-06,-0.7596632838249207,0.0002133642410626635,-0.00028351027867756784,-0.00010493001900613308,0.005372478626668453,0.00010137681965716183,-0.0004485864192247391,0.4117819666862488,0.7627323865890503,0.5195032358169556,-0.15884345769882202,0.13190315663814545,0.17215706408023834,0.36406123638153076,0.7463982701301575,0.42000001668930054,-0.6470363140106201,-1.5253546237945557,-1.6239324808120728,2.999999761581421,-0.1790398359298706,-0.17613784968852997,-0.17245444655418396,-0.16775615513324738,0.089960977435112,0.05830756202340126,0.03183979541063309,0.010377763770520687
0.85,0.09915810823440552,0.019154567271471024,0.0,0.5663753151893616,0.0,0.0,-0.8241474628448486,-0.15036961436271667,0.24477975070476532,0.0,0.0,0.0,2.7011687755584717,0.36266446113586426,0.758124053478241,0.4200000464916229,0.6503166556358337,6.58586884583201e-07,-3.882595592585858e-06,-0.7596631646156311,0.00021164427744224668,-0.00028418988222256303,-0.00010429625399410725,0.00539597449824214,7.908821862656623e-05,-0.0004445825470611453,0.41168323159217834,0.763190746307373,0.5229017734527588,0.10145357251167297,-0.009065970778465271,0.26845648884773254,0.36406123638153076,0.7463982701301575,0.42000001668930054,-0.6700544953346252,-1.2431267499923706,-1.6373008489608765,-3.0,-0.1829797625541687,-0.17924073338508606,-0.17463679611682892,-0.1689898520708084,-0.3043046295642853,-0.22846120595932007,-0.14455904066562653,-0.05726141855120659
0.8666666666666667,0.09970874339342117,0.018091464415192604,0.0,0.5658054351806641,0.0,0.0,-0.8245387673377991,0.03470178693532944,-0.05520030856132507,0.0,0.0,0.0,-0.8791037797927856,0.36266443133354187,0.758124053478241,0.4200000464916229,0.6503164172172546,6.987498295529804e-07,-3.883703811879968e-06,-0.7596634030342102,0.00021301189553923905,-0.0002837002684827894,-0.00010483688674867153,0.0053781913593411446,9.549038804834709e-05,-0.00044780553434975445,0.4137532114982605,0.7613110542297363,0.5253174304962158,0.046068526804447174,-0.2522726058959961,0.20840954780578613,0.36406123638153076,0.7463982701301575,0.42000001668930054,-0.702385663986206,-2.5035808086395264,-1.6873153448104858,-3.0,-0.18454240262508392,-0.18009766936302185,-0.17456282675266266,-0.16783447563648224,-0.17693710327148438,-0.10908269882202148,-0.027522215619683266,0.062058765441179276
0.8833333333333333,0.10196145623922348,0.01426202617585659,0.0,0.5448628664016724,0.0,0.0,-0.8385251760482788,0.1837838888168335,-0.2924994230270386,0.0,0.0,0.0,-3.9232590198516846,0.36266443133354187,0.7581239938735962,0.4200000464916229,0.6503167748451233,8.153031672009092e-07,-3.797298631980084e-06,-0.7596631646156311,0.0002140142023563385,-0.0002827843127306551,-0.00010525994002819061,0.005352898500859737,0.00011036847718060017,-0.0004505277320276946,0.41758182644844055,0.7567064762115479,0.5311565399169922,0.4343245327472687,-0.31688642501831055,0.6316999197006226,0.36406123638153076,0.7463982701301575,0.42000001668930054,-0.7477930188179016,-2.8747990131378174,-1.7373298406600952,-2.9999992847442627,-0.18703503906726837,-0.18178044259548187,-0.17513835430145264,-0.16710367798805237,-0.1317826509475708,-0.09114908427000046,-0.03185812011361122,0.040271561592817307
