vladlanda/robotic-transformer/data/env_000_episode_0244.csv
sim_time_s,robot_box_x,robot_box_y,robot_box_z,robot_box_quat_w,robot_box_quat_x,robot_box_quat_y,robot_box_quat_z,robot_box_linvel_x,robot_box_linvel_y,robot_box_linvel_z,robot_box_angvel_x,robot_box_angvel_y,robot_box_angvel_z,cube_world_x,cube_world_y,cube_world_z,cube_quat_w,cube_quat_x,cube_quat_y,cube_quat_z,cube_linvel_x,cube_linvel_y,cube_linvel_z,cube_angvel_x,cube_angvel_y,cube_angvel_z,endpoint_world_x,endpoint_world_y,endpoint_world_z,endpoint_linvel_x,endpoint_linvel_y,endpoint_linvel_z,target_cube_world_x,target_cube_world_y,target_cube_world_z,gripper_actual_pos_rad_gp_leftgearjoint,gripper_actual_vel_rad_s_gp_leftgearjoint,gripper_actual_pos_rad_gp_rotatingjoint,gripper_actual_vel_rad_s_gp_rotatingjoint,motor_angle_rad_joint1,motor_angle_rad_joint2,motor_angle_rad_joint3,motor_angle_rad_joint4,motor_speed_rad_s_joint1,motor_speed_rad_s_joint2,motor_speed_rad_s_joint3,motor_speed_rad_s_joint4
0.0,0.0,0.0,0.0,1.0,0.0,0.0,0.0,0.0,0.0,0.0,0.0,0.0,0.0,-0.44405731558799744,0.6810485124588013,0.41999998688697815,1.0,0.0,0.0,0.0,0.0,0.0,0.0,0.0,0.0,0.0,3.42540442943573e-06,-0.005000244826078415,1.313499927520752,0.0,0.0,0.0,0.4445176124572754,0.7248419523239136,0.42000001668930054,-1.5707999467849731,0.0,0.0,0.0,0.0,0.0,0.0,0.0,0.0,0.0,0.0,0.0
0.016666666666666666,0.0028778850100934505,0.0021806680597364902,0.0,0.9998081922531128,0.0,0.0,0.019586581736803055,0.24087215960025787,0.18240931630134583,0.0,0.0,0.0,3.1418697834014893,-0.444057434797287,0.6810482144355774,0.41999998688697815,1.0,3.2799914606584935e-06,-8.339814598912199e-07,8.465387679734704e-08,-1.9833554688375443e-05,0.00017983050202019513,-6.133061833679676e-05,0.0009432226070202887,-0.004689437802881002,-0.0003198152990080416,-0.007110234349966049,0.003379564033821225,1.3159373998641968,-0.8143353462219238,0.9868683815002441,0.18095196783542633,0.4445176124572754,0.7248419523239136,0.42000001668930054,-1.5301095247268677,3.0000011920928955,-0.04584788903594017,-2.9999992847442627,0.0008691533003002405,0.0007963840034790337,0.0007110277656465769,0.0006108740926720202,0.11094217747449875,0.09756709635257721,0.08334315568208694,0.06823883205652237
0.03333333333333333,0.008960975334048271,0.006801940035074949,0.0,0.9997960329055786,0.0,0.0,0.020196838304400444,0.40702125430107117,0.3153086304664612,0.0,0.0,0.0,-0.8691306710243225,-0.44405755400657654,0.6810481548309326,0.4200000464916229,1.0,3.390885240150965e-06,-2.1324319732229924e-06,-3.711133800265998e-08,0.00026357753085903823,0.00026937859365716577,-0.00010509602725505829,-0.0017706351354718208,0.004130707122385502,-0.00013548039714805782,-0.027550145983695984,0.026088081300258636,1.3166131973266602,-1.5915025472640991,1.6156071424484253,-0.08297471702098846,0.4445176124572754,0.7248419523239136,0.42000001668930054,-1.4800903797149658,3.0000016689300537,-0.09588771313428879,-3.0000007152557373,0.0029901359230279922,0.0026527580339461565,0.0022773395758122206,0.0018608050886541605,0.16422036290168762,0.13976497948169708,0.1138247400522232,0.08630755543708801
0.05,0.017735861241817474,0.01376947108656168,0.0,0.9993810653686523,0.0,0.0,0.03517717868089676,0.5935665369033813,0.46497806906700134,0.0,0.0,0.0,2.650399684906006,-0.4440575838088989,0.6810482144355774,0.4200000464916229,1.0,3.7651666389137972e-06,-2.2119106688478496e-06,5.6201381326559385e-09,0.00026530789909884334,0.00026691396487876773,-0.0001044049859046936,-0.0017242879839614034,0.004177392926067114,-0.00012949586380273104,-0.05967838317155838,0.05405743792653084,1.31160569190979,-2.1875147819519043,1.7718162536621094,-0.47949355840682983,0.4445176124572754,0.7248419523239136,0.42000001668930054,-1.4300720691680908,3.000000238418579,-0.1459263563156128,-3.0,0.005702991038560867,0.004911188967525959,0.004047268070280552,0.003106779884546995,0.19264863431453705,0.15574289858341217,0.11696414649486542,0.07621854543685913
0.06666666666666667,0.029047250747680664,0.02306140959262848,0.0,0.9994524717330933,0.0,0.0,0.033087823539972305,0.7201308608055115,0.5951188206672668,0.0,0.0,0.0,-1.2090429067611694,-0.4440575838088989,0.6810481548309326,0.4200000464916229,0.9999999403953552,3.406765927138622e-06,-2.285584969285992e-06,4.3010237504859106e-07,0.0002670253161340952,0.00026791723212227225,-0.00010437797755002975,-0.0017405577236786485,0.004211726598441601,-0.0001285084872506559,-0.09821338951587677,0.08836469054222107,1.2988840341567993,-2.4506070613861084,2.2308783531188965,-1.0204734802246094,0.4445176124572754,0.7248419523239136,0.42000001668930054,-1.3800537586212158,3.000000476837158,-0.19596368074417114,-3.0000011920928955,0.008308042772114277,0.006833809427917004,0.005248276051133871,0.0035473210737109184,0.15420274436473846,0.10391212999820709,0.05160288140177727,-0.0028471630066633224
0.08333333333333333,0.04355695843696594,0.034468941390514374,0.0,0.9999953508377075,0.0,0.0,0.0030474283266812563,0.9373038411140442,0.7267147302627563,0.0,0.0,0.0,-4.53375244140625,-0.4440575838088989,0.6810481548309326,0.4200000464916229,1.0,3.697324700624449e-06,-2.1889497929805657e-06,-2.6323201041122957e-07,0.00026389677077531815,0.0002658632874954492,-0.00010433816350996494,-0.001708115916699171,0.004150166176259518,-0.0001299091090913862,-0.13783125579357147,0.12989455461502075,1.2792375087738037,-2.3441967964172363,2.6249008178710938,-1.3328191041946411,0.4445176124572754,0.7248419523239136,0.42000001668930054,-1.3300254344940186,2.9999959468841553,-0.20080676674842834,1.9932254552841187,0.010132413357496262,0.007696105632930994,0.005107796750962734,0.0023632380180060863,0.0869353711605072,0.019893895834684372,-0.04923577234148979,-0.12047826498746872
0.1,0.05226809158921242,0.04978960379958153,0.0,0.9999465942382812,0.0,0.0,-0.010337293148040771,0.3840750455856323,0.9963128566741943,0.0,0.0,0.0,-0.5824168920516968,-0.4440575838088989,0.6810481548309326,0.4200000464916229,0.9999999403953552,3.6204476145940134e-06,-2.2652093321084976e-06,1.746138025282562e-07,0.00026676998822949827,0.0002674069837667048,-0.00010407832451164722,-0.0017385098617523909,0.0042091780342161655,-0.00012775610957760364,-0.17826175689697266,0.16903924942016602,1.255627989768982,-2.33815336227417,2.353811502456665,-1.433816909790039,0.4445176124572754,0.7248419523239136,0.42000001668930054,-1.2800228595733643,3.0000009536743164,-0.23793919384479523,-3.0000016689300537,0.005081947892904282,0.00187778752297163,-0.0015300725353881717,-0.005149422213435173,-0.42866554856300354,-0.48034530878067017,-0.5345970392227173,-0.5916548371315002
0.11666666666666667,0.0561206117272377,0.06616532057523727,0.0,0.9993388652801514,0.0,0.0,-0.036357637494802475,0.251899391412735,0.9371986985206604,0.0,0.0,0.0,-3.8743693828582764,-0.4440575838088989,0.6810481548309326,0.4200000464916229,1.0,3.7984607388352742e-06,-2.2627837097388692e-06,-1.502189377333707e-07,0.0002637402794789523,0.000265660259174183,-0.00010428996756672859,-0.001705392962321639,0.004147498402744532,-0.0001297990238526836,-0.21533071994781494,0.21177172660827637,1.2320618629455566,-2.120327949523926,2.7969167232513428,-1.3933025598526,0.4445176124572754,0.7248419523239136,0.42000001668930054,-1.230012059211731,3.0000009536743164,-0.28794753551483154,-3.000001907348633,-0.0019940717611461878,-0.006464035715907812,-0.01114441268146038,-0.016045620664954185,-0.32223156094551086,-0.42442819476127625,-0.524907648563385,-0.6236938834190369
0.13333333333333333,0.06090857833623886,0.08170703053474426,0.0,0.9990082383155823,0.0,0.0,-0.04452531784772873,0.24611039459705353,0.913262665271759,0.0,0.0,0.0,0.2955167293548584,-0.4440575838088989,0.6810482144355774,0.4200000464916229,0.9999999403953552,3.5505347568687284e-06,-2.22979360842146e-06,2.929032234533224e-07,0.00026703241746872663,0.0002677922893781215,-0.00010416889563202858,-0.0017439969815313816,0.004213562235236168,-0.00012800225522369146,-0.2548710107803345,0.25705498456954956,1.205505609512329,-2.4448299407958984,2.810177803039551,-1.7650412321090698,0.4445176124572754,0.7248419523239136,0.42000001668930054,-1.1799964904785156,2.9999897480010986,-0.2536700367927551,3.0000007152557373,-0.005219020880758762,-0.011606532149016857,-0.01813780888915062,-0.024822497740387917,-0.17349933087825775,-0.2878521680831909,-0.39718735218048096,-0.501424252986908
0.15,0.06256598979234695,0.09399322420358658,0.0,0.9979631304740906,0.0,0.0,-0.06379321962594986,0.05127497762441635,0.676884114742279,0.0,0.0,0.0,-3.1554112434387207,-0.4440575838088989,0.6810481548309326,0.4200000464916229,0.9999999403953552,3.338062697366695e-06,-2.242876007585437e-06,-2.8025249676488784e-08,0.00026674612308852375,0.00026758183958008885,-0.00010427669622004032,-0.0017367495456710458,0.004206867888569832,-0.0001283180754398927,-0.2928506135940552,0.30780333280563354,1.174452781677246,-2.157167434692383,3.2081918716430664,-1.9842791557312012,0.4445176124572754,0.7248419523239136,0.42000001668930054,-1.1300181150436401,2.994758129119873,-0.2847537696361542,-3.000000238418579,-0.009273657575249672,-0.017555171623826027,-0.025884682312607765,-0.034271035343408585,-0.311639666557312,-0.41644051671028137,-0.515590488910675,-0.6090734004974365
0.16666666666666666,0.07002751529216766,0.10804416239261627,0.0,0.9935983419418335,0.0,0.0,-0.11297063529491425,0.5862772464752197,0.9038822650909424,0.0,0.0,0.0,-6.866500377655029,-0.4440575838088989,0.6810482144355774,0.4200000464916229,0.9999999403953552,3.6477547382673947e-06,-2.3072825570125133e-06,3.52875595410751e-08,0.0002672684204299003,0.0002680135949049145,-0.00010418612509965897,-0.001747230300679803,0.0042175729759037495,-0.00012798423995263875,-0.32754939794540405,0.3673650324344635,1.1352301836013794,-1.9491209983825684,3.809041976928711,-2.70175838470459,0.4445176124572754,0.7248419523239136,0.42000001668930054,-1.0919866561889648,1.6500517129898071,-0.2505274713039398,3.0000007152557373,-0.011926584877073765,-0.022016040980815887,-0.032046180218458176,-0.04202604666352272,-0.1765710711479187,-0.2657662034034729,-0.34915241599082947,-0.4268248677253723
0.18333333333333332,0.07419776171445847,0.11853837221860886,0.0,0.9893885850906372,0.0,0.0,-0.1452937126159668,0.21170078217983246,0.5666100382804871,0.0,0.0,0.0,-2.749624013900757,-0.4440575838088989,0.6810481548309326,0.4200000464916229,0.9999999403953552,3.2904565614444437e-06,-2.193865839217324e-06,-2.792176019283943e-07,0.00026678055291995406,0.000267760653514415,-0.00010434072464704514,-0.0017390751745551825,0.004207063466310501,-0.00012845917080994695,-0.362947940826416,0.42620986700057983,1.0843620300292969,-1.9234504699707031,3.729719638824463,-3.3368773460388184,0.4445176124572754,0.7248419523239136,0.42000001668930054,-1.0473278760910034,2.999986410140991,-0.281598299741745,-2.999965190887451,-0.02075093425810337,-0.03126317635178566,-0.041670992970466614,-0.05199519544839859,-0.5739436149597168,-0.5847846269607544,-0.5931750535964966,-0.5998337268829346
0.2,0.07588761299848557,0.12982071936130524,0.0,0.9824420809745789,0.0,0.0,-0.18656784296035767,0.027447309345006943,0.7229336500167847,0.0,0.0,0.0,-5.835420608520508,-0.4440575838088989,0.6810481548309326,0.4200000464916229,1.0,3.280669488958665e-06,-2.2191218249645317e-06,1.5948940301768744e-07,0.000266279123025015,0.00026740122120827436,-0.0001042510848492384,-0.0017357164761051536,0.0041977716609835625,-0.000128651867271401,-0.39574769139289856,0.48968014121055603,1.0218873023986816,-1.7788209915161133,3.9141006469726562,-4.124088287353516,0.4445176124572754,0.7248419523239136,0.42000001668930054,-0.997328519821167,2.999999523162842,-0.33162543177604675,-2.9999990463256836,-0.031540051102638245,-0.042117130011320114,-0.05253218859434128,-0.06281641870737076,-0.7468326091766357,-0.7293695211410522,-0.7092258930206299,-0.6870393753051758
0.21666666666666667,0.07924533635377884,0.13784046471118927,0.0,0.9783244729042053,0.0,0.0,-0.20707771182060242,0.2576385736465454,0.3807586431503296,0.0,0.0,0.0,-1.3651223182678223,-0.4440575838088989,0.6810482144355774,0.4200000464916229,1.0,3.6130513763055205e-06,-2.2700164663547184e-06,2.2102895513853582e-07,0.00026712645194493234,0.0002678175806067884,-0.0001041400246322155,-0.0017445534467697144,0.0042151943780481815,-0.00012786385195795447,-0.42647525668144226,0.5472426414489746,0.945099413394928,-1.5803825855255127,3.3066163063049316,-5.000658988952637,0.4445176124572754,0.7248419523239136,0.42000001668930054,-0.9473253488540649,3.000002145767212,-0.381653755903244,-3.0,-0.0464782677590847,-0.05659576505422592,-0.06575417518615723,-0.07479947060346603,-0.9596285820007324,-0.9450622200965881,-0.842206597328186,-0.7415705323219299
0.23333333333333334,0.07746036350727081,0.14796897768974304,0.0,0.9705793261528015,0.0,0.0,-0.24078167974948883,-0.18551741540431976,0.5891546010971069,0.0,0.0,0.0,-4.988249778747559,-0.4440575838088989,0.6810481548309326,0.4200000464916229,1.0,3.3817634630395332e-06,-2.2908675418875646e-06,2.728248773564701e-07,0.0002669122186489403,0.0002677985467016697,-0.00010433210991322994,-0.001739602186717093,0.004209672566503286,-0.00012843367585446686,-0.4481314420700073,0.5961306095123291,0.8551537990570068,-0.9888753890991211,2.684750556945801,-5.534456253051758,0.4445176124572754,0.7248419523239136,0.42000001668930054,-0.8973149657249451,3.0000007152557373,-0.4316839873790741,-2.9999985694885254,-0.06324059516191483,-0.07322635501623154,-0.08232081681489944,-0.0913199782371521,-0.8936117887496948,-0.9057231545448303,-0.9201259613037109,-0.9338216781616211
0.25,0.08047185838222504,0.15390370786190033,0.0,0.9666736125946045,0.0,0.0,-0.2560119330883026,0.1887790709733963,0.2877773940563202,0.0,0.0,0.0,-0.7655626535415649,-0.44405755400657654,0.6810481548309326,0.4200000464916229,0.9999999403953552,3.706490815602592e-06,-2.2229455680644605e-06,-2.2549096456714324e-07,0.00026424654060974717,0.0002665668725967407,-0.00010457867756485939,-0.001717000617645681,0.0041555617935955524,-0.00013063187361694872,-0.46490517258644104,0.6323657035827637,0.7604761123657227,-0.7004379630088806,1.7796006202697754,-5.903172969818115,0.4445176124572754,0.7248419523239136,0.42000001668930054,-0.8473044633865356,2.9999632835388184,-0.4817146956920624,-2.9999923706054688,-0.0765213668346405,-0.08659601956605911,-0.09586922824382782,-0.10453182458877563,-0.9965516924858093,-0.9714315533638,-0.9551931619644165,-0.8839163184165955
0.26666666666666666,0.07932335883378983,0.15707014501094818,0.0,0.9591383934020996,0.0,0.0,-0.2829374670982361,-0.07028412073850632,0.09375666081905365,0.0,0.0,0.0,-4.11801290512085,-0.4440575838088989,0.6810481548309326,0.4200000464916229,0.9999999403953552,3.7195993627392454e-06,-2.4034497982938774e-06,-1.8306667470824323e-07,0.00026623401208780706,0.0002672910050023347,-0.00010425737127661705,-0.0017326086526736617,0.004196528345346451,-0.00012850944767706096,-0.4708036482334137,0.6560684442520142,0.6610196828842163,0.014855287969112396,1.1600379943847656,-5.838200569152832,0.4445176124572754,0.7248419523239136,0.42000001668930054,-0.797295331954956,2.9999961853027344,-0.5317453145980835,-3.000002861022949,-0.09345082938671112,-0.10340198129415512,-0.11260940879583359,-0.12124202400445938,-0.8877703547477722,-0.9077277183532715,-0.92789626121521,-0.9469119906425476
0.2833333333333333,0.0762007087469101,0.15680283308029175,0.0,0.9569352269172668,0.0,0.0,-0.29030150175094604,-0.22514836490154266,-0.061550408601760864,0.0,0.0,0.0,0.051571499556303024,-0.4440575838088989,0.6810482144355774,0.4200000464916229,0.9999999403953552,3.58404417966085e-06,-2.315490291948663e-06,7.405241575497712e-08,0.000265220005530864,0.00026455195620656013,-0.00010317191481590271,-0.0017020846717059612,0.004185084719210863,-0.0001249985652975738,-0.4707503020763397,0.6719057559967041,0.5688160061836243,0.2216472029685974,0.7278900742530823,-5.235439300537109,0.4445176124572754,0.7248419523239136,0.42000001668930054,-0.7472865581512451,3.000002384185791,-0.5817750096321106,-3.0000007152557373,-0.11026286333799362,-0.12016545236110687,-0.12936286628246307,-0.1380063146352768,-1.014317274093628,-1.0107698440551758,-1.0080723762512207,-1.0059287548065186
0.3,0.0703832134604454,0.15392284095287323,0.0,0.9508268237113953,0.0,0.0,-0.3097231388092041,-0.40190622210502625,-0.2196809947490692,0.0,0.0,0.0,-3.2948672771453857,-0.4440575838088989,0.6810481548309326,0.4200000464916229,1.0,3.7242157304717693e-06,-2.271948687848635e-06,9.637550846264276e-08,0.0002631245879456401,0.0002652581606525928,-0.00010437984019517899,-0.0016960380598902702,0.004134716931730509,-0.00013027644308749586,-0.4624600410461426,0.6810129880905151,0.4799754023551941,0.8439054489135742,0.3416304588317871,-5.326519012451172,0.4445176124572754,0.7248419523239136,0.42000001668930054,-0.6972787380218506,2.9999947547912598,-0.6318027973175049,-3.0000007152557373,-0.12750022113323212,-0.13725095987319946,-0.14633262157440186,-0.15488433837890625,-1.0000771284103394,-1.0000513792037964,-1.0000323057174683,-1.000019907951355
0.31666666666666665,0.062079474329948425,0.14871305227279663,0.0,0.9501017332077026,0.0,0.0,-0.3119402527809143,-0.5347257852554321,-0.351268470287323,0.0,0.0,0.0,0.663408100605011,-0.4440575838088989,0.6810481548309326,0.4200000464916229,1.0,3.6661854210251477e-06,-2.3926015728648053e-06,1.6801685376321984e-07,0.0002660196623764932,0.00026706853532232344,-0.00010418589226901531,-0.001731019001454115,0.004193488042801619,-0.00012849841732531786,-0.456034779548645,0.6845629215240479,0.42738667130470276,0.07116664946079254,0.0010916292667388916,-0.26449596881866455,0.4445176124572754,0.7248419523239136,0.42000001668930054,-0.6472741961479187,3.000000238418579,-0.6822034120559692,-2.998720407485962,-0.14242976903915405,-0.15215814113616943,-0.16094066202640533,-0.1686890572309494,-0.5649161338806152,-0.5934054255485535,-0.5784123539924622,-0.49006325006484985
0.3333333333333333,0.051457446068525314,0.14113543927669525,0.0,0.944900393486023,0.0,0.0,-0.3273579478263855,-0.6867697238922119,-0.4977654814720154,0.0,0.0,0.0,-2.8093106746673584,-0.44268056750297546,0.6829619407653809,0.4200000464916229,0.999933123588562,-7.298743298633781e-08,-2.2200568139396637e-07,-0.011564763262867928,0.10543464124202728,0.12378298491239548,-1.5321478713303804e-05,-6.188303086673841e-05,0.0008497040835209191,-0.09583839774131775,-0.454556941986084,0.6876637935638428,0.4247804284095764,0.262246310710907,0.2087896764278412,-0.18957509100437164,0.4445176124572754,0.7248419523239136,0.42000001668930054,-0.5972690582275391,2.9999759197235107,-0.732295036315918,-2.9999213218688965,-0.151777982711792,-0.16120289266109467,-0.16893327236175537,-0.17447888851165771,-0.6011381149291992,-0.529090404510498,-0.41596314311027527,-0.2430151253938675
0.35,0.03855764493346214,0.1312439739704132,0.0,0.9451949000358582,0.0,0.0,-0.3265065848827362,-0.812795102596283,-0.6327067613601685,0.0,0.0,0.0,1.0476127862930298,-0.438816636800766,0.6882939338684082,0.42000046372413635,0.9982911944389343,-1.098591474146815e-05,-6.6960815274796914e-06,-0.058433741331100464,0.30078718066215515,0.44306883215904236,-0.00048818462528288364,0.027949219569563866,-0.005815311800688505,-10.28638744354248,-0.4491569399833679,0.6936318874359131,0.4217628240585327,0.4071810841560364,0.5022265911102295,-0.14732833206653595,0.4445176124572754,0.7248419523239136,0.42000001668930054,-0.5472640991210938,3.0000007152557373,-0.7823361158370972,-3.0000038146972656,-0.16257517039775848,-0.17016375064849854,-0.17545904219150543,-0.1777457892894745,-0.618027925491333,-0.48945724964141846,-0.330206036567688,-0.1308068186044693
0.36666666666666664,0.029205642640590668,0.11867636442184448,0.0,0.9406923055648804,0.0,0.0,-0.3392610251903534,-0.47895705699920654,-0.8002773523330688,0.0,0.0,0.0,-2.4891490936279297,-0.43304818868637085,0.6965786814689636,0.42000851035118103,0.9901001453399658,0.00011780745990108699,0.00017406813276465982,-0.14036248624324799,0.47477129101753235,0.6578692197799683,-0.0035343319177627563,0.03854754939675331,-0.2894390821456909,-3.2282838821411133,-0.44089755415916443,0.7018566131591797,0.42017292976379395,0.62352454662323,0.5771760940551758,-0.08033932000398636,0.4445176124572754,0.7248419523239136,0.42000001668930054,-0.49725937843322754,3.000000238418579,-0.8323908448219299,-2.999999523162842,-0.17222942411899567,-0.17730143666267395,-0.17960919439792633,-0.17835132777690887,-0.5224534273147583,-0.3567277789115906,-0.1673538237810135,0.047412656247615814
0.3833333333333333,0.016929812729358673,0.10445527732372284,0.0,0.9252216219902039,0.0,0.0,-0.3794271647930145,-0.8299617767333984,-0.8785966038703918,0.0,0.0,0.0,-6.0950026512146,-0.42063120007514954,0.7128874063491821,0.420376181602478,0.9848533868789673,-0.002873726887628436,-0.0055961827747523785,-0.17327460646629333,1.000658392906189,1.3236936330795288,0.10133831202983856,-1.1612677574157715,-3.3146872520446777,-5.419679164886475,-0.4278374910354614,0.716393232345581,0.42064332962036133,0.9815123081207275,1.2414588928222656,0.11158864200115204,0.4445176124572754,0.7248419523239136,0.42000001668930054,-0.44725242257118225,2.9999451637268066,-0.8824448585510254,-2.999910354614258,-0.18259231746196747,-0.18457768857479095,-0.18346595764160156,-0.178484246134758,-0.5667294859886169,-0.39099469780921936,-0.19831767678260803,0.007496974430978298
0.4,0.00798689667135477,0.08732827752828598,0.0,0.8960392475128174,0.0,0.0,-0.4439748227596283,-0.5075799822807312,-1.0683801174163818,0.0,0.0,0.0,-9.225730895996094,-0.390761137008667,0.7416028380393982,0.4249965250492096,0.9747768044471741,0.011927267536520958,-0.0350303128361702,-0.2200922966003418,2.748838424682617,2.233093738555908,0.446580708026886,14.110416412353516,-8.351175308227539,-2.9104175567626953,-0.3979533910751343,0.7458904981613159,0.4247782230377197,2.6982250213623047,2.270514965057373,0.4805128574371338,0.4445176124572754,0.7248419523239136,0.42000001668930054,-0.4002539813518524,2.1353251934051514,-0.9039644598960876,0.17237335443496704,-0.1916665881872177,-0.19026470184326172,-0.18554632365703583,-0.17685647308826447,-0.6524681448936462,-0.4006258249282837,-0.14196793735027313,0.1130136027932167
0.4166666666666667,0.001008835737593472,0.07535592466592789,0.0,0.850468635559082,0.0,0.0,-0.5260257720947266,-0.31669023633003235,-0.7593861818313599,0.0,0.0,0.0,-11.870623588562012,-0.32039231061935425,0.7851369380950928,0.43281930685043335,0.9528642296791077,0.0771498903632164,-0.07397978752851486,-0.2839448153972626,5.801527500152588,2.6583430767059326,0.5193399786949158,14.110316276550293,-11.138419151306152,24.20123291015625,-0.3270096778869629,0.7903683185577393,0.4325684905052185,5.298460960388184,3.23356294631958,0.5731023550033569,0.4445176124572754,0.7248419523239136,0.42000001668930054,-0.37869298458099365,0.9164219498634338,-0.8566097021102905,2.999373197555542,-0.2074979990720749,-0.2029002606868744,-0.19254952669143677,-0.17872516810894012,-0.576084315776825,-0.5974404811859131,-0.3343167304992676,-0.10436706244945526
0.43333333333333335,-0.0017353688599541783,0.06509879231452942,0.0,0.8051350116729736,0.0,0.0,-0.5930915474891663,-0.11062195897102356,-0.5558046698570251,0.0,0.0,0.0,-8.486787796020508,-0.22793827950954437,0.834092915058136,0.4433721601963043,0.9105448126792908,0.12906847894191742,-0.10423769056797028,-0.37866055965423584,6.105074405670166,2.025810480117798,0.8206300139427185,-7.399107456207275,-2.642409086227417,1.683658480644226,-0.23450824618339539,0.8412632942199707,0.4427022933959961,5.856121063232422,2.710486650466919,0.652266263961792,0.4445176124572754,0.7248419523239136,0.42000001668930054,-0.3649798333644867,0.7892454266548157,-0.8681294322013855,-2.9997003078460693,-0.21808350086212158,-0.2130727469921112,-0.19870127737522125,-0.18157055974006653,-0.630435049533844,-0.5695512890815735,-0.34836345911026,-0.17604675889015198
0.45,-0.0014723030617460608,0.0583728551864624,0.0,0.7789204120635986,0.0,0.0,-0.6271228194236755,0.06616765260696411,-0.33938056230545044,0.0,0.0,0.0,-4.003124713897705,-0.1284295916557312,0.8696801662445068,0.4552009701728821,0.8497586846351624,0.15215855836868286,-0.11680171638727188,-0.4910348355770111,6.352962970733643,0.7697647213935852,0.966795802116394,-3.5013608932495117,2.9863831996917725,5.419004917144775,-0.13485118746757507,0.8785290718078613,0.4537595510482788,6.240168571472168,1.737995982170105,0.7705780863761902,0.4445176124572754,0.7248419523239136,0.42000001668930054,-0.35136115550994873,0.785232663154602,-0.9181534647941589,-3.000000238418579,-0.22965846955776215,-0.22270192205905914,-0.2045416384935379,-0.18448080122470856,-0.6977903842926025,-0.5490409135818481,-0.33204472064971924,-0.1672797054052353
0.4666666666666667,-0.003525275271385908,0.04869140684604645,0.0,0.7437962293624878,0.0,0.0,-0.6684064269065857,-0.11219572275876999,-0.5385347604751587,0.0,0.0,0.0,-7.276937484741211,-0.024929489940404892,0.8861340284347534,0.4659169912338257,0.7828797101974487,0.15453629195690155,-0.1095706969499588,-0.5926313996315002,6.529409408569336,-0.22451812028884888,0.6827468276023865,-0.3915937840938568,-17.53998565673828,5.09556770324707,-0.031159812584519386,0.8970338106155396,0.4642229378223419,6.372223854064941,0.3068729639053345,0.6267900466918945,0.4445176124572754,0.7248419523239136,0.42000001668930054,-0.33912453055381775,0.647413969039917,-0.9681774973869324,-3.0000016689300537,-0.23935945332050323,-0.22930660843849182,-0.20744876563549042,-0.18447555601596832,-0.8349899053573608,-0.5502181053161621,-0.2622625529766083,-0.024636484682559967
0.48333333333333334,-0.003347346093505621,0.04445314034819603,0.0,0.7209714651107788,0.0,0.0,-0.6929647326469421,0.08023440092802048,-0.2755357325077057,0.0,0.0,0.0,-2.667093515396118,0.07577188313007355,0.8807353377342224,0.4743075966835022,0.7349295020103455,0.14154480397701263,-0.10604977607727051,-0.6546732783317566,5.675654411315918,-1.4751309156417847,0.2224089354276657,-9.491886138916016,-13.539743423461914,23.566059112548828,0.07254552841186523,0.8924403190612793,0.4731031656265259,6.166437149047852,-0.6600541472434998,0.5540590286254883,0.4445176124572754,0.7248419523239136,0.42000001668930054,-0.3293909728527069,0.46176937222480774,-1.0182021856307983,-3.000002384185791,-0.23996324837207794,-0.23997926712036133,-0.21728990972042084,-0.19011732935905457,-0.010325349867343903,-0.022537194192409515,-0.5074209570884705,-0.33455756306648254
0.5,-0.0015474078245460987,0.04249434918165207,0.0,0.6919820308685303,0.0,0.0,-0.7219147086143494,0.11932041496038437,-0.05533769354224205,0.0,0.0,0.0,-5.830962181091309,0.16949297487735748,0.8636112809181213,0.47545310854911804,0.6704358458518982,0.10840686410665512,-0.11115995049476624,-0.7255392074584961,5.00751256942749,-1.9275554418563843,-0.17917108535766602,-7.10461950302124,-6.6999897956848145,14.621851921081543,0.1664135456085205,0.8759175539016724,0.475398451089859,5.363922595977783,-1.382798433303833,0.00018275529146194458,0.4445176124572754,0.7248419523239136,0.42000001668930054,-0.32138943672180176,0.467547208070755,-1.0682244300842285,-3.0000011920928955,-0.23998408019542694,-0.2397414892911911,-0.22411251068115234,-0.1948278397321701,-0.0059733097441494465,0.05856793373823166,-0.28406018018722534,-0.19461198151111603
0.5166666666666666,0.00318001676350832,0.03716178983449936,0.0,0.6749155521392822,0.0,0.0,-0.7378949522972107,0.35202136635780334,-0.4899647831916809,0.0,0.0,0.0,-1.8371332883834839,0.2507297098636627,0.8373684883117676,0.47033241391181946,0.6060160994529724,0.08319781720638275,-0.09679608792066574,-0.7851452231407166,4.305941104888916,-1.930540680885315,-0.5418527722358704,-4.984185695648193,-1.4709340333938599,3.140455722808838,0.24791640043258667,0.8504019975662231,0.47028595209121704,4.5297088623046875,-1.7609684467315674,-0.4559083580970764,0.4445176124572754,0.7248419523239136,0.42000001668930054,-0.31152114272117615,0.6379348635673523,-1.1182465553283691,-3.0000007152557373,-0.23632796108722687,-0.23500080406665802,-0.22454042732715607,-0.19496197998523712,0.38099512457847595,0.44507378339767456,0.1653936207294464,0.12167366594076157
0.5333333333333333,0.005259220022708178,0.034173037856817245,0.0,0.6480856537818909,0.0,0.0,-0.7615674138069153,0.1084788516163826,-0.09748923778533936,0.0,0.0,0.0,-4.916971206665039,0.3185984492301941,0.8090600371360779,0.45985645055770874,0.5575443506240845,0.059031419456005096,-0.08552200347185135,-0.8236173987388611,3.652498483657837,-2.2656829357147217,-0.5625402927398682,4.625572204589844,8.085734367370605,2.1956276893615723,0.3160328269004822,0.8214712738990784,0.46029388904571533,3.7823967933654785,-1.7736221551895142,-0.6793184280395508,0.4445176124572754,0.7248419523239136,0.42000001668930054,-0.2968659996986389,0.9295306205749512,-1.1682686805725098,-2.9997715950012207,-0.23285290598869324,-0.23008188605308533,-0.2233513742685318,-0.19503167271614075,0.1683189421892166,0.24681416153907776,0.05051932483911514,-0.06862383335828781
0.55,0.008984589017927647,0.03537667170166969,0.0,0.6380156874656677,0.0,0.0,-0.7700233459472656,0.25867754220962524,0.13353951275348663,0.0,0.0,0.0,-0.5695452094078064,0.3733987808227539,0.7780495882034302,0.44496777653694153,0.5236379504203796,0.026206186041235924,-0.06733114272356033,-0.8488715887069702,2.7559633255004883,-2.2780306339263916,-0.9977882504463196,-5.667984485626221,4.399137020111084,2.8476645946502686,0.3714381456375122,0.7898904085159302,0.44567784667015076,2.830761432647705,-1.9406867027282715,-1.0062264204025269,0.4445176124572754,0.7248419523239136,0.42000001668930054,-0.2846011519432068,0.49016398191452026,-1.2182908058166504,-3.000000238418579,-0.23082031309604645,-0.22669629752635956,-0.22253915667533875,-0.19653292000293732,0.1468125581741333,0.21937674283981323,0.09069619327783585,-0.07491002231836319
0.5666666666666667,0.014897569082677364,0.03336165100336075,0.0,0.6177578568458557,0.0,0.0,-0.7863683700561523,0.380486398935318,-0.15570136904716492,0.0,0.0,0.0,-4.055450916290283,0.41624295711517334,0.7500075697898865,0.4233860969543457,0.5034545063972473,-0.012882099486887455,-0.053636305034160614,-0.8622590899467468,2.164379119873047,-1.9252007007598877,-1.3231563568115234,-2.7607431411743164,3.266679048538208,6.41451358795166,0.414253830909729,0.7611424922943115,0.4243043065071106,2.2253947257995605,-1.638608694076538,-1.4036085605621338,0.4445176124572754,0.7248419523239136,0.42000001668930054,-0.27693691849708557,0.4486531913280487,-1.268312931060791,-3.000000476837158,-0.22525645792484283,-0.22077882289886475,-0.21901337802410126,-0.19667398929595947,0.3101067841053009,0.3280197083950043,0.2097676694393158,-0.023046718910336494
0.5833333333333334,0.023323558270931244,0.03439180925488472,0.0,0.611221432685852,0.0,0.0,-0.7914596199989319,0.5283900499343872,0.1007317304611206,0.0,0.0,0.0,0.009210987016558647,0.4381122291088104,0.7348939180374146,0.42197394371032715,0.5082231760025024,-0.031317975372076035,-0.029574790969491005,-0.8601474165916443,0.9044567346572876,-1.0159568786621094,0.2242899239063263,9.158889770507812,6.630345821380615,6.851409912109375,0.43561580777168274,0.745333194732666,0.42374491691589355,0.942004919052124,-0.7215359210968018,0.09173358976840973,0.4445176124572754,0.7248419523239136,0.42000001668930054,-0.26643338799476624,0.6380741596221924,-1.3182432651519775,-2.9815433025360107,-0.22150689363479614,-0.216955304145813,-0.2167178839445114,-0.19811420142650604,0.29242590069770813,0.2585468292236328,0.15747183561325073,-0.09358125180006027
0.6,0.02857663296163082,0.031586986035108566,0.0,0.5949604511260986,0.0,0.0,-0.803754985332489,0.24221408367156982,-0.22977179288864136,0.0,0.0,0.0,-3.2794275283813477,0.44908660650253296,0.7265891432762146,0.4209900200366974,0.5337294340133667,-0.00902065820991993,-0.015065498650074005,-0.8454729318618774,0.11988668888807297,-0.8599026799201965,0.20621080696582794,-8.325230598449707,-4.125006198883057,14.659204483032227,0.44577252864837646,0.7360883951187134,0.42258787155151367,0.1463804990053177,-0.3280152678489685,0.15736277401447296,0.4445176124572754,0.7248419523239136,0.42000001668930054,-0.2583487927913666,0.26888152956962585,-1.2799556255340576,2.997239589691162,-0.2144942581653595,-0.21080589294433594,-0.2121160924434662,-0.1977580338716507,0.3644300401210785,0.3344939351081848,0.28418654203414917,0.0609113909304142
0.6166666666666667,0.0356554351747036,0.033558644354343414,0.0,0.5921877026557922,0.0,0.0,-0.8058000802993774,0.41698047518730164,0.10088811069726944,0.0,0.0,0.0,0.47153574228286743,0.44933560490608215,0.7201247215270996,0.42098477482795715,0.5632511973381042,-0.017142480239272118,0.0021739343646913767,-0.826104998588562,0.010549794882535934,-0.16837738454341888,0.1582733392715454,-7.416257858276367,3.562455177307129,2.207867383956909,0.4453750252723694,0.7293540239334106,0.4229172468185425,-0.0814085453748703,-0.1897566020488739,0.12669651210308075,0.4445176124572754,0.7248419523239136,0.42000001668930054,-0.2680385410785675,-1.3197048902511597,-1.3001629114151,-2.9911231994628906,-0.21283100545406342,-0.20897464454174042,-0.21022845804691315,-0.1988665908575058,0.2640906572341919,0.2179332673549652,0.18701034784317017,-0.01984347775578499
0.6333333333333333,0.04393090680241585,0.03548966348171234,0.0,0.5785662531852722,0.0,0.0,-0.8156353831291199,0.5359750986099243,0.17027609050273895,0.0,0.0,0.0,-3.133183717727661,0.45004066824913025,0.7180528044700623,0.4221908748149872,0.5693792700767517,-0.04596488177776337,-0.02604452706873417,-0.8203755021095276,0.01612052135169506,-0.13973601162433624,0.03896108269691467,-4.160882472991943,-0.14100150763988495,1.6340081691741943,0.4466390013694763,0.7292213439941406,0.4254639148712158,0.05397992208600044,0.09566141664981842,0.1953050196170807,0.4445176124572754,0.7248419523239136,0.42000001668930054,-0.3082190752029419,-3.0000007152557373,-1.350114345550537,-2.9985432624816895,-0.2051660418510437,-0.20310203731060028,-0.20554707944393158,-0.19807973504066467,0.5444866418838501,0.4132656455039978,0.3307684361934662,0.0944986566901207
0.65,0.0541970357298851,0.03718879818916321,0.0,0.5771458745002747,0.0,0.0,-0.816641092300415,0.6516252756118774,0.08267909288406372,0.0,0.0,0.0,0.7301194071769714,0.45018234848976135,0.71623694896698,0.42167991399765015,0.5808498859405518,-0.03558521717786789,-0.025461984798312187,-0.8128337264060974,-0.05331697314977646,-0.0488298125565052,-0.04428249970078468,2.446605682373047,-0.8215161561965942,9.070117950439453,0.4455784559249878,0.7320005297660828,0.42858532071113586,-0.19637057185173035,0.22441770136356354,0.21006159484386444,0.4445176124572754,0.7248419523239136,0.42000001668930054,-0.3582363426685333,-3.000000238418579,-1.4001082181930542,-2.9999804496765137,-0.1953023225069046,-0.19557234644889832,-0.19943705201148987,-0.19582900404930115,0.5979481339454651,0.4602457880973816,0.37990620732307434,0.15925739705562592
0.6666666666666666,0.06616535782814026,0.03550044819712639,0.0,0.5999986529350281,0.0,0.0,-0.8000010251998901,0.7749685049057007,-0.08264228701591492,0.0,0.0,0.0,4.161054611206055,0.4490470290184021,0.7153963446617126,0.4201197326183319,0.6163018941879272,0.0017476958455517888,-0.00229846709407866,-0.7875046730041504,-0.10780011117458344,-0.04945738986134529,-0.01141809020191431,0.1506079137325287,0.5494497418403625,-0.6324000358581543,0.4443899989128113,0.7359796762466431,0.4324771761894226,-0.07152368128299713,0.1850377321243286,0.26328614354133606,0.4445176124572754,0.7248419523239136,0.42000001668930054,-0.40826839208602905,-2.9992589950561523,-1.4500768184661865,-2.99908447265625,-0.18584425747394562,-0.18785737454891205,-0.19242271780967712,-0.19165261089801788,0.3753424286842346,0.3311781585216522,0.3501201868057251,0.24860849976539612
0.6833333333333333,0.07637704163789749,0.031191330403089523,0.0,0.6076580882072449,0.0,0.0,-0.794198751449585,0.5136541128158569,-0.3246176242828369,0.0,0.0,0.0,0.10493331402540207,0.44821399450302124,0.7149421572685242,0.4200000464916229,0.6129809617996216,-1.1650064379864489e-07,-9.153475843959313e-08,-0.7900975942611694,-0.02796912007033825,-0.014393432065844536,-5.677458830177784e-06,-0.0001259747368749231,-0.000292586802970618,-0.5331177115440369,0.44417238235473633,0.7385587692260742,0.4373788833618164,0.026547420769929886,0.11568104475736618,0.31533941626548767,0.4445176124572754,0.7248419523239136,0.42000001668930054,-0.458267480134964,-2.9997949600219727,-1.500077486038208,-2.999889612197876,-0.1808091253042221,-0.18292051553726196,-0.18645960092544556,-0.18641071021556854,0.27112847566604614,0.2920251786708832,0.38167881965637207,0.3798277676105499
0.7,0.08632791042327881,0.023804526776075363,0.0,0.5915294885635376,0.0,0.0,-0.8062833547592163,0.6355785131454468,-0.4998643100261688,0.0,0.0,0.0,-3.3383007049560547,0.4482137858867645,0.714942455291748,0.41999998688697815,0.6129812002182007,-2.2974286366661545e-06,-4.482093117985642e-06,-0.7900974154472351,-1.1365140380803496e-05,-0.00019520426576491445,-5.854340270161629e-05,0.0012716089840978384,-0.005716307554394007,-0.0004118637880310416,0.44667404890060425,0.7412329316139221,0.4498131275177002,0.3156780004501343,0.17736291885375977,1.2585102319717407,0.4445176124572754,0.7248419523239136,0.42000001668930054,-0.5082796812057495,-2.999965190887451,-1.5500956773757935,-2.9999992847442627,-0.17870543897151947,-0.18021149933338165,-0.18204261362552643,-0.18161125481128693,0.05309566855430603,0.09666325151920319,0.20301543176174164,0.2408824861049652
0.7166666666666667,0.10070838779211044,0.021662158891558647,0.0,0.5871847867965698,0.0,0.0,-0.8094528913497925,0.7846556901931763,-0.06404300034046173,0.0,0.0,0.0,0.5114830136299133,0.4482138156890869,0.7149425148963928,0.42000001668930054,0.6129810214042664,-2.4251662580354605e-06,-4.827326392842224e-06,-0.7900975942611694,7.728615310043097e-05,-0.0003648868587333709,-9.990180842578411e-05,0.008373858407139778,-0.0024828482419252396,-0.000494681647978723,0.45282086730003357,0.7442655563354492,0.4787808954715729,0.4574626684188843,0.37950706481933594,2.194284439086914,0.4445176124572754,0.7248419523239136,0.42000001668930054,-0.5582922697067261,-2.9999940395355225,-1.6001111268997192,-3.0,-0.18390226364135742,-0.18379051983356476,-0.1830773800611496,-0.18113037943840027,-0.17938433587551117,-0.13347642123699188,-0.030125021934509277,0.029348967596888542
0.7333333333333333,0.11044725775718689,0.01474195159971714,0.0,0.6077654361724854,0.0,0.0,-0.7941166162490845,0.5589221715927124,-0.5224071145057678,0.0,0.0,0.0,3.872117280960083,0.4482137858867645,0.714942455291748,0.42000001668930054,0.6129812002182007,-2.2315036858344683e-06,-4.761781383422203e-06,-0.7900974750518799,7.386910147033632e-05,-0.000366333028068766,-0.00010134605690836906,0.008400068618357182,-0.0025279938708990812,-0.0004885516245849431,0.4657963514328003,0.7472847700119019,0.5112380981445312,0.9288100600242615,-0.0566125214099884,1.8060485124588013,0.4445176124572754,0.7248419523239136,0.42000001668930054,-0.608299732208252,-2.999995470046997,-1.6501256227493286,-3.000000476837158,-0.18363036215305328,-0.1825723797082901,-0.17997139692306519,-0.1766464114189148,-0.012828756123781204,0.08692503720521927,0.2385956346988678,0.36723917722702026
0.75,0.1216643899679184,0.011509031057357788,0.0,0.6139324903488159,0.0,0.0,-0.7893585562705994,0.6747090220451355,-0.16612164676189423,0.0,0.0,0.0,-0.1256132572889328,0.4482138156890869,0.7149425148963928,0.42000001668930054,0.6129813194274902,-2.243527433165582e-06,-4.920231731375679e-06,-0.7900974154472351,7.408390956697986e-05,-0.00036626579822041094,-0.00010131322778761387,0.008396915160119534,-0.0025234336499124765,-0.0004889597767032683,0.48032110929489136,0.7442744970321655,0.5386715531349182,0.9525377750396729,-0.23771752417087555,1.5778321027755737,0.4445176124572754,0.7248419523239136,0.42000001668930054,-0.6583046913146973,-2.9999966621398926,-1.700140118598938,-3.000000238418579,-0.18629789352416992,-0.1832883208990097,-0.17800268530845642,-0.17229881882667542,0.011761478148400784,0.0867903083562851,0.20290829241275787,0.31067195534706116
0.7666666666666666,0.13417908549308777,0.005204508546739817,0.0,0.595845639705658,0.0,0.0,-0.8030989766120911,0.7919359803199768,-0.39909541606903076,0.0,0.0,0.0,-3.624561071395874,0.4482138156890869,0.7149425148963928,0.42000001668930054,0.6129811406135559,-2.2824390271125594e-06,-4.843095211981563e-06,-0.7900975346565247,7.431828271364793e-05,-0.0003661669325083494,-0.00010119704529643059,0.008395833894610405,-0.002521500689908862,-0.0004893140285275877,0.4971845746040344,0.7400210499763489,0.5656134486198425,1.0399391651153564,-0.4343600869178772,1.7736053466796875,0.4445176124572754,0.7248419523239136,0.42000001668930054,-0.7083077430725098,-2.999992609024048,-1.7501546144485474,-2.999999761581421,-0.18484525382518768,-0.18074160814285278,-0.1738051176071167,-0.16652168333530426,-0.0015000022249296308,0.08998632431030273,0.20463351905345917,0.3143039643764496
0.7833333333333333,0.14875048398971558,0.0023911308962851763,0.0,0.5916693806648254,0.0,0.0,-0.8061807155609131,0.9119127988815308,-0.09820058941841125,0.0,0.0,0.0,0.3451386094093323,0.4482138156890869,0.7149425148963928,0.42000001668930054,0.6129812598228455,-2.2664064545097062e-06,-4.959170382790035e-06,-0.7900974154472351,7.423093484248966e-05,-0.0003661472874227911,-0.00010121939703822136,0.008395166136324406,-0.002521821530535817,-0.0004892231081612408,0.5119544267654419,0.7347224950790405,0.5947480797767639,0.7344871759414673,-0.18267515301704407,1.7737411260604858,0.4445176124572754,0.7248419523239136,0.42000001668930054,-0.7232280373573303,0.8837174773216248,-1.8001576662063599,-3.000000476837158,-0.18502506613731384,-0.17980332672595978,-0.17152169346809387,-0.1629740446805954,0.08748182654380798,0.11440370231866837,0.1471337080001831,0.17636583745479584
0.8,0.16038727760314941,0.002288000425323844,0.0,0.6117711663246155,0.0,0.0,-0.7910348176956177,0.6247395873069763,0.044288232922554016,0.0,0.0,0.0,3.864637613296509,0.4482138156890869,0.7149425148963928,0.42000001668930054,0.6129810810089111,-2.2645763237960637e-06,-4.885525868303375e-06,-0.7900975346565247,7.433076098095626e-05,-0.0003662125382106751,-0.00010120216757059097,0.00839711632579565,-0.002521315822377801,-0.000489353493321687,0.5226521492004395,0.732658863067627,0.6212245225906372,0.501698911190033,-0.06818264722824097,1.492184042930603,0.4445176124572754,0.7248419523239136,0.42000001668930054,-0.6976308822631836,2.0625030994415283,-1.7606451511383057,3.000000476837158,-0.1811206042766571,-0.17606887221336365,-0.1679472029209137,-0.15957359969615936,0.3135136365890503,0.2827071249485016,0.2457158863544464,0.20782609283924103
0.8166666666666667,0.16723373532295227,-0.0018819953547790647,0.0,0.6184690594673157,0.0,0.0,-0.7858091592788696,0.3729691207408905,-0.27698299288749695,0.0,0.0,0.0,-0.019596368074417114,0.4482138156890869,0.7149425148963928,0.42000001668930054,0.6129812002182007,-2.2872011413710425e-06,-4.813768100575544e-06,-0.7900974154472351,7.449520489899442e-05,-0.0003662333474494517,-0.00010115467011928558,0.008398182690143585,-0.002519960282370448,-0.000489874801132828,0.5260931253433228,0.7326557636260986,0.6419409513473511,-0.09282135963439941,-0.1177523285150528,1.076002836227417,0.4445176124572754,0.7248419523239136,0.42000001668930054,-0.6986083984375,-1.8369487524032593,-1.7105848789215088,3.0,-0.1728760451078415,-0.16876284778118134,-0.1617535501718521,-0.15448103845119476,0.38240736722946167,0.353486031293869,0.3062944710254669,0.25562629103660583
0.8333333333333334,0.17109845578670502,-0.0011601947480812669,0.0,0.6355417370796204,0.0,0.0,-0.7720665335655212,0.1872590035200119,0.04448814317584038,0.0,0.0,0.0,3.3909788131713867,0.4482138156890869,0.7149425148963928,0.42000001668930054,0.6129810214042664,-2.2441536202677526e-06,-4.92298158860649e-06,-0.7900975346565247,7.387273944914341e-05,-0.00036601981264539063,-0.00010130740702152252,0.008390798233449459,-0.0025250946637243032,-0.0004882450448349118,0.5269260406494141,0.7273461818695068,0.6545559167861938,0.28206777572631836,-0.31037086248397827,0.5209876298904419,0.4445176124572754,0.7248419523239136,0.42000001668930054,-0.6974345445632935,1.670121192932129,-1.660524606704712,2.999999761581421,-0.17056158185005188,-0.1659444272518158,-0.15884384512901306,-0.1516154557466507,0.279712051153183,0.2824232578277588,0.26283034682273865,0.24040977656841278
0.85,0.1720571517944336,-0.004508074373006821,0.0,0.6376962661743164,0.0,0.0,-0.7702879309654236,-0.0011003129184246063,-0.1843598484992981,0.0,0.0,0.0,-0.6239654421806335,0.4482137858867645,0.7149425148963928,0.42000001668930054,0.6129810810089111,-2.3022698769636918e-06,-4.859951786784222e-06,-0.7900974750518799,7.635146903339773e-05,-0.00036644397187046707,-0.00010066409595310688,0.00840790942311287,-0.0025046563241630793,-0.0004941395600326359,0.5281343460083008,0.7237035036087036,0.6618492603302002,-0.19170953333377838,-0.19700314104557037,0.45295852422714233,0.4445176124572754,0.7248419523239136,0.42000001668930054,-0.690960705280304,-0.6942613124847412,-1.610464334487915,2.999993324279785,-0.164676696062088,-0.16045385599136353,-0.15413425862789154,-0.14771099388599396,0.2503293752670288,0.2354295551776886,0.19397568702697754,0.14879444241523743
0.8666666666666667,0.17444156110286713,-0.0023406632244586945,0.0,0.6503822803497314,0.0,0.0,-0.7596070766448975,0.17499487102031708,0.10331322252750397,0.0,0.0,0.0,2.5204885005950928,0.4482138156890869,0.7149425148963928,0.42000001668930054,0.6129807829856873,-2.2676326807413716e-06,-4.871521468885476e-06,-0.7900977730751038,7.389147503999993e-05,-0.0003659092471934855,-0.00010130531154572964,0.008387308567762375,-0.0025255565997213125,-0.0004882125649601221,0.5276367664337158,0.7182449102401733,0.6684191226959229,0.2605369985103607,-0.23834998905658722,0.401623010635376,0.4445176124572754,0.7248419523239136,0.42000001668930054,-0.6742581725120544,2.414097547531128,-1.5604060888290405,2.999999523162842,-0.16419638693332672,-0.15960051119327545,-0.1533249169588089,-0.14699380099773407,0.2298562377691269,0.19834527373313904,0.1525111347436905,0.11497495323419571
0.8833333333333333,0.17465585470199585,-0.005263743456453085,0.0,0.6487237215042114,0.0,0.0,-0.761023998260498,-0.02905590459704399,-0.19336123764514923,0.0,0.0,0.0,-1.113462209701538,0.4482137858867645,0.7149425148963928,0.42000001668930054,0.6129809617996216,-2.237656417491962e-06,-4.62076377516496e-06,-0.7900975942611694,7.274183008121327e-05,-0.00036554536200128496,-0.00010155956260859966,0.00837648380547762,-0.002539181848987937,-0.0004856136511079967,0.5312848091125488,0.7153751850128174,0.6756244897842407,0.09893742203712463,-0.24924513697624207,0.5389043092727661,0.4445176124572754,0.7248419523239136,0.42000001668930054,-0.669364333152771,-1.4906408786773682,-1.5103496313095093,2.999999761581421,-0.1586097925901413,-0.1550016850233078,-0.14991380274295807,-0.14459097385406494,0.1933538317680359,0.15550941228866577,0.10391713678836823,0.06033508852124214
0.9,0.1766899973154068,-0.0037436012644320726,0.0,0.658369779586792,0.0,0.0,-0.7526946663856506,0.16122624278068542,0.0980582982301712,0.0,0.0,0.0,2.1854310035705566,0.4482138156890869,0.7149425148963928,0.42000001668930054,0.6129809617996216,-2.275342694701976e-06,-4.669141162594315e-06,-0.7900975942611694,7.37436130293645e-05,-0.0003656902990769595,-0.00010129553265869617,0.00838164146989584,-0.0025263773277401924,-0.00048763450467959046,0.5360872745513916,0.7089212536811829,0.6816718578338623,0.558937668800354,-0.35594412684440613,0.2783193290233612,0.4445176124572754,0.7248419523239136,0.42000001668930054,-0.6645289659500122,1.782172679901123,-1.4603160619735718,2.999999761581421,-0.15807321667671204,-0.1545223891735077,-0.1497015655040741,-0.14452563226222992,0.15568237006664276,0.1268368512392044,0.09173509478569031,0.06918350607156754
