vladlanda/robotic-transformer/data/env_000_episode_0065.csv
sim_time_s,robot_box_x,robot_box_y,robot_box_z,robot_box_quat_w,robot_box_quat_x,robot_box_quat_y,robot_box_quat_z,robot_box_linvel_x,robot_box_linvel_y,robot_box_linvel_z,robot_box_angvel_x,robot_box_angvel_y,robot_box_angvel_z,cube_world_x,cube_world_y,cube_world_z,cube_quat_w,cube_quat_x,cube_quat_y,cube_quat_z,cube_linvel_x,cube_linvel_y,cube_linvel_z,cube_angvel_x,cube_angvel_y,cube_angvel_z,endpoint_world_x,endpoint_world_y,endpoint_world_z,endpoint_linvel_x,endpoint_linvel_y,endpoint_linvel_z,target_cube_world_x,target_cube_world_y,target_cube_world_z,gripper_actual_pos_rad_gp_leftgearjoint,gripper_actual_vel_rad_s_gp_leftgearjoint,gripper_actual_pos_rad_gp_rotatingjoint,gripper_actual_vel_rad_s_gp_rotatingjoint,motor_angle_rad_joint1,motor_angle_rad_joint2,motor_angle_rad_joint3,motor_angle_rad_joint4,motor_speed_rad_s_joint1,motor_speed_rad_s_joint2,motor_speed_rad_s_joint3,motor_speed_rad_s_joint4
0.0,0.0,0.0,0.0,1.0,0.0,0.0,0.0,0.0,0.0,0.0,0.0,0.0,0.0,-0.36316627264022827,0.7383589148521423,0.41999998688697815,1.0,0.0,0.0,0.0,0.0,0.0,0.0,0.0,0.0,0.0,3.42540442943573e-06,-0.005000244826078415,1.313499927520752,0.0,0.0,0.0,0.424750953912735,0.6753541231155396,0.42000001668930054,-1.5707999467849731,0.0,0.0,0.0,0.0,0.0,0.0,0.0,0.0,0.0,0.0,0.0
0.016666666666666666,0.0028917354065924883,0.0021618350874632597,0.0,0.9998393654823303,0.0,0.0,0.017923109233379364,0.24120940268039703,0.18183021247386932,0.0,0.0,0.0,3.141747236251831,-0.3631663918495178,0.7383586168289185,0.41999998688697815,1.0,3.279964630564791e-06,-8.339746386809566e-07,8.465587342243452e-08,-1.9833529222523794e-05,0.00017983045836444944,-6.132945418357849e-05,0.0009432713268324733,-0.004689474124461412,-0.00031981561915017664,-0.007104041054844856,0.0034208386205136776,1.3159408569335938,-0.8130978345870972,0.9882679581642151,0.1809731125831604,0.424750953912735,0.6753541231155396,0.42000001668930054,-1.5301094055175781,3.0000016689300537,-0.0458514466881752,-3.0,0.0008722881902940571,0.0007989607402123511,0.0007133877952583134,0.0006136732990853488,0.11099182069301605,0.09762763977050781,0.08340580761432648,0.06828685104846954
0.03333333333333333,0.008977441117167473,0.006774566136300564,0.0,0.9998282194137573,0.0,0.0,0.018533915281295776,0.407199889421463,0.31479978561401367,0.0,0.0,0.0,-0.8687442541122437,-0.3631665110588074,0.7383585572242737,0.4200000464916229,1.0,3.3908354453160428e-06,-2.1324485715012997e-06,-3.710144014235084e-08,0.00026357831666246057,0.00026937946677207947,-0.00010509486310184002,-0.0017707672668620944,0.004130808170884848,-0.000135478752781637,-0.026338784024119377,0.026457376778125763,1.316744089126587,-1.4577317237854004,1.6285170316696167,-0.06719746440649033,0.424750953912735,0.6753541231155396,0.42000001668930054,-1.4800900220870972,3.000002384185791,-0.09589128941297531,-3.0000007152557373,0.002867352217435837,0.002485840581357479,0.0020664851181209087,0.001606456353329122,0.14916397631168365,0.12016859650611877,0.08968012034893036,0.05760618671774864
0.05,0.018488595262169838,0.01387674268335104,0.0,0.9999625086784363,0.0,0.0,-0.008656969293951988,0.6360540390014648,0.47200092673301697,0.0,0.0,0.0,-4.072776794433594,-0.36316654086112976,0.7383586168289185,0.4200000464916229,1.0,3.7651125239790417e-06,-2.211879063906963e-06,5.622505128144439e-09,0.000265308452071622,0.0002669153327587992,-0.00010440615005791187,-0.001724260626360774,0.004177352879196405,-0.00012949221127200872,-0.05323833227157593,0.05820561200380325,1.3128341436386108,-1.7803947925567627,2.106489658355713,-0.39395928382873535,0.424750953912735,0.6753541231155396,0.42000001668930054,-1.4300717115402222,2.999999523162842,-0.14592663943767548,-3.000000476837158,0.005508639384061098,0.004544323775917292,0.0035076362546533346,0.0023947053123265505,0.17789962887763977,0.13333381712436676,0.08684879541397095,0.038369327783584595
0.06666666666666667,0.03086754120886326,0.02336912974715233,0.0,0.9998382925987244,0.0,0.0,-0.01798252761363983,0.7738561630249023,0.6163435578346252,0.0,0.0,0.0,-0.024089990183711052,-0.36316654086112976,0.7383585572242737,0.4200000464916229,0.9999999403953552,3.4066883927152958e-06,-2.285532218593289e-06,4.300976286231162e-07,0.0002670241810847074,0.00026791772688739,-0.00010438147000968456,-0.00174069800414145,0.00421178387477994,-0.00012850729399360716,-0.08610952645540237,0.09270700812339783,1.3040186166763306,-2.028975009918213,2.176668405532837,-0.6550760865211487,0.424750953912735,0.6753541231155396,0.42000001668930054,-1.380047082901001,2.9999988079071045,-0.11671715974807739,2.999999761581421,0.007548877969384193,0.005757571663707495,0.003853508038446307,0.001832199515774846,0.09566228836774826,0.03712894022464752,-0.023564986884593964,-0.08646548539400101
0.08333333333333333,0.036918025463819504,0.03676948323845863,0.0,0.9991281032562256,0.0,0.0,-0.041748952120542526,0.22792191803455353,0.8778202533721924,0.0,0.0,0.0,-3.7971253395080566,-0.36316654086112976,0.7383585572242737,0.4200000464916229,0.9999999403953552,3.626031229941873e-06,-2.3352447442448465e-06,3.032197639640799e-07,0.0002661392209120095,0.0002668500819709152,-0.00010405294597148895,-0.0017282416811212897,0.00419628107920289,-0.00012790791515726596,-0.11469931900501251,0.13276322185993195,1.2911713123321533,-1.435530662536621,2.6378989219665527,-0.815218448638916,0.424750953912735,0.6753541231155396,0.42000001668930054,-1.3300480842590332,3.0000011920928955,-0.1487240195274353,-2.999999761581421,0.0028428940568119287,0.00024257793847937137,-0.002524818992242217,-0.00546740647405386,-0.4107418358325958,-0.4716712236404419,-0.5353579521179199,-0.6020369529724121
0.1,0.04680217057466507,0.05173126235604286,0.0,0.9956589937210083,0.0,0.0,-0.0930761992931366,0.7381246089935303,0.9042830467224121,0.0,0.0,0.0,-6.953697681427002,-0.36316654086112976,0.7383585572242737,0.4200000464916229,1.0,3.4220790894323727e-06,-2.3084901386027923e-06,1.7962952369998675e-07,0.00026681559393182397,0.0002680041070561856,-0.00010440824553370476,-0.001743067754432559,0.004207110498100519,-0.0001289140636799857,-0.14014069736003876,0.17848151922225952,1.2777191400527954,-1.615216612815857,2.8839781284332275,-0.8575131297111511,0.424750953912735,0.6753541231155396,0.42000001668930054,-1.2800430059432983,2.999999523162842,-0.18725287914276123,-1.7001738548278809,0.0004902841174043715,-0.0036589016672223806,-0.007978079840540886,-0.012475429102778435,-0.05093050003051758,-0.151128351688385,-0.25026795268058777,-0.3482803404331207
0.11666666666666667,0.05536183714866638,0.06378953158855438,0.0,0.9921757578849792,0.0,0.0,-0.12484872341156006,0.541404128074646,0.6844643950462341,0.0,0.0,0.0,-2.5668728351593018,-0.36316654086112976,0.7383586168289185,0.4200000464916229,1.0,3.7114921269676415e-06,-2.3325701477006078e-06,2.574244888364774e-07,0.0002648564986884594,0.0002663535706233233,-0.0001042329240590334,-0.0017182455630972981,0.004170000087469816,-0.00012915577099192888,-0.17136327922344208,0.22469893097877502,1.2613329887390137,-1.8436863422393799,2.9963269233703613,-1.0081332921981812,0.424750953912735,0.6753541231155396,0.42000001668930054,-1.2300313711166382,2.9999890327453613,-0.1471329778432846,3.0000011920928955,-0.0025091480929404497,-0.008214951492846012,-0.014063910581171513,-0.020063944160938263,-0.0927189439535141,-0.2040582001209259,-0.31199920177459717,-0.41637712717056274
0.13333333333333333,0.061746008694171906,0.07328113913536072,0.0,0.986087441444397,0.0,0.0,-0.1662275791168213,0.31551989912986755,0.48295363783836365,0.0,0.0,0.0,-5.743954658508301,-0.36316654086112976,0.7383585572242737,0.4200000464916229,0.9999999403953552,3.4247264011355583e-06,-2.301872882526368e-06,1.559877063073145e-07,0.0002670699032023549,0.000268113479251042,-0.0001044438686221838,-0.0017433533212170005,0.004212031606584787,-0.00012877589324489236,-0.1991736739873886,0.2783985137939453,1.2424943447113037,-1.4737519025802612,3.5460329055786133,-1.2497576475143433,0.424750953912735,0.6753541231155396,0.42000001668930054,-1.1823770999908447,2.702418565750122,-0.17895105481147766,-3.0,-0.005562792997807264,-0.01309057604521513,-0.020695962011814117,-0.028384782373905182,-0.26604336500167847,-0.3678640127182007,-0.46572521328926086,-0.5594828128814697
0.15,0.06395774334669113,0.08355630189180374,0.0,0.9735237956047058,0.0,0.0,-0.22858569025993347,0.0614422932267189,0.6738604307174683,0.0,0.0,0.0,-8.796024322509766,-0.36316654086112976,0.7383585572242737,0.4200000464916229,1.0,3.7138852349016815e-06,-2.2076646928326227e-06,-1.690935107490077e-07,0.0002635338169056922,0.00026536203222349286,-0.00010422198101878166,-0.0017013110918924212,0.0041441041976213455,-0.00012960704043507576,-0.22757168114185333,0.34068548679351807,1.2157444953918457,-1.6744999885559082,4.036593437194824,-1.9483366012573242,0.424750953912735,0.6753541231155396,0.42000001668930054,-1.1531379222869873,0.9349188804626465,-0.14526985585689545,3.000000476837158,-0.011594842188060284,-0.020504357293248177,-0.029413416981697083,-0.03832634910941124,-0.4296324551105499,-0.4903680682182312,-0.546572208404541,-0.5982528924942017
0.16666666666666666,0.06959491968154907,0.09596651047468185,0.0,0.9615744948387146,0.0,0.0,-0.27454426884651184,0.33765673637390137,0.7887948155403137,0.0,0.0,0.0,-4.597294330596924,-0.36316654086112976,0.7383585572242737,0.4200000464916229,0.9999999403953552,3.638363523350563e-06,-2.278693045809632e-06,2.700642482977855e-07,0.0002668263914529234,0.00026750031975097954,-0.00010410090908408165,-0.0017399657517671585,0.004210122860968113,-0.00012781827535945922,-0.2625178396701813,0.4059199392795563,1.1774365901947021,-1.9928184747695923,4.1977314949035645,-2.6930885314941406,0.424750953912735,0.6753541231155396,0.42000001668930054,-1.1103150844573975,3.000000476837158,-0.17706042528152466,-2.999999761581421,-0.017798366025090218,-0.027499474585056305,-0.037125855684280396,-0.04668425768613815,-0.5339543223381042,-0.5455226302146912,-0.5544627904891968,-0.5610864162445068
0.18333333333333332,0.07206104695796967,0.10566396266222,0.0,0.9570416212081909,0.0,0.0,-0.28995054960250854,0.10570694506168365,0.511355459690094,0.0,0.0,0.0,-0.48704105615615845,-0.36316654086112976,0.7383585572242737,0.4200000464916229,1.0,3.3864323540910846e-06,-2.300143023603596e-06,1.4392101377325162e-07,0.00026674565742723644,0.0002678720629774034,-0.00010437029413878918,-0.0017412372399121523,0.004205969627946615,-0.0001287883351324126,-0.2986527681350708,0.47180062532424927,1.1245319843292236,-1.969299554824829,4.090577125549316,-3.5670039653778076,0.424750953912735,0.6753541231155396,0.42000001668930054,-1.0603132247924805,3.0,-0.22708910703659058,-3.000000238418579,-0.02885552868247032,-0.03820863366127014,-0.04746607318520546,-0.056645385921001434,-0.7017662525177002,-0.6677024364471436,-0.6327956914901733,-0.5977009534835815
0.2,0.07481735944747925,0.11641135811805725,0.0,0.9489197134971619,0.0,0.0,-0.31551769375801086,0.192512646317482,0.6605779528617859,0.0,0.0,0.0,-4.065412998199463,-0.36316654086112976,0.7383586168289185,0.4200000464916229,1.0,3.6755022847501095e-06,-2.3264412902790355e-06,2.211315717204343e-07,0.00026484468253329396,0.00026631311629898846,-0.00010421779006719589,-0.0017176943365484476,0.0041699339635670185,-0.00012910230725537986,-0.3282262980937958,0.5402401685714722,1.0586051940917969,-1.568385124206543,4.093229293823242,-4.2624664306640625,0.424750953912735,0.6753541231155396,0.42000001668930054,-1.0103086233139038,3.000001907348633,-0.2771156132221222,-3.0000009536743164,-0.042436983436346054,-0.05091225728392601,-0.05930130556225777,-0.06763645261526108,-0.8794355392456055,-0.8181328773498535,-0.7579819560050964,-0.6998031139373779
0.21666666666666667,0.07562867552042007,0.12491478770971298,0.0,0.9314635992050171,0.0,0.0,-0.3638344705104828,-0.008713175542652607,0.42362919449806213,0.0,0.0,0.0,-7.379055976867676,-0.36316654086112976,0.7383585572242737,0.4200000464916229,1.0,3.322260681670741e-06,-2.2079154859966366e-06,2.7427799409451836e-07,0.0002666290965862572,0.0002674963907338679,-0.00010426202788949013,-0.0017359007615596056,0.004204810131341219,-0.00012833699292968959,-0.3503410518169403,0.6097267866134644,0.9776344299316406,-0.9475904703140259,4.167255878448486,-5.3337297439575195,0.424750953912735,0.6753541231155396,0.42000001668930054,-0.9603017568588257,2.9999992847442627,-0.32714223861694336,-3.000000238418579,-0.05840909108519554,-0.06622129678726196,-0.07353267818689346,-0.08048519492149353,-0.9753211140632629,-0.9609221816062927,-0.8997257947921753,-0.8029430508613586
0.23333333333333334,0.07754693925380707,0.1338641494512558,0.0,0.9185271263122559,0.0,0.0,-0.39535799622535706,0.16378864645957947,0.5790145993232727,0.0,0.0,0.0,-3.0129027366638184,-0.36316654086112976,0.7383585572242737,0.4200000464916229,1.0,3.656489070635871e-06,-2.3733603029540973e-06,-4.076755999449233e-07,0.0002661180915310979,0.0002672612317837775,-0.0001042359508574009,-0.0017336306627839804,0.004194698762148619,-0.00012855089153163135,-0.3684375286102295,0.668319821357727,0.8818152546882629,-0.750947117805481,3.20269513130188,-6.125392913818359,0.424750953912735,0.6753541231155396,0.42000001668930054,-0.9102929830551147,2.9999961853027344,-0.37717151641845703,-2.9999990463256836,-0.07482187449932098,-0.08256115764379501,-0.0898168534040451,-0.09570912271738052,-0.9876413345336914,-0.9764460325241089,-0.9640777111053467,-0.9370483160018921
0.25,0.07766839861869812,0.14019359648227692,0.0,0.9182640314102173,0.0,0.0,-0.3959686756134033,-0.052274174988269806,0.29831501841545105,0.0,0.0,0.0,0.8035929203033447,-0.36316654086112976,0.7383586168289185,0.4200000464916229,1.0,3.630435230661533e-06,-2.2425372208090266e-06,1.1225562701611125e-08,0.0002667999651748687,0.0002670606190804392,-0.00010390975512564182,-0.0017342327628284693,0.004210583865642548,-0.0001270299544557929,-0.3839254677295685,0.7086449861526489,0.7768090963363647,-0.7673238515853882,1.8414430618286133,-6.4831929206848145,0.424750953912735,0.6753541231155396,0.42000001668930054,-0.860283374786377,2.999990463256836,-0.4272027015686035,-3.0,-0.09139647334814072,-0.09907368570566177,-0.10626839846372604,-0.11211572587490082,-0.9906978607177734,-0.9878023266792297,-0.9797837734222412,-0.9734170436859131
0.26666666666666666,0.07444293797016144,0.14253129065036774,0.0,0.9126384854316711,0.0,0.0,-0.4087676703929901,-0.2484443336725235,0.08822991698980331,0.0,0.0,0.0,-2.5261826515197754,-0.3631665110588074,0.7383585572242737,0.4200000464916229,0.9999999403953552,3.7400498058559606e-06,-2.2362221443472663e-06,4.499843271332793e-07,0.00026479526422917843,0.0002667304943315685,-0.00010454165749251842,-0.0017189675709232688,0.004166619386523962,-0.00013016564480494708,-0.3916589617729187,0.7331490516662598,0.663914680480957,-0.18153412640094757,0.969718873500824,-6.877071380615234,0.424750953912735,0.6753541231155396,0.42000001668930054,-0.8102743625640869,2.9999942779541016,-0.4772343635559082,-3.000002384185791,-0.10820348560810089,-0.11580914258956909,-0.12293878942728043,-0.12872719764709473,-0.9943138360977173,-0.995283842086792,-0.9960231781005859,-0.9961915612220764
0.2833333333333333,0.06887847930192947,0.1423485279083252,0.0,0.9138062596321106,0.0,0.0,-0.40615034103393555,-0.3818877339363098,-0.060014642775058746,0.0,0.0,0.0,1.1988400220870972,-0.36316654086112976,0.7383585572242737,0.4200000464916229,1.0,3.3915318908839254e-06,-2.2911408450454473e-06,1.2461448761769134e-07,0.00026677080313675106,0.0002678920573089272,-0.00010437588207423687,-0.0017412164015695453,0.004206300713121891,-0.00012878398410975933,-0.39282935857772827,0.7409616708755493,0.5528979301452637,0.12534084916114807,-0.07720070332288742,-6.414451599121094,0.424750953912735,0.6753541231155396,0.42000001668930054,-0.760265588760376,3.000001907348633,-0.5272646546363831,-2.999997615814209,-0.1254863142967224,-0.13293412327766418,-0.13994759321212769,-0.14564689993858337,-1.0061126947402954,-1.0046181678771973,-1.0034757852554321,-1.002564549446106
0.3,0.06144647300243378,0.1396222859621048,0.0,0.9087609648704529,0.0,0.0,-0.41731709241867065,-0.5235050916671753,-0.20863623917102814,0.0,0.0,0.0,-2.317096471786499,-0.36316654086112976,0.7383586168289185,0.4200000464916229,1.0,3.6806275147682754e-06,-2.319080067536561e-06,2.0109595766371058e-07,0.0002647907240316272,0.0002662569750100374,-0.00010421173647046089,-0.0017167399637401104,0.004168936051428318,-0.00012909939687233418,-0.38393634557724,0.7400162220001221,0.4496738314628601,0.9094670414924622,-0.1446537971496582,-5.791571617126465,0.424750953912735,0.6753541231155396,0.42000001668930054,-0.7102576494216919,2.9999985694885254,-0.577293336391449,-3.0000009536743164,-0.14329393208026886,-0.15049625933170319,-0.15732386708259583,-0.16287507116794586,-1.0202691555023193,-1.0153696537017822,-1.0116186141967773,-1.0086052417755127
0.31666666666666665,0.05152863636612892,0.13442617654800415,0.0,0.9107973575592041,0.0,0.0,-0.4128536581993103,-0.6324726939201355,-0.3541700839996338,0.0,0.0,0.0,1.494978904724121,-0.3635885715484619,0.7370345592498779,0.4207053780555725,0.9997761845588684,0.010346926748752594,-0.007232930976897478,-0.016972804442048073,0.015209497883915901,-0.005038090981543064,0.0891566053032875,2.5020885467529297,-1.9925111532211304,0.5433434844017029,-0.37688910961151123,0.7407597303390503,0.41652199625968933,0.29002997279167175,0.3196166753768921,-0.135335311293602,0.424750953912735,0.6753541231155396,0.42000001668930054,-0.6604867577552795,2.968838930130005,-0.6278818249702454,-2.790067434310913,-0.15114551782608032,-0.15900568664073944,-0.16631557047367096,-0.17211344838142395,-0.2411680817604065,-0.279541939496994,-0.2966732084751129,-0.28842729330062866
0.3333333333333333,0.03951045870780945,0.12678135931491852,0.0,0.9063762426376343,0.0,0.0,-0.42247143387794495,-0.7643091082572937,-0.49913543462753296,0.0,0.0,0.0,-2.1945722103118896,-0.36168599128723145,0.7408571243286133,0.42380133271217346,0.9925775527954102,0.04173137620091438,0.04930991679430008,-0.10303805023431778,0.12794296443462372,0.23458194732666016,0.1471630483865738,4.173539161682129,5.896712779998779,-9.597071647644043,-0.3740386366844177,0.7463043928146362,0.4268229603767395,0.3948816657066345,0.3489932715892792,-0.15249048173427582,0.424750953912735,0.6753541231155396,0.42000001668930054,-0.6104793548583984,2.9999845027923584,-0.6779657602310181,-2.999974250793457,-0.15413174033164978,-0.16222864389419556,-0.16935840249061584,-0.17454193532466888,-0.33037886023521423,-0.29284679889678955,-0.2370903491973877,-0.16534334421157837
0.35,0.025443045422434807,0.11681599169969559,0.0,0.9087430238723755,0.0,0.0,-0.4173561632633209,-0.8871354460716248,-0.6378843784332275,0.0,0.0,0.0,1.6064016819000244,-0.3591015338897705,0.7451686263084412,0.4247114658355713,0.9771537184715271,0.05632283166050911,0.07756470888853073,-0.18968895077705383,0.2679058015346527,0.3803412616252899,0.03838465362787247,1.6926660537719727,0.09229946881532669,-16.069629669189453,-0.3655034601688385,0.7537729740142822,0.42432183027267456,0.5995450019836426,0.4889086186885834,-0.13049326837062836,0.424750953912735,0.6753541231155396,0.42000001668930054,-0.5604743361473083,2.9999775886535645,-0.7280042767524719,-2.9998581409454346,-0.16136763989925385,-0.16804270446300507,-0.17346756160259247,-0.17675082385540009,-0.44574832916259766,-0.33746466040611267,-0.21344073116779327,-0.08081593364477158
0.36666666666666664,0.014776456169784069,0.10394690185785294,0.0,0.9046695828437805,0.0,0.0,-0.4261138141155243,-0.5554144382476807,-0.822020947933197,0.0,0.0,0.0,-2.076256275177002,-0.35230135917663574,0.7536783814430237,0.4246464669704437,0.9725663661956787,0.06902385503053665,0.055399250239133835,-0.21513088047504425,0.46461403369903564,0.5463712215423584,-0.029504233971238136,-0.2788306474685669,-2.9691944122314453,-3.711928367614746,-0.3555111885070801,0.7594619989395142,0.4228127598762512,0.7101212739944458,0.3425236940383911,-0.0775572806596756,0.424750953912735,0.6753541231155396,0.42000001668930054,-0.5104696154594421,2.9999990463256836,-0.778058648109436,-2.9999923706054688,-0.16862408816814423,-0.17316880822181702,-0.17617478966712952,-0.17689909040927887,-0.4067820608615875,-0.2655751705169678,-0.1081530749797821,0.05543022230267525
0.3833333333333333,0.0022611313033849,0.08940901607275009,0.0,0.8870078921318054,0.0,0.0,-0.4617542028427124,-0.8258308172225952,-0.8971232771873474,0.0,0.0,0.0,-5.720019817352295,-0.3401029407978058,0.7664350271224976,0.42381998896598816,0.9670572280883789,0.05960883945226669,0.021210674196481705,-0.24657078087329865,1.0019237995147705,0.9888566732406616,0.022789089009165764,-3.9911208152770996,-2.9401490688323975,-5.838035583496094,-0.34056591987609863,0.7684179544448853,0.42303216457366943,1.1215333938598633,0.7882663011550903,0.0874679759144783,0.424750953912735,0.6753541231155396,0.42000001668930054,-0.46046561002731323,2.999971628189087,-0.8281149864196777,-2.999971866607666,-0.17691153287887573,-0.17871883511543274,-0.17869789898395538,-0.17629466950893402,-0.46076273918151855,-0.2980943024158478,-0.11742688715457916,0.06957247853279114
0.4,-0.00755069125443697,0.07192983478307724,0.0,0.8538567423820496,0.0,0.0,-0.5205081105232239,-0.5357261896133423,-1.0943385362625122,0.0,0.0,0.0,-8.882978439331055,-0.3079221546649933,0.7877900004386902,0.4259677231311798,0.9530410766601562,0.03747234120965004,-0.011188816279172897,-0.30030539631843567,3.1222126483917236,1.3799445629119873,0.2146061360836029,21.85149574279785,-15.740358352661133,5.598789215087891,-0.3074767589569092,0.7881786823272705,0.42562365531921387,2.966923475265503,1.5953401327133179,0.34596025943756104,0.424750953912735,0.6753541231155396,0.42000001668930054,-0.4109719693660736,2.7013206481933594,-0.8781439065933228,-3.000002145767212,-0.18516185879707336,-0.18374782800674438,-0.18022708594799042,-0.17426244914531708,-0.5920920372009277,-0.3567328155040741,-0.10870957374572754,0.13762244582176208
0.4166666666666667,-0.014764652587473392,0.05999605357646942,0.0,0.8025673627853394,0.0,0.0,-0.5965614914894104,-0.3805769681930542,-0.5856032371520996,0.0,0.0,0.0,-11.831628799438477,-0.23196420073509216,0.8166418075561523,0.431461364030838,0.9280045628547668,0.09442240744829178,-0.055760692805051804,-0.3560655117034912,6.179710865020752,1.8020249605178833,0.4029485285282135,14.83861255645752,-16.568063735961914,7.114230632781982,-0.23155291378498077,0.8172245621681213,0.43145889043807983,5.755337715148926,1.9962542057037354,0.5251435041427612,0.424750953912735,0.6753541231155396,0.42000001668930054,-0.38434576988220215,1.0595965385437012,-0.8432080149650574,2.9985361099243164,-0.20078955590724945,-0.19604317843914032,-0.18704818189144135,-0.1759926676750183,-0.8912778496742249,-0.825117290019989,-0.5043601393699646,-0.21587184071540833
0.43333333333333335,-0.018654225394129753,0.051583532243967056,0.0,0.76131671667099,0.0,0.0,-0.6483801603317261,-0.17937031388282776,-0.4688204228878021,0.0,0.0,0.0,-6.786437034606934,-0.13642725348472595,0.8464171290397644,0.44195327162742615,0.8932017087936401,0.12962523102760315,-0.0840924009680748,-0.4222753047943115,6.059911251068115,1.1668996810913086,0.6723665595054626,7.236099720001221,-12.700172424316406,4.608326435089111,-0.13540993630886078,0.8481579422950745,0.44197890162467957,5.881987571716309,1.5520045757293701,0.7264797687530518,0.424750953912735,0.6753541231155396,0.42000001668930054,-0.3674069046974182,1.0808717012405396,-0.8699264526367188,-3.000000476837158,-0.21082709729671478,-0.2069825828075409,-0.1957254558801651,-0.18086859583854675,-0.5336205363273621,-0.5700618028640747,-0.4682390093803406,-0.2896132469177246
0.45,-0.024457797408103943,0.04036330431699753,0.0,0.7405450344085693,0.0,0.0,-0.6720067262649536,-0.33835306763648987,-0.8569310903549194,0.0,0.0,0.0,-2.6551108360290527,-0.03586520999670029,0.8622437119483948,0.45414334535598755,0.8239830136299133,0.13734941184520721,-0.08662973344326019,-0.5428465604782104,6.030429840087891,-0.25338035821914673,0.523788332939148,-4.09885835647583,-20.874675750732422,14.101886749267578,-0.03649046644568443,0.8643249273300171,0.452683687210083,6.105214595794678,0.4404868483543396,0.7302812337875366,0.424750953912735,0.6753541231155396,0.42000001668930054,-0.34784093499183655,1.1091511249542236,-0.9199504852294922,-3.0000035762786865,-0.21875284612178802,-0.21419422328472137,-0.20053957402706146,-0.18236684799194336,-0.3179246783256531,-0.2442210167646408,-0.09641928970813751,0.09374361485242844
0.4666666666666667,-0.02652721107006073,0.031071996316313744,0.0,0.7105448842048645,0.0,0.0,-0.7036519050598145,-0.10695499926805496,-0.5356850624084473,0.0,0.0,0.0,-5.955253601074219,0.062063124030828476,0.8579942584037781,0.46155866980552673,0.7905920743942261,0.12703965604305267,-0.09684343636035919,-0.5911398530006409,5.809449195861816,-1.308455467224121,0.20097492635250092,-14.202701568603516,-20.855941772460938,14.925230979919434,0.0629991814494133,0.861784040927887,0.46113574504852295,5.888466835021973,-0.5807333588600159,0.5210604667663574,0.424750953912735,0.6753541231155396,0.42000001668930054,-0.3288148045539856,0.9366861581802368,-0.9699746370315552,-3.000004291534424,-0.22729869186878204,-0.22036533057689667,-0.20365317165851593,-0.1820734739303589,-0.37970367074012756,-0.24646516144275665,-0.09252249449491501,0.07381896674633026
0.48333333333333334,-0.02600681409239769,0.02593233436346054,0.0,0.6964423060417175,0.0,0.0,-0.7176128029823303,0.08828014880418777,-0.2324424833059311,0.0,0.0,0.0,-1.2204762697219849,0.15291565656661987,0.8416175246238708,0.46577247977256775,0.7286126017570496,0.10911542177200317,-0.08902406692504883,-0.6702925562858582,4.859579086303711,-2.0388333797454834,0.17245246469974518,8.773715019226074,-13.461087226867676,23.57878303527832,0.1537167876958847,0.8453559875488281,0.46518442034721375,5.156992435455322,-1.375470757484436,0.17106901109218597,0.424750953912735,0.6753541231155396,0.42000001668930054,-0.316376268863678,0.5363886952400208,-1.0199979543685913,-3.0000038146972656,-0.2347516417503357,-0.22523380815982819,-0.2060530036687851,-0.1821020245552063,-0.3917199671268463,-0.2363622933626175,-0.1117425411939621,-0.007613297086209059
0.5,-0.02666972577571869,0.021985111758112907,0.0,0.6740335822105408,0.0,0.0,-0.7387006878852844,-0.09247548133134842,-0.19151096045970917,0.0,0.0,0.0,-4.587955474853516,0.23012623190879822,0.8164035081863403,0.46300208568573,0.693448007106781,0.08085743337869644,-0.08566170185804367,-0.7108120918273926,3.9681406021118164,-2.1637585163116455,-0.29171451926231384,-4.300192832946777,4.040544033050537,9.637068748474121,0.23098205029964447,0.8196595907211304,0.46335911750793457,4.265295028686523,-1.7972933053970337,-0.2500775158405304,0.424750953912735,0.6753541231155396,0.42000001668930054,-0.30633512139320374,0.6773712635040283,-1.070020079612732,-2.998476982116699,-0.23839311301708221,-0.22683054208755493,-0.20634278655052185,-0.1815195232629776,-0.14950934052467346,-0.03520357236266136,0.020763901993632317,0.04269465431571007
0.5166666666666666,-0.026104096323251724,0.021444445475935936,0.0,0.6663815379142761,0.0,0.0,-0.7456108927726746,0.06882909685373306,0.03878592699766159,0.0,0.0,0.0,-0.20570272207260132,0.292491614818573,0.784662127494812,0.4546169638633728,0.6355031132698059,0.031082410365343094,-0.07940195500850677,-0.7673754096031189,3.037045478820801,-2.3602192401885986,-0.6489776372909546,-10.642156600952148,8.423151969909668,-1.3977320194244385,0.29259544610977173,0.78816157579422,0.4559570848941803,3.2368059158325195,-1.9871318340301514,-0.5391113758087158,0.424750953912735,0.6753541231155396,0.42000001668930054,-0.2923657298088074,0.870369017124176,-1.1200422048568726,-3.0,-0.23996469378471375,-0.2268744707107544,-0.20598283410072327,-0.18140408396720886,0.0033969865180552006,0.06623124331235886,0.05340398848056793,-0.0018100966699421406
0.5333333333333333,-0.022979946807026863,0.017908750101923943,0.0,0.6494326591491699,0.0,0.0,-0.7604191303253174,0.21967394649982452,-0.25315168499946594,0.0,0.0,0.0,-3.587538480758667,0.3420882821083069,0.7535780668258667,0.4385431110858917,0.5858883857727051,-0.033455461263656616,-0.08530470728874207,-0.8051947951316833,2.351879596710205,-2.231097936630249,-1.1314393281936646,-15.126035690307617,12.806303977966309,4.824659824371338,0.341646671295166,0.7577184438705444,0.44188815355300903,2.685473680496216,-1.8258670568466187,-0.9611791372299194,0.424750953912735,0.6753541231155396,0.42000001668930054,-0.27780088782310486,0.7822563052177429,-1.1700643301010132,-2.9998514652252197,-0.23593875765800476,-0.22279587388038635,-0.20315805077552795,-0.1805170178413391,0.278073787689209,0.2663942873477936,0.17100122570991516,0.03131677955389023
0.55,-0.017121948301792145,0.01766916923224926,0.0,0.6459107995033264,0.0,0.0,-0.7634128928184509,0.3751460909843445,0.025250988081097603,0.0,0.0,0.0,0.414908766746521,0.380142480134964,0.7253795266151428,0.42241546511650085,0.5537533760070801,-0.030635101720690727,-0.02556450478732586,-0.8317241072654724,1.6576725244522095,-1.3907743692398071,-0.37151187658309937,30.408327102661133,-17.636545181274414,22.572147369384766,0.37907302379608154,0.7269817590713501,0.42434799671173096,1.8672947883605957,-1.7327842712402344,-0.9690965414047241,0.424750953912735,0.6753541231155396,0.42000001668930054,-0.2621188759803772,0.9848265647888184,-1.2200864553451538,-3.000006914138794,-0.23231366276741028,-0.21956679224967957,-0.20171929895877838,-0.18160489201545715,0.34387823939323425,0.27279433608055115,0.12315826117992401,-0.06477031856775284
0.5666666666666667,-0.009439803659915924,0.014260711148381233,0.0,0.6319373250007629,0.0,0.0,-0.7750194668769836,0.5018391609191895,-0.24090634286403656,0.0,0.0,0.0,-3.0544440746307373,0.40057793259620667,0.7120403051376343,0.4219036102294922,0.5497117638587952,-0.018230782821774483,-0.030151061713695526,-0.8346109986305237,0.8535648584365845,-0.8072167038917542,0.005121815484017134,-0.5778229236602783,-2.950984239578247,5.821094989776611,0.39832136034965515,0.7131713032722473,0.42415541410446167,0.9376636743545532,-0.6979292631149292,-0.10472602397203445,0.424750953912735,0.6753541231155396,0.42000001668930054,-0.24249067902565002,0.9518707990646362,-1.1821922063827515,2.9998557567596436,-0.22214089334011078,-0.211918905377388,-0.1976674348115921,-0.18153998255729675,0.5708168745040894,0.4188600480556488,0.20223736763000488,-0.03931030258536339
0.5833333333333334,-0.00410033855587244,0.013383586890995502,0.0,0.6311958432197571,0.0,0.0,-0.7756235003471375,0.24543769657611847,-0.024927880614995956,0.0,0.0,0.0,0.7563934326171875,0.4138728678226471,0.7008642554283142,0.42117008566856384,0.5290829539299011,-0.009821594692766666,-0.019212421029806137,-0.8482956886291504,0.5416195392608643,-0.6424033045768738,-0.013743964023888111,0.62448650598526,-0.22569365799427032,2.269906520843506,0.409150093793869,0.7011786103248596,0.4248518943786621,0.5070136785507202,-0.6526448726654053,0.09841348975896835,0.424750953912735,0.6753541231155396,0.42000001668930054,-0.2448221892118454,-0.8990728259086609,-1.2037413120269775,-2.999999523162842,-0.2143682837486267,-0.20632103085517883,-0.19525089859962463,-0.1827026903629303,0.514701783657074,0.37303775548934937,0.1764814853668213,-0.040293578058481216
0.6,0.0019870323594659567,0.01511907484382391,0.0,0.6192541122436523,0.0,0.0,-0.7851906418800354,0.37884390354156494,0.2124217003583908,0.0,0.0,0.0,-2.7076611518859863,0.41832661628723145,0.694390594959259,0.4205823838710785,0.5575000643730164,-0.0006099740276113153,-0.010518060997128487,-0.8301100134849548,0.12951989471912384,-0.22041340172290802,-0.036041125655174255,1.6162331104278564,-0.5965070724487305,4.858853340148926,0.4144650101661682,0.6952252984046936,0.42385804653167725,0.2343108355998993,-0.17561517655849457,-0.08396728336811066,0.424750953912735,0.6753541231155396,0.42000001668930054,-0.24763798713684082,0.4126484990119934,-1.1746293306350708,3.000032424926758,-0.2049565464258194,-0.1998462826013565,-0.19243893027305603,-0.18373551964759827,0.5954881906509399,0.4036712050437927,0.17630347609519958,-0.05625835061073303
0.6166666666666667,0.009683353826403618,0.014243699610233307,0.0,0.6204746961593628,0.0,0.0,-0.7842264771461487,0.47840920090675354,-0.08210954815149307,0.0,0.0,0.0,1.1164848804473877,0.4204583466053009,0.6920486688613892,0.42000335454940796,0.5775830745697021,5.1916918891947716e-05,-4.7448942495975643e-05,-0.8163318634033203,0.02821413241326809,-0.13064007461071014,-0.0008301693596877158,-0.038660816848278046,0.009388677775859833,-0.12103958427906036,0.41555461287498474,0.693122923374176,0.4250098466873169,-0.10412656515836716,-0.10152500122785568,0.13622038066387177,0.424750953912735,0.6753541231155396,0.42000001668930054,-0.28404489159584045,-3.000000238418579,-1.1961462497711182,-2.9997613430023193,-0.1941450536251068,-0.1919579803943634,-0.188012957572937,-0.18285484611988068,0.5466803908348083,0.4104630649089813,0.24228553473949432,0.06609778106212616
0.6333333333333333,0.01976446993649006,0.0162787027657032,0.0,0.6408458352088928,0.0,0.0,-0.7676696181297302,0.6354972124099731,0.15346793830394745,0.0,0.0,0.0,4.461874485015869,0.420518159866333,0.6909237504005432,0.42000100016593933,0.5795178413391113,-2.9412451112875715e-05,-4.1803286876529455e-05,-0.8149595260620117,-0.041849903762340546,-0.008822795003652573,-0.001976751023903489,0.07937105745077133,-0.03885422274470329,-1.224509596824646,0.41433385014533997,0.6929033994674683,0.42743927240371704,-0.10033740848302841,0.09617871791124344,0.16836650669574738,0.424750953912735,0.6753541231155396,0.42000001668930054,-0.3340318500995636,-2.9971721172332764,-1.2461163997650146,-2.9990015029907227,-0.18633142113685608,-0.18628409504890442,-0.18487726151943207,-0.18231140077114105,0.5476665496826172,0.40413397550582886,0.24351446330547333,0.08444203436374664
0.65,0.02975502796471119,0.015066772699356079,0.0,0.6503149271011353,0.0,0.0,-0.7596647143363953,0.6001109480857849,-0.11768274754285812,0.0,0.0,0.0,0.41447627544403076,0.42024967074394226,0.6909991502761841,0.4200000464916229,0.5788444876670837,6.38970277577755e-06,1.7821157598518766e-06,-0.8154378533363342,-0.004766486119478941,-0.0010288903722539544,-0.000262850197032094,-0.012555113062262535,0.010422161780297756,-0.05862978473305702,0.4136723279953003,0.6953826546669006,0.4311600625514984,-0.039239101111888885,0.09774623811244965,0.25784069299697876,0.424750953912735,0.6753541231155396,0.42000001668930054,-0.38405176997184753,-2.9999849796295166,-1.2960916757583618,-2.9998245239257812,-0.17628909647464752,-0.17832030355930328,-0.1791420876979828,-0.1786947101354599,0.539880096912384,0.45373114943504333,0.362632691860199,0.2790021002292633
0.6666666666666666,0.040876295417547226,0.01064329594373703,0.0,0.6364786028862,0.0,0.0,-0.771294355392456,0.6997867226600647,-0.3318897485733032,0.0,0.0,0.0,-3.085376262664795,0.4202495813369751,0.6909995675086975,0.4200000464916229,0.5788447856903076,1.6378285749851784e-07,-3.4132251585106133e-06,-0.8154376149177551,0.00011288766108918935,-0.0003014577378053218,-8.560693822801113e-05,0.007283817045390606,-0.001329549471847713,-0.0007490816642530262,0.4150197207927704,0.6965122222900391,0.43704336881637573,0.18457306921482086,0.007373912259936333,0.5678539872169495,0.424750953912735,0.6753541231155396,0.42000001668930054,-0.4340655207633972,-2.999999523162842,-1.346110224723816,-2.9999990463256836,-0.16975589096546173,-0.17244502902030945,-0.17390921711921692,-0.17393819987773895,0.3048167824745178,0.3031654357910156,0.30633607506752014,0.32067832350730896
0.6833333333333333,0.05539851263165474,0.010502874851226807,0.0,0.5996373891830444,0.0,0.0,-0.8002718687057495,0.840975821018219,0.043741483241319656,0.0,0.0,0.0,-6.508606910705566,0.4202495813369751,0.6909995675086975,0.4200000464916229,0.5788448452949524,3.132704478048254e-07,-2.7888977456314024e-06,-0.8154376745223999,9.527021029498428e-05,-0.00026872981106862426,-8.750450797379017e-05,0.0064479694701731205,-0.001587125239893794,-0.0006813406944274902,0.42411819100379944,0.6928472518920898,0.4543948769569397,1.01237952709198,-0.3030978739261627,1.5840767621994019,0.424750953912735,0.6753541231155396,0.42000001668930054,-0.48407861590385437,-2.99995756149292,-1.396128535270691,-2.999997854232788,-0.17164747416973114,-0.17315323650836945,-0.1733492612838745,-0.17200997471809387,-0.10594915598630905,-0.04334966465830803,0.030195530503988266,0.11249998211860657
0.7,0.06657736748456955,0.011955047957599163,0.0,0.5774133801460266,0.0,0.0,-0.8164519667625427,0.5712238550186157,0.09309223294258118,0.0,0.0,0.0,-2.2239198684692383,0.4202495515346527,0.6909995675086975,0.4200000464916229,0.5788448452949524,4.250202607636311e-07,-3.0605517622461775e-06,-0.8154376745223999,9.775203216122463e-05,-0.0002657265868037939,-8.806074038147926e-05,0.006358799524605274,-0.0015429366612806916,-0.0006826295284554362,0.44345152378082275,0.6921481490135193,0.48289954662323,1.2270927429199219,0.18059225380420685,1.815420150756836,0.424750953912735,0.6753541231155396,0.42000001668930054,-0.507413387298584,-0.04048202559351921,-1.446146845817566,-2.999999523162842,-0.17144379019737244,-0.17277823388576508,-0.17264977097511292,-0.17086003720760345,0.12797287106513977,0.09006883203983307,0.0587942898273468,0.03337984159588814
0.7166666666666667,0.07251162081956863,0.014905783347785473,0.0,0.5813924074172974,0.0,0.0,-0.813623309135437,0.31515923142433167,0.2814690172672272,0.0,0.0,0.0,1.3976401090621948,0.4202495515346527,0.6909995675086975,0.4200000464916229,0.5788449048995972,4.2088251461791515e-07,-3.153133320665802e-06,-0.8154376745223999,9.776670776773244e-05,-0.0002655724238138646,-8.801044896245003e-05,0.0063553666695952415,-0.0015404002042487264,-0.0006822996656410396,0.46180012822151184,0.6971017122268677,0.5070351958274841,0.8774404525756836,0.3179539442062378,1.125088095664978,0.424750953912735,0.6753541231155396,0.42000001668930054,-0.4887586832046509,2.0784265995025635,-1.4182237386703491,3.0,-0.16810329258441925,-0.17009016871452332,-0.1705290824174881,-0.16924414038658142,0.10542896389961243,0.09662142395973206,0.08792468160390854,0.07699237018823624
0.7333333333333333,0.07503334432840347,0.014281061477959156,0.0,0.5736759305000305,0.0,0.0,-0.8190823793411255,0.10148385167121887,-0.13005700707435608,0.0,0.0,0.0,-2.0480995178222656,0.4202495813369751,0.6909995675086975,0.4200000464916229,0.5788447260856628,4.3175231212444487e-07,-3.246604819651111e-06,-0.8154376745223999,9.932187094818801e-05,-0.00026567516033537686,-8.833874017000198e-05,0.006349476985633373,-0.0015221157809719443,-0.0006857895059511065,0.4698122441768646,0.7021623849868774,0.5193387866020203,0.06900050491094589,0.2966499924659729,0.5390713810920715,0.424750953912735,0.6753541231155396,0.42000001668930054,-0.46336328983306885,1.0367003679275513,-1.368186354637146,3.0,-0.1649910807609558,-0.1671343594789505,-0.16777151823043823,-0.16676746308803558,0.19516156613826752,0.19748152792453766,0.19322505593299866,0.17976529896259308
0.75,0.0746418908238411,0.017617719247937202,0.0,0.5790390372276306,0.0,0.0,-0.8152998089790344,-0.06249883398413658,0.3386338949203491,0.0,0.0,0.0,1.65958833694458,0.4202495813369751,0.6909995675086975,0.4200000464916229,0.5788449645042419,4.3037198338424787e-07,-3.1635877348890062e-06,-0.8154375553131104,9.818434773478657e-05,-0.00026568557950668037,-8.816109038889408e-05,0.006355556659400463,-0.0015376232331618667,-0.0006835262174718082,0.4688098430633545,0.7064794301986694,0.5255515575408936,-0.16708649694919586,0.2970017194747925,0.22666242718696594,0.424750953912735,0.6753541231155396,0.42000001668930054,-0.4410400986671448,1.5772680044174194,-1.3868879079818726,-3.0,-0.16695857048034668,-0.16794684529304504,-0.16766828298568726,-0.16605815291404724,-0.192804753780365,-0.11218992620706558,-0.048953961580991745,-0.007414471823722124
0.7666666666666666,0.07555045932531357,0.01940106973052025,0.0,0.5725237727165222,0.0,0.0,-0.8198881149291992,0.0759853646159172,0.05914909020066261,0.0,0.0,0.0,-1.8518345355987549,0.4202495813369751,0.6909995675086975,0.4200000464916229,0.5788448452949524,4.045788557505148e-07,-3.2607799766992684e-06,-0.8154376745223999,9.975599823519588e-05,-0.00026581139536574483,-8.847983554005623e-05,0.006350060924887657,-0.0015192392747849226,-0.0006870784563943744,0.46054330468177795,0.7106149792671204,0.5221677422523499,-0.7914502620697021,0.19387079775333405,-0.4245624840259552,0.424750953912735,0.6753541231155396,0.42000001668930054,-0.43836092948913574,-1.0321279764175415,-1.348478078842163,3.000000476837158,-0.16922655701637268,-0.16908806562423706,-0.16794948279857635,-0.1658097207546234,-0.1565123349428177,-0.08322127163410187,-0.026209264993667603,0.010468801483511925
0.7833333333333333,0.07830371707677841,0.017894096672534943,0.0,0.578461229801178,0.0,0.0,-0.8157098293304443,0.21154382824897766,-0.15064193308353424,0.0,0.0,0.0,1.6777275800704956,0.4202495813369751,0.6909995675086975,0.4200000464916229,0.5788449048995972,4.266646840278554e-07,-3.1763843253429513e-06,-0.8154376745223999,9.949994273483753e-05,-0.00026585563318803906,-8.843489922583103e-05,0.006352463737130165,-0.0015228107804432511,-0.000686593062710017,0.4495686888694763,0.7120965123176575,0.5150281190872192,-0.5379348397254944,0.0411958284676075,-0.38804227113723755,0.424750953912735,0.6753541231155396,0.42000001668930054,-0.4796842038631439,-2.999999761581421,-1.3675295114517212,-3.000000476837158,-0.17301401495933533,-0.17114636301994324,-0.16845457255840302,-0.16501888632774353,-0.21519993245601654,-0.1050129309296608,5.2255927585065365e-08,0.09563916176557541
0.8,0.08336478471755981,0.013745547272264957,0.0,0.5718922019004822,0.0,0.0,-0.8203287720680237,0.34323203563690186,-0.30674201250076294,0.0,0.0,0.0,-1.8554606437683105,0.4202495813369751,0.6909995675086975,0.4200000464916229,0.5788449048995972,4.08186821232448e-07,-3.0909475299267797e-06,-0.8154375553131104,9.850507194641978e-05,-0.00026556188822723925,-8.822325617074966e-05,0.00635070726275444,-0.0015330148162320256,-0.0006840395508334041,0.4442213177680969,0.7101403474807739,0.504855215549469,-0.08905285596847534,-0.25203895568847656,-0.6333937048912048,0.424750953912735,0.6753541231155396,0.42000001668930054,-0.5296948552131653,-2.999997138977051,-1.4175478219985962,-2.999999761581421,-0.17748607695102692,-0.17356964945793152,-0.16880705952644348,-0.16335920989513397,-0.24577994644641876,-0.11937752366065979,0.013100647367537022,0.1467805653810501
0.8166666666666667,0.09101367741823196,0.0067297546193003654,0.0,0.5433813333511353,0.0,0.0,-0.8394860029220581,0.5005044341087341,-0.4962773025035858,0.0,0.0,0.0,-5.042316913604736,0.4202495813369751,0.6909995675086975,0.4200000464916229,0.5788449645042419,4.4143934019302833e-07,-3.189563813066343e-06,-0.8154375553131104,9.820132254390046e-05,-0.00026558092213235795,-8.815526962280273e-05,0.00635287631303072,-0.0015366545412689447,-0.0006833855877630413,0.4454358220100403,0.7014327645301819,0.49999094009399414,0.29568952322006226,-0.7050228118896484,0.17174166440963745,0.424750953912735,0.6753541231155396,0.42000001668930054,-0.5797074437141418,-2.999959945678711,-1.4675661325454712,-2.9999990463256836,-0.1834058314561844,-0.1772344410419464,-0.17009739577770233,-0.1622413992881775,-0.35574954748153687,-0.2301003336906433,-0.09593240171670914,0.041953299194574356
0.8333333333333334,0.1011224314570427,0.0017164527671411633,0.0,0.5313005447387695,0.0,0.0,-0.8471834063529968,0.6360952854156494,-0.22707270085811615,0.0,0.0,0.0,-0.6630534529685974,0.4202495813369751,0.6909995675086975,0.4200000464916229,0.5788448452949524,4.2200585426144244e-07,-3.2874420412554173e-06,-0.8154376745223999,9.989106183638796e-05,-0.00026577210519462824,-8.851662278175354e-05,0.0063483514823019505,-0.0015175434527918696,-0.000687320192810148,0.45148736238479614,0.697095513343811,0.5074225664138794,0.3871234655380249,0.05529797449707985,0.6629082560539246,0.424750953912735,0.6753541231155396,0.42000001668930054,-0.5994797945022583,0.3523808717727661,-1.5175844430923462,-3.000000476837158,-0.18763187527656555,-0.1807222068309784,-0.17269189655780792,-0.1638396829366684,-0.12808552384376526,-0.1535690873861313,-0.17109042406082153,-0.1817808449268341
0.85,0.10789284855127335,-0.0005460114334709942,0.0,0.5453677177429199,0.0,0.0,-0.838196873664856,0.3296561539173126,-0.09825126826763153,0.0,0.0,0.0,2.833383560180664,0.4202495813369751,0.6909995675086975,0.4200000464916229,0.5788449048995972,4.100891715097532e-07,-3.202692823833786e-06,-0.8154376745223999,9.95702066575177e-05,-0.000265899725491181,-8.845306001603603e-05,0.006353249307721853,-0.0015222161309793591,-0.0006868144846521318,0.4608633518218994,0.7001587152481079,0.5128487348556519,0.6258385181427002,0.23103436827659607,0.029696926474571228,0.424750953912735,0.6753541231155396,0.42000001668930054,-0.5767226815223694,2.197977304458618,-1.4788031578063965,2.9999992847442627,-0.18681852519512177,-0.18083010613918304,-0.17356881499290466,-0.16534119844436646,0.13312162458896637,0.07078976929187775,0.015449654310941696,-0.032979223877191544
0.8666666666666667,0.10999210923910141,-0.006800759118050337,0.0,0.5453662276268005,0.0,0.0,-0.8381978869438171,0.09583092480897903,-0.4192507565021515,0.0,0.0,0.0,-1.062255620956421,0.4202495813369751,0.6909995675086975,0.4200000464916229,0.5788449048995972,4.0436381709696434e-07,-3.1184231374936644e-06,-0.8154375553131104,9.862866863841191e-05,-0.00026552844792604446,-8.825189433991909e-05,0.0063490974716842175,-0.001531444489955902,-0.0006842734292149544,0.4687122106552124,0.7016854286193848,0.5101256370544434,0.30406439304351807,-0.07402435690164566,-0.2000502198934555,0.424750953912735,0.6753541231155396,0.42000001668930054,-0.5746685266494751,-1.6224466562271118,-1.4287505149841309,2.999999761581421,-0.1824839562177658,-0.1777065098285675,-0.17154988646507263,-0.1643119901418686,0.15842245519161224,0.11606378853321075,0.07611414790153503,0.03859885036945343
0.8833333333333333,0.10997826606035233,-0.00790418405085802,0.0,0.5565550923347473,0.0,0.0,-0.8308107256889343,-0.0497678704559803,0.05478667840361595,0.0,0.0,0.0,2.460629940032959,0.4202495813369751,0.6909995675086975,0.4200000464916229,0.5788449645042419,4.503177706283168e-07,-3.2185332656808896e-06,-0.8154375553131104,9.832412615651265e-05,-0.00026554721989668906,-8.818157948553562e-05,0.00635133869946003,-0.0015351037727668881,-0.0006836166721768677,0.4731348752975464,0.6985753178596497,0.5070584416389465,0.2239799052476883,-0.23886525630950928,-0.15568558871746063,0.424750953912735,0.6753541231155396,0.42000001668930054,-0.6033831238746643,-1.785299301147461,-1.446323037147522,-3.000000476837158,-0.18530960381031036,-0.1798803061246872,-0.17309324443340302,-0.16527721285820007,-0.2394590973854065,-0.17600028216838837,-0.11334645003080368,-0.05383748188614845
