vladlanda/robotic-transformer/data/env_000_episode_0016.csv
sim_time_s,robot_box_x,robot_box_y,robot_box_z,robot_box_quat_w,robot_box_quat_x,robot_box_quat_y,robot_box_quat_z,robot_box_linvel_x,robot_box_linvel_y,robot_box_linvel_z,robot_box_angvel_x,robot_box_angvel_y,robot_box_angvel_z,cube_world_x,cube_world_y,cube_world_z,cube_quat_w,cube_quat_x,cube_quat_y,cube_quat_z,cube_linvel_x,cube_linvel_y,cube_linvel_z,cube_angvel_x,cube_angvel_y,cube_angvel_z,endpoint_world_x,endpoint_world_y,endpoint_world_z,endpoint_linvel_x,endpoint_linvel_y,endpoint_linvel_z,target_cube_world_x,target_cube_world_y,target_cube_world_z,gripper_actual_pos_rad_gp_leftgearjoint,gripper_actual_vel_rad_s_gp_leftgearjoint,gripper_actual_pos_rad_gp_rotatingjoint,gripper_actual_vel_rad_s_gp_rotatingjoint,motor_angle_rad_joint1,motor_angle_rad_joint2,motor_angle_rad_joint3,motor_angle_rad_joint4,motor_speed_rad_s_joint1,motor_speed_rad_s_joint2,motor_speed_rad_s_joint3,motor_speed_rad_s_joint4
0.0,0.0,0.0,0.0,1.0,0.0,0.0,0.0,0.0,0.0,0.0,0.0,0.0,0.0,-0.3330487906932831,0.6295557022094727,0.41999998688697815,1.0,0.0,0.0,0.0,0.0,0.0,0.0,0.0,0.0,0.0,3.42540442943573e-06,-0.005000244826078415,1.313499927520752,0.0,0.0,0.0,0.337629497051239,0.6713721752166748,0.42000001668930054,-1.5707999467849731,0.0,0.0,0.0,0.0,0.0,0.0,0.0,0.0,0.0,0.0,0.0
0.016666666666666666,0.002502978779375553,0.00146079424303025,0.0,0.999992847442627,0.0,0.0,0.003775601973757148,0.22426289319992065,0.12987647950649261,0.0,0.0,0.0,0.7301655411720276,-0.33304890990257263,0.6295554041862488,0.41999998688697815,1.0,3.2799914606584935e-06,-8.339814598912199e-07,8.465387679734704e-08,-1.9833554688375443e-05,0.00017983050202019513,-6.133061833679676e-05,0.0009432226070202887,-0.004689437802881002,-0.0003198152990080416,-0.007064931094646454,0.003882377641275525,1.3158025741577148,-0.8063774108886719,1.0236669778823853,0.17486432194709778,0.337629497051239,0.6713721752166748,0.42000001668930054,-1.5301082134246826,2.999998092651367,-0.04585873335599899,-3.0000007152557373,0.0007359344162978232,0.0006702062673866749,0.000593127217143774,0.0005021843826398253,0.10611938685178757,0.09292543679475784,0.07886628061532974,0.0639110654592514
0.03333333333333333,0.008711319416761398,0.0053676157258450985,0.0,0.9999387264251709,0.0,0.0,-0.011071382090449333,0.43795865774154663,0.2812362313270569,0.0,0.0,0.0,-2.5920121669769287,-0.3330490291118622,0.629555344581604,0.4200000464916229,1.0,3.39090593115543e-06,-2.1324372028175276e-06,-3.7106541839193596e-08,0.0002635782293509692,0.0002693790593184531,-0.00010509486310184002,-0.0017707175575196743,0.004130743443965912,-0.00013547750131692737,-0.026560934260487556,0.0268421471118927,1.3166033029556274,-1.4922364950180054,1.6675117015838623,-0.06121395528316498,0.337629497051239,0.6713721752166748,0.42000001668930054,-1.4800888299942017,3.0000011920928955,-0.09589855372905731,-3.000000238418579,0.0029425749089568853,0.0025960730854421854,0.0022127414122223854,0.0017893466865643859,0.17756858468055725,0.15147510170936584,0.12389635294675827,0.09475639462471008
0.05,0.017429623752832413,0.011715366505086422,0.0,0.9999588131904602,0.0,0.0,-0.009075752459466457,0.5662062168121338,0.42244887351989746,0.0,0.0,0.0,1.2494587898254395,-0.33304905891418457,0.6295554041862488,0.4200000464916229,1.0,3.765230758290272e-06,-2.211922264905297e-06,5.6083799826467384e-09,0.0002653090050444007,0.00026691501261666417,-0.00010440615005791187,-0.00172435212880373,0.0041774665005505085,-0.0001294955873163417,-0.05697011202573776,0.05542036145925522,1.312023639678955,-2.053952932357788,1.8392374515533447,-0.4470054507255554,0.337629497051239,0.6713721752166748,0.42000001668930054,-1.430066704750061,3.0000016689300537,-0.11751267313957214,0.14751875400543213,0.0055766236037015915,0.004764585290104151,0.0038814707659184933,0.0029232853557914495,0.17662379145622253,0.13965867459774017,0.10081816464662552,0.05998072028160095
0.06666666666666667,0.02850779891014099,0.018159905448555946,0.0,0.9997649788856506,0.0,0.0,-0.021679673343896866,0.7266427278518677,0.3726690113544464,0.0,0.0,0.0,-2.3543481826782227,-0.33304905891418457,0.629555344581604,0.4200000464916229,0.9999999403953552,3.406835730856983e-06,-2.2856456780573353e-06,4.3008122929677484e-07,0.0002670265967026353,0.0002679176104720682,-0.0001043803058564663,-0.0017406701808795333,0.004211854189634323,-0.0001285061298403889,-0.09000836312770844,0.09106063842773438,1.3015592098236084,-1.9372496604919434,2.37510347366333,-0.7794110774993896,0.337629497051239,0.6713721752166748,0.42000001668930054,-1.380052924156189,3.000002384185791,-0.16218218207359314,-2.999999523162842,0.007632762659341097,0.00600367272272706,0.004264556337147951,0.0024105384945869446,0.10875287652015686,0.04444176331162453,-0.021927522495388985,-0.09042616933584213
0.08333333333333333,0.04313578084111214,0.026131760329008102,0.0,0.9981265664100647,0.0,0.0,-0.06118252873420715,0.9381002187728882,0.5225286483764648,0.0,0.0,0.0,-5.571624279022217,-0.33304905891418457,0.629555344581604,0.4200000464916229,1.0,3.6973383430449758e-06,-2.188984808526584e-06,-2.6323331780986337e-07,0.0002638960722833872,0.0002658652374520898,-0.00010433932766318321,-0.0017081378027796745,0.00415008282288909,-0.0001299151626881212,-0.12467394769191742,0.13403138518333435,1.2851247787475586,-2.196326732635498,2.711369514465332,-1.1960307359695435,0.337629497051239,0.6713721752166748,0.42000001668930054,-1.3300310373306274,2.9999942779541016,-0.1285918653011322,2.999999523162842,0.008795659989118576,0.006159096956253052,0.003374329302459955,0.00043343138531781733,0.05493324249982834,-0.005698446650058031,-0.06838063895702362,-0.13306793570518494
0.1,0.052132535725831985,0.03206665813922882,0.0,0.9965640902519226,0.0,0.0,-0.08282506465911865,0.40567994117736816,0.29495805501937866,0.0,0.0,0.0,-1.5425370931625366,-0.33304905891418457,0.629555344581604,0.4200000464916229,0.9999999403953552,3.6204280604579253e-06,-2.265225475639454e-06,1.7461863421885937e-07,0.00026676725246943533,0.0002674070419743657,-0.00010408065281808376,-0.0017385295359417796,0.004209065344184637,-0.00012775739014614373,-0.16395612061023712,0.17455577850341797,1.262446641921997,-2.2939188480377197,2.460095167160034,-1.4483540058135986,0.337629497051239,0.6713721752166748,0.42000001668930054,-1.2800318002700806,3.0000009536743164,-0.16047964990139008,-3.0000007152557373,0.0036607806105166674,0.00037927093217149377,-0.0031008925288915634,-0.006789996288716793,-0.4229021370410919,-0.46524661779403687,-0.5101066827774048,-0.5576568841934204
0.11666666666666667,0.0644555613398552,0.040906570851802826,0.0,0.9929170608520508,0.0,0.0,-0.11880970001220703,0.8770531415939331,0.6264578700065613,0.0,0.0,0.0,-5.321295738220215,-0.33304905891418457,0.629555344581604,0.4200000464916229,1.0,3.7983741094649304e-06,-2.2627561975241406e-06,-1.5019411137018324e-07,0.00026374030858278275,0.00026566023007035255,-0.00010428880341351032,-0.001705368747934699,0.004147524479776621,-0.00012980001338291913,-0.1983780860900879,0.22292110323905945,1.2330355644226074,-1.831973671913147,3.309955596923828,-2.0287415981292725,0.337629497051239,0.6713721752166748,0.42000001668930054,-1.230005145072937,2.9999988079071045,-0.1268826127052307,2.9999990463256836,-0.0009506862843409181,-0.005396234802901745,-0.010047448799014091,-0.01491667702794075,-0.2375594824552536,-0.31913140416145325,-0.3999508023262024,-0.48011744022369385
0.13333333333333333,0.07545924931764603,0.0472586415708065,0.0,0.9840209484100342,0.0,0.0,-0.17805273830890656,0.654322624206543,0.3023817539215088,0.0,0.0,0.0,-7.91590690612793,-0.33304905891418457,0.6295554041862488,0.4200000464916229,0.9999999403953552,3.550490419002017e-06,-2.2297924715530826e-06,2.9292351655385573e-07,0.0002670329122338444,0.0002677924057934433,-0.00010416773147881031,-0.001743975793942809,0.004213578533381224,-0.0001280030410271138,-0.23122850060462952,0.27862176299095154,1.1975914239883423,-1.871970295906067,3.581838607788086,-2.3332204818725586,0.337629497051239,0.6713721752166748,0.42000001668930054,-1.1800156831741333,3.000002145767212,-0.1588313728570938,-3.0000011920928955,-0.006696611642837524,-0.012488163076341152,-0.018455326557159424,-0.02460995875298977,-0.3032469153404236,-0.39042720198631287,-0.4744735360145569,-0.5553045272827148
0.15,0.08365669846534729,0.052175696939229965,0.0,0.9766885042190552,0.0,0.0,-0.21466146409511566,0.4269179105758667,0.2896597683429718,0.0,0.0,0.0,-3.32804012298584,-0.33304905891418457,0.629555344581604,0.4200000464916229,0.9999999403953552,3.338063152114046e-06,-2.2428623651649104e-06,-2.8019764286568716e-08,0.00026674510445445776,0.0002675803261809051,-0.00010427739471197128,-0.0017366883112117648,0.0042068189941346645,-0.00012831240019295365,-0.2671037018299103,0.33488187193870544,1.1513880491256714,-1.9725208282470703,3.5989723205566406,-3.174750566482544,0.337629497051239,0.6713721752166748,0.42000001668930054,-1.1300045251846313,3.0000014305114746,-0.150936558842659,3.000000238418579,-0.013018298894166946,-0.02002108469605446,-0.02713426947593689,-0.03437075391411781,-0.43598228693008423,-0.49412328004837036,-0.5483262538909912,-0.5987464189529419
0.16666666666666666,0.0888608917593956,0.054816823452711105,0.0,0.9652143716812134,0.0,0.0,-0.26145991683006287,0.2753795087337494,0.07106832414865494,0.0,0.0,0.0,-6.658330917358398,-0.33304905891418457,0.6295554041862488,0.4200000464916229,0.9999999403953552,3.6477927096711937e-06,-2.3072821022651624e-06,3.5273473031338654e-08,0.00026726932264864445,0.0002680143225006759,-0.00010418728925287724,-0.001747259870171547,0.004217622336000204,-0.00012798597163055092,-0.29641640186309814,0.39752402901649475,1.0935161113739014,-1.3892771005630493,3.9746551513671875,-3.745944023132324,0.337629497051239,0.6713721752166748,0.42000001668930054,-1.0800021886825562,2.9999988079071045,-0.182721346616745,-3.000000476837158,-0.021577460691332817,-0.029467595741152763,-0.0373973585665226,-0.0453839972615242,-0.5627225637435913,-0.6082959771156311,-0.6498535871505737,-0.687682569026947
0.18333333333333332,0.09039251506328583,0.05868139863014221,0.0,0.9580023288726807,0.0,0.0,-0.2867604196071625,-0.003391881240531802,0.28991666436195374,0.0,0.0,0.0,-1.9297622442245483,-0.33304905891418457,0.629555344581604,0.4200000464916229,0.9999999403953552,3.290506583653041e-06,-2.193882892242982e-06,-2.792363034131995e-07,0.000266780611127615,0.00026776042068377137,-0.0001043418888002634,-0.0017391631845384836,0.0042070988565683365,-0.00012845758465118706,-0.3229554295539856,0.4572913348674774,1.024181842803955,-1.3337700366973877,3.526480197906494,-4.532524108886719,0.337629497051239,0.6713721752166748,0.42000001668930054,-1.0299991369247437,2.9999985694885254,-0.2327486276626587,-3.0000007152557373,-0.03359599784016609,-0.041729267686605453,-0.04984206333756447,-0.057961128652095795,-0.7968711256980896,-0.7924674153327942,-0.7849562168121338,-0.7749758362770081
0.2,0.09539096057415009,0.0645027607679367,0.0,0.9463264346122742,0.0,0.0,-0.3232123851776123,0.406383752822876,0.38726139068603516,0.0,0.0,0.0,-5.501756191253662,-0.33304905891418457,0.629555344581604,0.4200000464916229,1.0,3.2807513434818247e-06,-2.219149109805585e-06,1.594698204598899e-07,0.0002662786573637277,0.000267401133896783,-0.00010424992069602013,-0.0017357232281938195,0.004197727423161268,-0.00012864978634752333,-0.34302306175231934,0.516383707523346,0.9421539306640625,-0.9012697339057922,3.4600489139556885,-5.233388423919678,0.337629497051239,0.6713721752166748,0.42000001668930054,-0.9799884557723999,3.000000476837158,-0.2827783524990082,-2.999997615814209,-0.045809056609869,-0.053884100168943405,-0.06188834831118584,-0.06985852122306824,-0.7445857524871826,-0.7324602603912354,-0.7179609537124634,-0.7016221880912781
0.21666666666666667,0.09758181869983673,0.06788183003664017,0.0,0.9394522905349731,0.0,0.0,-0.3426797389984131,0.017600588500499725,0.22217954695224762,0.0,0.0,0.0,-1.260524034500122,-0.33304905891418457,0.6295554041862488,0.4200000464916229,1.0,3.613105945987627e-06,-2.2700548925058683e-06,2.2101254160133976e-07,0.0002671255497261882,0.00026781795895658433,-0.00010414235293865204,-0.0017445943085476756,0.004215254448354244,-0.000127866180264391,-0.3597431182861328,0.5633193254470825,0.8506519794464111,-0.6843680143356323,2.4255387783050537,-5.748624801635742,0.337629497051239,0.6713721752166748,0.42000001668930054,-0.9299777746200562,3.000001907348633,-0.33280980587005615,-2.9999983310699463,-0.06160562112927437,-0.06919336318969727,-0.07645425200462341,-0.08371055126190186,-0.9879801869392395,-0.9903339147567749,-0.990397036075592,-0.9875866174697876
0.23333333333333334,0.09581603109836578,0.07266299426555634,0.0,0.9291570782661438,0.0,0.0,-0.36968523263931274,-0.1969505101442337,0.3837112486362457,0.0,0.0,0.0,-4.173045635223389,-0.33304905891418457,0.629555344581604,0.4200000464916229,1.0,3.3818123483797535e-06,-2.29084980674088e-06,2.7279790515422064e-07,0.0002669129753485322,0.00026779924519360065,-0.00010433141142129898,-0.0017395684262737632,0.004209680482745171,-0.00012843731383327395,-0.3689325153827667,0.6001334190368652,0.749602198600769,-0.25637975335121155,1.8231652975082397,-6.210232734680176,0.337629497051239,0.6713721752166748,0.42000001668930054,-0.8799670934677124,2.999997854232788,-0.38284221291542053,-3.0000014305114746,-0.07794968038797379,-0.08558511734008789,-0.09287302196025848,-0.10016292333602905,-1.0032933950424194,-1.002462387084961,-1.0018301010131836,-1.0013309717178345
0.25,0.09701334685087204,0.07413386553525925,0.0,0.9255162477493286,0.0,0.0,-0.3787078559398651,0.0687190443277359,0.03152792528271675,0.0,0.0,0.0,-0.08470863103866577,-0.3330490291118622,0.629555344581604,0.4200000464916229,0.9999999403953552,3.7065203741804e-06,-2.2228459783946164e-06,-2.255132756090461e-07,0.00026424904353916645,0.0002665679494384676,-0.00010457634925842285,-0.0017169411294162273,0.004155544564127922,-0.00013062905054539442,-0.3755800426006317,0.6222459077835083,0.6475350856781006,-0.20844468474388123,0.8098469972610474,-6.102392196655273,0.337629497051239,0.6713721752166748,0.42000001668930054,-0.8299570679664612,2.999998092651367,-0.4328739047050476,-2.9999988079071045,-0.09316003322601318,-0.1008211150765419,-0.10802583396434784,-0.11524052172899246,-0.9942073225975037,-0.9950608611106873,-0.9957406520843506,-0.9963042140007019
0.26666666666666666,0.094270721077919,0.07334423065185547,0.0,0.917007327079773,0.0,0.0,-0.3988703489303589,-0.24530993402004242,-0.08048411458730698,0.0,0.0,0.0,-3.5038111209869385,-0.33304905891418457,0.629555344581604,0.4200000464916229,0.9999999403953552,3.7195993627392454e-06,-2.40332542489341e-06,-1.8308921312382154e-07,0.00026623232406564057,0.00026729132514446974,-0.00010425853542983532,-0.0017326984088867903,0.004196567460894585,-0.000128512445371598,-0.3716394305229187,0.6288313865661621,0.5471526384353638,0.6475752592086792,-0.015223346650600433,-5.740875244140625,0.337629497051239,0.6713721752166748,0.42000001668930054,-0.7799482941627502,3.000000238418579,-0.4829040765762329,-3.0000007152557373,-0.11123230308294296,-0.11854641139507294,-0.12548722326755524,-0.13249342143535614,-1.0098000764846802,-1.0073827505111694,-1.0055389404296875,-1.0040724277496338
0.2833333333333333,0.0883432924747467,0.07061275839805603,0.0,0.915626585483551,0.0,0.0,-0.4020298421382904,-0.32732972502708435,-0.23112747073173523,0.0,0.0,0.0,0.5249741673469543,-0.33304905891418457,0.6295554041862488,0.4200000464916229,0.9999999403953552,3.5840330383507535e-06,-2.31531180361344e-06,7.403321689025688e-08,0.0002652195980772376,0.0002645523054525256,-0.00010317121632397175,-0.0017020339146256447,0.004185074009001255,-0.00012500229058787227,-0.3609473705291748,0.629569411277771,0.46137407422065735,0.7231805324554443,0.1210213452577591,-4.736581802368164,0.337629497051239,0.6713721752166748,0.42000001668930054,-0.7299399375915527,3.0000009536743164,-0.5329322814941406,-2.999999523162842,-0.12789057195186615,-0.13526161015033722,-0.14229732751846313,-0.14940139651298523,-0.9044276475906372,-0.9464272260665894,-0.9870611429214478,-1.0000839233398438
0.3,0.0812491700053215,0.06523436307907104,0.0,0.9096449613571167,0.0,0.0,-0.4153866171836853,-0.4758399426937103,-0.36354386806488037,0.0,0.0,0.0,-2.9944136142730713,-0.3330278694629669,0.6295356750488281,0.4200000464916229,0.9999998211860657,-4.45799696535687e-06,4.350059953139862e-06,-0.0005110969068482518,0.002411042805761099,-0.0017498884117230773,-7.669229671591893e-05,-0.005244138650596142,0.006985518150031567,-0.10296232253313065,-0.3534610867500305,0.6323629021644592,0.42750808596611023,0.046264372766017914,-0.12001270055770874,-0.12967897951602936,0.337629497051239,0.6713721752166748,0.42000001668930054,-0.6800313591957092,2.9995615482330322,-0.5834447145462036,-3.0020248889923096,-0.1394541710615158,-0.14660312235355377,-0.15323221683502197,-0.15970712900161743,-0.4166078567504883,-0.38351547718048096,-0.32994091510772705,-0.2517140507698059
0.31666666666666665,0.07188206911087036,0.05760030820965767,0.0,0.9094478487968445,0.0,0.0,-0.41581806540489197,-0.6000399589538574,-0.49823856353759766,0.0,0.0,0.0,0.8898382782936096,-0.3330283463001251,0.6295351386070251,0.4200000464916229,0.9999998211860657,3.446194796197233e-06,-2.6980785605701385e-06,-0.0005106729222461581,0.00030512522789649665,0.00025090412236750126,-9.998981840908527e-05,-0.0012907225172966719,0.005102610215544701,-5.815614713355899e-05,-0.3547365069389343,0.6362958550453186,0.4252714514732361,0.0303218811750412,0.3257683515548706,-0.16256730258464813,0.337629497051239,0.6713721752166748,0.42000001668930054,-0.6300247311592102,2.9999847412109375,-0.6334810853004456,-3.000000476837158,-0.14768478274345398,-0.153664231300354,-0.15884244441986084,-0.16352632641792297,-0.5233172178268433,-0.4320704936981201,-0.32731518149375916,-0.20579224824905396
0.3333333333333333,0.06031404808163643,0.047670118510723114,0.0,0.9030337929725647,0.0,0.0,-0.42956945300102234,-0.7440692782402039,-0.6366402506828308,0.0,0.0,0.0,-2.740544557571411,-0.3322654366493225,0.6309508681297302,0.4199998676776886,0.999911904335022,1.5852432625251822e-05,-4.868877113040071e-06,-0.013270588591694832,0.06705258786678314,0.11900866031646729,-0.00024081364972516894,-0.012073256075382233,0.005127660930156708,-1.9791463613510132,-0.35115525126457214,0.6384174823760986,0.42249631881713867,0.4064510464668274,0.10762754082679749,-0.16963434219360352,0.337629497051239,0.6713721752166748,0.42000001668930054,-0.5800197124481201,2.9999868869781494,-0.6835304498672485,-2.999990701675415,-0.1575295627117157,-0.1615350991487503,-0.16449415683746338,-0.16667397320270538,-0.610916018486023,-0.4705457091331482,-0.31688159704208374,-0.14813192188739777
0.35,0.051894061267375946,0.03502115234732628,0.0,0.9036896824836731,0.0,0.0,-0.4281879663467407,-0.41858088970184326,-0.8070107102394104,0.0,0.0,0.0,1.1155803203582764,-0.3281126320362091,0.6364069581031799,0.41999995708465576,0.9984105825424194,7.348457984335255e-07,3.4554038848000346e-06,-0.05635885149240494,0.3079949915409088,0.42570433020591736,-1.668679396971129e-05,0.0011119742412120104,-0.0003548283129930496,-8.685705184936523,-0.34421485662460327,0.6430161595344543,0.4201209545135498,0.5203017592430115,0.4555177092552185,-0.0968266949057579,0.337629497051239,0.6713721752166748,0.42000001668930054,-0.5300135016441345,2.999988317489624,-0.733568012714386,-3.000000238418579,-0.16761279106140137,-0.16898420453071594,-0.16907478868961334,-0.16813558340072632,-0.5490723252296448,-0.39025765657424927,-0.21696709096431732,-0.028454937040805817
0.36666666666666664,0.04176913946866989,0.020861122757196426,0.0,0.897565484046936,0.0,0.0,-0.4408811628818512,-0.6778557896614075,-0.875742495059967,0.0,0.0,0.0,-2.6571412086486816,-0.32099026441574097,0.6450766921043396,0.42000067234039307,0.9884116649627686,8.219806773013261e-07,-6.120417879174056e-07,-0.1517965942621231,0.5593416690826416,0.6325287222862244,-0.0009815040975809097,0.02268993854522705,0.005617375951260328,-15.261610984802246,-0.33235764503479004,0.650580883026123,0.4213683307170868,0.9549689292907715,0.602741003036499,0.09078008681535721,0.337629497051239,0.6713721752166748,0.42000001668930054,-0.4799605906009674,3.000000238418579,-0.7835708856582642,-2.9999754428863525,-0.17844539880752563,-0.17666573822498322,-0.17334435880184174,-0.16874195635318756,-0.6131312251091003,-0.4223547577857971,-0.21564678847789764,0.0059374296106398106
0.3833333333333333,0.034484706819057465,0.003930203150957823,0.0,0.8776310682296753,0.0,0.0,-0.4793367385864258,-0.379753053188324,-1.0613495111465454,0.0,0.0,0.0,-6.044149875640869,-0.30571311712265015,0.661034107208252,0.42092135548591614,0.9693465232849121,-0.02224014513194561,0.00525073055177927,-0.24463245272636414,1.3402717113494873,1.2820254564285278,0.003517942503094673,-0.3635959029197693,0.20838865637779236,-6.19735050201416,-0.31101664900779724,0.6643726825714111,0.4231840670108795,1.6547775268554688,1.0254634618759155,0.13688495755195618,0.337629497051239,0.6713721752166748,0.42000001668930054,-0.4299136698246002,2.9932971000671387,-0.8335810303688049,-3.000054121017456,-0.18645235896110535,-0.18177855014801025,-0.1752152144908905,-0.16705013811588287,-0.423495352268219,-0.25351500511169434,-0.06262698769569397,0.14701233804225922
0.4,0.029561810195446014,-0.008214989677071571,0.0,0.8417301774024963,0.0,0.0,-0.5398983955383301,-0.2508618235588074,-0.6095808744430542,0.0,0.0,0.0,-9.29322338104248,-0.257979154586792,0.6827486753463745,0.4248257577419281,0.9552021622657776,0.009997786022722721,-0.04272659868001938,-0.2926826775074005,3.962054967880249,1.8270399570465088,0.18672659993171692,24.806806564331055,-18.307165145874023,-1.0224552154541016,-0.2636146545410156,0.6872595548629761,0.4262923002243042,3.9020864963531494,1.80996835231781,0.3999234735965729,0.337629497051239,0.6713721752166748,0.42000001668930054,-0.38889753818511963,1.3545771837234497,-0.8246229887008667,2.997264862060547,-0.19969584047794342,-0.19090624153614044,-0.18007142841815948,-0.16755667328834534,-0.8269307613372803,-0.5777588486671448,-0.32553908228874207,-0.07528753578662872
0.4166666666666667,0.02800213359296322,-0.01756744645535946,0.0,0.7884483337402344,0.0,0.0,-0.6151009798049927,-0.03178036957979202,-0.5257371068000793,0.0,0.0,0.0,-11.829634666442871,-0.1728757917881012,0.7178380489349365,0.4314214885234833,0.9286243915557861,0.04918248578906059,-0.07813509553670883,-0.359350323677063,6.267204284667969,2.0192153453826904,0.42551589012145996,-2.3795552253723145,-6.270759105682373,22.53860092163086,-0.17764326930046082,0.7230029106140137,0.4330342710018158,6.223723888397217,2.491447687149048,0.5509176850318909,0.337629497051239,0.6713721752166748,0.42000001668930054,-0.3746022880077362,0.8675346374511719,-0.8511847853660583,-3.000002861022949,-0.21009311079978943,-0.19874338805675507,-0.18473145365715027,-0.16914664208889008,-0.5155319571495056,-0.40074753761291504,-0.2621152698993683,-0.13567771017551422
0.43333333333333335,0.023987164720892906,-0.022015957161784172,0.0,0.7436639666557312,0.0,0.0,-0.6685535907745361,-0.21324270963668823,-0.2551542818546295,0.0,0.0,0.0,-6.972542762756348,-0.07163777947425842,0.7489422559738159,0.44217196106910706,0.8785338997840881,0.1166909858584404,-0.11781936138868332,-0.44797298312187195,6.028433799743652,0.8267455697059631,0.8946756720542908,-0.4867045283317566,-3.5011868476867676,10.497245788574219,-0.07754674553871155,0.7561084628105164,0.4437762498855591,6.006838798522949,1.6015150547027588,0.684894323348999,0.337629497051239,0.6713721752166748,0.42000001668930054,-0.35866260528564453,0.9560686349868774,-0.8143177628517151,2.9999265670776367,-0.22250114381313324,-0.2085489183664322,-0.19168226420879364,-0.17366868257522583,-0.5912521481513977,-0.4870193898677826,-0.36171209812164307,-0.26109546422958374
0.45,0.02290179952979088,-0.023775530979037285,0.0,0.7233657240867615,0.0,0.0,-0.6904650330543518,-0.0009353696368634701,-0.04229799658060074,0.0,0.0,0.0,-2.449557065963745,0.02500763162970543,0.7650723457336426,0.45333942770957947,0.8188408017158508,0.13116846978664398,-0.12633268535137177,-0.544366180896759,5.905403137207031,-0.07192783802747726,0.8290087580680847,0.21096406877040863,-12.393753051757812,1.0756502151489258,0.018133454024791718,0.7740455865859985,0.4547201693058014,5.464143753051758,0.4436835050582886,0.6908098459243774,0.337629497051239,0.6713721752166748,0.42000001668930054,-0.34349316358566284,0.7157409191131592,-0.8407517671585083,-3.000002384185791,-0.23313574492931366,-0.21701399981975555,-0.19775721430778503,-0.17775939404964447,-0.6052789092063904,-0.4701588451862335,-0.32822224497795105,-0.20907089114189148
0.4666666666666667,0.0199486892670393,-0.030950579792261124,0.0,0.7250769138336182,0.0,0.0,-0.688667893409729,-0.24637356400489807,-0.5663814544677734,0.0,0.0,0.0,1.3355567455291748,0.10650365054607391,0.7689996957778931,0.4612062871456146,0.7677111625671387,0.1112343892455101,-0.11019008606672287,-0.6213731169700623,4.122335433959961,-0.9130700826644897,0.36344587802886963,-6.240965366363525,-13.056139945983887,23.188764572143555,0.10127396881580353,0.7787569165229797,0.4635659456253052,4.42910099029541,-0.04563945531845093,0.49009275436401367,0.337629497051239,0.6713721752166748,0.42000001668930054,-0.3330007791519165,0.46596860885620117,-0.8907776474952698,-3.0000030994415283,-0.23600026965141296,-0.21872156858444214,-0.19816753268241882,-0.1770710051059723,0.02208106592297554,0.06288047134876251,0.11050327867269516,0.15205615758895874
0.48333333333333334,0.020578263327479362,-0.03421253338456154,0.0,0.7166159749031067,0.0,0.0,-0.6974679231643677,0.03104272298514843,-0.2089453786611557,0.0,0.0,0.0,-2.1115243434906006,0.17510949075222015,0.759147584438324,0.46245619654655457,0.6807103157043457,0.07137317210435867,-0.14220435917377472,-0.7150644659996033,3.7185792922973633,-1.384257435798645,-0.14212466776371002,-25.465103149414062,3.770591974258423,-6.155948638916016,0.16826632618904114,0.7712167501449585,0.46768108010292053,3.8631606101989746,-0.6889222860336304,0.09587515890598297,0.337629497051239,0.6713721752166748,0.42000001668930054,-0.3251422941684723,0.4957272708415985,-0.9408016204833984,-2.9993762969970703,-0.23884961009025574,-0.22033938765525818,-0.19861455261707306,-0.17653335630893707,0.0645015612244606,0.08006343990564346,0.09460821747779846,0.10664676874876022
0.5,0.022579912096261978,-0.03610455244779587,0.0,0.720470130443573,0.0,0.0,-0.6934859752655029,0.16196785867214203,-0.02808360941708088,0.0,0.0,0.0,1.4345489740371704,0.2321043759584427,0.7440198659896851,0.4588145911693573,0.6258171200752258,0.03665228560566902,-0.13931775093078613,-0.7665507197380066,3.0328869819641113,-1.3881474733352661,-0.12423773109912872,-0.6188310980796814,10.267220497131348,-2.4686501026153564,0.22695067524909973,0.7566407322883606,0.4648440480232239,3.2106218338012695,-1.0873216390609741,-0.3601312041282654,0.337629497051239,0.6713721752166748,0.42000001668930054,-0.31409117579460144,0.7706982493400574,-0.9908256530761719,-2.9994397163391113,-0.23576535284519196,-0.2175646275281906,-0.19626173377037048,-0.1746472418308258,0.2443169802427292,0.20657587051391602,0.15503819286823273,0.0985623449087143
0.5166666666666666,0.026806212961673737,-0.039401669055223465,0.0,0.7137004733085632,0.0,0.0,-0.7004510164260864,0.2801387310028076,-0.19115953147411346,0.0,0.0,0.0,-1.969722032546997,0.27751654386520386,0.7267034649848938,0.448087602853775,0.5879378318786621,0.007125199306756258,-0.1294412761926651,-0.7984504699707031,2.248922109603882,-1.170816421508789,-0.5496891736984253,-4.318983554840088,14.751236915588379,-7.604635715484619,0.27348870038986206,0.7389880418777466,0.45482730865478516,2.4095299243927,-1.1953803300857544,-0.8343432545661926,0.337629497051239,0.6713721752166748,0.42000001668930054,-0.29927557706832886,0.9471664428710938,-1.0408481359481812,-2.9985883235931396,-0.2304285615682602,-0.21327395737171173,-0.1933220773935318,-0.1731494963169098,0.253501832485199,0.19506138563156128,0.11106088012456894,0.017208877950906754
0.5333333333333333,0.03294295817613602,-0.03897605463862419,0.0,0.7181275486946106,0.0,0.0,-0.6959115266799927,0.4154396951198578,0.049271415919065475,0.0,0.0,0.0,1.5569241046905518,0.3102143406867981,0.7064455151557922,0.4323047995567322,0.5539520382881165,-0.029090680181980133,-0.11463872343301773,-0.824104905128479,1.6115392446517944,-1.8396899700164795,-0.9512357115745544,-3.904604911804199,0.6583913564682007,7.9948930740356445,0.3072168231010437,0.7177435159683228,0.4394432604312897,1.6631239652633667,-1.2415615320205688,-1.0437917709350586,0.337629497051239,0.6713721752166748,0.42000001668930054,-0.2835589051246643,0.844046413898468,-1.0908702611923218,-3.0000011920928955,-0.22662845253944397,-0.21062195301055908,-0.19227327406406403,-0.17386256158351898,0.3400230407714844,0.23485511541366577,0.10332214087247849,-0.03444439917802811
0.55,0.03706633672118187,-0.04182319715619087,0.0,0.7116731405258179,0.0,0.0,-0.7025107145309448,0.1843954622745514,-0.2093401700258255,0.0,0.0,0.0,-1.92624831199646,0.32924774289131165,0.6939335465431213,0.42057928442955017,0.5409367680549622,-0.011972961015999317,-0.003957670647650957,-0.8409687280654907,0.5515830516815186,-0.5553296208381653,0.17157991230487823,-16.200464248657227,0.9655232429504395,2.816348075866699,0.3266139030456543,0.7015400528907776,0.4263126254081726,0.47315627336502075,-0.6250149011611938,-0.1814805120229721,0.337629497051239,0.6713721752166748,0.42000001668930054,-0.2704439163208008,0.7742727994918823,-1.1238455772399902,-1.0914595127105713,-0.21849100291728973,-0.2048598676919937,-0.1892586052417755,-0.17360574007034302,0.48733386397361755,0.34124934673309326,0.1751445233821869,0.011041617952287197
0.5666666666666667,0.04186423495411873,-0.041635651141405106,0.0,0.7162650227546692,0.0,0.0,-0.6978283524513245,0.33008256554603577,0.03187951818108559,0.0,0.0,0.0,1.5504900217056274,0.33593517541885376,0.6864849925041199,0.42131149768829346,0.5530173778533936,-0.02480822056531906,-0.010173680260777473,-0.8327381014823914,0.2517901360988617,-0.5199827551841736,0.03826548531651497,-2.8858420848846436,-0.8530364036560059,4.835728645324707,0.33184880018234253,0.6921877861022949,0.4274127781391144,0.20247158408164978,-0.4488506317138672,0.1336926370859146,0.337629497051239,0.6713721752166748,0.42000001668930054,-0.27093827724456787,-0.6558477878570557,-1.171066164970398,-2.999797821044922,-0.21148927509784698,-0.20026086270809174,-0.18734875321388245,-0.17431139945983887,0.5195966958999634,0.3478897511959076,0.16298887133598328,-0.013173789717257023
0.5833333333333334,0.044621504843235016,-0.04459052532911301,0.0,0.7097605466842651,0.0,0.0,-0.7044430375099182,0.10490608960390091,-0.21591050922870636,0.0,0.0,0.0,-1.9231562614440918,0.33830952644348145,0.6797879338264465,0.42038068175315857,0.5799041986465454,-0.007508711889386177,-0.00551225058734417,-0.8146313428878784,0.06998711824417114,-0.3214503228664398,-0.06720102578401566,3.2342469692230225,-1.2504632472991943,2.702821731567383,0.3329833745956421,0.6864691972732544,0.42646849155426025,-0.07940783351659775,-0.3219374120235443,-0.08055892586708069,0.337629497051239,0.6713721752166748,0.42000001668930054,-0.30531224608421326,-2.9999942779541016,-1.1331738233566284,2.9997968673706055,-0.2017628699541092,-0.19355404376983643,-0.18385908007621765,-0.17387443780899048,0.5186243653297424,0.35502344369888306,0.17843711376190186,0.00963578186929226
0.6,0.04815654456615448,-0.044594161212444305,0.0,0.7142665386199951,0.0,0.0,-0.6998737454414368,0.25305086374282837,0.028418099507689476,0.0,0.0,0.0,1.5217134952545166,0.338756799697876,0.6759286522865295,0.41999977827072144,0.5895856618881226,-5.263385446596658e-06,-3.060717062908225e-05,-0.8077058792114258,-0.016970885917544365,-0.16508392989635468,-0.001013614353723824,0.03314095735549927,-0.02321840636432171,1.2737163305282593,0.3313067555427551,0.6828460693359375,0.4277016520500183,-0.08412285149097443,-0.07589516043663025,0.10508988797664642,0.337629497051239,0.6713721752166748,0.42000001668930054,-0.3528248369693756,-2.689284086227417,-1.1552858352661133,-2.999675750732422,-0.19452451169490814,-0.18899989128112793,-0.18215590715408325,-0.1748644858598709,0.500260591506958,0.3173210918903351,0.12763018906116486,-0.04971403256058693
0.6166666666666667,0.053657498210668564,-0.04255688190460205,0.0,0.7073724269866943,0.0,0.0,-0.706840991973877,0.360390841960907,0.2217365950345993,0.0,0.0,0.0,-2.0738003253936768,0.3385728597640991,0.6741974949836731,0.4200000464916229,0.5941014289855957,-4.756380889148204e-08,1.294532552265082e-07,-0.8043901324272156,-0.009131289087235928,-0.08341260254383087,-5.327514372766018e-06,-9.774220234248787e-05,0.00021876057144254446,0.4847012460231781,0.33136385679244995,0.6844027638435364,0.4300813376903534,0.026345551013946533,0.14100414514541626,0.17721012234687805,0.337629497051239,0.6713721752166748,0.42000001668930054,-0.4026297628879547,-2.999687910079956,-1.2052475214004517,-2.999309539794922,-0.18417853116989136,-0.18227213621139526,-0.17900846898555756,-0.17495347559452057,0.6280896663665771,0.4155077040195465,0.20780324935913086,0.022068629041314125
0.6333333333333333,0.06142476573586464,-0.04421364143490791,0.0,0.7116212844848633,0.0,0.0,-0.7025632858276367,0.4774128496646881,-0.112879678606987,0.0,0.0,0.0,1.5256251096725464,0.33852720260620117,0.6737885475158691,0.4200000464916229,0.5948268175125122,4.702869205175375e-07,1.9915110271995218e-07,-0.8038538694381714,-0.00025126367108896375,-0.0023465955164283514,-2.2597028873860836e-05,-0.0008286149241030216,0.0004427506646607071,0.006921971682459116,0.33042171597480774,0.6855419874191284,0.43429452180862427,-0.18839669227600098,-0.07125578820705414,0.35946500301361084,0.337629497051239,0.6713721752166748,0.42000001668930054,-0.45264264941215515,-2.999999761581421,-1.255266547203064,-3.0,-0.17251332104206085,-0.17356324195861816,-0.17311806976795197,-0.1714937537908554,0.4554503858089447,0.35972508788108826,0.27169761061668396,0.2030380368232727
0.65,0.07054397463798523,-0.04832497984170914,0.0,0.7047774195671082,0.0,0.0,-0.7094284892082214,0.578338623046875,-0.3336354196071625,0.0,0.0,0.0,-2.052072763442993,0.3385269343852997,0.6737887859344482,0.4200000464916229,0.5948270559310913,2.0772931463852728e-07,-3.8178632166818716e-06,-0.8038536310195923,0.00010850980470422655,-0.00030202989000827074,-9.027332998812199e-05,0.007082486525177956,-0.0015786692965775728,-0.0006391856586560607,0.3309350609779358,0.6841437816619873,0.4378893971443176,0.20907767117023468,-0.11238647997379303,0.27700427174568176,0.337629497051239,0.6713721752166748,0.42000001668930054,-0.5026513338088989,-2.9998652935028076,-1.3052821159362793,-2.9999024868011475,-0.16665038466453552,-0.16861675679683685,-0.16889098286628723,-0.167632594704628,0.30786266922950745,0.2861635386943817,0.27873772382736206,0.29317352175712585
0.6666666666666666,0.0831131637096405,-0.04775219410657883,0.0,0.6764781475067139,0.0,0.0,-0.7364627122879028,0.758030354976654,0.0598958283662796,0.0,0.0,0.0,-5.564619541168213,0.3385269343852997,0.6737887859344482,0.4200000464916229,0.5948270559310913,3.89387594168511e-07,-3.250878080507391e-06,-0.8038536906242371,0.00012127166701247916,-0.00027547465288080275,-9.193364530801773e-05,0.0063123805448412895,-0.0012963872868567705,-0.0006414548843167722,0.33839714527130127,0.6820234060287476,0.4507385492324829,0.8009542226791382,0.00988057628273964,1.3389365673065186,0.337629497051239,0.6713721752166748,0.42000001668930054,-0.552663266658783,-2.9999821186065674,-1.3553004264831543,-2.999885320663452,-0.16890506446361542,-0.17006610333919525,-0.1693693995475769,-0.16689112782478333,-0.07120579481124878,-0.04569467902183533,-0.006857678294181824,0.04989184811711311
0.6833333333333333,0.0932939350605011,-0.044378530234098434,0.0,0.6613473892211914,0.0,0.0,-0.7500796914100647,0.5766509771347046,0.1686883419752121,0.0,0.0,0.0,-1.3784593343734741,0.3385269343852997,0.6737887859344482,0.4200000464916229,0.5948271155357361,3.8651464251415746e-07,-3.4317176869080868e-06,-0.8038535714149475,0.00012718683865386993,-0.00027316625346429646,-9.336089715361595e-05,0.0062224240973591805,-0.0012161622289568186,-0.0006525267963297665,0.3521423041820526,0.6865933537483215,0.4783669710159302,0.9223417043685913,0.4612225592136383,1.9268481731414795,0.337629497051239,0.6713721752166748,0.42000001668930054,-0.5885423421859741,-1.4107632637023926,-1.4053187370300293,-3.000000238418579,-0.16959086060523987,-0.1708126962184906,-0.16998854279518127,-0.16712550818920135,0.090912364423275,0.03873170539736748,-0.002470944309607148,-0.02812238223850727
0.7,0.09941878914833069,-0.0427398607134819,0.0,0.670081377029419,0.0,0.0,-0.7422876358032227,0.29962649941444397,0.1278553158044815,0.0,0.0,0.0,2.261564254760742,0.3385269343852997,0.6737887859344482,0.4200000464916229,0.5948270559310913,2.3502563806232502e-07,-3.44966883858433e-06,-0.8038535714149475,0.00012564244389068335,-0.0002728982362896204,-9.303702972829342e-05,0.006224387791007757,-0.0012337671360000968,-0.0006487416103482246,0.3681941032409668,0.6949915885925293,0.5033209323883057,0.9042206406593323,0.4917941689491272,1.143794298171997,0.337629497051239,0.6713721752166748,0.42000001668930054,-0.5857731699943542,1.4883061647415161,-1.4553332328796387,-3.000000476837158,-0.16546593606472015,-0.16768664121627808,-0.16773517429828644,-0.1655537188053131,0.27592554688453674,0.22668763995170593,0.1798841953277588,0.13856835663318634
0.7166666666666667,0.10189012438058853,-0.04445166885852814,0.0,0.666638195514679,0.0,0.0,-0.7453814148902893,0.11369270086288452,-0.15329737961292267,0.0,0.0,0.0,-1.4776136875152588,0.3385269343852997,0.6737887859344482,0.4200000464916229,0.5948271751403809,1.9729701250525977e-07,-3.4815698199963663e-06,-0.8038535714149475,0.00012710652663372457,-0.0002728515537455678,-9.334669448435307e-05,0.006215417291969061,-0.0012153791030868888,-0.000652007176540792,0.3766497075557709,0.7014067769050598,0.5163578391075134,0.1176166981458664,0.2596092224121094,0.6006131172180176,0.337629497051239,0.6713721752166748,0.42000001668930054,-0.5748288631439209,-0.05172523856163025,-1.4167345762252808,3.000000238418579,-0.16140086948871613,-0.16406233608722687,-0.16460967063903809,-0.1629531979560852,0.1446545422077179,0.15151247382164001,0.14828990399837494,0.13569681346416473
0.7333333333333333,0.10101950168609619,-0.040800657123327255,0.0,0.6743603348731995,0.0,0.0,-0.7384024262428284,-0.06756086647510529,0.21544302999973297,0.0,0.0,0.0,1.9581499099731445,0.3385269045829773,0.6737887859344482,0.4200000464916229,0.5948271155357361,2.351258387989219e-07,-3.51942526322091e-06,-0.8038535714149475,0.00012577290181070566,-0.0002726132224779576,-9.307940490543842e-05,0.0062168133445084095,-0.0012309286976233125,-0.0006487470818683505,0.3769075274467468,0.7035773396492004,0.5236034393310547,0.03801826387643814,0.17337846755981445,0.26318472623825073,0.337629497051239,0.6713721752166748,0.42000001668930054,-0.5624076724052429,1.4081535339355469,-1.4345202445983887,-3.000000476837158,-0.16436943411827087,-0.16580431163311005,-0.16543219983577728,-0.16318482160568237,-0.040531616657972336,-0.004059978295117617,0.01574670523405075,0.017992166802287102
0.75,0.10133764147758484,-0.04133405163884163,0.0,0.669653058052063,0.0,0.0,-0.7426740527153015,0.04064206779003143,-0.09356164932250977,0.0,0.0,0.0,-1.636285662651062,0.3385269343852997,0.6737887859344482,0.4200000464916229,0.5948271751403809,2.440593789287959e-07,-3.3530100154166576e-06,-0.8038536310195923,0.00012507008796092123,-0.0002729095867834985,-9.285425767302513e-05,0.006228208541870117,-0.0012390766059979796,-0.0006473569083027542,0.3720354437828064,0.7062146067619324,0.5209943056106567,-0.598719596862793,0.0869104266166687,-0.3781079649925232,0.337629497051239,0.6713721752166748,0.42000001668930054,-0.5573667287826538,-0.6302690505981445,-1.3959810733795166,3.000000476837158,-0.16415950655937195,-0.16512861847877502,-0.1645708680152893,-0.16243577003479004,-0.04181164503097534,-1.6298145055770874e-08,0.02538508176803589,0.02891302853822708
0.7666666666666666,0.10399925708770752,-0.039643000811338425,0.0,0.6762974262237549,0.0,0.0,-0.7366286516189575,0.19000792503356934,0.1324899047613144,0.0,0.0,0.0,1.84023118019104,0.3385269343852997,0.6737887859344482,0.4200000464916229,0.5948272347450256,2.0503556186213245e-07,-3.377256234671222e-06,-0.8038535118103027,0.00012673233868554235,-0.0002729269035626203,-9.325798600912094e-05,0.006219225469976664,-0.0012201702920719981,-0.0006512476829811931,0.36639702320098877,0.7065774202346802,0.5160274505615234,-0.0635208785533905,0.05596606433391571,-0.1990319937467575,0.337629497051239,0.6713721752166748,0.42000001668930054,-0.5769610404968262,-1.6190413236618042,-1.4141792058944702,-2.999999523162842,-0.16643670201301575,-0.16641736030578613,-0.16503362357616425,-0.1623283326625824,-0.04809797555208206,-0.010241348296403885,0.026538778096437454,0.05724295973777771
0.7833333333333333,0.1083822101354599,-0.041283831000328064,0.0,0.6711516976356506,0.0,0.0,-0.741320013999939,0.2934517562389374,-0.1562502682209015,0.0,0.0,0.0,-1.7074023485183716,0.3385269343852997,0.6737887859344482,0.4200000464916229,0.5948269963264465,2.1616430956328259e-07,-3.402809852559585e-06,-0.8038536310195923,0.00012652442092075944,-0.00027298720669932663,-9.321258403360844e-05,0.006221757736057043,-0.0012231591390445828,-0.0006506745121441782,0.3680591583251953,0.7056236267089844,0.5085577368736267,0.22484758496284485,-0.209227055311203,-0.5128757953643799,0.337629497051239,0.6713721752166748,0.42000001668930054,-0.6210610866546631,-2.9999983310699463,-1.4641975164413452,-3.000000238418579,-0.16669034957885742,-0.16588710248470306,-0.16366736590862274,-0.1601553112268448,-0.07563072443008423,4.877801984548569e-08,0.08186743408441544,0.16147974133491516
0.8,0.11507707089185715,-0.046631090342998505,0.0,0.646501362323761,0.0,0.0,-0.7629128098487854,0.44798633456230164,-0.38625314831733704,0.0,0.0,0.0,-4.809610843658447,0.3385269343852997,0.6737887859344482,0.4200000464916229,0.5948271155357361,2.2831021340152802e-07,-3.432287712712423e-06,-0.8038536310195923,0.0001269494678126648,-0.0002728281542658806,-9.331293404102325e-05,0.006215567234903574,-0.0012173113645985723,-0.000651644601020962,0.37649795413017273,0.7020138502120972,0.5047134160995483,0.7907156348228455,-0.2179010957479477,0.1883198618888855,0.337629497051239,0.6713721752166748,0.42000001668930054,-0.6710679531097412,-2.9999632835388184,-1.5142158269882202,-2.9999983310699463,-0.16933225095272064,-0.1671912670135498,-0.1635071039199829,-0.15853182971477509,-0.1849644035100937,-0.10480138659477234,-0.016755301505327225,0.0725664347410202
0.8166666666666667,0.12559804320335388,-0.04692920297384262,0.0,0.6346209645271301,0.0,0.0,-0.7728235721588135,0.5775659084320068,0.0260024331510067,0.0,0.0,0.0,-0.8114466071128845,0.3385269343852997,0.6737887859344482,0.4200000464916229,0.5948271751403809,2.1804811467518448e-07,-3.464355359028559e-06,-0.8038535118103027,0.00012712918396573514,-0.00027285044780001044,-9.335856884717941e-05,0.006215217988938093,-0.0012152567505836487,-0.0006520667811855674,0.3863796293735504,0.701960563659668,0.5127540230751038,0.45536911487579346,0.34451425075531006,0.6972343325614929,0.337629497051239,0.6713721752166748,0.42000001668930054,-0.6874388456344604,0.7239680886268616,-1.5642341375350952,-2.999999761581421,-0.17641671001911163,-0.17278538644313812,-0.1676466464996338,-0.16134591400623322,-0.23567573726177216,-0.22417402267456055,-0.21478328108787537,-0.21049675345420837
0.8333333333333334,0.13212153315544128,-0.04593623802065849,0.0,0.6462758183479309,0.0,0.0,-0.7631039023399353,0.33650070428848267,0.1051441952586174,0.0,0.0,0.0,2.6126556396484375,0.3385269343852997,0.6737887859344482,0.4200000464916229,0.5948272943496704,2.195907313762291e-07,-3.4991035136044957e-06,-0.8038535118103027,0.00012725612032227218,-0.0002728251274675131,-9.338604286313057e-05,0.006213830783963203,-0.0012136376462876797,-0.0006523248739540577,0.3948709964752197,0.7077298760414124,0.5194711089134216,0.4816603660583496,0.3351348340511322,0.1450669914484024,0.337629497051239,0.6713721752166748,0.42000001668930054,-0.6583549380302429,2.5796926021575928,-1.5253206491470337,3.000000238418579,-0.17766296863555908,-0.17434582114219666,-0.16951648890972137,-0.1635533571243286,-0.009936006739735603,-0.03859724476933479,-0.06761709600687027,-0.09817250818014145
0.85,0.13447798788547516,-0.04940411448478699,0.0,0.6458665132522583,0.0,0.0,-0.7634503245353699,0.11376447975635529,-0.2609129250049591,0.0,0.0,0.0,-0.8862632513046265,0.3385269343852997,0.6737887859344482,0.4200000464916229,0.5948272943496704,3.9628582726436434e-07,-3.338604983582627e-06,-0.803853452205658,0.0001301482116105035,-0.00027336255880072713,-9.40102618187666e-05,0.006210994441062212,-0.0011812327429652214,-0.0006593001889996231,0.3971784710884094,0.7126563787460327,0.5183141231536865,-0.20517852902412415,0.14418675005435944,-0.14102183282375336,0.337629497051239,0.6713721752166748,0.42000001668930054,-0.6417418718338013,-0.3449210822582245,-1.4752641916275024,3.0000007152557373,-0.17492665350437164,-0.1724330186843872,-0.16843733191490173,-0.16331879794597626,0.04895912483334541,0.033198192715644836,0.012240976095199585,-0.01394602656364441
0.8666666666666667,0.13399046659469604,-0.04792799428105354,0.0,0.6571100354194641,0.0,0.0,-0.7537946701049805,-0.05413465201854706,0.10416310280561447,0.0,0.0,0.0,2.5099356174468994,0.3385269343852997,0.6737887859344482,0.4200000464916229,0.5948272347450256,2.0952958834641322e-07,-3.363508994880249e-06,-0.803853452205658,0.000126876519061625,-0.00027290944126434624,-9.331456385552883e-05,0.006217682734131813,-0.0012190848356112838,-0.0006516112480312586,0.3953994810581207,0.7137578725814819,0.5158823728561401,0.04395679756999016,0.15563388168811798,-0.16035601496696472,0.337629497051239,0.6713721752166748,0.42000001668930054,-0.6307189464569092,1.4992868900299072,-1.4919241666793823,-2.999999761581421,-0.17883531749248505,-0.17566049098968506,-0.1711055487394333,-0.16556622087955475,-0.1205340027809143,-0.11031180620193481,-0.1018693819642067,-0.09525704383850098
