vladlanda/robotic-transformer/data/env_000_episode_0043.csv
sim_time_s,robot_box_x,robot_box_y,robot_box_z,robot_box_quat_w,robot_box_quat_x,robot_box_quat_y,robot_box_quat_z,robot_box_linvel_x,robot_box_linvel_y,robot_box_linvel_z,robot_box_angvel_x,robot_box_angvel_y,robot_box_angvel_z,cube_world_x,cube_world_y,cube_world_z,cube_quat_w,cube_quat_x,cube_quat_y,cube_quat_z,cube_linvel_x,cube_linvel_y,cube_linvel_z,cube_angvel_x,cube_angvel_y,cube_angvel_z,endpoint_world_x,endpoint_world_y,endpoint_world_z,endpoint_linvel_x,endpoint_linvel_y,endpoint_linvel_z,target_cube_world_x,target_cube_world_y,target_cube_world_z,gripper_actual_pos_rad_gp_leftgearjoint,gripper_actual_vel_rad_s_gp_leftgearjoint,gripper_actual_pos_rad_gp_rotatingjoint,gripper_actual_vel_rad_s_gp_rotatingjoint,motor_angle_rad_joint1,motor_angle_rad_joint2,motor_angle_rad_joint3,motor_angle_rad_joint4,motor_speed_rad_s_joint1,motor_speed_rad_s_joint2,motor_speed_rad_s_joint3,motor_speed_rad_s_joint4
0.0,0.0,0.0,0.0,1.0,0.0,0.0,0.0,0.0,0.0,0.0,0.0,0.0,0.0,-0.3260653614997864,0.6992120742797852,0.41999998688697815,1.0,0.0,0.0,0.0,0.0,0.0,0.0,0.0,0.0,0.0,3.42540442943573e-06,-0.005000244826078415,1.313499927520752,0.0,0.0,0.0,0.36557549238204956,0.7164678573608398,0.42000001668930054,-1.5707999467849731,0.0,0.0,0.0,0.0,0.0,0.0,0.0,0.0,0.0,0.0,0.0
0.016666666666666666,0.0028697780799120665,0.0021563307382166386,0.0,0.9998250007629395,0.0,0.0,-0.018706582486629486,0.2391296625137329,0.1801496297121048,0.0,0.0,0.0,-3.1459732055664062,-0.3260654807090759,0.6992117762565613,0.41999998688697815,1.0,3.2799905511637917e-06,-8.339794135281409e-07,8.465515577427141e-08,-1.9833774786093272e-05,0.00017983047291636467,-6.132945418357849e-05,0.0009432245860807598,-0.004689525347203016,-0.00031981084612198174,-0.006980942562222481,0.004101364873349667,1.315926194190979,-0.7935407161712646,1.0449506044387817,0.17920400202274323,0.36557549238204956,0.7164678573608398,0.42000001668930054,-1.5301092863082886,3.000002384185791,-0.045870717614889145,-3.000000476837158,0.0008642931352369487,0.0007909754640422761,0.0007055310416035354,0.000605884357355535,0.11034619808197021,0.09691201150417328,0.0826164036989212,0.06742236018180847
0.03333333333333333,0.008871140889823437,0.0067434487864375114,0.0,0.9998096227645874,0.0,0.0,-0.01951097697019577,0.4026048183441162,0.31408196687698364,0.0,0.0,0.0,0.8650226593017578,-0.3260655999183655,0.6992117166519165,0.4200000464916229,1.0,3.3908531804627273e-06,-2.132488134520827e-06,-3.710428941872124e-08,0.0002635785494931042,0.0002693783608265221,-0.00010509602725505829,-0.0017707846127450466,0.004130862653255463,-0.00013547409616876394,-0.02640676125884056,0.025661252439022064,1.316796064376831,-1.4707664251327515,1.5725635290145874,-0.053588539361953735,0.36557549238204956,0.7164678573608398,0.42000001668930054,-1.4800900220870972,3.000001907348633,-0.09591048955917358,-3.000000476837158,0.0029181374702602625,0.0025752319488674402,0.0021945845801383257,0.0017737322486937046,0.15879206359386444,0.13413015007972717,0.1079821065068245,0.08023308217525482
0.05,0.017522644251585007,0.013545626774430275,0.0,0.9994022846221924,0.0,0.0,-0.034569576382637024,0.5814406275749207,0.4507195055484772,0.0,0.0,0.0,-2.638686418533325,-0.32606562972068787,0.6992117762565613,0.4200000464916229,1.0,3.7651284401363228e-06,-2.2118861124909017e-06,5.622759147172474e-09,0.00026530996547080576,0.00026691515813581645,-0.00010440382175147533,-0.00172425655182451,0.004177390597760677,-0.00012948956282343715,-0.05154610797762871,0.057502198964357376,1.3129658699035645,-1.5344586372375488,2.2013936042785645,-0.37388116121292114,0.36557549238204956,0.7164678573608398,0.42000001668930054,-1.4300717115402222,3.000000238418579,-0.14592313766479492,-3.000000476837158,0.005117503460496664,0.004161585122346878,0.003133901162073016,0.0020300636533647776,0.1360384076833725,0.08354543149471283,0.029179774224758148,-0.02714506722986698
0.06666666666666667,0.029695946723222733,0.022827088832855225,0.0,0.9970804452896118,0.0,0.0,-0.07635832577943802,0.7901993989944458,0.6018023490905762,0.0,0.0,0.0,-5.862295150756836,-0.32606562972068787,0.6992117166519165,0.4200000464916229,0.9999999403953552,3.406779342185473e-06,-2.285526988998754e-06,4.300881926155853e-07,0.00026702668401412666,0.00026791810523718596,-0.00010437914170324802,-0.0017406379338353872,0.004211799707263708,-0.00012850595521740615,-0.07860624045133591,0.0976373553276062,1.3043107986450195,-1.6932587623596191,2.577397584915161,-0.6642509698867798,0.36557549238204956,0.7164678573608398,0.42000001668930054,-1.3800488710403442,3.0000007152557373,-0.11241701990365982,3.000002145767212,0.006995463278144598,0.005131355486810207,0.0031576661858707666,0.0010655660880729556,0.10815416276454926,0.048173997551202774,-0.013903489336371422,-0.07801968604326248
0.08333333333333333,0.03604154661297798,0.03682678937911987,0.0,0.9949126243591309,0.0,0.0,-0.10074183344841003,0.2501074969768524,0.929881751537323,0.0,0.0,0.0,-1.9061893224716187,-0.32606562972068787,0.6992117166519165,0.4200000464916229,1.0,3.6973510759708006e-06,-2.1889595700486097e-06,-2.632473012909031e-07,0.00026389595586806536,0.0002658632874954492,-0.0001043388620018959,-0.0017081330297514796,0.004150238819420338,-0.00012991279072593898,-0.10996334254741669,0.13739797472953796,1.2903103828430176,-1.868283748626709,2.444474697113037,-0.9240816235542297,0.36557549238204956,0.7164678573608398,0.42000001668930054,-1.3300495147705078,3.00000262260437,-0.14440561830997467,-3.000000238418579,0.0026516353245824575,0.00016936437168624252,-0.0024754288606345654,-0.005294122267514467,-0.35943129658699036,-0.40143147110939026,-0.4460256099700928,-0.49341052770614624
0.1,0.04715815559029579,0.04674975201487541,0.0,0.9905326962471008,0.0,0.0,-0.13727706670761108,0.6934370398521423,0.5855209827423096,0.0,0.0,0.0,-4.9692301750183105,-0.32606562972068787,0.6992117166519165,0.4200000464916229,0.9999999403953552,3.62046125701454e-06,-2.2652770894637797e-06,1.745990232393524e-07,0.0002667673397809267,0.00026740715838968754,-0.0001040794886648655,-0.0017385382670909166,0.004209098871797323,-0.0001277524424949661,-0.13744094967842102,0.18189257383346558,1.2752788066864014,-1.485900640487671,3.0315747261047363,-0.9604131579399109,0.36557549238204956,0.7164678573608398,0.42000001668930054,-1.280038833618164,3.0,-0.19441606104373932,-2.999999523162842,0.0025189968291670084,-0.0016108591808006167,-0.005895730573683977,-0.010345681570470333,-0.1625625044107437,-0.2523169219493866,-0.34248942136764526,-0.4329204559326172
0.11666666666666667,0.055620741099119186,0.058370258659124374,0.0,0.9817675948143005,0.0,0.0,-0.19008523225784302,0.45757752656936646,0.7593276500701904,0.0,0.0,0.0,-7.250123977661133,-0.32606562972068787,0.6992117166519165,0.4200000464916229,1.0,3.7984573282301426e-06,-2.262856924062362e-06,-1.5021495869405044e-07,0.00026374036679044366,0.000265661277808249,-0.00010429229587316513,-0.001705389702692628,0.004147546831518412,-0.000129798921989277,-0.16490525007247925,0.23475882411003113,1.2567050457000732,-1.6562681198120117,3.4209141731262207,-1.2514609098434448,0.36557549238204956,0.7164678573608398,0.42000001668930054,-1.2310630083084106,2.8484318256378174,-0.16065147519111633,2.999997854232788,-0.0007648040191270411,-0.0064201452769339085,-0.012210885994136333,-0.01814434863626957,-0.19248470664024353,-0.28379300236701965,-0.3728387951850891,-0.4594511091709137
0.13333333333333333,0.06178932264447212,0.06803882867097855,0.0,0.9749577641487122,0.0,0.0,-0.22239024937152863,0.31935006380081177,0.5070424675941467,0.0,0.0,0.0,-2.8539557456970215,-0.32606562972068787,0.6992117762565613,0.4200000464916229,0.9999999403953552,3.5505674986779923e-06,-2.2298811472865054e-06,2.928988749317796e-07,0.0002670325629878789,0.0002677947923075408,-0.00010417005978524685,-0.0017441295785829425,0.004213639069348574,-0.00012800269178114831,-0.19784806668758392,0.28856360912323,1.2325845956802368,-1.9165056943893433,3.4073939323425293,-1.6316561698913574,0.36557549238204956,0.7164678573608398,0.42000001668930054,-1.181624412536621,3.0000014305114746,-0.19233950972557068,-3.0000007152557373,-0.003650445956736803,-0.01088927686214447,-0.01820468157529831,-0.02560129389166832,-0.20679619908332825,-0.2958664000034332,-0.38113757967948914,-0.4624917507171631
0.15,0.07238408923149109,0.07323425263166428,0.0,0.963937520980835,0.0,0.0,-0.2661287188529968,0.6273381114006042,0.2567914128303528,0.0,0.0,0.0,-5.9389519691467285,-0.3260655999183655,0.6992117166519165,0.4200000464916229,1.0,3.3323158277198672e-06,-2.1020741769461893e-06,1.3129495357588894e-07,0.00026730698300525546,0.0002685973886400461,-0.00010459753684699535,-0.0017497893422842026,0.0042156679555773735,-0.00012928378419019282,-0.22762411832809448,0.35092371702194214,1.1993402242660522,-1.61911940574646,4.101282119750977,-2.332301378250122,0.36557549238204956,0.7164678573608398,0.42000001668930054,-1.1316121816635132,2.9999938011169434,-0.1585853099822998,3.0,-0.005918807350099087,-0.014565631747245789,-0.023226046934723854,-0.03190310299396515,-0.356574147939682,-0.40421929955482483,-0.4499741494655609,-0.4937601685523987
0.16666666666666666,0.07652521878480911,0.0818806141614914,0.0,0.9569400548934937,0.0,0.0,-0.29028570652008057,0.16551972925662994,0.4955715239048004,0.0,0.0,0.0,-1.763863444328308,-0.32606562972068787,0.6992117166519165,0.4200000464916229,1.0,3.7374031762738014e-06,-2.2332269509206526e-06,-1.876583866078363e-07,0.00026432963204570115,0.000266269693383947,-0.00010446016676723957,-0.0017119431868195534,0.004157555289566517,-0.00013001271872781217,-0.2583790719509125,0.414222776889801,1.1510995626449585,-1.7144246101379395,3.9055542945861816,-3.2347445487976074,0.36557549238204956,0.7164678573608398,0.42000001668930054,-1.0816330909729004,2.9935498237609863,-0.1902994066476822,-2.9999992847442627,-0.01865406334400177,-0.027409633621573448,-0.036169055849313736,-0.044608961790800095,-0.6990708112716675,-0.7353782653808594,-0.7690072059631348,-0.7567441463470459
0.18333333333333332,0.08553823083639145,0.08938871324062347,0.0,0.9455670714378357,0.0,0.0,-0.3254272937774658,0.5309621691703796,0.4768257141113281,0.0,0.0,0.0,-5.240870475769043,-0.32606562972068787,0.6992117762565613,0.4200000464916229,0.9999999403953552,3.6603628359443974e-06,-2.302359689565492e-06,2.52847314641258e-07,0.0002669092209544033,0.00026760256150737405,-0.0001041253563016653,-0.0017412835732102394,0.004211553372442722,-0.00012787102605216205,-0.28447312116622925,0.48205938935279846,1.0902249813079834,-1.3416866064071655,4.134901523590088,-4.094280242919922,0.36557549238204956,0.7164678573608398,0.42000001668930054,-1.0316283702850342,3.000001907348633,-0.24032683670520782,-3.0000009536743164,-0.027246978133916855,-0.03668510168790817,-0.04606935754418373,-0.054490093141794205,-0.7022745013237,-0.7016443014144897,-0.6997228264808655,-0.6686886548995972
0.2,0.09160670638084412,0.09542116522789001,0.0,0.9401794672012329,0.0,0.0,-0.3406795561313629,0.2977897822856903,0.25355321168899536,0.0,0.0,0.0,-0.857140064239502,-0.32606562972068787,0.6992117166519165,0.4200000464916229,1.0,3.5909113194065867e-06,-2.3004156446404522e-06,1.3872801218894892e-07,0.00026654769317246974,0.0002673235139809549,-0.00010424060747027397,-0.0017326237866654992,0.004203386604785919,-0.00012819955009035766,-0.30785903334617615,0.5453231930732727,1.014024257659912,-1.1449275016784668,3.646528959274292,-4.966222763061523,0.36557549238204956,0.7164678573608398,0.42000001668930054,-0.9816198348999023,3.0000009536743164,-0.29035329818725586,-3.0,-0.0417550764977932,-0.05046428367495537,-0.05912820249795914,-0.0664939433336258,-0.9270470142364502,-0.8630303144454956,-0.8004233241081238,-0.7247075438499451
0.21666666666666667,0.09342693537473679,0.1021852195262909,0.0,0.9307867288589478,0.0,0.0,-0.36556270718574524,0.038656849414110184,0.45883819460868835,0.0,0.0,0.0,-4.00583028793335,-0.32606562972068787,0.6992117762565613,0.4200000464916229,1.0,3.607003463912406e-06,-2.2610099676967366e-06,1.9621262836722053e-08,0.0002644715132191777,0.00026558490935713053,-0.00010396563448011875,-0.0017088435124605894,0.004164247307926416,-0.00012832065112888813,-0.3251778483390808,0.6032199859619141,0.9247629642486572,-0.8190135955810547,3.2130324840545654,-5.636431694030762,0.36557549238204956,0.7164678573608398,0.42000001668930054,-0.9316110014915466,3.0000007152557373,-0.34038230776786804,-3.0000011920928955,-0.05801062658429146,-0.066738061606884,-0.07494519650936127,-0.0812983363866806,-0.9866902828216553,-0.9834120869636536,-0.9746495485305786,-0.9460889101028442
0.23333333333333334,0.09803285449743271,0.11050539463758469,0.0,0.9276372790336609,0.0,0.0,-0.3734823167324066,0.3594372272491455,0.5235942006111145,0.0,0.0,0.0,-0.054000742733478546,-0.3260655999183655,0.6992117166519165,0.4200000464916229,0.9999999403953552,3.742284661711892e-06,-2.2275266928772908e-06,4.589204536387115e-07,0.00026475160848349333,0.00026671282830648124,-0.00010453304275870323,-0.00171882554423064,0.004165722988545895,-0.0001301881711697206,-0.34152019023895264,0.6476155519485474,0.8282639384269714,-0.8374428749084473,2.2034685611724854,-5.944635391235352,0.36557549238204956,0.7164678573608398,0.42000001668930054,-0.881601095199585,2.99999737739563,-0.3904132843017578,-2.9999990463256836,-0.0733281597495079,-0.08211872726678848,-0.0900149866938591,-0.09569992125034332,-0.8993453979492188,-0.902106523513794,-0.8803256154060364,-0.8350828886032104
0.25,0.10036502778530121,0.1162618100643158,0.0,0.9189540147781372,0.0,0.0,-0.39436471462249756,0.08089109510183334,0.32286882400512695,0.0,0.0,0.0,-3.4568281173706055,-0.32606562972068787,0.6992117166519165,0.4200000464916229,1.0,3.3944668302865466e-06,-2.2821172933618072e-06,1.336286601372194e-07,0.00026679367874749005,0.0002679389144759625,-0.00010439474135637283,-0.0017417257186025381,0.004206514917314053,-0.00012883533781860024,-0.3522076904773712,0.6793543100357056,0.7234777212142944,-0.3445912003517151,1.4928300380706787,-6.446979999542236,0.36557549238204956,0.7164678573608398,0.42000001668930054,-0.8315916657447815,2.9999969005584717,-0.4404449462890625,-3.000001907348633,-0.08998359739780426,-0.09873209148645401,-0.10644080489873886,-0.11153587698936462,-0.9918745756149292,-0.9934641718864441,-0.9946909546852112,-0.9940716028213501
0.26666666666666666,0.09917173534631729,0.11866813898086548,0.0,0.917527437210083,0.0,0.0,-0.39767247438430786,-0.12538841366767883,0.0766526609659195,0.0,0.0,0.0,0.4124261140823364,-0.32606562972068787,0.6992117762565613,0.4200000464916229,1.0,3.683521072161966e-06,-2.3101358692656504e-06,2.1009377348946146e-07,0.0002647914516273886,0.0002662584010977298,-0.00010421173647046089,-0.0017169081838801503,0.004168983548879623,-0.00012909200449939817,-0.35776591300964355,0.693589448928833,0.6174089908599854,-0.14584319293498993,0.2549874186515808,-6.27199649810791,0.36557549238204956,0.7164678573608398,0.42000001668930054,-0.7815828323364258,2.9999959468841553,-0.4904758334159851,-2.9999990463256836,-0.10706798732280731,-0.1156916618347168,-0.12330885976552963,-0.12833473086357117,-0.9996708035469055,-0.9993157386779785,-0.9990805387496948,-0.9989205598831177
0.2833333333333333,0.09503292292356491,0.1180778443813324,0.0,0.9105741381645203,0.0,0.0,-0.4133458435535431,-0.296507865190506,-0.08271421492099762,0.0,0.0,0.0,-2.906489372253418,-0.32606562972068787,0.6992117166519165,0.4200000464916229,1.0,3.307066890556598e-06,-2.212535264334292e-06,2.6255446528011817e-07,0.00026660817093215883,0.0002674499119166285,-0.00010424223728477955,-0.0017352099530398846,0.004204348661005497,-0.0001282771409023553,-0.35401731729507446,0.6970430612564087,0.515542209148407,0.5857425332069397,0.050178561359643936,-5.761743545532227,0.36557549238204956,0.7164678573608398,0.42000001668930054,-0.7315740585327148,3.000001907348633,-0.5405053496360779,-2.9999992847442627,-0.12475447356700897,-0.1331549435853958,-0.14060235023498535,-0.145493283867836,-1.017331600189209,-1.013087511062622,-1.0098429918289185,-1.0072494745254517
0.3,0.08862053602933884,0.11503197252750397,0.0,0.9110326766967773,0.0,0.0,-0.4123341143131256,-0.4218021631240845,-0.22306866943836212,0.0,0.0,0.0,1.038703441619873,-0.32606562972068787,0.6992117166519165,0.4200000464916229,1.0,3.6565252230502665e-06,-2.2969290967012057e-06,-2.4498103812220506e-07,0.0002653322007972747,0.0002659547026269138,-0.00010385178029537201,-0.001716420752927661,0.004181907512247562,-0.000127459890791215,-0.3437348008155823,0.6982569694519043,0.4258066415786743,0.7957286834716797,-0.030691005289554596,-5.07219123840332,0.36557549238204956,0.7164678573608398,0.42000001668930054,-0.6815670728683472,3.0,-0.590532660484314,-3.000002384185791,-0.14203830063343048,-0.1503009796142578,-0.15764692425727844,-0.1624595820903778,-1.0126954317092896,-1.0096389055252075,-1.0072929859161377,-1.0054049491882324
0.31666666666666665,0.08012615889310837,0.10964783281087875,0.0,0.9057114720344543,0.0,0.0,-0.4238947331905365,-0.5582132935523987,-0.3642231523990631,0.0,0.0,0.0,-2.5160701274871826,-0.3262771964073181,0.6965730786323547,0.4200046956539154,0.9989985227584839,-9.129335012403317e-06,-0.0001255938841495663,-0.0447423942387104,0.004251391161233187,-0.1037004366517067,-0.0001035686582326889,0.0034444574266672134,0.0016927386168390512,-3.1878883838653564,-0.34460216760635376,0.700165867805481,0.4265654981136322,0.04270520433783531,0.037651702761650085,-0.20313170552253723,0.36557549238204956,0.7164678573608398,0.42000001668930054,-0.6315631866455078,2.9999887943267822,-0.641010046005249,-3.0000014305114746,-0.14951524138450623,-0.15727010369300842,-0.16379784047603607,-0.167483851313591,-0.4890778064727783,-0.42969775199890137,-0.3566523790359497,-0.2742573618888855
0.3333333333333333,0.06939227133989334,0.10193478316068649,0.0,0.9070480465888977,0.0,0.0,-0.42102712392807007,-0.6822617053985596,-0.5027192831039429,0.0,0.0,0.0,1.3102999925613403,-0.3252704441547394,0.6971899271011353,0.42013537883758545,0.9971870183944702,0.0033729644492268562,-0.0001324003969784826,-0.0748773068189621,0.24378865957260132,0.28864842653274536,0.03217155486345291,1.6399943828582764,-0.2138892561197281,-9.000088691711426,-0.3417033553123474,0.7048627734184265,0.4232825040817261,0.26650264859199524,0.39550745487213135,-0.16597294807434082,0.36557549238204956,0.7164678573608398,0.42000001668930054,-0.5815580487251282,2.9999728202819824,-0.6910541653633118,-3.0000038146972656,-0.1587192267179489,-0.1648864597082138,-0.16962069272994995,-0.171444371342659,-0.5377438068389893,-0.4270601272583008,-0.3052680790424347,-0.1832524538040161
0.35,0.06137595698237419,0.0914621502161026,0.0,0.9020307064056396,0.0,0.0,-0.43167194724082947,-0.36044326424598694,-0.6841340661048889,0.0,0.0,0.0,-2.2916595935821533,-0.32157137989997864,0.7016088962554932,0.42000070214271545,0.990227222442627,-1.772728137439117e-05,1.2162990060460288e-05,-0.13946348428726196,0.24944473803043365,0.2934019863605499,-0.001062734518200159,0.04353408142924309,-0.01354225818067789,-8.557278633117676,-0.3350129723548889,0.70932936668396,0.4210810959339142,0.556111752986908,0.2777579128742218,-0.11685667932033539,0.36557549238204956,0.7164678573608398,0.42000001668930054,-0.5315532684326172,3.000000476837158,-0.7411128282546997,-2.999995231628418,-0.168201744556427,-0.17198298871517181,-0.17413100600242615,-0.1733972579240799,-0.5410178303718567,-0.3804594576358795,-0.20878750085830688,-0.04161734879016876
0.36666666666666664,0.05231991037726402,0.07940004020929337,0.0,0.9040253162384033,0.0,0.0,-0.4274788796901703,-0.6111211180686951,-0.7448283433914185,0.0,0.0,0.0,1.5413274765014648,-0.3129916787147522,0.7108517289161682,0.420219361782074,0.9792115688323975,0.005550756584852934,-0.0010698343394324183,-0.20276261866092682,0.7556993961334229,0.8008495569229126,0.03061549738049507,0.3665006458759308,-1.1255664825439453,-6.028232097625732,-0.3239457607269287,0.7181912064552307,0.4201103150844574,0.7824411392211914,0.7622467279434204,0.0029328223317861557,0.36557549238204956,0.7164678573608398,0.42000001668930054,-0.481548011302948,2.999920129776001,-0.7911587357521057,-2.999533176422119,-0.17901039123535156,-0.17954154312610626,-0.17828483879566193,-0.17428524792194366,-0.5948267579078674,-0.40465372800827026,-0.2049456089735031,-0.013787436299026012
0.3833333333333333,0.04633990675210953,0.06471066921949387,0.0,0.8995791673660278,0.0,0.0,-0.43675774335861206,-0.29661664366722107,-0.9191856980323792,0.0,0.0,0.0,-2.159383773803711,-0.29967954754829407,0.7247858643531799,0.4200107157230377,0.9676697850227356,-0.0002681785263121128,6.195381138240919e-05,-0.2522202134132385,0.8993440866470337,0.9045458436012268,0.017296381294727325,-0.7877029776573181,0.3765794336795807,-6.838200092315674,-0.3074071407318115,0.7296528220176697,0.4216423034667969,1.2188022136688232,0.6825366020202637,0.14766055345535278,0.36557549238204956,0.7164678573608398,0.42000001668930054,-0.43148738145828247,2.999443769454956,-0.8411639332771301,-2.9998526573181152,-0.18684828281402588,-0.18418298661708832,-0.17947329580783844,-0.17207960784435272,-0.41006025671958923,-0.2073296308517456,0.01266821101307869,0.2303406000137329
0.4,0.038136374205350876,0.048552609980106354,0.0,0.8812332153320312,0.0,0.0,-0.4726817011833191,-0.5622296333312988,-0.9980196356773376,0.0,0.0,0.0,-5.779428958892822,-0.2738901376724243,0.7379922866821289,0.4245825409889221,0.9511329531669617,-0.012527450919151306,-0.02441083826124668,-0.30755990743637085,1.8614038228988647,1.1099005937576294,0.3381173312664032,33.565555572509766,-20.78730583190918,0.38496625423431396,-0.2809585928916931,0.7443147301673889,0.42558181285858154,1.9194166660308838,1.0358877182006836,0.4894946217536926,0.36557549238204956,0.7164678573608398,0.42000001668930054,-0.39089441299438477,1.3832767009735107,-0.8911871910095215,-3.0000011920928955,-0.1955077350139618,-0.18938888609409332,-0.18099099397659302,-0.17000029981136322,-0.47514352202415466,-0.28962209820747375,-0.09221553802490234,0.09853706508874893
0.4166666666666667,0.0314716137945652,0.033759940415620804,0.0,0.8466175198554993,0.0,0.0,-0.5322017669677734,-0.3682346045970917,-0.7844393849372864,0.0,0.0,0.0,-9.062906265258789,-0.2265550047159195,0.7594689726829529,0.43333765864372253,0.9293832778930664,0.007851717993617058,-0.054515399038791656,-0.3649837076663971,4.130753993988037,1.1938844919204712,0.7222349643707275,1.759414553642273,-5.0170440673828125,10.19813060760498,-0.23243388533592224,0.7659465074539185,0.43375957012176514,3.8768646717071533,1.6183462142944336,0.7207479476928711,0.36557549238204956,0.7164678573608398,0.42000001668930054,-0.3748623728752136,0.8665450215339661,-0.9412091970443726,-2.9998819828033447,-0.20552165806293488,-0.19579002261161804,-0.18371380865573883,-0.169290229678154,-0.7085847854614258,-0.4648078680038452,-0.2239505499601364,-0.004620718769729137
0.43333333333333335,0.028128251433372498,0.022868704050779343,0.0,0.7947618961334229,0.0,0.0,-0.6069213151931763,-0.13020183145999908,-0.6594694256782532,0.0,0.0,0.0,-11.644359588623047,-0.14059969782829285,0.7888546586036682,0.44435426592826843,0.8957943916320801,0.07324865460395813,-0.09525693953037262,-0.4279172718524933,6.304436206817627,1.347411870956421,0.7815333008766174,1.7443538904190063,-9.643939018249512,20.353260040283203,-0.1464858502149582,0.7960110306739807,0.4447808861732483,6.2528486251831055,2.129375696182251,0.8035265207290649,0.36557549238204956,0.7164678573608398,0.42000001668930054,-0.35917600989341736,0.9340153336524963,-0.9045878052711487,2.998237133026123,-0.2158399522304535,-0.20300844311714172,-0.18758058547973633,-0.17026162147521973,-0.4593955874443054,-0.32689368724823,-0.18620993196964264,-0.07530830800533295
0.45,0.026272954419255257,0.015015660785138607,0.0,0.7530921101570129,0.0,0.0,-0.6579150557518005,-0.09552373737096786,-0.4051342010498047,0.0,0.0,0.0,-6.672248840332031,-0.041100092232227325,0.8143841028213501,0.4589240550994873,0.8500285744667053,0.10437195003032684,-0.10448818653821945,-0.5056086182594299,5.875504016876221,0.37296268343925476,1.1324318647384644,-3.0293943881988525,7.990442276000977,8.291885375976562,-0.04649144783616066,0.8241738080978394,0.45937544107437134,5.970078468322754,1.2068135738372803,0.8984410762786865,0.36557549238204956,0.7164678573608398,0.42000001668930054,-0.3446400463581085,0.7789058089256287,-0.9303860664367676,-2.9990148544311523,-0.22473128139972687,-0.20958846807479858,-0.1919211745262146,-0.17296160757541656,-0.5086928606033325,-0.37925493717193604,-0.26268497109413147,-0.18477889895439148
0.4666666666666667,0.022707615047693253,0.011520090512931347,0.0,0.7354708909988403,0.0,0.0,-0.6775563359260559,-0.25886645913124084,-0.13426437973976135,0.0,0.0,0.0,-2.019162654876709,0.053560979664325714,0.8238345980644226,0.47181788086891174,0.7840906977653503,0.10712612420320511,-0.09866296499967575,-0.6033170223236084,5.294483184814453,-0.745729923248291,0.8118169903755188,5.613516330718994,-3.5499775409698486,25.073827743530273,0.048448652029037476,0.8349602222442627,0.47246691584587097,5.61149787902832,0.06861165165901184,0.751481831073761,0.36557549238204956,0.7164678573608398,0.42000001668930054,-0.3325490653514862,0.5791294574737549,-0.9804100394248962,-3.0000011920928955,-0.23438172042369843,-0.21675877273082733,-0.19686101377010345,-0.1762932986021042,-0.56887286901474,-0.41590896248817444,-0.28069108724594116,-0.18154263496398926
0.48333333333333334,0.02169421873986721,0.0032590534538030624,0.0,0.7086260914802551,0.0,0.0,-0.7055842280387878,-0.06767341494560242,-0.5087711215019226,0.0,0.0,0.0,-5.426219940185547,0.140814870595932,0.8177316784858704,0.4782522916793823,0.7249696850776672,0.09002097696065903,-0.10485614091157913,-0.6747742295265198,4.646636009216309,-1.7040332555770874,0.07217605412006378,4.37833833694458,-3.588127851486206,34.0853385925293,0.13598808646202087,0.8304530382156372,0.48024752736091614,5.127982139587402,-0.777496874332428,0.4491819441318512,0.36557549238204956,0.7164678573608398,0.42000001668930054,-0.324748158454895,0.28390681743621826,-1.030432939529419,-2.999943733215332,-0.23830591142177582,-0.2188815474510193,-0.19737501442432404,-0.17561760544776917,-0.3304804265499115,-0.18275070190429688,-0.048703089356422424,0.05984637141227722
0.5,0.022877518087625504,-0.0003145908412989229,0.0,0.6950421333312988,0.0,0.0,-0.7189689874649048,0.10389481484889984,-0.15799538791179657,0.0,0.0,0.0,-1.170355200767517,0.21694912016391754,0.7974766492843628,0.4784405827522278,0.6443014740943909,0.026029355823993683,-0.13518507778644562,-0.7522784471511841,3.9450950622558594,-1.8194175958633423,-0.29201939702033997,-22.894115447998047,8.756027221679688,-3.4762847423553467,0.21113991737365723,0.8119096755981445,0.4833352565765381,4.165011405944824,-1.3510499000549316,0.104636549949646,0.36557549238204956,0.7164678573608398,0.42000001668930054,-0.31855788826942444,0.5037195682525635,-1.0804550647735596,-2.9993579387664795,-0.23994164168834686,-0.22439567744731903,-0.20060035586357117,-0.17706862092018127,2.8973418011446483e-06,-0.20990197360515594,-0.12331785261631012,-0.06423716992139816
0.5166666666666666,0.026931319385766983,-0.0006800764822401106,0.0,0.6745383143424988,0.0,0.0,-0.7382398247718811,0.3093510568141937,0.023601051419973373,0.0,0.0,0.0,-4.207371234893799,0.2766966223716736,0.7752833962440491,0.4718932509422302,0.6097676157951355,-0.005754575598984957,-0.11400295794010162,-0.7843173146247864,3.0990793704986572,-1.804078459739685,-0.30497244000434875,-2.7824771404266357,8.741408348083496,7.897719383239746,0.2722402513027191,0.7900857925415039,0.4778813123703003,3.2208168506622314,-1.3722648620605469,-0.5734372138977051,0.36557549238204956,0.7164678573608398,0.42000001668930054,-0.3062479794025421,0.7808380126953125,-1.1304771900177002,-2.998804807662964,-0.23733413219451904,-0.22568967938423157,-0.2018587738275528,-0.17854972183704376,0.260047048330307,0.03021477907896042,-0.022510798647999763,-0.08559819310903549
0.5333333333333333,0.03256528824567795,0.0014968711184337735,0.0,0.6680558919906616,0.0,0.0,-0.7441111207008362,0.37145406007766724,0.21416226029396057,0.0,0.0,0.0,-0.08013072609901428,0.32225656509399414,0.752534031867981,0.4597764015197754,0.58486008644104,-0.04261702299118042,-0.09224966913461685,-0.8047437071800232,2.2485158443450928,-1.8801462650299072,-0.6796894073486328,-3.3959286212921143,9.183780670166016,7.318702697753906,0.3188810348510742,0.7664400339126587,0.4662328064441681,2.334801435470581,-1.4321675300598145,-0.8356063365936279,0.36557549238204956,0.7164678573608398,0.42000001668930054,-0.2931750416755676,0.6961602568626404,-1.1804993152618408,-2.999913215637207,-0.2320835292339325,-0.2239752858877182,-0.20163846015930176,-0.1799234300851822,0.3456765413284302,0.15169501304626465,0.031079141423106194,-0.09317624568939209
0.55,0.04092995449900627,-0.0013107632985338569,0.0,0.6503831148147583,0.0,0.0,-0.7596063017845154,0.4780121445655823,-0.15427057445049286,0.0,0.0,0.0,-3.6542677879333496,0.3560149371623993,0.7328829765319824,0.44095364212989807,0.5795376896858215,-0.059379320591688156,-0.09245456755161285,-0.8075037598609924,1.6015970706939697,-1.5730388164520264,-1.086194396018982,-1.0911991596221924,0.3659866750240326,10.503971099853516,0.35250893235206604,0.7459080219268799,0.44741541147232056,1.5299878120422363,-1.1759059429168701,-1.2754194736480713,0.36557549238204956,0.7164678573608398,0.42000001668930054,-0.2825755178928375,0.582330048084259,-1.1582549810409546,2.9998204708099365,-0.21968530118465424,-0.2157614678144455,-0.19701358675956726,-0.17876626551151276,0.6008579134941101,0.4071443974971771,0.20704501867294312,0.010180514305830002
0.5666666666666667,0.045508526265621185,1.5437639376614243e-05,0.0,0.6453222632408142,0.0,0.0,-0.7639104723930359,0.2266998440027237,0.10802628099918365,0.0,0.0,0.0,0.118616484105587,0.3759567439556122,0.7155520915985107,0.42256784439086914,0.5862975716590881,-0.05495406687259674,-0.034682661294937134,-0.8074851036071777,0.6648996472358704,-1.0979417562484741,-0.183876171708107,1.0698431730270386,-9.239568710327148,2.635039806365967,0.3725823163986206,0.7262288928031921,0.4274875521659851,0.5675926208496094,-0.875889778137207,-0.5658713579177856,0.36557549238204956,0.7164678573608398,0.42000001668930054,-0.2734919488430023,0.5130982995033264,-1.1803137063980103,-2.9947164058685303,-0.2119375616312027,-0.21050730347633362,-0.19492772221565247,-0.17982366681098938,0.4614001214504242,0.31845957040786743,0.11483142524957657,-0.08062748610973358
0.5833333333333334,0.05155262351036072,-0.0017806534888222814,0.0,0.629829466342926,0.0,0.0,-0.7767334580421448,0.36987417936325073,-0.14135277271270752,0.0,0.0,0.0,-3.2706713676452637,0.38173049688339233,0.710864245891571,0.4209497272968292,0.6023257970809937,-0.015930863097310066,-0.004239604342728853,-0.7980800867080688,0.2009974867105484,-0.8996629118919373,-0.06883134692907333,-2.509690284729004,-3.6756908893585205,26.892465591430664,0.3769594430923462,0.7181755304336548,0.4249993562698364,-0.06709829717874527,-0.29461395740509033,-0.11874686181545258,0.36557549238204956,0.7164678573608398,0.42000001668930054,-0.257742702960968,0.9382376074790955,-1.1421592235565186,2.9904696941375732,-0.20307698845863342,-0.20408357679843903,-0.19219040870666504,-0.18051262199878693,0.4593146741390228,0.34425726532936096,0.13684970140457153,-0.05575146526098251
0.6,0.05493136867880821,8.554815576644614e-05,0.0,0.6273986101150513,0.0,0.0,-0.7786982655525208,0.13019439578056335,0.08998655527830124,0.0,0.0,0.0,0.4618269205093384,0.38087931275367737,0.7045586705207825,0.42101719975471497,0.6376659870147705,-0.01754903420805931,0.0066802953369915485,-0.7700840830802917,-0.1005137488245964,-0.2980789840221405,0.014773101545870304,-0.541202187538147,0.29292619228363037,5.258973598480225,0.37528368830680847,0.7126177549362183,0.4259110391139984,-0.1647612303495407,-0.2188444882631302,0.11983422189950943,0.36557549238204956,0.7164678573608398,0.42000001668930054,-0.28744828701019287,-3.0000009536743164,-1.1641093492507935,-2.999377727508545,-0.1991250365972519,-0.20102374255657196,-0.1917845457792282,-0.18256372213363647,0.34508758783340454,0.27663087844848633,0.09804367274045944,-0.06421222537755966
0.6166666666666667,0.0598268136382103,0.004950358998030424,0.0,0.6459888219833374,0.0,0.0,-0.7633468508720398,0.29919764399528503,0.33137232065200806,0.0,0.0,0.0,3.6214146614074707,0.3784116506576538,0.7014980316162109,0.420331209897995,0.6446841359138489,-0.006125689018517733,-0.005265386309474707,-0.7644063234329224,-0.09276696294546127,0.04084307700395584,0.06341204047203064,-3.77154541015625,0.5863090753555298,-5.5655951499938965,0.3726944625377655,0.7126301527023315,0.42750030755996704,-0.14986097812652588,0.21438537538051605,0.11932773143053055,0.36557549238204956,0.7164678573608398,0.42000001668930054,-0.31876274943351746,-0.9237033724784851,-1.214064121246338,-2.9978222846984863,-0.19421535730361938,-0.1972239911556244,-0.19092154502868652,-0.18429358303546906,0.4332908093929291,0.33705347776412964,0.13385716080665588,-0.04321936145424843
0.6333333333333333,0.0665782019495964,0.004638654179871082,0.0,0.6505354046821594,0.0,0.0,-0.7594759464263916,0.3731236159801483,-0.029911931604146957,0.0,0.0,0.0,-0.2893311679363251,0.37677621841430664,0.7025184035301208,0.4203766882419586,0.642275869846344,-0.007267187349498272,-0.006097974255681038,-0.7664147019386292,-0.11795426160097122,0.0649578720331192,-0.01908041350543499,0.9622696042060852,-0.18026551604270935,2.295283079147339,0.36964383721351624,0.7170670628547668,0.42727339267730713,-0.27485793828964233,0.22615337371826172,-0.019341755658388138,0.36557549238204956,0.7164678573608398,0.42000001668930054,-0.36296844482421875,-2.999924421310425,-1.1794958114624023,2.9998104572296143,-0.18225856125354767,-0.18743477761745453,-0.18499287962913513,-0.18170568346977234,0.6047585606575012,0.5247633457183838,0.3423670828342438,0.18612699210643768
0.65,0.07419728487730026,0.0014328010147437453,0.0,0.6649239659309387,0.0,0.0,-0.7469110488891602,0.5213567614555359,-0.23845934867858887,0.0,0.0,0.0,3.0427627563476562,0.37501102685928345,0.7033663988113403,0.41999995708465576,0.6437771916389465,1.7132481389126042e-06,-6.446904990298208e-06,-0.7652130126953125,-0.10141445696353912,0.046319179236888885,-0.0001373810227960348,0.008419602178037167,0.007377396337687969,-0.7897181510925293,0.3665236532688141,0.7206771373748779,0.4300864338874817,-0.13797599077224731,0.19251033663749695,0.3647686541080475,0.36557549238204956,0.7164678573608398,0.42000001668930054,-0.4129742980003357,-2.9999687671661377,-1.2012475728988647,-3.0,-0.17518924176692963,-0.1806795746088028,-0.18014824390411377,-0.1783508062362671,0.26014846563339233,0.2899746894836426,0.23046773672103882,0.19505129754543304
0.6666666666666666,0.0841338038444519,-0.004443575162440538,0.0,0.6659114360809326,0.0,0.0,-0.7460308074951172,0.6279973387718201,-0.3999576270580292,0.0,0.0,0.0,-0.8354288339614868,0.37419816851615906,0.7037390470504761,0.42000001668930054,0.6419046521186829,-4.0275881474372e-07,6.099108986745705e-07,-0.7667843699455261,-0.027567783370614052,0.012326591648161411,-3.624008968472481e-07,-2.1639738406520337e-05,-3.775126242544502e-05,-0.1274249106645584,0.3674010634422302,0.7231326103210449,0.43370288610458374,0.21625278890132904,0.10569185018539429,0.2519833743572235,0.36557549238204956,0.7164678573608398,0.42000001668930054,-0.46298760175704956,-2.9966537952423096,-1.2512658834457397,-2.9980926513671875,-0.1724330484867096,-0.17683644592761993,-0.17654524743556976,-0.17457929253578186,0.13255488872528076,0.2223043590784073,0.24083903431892395,0.28354063630104065
0.6833333333333333,0.09588920325040817,-0.01336477417498827,0.0,0.6456227898597717,0.0,0.0,-0.7636564373970032,0.7412338852882385,-0.6086475253105164,0.0,0.0,0.0,-4.097090721130371,0.3741978406906128,0.7037392854690552,0.4200000464916229,0.6419046521186829,5.40232633738924e-07,-4.206328412692528e-06,-0.7667844295501709,0.00020341479103080928,-0.00032535282662138343,-9.368825703859329e-05,0.006674597971141338,8.299338514916599e-05,-0.0004610043833963573,0.37426453828811646,0.7249786257743835,0.44570034742355347,0.628741979598999,0.13931940495967865,1.2929587364196777,0.36557549238204956,0.7164678573608398,0.42000001668930054,-0.5129997134208679,-2.999955415725708,-1.3012841939926147,-2.99999737739563,-0.17271924018859863,-0.17530526220798492,-0.17428357899188995,-0.17124956846237183,-0.08290652930736542,0.03284502774477005,0.0890217199921608,0.1620660126209259
0.7,0.11228099465370178,-0.01674334704875946,0.0,0.6380810737609863,0.0,0.0,-0.7699692249298096,1.0768824815750122,-0.06747395545244217,0.0,0.0,0.0,-0.2144409567117691,0.3741978108882904,0.7037392854690552,0.4200000464916229,0.6419049501419067,5.918959686823655e-07,-3.6712758628709707e-06,-0.7667841911315918,0.0001995190978050232,-0.00028436825959943235,-0.00010323990136384964,0.005561886355280876,-0.0001554546906845644,-0.0004814643179997802,0.3843822777271271,0.7280545234680176,0.4738883376121521,0.6054412722587585,0.2850905954837799,2.042593002319336,0.36557549238204956,0.7164678573608398,0.42000001668930054,-0.5630027651786804,-2.9999983310699463,-1.3513025045394897,-3.0000007152557373,-0.18041856586933136,-0.1802205890417099,-0.17737612128257751,-0.1723884791135788,-0.5078414678573608,-0.35408005118370056,-0.251065731048584,-0.14185503125190735
0.7166666666666667,0.12573625147342682,-0.014864997938275337,0.0,0.6538181304931641,0.0,0.0,-0.756651759147644,0.7075319886207581,-0.12402379512786865,0.0,0.0,0.0,2.8973300457000732,0.3741978108882904,0.7037392854690552,0.4200000464916229,0.6419048309326172,5.946508849774546e-07,-3.5850000585924136e-06,-0.7667843103408813,0.00019895011791959405,-0.0002838845830410719,-0.0001030145213007927,0.005553402006626129,-0.00015857242397032678,-0.00048018031520769,0.39429277181625366,0.7322485446929932,0.5020774602890015,0.7088172435760498,0.3627505898475647,1.292102575302124,0.36557549238204956,0.7164678573608398,0.42000001668930054,-0.5833514332771301,0.29495304822921753,-1.4013208150863647,-3.0000009536743164,-0.1872936189174652,-0.18475249409675598,-0.18034735321998596,-0.17378489673137665,0.08910819888114929,0.11437156796455383,0.10796091705560684,0.11153021454811096
0.7333333333333333,0.13425280153751373,-0.015599585138261318,0.0,0.6540229916572571,0.0,0.0,-0.7564746737480164,0.44869786500930786,0.08182255178689957,0.0,0.0,0.0,-0.951824426651001,0.3741978108882904,0.7037392854690552,0.4200000464916229,0.641904890537262,5.354057748263585e-07,-3.7025731671747053e-06,-0.7667843103408813,0.00019960722420364618,-0.0002841538516804576,-0.00010314397513866425,0.005555903073400259,-0.00015104802150744945,-0.0004814625717699528,0.40384888648986816,0.7362673878669739,0.516022801399231,0.4238315522670746,0.057946957647800446,0.5867350101470947,0.36557549238204956,0.7164678573608398,0.42000001668930054,-0.6051924824714661,-2.642397165298462,-1.3628743886947632,2.999999761581421,-0.18459026515483856,-0.18193873763084412,-0.17787888646125793,-0.17155589163303375,0.13852398097515106,0.15146954357624054,0.13809749484062195,0.12460378557443619
0.75,0.1385994553565979,-0.01256480161100626,0.0,0.664804995059967,0.0,0.0,-0.7470169067382812,0.18568895757198334,0.25045594573020935,0.0,0.0,0.0,2.529543399810791,0.3741978108882904,0.7037392854690552,0.4200000464916229,0.641904890537262,5.57564362679841e-07,-3.828282842732733e-06,-0.7667841911315918,0.00019944114319514483,-0.00028414715779945254,-0.00010309368371963501,0.005556629039347172,-0.00015281718515325338,-0.00048109094495885074,0.4104352593421936,0.7368934750556946,0.5237085819244385,0.3115657567977905,0.025782935321331024,0.3969809412956238,0.36557549238204956,0.7164678573608398,0.42000001668930054,-0.6321460604667664,-0.7366836667060852,-1.3816412687301636,-3.000000476837158,-0.18153849244117737,-0.1788167804479599,-0.1750466525554657,-0.16905251145362854,0.20379167795181274,0.2048601657152176,0.1867828071117401,0.16293421387672424
0.7666666666666666,0.14355599880218506,-0.014148201793432236,0.0,0.6629570722579956,0.0,0.0,-0.7486574053764343,0.25831133127212524,-0.07581804692745209,0.0,0.0,0.0,-1.1555755138397217,0.3741978108882904,0.7037392854690552,0.4200000464916229,0.641904890537262,5.482515348376182e-07,-3.7822112517460482e-06,-0.7667841911315918,0.00019915180746465921,-0.0002841511450242251,-0.00010300520807504654,0.0055582160130143166,-0.00015636076568625867,-0.00048045467701740563,0.4148915410041809,0.7390338182449341,0.5252695083618164,0.09154024720191956,0.0712997168302536,-0.03564430773258209,0.36557549238204956,0.7164678573608398,0.42000001668930054,-0.6569128632545471,-2.097355365753174,-1.3829680681228638,2.376340866088867,-0.173301562666893,-0.17151778936386108,-0.168910950422287,-0.1641455590724945,0.34821048378944397,0.32531583309173584,0.28692853450775146,0.23725800216197968
0.7833333333333333,0.14978545904159546,-0.01582721620798111,0.0,0.672577440738678,0.0,0.0,-0.7400267124176025,0.4267610013484955,-0.1751197874546051,0.0,0.0,0.0,2.3176379203796387,0.3741978108882904,0.7037392854690552,0.4200000464916229,0.641904890537262,5.303158445713052e-07,-3.731590823008446e-06,-0.7667841911315918,0.00019902843632735312,-0.00028414162807166576,-0.00010297424159944057,0.005558677017688751,-0.00015775702195242047,-0.0004801891918759793,0.41912388801574707,0.7385382652282715,0.5274805426597595,0.40476754307746887,-0.07591940462589264,0.31677740812301636,0.36557549238204956,0.7164678573608398,0.42000001668930054,-0.6913521885871887,-2.014620065689087,-1.4073481559753418,-3.000000238418579,-0.17091050744056702,-0.16867753863334656,-0.16582025587558746,-0.16102302074432373,0.06279730051755905,0.10907594114542007,0.14834068715572357,0.17547371983528137
0.8,0.1537560373544693,-0.020174739882349968,0.0,0.6708094477653503,0.0,0.0,-0.7416297793388367,0.16324268281459808,-0.39326974749565125,0.0,0.0,0.0,-1.257720708847046,0.3741978108882904,0.7037392854690552,0.4200000464916229,0.6419049501419067,5.357844656828092e-07,-3.6736698802997125e-06,-0.7667841911315918,0.0001995697821257636,-0.00028416060376912355,-0.00010313070379197598,0.005556390155106783,-0.00015122965851332992,-0.0004813593695871532,0.42735812067985535,0.7348909378051758,0.5274670720100403,0.5582991242408752,-0.3152293264865875,-0.1652868092060089,0.36557549238204956,0.7164678573608398,0.42000001668930054,-0.7143689393997192,-0.8318725228309631,-1.4573664665222168,-2.999999761581421,-0.17130376398563385,-0.16787557303905487,-0.16389375925064087,-0.1581880748271942,0.007576229050755501,0.08417370170354843,0.15934579074382782,0.22212167084217072
0.8166666666666667,0.15957984328269958,-0.02047712169587612,0.0,0.6470329761505127,0.0,0.0,-0.7624620199203491,0.3194408416748047,-0.005663990508764982,0.0,0.0,0.0,-4.663673400878906,0.3741978108882904,0.7037392854690552,0.4200000464916229,0.6419048309326172,5.403944669524208e-07,-3.5637037854030496e-06,-0.7667843103408813,0.00019815149425994605,-0.0002838163054548204,-0.00010279682464897633,0.005555903539061546,-0.00016804077313281596,-0.0004784674965776503,0.4356064796447754,0.7287912964820862,0.526414155960083,0.5208277702331543,-0.2290518581867218,0.1293966919183731,0.36557549238204956,0.7164678573608398,0.42000001668930054,-0.7261433601379395,-0.5942661762237549,-1.5073847770690918,-2.9999992847442627,-0.1761442869901657,-0.17100414633750916,-0.165359228849411,-0.15825848281383514,-0.11312496662139893,-0.06965659558773041,-0.022257456555962563,0.015773283317685127
0.8333333333333334,0.16217733919620514,-0.018440885469317436,0.0,0.6376916766166687,0.0,0.0,-0.7702916860580444,0.10973649471998215,0.10413366556167603,0.0,0.0,0.0,-0.3169211149215698,0.3741978108882904,0.7037392854690552,0.4200000464916229,0.641904890537262,5.466040420287754e-07,-3.680655026983004e-06,-0.7667843103408813,0.00019961550424341112,-0.0002841627283487469,-0.00010314816609025002,0.005556148011237383,-0.00015089988301042467,-0.0004814706335309893,0.4398258924484253,0.7286045551300049,0.5306497812271118,0.04740557074546814,0.2129119336605072,0.34709346294403076,0.36557549238204956,0.7164678573608398,0.42000001668930054,-0.7069975137710571,2.5989701747894287,-1.5574030876159668,-3.0,-0.17669306695461273,-0.17150156199932098,-0.16574589908123016,-0.15869425237178802,0.11707048863172531,0.06669074296951294,0.020620623603463173,-0.03353539854288101
0.85,0.1611204594373703,-0.022156527265906334,0.0,0.6527529358863831,0.0,0.0,-0.7575708031654358,-0.03169521689414978,-0.2734847068786621,0.0,0.0,0.0,3.038203239440918,0.3741978108882904,0.7037392854690552,0.4200000464916229,0.641904890537262,5.85637735639466e-07,-3.6420158266992075e-06,-0.7667843103408813,0.00020011731248814613,-0.0002842454705387354,-0.00010327529162168503,0.005555442534387112,-0.00014483775885310024,-0.0004825243668165058,0.43530458211898804,0.734763503074646,0.5368747711181641,-0.5780638456344604,0.3747263252735138,0.40619200468063354,0.36557549238204956,0.7164678573608398,0.42000001668930054,-0.6689275503158569,1.9930957555770874,-1.5185139179229736,2.9999992847442627,-0.1705763190984726,-0.16687746345996857,-0.16253815591335297,-0.15701471269130707,0.24213993549346924,0.17631807923316956,0.11095837503671646,0.03455974534153938
0.8666666666666667,0.15856041014194489,-0.020981265231966972,0.0,0.6537578105926514,0.0,0.0,-0.7567038536071777,-0.20269012451171875,0.06688828021287918,0.0,0.0,0.0,-0.7095893621444702,0.3741978108882904,0.7037392854690552,0.4200000464916229,0.641904890537262,5.763396302427282e-07,-3.5957780255557736e-06,-0.7667843103408813,0.0001998665538849309,-0.0002842201211024076,-0.00010320637375116348,0.00555604649707675,-0.0001479920611018315,-0.0004819940950255841,0.42295700311660767,0.7381888628005981,0.5408483743667603,-0.8002585172653198,0.23123523592948914,0.17415721714496613,0.36557549238204956,0.7164678573608398,0.42000001668930054,-0.6550744771957397,-0.15744665265083313,-1.4684574604034424,3.0,-0.17167900502681732,-0.1682104766368866,-0.16410689055919647,-0.15902961790561676,0.09016689658164978,0.03513335436582565,-0.012308510951697826,-0.06337985396385193
0.8833333333333333,0.15770182013511658,-0.022349899634718895,0.0,0.6646023988723755,0.0,0.0,-0.7471972107887268,0.009599913842976093,-0.12831361591815948,0.0,0.0,0.0,2.4709980487823486,0.3741978108882904,0.7037392854690552,0.4200000464916229,0.641904890537262,5.540496772482584e-07,-3.542864760675002e-06,-0.7667843103408813,0.00019975313625764102,-0.0002842109533958137,-0.0001031805295497179,0.00555645814165473,-0.00014934735372662544,-0.00048175861593335867,0.411715030670166,0.7416878938674927,0.5444536209106445,-0.5570017099380493,0.18721838295459747,0.31223994493484497,0.36557549238204956,0.7164678573608398,0.42000001668930054,-0.6507211923599243,0.6098059415817261,-1.450053095817566,-0.5038703680038452,-0.1713724136352539,-0.16837769746780396,-0.16459640860557556,-0.15987665951251984,-0.03922386094927788,-0.04874679818749428,-0.04825911670923233,-0.04854219779372215
