vladlanda/robotic-transformer/data/env_000_episode_0130.csv
sim_time_s,robot_box_x,robot_box_y,robot_box_z,robot_box_quat_w,robot_box_quat_x,robot_box_quat_y,robot_box_quat_z,robot_box_linvel_x,robot_box_linvel_y,robot_box_linvel_z,robot_box_angvel_x,robot_box_angvel_y,robot_box_angvel_z,cube_world_x,cube_world_y,cube_world_z,cube_quat_w,cube_quat_x,cube_quat_y,cube_quat_z,cube_linvel_x,cube_linvel_y,cube_linvel_z,cube_angvel_x,cube_angvel_y,cube_angvel_z,endpoint_world_x,endpoint_world_y,endpoint_world_z,endpoint_linvel_x,endpoint_linvel_y,endpoint_linvel_z,target_cube_world_x,target_cube_world_y,target_cube_world_z,gripper_actual_pos_rad_gp_leftgearjoint,gripper_actual_vel_rad_s_gp_leftgearjoint,gripper_actual_pos_rad_gp_rotatingjoint,gripper_actual_vel_rad_s_gp_rotatingjoint,motor_angle_rad_joint1,motor_angle_rad_joint2,motor_angle_rad_joint3,motor_angle_rad_joint4,motor_speed_rad_s_joint1,motor_speed_rad_s_joint2,motor_speed_rad_s_joint3,motor_speed_rad_s_joint4
0.0,0.0,0.0,0.0,1.0,0.0,0.0,0.0,0.0,0.0,0.0,0.0,0.0,0.0,-0.40110015869140625,0.6720156669616699,0.41999998688697815,1.0,0.0,0.0,0.0,0.0,0.0,0.0,0.0,0.0,0.0,3.42540442943573e-06,-0.005000244826078415,1.313499927520752,0.0,0.0,0.0,0.4287240505218506,0.7319153547286987,0.42000001668930054,-1.5707999467849731,0.0,0.0,0.0,0.0,0.0,0.0,0.0,0.0,0.0,0.0,0.0
0.016666666666666666,0.0028778850100934505,0.0021806680597364902,0.0,0.9998081922531128,0.0,0.0,0.019586581736803055,0.24087215960025787,0.18240931630134583,0.0,0.0,0.0,3.1418697834014893,-0.4011002779006958,0.672015368938446,0.41999998688697815,1.0,3.279964630564791e-06,-8.339746386809566e-07,8.465587342243452e-08,-1.9833529222523794e-05,0.00017983045836444944,-6.132945418357849e-05,0.0009432713268324733,-0.004689474124461412,-0.00031981561915017664,-0.007110234349966049,0.003379564033821225,1.3159373998641968,-0.8143353462219238,0.9868683815002441,0.18095196783542633,0.4287240505218506,0.7319153547286987,0.42000001668930054,-1.5301095247268677,3.0000011920928955,-0.04584788903594017,-2.9999992847442627,0.0008691533003002405,0.0007963840034790337,0.0007110277656465769,0.0006108740926720202,0.11094217747449875,0.09756709635257721,0.08334315568208694,0.06823883205652237
0.03333333333333333,0.008960985578596592,0.006801960524171591,0.0,0.9997960329055786,0.0,0.0,0.020196840167045593,0.407021701335907,0.31530821323394775,0.0,0.0,0.0,-0.8691316843032837,-0.40110039710998535,0.6720153093338013,0.4200000464916229,1.0,3.3908354453160428e-06,-2.1324485715012997e-06,-3.710144014235084e-08,0.00026357831666246057,0.00026937946677207947,-0.00010509486310184002,-0.0017707672668620944,0.004130808170884848,-0.000135478752781637,-0.027551382780075073,0.026145854964852333,1.3166041374206543,-1.5914549827575684,1.6158018112182617,-0.08398257941007614,0.4287240505218506,0.7319153547286987,0.42000001668930054,-1.4800904989242554,3.000000476837158,-0.09588771313428879,-3.000000476837158,0.0029901238158345222,0.002652740105986595,0.0022773153614252806,0.0018607770325616002,0.1642182320356369,0.13976241648197174,0.1138218492269516,0.08630440384149551
0.05,0.017572930082678795,0.013554023578763008,0.0,0.999957799911499,0.0,0.0,0.009184064343571663,0.5694207549095154,0.4426172971725464,0.0,0.0,0.0,-1.548424482345581,-0.40110042691230774,0.672015368938446,0.4200000464916229,1.0,3.765139354072744e-06,-2.2119161258160602e-06,5.630195420991413e-09,0.0002653095289133489,0.00026691411039792,-0.00010440382175147533,-0.0017242460744455457,0.004177400842308998,-0.00012949357915204018,-0.05815235525369644,0.056063197553157806,1.311584711074829,-2.036219596862793,1.951258897781372,-0.48244377970695496,0.4287240505218506,0.7319153547286987,0.42000001668930054,-1.4300721883773804,3.0000007152557373,-0.14592640101909637,-3.0000009536743164,0.005653019528836012,0.00484797777608037,0.003970757592469454,0.003016808070242405,0.18333204090595245,0.14531944692134857,0.10543350875377655,0.06356845051050186
0.06666666666666667,0.028446204960346222,0.022609062492847443,0.0,0.9998891353607178,0.0,0.0,0.014892017468810081,0.6996193528175354,0.5865669846534729,0.0,0.0,0.0,2.0210843086242676,-0.40110042691230774,0.6720153093338013,0.4200000464916229,0.9999999403953552,3.4067325032083318e-06,-2.285616346853203e-06,4.301086846680846e-07,0.0002670263056643307,0.0002679172612261027,-0.00010437914170324802,-0.0017406872939318419,0.004211808554828167,-0.0001285045873373747,-0.09666100889444351,0.08846461772918701,1.2995156049728394,-2.4935035705566406,2.020977020263672,-0.9404504299163818,0.4287240505218506,0.7319153547286987,0.42000001668930054,-1.3800538778305054,3.0000035762786865,-0.19593970477581024,-3.0,0.007993743754923344,0.0065184650011360645,0.004932465963065624,0.0032297687139362097,0.14098653197288513,0.09257173538208008,0.04214620590209961,-0.010378055274486542
0.08333333333333333,0.04157419875264168,0.03383417800068855,0.0,0.9999691843986511,0.0,0.0,0.00785029400140047,0.8340467810630798,0.7091234922409058,0.0,0.0,0.0,-1.7835743427276611,-0.40110042691230774,0.6720153093338013,0.4200000464916229,1.0,3.6972751331632026e-06,-2.188954113080399e-06,-2.6322550183977e-07,0.0002638972655404359,0.00026586506282910705,-0.00010434049181640148,-0.0017082244157791138,0.004150220658630133,-0.00012991207768209279,-0.13553719222545624,0.12813110649585724,1.2809641361236572,-2.2218384742736816,2.591859817504883,-1.2606056928634644,0.4287240505218506,0.7319153547286987,0.42000001668930054,-1.330024003982544,2.999992609024048,-0.1621721386909485,3.000002384185791,0.00903341080993414,0.0065642232075333595,0.003945615142583847,0.0011700692120939493,0.02329941652715206,-0.05009688436985016,-0.12554126977920532,-0.20299743115901947
0.1,0.04879356920719147,0.04852284491062164,0.0,0.999540388584137,0.0,0.0,-0.030315689742565155,0.30025121569633484,0.9565023183822632,0.0,0.0,0.0,-5.515538692474365,-0.40110042691230774,0.6720153093338013,0.4200000464916229,0.9999999403953552,3.620343704824336e-06,-2.265245484522893e-06,1.7462637913467915e-07,0.00026676931884139776,0.000267408206127584,-0.00010407879017293453,-0.001738669816404581,0.004209199454635382,-0.00012775094364769757,-0.17022155225276947,0.17323580384254456,1.2582905292510986,-2.014406681060791,2.731793165206909,-1.4054741859436035,0.4287240505218506,0.7319153547286987,0.42000001668930054,-1.2800302505493164,3.0000007152557373,-0.19391050934791565,-2.9999992847442627,0.0033134398981928825,2.9927853120170766e-06,-0.0035060869995504618,-0.007224042434245348,-0.45850276947021484,-0.5101017355918884,-0.5640818476676941,-0.6206417679786682
0.11666666666666667,0.060391347855329514,0.06446068733930588,0.0,0.9987475275993347,0.0,0.0,-0.05003317818045616,0.7985790371894836,0.9641575217247009,0.0,0.0,0.0,-1.2299994230270386,-0.40110042691230774,0.6720153093338013,0.4200000464916229,1.0,3.798347734118579e-06,-2.2628460101259407e-06,-1.5019826093976008e-07,0.0002637401921674609,0.00026566156884655356,-0.00010429113171994686,-0.0017054638592526317,0.004147501662373543,-0.00012979934399481863,-0.20935863256454468,0.21408741176128387,1.2351725101470947,-2.440500020980835,2.496422290802002,-1.4701480865478516,0.4287240505218506,0.7319153547286987,0.42000001668930054,-1.2300251722335815,2.9999985694885254,-0.24394410848617554,-2.999999523162842,0.0009321036632172763,-0.003916479647159576,-0.008951797150075436,-0.014183063991367817,-0.11254820972681046,-0.20867519080638885,-0.303272545337677,-0.3962336480617523
0.13333333333333333,0.07050345093011856,0.07810793817043304,0.0,0.9966825246810913,0.0,0.0,-0.08138757199048996,0.5791521072387695,0.7744591236114502,0.0,0.0,0.0,-4.41262149810791,-0.40110042691230774,0.672015368938446,0.4200000464916229,0.9999999403953552,3.550474502844736e-06,-2.229893652838655e-06,2.9291419423316256e-07,0.0002670332323759794,0.0002677943557500839,-0.00010417005978524685,-0.0017440859228372574,0.004213657695800066,-0.00012800388503819704,-0.2454443871974945,0.26229655742645264,1.2094889879226685,-1.9278489351272583,3.2836055755615234,-1.5568093061447144,0.4287240505218506,0.7319153547286987,0.42000001668930054,-1.1800035238265991,2.999816656112671,-0.20992442965507507,2.9999990463256836,-0.002896029967814684,-0.009486542083323002,-0.016222620382905006,-0.023111853748559952,-0.24759460985660553,-0.36426621675491333,-0.47745195031166077,-0.5869295001029968
0.15,0.07779310643672943,0.08840782940387726,0.0,0.9905029535293579,0.0,0.0,-0.13749127089977264,0.38101863861083984,0.5623085498809814,0.0,0.0,0.0,-7.604703903198242,-0.40110039710998535,0.6720153093338013,0.4200000464916229,1.0,3.332175083414768e-06,-2.1020707663410576e-06,1.3131682408129564e-07,0.0002673084964044392,0.00026859689387492836,-0.00010459520854055882,-0.0017496650107204914,0.0042156632989645,-0.00012928851356264204,-0.27746614813804626,0.31995004415512085,1.1794472932815552,-1.8003910779953003,3.7419681549072266,-2.1016156673431396,0.4287240505218506,0.7319153547286987,0.42000001668930054,-1.1433563232421875,1.4970074892044067,-0.24132220447063446,-3.0000007152557373,-0.008436301723122597,-0.016784731298685074,-0.02520700730383396,-0.0337085947394371,-0.41024255752563477,-0.497325599193573,-0.5801211595535278,-0.6586116552352905
0.16666666666666666,0.08121761679649353,0.09957319498062134,0.0,0.985175609588623,0.0,0.0,-0.17154891788959503,0.1330139935016632,0.7234113216400146,0.0,0.0,0.0,-2.995431423187256,-0.40110042691230774,0.6720153093338013,0.4200000464916229,1.0,3.737257202374167e-06,-2.2331987565848976e-06,-1.8764458786790783e-07,0.00026433030143380165,0.000266268034465611,-0.00010445783846080303,-0.0017118732212111354,0.004157560411840677,-0.00013001071056351066,-0.3140755891799927,0.3787763714790344,1.1369736194610596,-2.138284921646118,3.7445220947265625,-2.975771427154541,0.4287240505218506,0.7319153547286987,0.42000001668930054,-1.100295901298523,3.00000262260437,-0.28718823194503784,-2.512241840362549,-0.017022067680954933,-0.02633766457438469,-0.03564973548054695,-0.04496676102280617,-0.5857806205749512,-0.6184902787208557,-0.6469284892082214,-0.6714109182357788
0.18333333333333332,0.08909815549850464,0.10811309516429901,0.0,0.976066529750824,0.0,0.0,-0.21747219562530518,0.4939653277397156,0.45468032360076904,0.0,0.0,0.0,-6.216968536376953,-0.40110042691230774,0.672015368938446,0.4200000464916229,0.9999999403953552,3.6601879855879815e-06,-2.302341272297781e-06,2.528711604554701e-07,0.000266908056801185,0.00026760302716866136,-0.000104124890640378,-0.0017413176828995347,0.004211504012346268,-0.00012786878505721688,-0.34833860397338867,0.4441699981689453,1.0795772075653076,-1.8450748920440674,4.132387638092041,-3.9050726890563965,0.4287240505218506,0.7319153547286987,0.42000001668930054,-1.0502934455871582,3.000002145767212,-0.33717742562294006,-3.000000476837158,-0.025642555207014084,-0.03530866652727127,-0.04491133242845535,-0.054466184228658676,-0.7163904905319214,-0.6964941024780273,-0.6751812696456909,-0.652991533279419
0.2,0.09140101075172424,0.11910610646009445,0.0,0.9699091911315918,0.0,0.0,-0.2434670329093933,0.140206977725029,0.6512249708175659,0.0,0.0,0.0,-2.0076096057891846,-0.40110042691230774,0.6720153093338013,0.4200000464916229,1.0,3.5907578421756625e-06,-2.3004690774541814e-06,1.3875796867068857e-07,0.00026654661633074284,0.00026732246624305844,-0.0001042394433170557,-0.0017325595254078507,0.00420342106372118,-0.00012821020209230483,-0.379203736782074,0.504601001739502,1.005614161491394,-1.593620777130127,3.610048532485962,-4.756106376647949,0.4287240505218506,0.7319153547286987,0.42000001668930054,-1.00028657913208,2.9999921321868896,-0.3872034251689911,-2.9999985694885254,-0.04097997397184372,-0.05066239461302757,-0.06024099141359329,-0.06925255805253983,-0.7155882716178894,-0.7453664541244507,-0.7753614783287048,-0.8045074939727783
0.21666666666666667,0.09281118214130402,0.12625755369663239,0.0,0.9599549174308777,0.0,0.0,-0.2801544666290283,0.027974357828497887,0.35730069875717163,0.0,0.0,0.0,-5.423922538757324,-0.40110042691230774,0.672015368938446,0.4200000464916229,1.0,3.606865902838763e-06,-2.261095914946054e-06,1.9646103410764226e-08,0.0002644704363774508,0.0002655842690728605,-0.00010396563448011875,-0.0017088704043999314,0.004164243582636118,-0.00012832065112888813,-0.40359848737716675,0.5634704828262329,0.9193625450134277,-1.145079493522644,3.4256722927093506,-5.526296615600586,0.4287240505218506,0.7319153547286987,0.42000001668930054,-0.9502767324447632,3.000002145767212,-0.43723174929618835,-3.000000476837158,-0.05379362776875496,-0.06360357999801636,-0.07331544160842896,-0.0824735015630722,-0.8450348377227783,-0.8287630677223206,-0.8133928179740906,-0.8005645275115967
0.23333333333333334,0.09642134606838226,0.13484586775302887,0.0,0.9539696574211121,0.0,0.0,-0.29990315437316895,0.1833367645740509,0.533031702041626,0.0,0.0,0.0,-1.4291549921035767,-0.40110039710998535,0.6720153093338013,0.4200000464916229,0.9999999403953552,3.742164153663907e-06,-2.227621735073626e-06,4.589477669014741e-07,0.0002647507353685796,0.00026671186788007617,-0.00010453304275870323,-0.0017189144855365157,0.004165781196206808,-0.00013019215839449316,-0.4224637448787689,0.6105889081954956,0.8227288722991943,-0.8549482822418213,2.413011074066162,-6.054352283477783,0.4287240505218506,0.7319153547286987,0.42000001668930054,-0.9002660512924194,3.0000009536743164,-0.48726189136505127,-3.0000009536743164,-0.06971246749162674,-0.07902250438928604,-0.08811669051647186,-0.09668644517660141,-0.9893244504928589,-0.9911679625511169,-0.9923084378242493,-0.9848958253860474
0.25,0.09709738194942474,0.14072300493717194,0.0,0.943637490272522,0.0,0.0,-0.3309808075428009,-0.0017059417441487312,0.2984207570552826,0.0,0.0,0.0,-4.72543478012085,-0.40110042691230774,0.6720153093338013,0.4200000464916229,1.0,3.394281748114736e-06,-2.2822139271738706e-06,1.3366967266392749e-07,0.0002667936496436596,0.00026793917641043663,-0.0001043959055095911,-0.0017416636692360044,0.004206570331007242,-0.0001288379280595109,-0.4324535131454468,0.6455375552177429,0.7155512571334839,-0.2191036194562912,1.763034462928772,-6.62696647644043,0.4287240505218506,0.7319153547286987,0.42000001668930054,-0.8502553701400757,3.0000009536743164,-0.5372918844223022,-2.9999990463256836,-0.08616714179515839,-0.09546907246112823,-0.10456276684999466,-0.11313281208276749,-0.9932674169540405,-0.9943336844444275,-0.9951428771018982,-0.9957842230796814
0.26666666666666666,0.09485722333192825,0.14304380118846893,0.0,0.9394985437393188,0.0,0.0,-0.34255287051200867,-0.17605634033679962,0.07480250298976898,0.0,0.0,0.0,-0.46583110094070435,-0.40110042691230774,0.672015368938446,0.4200000464916229,1.0,3.683290287881391e-06,-2.3102563773136353e-06,2.1014641049532656e-07,0.0002647915680427104,0.0002662589540705085,-0.00010421173647046089,-0.00171689223498106,0.004168987274169922,-0.0001290979707846418,-0.43483662605285645,0.6638082265853882,0.6066523790359497,0.16118283569812775,0.5245625972747803,-6.4474334716796875,0.4287240505218506,0.7319153547286987,0.42000001668930054,-0.8002460598945618,2.9999992847442627,-0.5873216390609741,-2.9999988079071045,-0.10321185737848282,-0.11239663511514664,-0.1214052215218544,-0.12991079688072205,-0.999171257019043,-0.9989191889762878,-0.9987520575523376,-0.998641312122345
0.2833333333333333,0.0897168219089508,0.14226466417312622,0.0,0.9310951232910156,0.0,0.0,-0.36477649211883545,-0.35820111632347107,-0.0948687195777893,0.0,0.0,0.0,-3.6980578899383545,-0.40110042691230774,0.6720153093338013,0.4200000464916229,1.0,3.3067699405364692e-06,-2.212680783486576e-06,2.626196646815515e-07,0.00026660721050575376,0.0002674503193702549,-0.00010424340143799782,-0.0017352817812934518,0.004204391967505217,-0.00012828312173951417,-0.42693886160850525,0.6699663400650024,0.502193808555603,0.8373351097106934,0.13541124761104584,-5.926662921905518,0.4287240505218506,0.7319153547286987,0.42000001668930054,-0.7502372860908508,3.0000009536743164,-0.6373500823974609,-3.000000476837158,-0.12083364278078079,-0.1298036277294159,-0.13864938914775848,-0.1470257043838501,-1.014541506767273,-1.0109926462173462,-1.0082871913909912,-1.0061250925064087
0.3,0.0821613296866417,0.13896244764328003,0.0,0.9295187592506409,0.0,0.0,-0.3687748312950134,-0.4851471483707428,-0.2385934442281723,0.0,0.0,0.0,0.43227237462997437,-0.40110042691230774,0.6720153093338013,0.4200000464916229,1.0,3.6408114283403847e-06,-2.3781321942806244e-06,-4.193823031073407e-07,0.000266095477854833,0.00026721254107542336,-0.00010421359911561012,-0.0017330015543848276,0.004194345790892839,-0.00012849061749875546,-0.41326138377189636,0.6718969345092773,0.410833477973938,0.9705362319946289,-0.01784660667181015,-5.097137451171875,0.4287240505218506,0.7319153547286987,0.42000001668930054,-0.7002298831939697,3.0000030994415283,-0.6873759627342224,-2.9999992847442627,-0.13818657398223877,-0.14700646698474884,-0.1557420790195465,-0.16403329372406006,-1.014723539352417,-1.0111932754516602,-1.0084906816482544,-1.0063163042068481
0.31666666666666665,0.07236393541097641,0.13332508504390717,0.0,0.9379968047142029,0.0,0.0,-0.34664398431777954,-0.6360628604888916,-0.3807157278060913,0.0,0.0,0.0,3.699052333831787,-0.40110042691230774,0.672015368938446,0.4200000464916229,1.0,3.621546738941106e-06,-2.289162011948065e-06,1.969109604260666e-07,0.00026733949198387563,0.0002680270408745855,-0.00010420684702694416,-0.0017466406570747495,0.004218932241201401,-0.00012793944915756583,-0.4168190360069275,0.6760503053665161,0.4248601794242859,-0.3649420440196991,0.19091618061065674,-0.181371808052063,0.4287240505218506,0.7319153547286987,0.42000001668930054,-0.6503703594207764,2.999990463256836,-0.7379260063171387,-3.0000011920928955,-0.1379174441099167,-0.14823836088180542,-0.15806229412555695,-0.16692575812339783,-0.15560244023799896,-0.20022805035114288,-0.2273443192243576,-0.23311878740787506
0.3333333333333333,0.0652957409620285,0.12494970113039017,0.0,0.9397275447845459,0.0,0.0,-0.3419242203235626,-0.29743754863739014,-0.5538206100463867,0.0,0.0,0.0,-0.361007422208786,-0.40110042691230774,0.6720153093338013,0.4200000464916229,1.0,3.414160801185062e-06,-2.2856518171465723e-06,2.507242982119351e-07,0.0002670037210918963,0.00026794063160195947,-0.00010437192395329475,-0.001741365878842771,0.0042112343944609165,-0.00012855500972364098,-0.41875308752059937,0.6754140853881836,0.42173802852630615,0.08601611107587814,-0.14833597838878632,-0.20843490958213806,0.4287240505218506,0.7319153547286987,0.42000001668930054,-0.6003644466400146,3.000001907348633,-0.7879598140716553,-2.999891519546509,-0.14313435554504395,-0.15290753543376923,-0.16185402870178223,-0.16949115693569183,-0.40117964148521423,-0.31019026041030884,-0.1991342008113861,-0.06889355927705765
0.35,0.05653926357626915,0.11497510224580765,0.0,0.9416199326515198,0.0,0.0,-0.3366777002811432,-0.6083744764328003,-0.6222829818725586,0.0,0.0,0.0,1.1673133373260498,-0.4005422294139862,0.6733424663543701,0.42013540863990784,0.9996846318244934,0.002360190497711301,0.0010539788054302335,-0.024975275620818138,0.1678638756275177,0.38414624333381653,0.03875594958662987,2.1916165351867676,-0.24941858649253845,-14.255402565002441,-0.4147449731826782,0.6797153949737549,0.4213040769100189,0.3691437840461731,0.5723185539245605,0.04633777216076851,0.4287240505218506,0.7319153547286987,0.42000001668930054,-0.5503517389297485,2.999948024749756,-0.837971568107605,-2.9999639987945557,-0.15367959439754486,-0.16093593835830688,-0.16704140603542328,-0.1715627759695053,-0.663821280002594,-0.49708089232444763,-0.31059199571609497,-0.10819778591394424
0.36666666666666664,0.045946404337882996,0.10305313020944595,0.0,0.9369769096374512,0.0,0.0,-0.34939128160476685,-0.6431391835212708,-0.7707540988922119,0.0,0.0,0.0,-2.545767307281494,-0.3957776725292206,0.6818670034408569,0.4199998080730438,0.9877249598503113,1.2765280189341865e-05,-1.2808818610210437e-06,-0.15620288252830505,0.3295600116252899,0.5519897937774658,-0.00021208668476901948,-0.009737437590956688,0.012285957112908363,-16.71884536743164,-0.4050607681274414,0.6879887580871582,0.4228082001209259,0.7944579124450684,0.5573498010635376,0.11651886254549026,0.4287240505218506,0.7319153547286987,0.42000001668930054,-0.5003228783607483,2.999995708465576,-0.8879859447479248,-2.9999685287475586,-0.16485989093780518,-0.16883006691932678,-0.17126493155956268,-0.17182014882564545,-0.5461031794548035,-0.3480052053928375,-0.12377046048641205,0.12058508396148682
0.3833333333333333,0.03894857317209244,0.08819970488548279,0.0,0.9216442108154297,0.0,0.0,-0.38803598284721375,-0.3957916498184204,-0.9308611154556274,0.0,0.0,0.0,-5.762129306793213,-0.3824441730976105,0.6985614895820618,0.4220159947872162,0.9741715788841248,-0.051304128021001816,0.010725878179073334,-0.21964150667190552,1.1975399255752563,1.3624088764190674,0.09952130168676376,-4.7437615394592285,1.895719289779663,-8.528672218322754,-0.3885461091995239,0.7032789587974548,0.4247041642665863,1.2585320472717285,1.2694724798202515,0.11965537816286087,0.4287240505218506,0.7319153547286987,0.42000001668930054,-0.4502943754196167,2.996593952178955,-0.9380022287368774,-2.999988317489624,-0.1724347323179245,-0.17343975603580475,-0.172458678483963,-0.16925165057182312,-0.43913790583610535,-0.2665628492832184,-0.0690898522734642,0.1466284990310669
0.4,0.03532936051487923,0.07055261731147766,0.0,0.8935844898223877,0.0,0.0,-0.44889503717422485,-0.14542639255523682,-1.1122937202453613,0.0,0.0,0.0,-8.812237739562988,-0.34782880544662476,0.7283482551574707,0.42447978258132935,0.9639194011688232,-0.013887908309698105,-0.026753870770335197,-0.26448190212249756,3.1288347244262695,2.3660571575164795,0.26100480556488037,27.619338989257812,-15.475079536437988,2.0871825218200684,-0.3534999191761017,0.7324493527412415,0.4272727370262146,2.9353761672973633,2.249149799346924,0.39461737871170044,0.4287240505218506,0.7319153547286987,0.42000001668930054,-0.40358060598373413,2.0230321884155273,-0.9010281562805176,2.9958698749542236,-0.18157199025154114,-0.1791173666715622,-0.17437192797660828,-0.16723251342773438,-0.5802108645439148,-0.3524509370326996,-0.112752266228199,0.1298896223306656
0.4166666666666667,0.033761195838451385,0.05767366662621498,0.0,0.8493680953979492,0.0,0.0,-0.527800977230072,-0.05847839266061783,-0.6486940383911133,0.0,0.0,0.0,-11.628891944885254,-0.27281641960144043,0.7722097039222717,0.4300656020641327,0.9416213631629944,0.061544593423604965,-0.07166143506765366,-0.3231503367424011,6.036396026611328,2.443469762802124,0.5096622109413147,7.741125106811523,-10.081625938415527,24.575761795043945,-0.27857816219329834,0.7764110565185547,0.43296146392822266,5.685887336730957,3.1053009033203125,0.4362099766731262,0.4287240505218506,0.7319153547286987,0.42000001668930054,-0.38092973828315735,1.077113151550293,-0.8509911298751831,2.999063491821289,-0.19694267213344574,-0.19100023806095123,-0.1809614896774292,-0.16885671019554138,-0.9062486886978149,-0.8072255253791809,-0.4938952922821045,-0.211447611451149
0.43333333333333335,0.02810598723590374,0.05222708731889725,0.0,0.8106266260147095,0.0,0.0,-0.5855633616447449,-0.45809054374694824,-0.33208170533180237,0.0,0.0,0.0,-6.990154266357422,-0.17732197046279907,0.8129838109016418,0.4397851228713989,0.897756040096283,0.10354842245578766,-0.09498926252126694,-0.4174790680408478,6.084438800811768,1.4648420810699463,0.9092254042625427,-8.697461128234863,2.1211564540863037,-0.8649929761886597,-0.18249329924583435,0.8191958665847778,0.4425126016139984,5.905109405517578,2.1997039318084717,0.600730299949646,0.4287240505218506,0.7319153547286987,0.42000001668930054,-0.3641200661659241,0.9885013699531555,-0.877531886100769,-2.9986231327056885,-0.21095289289951324,-0.2053983062505722,-0.19415327906608582,-0.17698363959789276,-0.6168033480644226,-0.679043710231781,-0.7366318106651306,-0.4893123209476471
0.45,0.02713712677359581,0.039565715938806534,0.0,0.7911621928215027,0.0,0.0,-0.6116063594818115,0.08009812235832214,-0.9289040565490723,0.0,0.0,0.0,-2.8606367111206055,-0.07338809967041016,0.8415923714637756,0.4498289227485657,0.8257272243499756,0.12076406925916672,-0.10297602415084839,-0.5412821173667908,6.795209884643555,0.6602484583854675,0.8355404734611511,4.10726261138916,-11.260544776916504,2.9023308753967285,-0.0793534368276596,0.8493106365203857,0.45153987407684326,6.4205145835876465,1.2103819847106934,0.5629981756210327,0.4287240505218506,0.7319153547286987,0.42000001668930054,-0.34752359986305237,0.8943095207214355,-0.9275558590888977,-3.000002384185791,-0.21491023898124695,-0.21012306213378906,-0.1996745616197586,-0.1792115569114685,-0.13668228685855865,-0.13497275114059448,-0.14355485141277313,0.037208735942840576
0.4666666666666667,0.025119416415691376,0.029050316661596298,0.0,0.7636414766311646,0.0,0.0,-0.6456405520439148,-0.17113599181175232,-0.5708011984825134,0.0,0.0,0.0,-5.945239543914795,0.03421124070882797,0.8509379029273987,0.45679646730422974,0.7489287257194519,0.09257589280605316,-0.15538032352924347,-0.6374890208244324,6.128211498260498,-0.6625489592552185,0.5219396948814392,-15.567154884338379,1.361508846282959,13.617657661437988,0.027546828612685204,0.8629504442214966,0.4614163637161255,6.6242170333862305,0.4224660098552704,0.6418969631195068,0.4287240505218506,0.7319153547286987,0.42000001668930054,-0.3337654769420624,0.6713761687278748,-0.9775798916816711,-2.99985408782959,-0.22058703005313873,-0.21509169042110443,-0.20433688163757324,-0.18140089511871338,-0.303148478269577,-0.2653844952583313,-0.259797602891922,-0.17118358612060547
0.48333333333333334,0.024476781487464905,0.023270687088370323,0.0,0.750629186630249,0.0,0.0,-0.6607237458229065,0.022325504571199417,-0.2713848650455475,0.0,0.0,0.0,-1.2432804107666016,0.13429901003837585,0.8433526754379272,0.4617062211036682,0.6532754302024841,0.06487108767032623,-0.18348762392997742,-0.7316796183586121,4.9346771240234375,-1.8146135807037354,0.3777028024196625,-5.448622703552246,12.123513221740723,25.773910522460938,0.12836195528507233,0.8591935038566589,0.46813738346099854,5.979053974151611,-0.8519095778465271,0.27432894706726074,0.4287240505218506,0.7319153547286987,0.42000001668930054,-0.32601138949394226,0.27369579672813416,-1.0276036262512207,-2.9980368614196777,-0.22821399569511414,-0.2210714966058731,-0.20935207605361938,-0.1848636269569397,-0.4696096181869507,-0.34186428785324097,-0.2624150216579437,-0.187299907207489
0.5,0.02700626105070114,0.021227257326245308,0.0,0.7306811213493347,0.0,0.0,-0.6827188730239868,0.20072294771671295,-0.06376459449529648,0.0,0.0,0.0,-4.446372032165527,0.21990099549293518,0.8250576853752136,0.4593160152435303,0.5839444398880005,0.05012468621134758,-0.16652093827724457,-0.7929484248161316,4.681123733520508,-1.8463082313537598,0.025463318452239037,-10.253323554992676,4.673445701599121,8.62005615234375,0.21566690504550934,0.8429537415504456,0.46671590209007263,4.807023525238037,-1.3131208419799805,-0.34685492515563965,0.4287240505218506,0.7319153547286987,0.42000001668930054,-0.3250786364078522,-0.07339505851268768,-1.0776257514953613,-2.9997663497924805,-0.23408637940883636,-0.22527891397476196,-0.2125999629497528,-0.1875908523797989,-0.2762511074542999,-0.17999114096164703,-0.12588994204998016,-0.12161998450756073
0.5166666666666666,0.032121315598487854,0.022553768008947372,0.0,0.7237535119056702,0.0,0.0,-0.6900585889816284,0.33955520391464233,0.13747109472751617,0.0,0.0,0.0,-0.23561839759349823,0.2915165424346924,0.8026981949806213,0.4502470791339874,0.5312420129776001,0.018972940742969513,-0.14000743627548218,-0.8353559970855713,3.796875476837158,-1.5111085176467896,-0.7081092596054077,2.8859357833862305,5.278989791870117,-7.282431602478027,0.2881844937801361,0.8180335164070129,0.4573850631713867,3.9078664779663086,-1.689753532409668,-0.7486201524734497,0.4287240505218506,0.7319153547286987,0.42000001668930054,-0.31838205456733704,0.9690011739730835,-1.127647876739502,-2.9999916553497314,-0.2376619279384613,-0.22746039927005768,-0.21408149600028992,-0.1895289421081543,-0.1091756746172905,-0.04754280671477318,-0.027941077947616577,-0.09360507875680923
0.5333333333333333,0.03977128118276596,0.01906140334904194,0.0,0.706840455532074,0.0,0.0,-0.7073729634284973,0.47339946031570435,-0.2543084919452667,0.0,0.0,0.0,-3.6704702377319336,0.35054251551628113,0.7786937355995178,0.4323750138282776,0.49659886956214905,-0.010341698303818703,-0.13121724128723145,-0.8579420447349548,3.0375185012817383,-1.7427548170089722,-1.0583819150924683,4.211254119873047,10.415369987487793,1.4332537651062012,0.34915679693222046,0.7941958904266357,0.4398968517780304,3.318423271179199,-1.4345828294754028,-1.2581626176834106,0.4287240505218506,0.7319153547286987,0.42000001668930054,-0.2990667223930359,1.1747353076934814,-1.1776700019836426,-2.9995169639587402,-0.23346839845180511,-0.2234959602355957,-0.21097564697265625,-0.1887955218553543,0.25736603140830994,0.24113422632217407,0.18551619350910187,0.027605395764112473
0.55,0.04503241181373596,0.01995079591870308,0.0,0.703195333480835,0.0,0.0,-0.710996687412262,0.2603417634963989,0.07131262868642807,0.0,0.0,0.0,0.35424625873565674,0.3907129168510437,0.7578668594360352,0.4209385812282562,0.45951056480407715,-0.014393312856554985,-0.01109650731086731,-0.8879862427711487,1.5829898118972778,-1.4940333366394043,0.6391184329986572,-34.968265533447266,17.890541076660156,-0.18366706371307373,0.39145034551620483,0.7702429294586182,0.4286434054374695,1.619551181793213,-0.9465219974517822,0.28825485706329346,0.4287240505218506,0.7319153547286987,0.42000001668930054,-0.28432419896125793,0.2818300426006317,-1.2276939153671265,-2.996634006500244,-0.2332577258348465,-0.22296659648418427,-0.21077683568000793,-0.19077017903327942,0.145345538854599,0.11563123762607574,0.05835374817252159,-0.10199389606714249
0.5666666666666667,0.05142512544989586,0.01715732365846634,0.0,0.6899908185005188,0.0,0.0,-0.7238181233406067,0.4043944478034973,-0.21724632382392883,0.0,0.0,0.0,-3.007598638534546,0.4168027341365814,0.7480064630508423,0.42241165041923523,0.4761514663696289,-0.02023923397064209,-0.039312973618507385,-0.8782508373260498,1.0945377349853516,-0.5334917902946472,0.06439754366874695,-6.3143720626831055,9.615516662597656,-1.5924698114395142,0.41545772552490234,0.759048342704773,0.4291640520095825,1.1462957859039307,-0.5363615155220032,-0.02804376929998398,0.4287240505218506,0.7319153547286987,0.42000001668930054,-0.2742658257484436,0.847630500793457,-1.2777122259140015,-2.9997763633728027,-0.22707772254943848,-0.2181156426668167,-0.20760831236839294,-0.1909027248620987,0.3860644996166229,0.3048868179321289,0.2046598196029663,0.008573471568524837
0.5833333333333334,0.056420475244522095,0.0182658638805151,0.0,0.6888213157653809,0.0,0.0,-0.7249311804771423,0.20730389654636383,0.07215218991041183,0.0,0.0,0.0,0.613508939743042,0.4286845922470093,0.7373532652854919,0.4220598042011261,0.48248130083084106,-0.012843393720686436,-0.034500978887081146,-0.8751322627067566,0.39231356978416443,-1.0140222311019897,0.19600626826286316,-10.343670845031738,1.7640143632888794,12.025375366210938,0.4268508553504944,0.7476228475570679,0.42916595935821533,0.3475956916809082,-0.6087414622306824,0.008746165782213211,0.4287240505218506,0.7319153547286987,0.42000001668930054,-0.2639434039592743,0.34724438190460205,-1.260185956954956,3.0,-0.2240946888923645,-0.2157459706068039,-0.20618058741092682,-0.1920320987701416,0.27388304471969604,0.2125040590763092,0.1370750218629837,-0.02687496691942215
0.6,0.061490003019571304,0.0152615737169981,0.0,0.676741898059845,0.0,0.0,-0.7362203598022461,0.34406352043151855,-0.21646693348884583,0.0,0.0,0.0,-2.7674498558044434,0.43169519305229187,0.7341067790985107,0.4207999110221863,0.5052205920219421,-0.01669309101998806,-0.00860562827438116,-0.862785816192627,-0.02582644671201706,-0.07871519029140472,0.020277008414268494,-5.115614414215088,-0.20120303332805634,14.236162185668945,0.4290502667427063,0.7437213063240051,0.4275725185871124,-0.19533555209636688,-0.04853746294975281,-0.022984996438026428,0.4287240505218506,0.7319153547286987,0.42000001668930054,-0.27180594205856323,-0.9455304145812988,-1.2808046340942383,-2.9927077293395996,-0.21497172117233276,-0.20866534113883972,-0.20126037299633026,-0.19053170084953308,0.5081785917282104,0.39625129103660583,0.2778482139110565,0.08834671974182129
0.6166666666666667,0.06886841356754303,0.015374704264104366,0.0,0.6776575446128845,0.0,0.0,-0.7353776097297668,0.46822646260261536,0.04428602755069733,0.0,0.0,0.0,1.046313762664795,0.4297527074813843,0.7330767512321472,0.42005157470703125,0.5301826000213623,-0.0008294372819364071,-0.0005816164775751531,-0.8478828072547913,-0.1088847815990448,-0.06706220656633377,-0.0653882622718811,3.02573561668396,-1.5096083879470825,1.307328701019287,0.4247058033943176,0.7407698631286621,0.4258500337600708,-0.17762324213981628,-0.10270000994205475,0.17887358367443085,0.4287240505218506,0.7319153547286987,0.42000001668930054,-0.3089214563369751,-2.999936580657959,-1.3307710886001587,-2.999373197555542,-0.2083299607038498,-0.20370353758335114,-0.19804759323596954,-0.19013777375221252,0.4481632709503174,0.3312499523162842,0.21494746208190918,0.04485578089952469
0.6333333333333333,0.07782773673534393,0.018539728596806526,0.0,0.6677650213241577,0.0,0.0,-0.7443721294403076,0.5746573805809021,0.24546858668327332,0.0,0.0,0.0,-2.5658905506134033,0.42917174100875854,0.7327359914779663,0.4200000762939453,0.5353553295135498,-1.2215324431963381e-06,-1.6507569853274617e-06,-0.8446269631385803,-0.016468187794089317,-0.006597599480301142,-4.747702041640878e-05,0.0033782648388296366,-0.00046460956218652427,0.5751014351844788,0.4237610101699829,0.7431279420852661,0.4293736517429352,-0.04904297739267349,0.245170459151268,0.23859968781471252,0.4287240505218506,0.7319153547286987,0.42000001668930054,-0.35894113779067993,-3.0000007152557373,-1.3807272911071777,-2.9989452362060547,-0.19851887226104736,-0.1967192441225052,-0.1937190592288971,-0.18908140063285828,0.6607839465141296,0.47754865884780884,0.3065855801105499,0.1069633737206459
0.65,0.08940501511096954,0.016750140115618706,0.0,0.6697126030921936,0.0,0.0,-0.7426204085350037,0.6567015051841736,-0.11775507777929306,0.0,0.0,0.0,1.226355791091919,0.4285115599632263,0.7330860495567322,0.42000049352645874,0.5565014481544495,-2.544213566579856e-05,-5.1741542847594246e-05,-0.8308466076850891,-0.10888191312551498,0.06801321357488632,-0.0016662705456838012,0.16681106388568878,-0.0011120333801954985,8.392891883850098,0.422027587890625,0.7470617890357971,0.4330329895019531,-0.2698327600955963,0.2176482081413269,0.22933539748191833,0.4287240505218506,0.7319153547286987,0.42000001668930054,-0.40895727276802063,-2.999990463256836,-1.4307433366775513,-2.9997408390045166,-0.1850772500038147,-0.1864267885684967,-0.18641039729118347,-0.18516132235527039,0.6368845105171204,0.4992120862007141,0.3653804659843445,0.20552048087120056
0.6666666666666666,0.10255127400159836,0.018578123301267624,0.0,0.6931725144386292,0.0,0.0,-0.7207717299461365,0.8451940417289734,0.14834214746952057,0.0,0.0,0.0,4.659673690795898,0.4261836111545563,0.7339471578598022,0.4200010895729065,0.5648377537727356,1.6348865756299347e-05,-3.396071974748338e-07,-0.8252019286155701,-0.10682749003171921,0.04225306957960129,-0.0010623109992593527,-0.00249570794403553,0.0382397435605526,1.3662968873977661,0.419161856174469,0.747749924659729,0.4372622072696686,-0.05602230131626129,0.021544210612773895,0.3022615611553192,0.4287240505218506,0.7319153547286987,0.42000001668930054,-0.45897364616394043,-2.998535633087158,-1.4807343482971191,-2.9999852180480957,-0.17861256003379822,-0.18098266422748566,-0.18184424936771393,-0.18177548050880432,0.4270431697368622,0.37088629603385925,0.3327045738697052,0.290392130613327
0.6833333333333333,0.11340311914682388,0.01747945137321949,0.0,0.7029098272323608,0.0,0.0,-0.7112789750099182,0.5505099892616272,-0.1196739673614502,0.0,0.0,0.0,0.5659815073013306,0.42530468106269836,0.7342792749404907,0.41999995708465576,0.5682483911514282,1.94123686014791e-06,-2.4652260890434263e-06,-0.8228570222854614,-0.03207504749298096,0.011435921303927898,-1.4975492376834154e-05,1.3772089005215093e-05,0.0005640796734951437,0.2630401849746704,0.4203704595565796,0.7481352686882019,0.4429105520248413,0.14019474387168884,-0.0867355540394783,0.34228381514549255,0.4287240505218506,0.7319153547286987,0.42000001668930054,-0.5089837908744812,-2.9999983310699463,-1.530746579170227,-3.0,-0.17289575934410095,-0.17547562718391418,-0.17625486850738525,-0.17611806094646454,0.2505708336830139,0.27616867423057556,0.31727540493011475,0.3590152859687805
0.7,0.1237209215760231,0.012802287936210632,0.0,0.6909974217414856,0.0,0.0,-0.7228572368621826,0.6553894877433777,-0.35367220640182495,0.0,0.0,0.0,-2.8605659008026123,0.42530447244644165,0.7342795729637146,0.41999998688697815,0.5682487487792969,-1.5914328059807303e-06,-4.816259661311051e-06,-0.8228567838668823,0.00019110973516944796,-0.00046504641068167984,-7.344037294387817e-05,0.011250365525484085,-0.0038176500238478184,-0.0014603936579078436,0.42820820212364197,0.7497179508209229,0.45589518547058105,0.7496819496154785,0.1957179307937622,1.284874439239502,0.4287240505218506,0.7319153547286987,0.42000001668930054,-0.5589963793754578,-2.9999840259552,-1.5807640552520752,-3.0,-0.17063221335411072,-0.17257925868034363,-0.17247197031974792,-0.17137834429740906,0.07601180672645569,0.1228717640042305,0.18372656404972076,0.2511945068836212
0.7166666666666667,0.13757111132144928,0.013195346109569073,0.0,0.6573583483695984,0.0,0.0,-0.7535781264305115,0.7980161309242249,0.0054106926545500755,0.0,0.0,0.0,-6.269858360290527,0.4253045320510864,0.7342795729637146,0.41999995708465576,0.5682488679885864,-1.7089690800276003e-06,-5.924667675571982e-06,-0.8228566646575928,9.005708125187084e-05,-0.0003911078965757042,-7.618637755513191e-05,0.009934485889971256,-0.0030110052321106195,-0.0009555704309605062,0.4482192397117615,0.7503899335861206,0.483010470867157,1.7452292442321777,0.04372449219226837,2.0446414947509766,0.4287240505218506,0.7319153547286987,0.42000001668930054,-0.6090075969696045,-3.000000476837158,-1.6307785511016846,-3.0,-0.17652805149555206,-0.1764257550239563,-0.1741284281015396,-0.17080429196357727,-0.22880306839942932,-0.13692350685596466,-0.03280816599726677,0.08085806667804718
0.7333333333333333,0.14779868721961975,0.015854723751544952,0.0,0.6373327970504761,0.0,0.0,-0.7705886960029602,0.5718244314193726,0.13404934108257294,0.0,0.0,0.0,-2.010106086730957,0.4253045320510864,0.7342795729637146,0.41999995708465576,0.5682487487792969,-1.6977737686829641e-06,-5.5824866649345495e-06,-0.8228568434715271,9.229156421497464e-05,-0.0003919977170880884,-7.60501716285944e-05,0.009971761144697666,-0.0030300605576485395,-0.0009623185615055263,0.4748880863189697,0.7528711557388306,0.51911461353302,1.5091445446014404,0.29679277539253235,2.245356559753418,0.4287240505218506,0.7319153547286987,0.42000001668930054,-0.6276993751525879,0.4713832139968872,-1.680793046951294,-2.999999761581421,-0.1801888346672058,-0.17895226180553436,-0.17544111609458923,-0.17081986367702484,-0.06169917806982994,-0.051042936742305756,-0.03894640505313873,-0.021626558154821396
0.75,0.1539754569530487,0.01967644691467285,0.0,0.6424469351768494,0.0,0.0,-0.7663301825523376,0.29904288053512573,0.2792198061943054,0.0,0.0,0.0,1.6608763933181763,0.4253045320510864,0.7342795729637146,0.41999995708465576,0.5682486891746521,-1.6889484868443105e-06,-5.649697868648218e-06,-0.8228567838668823,9.206545655615628e-05,-0.00039195368299260736,-7.605180144309998e-05,0.009969943203032017,-0.0030287110712379217,-0.0009613822330720723,0.4939577281475067,0.7571492195129395,0.550430178642273,0.7384028434753418,0.26590242981910706,1.5814170837402344,0.4287240505218506,0.7319153547286987,0.42000001668930054,-0.5974022746086121,2.923645496368408,-1.6415516138076782,2.999999761581421,-0.17995470762252808,-0.1786120980978012,-0.17501403391361237,-0.1702415645122528,0.08249250054359436,0.08458732813596725,0.0817483440041542,0.08064290881156921
0.7666666666666666,0.15613549947738647,0.018911387771368027,0.0,0.6365646123886108,0.0,0.0,-0.7712233662605286,0.13697382807731628,-0.0810222178697586,0.0,0.0,0.0,-1.6811145544052124,0.4253045320510864,0.7342795729637146,0.41999995708465576,0.5682486891746521,-1.6859411289260606e-06,-5.708865501219407e-06,-0.8228568434715271,9.236852201865986e-05,-0.0003920010931324214,-7.604551501572132e-05,0.00997193343937397,-0.0030294505413621664,-0.0009622020297683775,0.4989226460456848,0.763314962387085,0.5697034597396851,-0.18333245813846588,0.2662470042705536,0.873386025428772,0.4287240505218506,0.7319153547286987,0.42000001668930054,-0.5698981881141663,0.561032772064209,-1.591495156288147,3.0,-0.1748061627149582,-0.17390473186969757,-0.17086316645145416,-0.16662108898162842,0.19162702560424805,0.2011522650718689,0.19718152284622192,0.18807144463062286
0.7833333333333333,0.15574970841407776,0.02339969016611576,0.0,0.6437005996704102,0.0,0.0,-0.7652773857116699,-0.05888168886303902,0.25982823967933655,0.0,0.0,0.0,1.8698253631591797,0.4253045320510864,0.7342795729637146,0.41999995708465576,0.5682486891746521,-1.7061645394278457e-06,-5.570045232161647e-06,-0.8228567838668823,9.255498298443854e-05,-0.0003920511226169765,-7.604272104799747e-05,0.009973980486392975,-0.0030298291239887476,-0.0009627236286178231,0.49185678362846375,0.7654439210891724,0.5804862976074219,-0.4984826147556305,0.21434743702411652,0.45338889956474304,0.4287240505218506,0.7319153547286987,0.42000001668930054,-0.5405022501945496,2.7529382705688477,-1.5414539575576782,2.9999992847442627,-0.1765531599521637,-0.17443770170211792,-0.1705489158630371,-0.165706068277359,0.07785793393850327,0.10177475214004517,0.10663187503814697,0.10103835165500641
0.8,0.1531597524881363,0.02433224767446518,0.0,0.6387686729431152,0.0,0.0,-0.7693988084793091,-0.20793864130973816,0.009086556732654572,0.0,0.0,0.0,-1.61138916015625,0.4253045320510864,0.7342795729637146,0.41999995708465576,0.5682487487792969,-1.7527968338981736e-06,-5.8186283240502235e-06,-0.8228567242622375,9.21825849218294e-05,-0.0003919570881407708,-7.604900747537613e-05,0.009970194660127163,-0.003029023529961705,-0.0009616917814128101,0.4776136875152588,0.7687193155288696,0.5829856395721436,-1.1939314603805542,0.12881681323051453,0.012332219630479813,0.4287240505218506,0.7319153547286987,0.42000001668930054,-0.5314804315567017,-1.323027491569519,-1.491397500038147,3.000000476837158,-0.17540252208709717,-0.1729019731283188,-0.16893766820430756,-0.16418863832950592,0.03595605492591858,0.06586890667676926,0.0763389840722084,0.07552143931388855
0.8166666666666667,0.15275734663009644,0.02567310817539692,0.0,0.6459274291992188,0.0,0.0,-0.7633987665176392,0.005921951495110989,0.036181073635816574,0.0,0.0,0.0,1.9234352111816406,0.4253045320510864,0.7342795729637146,0.41999995708465576,0.5682488083839417,-1.7587003640073817e-06,-5.718716238334309e-06,-0.8228567838668823,9.208851406583562e-05,-0.00039175772690214217,-7.603620178997517e-05,0.009964304976165295,-0.0030271103605628014,-0.0009611298446543515,0.4635545313358307,0.7699763774871826,0.5821307897567749,-0.48653149604797363,0.16753944754600525,-0.04763629660010338,0.4287240505218506,0.7319153547286987,0.42000001668930054,-0.5295156836509705,1.326830267906189,-1.5077297687530518,-3.000000238418579,-0.17672497034072876,-0.17331132292747498,-0.16870760917663574,-0.16347414255142212,0.05298834666609764,0.0778982937335968,0.09352848678827286,0.10707958042621613
0.8333333333333334,0.15439920127391815,0.02420709654688835,0.0,0.6412112712860107,0.0,0.0,-0.7673643827438354,0.1526487171649933,-0.1405225694179535,0.0,0.0,0.0,-1.571215271949768,0.4253045320510864,0.7342795729637146,0.41999995708465576,0.5682488083839417,-1.7398166392013081e-06,-5.786230303783668e-06,-0.8228566646575928,9.20667007449083e-05,-0.00039189073140732944,-7.604528218507767e-05,0.009968146681785583,-0.0030281764920800924,-0.000961280195042491,0.45698654651641846,0.7716406583786011,0.5790833234786987,-0.26686811447143555,-0.005311285145580769,-0.14737170934677124,0.4287240505218506,0.7319153547286987,0.42000001668930054,-0.5500528216362,-3.0000007152557373,-1.4689809083938599,3.000000238418579,-0.17671312391757965,-0.17281030118465424,-0.16780048608779907,-0.1621384620666504,-0.029900724068284035,0.0071595278568565845,0.041591353714466095,0.078996442258358
0.85,0.15896914899349213,0.02044900320470333,0.0,0.6180615425109863,0.0,0.0,-0.7861297130584717,0.3173442482948303,-0.33930209279060364,0.0,0.0,0.0,-4.705214023590088,0.4253045320510864,0.7342795729637146,0.41999995708465576,0.5682488679885864,-1.7570982890902087e-06,-5.842252448928775e-06,-0.8228566646575928,9.236310870619491e-05,-0.00039193418342620134,-7.604015991091728e-05,0.009970070794224739,-0.0030287595000118017,-0.000962074554990977,0.45769959688186646,0.7694859504699707,0.5763505697250366,0.38026320934295654,-0.2749174237251282,-0.05010944604873657,0.4287240505218506,0.7319153547286987,0.42000001668930054,-0.5897228121757507,-1.8269625902175903,-1.4857913255691528,-2.9999990463256836,-0.1788179725408554,-0.17392459511756897,-0.16790153086185455,-0.16113406419754028,-0.14608407020568848,-0.0716867595911026,0.006660945247858763,0.09212221950292587
0.8666666666666667,0.16611525416374207,0.01847653090953827,0.0,0.6085345149040222,0.0,0.0,-0.7935274243354797,0.463162899017334,-0.0411425456404686,0.0,0.0,0.0,-0.42128750681877136,0.4253045320510864,0.7342795729637146,0.41999995708465576,0.5682488083839417,-1.7271606793656247e-06,-6.18999047219404e-06,-0.8228567242622375,9.409085032530129e-05,-0.0003920808376278728,-7.602921687066555e-05,0.009977156296372414,-0.003029190469533205,-0.0009666518890298903,0.46329325437545776,0.7670756578445435,0.5773119926452637,0.29511964321136475,-0.03160073608160019,0.14898084104061127,0.4287240505218506,0.7319153547286987,0.42000001668930054,-0.5927682518959045,1.2005356550216675,-1.5358096361160278,-2.999999761581421,-0.18141154944896698,-0.17582033574581146,-0.16906486451625824,-0.16147875785827637,-0.09011489897966385,-0.08733612298965454,-0.08469973504543304,-0.07855181396007538
0.8833333333333333,0.17050349712371826,0.017903925850987434,0.0,0.6230691075325012,0.0,0.0,-0.7821667790412903,0.2150348424911499,0.05895446985960007,0.0,0.0,0.0,3.0086214542388916,0.4253045320510864,0.7342795729637146,0.41999995708465576,0.5682487487792969,-1.6882111140148481e-06,-5.640923518512864e-06,-0.8228568434715271,9.234369645128027e-05,-0.0003920234739780426,-7.60445836931467e-05,0.009972717612981796,-0.0030298323836177588,-0.000962451274972409,0.468284010887146,0.7674091458320618,0.5775593519210815,0.24958136677742004,0.015682866796851158,-0.09197565168142319,0.4287240505218506,0.7319153547286987,0.42000001668930054,-0.580278754234314,0.35927271842956543,-1.4969764947891235,3.0,-0.18011333048343658,-0.17504152655601501,-0.16879381239414215,-0.1616380363702774,0.08908027410507202,0.052483730018138885,0.014780840836465359,-0.020543217658996582
0.9,0.1714981347322464,0.013975457288324833,0.0,0.6238619685173035,0.0,0.0,-0.7815345525741577,0.019521260634064674,-0.23507383465766907,0.0,0.0,0.0,-0.7372757792472839,0.4253045320510864,0.7342795729637146,0.41999995708465576,0.5682486891746521,-1.6854751265782397e-06,-5.6999347179953475e-06,-0.8228567838668823,9.236714686267078e-05,-0.00039200406172312796,-7.604784332215786e-05,0.009972087107598782,-0.0030294458847492933,-0.0009622032521292567,0.47097015380859375,0.7670509815216064,0.5712586045265198,0.012000329792499542,-0.15029402077198029,-0.5127378702163696,0.4287240505218506,0.7319153547286987,0.42000001668930054,-0.5945166349411011,-1.8647568225860596,-1.4469200372695923,2.9999990463256836,-0.17624318599700928,-0.17213000357151031,-0.1668665111064911,-0.16065926849842072,0.07880601286888123,0.056048013269901276,0.027144968509674072,-0.005388766527175903
