vladlanda/robotic-transformer/data/env_000_episode_0235.csv
sim_time_s,robot_box_x,robot_box_y,robot_box_z,robot_box_quat_w,robot_box_quat_x,robot_box_quat_y,robot_box_quat_z,robot_box_linvel_x,robot_box_linvel_y,robot_box_linvel_z,robot_box_angvel_x,robot_box_angvel_y,robot_box_angvel_z,cube_world_x,cube_world_y,cube_world_z,cube_quat_w,cube_quat_x,cube_quat_y,cube_quat_z,cube_linvel_x,cube_linvel_y,cube_linvel_z,cube_angvel_x,cube_angvel_y,cube_angvel_z,endpoint_world_x,endpoint_world_y,endpoint_world_z,endpoint_linvel_x,endpoint_linvel_y,endpoint_linvel_z,target_cube_world_x,target_cube_world_y,target_cube_world_z,gripper_actual_pos_rad_gp_leftgearjoint,gripper_actual_vel_rad_s_gp_leftgearjoint,gripper_actual_pos_rad_gp_rotatingjoint,gripper_actual_vel_rad_s_gp_rotatingjoint,motor_angle_rad_joint1,motor_angle_rad_joint2,motor_angle_rad_joint3,motor_angle_rad_joint4,motor_speed_rad_s_joint1,motor_speed_rad_s_joint2,motor_speed_rad_s_joint3,motor_speed_rad_s_joint4
0.0,0.0,0.0,0.0,1.0,0.0,0.0,0.0,0.0,0.0,0.0,0.0,0.0,0.0,-0.3705136179924011,0.6629893183708191,0.41999998688697815,1.0,0.0,0.0,0.0,0.0,0.0,0.0,0.0,0.0,0.0,3.42540442943573e-06,-0.005000244826078415,1.313499927520752,0.0,0.0,0.0,0.4022502601146698,0.7069323062896729,0.42000001668930054,-1.5707999467849731,0.0,0.0,0.0,0.0,0.0,0.0,0.0,0.0,0.0,0.0,0.0
0.016666666666666666,0.0028805683832615614,0.0021775702480226755,0.0,0.9998143315315247,0.0,0.0,0.019267702475190163,0.24095043540000916,0.18229667842388153,0.0,0.0,0.0,3.1418087482452393,-0.3705137372016907,0.6629890203475952,0.41999998688697815,1.0,3.279964630564791e-06,-8.339746386809566e-07,8.465587342243452e-08,-1.9833529222523794e-05,0.00017983045836444944,-6.132945418357849e-05,0.0009432713268324733,-0.004689474124461412,-0.00031981561915017664,-0.00710928812623024,0.003387636039406061,1.3159379959106445,-0.8140578269958496,0.9871779680252075,0.1809595674276352,0.4022502601146698,0.7069323062896729,0.42000001668930054,-1.5301094055175781,3.00000262260437,-0.04584868997335434,-3.000000476837158,0.0008700665784999728,0.0007967209094204009,0.0007112870807759464,0.0006111411494202912,0.11094781756401062,0.09758599102497101,0.08336274325847626,0.0682574138045311
0.03333333333333333,0.008964166045188904,0.006797070149332285,0.0,0.9998024106025696,0.0,0.0,0.01987767405807972,0.4070535898208618,0.3152042031288147,0.0,0.0,0.0,-0.8690893650054932,-0.3705138564109802,0.6629889607429504,0.4200000464916229,1.0,3.3908354453160428e-06,-2.1324485715012997e-06,-3.710144014235084e-08,0.00026357831666246057,0.00026937946677207947,-0.00010509486310184002,-0.0017707672668620944,0.004130808170884848,-0.000135478752781637,-0.02753780223429203,0.026162035763263702,1.316605567932129,-1.5905258655548096,1.6168859004974365,-0.08390697091817856,0.4022502601146698,0.7069323062896729,0.42000001668930054,-1.4800902605056763,3.0000014305114746,-0.09588852524757385,-3.0000016689300537,0.0029904136899858713,0.0026527082081884146,0.0022772676311433315,0.0018607656238600612,0.16417695581912994,0.1397351622581482,0.11379814147949219,0.08628221601247787
0.05,0.01847289875149727,0.013894898816943169,0.0,0.9999759197235107,0.0,0.0,-0.006941183470189571,0.6362062692642212,0.4721669852733612,0.0,0.0,0.0,-4.0743608474731445,-0.3705138862133026,0.6629890203475952,0.4200000464916229,1.0,3.7651125239790417e-06,-2.211879063906963e-06,5.622505128144439e-09,0.000265308452071622,0.0002669153327587992,-0.00010440615005791187,-0.001724260626360774,0.004177352879196405,-0.00012949221127200872,-0.05719546973705292,0.05709519237279892,1.3120050430297852,-1.9535926580429077,2.0257275104522705,-0.448781818151474,0.4022502601146698,0.7069323062896729,0.42000001668930054,-1.4300719499588013,3.0000016689300537,-0.1459229290485382,-2.9999992847442627,0.006012044847011566,0.005173057783395052,0.004261741414666176,0.003273778362199664,0.20709623396396637,0.16677427291870117,0.12452761828899384,0.08028064668178558
0.06666666666666667,0.03077976405620575,0.02337988093495369,0.0,0.9998813271522522,0.0,0.0,-0.015404876321554184,0.77241450548172,0.6159707307815552,0.0,0.0,0.0,-0.03957148268818855,-0.3705138862133026,0.6629889607429504,0.4200000464916229,0.9999999403953552,3.4066883927152958e-06,-2.285532218593289e-06,4.300976286231162e-07,0.0002670241810847074,0.00026791772688739,-0.00010438147000968456,-0.00174069800414145,0.00421178387477994,-0.00012850729399360716,-0.09457901120185852,0.08984319865703583,1.301238775253296,-2.383443832397461,2.0749258995056152,-0.8328201174736023,0.4022502601146698,0.7069323062896729,0.42000001668930054,-1.3800443410873413,2.999997615814209,-0.13077601790428162,3.0000009536743164,0.008728819899260998,0.007178476545959711,0.00551556795835495,0.0037349266931414604,0.15088732540607452,0.10079267621040344,0.04855971038341522,-0.005878767929971218
0.08333333333333333,0.04532401263713837,0.03185452148318291,0.0,0.999272882938385,0.0,0.0,-0.03812728449702263,0.9520599246025085,0.4413362145423889,0.0,0.0,0.0,-3.5461509227752686,-0.3705138862133026,0.6629889607429504,0.4200000464916229,0.9999999403953552,3.626031229941873e-06,-2.3352447442448465e-06,3.032197639640799e-07,0.0002661392209120095,0.0002668500819709152,-0.00010405294597148895,-0.0017282416811212897,0.00419628107920289,-0.00012790791515726596,-0.129119411110878,0.12893034517765045,1.2869231700897217,-1.8082513809204102,2.601238250732422,-0.8700152635574341,0.4022502601146698,0.7069323062896729,0.42000001668930054,-1.3300367593765259,2.9999988079071045,-0.1626943200826645,-3.000000476837158,0.009677468799054623,0.0069957636296749115,0.004158948548138142,0.001161651685833931,0.011033119633793831,-0.0757332518696785,-0.16479723155498505,-0.2560669779777527
0.1,0.054226119071245193,0.04256126284599304,0.0,0.9958943128585815,0.0,0.0,-0.09052374958992004,0.3947121202945709,0.7244724035263062,0.0,0.0,0.0,-7.2985029220581055,-0.3705138862133026,0.6629889607429504,0.4200000464916229,1.0,3.4220790894323727e-06,-2.3084901386027923e-06,1.7962952369998675e-07,0.00026681559393182397,0.0002680041070561856,-0.00010440824553370476,-0.001743067754432559,0.004207110498100519,-0.0001289140636799857,-0.16059118509292603,0.17513710260391235,1.2676209211349487,-1.9188764095306396,2.936659574508667,-1.3633012771606445,0.4022502601146698,0.7069323062896729,0.42000001668930054,-1.2800180912017822,2.999995231628418,-0.12910246849060059,3.0000011920928955,0.003339956281706691,-0.000175598674104549,-0.0038998995441943407,-0.007841203361749649,-0.49966973066329956,-0.5412575602531433,-0.5854254364967346,-0.6324318051338196
0.11666666666666667,0.05772696062922478,0.055363692343235016,0.0,0.9924007654190063,0.0,0.0,-0.12304762005805969,0.21036919951438904,0.7124571800231934,0.0,0.0,0.0,-2.653463840484619,-0.3705138862133026,0.6629890203475952,0.4200000464916229,1.0,3.7115073610038962e-06,-2.3326228983933106e-06,2.57426904681779e-07,0.00026485775015316904,0.0002663534542080015,-0.00010423525236546993,-0.0017181745497509837,0.004170077387243509,-0.0001291574299102649,-0.1986362636089325,0.21798014640808105,1.2432000637054443,-2.3395206928253174,2.630484104156494,-1.5122178792953491,0.4022502601146698,0.7069323062896729,0.42000001668930054,-1.2300238609313965,3.000000238418579,-0.16099171340465546,-3.0000011920928955,-0.005116014741361141,-0.009543090127408504,-0.01418636180460453,-0.019057732075452805,-0.38794970512390137,-0.4644083082675934,-0.5391343235969543,-0.6122194528579712
0.13333333333333333,0.0701768547296524,0.06372693181037903,0.0,0.986110508441925,0.0,0.0,-0.16609051823616028,0.8409829139709473,0.52357417345047,0.0,0.0,0.0,-5.884102821350098,-0.3705138862133026,0.6629889607429504,0.4200000464916229,0.9999999403953552,3.4247434541612165e-06,-2.301918129887781e-06,1.559943285656118e-07,0.00026707028155215085,0.0002681135665625334,-0.00010444503277540207,-0.0017433665925636888,0.0042120604775846004,-0.00012877194967586547,-0.23346306383609772,0.2694733440876007,1.216414213180542,-1.8310855627059937,3.5832631587982178,-1.8025184869766235,0.4022502601146698,0.7069323062896729,0.42000001668930054,-1.1800050735473633,2.9999330043792725,-0.16565878689289093,2.0122506618499756,-0.0042754048481583595,-0.010943613015115261,-0.017739372327923775,-0.02467072196304798,-0.05888327956199646,-0.17923355102539062,-0.2950515151023865,-0.4061344265937805
0.15,0.07906025648117065,0.07055086642503738,0.0,0.9822097420692444,0.0,0.0,-0.18778711557388306,0.4724658727645874,0.3418589234352112,0.0,0.0,0.0,-1.4970251321792603,-0.3705138862133026,0.6629889607429504,0.4200000464916229,1.0,3.713894102475024e-06,-2.207782927143853e-06,-1.690906259455005e-07,0.000263532972894609,0.0002653604024089873,-0.00010421779006719589,-0.0017012703465297818,0.004144108854234219,-0.00012960596359334886,-0.2687196731567383,0.32404041290283203,1.1791355609893799,-2.0505290031433105,3.3952689170837402,-2.5857882499694824,0.4022502601146698,0.7069323062896729,0.42000001668930054,-1.1400511264801025,1.861397385597229,-0.20287173986434937,-3.0,-0.010769386775791645,-0.018554426729679108,-0.026420796290040016,-0.03437862917780876,-0.4363727271556854,-0.4878460168838501,-0.5364224314689636,-0.5823171138763428
0.16666666666666666,0.08305550366640091,0.07998565584421158,0.0,0.9754409193992615,0.0,0.0,-0.22026123106479645,0.22104887664318085,0.519504189491272,0.0,0.0,0.0,-4.572455883026123,-0.3705138862133026,0.6629889607429504,0.4200000464916229,0.9999999403953552,3.638363523350563e-06,-2.2787546640756773e-06,2.7007297376258066e-07,0.00026682831230573356,0.0002675004070624709,-0.00010410277172923088,-0.0017399663338437676,0.004210250452160835,-0.00012781910481862724,-0.30182185769081116,0.3842344284057617,1.1278722286224365,-1.8875521421432495,3.8221347332000732,-3.399655818939209,0.4022502601146698,0.7069323062896729,0.42000001668930054,-1.0919400453567505,3.0000035762786865,-0.19610963761806488,3.0,-0.021907661110162735,-0.030024763196706772,-0.038182370364665985,-0.04639913886785507,-0.5785634517669678,-0.6093067526817322,-0.6357912421226501,-0.6583175659179688
0.18333333333333332,0.08776882290840149,0.08816220611333847,0.0,0.9604860544204712,0.0,0.0,-0.2783280611038208,0.28130143880844116,0.4780624508857727,0.0,0.0,0.0,-8.105048179626465,-0.3705138862133026,0.6629889607429504,0.4200000464916229,1.0,3.386441903785453e-06,-2.3001909994491143e-06,1.4392985292488447e-07,0.00026674664695747197,0.00026787363458424807,-0.00010437029413878918,-0.0017413290916010737,0.004206034820526838,-0.00012878714187536389,-0.3293326497077942,0.4523962736129761,1.0645897388458252,-1.2691609859466553,4.311152458190918,-4.1243367195129395,0.4022502601146698,0.7069323062896729,0.42000001668930054,-1.0419385433197021,3.000002861022949,-0.22759436070919037,-3.000000476837158,-0.03224587440490723,-0.04073534533381462,-0.049200497567653656,-0.0576668418943882,-0.6768140196800232,-0.6868340373039246,-0.6936427354812622,-0.6976814270019531
0.2,0.09049435704946518,0.09420996159315109,0.0,0.9484968185424805,0.0,0.0,-0.3167867064476013,0.1290215402841568,0.26312488317489624,0.0,0.0,0.0,-3.7572152614593506,-0.3705138862133026,0.6629890203475952,0.4200000464916229,1.0,3.67552570423868e-06,-2.326474941583001e-06,2.211330638601794e-07,0.0002648457884788513,0.0002663124760147184,-0.00010421779006719589,-0.0017177596455439925,0.004169980529695749,-0.00012909664656035602,-0.3523409962654114,0.517731785774231,0.9887818098068237,-1.0254907608032227,3.890946865081787,-4.932411193847656,0.4022502601146698,0.7069323062896729,0.42000001668930054,-0.9919354915618896,3.0000014305114746,-0.277621865272522,-3.0,-0.044957105070352554,-0.05309398099780083,-0.06117416173219681,-0.06923574954271317,-0.7847621440887451,-0.7475318908691406,-0.7093011140823364,-0.6708599328994751
0.21666666666666667,0.08936291933059692,0.10047253221273422,0.0,0.9449605345726013,0.0,0.0,-0.3271843194961548,-0.12935398519039154,0.4131345748901367,0.0,0.0,0.0,-0.10667091608047485,-0.3705138862133026,0.6629889607429504,0.4200000464916229,1.0,3.3223188893316546e-06,-2.207966417699936e-06,2.742777382991335e-07,0.0002666293876245618,0.0002674947609193623,-0.00010426202788949013,-0.0017357135657221079,0.004204758442938328,-0.00012833744403906167,-0.37337714433670044,0.5721257925033569,0.9025065898895264,-1.1129196882247925,2.8805906772613525,-5.399587631225586,0.4022502601146698,0.7069323062896729,0.42000001668930054,-0.9419254064559937,2.999999523162842,-0.32765209674835205,-2.999997615814209,-0.06059757620096207,-0.0678185299038887,-0.07481925189495087,-0.08182000368833542,-0.9738160967826843,-0.9209079742431641,-0.8463692665100098,-0.7735923528671265
0.23333333333333334,0.09028688818216324,0.10642503201961517,0.0,0.9374552965164185,0.0,0.0,-0.34810566902160645,0.058578651398420334,0.38135838508605957,0.0,0.0,0.0,-3.3917648792266846,-0.3705138862133026,0.6629889607429504,0.4200000464916229,1.0,3.656558874354232e-06,-2.373421239099116e-06,-4.07681653769032e-07,0.0002661168109625578,0.00026725910720415413,-0.00010423432104289532,-0.0017335852608084679,0.004194697830826044,-0.00012854808301199228,-0.38869065046310425,0.6176279783248901,0.8058292865753174,-0.6658378839492798,2.355307102203369,-6.066164970397949,0.4022502601146698,0.7069323062896729,0.42000001668930054,-0.8919147253036499,2.99999737739563,-0.3776836395263672,-3.000002384185791,-0.07656994462013245,-0.08339398354291916,-0.08979127556085587,-0.09612175077199936,-0.9894996285438538,-0.991334855556488,-0.9927564263343811,-0.9886893630027771
0.25,0.08844871073961258,0.10987672954797745,0.0,0.9363096356391907,0.0,0.0,-0.35117557644844055,-0.1461413949728012,0.12499143183231354,0.0,0.0,0.0,0.49851086735725403,-0.3705138862133026,0.6629890203475952,0.4200000464916229,1.0,3.6305639241618337e-06,-2.242603613922256e-06,1.1206775951677628e-08,0.00026679999427869916,0.0002670604735612869,-0.00010390859097242355,-0.0017342414939776063,0.0042106076143682,-0.00012702932872343808,-0.3992059826850891,0.645646333694458,0.7034348249435425,-0.47744807600975037,1.1520602703094482,-6.1696882247924805,0.4022502601146698,0.7069323062896729,0.42000001668930054,-0.8419045209884644,2.999986410140991,-0.4277153015136719,-2.999997854232788,-0.09292560070753098,-0.09975601732730865,-0.10617388784885406,-0.11253039538860321,-0.9921562671661377,-0.9937365651130676,-0.9949803948402405,-0.9959916472434998
0.26666666666666666,0.08404383808374405,0.10991940647363663,0.0,0.930393397808075,0.0,0.0,-0.3665626049041748,-0.329357773065567,-0.04338868334889412,0.0,0.0,0.0,-2.829103946685791,-0.3705138564109802,0.6629889607429504,0.4200000464916229,0.9999999403953552,3.740145530173322e-06,-2.2362976324075134e-06,4.499700310134358e-07,0.0002647962246555835,0.00026673031970858574,-0.00010454049333930016,-0.0017189658246934414,0.004166740458458662,-0.00013016746379435062,-0.40152910351753235,0.6585169434547424,0.5973647832870483,0.19958581030368805,0.3019384741783142,-6.337957382202148,0.4022502601146698,0.7069323062896729,0.42000001668930054,-0.7918956875801086,2.9999940395355225,-0.4777463674545288,-2.999999761581421,-0.11028947681188583,-0.11693201959133148,-0.12320685386657715,-0.12945057451725006,-1.000003695487976,-1.0000016689300537,-1.0000007152557373,-0.9995796084403992
0.2833333333333333,0.08251537382602692,0.1069536805152893,0.0,0.9309174418449402,0.0,0.0,-0.36522966623306274,-0.028467530384659767,-0.229553684592247,0.0,0.0,0.0,0.9902514815330505,-0.3705138862133026,0.6629889607429504,0.4200000464916229,1.0,3.3916744541784283e-06,-2.291099690410192e-06,1.245939671434826e-07,0.0002667730441316962,0.00026789261028170586,-0.0001043747179210186,-0.001741221291013062,0.00420632166787982,-0.00012878607958555222,-0.3976505994796753,0.6628197431564331,0.49832096695899963,0.42555925250053406,0.09050855040550232,-5.488918304443359,0.4022502601146698,0.7069323062896729,0.42000001668930054,-0.7418882846832275,3.0,-0.5277754068374634,-2.999997615814209,-0.1272261142730713,-0.13380461931228638,-0.14005480706691742,-0.1462937593460083,-1.018160104751587,-1.0137131214141846,-1.0103111267089844,-1.00758957862854
0.3,0.07821763306856155,0.10245995968580246,0.0,0.9255109429359436,0.0,0.0,-0.3787209391593933,-0.3430546820163727,-0.29451093077659607,0.0,0.0,0.0,-2.6522750854492188,-0.3705138862133026,0.6629890203475952,0.4200000464916229,1.0,3.680724148580339e-06,-2.319047325727297e-06,2.0107752618514496e-07,0.0002647917135618627,0.00026625802274793386,-0.00010421290062367916,-0.0017169015482068062,0.0041690124198794365,-0.00012909753422718495,-0.3833245038986206,0.6628562211990356,0.40945321321487427,1.2709487676620483,-0.06135868281126022,-5.0853352546691895,0.4022502601146698,0.7069323062896729,0.42000001668930054,-0.6918811202049255,3.00000262260437,-0.5778025388717651,-3.0000009536743164,-0.14521415531635284,-0.1514815390110016,-0.1574949473142624,-0.16354569792747498,-1.0107970237731934,-1.0081943273544312,-1.0061951875686646,-1.0045863389968872
0.31666666666666665,0.07086796313524246,0.09629498422145844,0.0,0.9263732433319092,0.0,0.0,-0.3766067624092102,-0.4081142246723175,-0.4400421380996704,0.0,0.0,0.0,1.1870979070663452,-0.37051308155059814,0.662976086139679,0.42000052332878113,0.9999999403953552,-2.9103815904818475e-05,1.53811629388656e-06,1.6908512634472572e-06,-0.0004932463052682579,0.01846236176788807,-0.0012925839982926846,0.06319427490234375,0.002261575311422348,-0.006952804047614336,-0.3828071355819702,0.6677089929580688,0.42564713954925537,0.25771525502204895,0.49279138445854187,-0.15102216601371765,0.4022502601146698,0.7069323062896729,0.42000001668930054,-0.6420307755470276,2.9999821186065674,-0.6284113526344299,-2.99997615814209,-0.1527845561504364,-0.15824303030967712,-0.16308869421482086,-0.16755154728889465,-0.4150153696537018,-0.36990493535995483,-0.30828696489334106,-0.22647951543331146
0.3333333333333333,0.06238781660795212,0.08751001954078674,0.0,0.9213360548019409,0.0,0.0,-0.3887670934200287,-0.5543655157089233,-0.5646154880523682,0.0,0.0,0.0,-2.5087344646453857,-0.36785778403282166,0.6678340435028076,0.4199995696544647,0.9982821941375732,-2.898412276408635e-05,-0.00024955355911515653,-0.05858868360519409,0.15562757849693298,0.31281793117523193,-0.00034399566357024014,0.020289210602641106,-0.004136625677347183,-7.238744735717773,-0.3772315979003906,0.6727001667022705,0.42316848039627075,0.4566458463668823,0.2854764461517334,-0.14497025310993195,0.4022502601146698,0.7069323062896729,0.42000001668930054,-0.5920254588127136,2.9999442100524902,-0.6784671545028687,-2.9999895095825195,-0.16052235662937164,-0.16487018764019012,-0.1683388650417328,-0.17110976576805115,-0.478264719247818,-0.394016295671463,-0.2961089313030243,-0.18218493461608887
0.35,0.05162270739674568,0.07657968252897263,0.0,0.9225094318389893,0.0,0.0,-0.38597461581230164,-0.68862384557724,-0.6954955458641052,0.0,0.0,0.0,1.279549241065979,-0.3635615408420563,0.6750418543815613,0.4201126992702484,0.988379180431366,0.0027732057496905327,-0.00047149142483249307,-0.15198226273059845,0.3336219787597656,0.5298673510551453,-0.0028028388042002916,-0.08181093633174896,-0.02261357381939888,-14.475846290588379,-0.3689984083175659,0.6802867650985718,0.4212246537208557,0.5562121868133545,0.5913331508636475,-0.0815882757306099,0.4022502601146698,0.7069323062896729,0.42000001668930054,-0.5420204401016235,2.9999759197235107,-0.7285155057907104,-2.999998092651367,-0.1687982976436615,-0.17147091031074524,-0.17301452159881592,-0.17358636856079102,-0.45504698157310486,-0.3543999493122101,-0.23773649334907532,-0.1039649248123169
0.36666666666666664,0.04342300444841385,0.0630856454372406,0.0,0.9177142977714539,0.0,0.0,-0.3972410261631012,-0.36889293789863586,-0.8628564476966858,0.0,0.0,0.0,-2.3686676025390625,-0.35612836480140686,0.685565173625946,0.42000043392181396,0.9803478717803955,-9.436939762963448e-06,1.2653847079491243e-05,-0.19727662205696106,0.5645357370376587,0.7436201572418213,-0.0009145561489276588,0.023345135152339935,-0.027913348749279976,-4.122883319854736,-0.3579256534576416,0.6888550519943237,0.42060479521751404,0.8192050457000732,0.5646266937255859,-0.0157255157828331,0.4022502601146698,0.7069323062896729,0.42000001668930054,-0.49201589822769165,2.9999871253967285,-0.7785717248916626,-2.999983310699463,-0.17621001601219177,-0.1768328696489334,-0.1759980469942093,-0.17386522889137268,-0.3854305148124695,-0.2517395317554474,-0.09719615429639816,0.07737148553133011
0.3833333333333333,0.03358754515647888,0.04805852100253105,0.0,0.9001282453536987,0.0,0.0,-0.43562498688697815,-0.6647456288337708,-0.9347168803215027,0.0,0.0,0.0,-6.004854679107666,-0.34112006425857544,0.7029312252998352,0.4209827482700348,0.9724884033203125,0.014822179451584816,-0.009933260269463062,-0.23226670920848846,1.251227617263794,1.3609620332717896,0.12133193016052246,-1.1300820112228394,-4.251971244812012,-6.005704879760742,-0.3404123783111572,0.7031295895576477,0.42211538553237915,1.337026834487915,1.1755725145339966,0.16329938173294067,0.4022502601146698,0.7069323062896729,0.42000001668930054,-0.4420120418071747,3.0000007152557373,-0.8286218643188477,-2.9986839294433594,-0.18394270539283752,-0.18217110633850098,-0.17859075963497162,-0.17338812351226807,-0.42437824606895447,-0.29263046383857727,-0.14111407101154327,0.028581595048308372
0.4,0.02683376707136631,0.029899895191192627,0.0,0.867489755153656,0.0,0.0,-0.49745506048202515,-0.35935261845588684,-1.1380648612976074,0.0,0.0,0.0,-9.161064147949219,-0.3018952012062073,0.7298229336738586,0.4261370897293091,0.9567383527755737,0.019176622852683067,-0.040205489844083786,-0.28751957416534424,3.4893438816070557,2.0188405513763428,0.33937811851501465,28.38055419921875,-16.024290084838867,8.080119132995605,-0.30127376317977905,0.7303298711776733,0.42692747712135315,3.3007264137268066,2.0438618659973145,0.612390398979187,0.4022502601146698,0.7069323062896729,0.42000001668930054,-0.3990272879600525,1.7536134719848633,-0.878645658493042,-3.000001907348633,-0.19221071898937225,-0.1875477284193039,-0.18080486357212067,-0.17222554981708527,-0.5928941369056702,-0.3805505335330963,-0.15598566830158234,0.075832299888134
0.4166666666666667,0.02241092175245285,0.017023330554366112,0.0,0.8174188733100891,0.0,0.0,-0.5760437250137329,-0.18515907227993011,-0.8197340369224548,0.0,0.0,0.0,-11.794303894042969,-0.22059109807014465,0.7668257355690002,0.4347032606601715,0.9311661720275879,0.08789793401956558,-0.08424552530050278,-0.3436657190322876,6.16840934753418,2.272618055343628,0.5097244381904602,7.33721399307251,-12.036569595336914,11.175070762634277,-0.22023825347423553,0.7673124670982361,0.43588483333587646,5.933704376220703,2.6242499351501465,0.6403493881225586,0.4022502601146698,0.7069323062896729,0.42000001668930054,-0.3769732415676117,1.1496304273605347,-0.8415461778640747,2.99953293800354,-0.20759710669517517,-0.19993384182453156,-0.18817320466041565,-0.17483946681022644,-0.5421342849731445,-0.5688185691833496,-0.3479650020599365,-0.1431456357240677
0.43333333333333335,0.021276254206895828,0.005968235898762941,0.0,0.7748926281929016,0.0,0.0,-0.6320928335189819,0.0014283680357038975,-0.6072000861167908,0.0,0.0,0.0,-7.308280944824219,-0.12046919018030167,0.8032159805297852,0.44696640968322754,0.8818466663360596,0.12236540019512177,-0.10850223898887634,-0.44226717948913574,6.226262092590332,1.2244815826416016,0.7909722328186035,16.364336013793945,-8.305875778198242,16.307191848754883,-0.12103596329689026,0.8046896457672119,0.44769227504730225,6.074311256408691,1.7889811992645264,0.7473453283309937,0.4022502601146698,0.7069323062896729,0.42000001668930054,-0.3583958148956299,1.0755914449691772,-0.8676456212997437,-3.0000038146972656,-0.21859754621982574,-0.2103796899318695,-0.1949058175086975,-0.17829406261444092,-0.6319782733917236,-0.5741304755210876,-0.3736465275287628,-0.20310555398464203
0.45,0.01778593473136425,0.00018914611428044736,0.0,0.7533916234970093,0.0,0.0,-0.6575720906257629,-0.1816038191318512,-0.3195658326148987,0.0,0.0,0.0,-2.648653745651245,-0.019460875540971756,0.8223140239715576,0.4596934914588928,0.8101480603218079,0.1476678103208542,-0.11072342097759247,-0.5564122200012207,5.9580769538879395,0.03120061382651329,0.7705804705619812,-5.491745948791504,3.5851333141326904,3.7900338172912598,-0.021674131974577904,0.8244991302490234,0.45907101035118103,6.030604362487793,0.7387129068374634,0.7320789098739624,0.4022502601146698,0.7069323062896729,0.42000001668930054,-0.34000712633132935,1.0465052127838135,-0.9176695942878723,-3.0000007152557373,-0.23204302787780762,-0.22195526957511902,-0.20272308588027954,-0.18294861912727356,-0.6623206734657288,-0.5839412212371826,-0.40525686740875244,-0.25704601407051086
0.4666666666666667,0.01740977168083191,-0.0027032073121517897,0.0,0.7254816889762878,0.0,0.0,-0.6882414817810059,0.032611165195703506,-0.1135658398270607,0.0,0.0,0.0,-5.874230861663818,0.07707582414150238,0.8231927156448364,0.46734872460365295,0.7532476782798767,0.1358136534690857,-0.0962873175740242,-0.6363186240196228,5.699886798858643,-0.5308099985122681,0.10250527411699295,4.715087413787842,-8.5656099319458,1.3267321586608887,0.07394786179065704,0.8271976709365845,0.46653106808662415,5.540561676025391,-0.4609701931476593,0.42516449093818665,0.4022502601146698,0.7069323062896729,0.42000001668930054,-0.3233366906642914,0.9890942573547363,-0.9676938652992249,-3.000000238418579,-0.2400539368391037,-0.23126156628131866,-0.20901407301425934,-0.18656063079833984,0.0016920992638915777,-0.5359162092208862,-0.35394108295440674,-0.1844513863325119
0.48333333333333334,0.0210565272718668,-0.009598363190889359,0.0,0.7087751030921936,0.0,0.0,-0.7054345011711121,0.29970160126686096,-0.605876088142395,0.0,0.0,0.0,-1.9180940389633179,0.16603808104991913,0.8125022649765015,0.4702741801738739,0.6959384679794312,0.12056058645248413,-0.08874204009771347,-0.702324390411377,5.164112567901611,-1.3069099187850952,0.03694222867488861,-2.583580732345581,-3.580353260040283,2.346475839614868,0.16320228576660156,0.8169608116149902,0.4696081876754761,5.108893394470215,-0.8766392469406128,0.12168332189321518,0.4022502601146698,0.7069323062896729,0.42000001668930054,-0.3110617399215698,0.6650295853614807,-1.0177172422409058,-2.999999761581421,-0.2360510528087616,-0.23498015105724335,-0.21094541251659393,-0.18691803514957428,0.39750245213508606,0.009687598794698715,0.05381561070680618,0.08513644337654114
0.5,0.021822363138198853,-0.014504675753414631,0.0,0.6820691823959351,0.0,0.0,-0.7312876582145691,0.03927205502986908,-0.265812486410141,0.0,0.0,0.0,-5.205235004425049,0.24232274293899536,0.7948838472366333,0.46825286746025085,0.6662023067474365,0.10398002713918686,-0.07966018468141556,-0.7341776490211487,4.019807815551758,-1.5486708879470825,-0.3393712341785431,-7.408053398132324,-4.432648658752441,12.253649711608887,0.24007657170295715,0.7992189526557922,0.4681570529937744,4.317705154418945,-1.2054187059402466,-0.1691286265850067,0.4022502601146698,0.7069323062896729,0.42000001668930054,-0.29838189482688904,0.7925212383270264,-1.0677393674850464,-3.0000007152557373,-0.2324523776769638,-0.23602959513664246,-0.21157222986221313,-0.18739096820354462,0.29044583439826965,0.05412228778004646,0.01793093793094158,-0.028966989368200302
0.5166666666666666,0.024297654628753662,-0.016022581607103348,0.0,0.6711663603782654,0.0,0.0,-0.7413067817687988,0.18930670619010925,-0.019512487575411797,0.0,0.0,0.0,-0.6549538373947144,0.3056643307209015,0.7718420624732971,0.45901793241500854,0.6055960059165955,0.04718363657593727,-0.09626505523920059,-0.7885176539421082,3.1896231174468994,-1.7631452083587646,-0.968544602394104,-23.721342086791992,10.87498664855957,-5.061559200286865,0.3021487593650818,0.7769615650177002,0.46099698543548584,3.279876232147217,-1.4686646461486816,-0.5076290369033813,0.4022502601146698,0.7069323062896729,0.42000001668930054,-0.2838340699672699,0.9093847274780273,-1.117761492729187,-2.999999523162842,-0.2286178171634674,-0.2348657101392746,-0.2113317996263504,-0.1882205605506897,0.2341368943452835,0.131100133061409,0.050492461770772934,-0.0371696762740612
0.5333333333333333,0.029125811532139778,-0.014242850244045258,0.0,0.6523350477218628,0.0,0.0,-0.7579306960105896,0.3312229514122009,0.19685766100883484,0.0,0.0,0.0,-3.8968725204467773,0.3534677028656006,0.7494093775749207,0.44273796677589417,0.5787824988365173,0.011631827801465988,-0.08045703172683716,-0.8114197254180908,2.470191717147827,-1.7317581176757812,-1.0269519090652466,-2.5093436241149902,3.704254388809204,9.494928359985352,0.3503401279449463,0.7546261548995972,0.44511234760284424,2.4940035343170166,-1.305976152420044,-1.1471176147460938,0.4022502601146698,0.7069323062896729,0.42000001668930054,-0.2674872577190399,0.8311975002288818,-1.1677836179733276,-2.999999523162842,-0.22345459461212158,-0.2313145399093628,-0.2100970298051834,-0.18927675485610962,0.32227325439453125,0.2549850642681122,0.08725634217262268,-0.07617867738008499
0.55,0.03599937632679939,-0.014391299337148666,0.0,0.647025465965271,0.0,0.0,-0.7624683976173401,0.44194382429122925,-0.06448955833911896,0.0,0.0,0.0,0.12327124923467636,0.3878558874130249,0.726703405380249,0.42112720012664795,0.5674179196357727,-0.030735203996300697,-0.06151561439037323,-0.8205534219741821,1.4700676202774048,-1.4918453693389893,-1.331086277961731,-11.015758514404297,4.399606704711914,8.232733726501465,0.38503625988960266,0.731541633605957,0.42381125688552856,1.6972575187683105,-1.408886432647705,-1.3674743175506592,0.4022502601146698,0.7069323062896729,0.42000001668930054,-0.2546146810054779,0.888805091381073,-1.2178057432174683,-3.0000030994415283,-0.21879616379737854,-0.22678270936012268,-0.20823493599891663,-0.19007441401481628,0.23878023028373718,0.27114617824554443,0.10973170399665833,-0.05297122895717621
0.5666666666666667,0.041090477257966995,-0.012034300714731216,0.0,0.6312905550003052,0.0,0.0,-0.7755463719367981,0.20928123593330383,0.15634241700172424,0.0,0.0,0.0,-3.3523621559143066,0.40143656730651855,0.7173761129379272,0.4210970401763916,0.5774081349372864,-0.0043637012131512165,-0.010923021472990513,-0.816370964050293,0.5245488286018372,-0.7754337191581726,0.08054482936859131,8.142189025878906,5.320775985717773,7.886920928955078,0.3977595567703247,0.7206021547317505,0.42283308506011963,0.5411271452903748,-0.44461995363235474,0.01270599290728569,0.4022502601146698,0.7069323062896729,0.42000001668930054,-0.24336117506027222,0.47736409306526184,-1.1895490884780884,2.9997992515563965,-0.21486781537532806,-0.22235362231731415,-0.2067786306142807,-0.1913895457983017,0.3294278681278229,0.34368500113487244,0.13132941722869873,-0.06460855156183243
0.5833333333333334,0.04616876691579819,-0.012496867217123508,0.0,0.6292898654937744,0.0,0.0,-0.777170717716217,0.33029574155807495,-0.0772521048784256,0.0,0.0,0.0,0.6382046341896057,0.4067458212375641,0.7098211050033569,0.4200006425380707,0.596312940120697,1.9543602320482023e-05,2.4575483621447347e-06,-0.8027520179748535,0.0875139832496643,-0.3892115652561188,-0.0012522662291303277,-0.05678011476993561,0.02020200341939926,2.89404559135437,0.4022217392921448,0.7129493951797485,0.4217725396156311,0.044475849717855453,-0.350558340549469,0.11595373600721359,0.4022502601146698,0.7069323062896729,0.42000001668930054,-0.25058454275131226,-0.9952108263969421,-1.2112512588500977,-2.999417781829834,-0.21020463109016418,-0.21676009893417358,-0.20426878333091736,-0.19174174964427948,0.2409544587135315,0.32169079780578613,0.1543295830488205,2.2327810711431084e-08
0.6,0.04925382882356644,-0.01059413980692625,0.0,0.6168642640113831,0.0,0.0,-0.78706955909729,0.10640200227499008,0.13787885010242462,0.0,0.0,0.0,-2.7969677448272705,0.4082377851009369,0.7052325010299683,0.42025861144065857,0.6110730171203613,-0.003910014405846596,0.0051572853699326515,-0.7915476560592651,0.2108476459980011,-0.1374552696943283,0.07123273611068726,0.9323065280914307,3.436791181564331,-0.5432854890823364,0.40368303656578064,0.7103489637374878,0.4236970543861389,0.18926221132278442,-0.0148007208481431,0.13020557165145874,0.4022502601146698,0.7069323062896729,0.42000001668930054,-0.26847225427627563,-1.1386548280715942,-1.2612062692642212,-2.9983673095703125,-0.20634563267230988,-0.2116677314043045,-0.2019874006509781,-0.19197678565979004,0.33914414048194885,0.39051827788352966,0.20615114271640778,0.043262969702482224
0.6166666666666667,0.05270986631512642,-0.010999312624335289,0.0,0.6183452010154724,0.0,0.0,-0.7859066128730774,0.2331746369600296,-0.09015141427516937,0.0,0.0,0.0,1.1180477142333984,0.4090665280818939,0.7038812637329102,0.4204935133457184,0.6297852993011475,-0.008083375170826912,0.003081811126321554,-0.7767210006713867,-0.0545988567173481,-0.04924347996711731,-0.023666013032197952,-2.0116212368011475,-3.838782787322998,3.5111260414123535,0.4037366509437561,0.7101244926452637,0.4255797266960144,-0.15594670176506042,0.008734508417546749,0.13637778162956238,0.4022502601146698,0.7069323062896729,0.42000001668930054,-0.3051346242427826,-3.000000476837158,-1.3111944198608398,-2.999760389328003,-0.2020764797925949,-0.20603103935718536,-0.1988295614719391,-0.1910344362258911,0.22144219279289246,0.31517884135246277,0.18581196665763855,0.06846846640110016
0.6333333333333333,0.05852207913994789,-0.009194104932248592,0.0,0.6315661668777466,0.0,0.0,-0.7753219604492188,0.38244980573654175,0.15292277932167053,0.0,0.0,0.0,2.544644355773926,0.40802985429763794,0.7036582827568054,0.4200773537158966,0.6309537291526794,0.0012183545622974634,-0.001506518921814859,-0.7758179903030396,-0.05501021817326546,0.0011114036897197366,0.0025417301803827286,-0.023613205179572105,-0.1307821124792099,-1.0432827472686768,0.4022848308086395,0.7116683721542358,0.42842912673950195,-0.0828629806637764,0.15218159556388855,0.20009218156337738,0.4022502601146698,0.7069323062896729,0.42000001668930054,-0.35513603687286377,-2.998692035675049,-1.3611618280410767,-2.999211072921753,-0.19881929457187653,-0.20136664807796478,-0.19612039625644684,-0.18999233841896057,0.2869533896446228,0.34814193844795227,0.22655510902404785,0.12586024403572083
0.65,0.06604966521263123,-0.010817530564963818,0.0,0.6298405528068542,0.0,0.0,-0.7767244577407837,0.4821130037307739,-0.11324650049209595,0.0,0.0,0.0,-1.2451083660125732,0.40735530853271484,0.7038348317146301,0.4200000464916229,0.6259235739707947,4.5155538828112185e-06,-3.7502586565096863e-06,-0.7798843383789062,-0.03139001876115799,0.0063893613405525684,-0.0001426974922651425,0.002426512073725462,0.007898538373410702,-0.3798654079437256,0.4010692238807678,0.7152669429779053,0.43248093128204346,-0.07914906740188599,0.11401195824146271,0.27837619185447693,0.4022502601146698,0.7069323062896729,0.42000001668930054,-0.40514618158340454,-2.999999523162842,-1.4111577272415161,-3.0000011920928955,-0.19144241511821747,-0.19330202043056488,-0.19001504778862,-0.18540367484092712,0.3249347507953644,0.4043658673763275,0.3416516184806824,0.3028186559677124
0.6666666666666666,0.07544534653425217,-0.015417232178151608,0.0,0.6064035892486572,0.0,0.0,-0.7951570153236389,0.6044705510139465,-0.34266868233680725,0.0,0.0,0.0,-4.478179454803467,0.40735527873039246,0.703835129737854,0.41999995708465576,0.6259235739707947,-1.944174755408312e-06,-3.350797669554595e-06,-0.7798842787742615,-3.875156107824296e-05,-0.00013516723993234336,-1.789303496479988e-05,-0.0013671405613422394,-0.0071164462715387344,-0.00032533626654185355,0.4006946086883545,0.716920018196106,0.4443424940109253,0.09558732062578201,0.0785808265209198,1.2408233880996704,0.4022502601146698,0.7069323062896729,0.42000001668930054,-0.45516106486320496,-2.9999618530273438,-1.461175799369812,-2.9999985694885254,-0.18846504390239716,-0.18877246975898743,-0.18600912392139435,-0.18156450986862183,0.10092498362064362,0.19854356348514557,0.1875031590461731,0.1954687088727951
0.6833333333333333,0.08804741501808167,-0.015870025381445885,0.0,0.5961328744888306,0.0,0.0,-0.8028858304023743,0.7446620464324951,-0.031455494463443756,0.0,0.0,0.0,-0.5333682298660278,0.40735533833503723,0.703835129737854,0.42000001668930054,0.6259238123893738,-1.970775656445767e-06,-4.590402568283025e-06,-0.7798840999603271,0.00010204844147665426,-0.0003693480393849313,-9.975815191864967e-05,0.008235941641032696,-0.002124598016962409,-0.0004306763003114611,0.4028744697570801,0.7194887399673462,0.4714915156364441,0.2351951003074646,0.3462749123573303,1.9654537439346313,0.4022502601146698,0.7069323062896729,0.42000001668930054,-0.50517338514328,-2.999997138977051,-1.511194109916687,-2.999999523162842,-0.19076475501060486,-0.18914683163166046,-0.1859802007675171,-0.18087032437324524,0.022972777485847473,0.07241779565811157,0.053694307804107666,0.05719003081321716
0.7,0.09690472483634949,-0.014818848110735416,0.0,0.6105716824531555,0.0,0.0,-0.7919610142707825,0.45451128482818604,0.10383060574531555,0.0,0.0,0.0,3.0270707607269287,0.40735533833503723,0.7038351893424988,0.42000001668930054,0.6259235739707947,-2.0977349777240306e-06,-4.334599907451775e-06,-0.7798842787742615,9.767146548256278e-05,-0.00036811750032939017,-0.00010122009553015232,0.008181885816156864,-0.0021782771218568087,-0.0004209621110931039,0.4118107259273529,0.7244821786880493,0.5003433227539062,0.6838786005973816,0.24257105588912964,1.5750895738601685,0.4022502601146698,0.7069323062896729,0.42000001668930054,-0.5551764369010925,-2.999997854232788,-1.561212420463562,-2.999999523162842,-0.18889349699020386,-0.18651841580867767,-0.18342028558254242,-0.1779835969209671,0.17626647651195526,0.22580333054065704,0.23941031098365784,0.27518314123153687
0.7166666666666667,0.10667198151350021,-0.017230788245797157,0.0,0.612111508846283,0.0,0.0,-0.790771484375,0.5534539818763733,-0.14876285195350647,0.0,0.0,0.0,-0.7666613459587097,0.40735533833503723,0.7038351893424988,0.42000001668930054,0.6259234547615051,-2.088879000439192e-06,-4.455625457921997e-06,-0.779884397983551,9.742243855725974e-05,-0.0003682245733216405,-0.00010136817581951618,0.00818160641938448,-0.0021796689834445715,-0.0004203210992272943,0.4253705143928528,0.7275541424751282,0.5225987434387207,0.8586686849594116,0.0638287365436554,1.256424069404602,0.4022502601146698,0.7069323062896729,0.42000001668930054,-0.6051871180534363,-2.999999761581421,-1.6112302541732788,-3.0,-0.18371669948101044,-0.18082566559314728,-0.17767205834388733,-0.17189612984657288,0.25214138627052307,0.3020624816417694,0.3290042579174042,0.36471274495124817
0.7333333333333333,0.1175079420208931,-0.021772129461169243,0.0,0.590938925743103,0.0,0.0,-0.80671626329422,0.694677472114563,-0.3287091851234436,0.0,0.0,0.0,-4.091907024383545,0.40735533833503723,0.7038351893424988,0.42000001668930054,0.6259235143661499,-2.1158305116841802e-06,-4.418156095198356e-06,-0.779884397983551,9.657707414589822e-05,-0.00036821496905758977,-0.00010160217061638832,0.008179979398846626,-0.002189612714573741,-0.00041854774462990463,0.4424755871295929,0.7255810499191284,0.5447880625724792,1.208937168121338,-0.2926577925682068,1.552830457687378,0.4022502601146698,0.7069323062896729,0.42000001668930054,-0.65519779920578,-2.99996018409729,-1.6612449884414673,-2.999999523162842,-0.18239368498325348,-0.17808230221271515,-0.173769012093544,-0.16677501797676086,0.03109070286154747,0.12935270369052887,0.21853210031986237,0.30760657787323
0.75,0.1317688375711441,-0.0219422560185194,0.0,0.5829808115959167,0.0,0.0,-0.8124858736991882,0.8345711827278137,-0.023601099848747253,0.0,0.0,0.0,-0.20090816915035248,0.40735533833503723,0.7038351893424988,0.42000001668930054,0.6259235739707947,-2.11925453186268e-06,-4.3780951273220126e-06,-0.779884397983551,9.648237028159201e-05,-0.0003681618836708367,-0.00010162009857594967,0.008178450167179108,-0.002190485829487443,-0.00041832722490653396,0.45810383558273315,0.7215973138809204,0.571624755859375,0.7743614912033081,-0.041841521859169006,1.649162769317627,0.4022502601146698,0.7069323062896729,0.42000001668930054,-0.672168493270874,0.6596150994300842,-1.711255669593811,-3.000000238418579,-0.18473272025585175,-0.1786457896232605,-0.17275051772594452,-0.16436433792114258,0.10041797161102295,0.12614214420318604,0.14757832884788513,0.15944097936153412
0.7666666666666666,0.14200331270694733,-0.020983895286917686,0.0,0.5998467206954956,0.0,0.0,-0.8001149296760559,0.5388309359550476,0.11389455199241638,0.0,0.0,0.0,3.362241744995117,0.40735533833503723,0.7038351893424988,0.42000001668930054,0.6259239315986633,-2.120955741702346e-06,-4.616550540958997e-06,-0.7798841595649719,9.800802217796445e-05,-0.0003690330486278981,-0.00010133674368262291,0.008204738609492779,-0.0021769236773252487,-0.00042209713137708604,0.471336305141449,0.7221893668174744,0.5957434177398682,0.7231765985488892,0.07817191630601883,1.3143284320831299,0.4022502601146698,0.7069323062896729,0.42000001668930054,-0.6513512134552002,1.7268849611282349,-1.671937346458435,3.000000238418579,-0.18038712441921234,-0.174577996134758,-0.16895771026611328,-0.16101865470409393,0.3300006687641144,0.29363277554512024,0.2583479583263397,0.2093518078327179
0.7833333333333333,0.14765697717666626,-0.02397085353732109,0.0,0.6029257774353027,0.0,0.0,-0.7977972626686096,0.2923089563846588,-0.2392827719449997,0.0,0.0,0.0,-0.5995803475379944,0.40735533833503723,0.7038351893424988,0.42000001668930054,0.6259238123893738,-2.125744913428207e-06,-4.55668123322539e-06,-0.7798841595649719,9.847739420365542e-05,-0.0003685701813083142,-0.00010099331848323345,0.008197793737053871,-0.00216975761577487,-0.0004230063932482153,0.47864800691604614,0.722990870475769,0.6133431196212769,0.16393962502479553,-0.07712769508361816,0.9239810109138489,0.4022502601146698,0.7069323062896729,0.42000001668930054,-0.6570349931716919,-2.072988510131836,-1.6218780279159546,3.0,-0.17278948426246643,-0.16789565980434418,-0.16315515339374542,-0.15636035799980164,0.3844688832759857,0.3461037278175354,0.30764326453208923,0.24797208607196808
0.8,0.1501273810863495,-0.021768666803836823,0.0,0.6168252825737,0.0,0.0,-0.787100076675415,0.09389712661504745,0.263546347618103,0.0,0.0,0.0,2.987914562225342,0.40735530853271484,0.7038351893424988,0.42000001668930054,0.6259235739707947,-2.0915763343509752e-06,-4.332007392804371e-06,-0.779884397983551,9.630532440496609e-05,-0.00036810696474276483,-0.00010166037827730179,0.008176593109965324,-0.002191652311012149,-0.00041788825183175504,0.48300600051879883,0.7187886238098145,0.6228224039077759,0.3612992763519287,-0.29937154054641724,0.29611361026763916,0.4022502601146698,0.7069323062896729,0.42000001668930054,-0.6607702374458313,1.330864667892456,-1.5718215703964233,2.999999523162842,-0.17184104025363922,-0.16631998121738434,-0.16104255616664886,-0.15421141684055328,0.0013807187788188457,0.05394929274916649,0.10095395147800446,0.11621345579624176
0.8166666666666667,0.149868905544281,-0.02282870002090931,0.0,0.6165103912353516,0.0,0.0,-0.7873467803001404,-0.07062891125679016,-0.1301102340221405,0.0,0.0,0.0,-0.8784757256507874,0.40735533833503723,0.7038351893424988,0.42000001668930054,0.6259235739707947,-2.1217899757175473e-06,-4.5764627429889515e-06,-0.7798843383789062,9.67289597610943e-05,-0.00036733478191308677,-0.00010123872198164463,0.008162430487573147,-0.002183609874919057,-0.0004185992875136435,0.48499608039855957,0.7145962715148926,0.6252683401107788,-0.17378424108028412,-0.24967533349990845,0.14128954708576202,0.4022502601146698,0.7069323062896729,0.42000001668930054,-0.6574781537055969,-0.7587102055549622,-1.521765112876892,2.9999992847442627,-0.1688515543937683,-0.1632704883813858,-0.15795178711414337,-0.15152539312839508,0.1701263040304184,0.16585035622119904,0.1605643630027771,0.12884283065795898
0.8333333333333334,0.15062327682971954,-0.02088608779013157,0.0,0.6267068982124329,0.0,0.0,-0.7792550921440125,0.10072624683380127,0.13747107982635498,0.0,0.0,0.0,2.2165746688842773,0.40735533833503723,0.7038351893424988,0.42000001668930054,0.6259236335754395,-2.110194600390969e-06,-4.5336860239331145e-06,-0.7798843383789062,9.798597602639347e-05,-0.0003684583934955299,-0.00010124966502189636,0.008189154788851738,-0.002175133442506194,-0.00042178446892648935,0.48619377613067627,0.7108186483383179,0.6273941993713379,0.3344198167324066,-0.12900403141975403,0.1667337417602539,0.4022502601146698,0.7069323062896729,0.42000001668930054,-0.6429541707038879,2.2302682399749756,-1.4717353582382202,3.000000238418579,-0.16716419160366058,-0.1617441177368164,-0.15647703409194946,-0.15041449666023254,0.2104511260986328,0.16679826378822327,0.13776510953903198,0.09926821291446686
0.85,0.14985810220241547,-0.022419773042201996,0.0,0.6227622032165527,0.0,0.0,-0.7824111580848694,-0.08970561623573303,-0.13609227538108826,0.0,0.0,0.0,-1.5016741752624512,0.40735530853271484,0.7038351893424988,0.42000001668930054,0.6259235143661499,-2.236610271211248e-06,-4.185813850199338e-06,-0.7798844575881958,9.63243146543391e-05,-0.00036811979953199625,-0.00010166247375309467,0.008176987059414387,-0.0021926765330135822,-0.00041800510371103883,0.4904823899269104,0.7087927460670471,0.6309678554534912,0.15412552654743195,-0.18024519085884094,0.37635523080825806,0.4022502601146698,0.7069323062896729,0.42000001668930054,-0.6408984065055847,-1.6480467319488525,-1.421678900718689,3.000000238418579,-0.16313549876213074,-0.15870161354541779,-0.15414805710315704,-0.14889922738075256,0.1575024127960205,0.10872463136911392,0.07515969127416611,0.03581033647060394
0.8666666666666667,0.15103453397750854,-0.019972041249275208,0.0,0.6301093697547913,0.0,0.0,-0.7765064239501953,0.10826572775840759,0.16170066595077515,0.0,0.0,0.0,1.7910170555114746,0.40735533833503723,0.7038351893424988,0.42000001668930054,0.6259236931800842,-2.1205573830229696e-06,-4.519921731116483e-06,-0.7798842787742615,9.747852891450748e-05,-0.00036821753019466996,-0.00010117120109498501,0.008187695406377316,-0.0021788249723613262,-0.0004206069279462099,0.4958652853965759,0.7043969631195068,0.6348215341567993,0.5423063039779663,-0.20936158299446106,0.14573316276073456,0.4022502601146698,0.7069323062896729,0.42000001668930054,-0.6393737196922302,1.5521832704544067,-1.4393662214279175,-2.999999761581421,-0.1632179319858551,-0.15903893113136292,-0.15448439121246338,-0.1493130326271057,0.10721544921398163,0.06928582489490509,0.05132367089390755,0.03520392253994942
