vladlanda/robotic-transformer/data/env_000_episode_0082.csv
sim_time_s,robot_box_x,robot_box_y,robot_box_z,robot_box_quat_w,robot_box_quat_x,robot_box_quat_y,robot_box_quat_z,robot_box_linvel_x,robot_box_linvel_y,robot_box_linvel_z,robot_box_angvel_x,robot_box_angvel_y,robot_box_angvel_z,cube_world_x,cube_world_y,cube_world_z,cube_quat_w,cube_quat_x,cube_quat_y,cube_quat_z,cube_linvel_x,cube_linvel_y,cube_linvel_z,cube_angvel_x,cube_angvel_y,cube_angvel_z,endpoint_world_x,endpoint_world_y,endpoint_world_z,endpoint_linvel_x,endpoint_linvel_y,endpoint_linvel_z,target_cube_world_x,target_cube_world_y,target_cube_world_z,gripper_actual_pos_rad_gp_leftgearjoint,gripper_actual_vel_rad_s_gp_leftgearjoint,gripper_actual_pos_rad_gp_rotatingjoint,gripper_actual_vel_rad_s_gp_rotatingjoint,motor_angle_rad_joint1,motor_angle_rad_joint2,motor_angle_rad_joint3,motor_angle_rad_joint4,motor_speed_rad_s_joint1,motor_speed_rad_s_joint2,motor_speed_rad_s_joint3,motor_speed_rad_s_joint4
0.0,0.0,0.0,0.0,1.0,0.0,0.0,0.0,0.0,0.0,0.0,0.0,0.0,0.0,-0.3662487864494324,0.7380386590957642,0.41999998688697815,1.0,0.0,0.0,0.0,0.0,0.0,0.0,0.0,0.0,0.0,3.42540442943573e-06,-0.005000244826078415,1.313499927520752,0.0,0.0,0.0,0.4328823983669281,0.7612942457199097,0.42000001668930054,-1.5707999467849731,0.0,0.0,0.0,0.0,0.0,0.0,0.0,0.0,0.0,0.0,0.0
0.016666666666666666,0.002891284879297018,0.002162759192287922,0.0,0.9998381733894348,0.0,0.0,0.017989233136177063,0.24120062589645386,0.1818530112504959,0.0,0.0,0.0,3.141737222671509,-0.3662489056587219,0.7380383610725403,0.41999998688697815,1.0,3.279964630564791e-06,-8.339746386809566e-07,8.465587342243452e-08,-1.9833529222523794e-05,0.00017983045836444944,-6.132945418357849e-05,0.0009432713268324733,-0.004689474124461412,-0.00031981561915017664,-0.007104629650712013,0.003419402753934264,1.3159407377243042,-0.8130974769592285,0.988217294216156,0.1809735894203186,0.4328823983669281,0.7612942457199097,0.42000001668930054,-1.5301094055175781,3.0000011920928955,-0.045851316303014755,-2.999999761581421,0.0008709526737220585,0.0007976600900292397,0.0007122418028302491,0.0006125764921307564,0.11086025834083557,0.0974956601858139,0.08327046036720276,0.06815142929553986
0.03333333333333333,0.008976944722235203,0.006775815039873123,0.0,0.9998270273208618,0.0,0.0,0.018600163981318474,0.4071923792362213,0.31481871008872986,0.0,0.0,0.0,-0.8687660694122314,-0.3662490248680115,0.7380383014678955,0.4200000464916229,1.0,3.3908354453160428e-06,-2.1324485715012997e-06,-3.710144014235084e-08,0.00026357831666246057,0.00026937946677207947,-0.00010509486310184002,-0.0017707672668620944,0.004130808170884848,-0.000135478752781637,-0.026486888527870178,0.026447948068380356,1.3167238235473633,-1.4743125438690186,1.62748384475708,-0.06967462599277496,0.4328823983669281,0.7612942457199097,0.42000001668930054,-1.4800900220870972,3.0000007152557373,-0.09589116275310516,-3.0000014305114746,0.0028800766449421644,0.0025042127817869186,0.0020905754063278437,0.0016362060559913516,0.15097936987876892,0.12256725877523422,0.09265919029712677,0.06116778030991554
0.05,0.01848827488720417,0.013878552243113518,0.0,0.999963104724884,0.0,0.0,-0.008590963669121265,0.6360706686973572,0.47204360365867615,0.0,0.0,0.0,-4.072796821594238,-0.36624905467033386,0.7380383610725403,0.4200000464916229,1.0,3.7651125239790417e-06,-2.211879063906963e-06,5.622505128144439e-09,0.000265308452071622,0.0002669153327587992,-0.00010440615005791187,-0.001724260626360774,0.004177352879196405,-0.00012949221127200872,-0.05370742827653885,0.05849003419280052,1.312612771987915,-1.8005709648132324,2.139650821685791,-0.4149113893508911,0.4328823983669281,0.7612942457199097,0.42000001668930054,-1.4300717115402222,3.000002145767212,-0.14592984318733215,-3.0000016689300537,0.005566384643316269,0.004617753904312849,0.003596789203584194,0.002499546157196164,0.18139684200286865,0.1373896300792694,0.09146218746900558,0.04354102909564972
0.06666666666666667,0.03085830807685852,0.023371083661913872,0.0,0.9998416304588318,0.0,0.0,-0.017795206978917122,0.7736334204673767,0.6163294315338135,0.0,0.0,0.0,-0.026044772937893867,-0.36624905467033386,0.7380383014678955,0.4200000464916229,0.9999999403953552,3.4066883927152958e-06,-2.285532218593289e-06,4.300976286231162e-07,0.0002670241810847074,0.00026791772688739,-0.00010438147000968456,-0.00174069800414145,0.00421178387477994,-0.00012850729399360716,-0.08690932393074036,0.09353439509868622,1.3032355308532715,-2.057189702987671,2.2174313068389893,-0.7010393142700195,0.4328823983669281,0.7612942457199097,0.42000001668930054,-1.380045771598816,3.0,-0.15235348045825958,1.813443660736084,0.007690068334341049,0.005926851183176041,0.0040509519167244434,0.0020576207898557186,0.10219765454530716,0.04454973712563515,-0.015255345962941647,-0.07726185023784637
0.08333333333333333,0.03705950081348419,0.03673559054732323,0.0,0.9991362690925598,0.0,0.0,-0.04155346378684044,0.22595016658306122,0.8783608675003052,0.0,0.0,0.0,-3.7996108531951904,-0.36624905467033386,0.7380383014678955,0.4200000464916229,1.0,3.6972253383282805e-06,-2.188838152505923e-06,-2.632317830375541e-07,0.00026389729464426637,0.00026586424792185426,-0.00010433932766318321,-0.0017081560799852014,0.004150177352130413,-0.0001299097202718258,-0.11620229482650757,0.13423778116703033,1.2894372940063477,-1.4878323078155518,2.673814296722412,-0.8858426809310913,0.4328823983669281,0.7612942457199097,0.42000001668930054,-1.3300431966781616,3.000002145767212,-0.19064193964004517,-3.000002861022949,0.0032119136303663254,0.0006522314506582916,-0.0020741403568536043,-0.004975504707545042,-0.40276724100112915,-0.4619263708591461,-0.5238648056983948,-0.5888203978538513
0.1,0.04684900864958763,0.05173630639910698,0.0,0.9956722259521484,0.0,0.0,-0.09293434768915176,0.7364900708198547,0.9048704504966736,0.0,0.0,0.0,-6.956960678100586,-0.36624905467033386,0.7380383014678955,0.4200000464916229,0.9999999403953552,3.620277084337431e-06,-2.2651142899121623e-06,1.7461523782458244e-07,0.0002667682128958404,0.0002674072457011789,-0.0001040794886648655,-0.0017386354738846421,0.004209177568554878,-0.00012775110371876508,-0.14196909964084625,0.18076682090759277,1.2748968601226807,-1.605470061302185,2.9388680458068848,-0.9155111312866211,0.4328823983669281,0.7612942457199097,0.42000001668930054,-1.2800363302230835,3.000002145767212,-0.2281225174665451,-1.5852375030517578,0.0008814456523396075,-0.003213434014469385,-0.007479099556803703,-0.011923985555768013,-0.04422825947403908,-0.14580164849758148,-0.24632804095745087,-0.34573617577552795
0.11666666666666667,0.05535580962896347,0.06391770392656326,0.0,0.9921829104423523,0.0,0.0,-0.12479230016469955,0.5414736270904541,0.684535562992096,0.0,0.0,0.0,-2.5692179203033447,-0.36624905467033386,0.7380383014678955,0.4200000464916229,1.0,3.798308171099052e-06,-2.262737325509079e-06,-1.5021218757738097e-07,0.0002637405996210873,0.000265660259174183,-0.00010428996756672859,-0.0017054072814062238,0.00414755754172802,-0.000129801788716577,-0.1730591356754303,0.22776342928409576,1.2576875686645508,-1.833970546722412,3.0384836196899414,-1.049805760383606,0.4328823983669281,0.7612942457199097,0.42000001668930054,-1.2300244569778442,2.9999876022338867,-0.18737171590328217,3.000000476837158,-0.0020600557327270508,-0.007735615596175194,-0.013555516488850117,-0.01952788047492504,-0.08433618396520615,-0.19801867008209229,-0.30829039216041565,-0.41497641801834106
0.13333333333333333,0.06141193211078644,0.07612742483615875,0.0,0.9861819744110107,0.0,0.0,-0.16566568613052368,0.29981011152267456,0.7569464445114136,0.0,0.0,0.0,-5.715973377227783,-0.36624905467033386,0.7380383610725403,0.4200000464916229,0.9999999403953552,3.55037650479062e-06,-2.229731535408064e-06,2.929058098288806e-07,0.0002670335816219449,0.0002677934826351702,-0.00010417238809168339,-0.0017440745141357183,0.004213663749396801,-0.0001280020660487935,-0.20153403282165527,0.28144970536231995,1.2389954328536987,-1.5338623523712158,3.5124480724334717,-1.2103861570358276,0.4328823983669281,0.7612942457199097,0.42000001668930054,-1.182353138923645,2.704843521118164,-0.21892276406288147,-3.0000011920928955,-0.005029451567679644,-0.012591375038027763,-0.02022801712155342,-0.02794467844069004,-0.23973678052425385,-0.3485203683376312,-0.45281895995140076,-0.5524534583091736
0.15,0.06883007287979126,0.08985740691423416,0.0,0.9782124161720276,0.0,0.0,-0.2076064646244049,0.5102326273918152,0.9006706476211548,0.0,0.0,0.0,-4.730348110198975,-0.3662490248680115,0.7380383014678955,0.4200000464916229,1.0,3.332105279696407e-06,-2.1019018277002033e-06,1.3129569254033413e-07,0.0002673073613550514,0.00026859616627916694,-0.00010459683835506439,-0.0017497853841632605,0.004215648397803307,-0.00012928245996590704,-0.232978954911232,0.34029436111450195,1.2118239402770996,-1.9969626665115356,3.721162796020508,-2.0134811401367188,0.4328823983669281,0.7612942457199097,0.42000001668930054,-1.1533012390136719,0.9120066165924072,-0.1850203424692154,2.999999523162842,-0.010194072499871254,-0.019030069932341576,-0.027878718450665474,-0.03674478456377983,-0.4487012028694153,-0.486905962228775,-0.522817850112915,-0.556530237197876
0.16666666666666666,0.0751524567604065,0.10211123526096344,0.0,0.9657082557678223,0.0,0.0,-0.25962963700294495,0.3282136917114258,0.6758039593696594,0.0,0.0,0.0,-7.396420955657959,-0.36624905467033386,0.7380383014678955,0.4200000464916229,1.0,3.737186489161104e-06,-2.233031182186096e-06,-1.876633604069866e-07,0.0002643294574227184,0.00026626838371157646,-0.00010445830412209034,-0.0017118845134973526,0.004157516174018383,-0.00013001053594052792,-0.26567763090133667,0.40520545840263367,1.1751680374145508,-1.6906933784484863,4.226673126220703,-2.420194625854492,0.4328823983669281,0.7612942457199097,0.42000001668930054,-1.1097791194915771,2.99999737739563,-0.2165783941745758,-3.0,-0.01904335804283619,-0.02840714529156685,-0.03774169087409973,-0.047054473310709,-0.5951642990112305,-0.6185125112533569,-0.6395496726036072,-0.6584852337837219
0.18333333333333332,0.07764595746994019,0.114799864590168,0.0,0.9564012289047241,0.0,0.0,-0.2920559346675873,0.06696298718452454,0.825177788734436,0.0,0.0,0.0,-2.9608957767486572,-0.36624905467033386,0.7380383610725403,0.4200000464916229,0.9999999403953552,3.660124548332533e-06,-2.302147322552628e-06,2.52845069326213e-07,0.0002669083187356591,0.0002676025324035436,-0.00010412652045488358,-0.0017412957968190312,0.004211513791233301,-0.0001278699201066047,-0.2987855076789856,0.4730955958366394,1.1258556842803955,-1.8096342086791992,4.295591831207275,-3.4556634426116943,0.4328823983669281,0.7612942457199097,0.42000001668930054,-1.0709434747695923,1.7385468482971191,-0.2666065990924835,-3.0000007152557373,-0.030689740553498268,-0.03997921943664551,-0.04919816181063652,-0.05836145207285881,-0.7581590414047241,-0.7334546446800232,-0.7066064476966858,-0.6781620979309082
0.2,0.08376986533403397,0.12416314333677292,0.0,0.9419020414352417,0.0,0.0,-0.33588773012161255,0.41117042303085327,0.46483179926872253,0.0,0.0,0.0,-6.206839084625244,-0.36624905467033386,0.7380383014678955,0.4200000464916229,1.0,3.5906891753256787e-06,-2.300306277902564e-06,1.3872099202671961e-07,0.0002665471110958606,0.00026732077822089195,-0.00010423827916383743,-0.0017326769884675741,0.004203524440526962,-0.00012820553092751652,-0.32778507471084595,0.5464203357696533,1.0603816509246826,-1.469290852546692,4.539668083190918,-4.411105155944824,0.4328823983669281,0.7612942457199097,0.42000001668930054,-1.0234887599945068,3.0000007152557373,-0.3166328966617584,-3.000002384185791,-0.04202130436897278,-0.05072081461548805,-0.05933142453432083,-0.06787829101085663,-0.8068109750747681,-0.7417870759963989,-0.677432119846344,-0.614441454410553
0.21666666666666667,0.08453238010406494,0.13680018484592438,0.0,0.9324369430541992,0.0,0.0,-0.36133280396461487,0.04900190979242325,0.7183584570884705,0.0,0.0,0.0,-2.1486833095550537,-0.36624905467033386,0.7380383610725403,0.4200000464916229,1.0,3.6067892779101385e-06,-2.2609169718634803e-06,1.961327633637211e-08,0.00026447148411534727,0.0002655840653460473,-0.00010396447032690048,-0.0017088138265535235,0.0041642808355391026,-0.00012832574429921806,-0.35188236832618713,0.6117687225341797,0.9754229784011841,-1.1625460386276245,3.796889066696167,-5.496909141540527,0.4328823983669281,0.7612942457199097,0.42000001668930054,-0.9734804034233093,2.999997615814209,-0.3666588366031647,-2.9999992847442627,-0.05750494450330734,-0.06627228111028671,-0.0748785138130188,-0.08288736641407013,-0.5971344709396362,-0.6604957580566406,-0.7178719639778137,-0.7690860033035278
0.23333333333333334,0.09040674567222595,0.14361034333705902,0.0,0.9174695014953613,0.0,0.0,-0.3978060781955719,0.35760629177093506,0.35469865798950195,0.0,0.0,0.0,-5.377985000610352,-0.3662490248680115,0.7380383014678955,0.4200000464916229,0.9999999403953552,3.742087073987932e-06,-2.227409822808113e-06,4.589062712057057e-07,0.00026475198683328927,0.00026671282830648124,-0.0001045342069119215,-0.0017188993515446782,0.0041658165864646435,-0.00013019447214901447,-0.36881953477859497,0.6714112758636475,0.8769220113754272,-0.6721817851066589,3.291111469268799,-6.298982620239258,0.4328823983669281,0.7612942457199097,0.42000001668930054,-0.9234707355499268,2.999999761581421,-0.41668811440467834,-2.999999761581421,-0.06689625233411789,-0.07621976733207703,-0.08532866835594177,-0.09380469471216202,-0.8203824758529663,-0.7959177494049072,-0.7717554569244385,-0.7502552270889282
0.25,0.09082525223493576,0.15477502346038818,0.0,0.9091731309890747,0.0,0.0,-0.41641831398010254,0.027313096448779106,0.6142996549606323,0.0,0.0,0.0,-1.3779025077819824,-0.36624905467033386,0.7380383014678955,0.4200000464916229,1.0,3.394239683984779e-06,-2.282012019350077e-06,1.3362385686832567e-07,0.0002667936496436596,0.0002679401950445026,-0.00010439474135637283,-0.0017418229253962636,0.00420664856210351,-0.00012884348689112812,-0.3782189190387726,0.7103744745254517,0.7672939300537109,-0.27994289994239807,1.7731730937957764,-6.691623210906982,0.4328823983669281,0.7612942457199097,0.42000001668930054,-0.873460054397583,2.9999983310699463,-0.4667190909385681,-2.999997854232788,-0.0830586776137352,-0.09239506721496582,-0.10152512788772583,-0.10999197512865067,-0.6361057758331299,-0.7037115097045898,-0.7660612463951111,-0.8219555616378784
0.26666666666666666,0.09297998994588852,0.16035977005958557,0.0,0.9138016104698181,0.0,0.0,-0.40616077184677124,0.13837465643882751,0.3130432367324829,0.0,0.0,0.0,2.1179864406585693,-0.36624905467033386,0.7380383610725403,0.4200000464916229,1.0,3.6832336718362058e-06,-2.31005606110557e-06,2.1009948625305697e-07,0.0002647906949277967,0.00026625851751305163,-0.00010421290062367916,-0.0017168435733765364,0.004168881103396416,-0.00012909741781186312,-0.3880297541618347,0.7288824915885925,0.6571995615959167,-0.5438697338104248,0.42465895414352417,-6.574390411376953,0.4328823983669281,0.7612942457199097,0.42000001668930054,-0.8234502077102661,2.9999730587005615,-0.5167505145072937,-3.0000016689300537,-0.09491138160228729,-0.10452796518802643,-0.11392247676849365,-0.12264741957187653,-0.9228398203849792,-0.886958658695221,-0.8535500168800354,-0.8246771097183228
0.2833333333333333,0.09167223423719406,0.16334398090839386,0.0,0.9115146994590759,0.0,0.0,-0.4112675189971924,-0.15993088483810425,0.13807441294193268,0.0,0.0,0.0,-1.5361469984054565,-0.36624905467033386,0.7380383014678955,0.4200000464916229,1.0,3.3067506137740565e-06,-2.2124868337414227e-06,2.625712340886821e-07,0.0002666061627678573,0.0002674513962119818,-0.00010424340143799782,-0.0017352820141240954,0.004204321652650833,-0.00012828712351620197,-0.39009803533554077,0.735336422920227,0.5501416921615601,0.24779367446899414,0.0796898603439331,-5.970386505126953,0.4328823983669281,0.7612942457199097,0.42000001668930054,-0.7734413743019104,3.0000009536743164,-0.5667802095413208,-3.0000009536743164,-0.1124168187379837,-0.12184344232082367,-0.13110201060771942,-0.13970425724983215,-1.0246928930282593,-1.0186431407928467,-1.0140410661697388,-1.010369896888733
0.3,0.08760328590869904,0.16363494098186493,0.0,0.9156836271286011,0.0,0.0,-0.4018998444080353,-0.27451080083847046,-0.049159515649080276,0.0,0.0,0.0,1.9558591842651367,-0.36624905467033386,0.7380383014678955,0.4200000464916229,1.0,3.6407882362254895e-06,-2.3779157345416024e-06,-4.194236282728525e-07,0.0002660918398760259,0.00026721289032138884,-0.00010421476326882839,-0.0017330169212073088,0.004194211680442095,-0.00012849405175074935,-0.3846312165260315,0.7361396551132202,0.45709937810897827,0.4917973279953003,-0.08942007273435593,-5.337759971618652,0.4328823983669281,0.7612942457199097,0.42000001668930054,-0.7234330773353577,3.000002384185791,-0.6168078780174255,-2.9999985694885254,-0.12964898347854614,-0.13894720375537872,-0.1481124311685562,-0.15664313733577728,-1.0145292282104492,-1.0110236406326294,-1.0083503723144531,-1.0062024593353271
0.31666666666666665,0.08157171308994293,0.1609722524881363,0.0,0.9129904508590698,0.0,0.0,-0.40798094868659973,-0.4070431888103485,-0.20304028689861298,0.0,0.0,0.0,-1.6453392505645752,-0.36644816398620605,0.7368370294570923,0.4205155372619629,0.9997777342796326,0.009920286945998669,-0.0028689634054899216,-0.018379313871264458,0.02551133930683136,-0.006878826767206192,0.06961310654878616,2.3850247859954834,-1.161915898323059,0.11730324476957321,-0.3783652186393738,0.737384557723999,0.42484551668167114,0.08678604662418365,-0.11949916183948517,-0.10568345338106155,0.4328823983669281,0.7612942457199097,0.42000001668930054,-0.6735284924507141,2.983579158782959,-0.6673857569694519,-2.845085859298706,-0.1375429630279541,-0.14761774241924286,-0.15734802186489105,-0.16616445779800415,-0.10585665702819824,-0.1649092137813568,-0.20317471027374268,-0.2153584212064743
0.3333333333333333,0.0732840821146965,0.1558837890625,0.0,0.9167736172676086,0.0,0.0,-0.39940720796585083,-0.5412904024124146,-0.34485718607902527,0.0,0.0,0.0,1.9953582286834717,-0.36618882417678833,0.7368367910385132,0.42033684253692627,0.9998044371604919,0.0084662064909935,-0.00014997035032138228,-0.0178682841360569,0.009724666364490986,0.012875647284090519,-0.024088535457849503,-1.2367651462554932,0.045700717717409134,0.07186569273471832,-0.3787984251976013,0.740398645401001,0.4267825782299042,0.09929057210683823,0.20484566688537598,-0.19511856138706207,0.4328823983669281,0.7612942457199097,0.42000001668930054,-0.6235213279724121,2.999988317489624,-0.7174217104911804,-3.000002145767212,-0.14119286835193634,-0.15130218863487244,-0.16074620187282562,-0.16891589760780334,-0.3359605073928833,-0.2921339273452759,-0.23324738442897797,-0.15926548838615417
0.35,0.06276188790798187,0.1484232246875763,0.0,0.9140377044677734,0.0,0.0,-0.4056292176246643,-0.6730169653892517,-0.4881533980369568,0.0,0.0,0.0,-1.7487610578536987,-0.3651893436908722,0.7386839389801025,0.42000091075897217,0.9995703101158142,2.166773447243031e-05,-3.1666375434724614e-05,-0.029310444369912148,0.16394111514091492,0.23160964250564575,-0.0013940144563093781,-0.00010115602344740182,0.05384109914302826,-3.359264850616455,-0.3754122853279114,0.7428345680236816,0.4238864779472351,0.3112711012363434,0.18175366520881653,-0.16642425954341888,0.4328823983669281,0.7612942457199097,0.42000001668930054,-0.5735162496566772,2.9999985694885254,-0.767467200756073,-2.999990701675415,-0.14811179041862488,-0.15704506635665894,-0.165059432387352,-0.1715751439332962,-0.44925740361213684,-0.35833680629730225,-0.2540176808834076,-0.1393907368183136
0.36666666666666664,0.050158318132162094,0.13867905735969543,0.0,0.9176509976387024,0.0,0.0,-0.39738723635673523,-0.8000897765159607,-0.6234511137008667,0.0,0.0,0.0,2.0032641887664795,-0.36060258746147156,0.7451083064079285,0.4200005829334259,0.9952428340911865,-4.280877874407452e-06,-1.7436516372981714e-06,-0.09742491692304611,0.375100314617157,0.5068216323852539,-0.001583918696269393,0.00478464737534523,-0.0764254704117775,-11.106675148010254,-0.3685204088687897,0.7490447163581848,0.4212248921394348,0.5184072852134705,0.5255715847015381,-0.11760110408067703,0.4328823983669281,0.7612942457199097,0.42000001668930054,-0.5235112905502319,2.9999899864196777,-0.8175023794174194,-3.000001907348633,-0.15677236020565033,-0.16362057626247406,-0.1693059802055359,-0.1733279675245285,-0.5113813877105713,-0.3715912103652954,-0.21644404530525208,-0.051551442593336105
0.3833333333333333,0.040951743721961975,0.12612630426883698,0.0,0.914982795715332,0.0,0.0,-0.40349283814430237,-0.46661484241485596,-0.8013795018196106,0.0,0.0,0.0,-1.71995210647583,-0.35458990931510925,0.7532305717468262,0.4200003743171692,0.9824734330177307,6.881626291033172e-07,5.322784545569448e-06,-0.18640227615833282,0.41808897256851196,0.5549325346946716,-0.00045583044993691146,-0.006570284254848957,-0.005617877934128046,-14.120321273803711,-0.3582485318183899,0.7572267055511475,0.4215995669364929,0.782758355140686,0.5830028653144836,0.09009182453155518,0.4328823983669281,0.7612942457199097,0.42000001668930054,-0.473478764295578,2.9999988079071045,-0.8675288558006287,-2.999972343444824,-0.1650369018316269,-0.16925455629825592,-0.1719955950975418,-0.1728716641664505,-0.459352046251297,-0.2909197509288788,-0.1032029315829277,0.09644629806280136
0.4,0.029668889939785004,0.11197374761104584,0.0,0.8994809985160828,0.0,0.0,-0.4369598627090454,-0.7551118731498718,-0.8736452460289001,0.0,0.0,0.0,-5.370205879211426,-0.338407963514328,0.7698609828948975,0.42101946473121643,0.9658071994781494,-0.022654138505458832,0.0026750401593744755,-0.25825557112693787,1.682071328163147,0.8996392488479614,0.3060219883918762,-5.309618949890137,-18.044795989990234,-7.029013633728027,-0.34091895818710327,0.7714706659317017,0.4233037829399109,1.3332619667053223,1.1731164455413818,0.11214503645896912,0.4328823983669281,0.7612942457199097,0.42000001668930054,-0.4234491288661957,2.952533006668091,-0.9175443649291992,-2.9994096755981445,-0.17428508400917053,-0.1754123419523239,-0.17472794651985168,-0.1719798743724823,-0.558104932308197,-0.37050971388816833,-0.1635216474533081,0.05442257225513458
0.4166666666666667,0.02127484604716301,0.09487112611532211,0.0,0.869266152381897,0.0,0.0,-0.49434441328048706,-0.4562908113002777,-1.0704848766326904,0.0,0.0,0.0,-8.566828727722168,-0.30372384190559387,0.7943258285522461,0.42562010884284973,0.9481033086776733,-0.015572471544146538,-0.026078568771481514,-0.31650832295417786,3.1614990234375,1.8033366203308105,0.4698319435119629,15.336158752441406,-11.897750854492188,5.754980564117432,-0.3057953417301178,0.7968745231628418,0.4274327754974365,2.8698086738586426,1.855548620223999,0.5300310254096985,0.4328823983669281,0.7612942457199097,0.42000001668930054,-0.3872101902961731,1.4148021936416626,-0.9675665497779846,-3.000001907348633,-0.18330295383930206,-0.18118368089199066,-0.1769605427980423,-0.17053230106830597,-0.614471971988678,-0.3916597068309784,-0.1551796942949295,0.08497947454452515
0.43333333333333335,0.015293268486857414,0.0832381322979927,0.0,0.822174608707428,0.0,0.0,-0.5692353844642639,-0.30851754546165466,-0.5677167177200317,0.0,0.0,0.0,-11.381394386291504,-0.230497345328331,0.8288008570671082,0.4337817430496216,0.9264318346977234,0.04564885422587395,-0.06501717865467072,-0.367984801530838,5.9287109375,1.9624943733215332,0.5997572541236877,15.826156616210938,-14.145840644836426,19.65916633605957,-0.23247185349464417,0.8316774368286133,0.435676246881485,5.541821479797363,2.39987850189209,0.6300298571586609,0.4328823983669281,0.7612942457199097,0.42000001668930054,-0.36829832196235657,0.9537083506584167,-0.930148720741272,2.9973881244659424,-0.19888734817504883,-0.19362197816371918,-0.18427129089832306,-0.17301620543003082,-0.8981005549430847,-0.8314982652664185,-0.5322428345680237,-0.26130858063697815
0.45,0.01275651715695858,0.07498210668563843,0.0,0.7847633957862854,0.0,0.0,-0.6197955012321472,-0.09370096772909164,-0.46036165952682495,0.0,0.0,0.0,-6.334812641143799,-0.13729795813560486,0.8640468120574951,0.44524627923965454,0.8828179240226746,0.09518075734376907,-0.08711427450180054,-0.45164600014686584,5.817553997039795,1.4828898906707764,0.5371333956718445,-11.52352237701416,-9.313748359680176,-4.492297649383545,-0.13975824415683746,0.8681856393814087,0.4468587040901184,5.752108097076416,1.8681217432022095,0.7711181640625,0.4328823983669281,0.7612942457199097,0.42000001668930054,-0.35202524065971375,1.0386524200439453,-0.955896258354187,-3.000000476837158,-0.20887808501720428,-0.2045024186372757,-0.19274784624576569,-0.17796507477760315,-0.5248517394065857,-0.5571514964103699,-0.4421103894710541,-0.2722359001636505
0.4666666666666667,0.012670321390032768,0.07029765844345093,0.0,0.7686680555343628,0.0,0.0,-0.639647901058197,0.09531716257333755,-0.24380049109458923,0.0,0.0,0.0,-1.9094516038894653,-0.040080636739730835,0.885356068611145,0.45648691058158875,0.8206195831298828,0.09996168315410614,-0.09498970210552216,-0.5545881390571594,5.9411797523498535,0.06830932945013046,0.8428208231925964,19.404800415039062,-8.980667114257812,25.758237838745117,-0.04249560832977295,0.8903237581253052,0.4577810764312744,6.0425615310668945,0.824223518371582,0.6955828666687012,0.4328823983669281,0.7612942457199097,0.42000001668930054,-0.33528417348861694,0.8916294574737549,-1.0059200525283813,-3.000002384185791,-0.21949951350688934,-0.2143639624118805,-0.20005546510219574,-0.18210171163082123,-0.6014273166656494,-0.5194907188415527,-0.36194345355033875,-0.17941321432590485
0.48333333333333334,0.012174855917692184,0.06016606092453003,0.0,0.7439042329788208,0.0,0.0,-0.6682862639427185,-0.0675906091928482,-0.7605809569358826,0.0,0.0,0.0,-5.500563621520996,0.05617913231253624,0.8922009468078613,0.4641222357749939,0.7714952230453491,0.08497722446918488,-0.09571655839681625,-0.6232273578643799,5.586435317993164,-0.6851993799209595,0.6151941418647766,9.319029808044434,-3.4204318523406982,19.0386905670166,0.05494263768196106,0.8976461887359619,0.4662969708442688,5.822927474975586,-0.03404790163040161,0.4369829297065735,0.4328823983669281,0.7612942457199097,0.42000001668930054,-0.32147541642189026,0.7655101418495178,-1.055942177772522,-3.0000007152557373,-0.22344867885112762,-0.2174289971590042,-0.20138773322105408,-0.18136078119277954,-0.10247628390789032,-0.03462570905685425,0.057978611439466476,0.16091860830783844
0.5,0.014532236382365227,0.05396943911910057,0.0,0.7308756113052368,0.0,0.0,-0.6825106739997864,0.12044887989759445,-0.2930840253829956,0.0,0.0,0.0,-0.967025101184845,0.1476399153470993,0.8830515742301941,0.4701063632965088,0.6976085305213928,0.0732385516166687,-0.09051865339279175,-0.7069546580314636,5.039010524749756,-1.363547444343567,0.3793431222438812,-1.1895978450775146,-0.08858973532915115,5.922823905944824,0.146373450756073,0.8881835341453552,0.4727206826210022,5.273368835449219,-0.9167201519012451,0.32271724939346313,0.4328823983669281,0.7612942457199097,0.42000001668930054,-0.30695462226867676,0.8724731206893921,-1.1059643030166626,-2.997891664505005,-0.23122084140777588,-0.2225535660982132,-0.20408526062965393,-0.18188787996768951,-0.4227709174156189,-0.2741546928882599,-0.16027724742889404,-0.0708143413066864
0.5166666666666666,0.017782093957066536,0.051214780658483505,0.0,0.7128639817237854,0.0,0.0,-0.7013023495674133,0.24998286366462708,-0.10180513560771942,0.0,0.0,0.0,-4.001725673675537,0.226579487323761,0.86613929271698,0.46927106380462646,0.6574695706367493,0.06662371754646301,-0.07603127509355545,-0.7466686964035034,4.116127967834473,-1.626665472984314,-0.17264480888843536,-4.762351989746094,6.9958319664001465,8.023637771606445,0.22622016072273254,0.8709557056427002,0.4721779227256775,4.437552452087402,-1.279744029045105,-0.23308636248111725,0.4328823983669281,0.7612942457199097,0.42000001668930054,-0.2927105128765106,0.761915922164917,-1.1559864282608032,-2.9984612464904785,-0.23567606508731842,-0.2253076434135437,-0.2058512419462204,-0.1830342411994934,-0.1679953932762146,-0.08172841370105743,-0.05079123377799988,-0.04582066461443901
0.5333333333333333,0.019467633217573166,0.05183185264468193,0.0,0.7080574035644531,0.0,0.0,-0.7061548829078674,0.03408297523856163,0.07685508579015732,0.0,0.0,0.0,0.07921543717384338,0.2920496165752411,0.8414319157600403,0.4604198634624481,0.6159705519676208,0.02515345998108387,-0.0748729482293129,-0.783799409866333,3.2195260524749756,-1.9560198783874512,-0.6243751645088196,-7.085166931152344,-1.0656794309616089,20.32390594482422,0.29197239875793457,0.8454978466033936,0.46466225385665894,3.5799918174743652,-1.7389590740203857,-0.6188651323318481,0.4328823983669281,0.7612942457199097,0.42000001668930054,-0.2794240713119507,0.7882287502288818,-1.2060085535049438,-2.9999890327453613,-0.23784291744232178,-0.22615040838718414,-0.20646624267101288,-0.1839301586151123,-0.0397212915122509,0.022724727168679237,0.009771647863090038,-0.037472665309906006
0.55,0.022222567349672318,0.04870922118425369,0.0,0.6937007904052734,0.0,0.0,-0.7202633023262024,0.2159917652606964,-0.19682645797729492,0.0,0.0,0.0,-3.168952703475952,0.3465927541255951,0.8141902089118958,0.4427655339241028,0.5522406697273254,-0.05299318581819534,-0.10284893214702606,-0.8256173729896545,2.6632087230682373,-2.076453685760498,-1.2154107093811035,-18.33155632019043,13.327059745788574,0.8006507754325867,0.3462430238723755,0.819887101650238,0.4499264061450958,3.0160205364227295,-1.6081947088241577,-1.0062106847763062,0.4328823983669281,0.7612942457199097,0.42000001668930054,-0.2665277123451233,0.6795403957366943,-1.2560306787490845,-2.99942684173584,-0.23436114192008972,-0.22263221442699432,-0.20420895516872406,-0.18345282971858978,0.15701644122600555,0.16384448111057281,0.08588816225528717,-0.02757076546549797
0.5666666666666667,0.027670981362462044,0.04949212819337845,0.0,0.6922163963317871,0.0,0.0,-0.7216899991035461,0.35035058856010437,0.06195567175745964,0.0,0.0,0.0,0.6441023945808411,0.3888131082057953,0.7880300283432007,0.4242309033870697,0.5115129351615906,-0.0700659230351448,-0.056778550148010254,-0.8545299172401428,2.0791311264038086,-1.0790740251541138,-0.433797150850296,28.21759033203125,-8.333131790161133,7.460457801818848,0.3883923590183258,0.7915196418762207,0.4306207001209259,2.086758613586426,-1.6149892807006836,-1.16391921043396,0.4328823983669281,0.7612942457199097,0.42000001668930054,-0.2531313896179199,0.9075244069099426,-1.3060517311096191,-3.0000035762786865,-0.23282788693904877,-0.2211020290851593,-0.20411403477191925,-0.18539708852767944,0.2714422047138214,0.21149052679538727,0.07181364297866821,-0.09657088667154312
0.5833333333333334,0.03512708097696304,0.0463411845266819,0.0,0.6804215312004089,0.0,0.0,-0.7328209280967712,0.48384857177734375,-0.2261233925819397,0.0,0.0,0.0,-2.773747205734253,0.412592351436615,0.7786667943000793,0.4215303957462311,0.5129412412643433,0.004141451325267553,-0.029927561059594154,-0.857891857624054,0.9020554423332214,-0.28826263546943665,-0.018314113840460777,-1.0866611003875732,5.921688556671143,1.4819467067718506,0.4105777144432068,0.7804135084152222,0.42525970935821533,0.9373273849487305,-0.3180864751338959,0.04298413544893265,0.4328823983669281,0.7612942457199097,0.42000001668930054,-0.23617298901081085,1.228753924369812,-1.2697207927703857,2.9998888969421387,-0.22428838908672333,-0.2147245705127716,-0.2010067254304886,-0.18581564724445343,0.5096307396888733,0.3691354990005493,0.16561761498451233,-0.05121159553527832
0.6,0.04022771492600441,0.046285733580589294,0.0,0.6810646057128906,0.0,0.0,-0.7322233319282532,0.24719566106796265,0.019328884780406952,0.0,0.0,0.0,0.9542016386985779,0.42638206481933594,0.7721431851387024,0.42008158564567566,0.4810422360897064,0.0004092648741789162,-0.000553396821487695,-0.8766971230506897,0.6164661049842834,-0.3596858084201813,-0.07209701836109161,1.4378503561019897,2.441892623901367,4.425511837005615,0.42066991329193115,0.7712453007698059,0.42374974489212036,0.4609639346599579,-0.4936004877090454,0.09087059646844864,0.4328823983669281,0.7612942457199097,0.42000001668930054,-0.2419503778219223,-1.510422945022583,-1.290144443511963,-2.9949302673339844,-0.2183879017829895,-0.21062783896923065,-0.1997431516647339,-0.18765059113502502,0.4026488959789276,0.28024983406066895,0.10237108170986176,-0.08750856667757034
0.6166666666666667,0.04604082927107811,0.04924697056412697,0.0,0.6709399223327637,0.0,0.0,-0.7415117025375366,0.36521798372268677,0.21577580273151398,0.0,0.0,0.0,-2.561293125152588,0.4300818145275116,0.7680643200874329,0.420000284910202,0.5169557332992554,-1.4656924349765177e-06,6.316691724350676e-06,-0.8560121059417725,0.08128271251916885,-0.1500156670808792,-0.00039277179166674614,-0.014263981021940708,-0.00819515809416771,5.220707416534424,0.42626702785491943,0.7694786787033081,0.42535263299942017,0.29373547434806824,0.07201924175024033,0.1234830841422081,0.4328823983669281,0.7612942457199097,0.42000001668930054,-0.25707295536994934,-0.42294272780418396,-1.3401100635528564,-2.9990835189819336,-0.20988334715366364,-0.20501293241977692,-0.19770808517932892,-0.1892005205154419,0.6405358910560608,0.43488430976867676,0.1965191662311554,-0.03569277748465538
0.6333333333333333,0.05360399931669235,0.047607652842998505,0.0,0.6727073788642883,0.0,0.0,-0.7399086356163025,0.4730922281742096,-0.09262406826019287,0.0,0.0,0.0,1.1276311874389648,0.4315955340862274,0.7666803002357483,0.4200001358985901,0.5359845161437988,-1.3788953765470069e-06,-4.674255251302384e-06,-0.8442277908325195,0.042050983756780624,-0.0774046927690506,-0.0001060832291841507,0.005885666236281395,0.0035807378590106964,2.1092498302459717,0.42720547318458557,0.7690867185592651,0.42540669441223145,-0.13814176619052887,-0.1556585431098938,-0.03635368123650551,0.4328823983669281,0.7612942457199097,0.42000001668930054,-0.29867327213287354,-2.9999847412109375,-1.3202576637268066,2.999805450439453,-0.1967470943927765,-0.19528082013130188,-0.19187486171722412,-0.1871672123670578,0.5828904509544373,0.4410873055458069,0.26841792464256287,0.09533950686454773
0.65,0.06332463026046753,0.05069084092974663,0.0,0.6629286408424377,0.0,0.0,-0.7486825585365295,0.5987720489501953,0.17664143443107605,0.0,0.0,0.0,-2.498826265335083,0.4318366050720215,0.766251266002655,0.4200000464916229,0.5400099754333496,-4.767486529999587e-07,9.468034818382876e-07,-0.8416585326194763,0.0043610273860394955,-0.007357069756835699,-3.566185478121042e-05,-0.0008332722936756909,-0.0016295408131554723,0.13188205659389496,0.42779356241226196,0.7699016332626343,0.4272335171699524,0.16363787651062012,0.18080979585647583,0.19557055830955505,0.4328823983669281,0.7612942457199097,0.42000001668930054,-0.34871405363082886,-2.9988794326782227,-1.3392852544784546,-2.999675989151001,-0.1881442815065384,-0.18912655115127563,-0.18855424225330353,-0.18661479651927948,0.6984825730323792,0.507723867893219,0.3028303384780884,0.10896240919828415
0.6666666666666666,0.07465338706970215,0.04945634305477142,0.0,0.6652389168739319,0.0,0.0,-0.7466305494308472,0.7045679092407227,-0.0934397280216217,0.0,0.0,0.0,1.2842159271240234,0.43183642625808716,0.7662515640258789,0.42000001668930054,0.5400102138519287,-2.0756824596901424e-06,-4.103996616322547e-06,-0.841658353805542,1.9656739823403768e-05,-0.00021194831060711294,-6.796489469707012e-05,0.0032297049183398485,-0.004046205896884203,-0.0008992742514237761,0.4280160069465637,0.7714904546737671,0.4305358827114105,-0.160299152135849,0.0027161855250597,0.2219216525554657,0.4328823983669281,0.7612942457199097,0.42000001668930054,-0.398729145526886,-2.999981641769409,-1.3893043994903564,-2.999999523162842,-0.17740681767463684,-0.18080182373523712,-0.18284295499324799,-0.1833718717098236,0.4388621747493744,0.3587685227394104,0.2665890157222748,0.1784210503101349
0.6833333333333333,0.08397441357374191,0.05011429637670517,0.0,0.6567448377609253,0.0,0.0,-0.7541128993034363,0.4513808488845825,0.0560501329600811,0.0,0.0,0.0,-2.3325071334838867,0.4318365156650543,0.7662515640258789,0.41999998688697815,0.5400102138519287,-3.1711940664536087e-06,-3.929110334865982e-06,-0.8416584134101868,-4.409554094308987e-05,-0.00032122927950695157,-9.066355414688587e-05,0.008511552587151527,-0.0035515574272722006,-0.0007640468538738787,0.4286491870880127,0.7711595296859741,0.43462619185447693,0.1916055977344513,-0.04578552395105362,0.2810434103012085,0.4328823983669281,0.7612942457199097,0.42000001668930054,-0.4487321078777313,-2.999864339828491,-1.4393088817596436,-2.9999399185180664,-0.1725616753101349,-0.17652027308940887,-0.17917171120643616,-0.18015894293785095,0.3245389759540558,0.30038684606552124,0.2827207148075104,0.28068655729293823
0.7,0.09309197217226028,0.04779073968529701,0.0,0.6270299553871155,0.0,0.0,-0.778995156288147,0.5801671147346497,-0.2041006088256836,0.0,0.0,0.0,-5.533605575561523,0.4318365156650543,0.7662515640258789,0.41999998688697815,0.5400100946426392,-3.1075912829692243e-06,-3.68653172699851e-06,-0.8416584730148315,-4.530668229563162e-05,-0.0003216342884115875,-9.110942482948303e-05,0.008521121926605701,-0.003565928665921092,-0.0007627432351000607,0.4335711896419525,0.7724382877349854,0.44717663526535034,0.4412994384765625,0.14450222253799438,1.3370392322540283,0.4328823983669281,0.7612942457199097,0.42000001668930054,-0.4987446963787079,-2.9999780654907227,-1.489327311515808,-2.999999523162842,-0.16957062482833862,-0.173511803150177,-0.17601194977760315,-0.17660976946353912,0.06635168939828873,0.09091944992542267,0.12391853332519531,0.16918300092220306
0.7166666666666667,0.10492769628763199,0.048874516040086746,0.0,0.6107596158981323,0.0,0.0,-0.7918160557746887,0.7227088809013367,0.07925216853618622,0.0,0.0,0.0,-1.4089386463165283,0.4318365156650543,0.7662515640258789,0.41999998688697815,0.5400101542472839,-3.09362303596572e-06,-3.725799160747556e-06,-0.8416584730148315,-4.5044984290143475e-05,-0.0003215740725863725,-9.099137969315052e-05,0.008520623669028282,-0.0035634974483400583,-0.0007632463821209967,0.4414520859718323,0.7765801548957825,0.47587981820106506,0.5762695074081421,0.41887128353118896,2.071218490600586,0.4328823983669281,0.7612942457199097,0.42000001668930054,-0.5481271743774414,-2.8948159217834473,-1.539345622062683,-2.9999992847442627,-0.17181742191314697,-0.17505210638046265,-0.17670634388923645,-0.17629459500312805,-0.0394086129963398,-0.03791872411966324,-0.023966342210769653,0.003418958280235529
0.7333333333333333,0.11345463246107101,0.05174873024225235,0.0,0.6197439432144165,0.0,0.0,-0.7848040461540222,0.43505966663360596,0.21644330024719238,0.0,0.0,0.0,2.2372395992279053,0.4318365156650543,0.7662515640258789,0.41999998688697815,0.5400102138519287,-3.0964374673203565e-06,-3.7549136777670356e-06,-0.8416584730148315,-4.4875338062411174e-05,-0.0003215856559108943,-9.093433618545532e-05,0.00852134171873331,-0.003563184291124344,-0.0007635917863808572,0.453754723072052,0.7828733921051025,0.5035344362258911,0.7869768142700195,0.3483855724334717,1.3367880582809448,0.4328823983669281,0.7612942457199097,0.42000001668930054,-0.5674445033073425,0.31182393431663513,-1.589363932609558,-2.999999761581421,-0.17133498191833496,-0.1744319647550583,-0.17574188113212585,-0.17478930950164795,0.07987970113754272,0.09834250807762146,0.12716348469257355,0.16396404802799225
0.75,0.11758129298686981,0.050339724868535995,0.0,0.6162945032119751,0.0,0.0,-0.7875157594680786,0.20627152919769287,-0.15223154425621033,0.0,0.0,0.0,-1.475484848022461,0.4318365156650543,0.7662515640258789,0.41999998688697815,0.5400100946426392,-3.0942596822569612e-06,-3.717607796716038e-06,-0.8416585326194763,-4.524094765656628e-05,-0.00032165274024009705,-9.108451195061207e-05,0.00852210819721222,-0.0035661838483065367,-0.0007628960884176195,0.46255648136138916,0.7879424095153809,0.5196932554244995,0.2619241774082184,0.1780153214931488,0.7675096392631531,0.4328823983669281,0.7612942457199097,0.42000001668930054,-0.5831555128097534,-1.9844837188720703,-1.5503824949264526,2.999999523162842,-0.1680455058813095,-0.17087708413600922,-0.17183834314346313,-0.1705060601234436,0.13524195551872253,0.17906002700328827,0.22065860033035278,0.2555786073207855
0.7666666666666666,0.12361831218004227,0.054612476378679276,0.0,0.6251378059387207,0.0,0.0,-0.7805144190788269,0.3196549117565155,0.3013061583042145,0.0,0.0,0.0,2.1767823696136475,0.4318365156650543,0.7662515640258789,0.41999998688697815,0.5400101542472839,-3.0753085411561187e-06,-3.753665851036203e-06,-0.8416585326194763,-4.497827831073664e-05,-0.00032157948589883745,-9.096809662878513e-05,0.008521131239831448,-0.0035633654333651066,-0.0007633661152794957,0.4666345715522766,0.789560854434967,0.5317887663841248,0.3036503791809082,0.24317249655723572,0.7038928270339966,0.4328823983669281,0.7612942457199097,0.42000001668930054,-0.5901744365692139,0.8968589305877686,-1.56546151638031,-2.999999523162842,-0.17194075882434845,-0.17298996448516846,-0.17234309017658234,-0.16968819499015808,-0.09528747946023941,-0.0320492684841156,0.022307787090539932,0.0619027279317379
0.7833333333333333,0.12581315636634827,0.054298628121614456,0.0,0.6215004920959473,0.0,0.0,-0.7834137678146362,0.07869202643632889,-0.06254544854164124,0.0,0.0,0.0,-1.3970332145690918,0.4318365156650543,0.7662515640258789,0.41999998688697815,0.5400101542472839,-3.1033157483761897e-06,-3.7793058709212346e-06,-0.8416584134101868,-4.480928328121081e-05,-0.0003215846372768283,-9.090942330658436e-05,0.008521714247763157,-0.003562812227755785,-0.0007636845693923533,0.47055482864379883,0.7913131713867188,0.5375409722328186,0.12421463429927826,-0.10866008698940277,0.14401637017726898,0.4328823983669281,0.7612942457199097,0.42000001668930054,-0.6142900586128235,-3.000000238418579,-1.5265483856201172,2.999999523162842,-0.1711357831954956,-0.17130759358406067,-0.16992709040641785,-0.16677960753440857,-0.06637952476739883,0.021928802132606506,0.09835804998874664,0.1559896320104599
0.8,0.12939636409282684,0.057386621832847595,0.0,0.6296458840370178,0.0,0.0,-0.7768822908401489,0.2374381422996521,0.20857173204421997,0.0,0.0,0.0,2.021376609802246,0.4318365156650543,0.7662515640258789,0.41999998688697815,0.5400102138519287,-3.0704170512763085e-06,-3.637237568909768e-06,-0.8416584134101868,-4.534782055998221e-05,-0.0003215468896087259,-9.110616520047188e-05,0.008518751710653305,-0.003564009442925453,-0.0007626560400240123,0.47576168179512024,0.7887312769889832,0.5414841175079346,0.5288235545158386,-0.09338106215000153,0.3593030571937561,0.4328823983669281,0.7612942457199097,0.42000001668930054,-0.6341549158096313,0.3426114320755005,-1.5421571731567383,-2.9999988079071045,-0.17426520586013794,-0.17272599041461945,-0.16975511610507965,-0.16526658833026886,-0.07843095809221268,-0.006617874838411808,0.06509780883789062,0.12981371581554413
0.8166666666666667,0.13062380254268646,0.05628107860684395,0.0,0.6254802346229553,0.0,0.0,-0.780239999294281,-0.014933118596673012,-0.10807380825281143,0.0,0.0,0.0,-1.4604532718658447,0.4318365156650543,0.7662515640258789,0.41999998688697815,0.5400102734565735,-3.0788828553340863e-06,-3.6881644973618677e-06,-0.8416584134101868,-4.511292354436591e-05,-0.00032158117392100394,-9.102490730583668e-05,0.00852055475115776,-0.0035640134010463953,-0.000763164774980396,0.48460447788238525,0.7863545417785645,0.5453982949256897,0.49338996410369873,-0.2893291711807251,0.24666805565357208,0.4328823983669281,0.7612942457199097,0.42000001668930054,-0.659485936164856,-3.0000007152557373,-1.5040076971054077,3.000000238418579,-0.17343014478683472,-0.17102840542793274,-0.1671818345785141,-0.16190718114376068,-0.03221718966960907,0.03979693353176117,0.11018011718988419,0.172549769282341
0.8333333333333334,0.1330900341272354,0.059627655893564224,0.0,0.6328624486923218,0.0,0.0,-0.7742642164230347,0.1758655160665512,0.2157532274723053,0.0,0.0,0.0,1.8875411748886108,0.4318365156650543,0.7662515640258789,0.41999998688697815,0.5400103330612183,-3.10411110149289e-06,-3.731666765816044e-06,-0.8416584134101868,-4.504423122853041e-05,-0.00032157357782125473,-9.099137969315052e-05,0.00852053239941597,-0.0035635007079690695,-0.0007632510969415307,0.4944173991680145,0.7805718183517456,0.5531809329986572,0.7606810331344604,-0.2551586925983429,0.6866201162338257,0.4328823983669281,0.7612942457199097,0.42000001668930054,-0.6769641041755676,0.6045809984207153,-1.5200902223587036,-3.0000007152557373,-0.17732134461402893,-0.17325066030025482,-0.16774901747703552,-0.1609487682580948,-0.08796483278274536,-0.032502431422472,0.029522676020860672,0.09221359342336655
0.85,0.13305677473545074,0.05827650800347328,0.0,0.6286550760269165,0.0,0.0,-0.7776842713356018,-0.0523611418902874,-0.0941925048828125,0.0,0.0,0.0,-1.6883845329284668,0.43183648586273193,0.7662515640258789,0.41999998688697815,0.5400101542472839,-3.070879984079511e-06,-3.791269591602031e-06,-0.8416584134101868,-4.667795656132512e-05,-0.00032150541665032506,-9.148730896413326e-05,0.008515874855220318,-0.0035721922758966684,-0.0007599664386361837,0.5064658522605896,0.7773154973983765,0.5631315112113953,0.6037701368331909,-0.25618571043014526,0.6161938905715942,0.4328823983669281,0.7612942457199097,0.42000001668930054,-0.6847740411758423,-1.3640402555465698,-1.5092543363571167,3.000000238418579,-0.17551064491271973,-0.1711360216140747,-0.16522349417209625,-0.15797968208789825,0.0074563357047736645,0.04353673383593559,0.08185654878616333,0.118012934923172
0.8666666666666667,0.1348477452993393,0.061477307230234146,0.0,0.6353586912155151,0.0,0.0,-0.7722171545028687,0.13889047503471375,0.19280202686786652,0.0,0.0,0.0,1.725140929222107,0.4318365156650543,0.7662515640258789,0.41999998688697815,0.5400100946426392,-3.094663270530873e-06,-3.818372988462215e-06,-0.8416584730148315,-4.188670209259726e-05,-0.0003215750912204385,-9.003677405416965e-05,0.008525184355676174,-0.003542182967066765,-0.0007689197664149106,0.5160583257675171,0.772337794303894,0.5752201080322266,0.650598406791687,-0.19323289394378662,0.8446399569511414,0.4328823983669281,0.7612942457199097,0.42000001668930054,-0.6777503490447998,1.9165905714035034,-1.5252166986465454,-3.000000476837158,-0.177988663315773,-0.1726676970720291,-0.16579370200634003,-0.15764747560024261,0.01274604257196188,0.02381538413465023,0.04106653481721878,0.060982223600149155
0.8833333333333333,0.134463369846344,0.060564711689949036,0.0,0.6302675008773804,0.0,0.0,-0.7763780355453491,-0.06701266020536423,-0.06365159898996353,0.0,0.0,0.0,-1.7171343564987183,0.43183648586273193,0.7662515640258789,0.41999998688697815,0.5400101542472839,-3.0964088182372507e-06,-3.614317165556713e-06,-0.8416584134101868,-4.661523780669086e-05,-0.00032156542874872684,-9.146984666585922e-05,0.008518077433109283,-0.003573416965082288,-0.0007602331461384892,0.5241218209266663,0.7716056108474731,0.587944746017456,0.2701656222343445,-0.014622237533330917,0.7950321435928345,0.4328823983669281,0.7612942457199097,0.42000001668930054,-0.6620897054672241,0.10703597217798233,-1.4864246845245361,2.999999761581421,-0.17522627115249634,-0.1703304797410965,-0.16380223631858826,-0.15595628321170807,0.08239617198705673,0.06612315028905869,0.0500195175409317,0.03242136910557747
0.9,0.13172827661037445,0.06329239904880524,0.0,0.6367529630661011,0.0,0.0,-0.7710678577423096,-0.1944497674703598,0.18835407495498657,0.0,0.0,0.0,1.813116431236267,0.4318365156650543,0.7662516236305237,0.41999998688697815,0.5400101542472839,-3.162164148307056e-06,-3.849332188110566e-06,-0.8416584730148315,-4.191933840047568e-05,-0.0003216260811313987,-9.009288623929024e-05,0.008525566197931767,-0.0035437920596450567,-0.0007691585924476385,0.5270852446556091,0.7694472074508667,0.6008250713348389,0.16003091633319855,-0.10020712018013,0.7905884385108948,0.4328823983669281,0.7612942457199097,0.42000001668930054,-0.6354600787162781,2.8295013904571533,-1.5028456449508667,-3.000000238418579,-0.1756625920534134,-0.17064347863197327,-0.16402776539325714,-0.15616187453269958,0.0684836134314537,0.05493764951825142,0.040678471326828,0.024614181369543076
