vladlanda/robotic-transformer/data/env_000_episode_0002.csv
sim_time_s,robot_box_x,robot_box_y,robot_box_z,robot_box_quat_w,robot_box_quat_x,robot_box_quat_y,robot_box_quat_z,robot_box_linvel_x,robot_box_linvel_y,robot_box_linvel_z,robot_box_angvel_x,robot_box_angvel_y,robot_box_angvel_z,cube_world_x,cube_world_y,cube_world_z,cube_quat_w,cube_quat_x,cube_quat_y,cube_quat_z,cube_linvel_x,cube_linvel_y,cube_linvel_z,cube_angvel_x,cube_angvel_y,cube_angvel_z,endpoint_world_x,endpoint_world_y,endpoint_world_z,endpoint_linvel_x,endpoint_linvel_y,endpoint_linvel_z,target_cube_world_x,target_cube_world_y,target_cube_world_z,gripper_actual_pos_rad_gp_leftgearjoint,gripper_actual_vel_rad_s_gp_leftgearjoint,gripper_actual_pos_rad_gp_rotatingjoint,gripper_actual_vel_rad_s_gp_rotatingjoint,motor_angle_rad_joint1,motor_angle_rad_joint2,motor_angle_rad_joint3,motor_angle_rad_joint4,motor_speed_rad_s_joint1,motor_speed_rad_s_joint2,motor_speed_rad_s_joint3,motor_speed_rad_s_joint4
0.0,0.0,0.0,0.0,1.0,0.0,0.0,0.0,0.0,0.0,0.0,0.0,0.0,0.0,-0.4372044503688812,0.7207635641098022,0.41999998688697815,1.0,0.0,0.0,0.0,0.0,0.0,0.0,0.0,0.0,0.0,3.42540442943573e-06,-0.005000244826078415,1.313499927520752,0.0,0.0,0.0,0.41310471296310425,0.7436961531639099,0.42000001668930054,-1.5707999467849731,0.0,0.0,0.0,0.0,0.0,0.0,0.0,0.0,0.0,0.0,0.0
0.016666666666666666,0.0028778850100934505,0.0021806680597364902,0.0,0.9998081922531128,0.0,0.0,0.019586581736803055,0.24087215960025787,0.18240931630134583,0.0,0.0,0.0,3.1418697834014893,-0.4372045695781708,0.7207632660865784,0.41999998688697815,1.0,3.2799914606584935e-06,-8.339814598912199e-07,8.465387679734704e-08,-1.9833554688375443e-05,0.00017983050202019513,-6.133061833679676e-05,0.0009432226070202887,-0.004689437802881002,-0.0003198152990080416,-0.007110234349966049,0.003379564033821225,1.3159373998641968,-0.8143353462219238,0.9868683815002441,0.18095196783542633,0.41310471296310425,0.7436961531639099,0.42000001668930054,-1.5301095247268677,3.0000011920928955,-0.04584788903594017,-2.9999992847442627,0.0008691533003002405,0.0007963840034790337,0.0007110277656465769,0.0006108740926720202,0.11094217747449875,0.09756709635257721,0.08334315568208694,0.06823883205652237
0.03333333333333333,0.008960988372564316,0.006801992654800415,0.0,0.9997960329055786,0.0,0.0,0.020196838304400444,0.40702199935913086,0.31530800461769104,0.0,0.0,0.0,-0.8691327571868896,-0.4372046887874603,0.7207632064819336,0.4200000464916229,1.0,3.390914116607746e-06,-2.132455392711563e-06,-3.71076644967161e-08,0.0002635782293509692,0.00026937935035675764,-0.00010509486310184002,-0.001770757487975061,0.0041308156214654446,-0.00013547815615311265,-0.027553740888834,0.02622178941965103,1.3165923357009888,-1.5913861989974976,1.6160738468170166,-0.08554349094629288,0.41310471296310425,0.7436961531639099,0.42000001668930054,-1.4800904989242554,2.999999761581421,-0.09588771313428879,-3.000000476837158,0.002990100299939513,0.00265270727686584,0.002277275314554572,0.0018607300007715821,0.1642143577337265,0.1397581249475479,0.11381684243679047,0.08629901707172394
0.05,0.01770547591149807,0.013762803748250008,0.0,0.999390721321106,0.0,0.0,0.0349021777510643,0.5928231477737427,0.4647377133369446,0.0,0.0,0.0,2.655285358428955,-0.4372047185897827,0.7207632660865784,0.4200000464916229,1.0,3.7652293940482195e-06,-2.2118967990536476e-06,5.613899567435965e-09,0.000265309150563553,0.0002669153909664601,-0.0001044049859046936,-0.00172426737844944,0.004177379421889782,-0.0001294983085244894,-0.05966845527291298,0.05452276021242142,1.3114664554595947,-2.1873490810394287,1.8059674501419067,-0.491557776927948,0.41310471296310425,0.7436961531639099,0.42000001668930054,-1.4300721883773804,3.0000009536743164,-0.1459263563156128,-3.000001907348633,0.00569109758362174,0.004899829626083374,0.0040364572778344154,0.00309652928262949,0.19239991903305054,0.1554901897907257,0.11670968681573868,0.07596521824598312
0.06666666666666667,0.02900509163737297,0.02305092290043831,0.0,0.9994602203369141,0.0,0.0,0.032852184027433395,0.7194303870201111,0.5949072241783142,0.0,0.0,0.0,-1.204244613647461,-0.4372047185897827,0.7207632064819336,0.4200000464916229,0.9999999403953552,3.4068445984303253e-06,-2.2855729184811935e-06,4.300823945868615e-07,0.000267024093773216,0.0002679175231605768,-0.0001043803058564663,-0.0017406325787305832,0.004211729858070612,-0.00012850853090640157,-0.09696626663208008,0.08980751782655716,1.2989075183868408,-2.313458204269409,2.3116235733032227,-0.9872137308120728,0.41310471296310425,0.7436961531639099,0.42000001668930054,-1.3800538778305054,3.0000009536743164,-0.19596368074417114,-2.999999761581421,0.008137932047247887,0.006612591911107302,0.004976279567927122,0.003223361214622855,0.13582317531108856,0.08020146936178207,0.022534385323524475,-0.037252277135849
0.08333333333333333,0.042499057948589325,0.0345400832593441,0.0,0.9999985694885254,0.0,0.0,0.0016854358837008476,0.9320487976074219,0.7282754182815552,0.0,0.0,0.0,-4.505768299102783,-0.4372047185897827,0.7207632064819336,0.4200000464916229,1.0,3.697329248097958e-06,-2.1889204617764335e-06,-2.632361599808064e-07,0.00026389621780253947,0.00026586378226056695,-0.00010433816350996494,-0.0017081365222111344,0.004150137305259705,-0.00012991174298804253,-0.13377253711223602,0.1326061338186264,1.2802141904830933,-2.1665151119232178,2.6921310424804688,-1.2245771884918213,0.41310471296310425,0.7436961531639099,0.42000001668930054,-1.330025315284729,2.9999988079071045,-0.17969298362731934,3.000002145767212,0.009214821271598339,0.0066684335470199585,0.00396895594894886,0.0011128579499199986,0.06547188013792038,-0.00704090716317296,-0.08159610629081726,-0.15820395946502686
0.1,0.051146067678928375,0.04987192153930664,0.0,0.9999122023582458,0.0,0.0,-0.013253037817776203,0.38031235337257385,0.9975205659866333,0.0,0.0,0.0,-0.5496186017990112,-0.4372047185897827,0.7207632064819336,0.4200000464916229,0.9999999403953552,3.620433972173487e-06,-2.265166358483839e-06,1.7460881451825117e-07,0.00026676940615288913,0.00026740849716588855,-0.0001040794886648655,-0.0017386502586305141,0.0042092143557965755,-0.00012775196228176355,-0.17098942399024963,0.17355948686599731,1.2587834596633911,-2.1527438163757324,2.4638609886169434,-1.2878210544586182,0.41310471296310425,0.7436961531639099,0.42000001668930054,-1.280029535293579,2.9999988079071045,-0.21125608682632446,-3.0,0.0037725695874542,0.00038468901766464114,-0.0032074248883873224,-0.007010644301772118,-0.455364465713501,-0.5099981427192688,-0.5671600699424744,-0.6270754337310791
0.11666666666666667,0.055107273161411285,0.06599179655313492,0.0,0.9992454051971436,0.0,0.0,-0.038841430097818375,0.24073061347007751,0.9374002814292908,0.0,0.0,0.0,-3.8438284397125244,-0.4372047185897827,0.7207632064819336,0.4200000464916229,1.0,3.7984186747053172e-06,-2.262772341055097e-06,-1.5020653165720432e-07,0.00026373984292149544,0.00026565982261672616,-0.00010428996756672859,-0.0017054551281034946,0.004147582221776247,-0.000129800770082511,-0.20489120483398438,0.21835996210575104,1.2378901243209839,-1.9247583150863647,2.940476894378662,-1.2549878358840942,0.41310471296310425,0.7436961531639099,0.42000001668930054,-1.230020523071289,2.9999985694885254,-0.26127949357032776,-3.000000476837158,-0.0034784143790602684,-0.008191284723579884,-0.013111826032400131,-0.01824919693171978,-0.36323872208595276,-0.463565468788147,-0.5621839761734009,-0.659125030040741
0.13333333333333333,0.05855557695031166,0.08472553640604019,0.0,0.9960784912109375,0.0,0.0,-0.08847389370203018,0.1671958714723587,1.1925257444381714,0.0,0.0,0.0,-6.812127590179443,-0.4372047185897827,0.7207632660865784,0.4200000464916229,0.9999999403953552,3.5505179312167456e-06,-2.2298092972050654e-06,2.9291240366546845e-07,0.0002670329704415053,0.0002677935699466616,-0.00010416889563202858,-0.0017439755611121655,0.004213570151478052,-0.00012800609692931175,-0.2374899685382843,0.27212584018707275,1.2155210971832275,-1.9226075410842896,3.4781670570373535,-1.4733307361602783,0.41310471296310425,0.7436961531639099,0.42000001668930054,-1.1830337047576904,2.6296253204345703,-0.22717392444610596,3.000000238418579,-0.007857666350901127,-0.014565831050276756,-0.02140943706035614,-0.028395915403962135,-0.2692902088165283,-0.38612672686576843,-0.4977865517139435,-0.6041458249092102
0.15,0.06810292601585388,0.10026558488607407,0.0,0.992731511592865,0.0,0.0,-0.12035022675991058,0.7154905200004578,0.8333253264427185,0.0,0.0,0.0,-2.869424819946289,-0.4372047185897827,0.7207632064819336,0.4200000464916229,0.9999999403953552,3.3381122648279415e-06,-2.2428905595006654e-06,-2.803136034401632e-08,0.0002667456865310669,0.0002675803261809051,-0.00010427623055875301,-0.0017366986721754074,0.004206871148198843,-0.00012831554340664297,-0.2749362885951996,0.32493990659713745,1.1886687278747559,-2.238241195678711,3.3087611198425293,-1.8171403408050537,0.41310471296310425,0.7436961531639099,0.42000001668930054,-1.1498687267303467,1.4300198554992676,-0.2584073841571808,-2.9999990463256836,-0.008059720508754253,-0.016938142478466034,-0.025842219591140747,-0.034776318818330765,0.0027798768132925034,-0.11420132219791412,-0.22499488294124603,-0.3294781744480133
0.16666666666666666,0.07558239251375198,0.11248879134654999,0.0,0.9866428375244141,0.0,0.0,-0.1628984808921814,0.2896428108215332,0.7331017255783081,0.0,0.0,0.0,-6.00596284866333,-0.4372047185897827,0.7207632660865784,0.4200000464916229,0.9999999403953552,3.647830908448668e-06,-2.307289605596452e-06,3.526602299075421e-08,0.0002672695554792881,0.0002680134493857622,-0.0001041879877448082,-0.0017471626633778214,0.004217641893774271,-0.00012799118121620268,-0.3110269606113434,0.38516873121261597,1.1530160903930664,-1.9691739082336426,3.949542999267578,-2.4658851623535156,0.41310471296310425,0.7436961531639099,0.42000001668930054,-1.104746699333191,2.9999923706054688,-0.22430874407291412,3.000000238418579,-0.013519896194338799,-0.023576870560646057,-0.03358989953994751,-0.04356596991419792,-0.6010038256645203,-0.6301291584968567,-0.6570472717285156,-0.6821111440658569
0.18333333333333332,0.0761752724647522,0.1288686841726303,0.0,0.9821049571037292,0.0,0.0,-0.18833453953266144,0.052283626049757004,0.8423212170600891,0.0,0.0,0.0,-1.8169102668762207,-0.4372047185897827,0.7207632064819336,0.4200000464916229,0.9999999403953552,3.290551603640779e-06,-2.1939342786936322e-06,-2.7924167511628184e-07,0.0002667796507012099,0.00026776036247611046,-0.00010434072464704514,-0.001739065395668149,0.004206969402730465,-0.00012845818127971143,-0.3451727628707886,0.44729170203208923,1.102970838546753,-2.006134271621704,3.867671489715576,-3.2630388736724854,0.41310471296310425,0.7436961531639099,0.42000001668930054,-1.065613031387329,1.7659282684326172,-0.25555986166000366,-3.000000238418579,-0.02788829803466797,-0.03794105350971222,-0.04791465401649475,-0.0575726144015789,-0.6203302145004272,-0.6745802164077759,-0.7228034734725952,-0.7313857674598694
0.2,0.08167751878499985,0.14295534789562225,0.0,0.9741030931472778,0.0,0.0,-0.22610439360141754,0.5253247618675232,0.8683676719665527,0.0,0.0,0.0,-5.605407238006592,-0.4372047185897827,0.7207632064819336,0.4200000464916229,1.0,3.2807351999508683e-06,-2.219225052613183e-06,1.594732026433121e-07,0.00026627970510162413,0.00026740136672742665,-0.0001042510848492384,-0.001735763973556459,0.004197762347757816,-0.0001286511542275548,-0.3781014680862427,0.5140188932418823,1.0417051315307617,-1.7904856204986572,4.123377799987793,-4.06381368637085,0.41310471296310425,0.7436961531639099,0.42000001668930054,-1.0187702178955078,3.0000007152557373,-0.305586576461792,-3.0000007152557373,-0.037113260477781296,-0.04778359830379486,-0.058291953057050705,-0.06794747710227966,-0.5109695792198181,-0.5314591526985168,-0.5479203462600708,-0.5386583209037781
0.21666666666666667,0.0845881998538971,0.1540193408727646,0.0,0.9693055748939514,0.0,0.0,-0.2458590716123581,0.0861385390162468,0.6030752062797546,0.0,0.0,0.0,-1.2985893487930298,-0.4372047185897827,0.7207632660865784,0.4200000464916229,1.0,3.613135277191759e-06,-2.2701503894495545e-06,2.2101289687270764e-07,0.0002671263355296105,0.0002678169112186879,-0.00010414118878543377,-0.0017444867407903075,0.0042151641100645065,-0.00012786478328052908,-0.40855687856674194,0.5749050378799438,0.9642474055290222,-1.5496442317962646,3.552577018737793,-5.102977275848389,0.41310471296310425,0.7436961531639099,0.42000001668930054,-0.9687659740447998,3.0000014305114746,-0.35561394691467285,-3.0000016689300537,-0.0510995052754879,-0.06161288917064667,-0.07186416536569595,-0.08056068420410156,-0.8838459253311157,-0.8844718933105469,-0.8851045370101929,-0.8280743956565857
0.23333333333333334,0.08295261859893799,0.1656276136636734,0.0,0.9610110521316528,0.0,0.0,-0.2765098810195923,-0.1724802404642105,0.7433480024337769,0.0,0.0,0.0,-4.6610307693481445,-0.4372047185897827,0.7207632064819336,0.4200000464916229,1.0,3.3818234896898502e-06,-2.290981683472637e-06,2.728025378928578e-07,0.0002669123059604317,0.0002677978773135692,-0.00010433210991322994,-0.0017395822796970606,0.004209768958389759,-0.00012843773583881557,-0.43288907408714294,0.6311773061752319,0.8730765581130981,-1.1941419839859009,3.1707839965820312,-5.7457380294799805,0.41310471296310425,0.7436961531639099,0.42000001668930054,-0.9187557697296143,3.0000007152557373,-0.4056438207626343,-3.0000014305114746,-0.067467600107193,-0.07795163989067078,-0.08815217018127441,-0.09625127166509628,-0.9888346791267395,-0.9910226464271545,-0.9842628240585327,-0.9757593274116516
0.25,0.08522693067789078,0.17322973906993866,0.0,0.9571870565414429,0.0,0.0,-0.2894700765609741,0.1711060106754303,0.36126944422721863,0.0,0.0,0.0,-0.5213137269020081,-0.4372046887874603,0.7207632064819336,0.4200000464916229,0.9999999403953552,3.706510142365005e-06,-2.2230249214771902e-06,-2.254949436064635e-07,0.00026424831594340503,0.00026656725094653666,-0.00010457634925842285,-0.001716952072456479,0.004155570175498724,-0.00013063338701613247,-0.45294293761253357,0.6745542287826538,0.7735784649848938,-0.9135698080062866,2.1640546321868896,-6.213843822479248,0.41310471296310425,0.7436961531639099,0.42000001668930054,-0.8687450885772705,2.9999985694885254,-0.45567500591278076,-3.0000009536743164,-0.08266571909189224,-0.09306558966636658,-0.1030573695898056,-0.11052118986845016,-0.989855170249939,-0.9912962913513184,-0.9822536110877991,-0.9190938472747803
0.26666666666666666,0.0830240324139595,0.17760461568832397,0.0,0.9492175579071045,0.0,0.0,-0.3146204650402069,-0.23389583826065063,0.20803309977054596,0.0,0.0,0.0,-4.043294429779053,-0.4372047185897827,0.7207632064819336,0.4200000464916229,0.9999999403953552,3.7196562061581062e-06,-2.4035145997913787e-06,-1.8307397908756684e-07,0.00026623206213116646,0.00026729085948318243,-0.00010425853542983532,-0.0017326372908428311,0.004196509253233671,-0.0001285135222133249,-0.4620727300643921,0.7018905282020569,0.6663210391998291,-0.10159581154584885,1.146720051765442,-6.437349319458008,0.41310471296310425,0.7436961531639099,0.42000001668930054,-0.8187350630760193,3.0000011920928955,-0.5057066082954407,-3.000000238418579,-0.10013101994991302,-0.11029833555221558,-0.12011760473251343,-0.1274525374174118,-1.0033655166625977,-1.0025255680084229,-1.0018879175186157,-1.0013799667358398
0.2833333333333333,0.0778278186917305,0.17903737723827362,0.0,0.9469227194786072,0.0,0.0,-0.3214612603187561,-0.30534470081329346,0.022139400243759155,0.0,0.0,0.0,0.13422289490699768,-0.4372047185897827,0.7207632660865784,0.4200000464916229,0.9999999403953552,3.584109208532027e-06,-2.315508709216374e-06,7.404404556154986e-08,0.0002652198018040508,0.0002645530621521175,-0.00010317005217075348,-0.001702171633951366,0.004185137338936329,-0.0001249976339749992,-0.4615100026130676,0.7126221656799316,0.5639644861221313,0.23158907890319824,0.3166200518608093,-5.925592422485352,0.41310471296310425,0.7436961531639099,0.42000001668930054,-0.7687262892723083,2.999995708465576,-0.5557368993759155,-3.0000007152557373,-0.11682333052158356,-0.12689103186130524,-0.13663963973522186,-0.1439179927110672,-0.9354985952377319,-0.9456919431686401,-0.9556758403778076,-0.963553249835968
0.3,0.07075875252485275,0.1776343137025833,0.0,0.9403268098831177,0.0,0.0,-0.3402726650238037,-0.47200167179107666,-0.1293354332447052,0.0,0.0,0.0,-3.2433581352233887,-0.4372047185897827,0.7207632064819336,0.4200000464916229,1.0,3.724297130247578e-06,-2.271929133712547e-06,9.635297004706445e-08,0.0002631272072903812,0.00026525818975642323,-0.00010438100434839725,-0.0016960492357611656,0.004134910646826029,-0.00013027878594584763,-0.45271027088165283,0.7190931439399719,0.46654731035232544,0.8721654415130615,0.32076364755630493,-5.530301094055176,0.41310471296310425,0.7436961531639099,0.42000001668930054,-0.7187178730964661,2.9999990463256836,-0.6057655811309814,-3.000001907348633,-0.1342143416404724,-0.14413022994995117,-0.15376423299312592,-0.16095168888568878,-1.0162659883499146,-1.012318730354309,-1.0092988014221191,-1.0068732500076294
0.31666666666666665,0.06155632063746452,0.17381486296653748,0.0,0.9397754669189453,0.0,0.0,-0.341792494058609,-0.5852863192558289,-0.2710197865962982,0.0,0.0,0.0,0.7366971373558044,-0.4372047185897827,0.7207632064819336,0.4200000464916229,1.0,3.6662925140262814e-06,-2.392535634498927e-06,1.6798198032574874e-07,0.0002660211466718465,0.0002670691173989326,-0.00010418705642223358,-0.0017310786060988903,0.004193502478301525,-0.0001284959726035595,-0.445182204246521,0.7228389978408813,0.4297337234020233,0.08016902208328247,-0.07946677505970001,-0.18646720051765442,0.41310471296310425,0.7436961531639099,0.42000001668930054,-0.66873699426651,2.996628999710083,-0.6562259197235107,-3.0021631717681885,-0.14215821027755737,-0.15293917059898376,-0.16319258511066437,-0.17070196568965912,-0.10539571195840836,-0.17071150243282318,-0.2112196534872055,-0.2248571366071701
0.3333333333333333,0.05011242255568504,0.167655810713768,0.0,0.9341352581977844,0.0,0.0,-0.35691916942596436,-0.7358337044715881,-0.4108903110027313,0.0,0.0,0.0,-2.836019277572632,-0.4372047185897827,0.7207632064819336,0.4200000464916229,0.9999999403953552,3.6323992844700115e-06,-2.260915834995103e-06,3.6166284189675935e-07,0.0002685872605070472,0.0002658760058693588,-0.00010377797298133373,-0.0017031331080943346,0.0042538694106042385,-0.00012335095379967242,-0.4455889165401459,0.7236759662628174,0.42715874314308167,0.0651874989271164,0.005371801555156708,-0.2075543850660324,0.41310471296310425,0.7436961531639099,0.42000001668930054,-0.6187305450439453,3.0000007152557373,-0.7062792778015137,-2.9995224475860596,-0.1452031284570694,-0.15644586086273193,-0.16678950190544128,-0.17407701909542084,-0.2634918689727783,-0.2525174915790558,-0.22397927939891815,-0.18624435365200043
0.35,0.036501526832580566,0.159136563539505,0.0,0.9343752264976501,0.0,0.0,-0.3562905490398407,-0.8535895347595215,-0.5520585775375366,0.0,0.0,0.0,1.0243713855743408,-0.4355418086051941,0.7237564921379089,0.4200008809566498,0.9994009733200073,6.177159775688779e-06,-2.280930129927583e-05,-0.03460530936717987,0.19135166704654694,0.32016289234161377,-0.0007253901567310095,0.010311068035662174,0.02735200710594654,-7.389509677886963,-0.4432307779788971,0.7270641326904297,0.4238744378089905,0.21237191557884216,0.3606452941894531,-0.16515769064426422,0.41310471296310425,0.7436961531639099,0.42000001668930054,-0.5687254071235657,2.9999876022338867,-0.7563172578811646,-3.000000476837158,-0.15113165974617004,-0.16144801676273346,-0.17058932781219482,-0.176607146859169,-0.37786635756492615,-0.29739996790885925,-0.2014504224061966,-0.10539483278989792
0.36666666666666664,0.026530899107456207,0.14779430627822876,0.0,0.929449200630188,0.0,0.0,-0.36895009875297546,-0.5667678713798523,-0.717034637928009,0.0,0.0,0.0,-2.4646737575531006,-0.43235933780670166,0.7289352416992188,0.42000049352645874,0.9958736300468445,-1.3633155504066963e-05,1.592616899870336e-05,-0.09074998646974564,0.23262424767017365,0.35740211606025696,-0.0005556253017857671,0.02207796275615692,-0.011092839762568474,-7.99790620803833,-0.438248872756958,0.7323839068412781,0.4218066334724426,0.41730743646621704,0.35888537764549255,-0.10331142693758011,0.41310471296310425,0.7436961531639099,0.42000001668930054,-0.5187206864356995,2.9999842643737793,-0.8063721656799316,-2.999985933303833,-0.15782323479652405,-0.16626018285751343,-0.17324097454547882,-0.17711549997329712,-0.48851853609085083,-0.33710595965385437,-0.17021703720092773,-0.008018329739570618
0.3833333333333333,0.013263729400932789,0.13498514890670776,0.0,0.9131660461425781,0.0,0.0,-0.4075877070426941,-0.8794915080070496,-0.7946787476539612,0.0,0.0,0.0,-6.051732540130615,-0.42560240626335144,0.7384393811225891,0.42014217376708984,0.9883373975753784,0.003527061315253377,-0.00039961872971616685,-0.15223821997642517,0.6587786674499512,0.8800275325775146,0.05674971267580986,2.758692502975464,-0.7231734395027161,-2.7219762802124023,-0.42850494384765625,0.7412701845169067,0.4214842915534973,0.7531454563140869,0.779862642288208,0.047010283917188644,0.41310471296310425,0.7436961531639099,0.42000001668930054,-0.4687165319919586,2.9999852180480957,-0.8564239144325256,-2.9999899864196777,-0.16839642822742462,-0.17366690933704376,-0.1772107183933258,-0.17774119973182678,-0.6181198954582214,-0.422687292098999,-0.21024158596992493,-0.0029937957879155874
0.4,0.0032444039825350046,0.11932552605867386,0.0,0.8825759887695312,0.0,0.0,-0.4701697826385498,-0.5561613440513611,-0.9788591265678406,0.0,0.0,0.0,-9.040356636047363,-0.40396231412887573,0.7635282874107361,0.42183318734169006,0.9796175956726074,0.0037333862856030464,-0.03417845815420151,-0.1979067027568817,3.035888433456421,1.7236528396606445,0.28961217403411865,-5.861912250518799,-8.156821250915527,-1.0388013124465942,-0.40317654609680176,0.763526439666748,0.42325928807258606,2.3563365936279297,1.9219517707824707,0.20971746742725372,0.41310471296310425,0.7436961531639099,0.42000001668930054,-0.41872069239616394,2.961592435836792,-0.9064622521400452,-3.0000030994415283,-0.17807863652706146,-0.17973512411117554,-0.17937129735946655,-0.17608153820037842,-0.6941131353378296,-0.4286319613456726,-0.14892198145389557,0.12104687094688416
0.4166666666666667,-0.0038114022463560104,0.10806360840797424,0.0,0.8361702561378479,0.0,0.0,-0.5484699606895447,-0.33960869908332825,-0.6776736974716187,0.0,0.0,0.0,-11.635035514831543,-0.3398579955101013,0.80357825756073,0.42662033438682556,0.963991105556488,0.04731268808245659,-0.06712475419044495,-0.25293654203414917,5.0928850173950195,2.7557637691497803,0.16443932056427002,31.257253646850586,-20.636260986328125,7.811856269836426,-0.3393835723400116,0.8041335940361023,0.427950382232666,4.909755706787109,3.0599184036254883,0.44600847363471985,0.41310471296310425,0.7436961531639099,0.42000001668930054,-0.38293901085853577,1.1791826486587524,-0.8690698742866516,2.9939441680908203,-0.19198545813560486,-0.19046734273433685,-0.1847974956035614,-0.17656220495700836,-0.5593672394752502,-0.5433195233345032,-0.2773113548755646,-0.0331917479634285
0.43333333333333335,-0.0068550268188118935,0.09936215728521347,0.0,0.7930992245674133,0.0,0.0,-0.6090924143791199,-0.12830868363380432,-0.46080338954925537,0.0,0.0,0.0,-7.434791564941406,-0.25594234466552734,0.8538362979888916,0.43512460589408875,0.9349555373191833,0.12584562599658966,-0.1115913912653923,-0.312359094619751,5.53098726272583,2.3960609436035156,0.5308433771133423,23.254961013793945,-14.459710121154785,8.979125022888184,-0.2558479905128479,0.8551781177520752,0.43642204999923706,5.2286505699157715,2.8544998168945312,0.6526153087615967,0.41310471296310425,0.7436961531639099,0.42000001668930054,-0.3668662905693054,0.9257556796073914,-0.8192055821418762,2.9925405979156494,-0.2017916887998581,-0.1996953785419464,-0.1902826726436615,-0.17878475785255432,-0.570258617401123,-0.5169722437858582,-0.3204647898674011,-0.15690168738365173
0.45,-0.011853598989546299,0.09044598042964935,0.0,0.7701586484909058,0.0,0.0,-0.6378523707389832,-0.291578471660614,-0.5482819676399231,0.0,0.0,0.0,-3.1510679721832275,-0.16314777731895447,0.8936563730239868,0.4484338164329529,0.8763197064399719,0.1533961296081543,-0.12643678486347198,-0.43880191445350647,5.92557954788208,1.3031096458435059,0.7448747754096985,-0.7168608903884888,-18.684118270874023,11.380980491638184,-0.16480287909507751,0.8948221206665039,0.4482760727405548,5.8542070388793945,1.9089975357055664,0.9376864433288574,0.41310471296310425,0.7436961531639099,0.42000001668930054,-0.3502277433872223,0.9997671842575073,-0.845510721206665,-3.0000030994415283,-0.21373656392097473,-0.2091878056526184,-0.19564804434776306,-0.18065650761127472,-0.8387836217880249,-0.6240555644035339,-0.34280380606651306,-0.1004432886838913
0.4666666666666667,-0.014380021020770073,0.08252900093793869,0.0,0.7409000992774963,0.0,0.0,-0.6716152429580688,-0.09627500176429749,-0.4043768346309662,0.0,0.0,0.0,-6.240115642547607,-0.06635843962430954,0.9118479490280151,0.4593563973903656,0.8411908745765686,0.14435745775699615,-0.1381453573703766,-0.5024685263633728,6.077107906341553,0.11428294330835342,0.4680851995944977,-2.2543201446533203,-23.35902976989746,3.568793773651123,-0.06724569201469421,0.9147231578826904,0.46005499362945557,5.918271541595459,0.549748420715332,0.7381783723831177,0.41310471296310425,0.7436961531639099,0.42000001668930054,-0.33255213499069214,1.0582855939865112,-0.8955351710319519,-3.000004529953003,-0.2277597039937973,-0.2191092073917389,-0.20073379576206207,-0.1814262866973877,-0.75588059425354,-0.4992963671684265,-0.2184990644454956,0.03845246508717537
0.48333333333333334,-0.013842403888702393,0.07436759769916534,0.0,0.7245673537254333,0.0,0.0,-0.6892039775848389,0.11492480337619781,-0.5903822779655457,0.0,0.0,0.0,-1.7175805568695068,0.032349843531847,0.9133242964744568,0.4672752320766449,0.7605108618736267,0.09992959350347519,-0.18319520354270935,-0.6148794889450073,5.575051307678223,-1.2864152193069458,0.5634430646896362,-0.5453540086746216,-8.69890022277832,32.30972671508789,0.02970447763800621,0.9172276258468628,0.46979665756225586,5.918932914733887,-0.29808396100997925,0.5497070550918579,0.41310471296310425,0.7436961531639099,0.42000001668930054,-0.3147546648979187,0.8296791911125183,-0.9455599188804626,-3.000002384185791,-0.23999285697937012,-0.22765260934829712,-0.20474611222743988,-0.18147379159927368,-0.013668023981153965,-0.5719394087791443,-0.32187315821647644,-0.11071106791496277
0.5,-0.014175796881318092,0.06845768541097641,0.0,0.7006107568740845,0.0,0.0,-0.7135436534881592,-0.07050644606351852,-0.2886449694633484,0.0,0.0,0.0,-4.963805198669434,0.12197516858577728,0.9000341892242432,0.47170504927635193,0.7202886343002319,0.07718472182750702,-0.17324532568454742,-0.667242705821991,4.82358455657959,-1.742099642753601,0.20922403037548065,0.8974133729934692,-2.821622610092163,18.085121154785156,0.12006781995296478,0.9040300846099854,0.47459903359413147,5.189256191253662,-1.2185393571853638,0.15545403957366943,0.41310471296310425,0.7436961531639099,0.42000001668930054,-0.30368706583976746,0.5854487419128418,-0.9955839514732361,-3.0,-0.24001444876194,-0.23669713735580444,-0.21024952828884125,-0.18398916721343994,-0.027717439457774162,-0.406447172164917,-0.24034497141838074,-0.10246141999959946
0.5166666666666666,-0.013162215240299702,0.0662480890750885,0.0,0.6910333037376404,0.0,0.0,-0.722822904586792,0.09790991991758347,-0.06727563589811325,0.0,0.0,0.0,-0.5222969651222229,0.200504332780838,0.8760340809822083,0.4699934422969818,0.6672145128250122,0.041630636900663376,-0.1586165577173233,-0.7265895009040833,4.154484748840332,-2.0264103412628174,-0.2936464250087738,-2.819756269454956,0.834682047367096,5.487029552459717,0.1986083984375,0.8796583414077759,0.4730505049228668,4.390060901641846,-1.739381194114685,-0.23599444329738617,0.41310471296310425,0.7436961531639099,0.42000001668930054,-0.290224552154541,0.9337213635444641,-1.0456066131591797,-2.999999761581421,-0.23994053900241852,-0.23994489014148712,-0.21385860443115234,-0.18606328964233398,-0.007120119407773018,-0.005635284353047609,-0.1390010416507721,-0.09747117012739182
0.5333333333333333,-0.008698857389390469,0.05892814323306084,0.0,0.6716335415840149,0.0,0.0,-0.740883469581604,0.25822022557258606,-0.4257320761680603,0.0,0.0,0.0,-3.9708409309387207,0.2681187093257904,0.8485853672027588,0.46006444096565247,0.6400154232978821,-0.0021492501255124807,-0.1502542644739151,-0.7535244822502136,3.41405987739563,-2.437180519104004,-0.7445146441459656,-10.487518310546875,-2.348783016204834,20.49653434753418,0.2673726975917816,0.8522467613220215,0.46416735649108887,3.8401479721069336,-1.8016347885131836,-0.6383360624313354,0.41310471296310425,0.7436961531639099,0.42000001668930054,-0.27295157313346863,0.8308521509170532,-1.0956287384033203,-3.0000014305114746,-0.23363752663135529,-0.23429399728775024,-0.21163000166416168,-0.18478184938430786,0.2595749497413635,0.28301095962524414,0.10583968460559845,0.03990962356328964
0.55,-0.0028281481936573982,0.05687278136610985,0.0,0.6656615138053894,0.0,0.0,-0.7462537884712219,0.3789113163948059,-0.035469900816679,0.0,0.0,0.0,0.010879703797399998,0.32401859760284424,0.8163352608680725,0.4470345079898834,0.6216968297958374,-0.007455857936292887,-0.10235831141471863,-0.7765051126480103,2.8488922119140625,-2.332530975341797,-1.0148727893829346,-6.098118305206299,7.712216377258301,3.086409330368042,0.32416075468063354,0.8190351724624634,0.4495534300804138,3.084681749343872,-2.055488109588623,-0.9310005903244019,0.41310471296310425,0.7436961531639099,0.42000001668930054,-0.2603916525840759,0.730963945388794,-1.145650863647461,-3.0000007152557373,-0.23185685276985168,-0.23131628334522247,-0.21119825541973114,-0.1856120526790619,0.1478218138217926,0.22087904810905457,0.056471727788448334,-0.05507209897041321
0.5666666666666667,0.005729882512241602,0.05164790153503418,0.0,0.6497635841369629,0.0,0.0,-0.7601363658905029,0.5794883966445923,-0.32608944177627563,0.0,0.0,0.0,-3.245814561843872,0.3718748688697815,0.7856793403625488,0.4235612750053406,0.5555515289306641,-0.11301540583372116,-0.14885632693767548,-0.8102046847343445,2.210568904876709,-2.2967798709869385,-1.6871637105941772,-35.79063034057617,16.87320327758789,-1.4618738889694214,0.370614230632782,0.7896803617477417,0.43004411458969116,2.4448413848876953,-1.719824194908142,-1.1643645763397217,0.41310471296310425,0.7436961531639099,0.42000001668930054,-0.24971535801887512,0.3924778401851654,-1.1956729888916016,-2.9999806880950928,-0.22383281588554382,-0.22339683771133423,-0.20729903876781464,-0.18505029380321503,0.3139556646347046,0.3453127443790436,0.1355951726436615,-0.05806262791156769
0.5833333333333334,0.012260888703167439,0.048937443643808365,0.0,0.64815753698349,0.0,0.0,-0.7615062594413757,0.32203903794288635,-0.09946755319833755,0.0,0.0,0.0,0.6189534068107605,0.4001427888870239,0.7680044174194336,0.422139972448349,0.5515481233596802,-0.01148607674986124,-0.03712912276387215,-0.8332371115684509,1.3101009130477905,-1.0100680589675903,-0.03615119308233261,3.3064348697662354,-3.9392342567443848,-10.199796676635742,0.39702439308166504,0.7679939270019531,0.42503994703292847,1.1105709075927734,-0.9906917810440063,0.10175704956054688,0.41310471296310425,0.7436961531639099,0.42000001668930054,-0.23958417773246765,1.02488112449646,-1.2457242012023926,-2.9999492168426514,-0.21804696321487427,-0.21740922331809998,-0.20489826798439026,-0.18610845506191254,0.3768739402294159,0.3734690248966217,0.15201109647750854,-0.07315537333488464
0.6,0.019120149314403534,0.048296861350536346,0.0,0.6359825134277344,0.0,0.0,-0.7717034816741943,0.4542296826839447,0.04898076876997948,0.0,0.0,0.0,-2.7788686752319336,0.4160807132720947,0.7569071650505066,0.42070630192756653,0.5207158327102661,0.009018095210194588,-0.011640765704214573,-0.8536030054092407,0.3661479651927948,-0.9398080110549927,0.2130875289440155,-6.472544193267822,-11.885176658630371,23.25052261352539,0.41188642382621765,0.7565840482711792,0.4236159324645996,0.4933716058731079,-0.35925886034965515,0.18996234238147736,0.41310471296310425,0.7436961531639099,0.42000001668930054,-0.2178339809179306,1.0987300872802734,-1.2079633474349976,2.9700357913970947,-0.20953629910945892,-0.2098260372877121,-0.20155926048755646,-0.1871277093887329,0.521316409111023,0.4593971371650696,0.21401825547218323,-0.0447501540184021
0.6166666666666667,0.02332816645503044,0.04479208216071129,0.0,0.636440098285675,0.0,0.0,-0.7713261246681213,0.1684708297252655,-0.24219129979610443,0.0,0.0,0.0,0.9091910719871521,0.4225112497806549,0.7496148347854614,0.4203594923019409,0.5472655296325684,-2.0957895685569383e-05,0.006389949005097151,-0.8369345664978027,0.28775155544281006,-0.4357987642288208,-0.007068517152220011,-0.6760616302490234,1.0904827117919922,-0.41819238662719727,0.4167763590812683,0.7476903200149536,0.4246757924556732,0.040278203785419464,-0.5431687235832214,0.12684515118598938,0.41310471296310425,0.7436961531639099,0.42000001668930054,-0.24687035381793976,-2.9999964237213135,-1.229518175125122,-2.9996378421783447,-0.20050449669361115,-0.20142436027526855,-0.19665969908237457,-0.1861611008644104,0.4232255816459656,0.4210767447948456,0.2580586373806,0.05843770131468773
0.6333333333333333,0.028649885207414627,0.04584679752588272,0.0,0.6254895925521851,0.0,0.0,-0.7802324891090393,0.34589913487434387,0.05917856842279434,0.0,0.0,0.0,-2.471069574356079,0.4235689640045166,0.7432082295417786,0.4200000762939453,0.5660890936851501,-1.0786603752421797e-06,2.9702230222028447e-06,-0.8243440389633179,-0.004810719285160303,-0.3374125361442566,-9.372300701215863e-05,-0.0005259062745608389,-0.004647544585168362,2.6733429431915283,0.4180878698825836,0.7436497211456299,0.426754891872406,0.17518159747123718,-0.03539631515741348,0.14454056322574615,0.41310471296310425,0.7436961531639099,0.42000001668930054,-0.27933183312416077,-1.019917368888855,-1.2794729471206665,-2.9990322589874268,-0.19531844556331635,-0.1963626891374588,-0.19406035542488098,-0.18664400279521942,0.5367385745048523,0.46338126063346863,0.27316492795944214,0.05198175460100174
0.65,0.03564511612057686,0.042273469269275665,0.0,0.6278753280639648,0.0,0.0,-0.778313934803009,0.45386090874671936,-0.21622295677661896,0.0,0.0,0.0,1.2226173877716064,0.4231403172016144,0.738954484462738,0.42000043392181396,0.5757091641426086,-1.5556752259726636e-05,-1.3998173017171212e-05,-0.8176544308662415,-0.11749096214771271,-0.14506950974464417,-0.0008763929945416749,0.02960178814828396,-0.01934640482068062,1.0362552404403687,0.417876660823822,0.7435502409934998,0.42936956882476807,-0.1759699583053589,-0.05417833477258682,0.16666999459266663,0.41310471296310425,0.7436961531639099,0.42000001668930054,-0.32421013712882996,-2.9978225231170654,-1.3294665813446045,-2.9999747276306152,-0.18491443991661072,-0.187174454331398,-0.18780195713043213,-0.18389955163002014,0.4381592571735382,0.41260817646980286,0.29368188977241516,0.131637841463089
0.6666666666666666,0.045237574726343155,0.04281526803970337,0.0,0.6403430700302124,0.0,0.0,-0.7680890560150146,0.5931349992752075,0.04967067390680313,0.0,0.0,0.0,2.271172046661377,0.42181041836738586,0.737333357334137,0.42000001668930054,0.5804098844528198,-4.150079348619329e-06,-2.572477058038203e-07,-0.8143244981765747,-0.06643053144216537,-0.08138474822044373,-0.00015067076310515404,0.0016419811872765422,-0.005047799088060856,0.6247175335884094,0.41593658924102783,0.7430273294448853,0.4325959086418152,-0.06736595928668976,0.041958924382925034,0.22501185536384583,0.41310471296310425,0.7436961531639099,0.42000001668930054,-0.3742215931415558,-2.999986410140991,-1.3794392347335815,-2.999711513519287,-0.18006238341331482,-0.18231037259101868,-0.18414905667304993,-0.18211272358894348,0.35528916120529175,0.3463543951511383,0.28292152285575867,0.1861768215894699
0.6833333333333333,0.05631336197257042,0.039624400436878204,0.0,0.6370248198509216,0.0,0.0,-0.7708433270454407,0.6948295831680298,-0.19857795536518097,0.0,0.0,0.0,-1.4990434646606445,0.42132237553596497,0.7367504239082336,0.42000001668930054,0.5825865268707275,-1.7357153865305008e-06,-6.580005447176518e-07,-0.8127686381340027,-0.01554342731833458,-0.018205123022198677,-6.52986200293526e-05,0.0021683534141629934,-0.0014274574350565672,0.17702947556972504,0.4154031574726105,0.7447845339775085,0.43697452545166016,-0.06065575033426285,-0.006464842706918716,0.2903595268726349,0.41310471296310425,0.7436961531639099,0.42000001668930054,-0.4242258071899414,-2.999819040298462,-1.4294430017471313,-2.999912977218628,-0.17275509238243103,-0.17510610818862915,-0.17764812707901,-0.17675556242465973,0.26573124527931213,0.3142360746860504,0.3378230333328247,0.33474236726760864
0.7,0.06916339695453644,0.03363421559333801,0.0,0.611896276473999,0.0,0.0,-0.7909380197525024,0.8089847564697266,-0.42670026421546936,0.0,0.0,0.0,-4.765585899353027,0.4213222861289978,0.7367504239082336,0.4200000464916229,0.5825867056846619,-3.2563215768277587e-07,-3.388716152130655e-07,-0.8127684593200684,-8.659517334308475e-05,-1.1399501090636477e-05,-1.1310679838061333e-05,-0.0019058948382735252,-0.003401688300073147,-6.697999924654141e-05,0.4178222417831421,0.7454050779342651,0.4496873617172241,0.38860732316970825,0.05789140611886978,1.3372596502304077,0.41310471296310425,0.7436961531639099,0.42000001668930054,-0.4742390811443329,-2.9999563694000244,-1.4794611930847168,-2.9999983310699463,-0.17093907296657562,-0.17221194505691528,-0.17392966151237488,-0.17264120280742645,0.026872558519244194,0.09892670065164566,0.16365042328834534,0.2036961317062378
0.7166666666666667,0.08506599068641663,0.03165868669748306,0.0,0.5999518036842346,0.0,0.0,-0.8000361323356628,0.9487053155899048,-0.11291865259408951,0.0,0.0,0.0,-0.7653660774230957,0.42132219672203064,0.7367507219314575,0.41999998688697815,0.5825868844985962,-2.982552359753754e-06,-4.28424755227752e-06,-0.8127683997154236,2.0598203263944015e-05,-0.000352046568877995,-9.861658327281475e-05,0.008632761426270008,-0.003143484005704522,-0.0006356509984470904,0.4259299635887146,0.7489361763000488,0.4788283109664917,0.6547591686248779,0.4327615201473236,2.0938329696655273,0.41310471296310425,0.7436961531639099,0.42000001668930054,-0.5242440700531006,-2.9999947547912598,-1.5294795036315918,-3.000000238418579,-0.17389990389347076,-0.17388932406902313,-0.17434220016002655,-0.17219005525112152,-0.020068492740392685,-0.010285339318215847,0.010084222070872784,0.015246243216097355
0.7333333333333333,0.09730955213308334,0.03154555335640907,0.0,0.6130993366241455,0.0,0.0,-0.7900058031082153,0.6557251214981079,0.03734618052840233,0.0,0.0,0.0,2.853400230407715,0.42132219672203064,0.7367507219314575,0.41999998688697815,0.5825867652893066,-3.0330991194205126e-06,-4.29354258812964e-06,-0.8127685189247131,2.1203686628723517e-05,-0.0003526218351908028,-9.876466356217861e-05,0.008641875348985195,-0.003133032936602831,-0.0006375592201948166,0.4393983483314514,0.7551602721214294,0.5070314407348633,0.8346222043037415,0.32448625564575195,1.3670635223388672,0.41310471296310425,0.7436961531639099,0.42000001668930054,-0.5498552918434143,-0.2894754111766815,-1.5794978141784668,-3.000000476837158,-0.17297470569610596,-0.17282187938690186,-0.17288656532764435,-0.17058627307415009,0.11242097616195679,0.12492693215608597,0.15330876410007477,0.16615226864814758
0.75,0.10479768365621567,0.02732665464282036,0.0,0.6132836937904358,0.0,0.0,-0.7898626923561096,0.4057497978210449,-0.2960207462310791,0.0,0.0,0.0,-1.0099530220031738,0.42132219672203064,0.7367507219314575,0.41999998688697815,0.5825865864753723,-2.99880434795341e-06,-4.360878847364802e-06,-0.8127686381340027,2.077278077194933e-05,-0.0003525111824274063,-9.889109060168266e-05,0.008637509308755398,-0.003135259496048093,-0.0006365171284414828,0.4504190981388092,0.7585395574569702,0.5225830674171448,0.4722786545753479,0.0012117847800254822,0.6683192253112793,0.41310471296310425,0.7436961531639099,0.42000001668930054,-0.5841525793075562,-3.0000011920928955,-1.5405431985855103,2.9999985694885254,-0.16879627108573914,-0.16855134069919586,-0.16828738152980804,-0.16595812141895294,0.14901025593280792,0.18873809278011322,0.23787832260131836,0.2629829943180084
0.7666666666666666,0.1147126629948616,0.028233865275979042,0.0,0.6251152753829956,0.0,0.0,-0.7805324196815491,0.5382593274116516,0.0991547703742981,0.0,0.0,0.0,2.6051430702209473,0.42132219672203064,0.7367507219314575,0.41999998688697815,0.5825867652893066,-2.931631343017216e-06,-4.188955699646613e-06,-0.8127684593200684,2.307080285390839e-05,-0.0003533927374519408,-9.805010631680489e-05,0.008675799705088139,-0.003123388858512044,-0.0006420655990950763,0.45733341574668884,0.7575876116752625,0.5340534448623657,0.3949577808380127,0.08332572132349014,0.7228413224220276,0.41310471296310425,0.7436961531639099,0.42000001668930054,-0.6123455166816711,-0.5726283192634583,-1.5558403730392456,-2.9999990463256836,-0.17083315551280975,-0.1692102700471878,-0.16747277975082397,-0.16414141654968262,0.01754642464220524,0.057346928864717484,0.10707099735736847,0.1343839466571808
0.7833333333333333,0.12023377418518066,0.02548270858824253,0.0,0.6239370107650757,0.0,0.0,-0.7814746499061584,0.2577333450317383,-0.2029733806848526,0.0,0.0,0.0,-1.1346937417984009,0.42132219672203064,0.7367507219314575,0.41999998688697815,0.5825867652893066,-2.996846887981519e-06,-4.602021363098174e-06,-0.8127683997154236,1.981923560379073e-05,-0.0003525834472384304,-9.915907867252827e-05,0.008638718165457249,-0.0031438760925084352,-0.00063471426256001,0.46487709879875183,0.7557560205459595,0.5400867462158203,0.46506908535957336,-0.3477596342563629,0.16604852676391602,0.41310471296310425,0.7436961531639099,0.42000001668930054,-0.6486334204673767,-3.0,-1.5169564485549927,2.999999761581421,-0.1693698614835739,-0.16697879135608673,-0.16427341103553772,-0.1602933555841446,-0.017534887418150902,0.06428823620080948,0.15693959593772888,0.22997401654720306
0.8,0.12669803202152252,0.02633008360862732,0.0,0.6142265796661377,0.0,0.0,-0.7891296744346619,0.406890869140625,0.06692683696746826,0.0,0.0,0.0,-1.6646062135696411,0.42132219672203064,0.7367507219314575,0.41999998688697815,0.5825867652893066,-3.0125902412692085e-06,-4.259298293618485e-06,-0.8127683997154236,2.220862006652169e-05,-0.00035249232314527035,-9.845918975770473e-05,0.008639441803097725,-0.003122339490801096,-0.0006395343225449324,0.4734722673892975,0.7508448958396912,0.5458121299743652,0.6166939735412598,-0.19745677709579468,0.5789841413497925,0.41310471296310425,0.7436961531639099,0.42000001668930054,-0.6805103421211243,-0.9737159013748169,-1.5327856540679932,-3.000000238418579,-0.17139284312725067,-0.16777056455612183,-0.16359518468379974,-0.15838006138801575,-0.010967555455863476,0.023667648434638977,0.07763954997062683,0.12536923587322235
0.8166666666666667,0.13413850963115692,0.023351768031716347,0.0,0.6216038465499878,0.0,0.0,-0.7833317518234253,0.5160233378410339,-0.18533624708652496,0.0,0.0,0.0,1.9944267272949219,0.42132219672203064,0.7367507219314575,0.41999998688697815,0.5825866460800171,-3.037160240637604e-06,-4.270679710316472e-06,-0.8127685189247131,2.1123545593582094e-05,-0.0003526114742271602,-9.879353456199169e-05,0.008641269989311695,-0.003133648307994008,-0.0006373957730829716,0.4844171404838562,0.7480525374412537,0.5568941235542297,0.6445843577384949,-0.20467419922351837,0.7895722985267639,0.41310471296310425,0.7436961531639099,0.42000001668930054,-0.6888884902000427,-0.10029995441436768,-1.5828039646148682,-2.999999761581421,-0.16952162981033325,-0.165497824549675,-0.16061246395111084,-0.1547590047121048,0.016623707488179207,0.06179559603333473,0.12224827706813812,0.17710968852043152
0.8333333333333334,0.14025090634822845,0.02177971787750721,0.0,0.6385540962219238,0.0,0.0,-0.769576907157898,0.3100038170814514,-0.07159874588251114,0.0,0.0,0.0,2.9468910694122314,0.42132219672203064,0.7367507219314575,0.41999998688697815,0.5825868844985962,-3.031326968994108e-06,-4.283152975403937e-06,-0.8127683997154236,2.1363872292567976e-05,-0.0003526479995343834,-9.871297515928745e-05,0.00864319410175085,-0.0031319574918597937,-0.000638142810203135,0.49463462829589844,0.7419815063476562,0.5683040022850037,0.6177281141281128,-0.4286288619041443,0.6575088500976562,0.41310471296310425,0.7436961531639099,0.42000001668930054,-0.6982139945030212,-0.9404070377349854,-1.5459784269332886,3.000000476837158,-0.17028285562992096,-0.1652459055185318,-0.15912604331970215,-0.1521298885345459,0.05825662985444069,0.09810680150985718,0.15210847556591034,0.20412109792232513
0.85,0.14239990711212158,0.02151946723461151,0.0,0.638699471950531,0.0,0.0,-0.7694563269615173,0.06924561411142349,0.03449982777237892,0.0,0.0,0.0,-0.8808662295341492,0.42132219672203064,0.7367507219314575,0.41999998688697815,0.5825867652893066,-3.0235589747462654e-06,-4.2928659240715206e-06,-0.8127685189247131,2.112410220433958e-05,-0.0003526122309267521,-9.879330173134804e-05,0.008641366846859455,-0.003133694641292095,-0.0006373943760991096,0.5037592649459839,0.7358381748199463,0.5769988298416138,0.4450482726097107,-0.33147066831588745,0.4769148528575897,0.41310471296310425,0.7436961531639099,0.42000001668930054,-0.7118154764175415,-0.7017059922218323,-1.5611553192138672,-3.000000476837158,-0.16907943785190582,-0.16370682418346405,-0.15703077614307404,-0.14948412775993347,0.1401938945055008,0.13994954526424408,0.1508169323205948,0.16193804144859314
0.8666666666666667,0.1452401727437973,0.02157072350382805,0.0,0.6490005254745483,0.0,0.0,-0.7607879638671875,0.21726839244365692,-0.024175463244318962,0.0,0.0,0.0,2.452526807785034,0.42132219672203064,0.7367507219314575,0.41999998688697815,0.5825865864753723,-3.01971908811538e-06,-4.3604036363831256e-06,-0.8127686381340027,2.077193494187668e-05,-0.00035250329528935254,-9.888876229524612e-05,0.008637272752821445,-0.0031350867357105017,-0.0006365017034113407,0.5104513168334961,0.731749951839447,0.5853819847106934,0.3712122440338135,-0.1564176380634308,0.5867236256599426,0.41310471296310425,0.7436961531639099,0.42000001668930054,-0.6945933103561401,2.4786839485168457,-1.6111736297607422,-3.000000476837158,-0.16656465828418732,-0.16136416792869568,-0.1547212451696396,-0.1472119241952896,0.17466558516025543,0.1543518602848053,0.13877056539058685,0.12169741094112396
0.8833333333333333,0.14599452912807465,0.02048962563276291,0.0,0.6465051174163818,0.0,0.0,-0.7629096508026123,-0.006981507875025272,-0.09657444059848785,0.0,0.0,0.0,-1.2650760412216187,0.42132219672203064,0.7367507219314575,0.41999998688697815,0.5825867652893066,-2.904137772929971e-06,-4.194433586235391e-06,-0.8127684593200684,2.2551592337549664e-05,-0.00035323944757692516,-9.819329716265202e-05,0.008669975213706493,-0.00312577816657722,-0.0006407739128917456,0.5153185725212097,0.7302438616752625,0.5950907468795776,0.1953902244567871,-0.056201621890068054,0.7018879652023315,0.41310471296310425,0.7436961531639099,0.42000001668930054,-0.674760639667511,0.09069928526878357,-1.5721443891525269,2.999998092651367,-0.16460205614566803,-0.15984119474887848,-0.15357138216495514,-0.1464419811964035,0.10269899666309357,0.07362832874059677,0.04642182216048241,0.018509313464164734
0.9,0.14429019391536713,0.021792538464069366,0.0,0.6539468169212341,0.0,0.0,-0.7565405368804932,-0.1468600630760193,0.14304839074611664,0.0,0.0,0.0,1.9736990928649902,0.42132219672203064,0.7367507219314575,0.41999998688697815,0.5825868844985962,-2.961287464131601e-06,-4.241456736053806e-06,-0.8127684593200684,1.9903380234609358e-05,-0.00035260224831290543,-9.913393296301365e-05,0.008639577776193619,-0.003143301699310541,-0.0006349022733047605,0.5183027386665344,0.7287147045135498,0.6061906218528748,0.15445059537887573,-0.07611554116010666,0.7044084668159485,0.41310471296310425,0.7436961531639099,0.42000001668930054,-0.6478779911994934,2.8710641860961914,-1.5867172479629517,-3.000000238418579,-0.16275861859321594,-0.15860028564929962,-0.1528681516647339,-0.14623577892780304,0.13261671364307404,0.09322629123926163,0.0571550615131855,0.0243057943880558
