vladlanda/robotic-transformer/data/env_000_episode_0144.csv
sim_time_s,robot_box_x,robot_box_y,robot_box_z,robot_box_quat_w,robot_box_quat_x,robot_box_quat_y,robot_box_quat_z,robot_box_linvel_x,robot_box_linvel_y,robot_box_linvel_z,robot_box_angvel_x,robot_box_angvel_y,robot_box_angvel_z,cube_world_x,cube_world_y,cube_world_z,cube_quat_w,cube_quat_x,cube_quat_y,cube_quat_z,cube_linvel_x,cube_linvel_y,cube_linvel_z,cube_angvel_x,cube_angvel_y,cube_angvel_z,endpoint_world_x,endpoint_world_y,endpoint_world_z,endpoint_linvel_x,endpoint_linvel_y,endpoint_linvel_z,target_cube_world_x,target_cube_world_y,target_cube_world_z,gripper_actual_pos_rad_gp_leftgearjoint,gripper_actual_vel_rad_s_gp_leftgearjoint,gripper_actual_pos_rad_gp_rotatingjoint,gripper_actual_vel_rad_s_gp_rotatingjoint,motor_angle_rad_joint1,motor_angle_rad_joint2,motor_angle_rad_joint3,motor_angle_rad_joint4,motor_speed_rad_s_joint1,motor_speed_rad_s_joint2,motor_speed_rad_s_joint3,motor_speed_rad_s_joint4
0.0,0.0,0.0,0.0,1.0,0.0,0.0,0.0,0.0,0.0,0.0,0.0,0.0,0.0,-0.47911664843559265,0.7566403746604919,0.41999998688697815,1.0,0.0,0.0,0.0,0.0,0.0,0.0,0.0,0.0,0.0,3.42540442943573e-06,-0.005000244826078415,1.313499927520752,0.0,0.0,0.0,0.37796810269355774,0.7366103529930115,0.42000001668930054,-1.5707999467849731,0.0,0.0,0.0,0.0,0.0,0.0,0.0,0.0,0.0,0.0,0.0
0.016666666666666666,0.0028778850100934505,0.0021806680597364902,0.0,0.9998081922531128,0.0,0.0,0.019586581736803055,0.24087215960025787,0.18240931630134583,0.0,0.0,0.0,3.1418697834014893,-0.4791167676448822,0.7566400766372681,0.41999998688697815,1.0,3.2799914606584935e-06,-8.339814598912199e-07,8.465387679734704e-08,-1.9833554688375443e-05,0.00017983050202019513,-6.133061833679676e-05,0.0009432226070202887,-0.004689437802881002,-0.0003198152990080416,-0.007110234349966049,0.003379564033821225,1.3159373998641968,-0.8143353462219238,0.9868683815002441,0.18095196783542633,0.37796810269355774,0.7366103529930115,0.42000001668930054,-1.5301095247268677,3.0000011920928955,-0.04584788903594017,-2.9999992847442627,0.0008691533003002405,0.0007963840034790337,0.0007110277656465769,0.0006108740926720202,0.11094217747449875,0.09756709635257721,0.08334315568208694,0.06823883205652237
0.03333333333333333,0.008959944359958172,0.0068078311160206795,0.0,0.9997949004173279,0.0,0.0,0.020251670852303505,0.4070903956890106,0.3153415322303772,0.0,0.0,0.0,-0.8707178235054016,-0.47911688685417175,0.7566400170326233,0.4200000464916229,1.0,3.390868869246333e-06,-2.1324674435163615e-06,-3.711417306817566e-08,0.00026357892784290016,0.0002693788555916399,-0.00010509602725505829,-0.001770795788615942,0.004130901303142309,-0.00013548035349231213,-0.02755427360534668,0.02616504207253456,1.3166004419326782,-1.591464877128601,1.6158301830291748,-0.08439785242080688,0.37796810269355774,0.7366103529930115,0.42000001668930054,-1.4800904989242554,2.999999761581421,-0.09588770568370819,-3.0,0.0029893924947828054,0.002652086317539215,0.00227673863992095,0.0018602724885568023,0.16425280272960663,0.13979370892047882,0.1138501763343811,0.08632941544055939
0.05,0.01775912381708622,0.013779736123979092,0.0,0.9993731379508972,0.0,0.0,0.03540268912911415,0.5940115451812744,0.4652104079723358,0.0,0.0,0.0,2.6462159156799316,-0.47911691665649414,0.7566400766372681,0.4200000464916229,1.0,3.7651575439667795e-06,-2.211913852079306e-06,5.610705233749513e-09,0.0002653082774486393,0.0002669135865289718,-0.0001044049859046936,-0.0017242783214896917,0.0041773971170187,-0.00012949295341968536,-0.05969849228858948,0.0543060339987278,1.3115336894989014,-2.1879453659057617,1.7923237085342407,-0.4867744445800781,0.37796810269355774,0.7366103529930115,0.42000001668930054,-1.4300721883773804,3.000002861022949,-0.1459263563156128,-3.0000007152557373,0.005710362922400236,0.004918158054351807,0.004053833428770304,0.003112936159595847,0.19264459609985352,0.15574198961257935,0.1169656366109848,0.07622166723012924
0.06666666666666667,0.029077913612127304,0.02307545766234398,0.0,0.9994460344314575,0.0,0.0,0.03328081592917442,0.7205866575241089,0.5953342318534851,0.0,0.0,0.0,-1.2128698825836182,-0.47911691665649414,0.7566400170326233,0.4200000464916229,0.9999999403953552,3.4068068544002017e-06,-2.2855970200907905e-06,4.300798082113033e-07,0.0002670251706149429,0.0002679169410839677,-0.0001043803058564663,-0.0017405967228114605,0.004211737308651209,-0.00012850314669776708,-0.09746138006448746,0.08935670554637909,1.2988555431365967,-2.3643994331359863,2.297987937927246,-1.006826639175415,0.37796810269355774,0.7366103529930115,0.42000001668930054,-1.3800538778305054,2.9999961853027344,-0.19596368074417114,-3.000000476837158,0.008207624778151512,0.0066992854699492455,0.005079964175820351,0.00334399682469666,0.14161761105060577,0.08786771446466446,0.03207699581980705,-0.025832755491137505
0.08333333333333333,0.034451134502887726,0.03571107238531113,0.0,0.9999932646751404,0.0,0.0,0.0036761476658284664,0.19069655239582062,0.8231693506240845,0.0,0.0,0.0,-4.941537857055664,-0.47911691665649414,0.7566400170326233,0.4200000464916229,0.9999999403953552,3.6261346849641996e-06,-2.33528749049583e-06,3.032092763533001e-07,0.00026613843510858715,0.00026685046032071114,-0.00010405108332633972,-0.0017283449415117502,0.004196330904960632,-0.00012790736218448728,-0.13474895060062408,0.1313914954662323,1.2777657508850098,-2.1292877197265625,2.670116901397705,-1.424697756767273,0.37796810269355774,0.7366103529930115,0.42000001668930054,-1.330035924911499,3.00000262260437,-0.24597690999507904,-3.000000238418579,0.004982083570212126,0.0028558976482599974,0.0005679184687323868,-0.001891751424409449,-0.288613885641098,-0.3328401744365692,-0.37962374091148376,-0.42924827337265015
0.1,0.044067710638046265,0.04967560991644859,0.0,0.9999431371688843,0.0,0.0,-0.01066669449210167,0.6760947704315186,0.8514755368232727,0.0,0.0,0.0,-0.7123079895973206,-0.47911691665649414,0.7566400170326233,0.4200000464916229,1.0,3.422179361223243e-06,-2.3085308384906966e-06,1.796248056962213e-07,0.00026681533199734986,0.0002680046309251338,-0.00010440708138048649,-0.0017430472653359175,0.004207065794616938,-0.00012891196820419282,-0.173313707113266,0.17225725948810577,1.2547564506530762,-2.307211399078369,2.525991439819336,-1.4193317890167236,0.37796810269355774,0.7366103529930115,0.42000001668930054,-1.2800214290618896,3.0000016689300537,-0.2959941327571869,-3.000000476837158,0.0051379939541220665,0.001496414071880281,-0.0023042652755975723,-0.0062743923626840115,0.03865180164575577,-0.06366237252950668,-0.16508382558822632,-0.26557233929634094
0.11666666666666667,0.05166565254330635,0.06574759632349014,0.0,0.9992827773094177,0.0,0.0,-0.03786705061793327,0.45957624912261963,1.0259549617767334,0.0,0.0,0.0,-3.9445464611053467,-0.47911691665649414,0.7566400766372681,0.4200000464916229,1.0,3.7115455597813707e-06,-2.332649273739662e-06,2.5742372145032277e-07,0.0002648553345352411,0.0002663533960003406,-0.00010423408821225166,-0.0017181431176140904,0.004169944208115339,-0.00012915971456095576,-0.20670662820339203,0.22025680541992188,1.232580304145813,-1.7182830572128296,3.237161159515381,-1.2266359329223633,0.37796810269355774,0.7366103529930115,0.42000001668930054,-1.2299948930740356,2.9999923706054688,-0.261707067489624,3.0000009536743164,0.0035794253926724195,-0.0020240203011780977,-0.0077589526772499084,-0.01363412570208311,-0.0541711151599884,-0.1977177858352661,-0.3381534516811371,-0.4752146601676941
0.13333333333333333,0.05665508657693863,0.08461753278970718,0.0,0.9959605932235718,0.0,0.0,-0.08979111164808273,0.23447783291339874,1.1789463758468628,0.0,0.0,0.0,-7.112660884857178,-0.47911691665649414,0.7566400170326233,0.4200000464916229,1.0,3.335725068609463e-06,-2.2318936316878535e-06,3.1131941113926587e-07,0.0002666966465767473,0.0002675946743693203,-0.00010428694076836109,-0.0017371214926242828,0.004205851349979639,-0.00012840802082791924,-0.23549263179302216,0.27557462453842163,1.2127954959869385,-1.6953577995300293,3.4450597763061523,-1.2273812294006348,0.37796810269355774,0.7366103529930115,0.42000001668930054,-1.1950747966766357,1.3069297075271606,-0.29274648427963257,-3.000000238418579,0.0014340145280584693,-0.006512087769806385,-0.01452244445681572,-0.022600708529353142,-0.20676788687705994,-0.33461427688598633,-0.45826637744903564,-0.5774452090263367
0.15,0.058507006615400314,0.10142239928245544,0.0,0.9925233125686646,0.0,0.0,-0.12205500900745392,0.06178447604179382,0.9229558706283569,0.0,0.0,0.0,-2.8403773307800293,-0.47911691665649414,0.7566400170326233,0.4200000464916229,1.0,3.5189095797250047e-06,-2.2831156911706785e-06,-3.6253456414669927e-07,0.0002661842736415565,0.0002673580020200461,-0.00010425597429275513,-0.0017349525587633252,0.004195696674287319,-0.00012860969582106918,-0.2720125615596771,0.3302697539329529,1.186821460723877,-2.3091211318969727,3.4608497619628906,-1.8509173393249512,0.37796810269355774,0.7366103529930115,0.42000001668930054,-1.1542407274246216,2.9999897480010986,-0.25844353437423706,2.9999992847442627,-0.002713177353143692,-0.01241814624518156,-0.022107288241386414,-0.031781457364559174,-0.30240264534950256,-0.3841502070426941,-0.4612741470336914,-0.5337368249893188
0.16666666666666666,0.05684112757444382,0.11847231537103653,0.0,0.9860653877258301,0.0,0.0,-0.16635803878307343,-0.162175714969635,1.062197208404541,0.0,0.0,0.0,-6.2394490242004395,-0.47911691665649414,0.7566400170326233,0.4200000464916229,1.0,3.666511929623084e-06,-2.3391485228785314e-06,-3.1497177133132936e-07,0.000265957583906129,0.00026667368365451694,-0.0001040350180119276,-0.00172534235753119,0.0041928584687411785,-0.0001277906121686101,-0.3078036308288574,0.390889436006546,1.155329942703247,-1.89884352684021,3.903482437133789,-1.9627087116241455,0.37796810269355774,0.7366103529930115,0.42000001668930054,-1.1087591648101807,2.464418649673462,-0.28949418663978577,-3.000000238418579,-0.009727000258862972,-0.02076839841902256,-0.03170967847108841,-0.042550455778837204,-0.5100358128547668,-0.5818954110145569,-0.648957371711731,-0.7111433148384094
0.18333333333333332,0.060017526149749756,0.13743871450424194,0.0,0.9811667203903198,0.0,0.0,-0.19316281378269196,0.3094361424446106,1.186993956565857,0.0,0.0,0.0,-2.2742621898651123,-0.47911691665649414,0.7566400170326233,0.4200000464916229,1.0,3.814258207057719e-06,-2.3995091851247707e-06,-2.7025083682019613e-07,0.0002654909039847553,0.0002661114267539233,-0.00010391208343207836,-0.001717755920253694,0.004184814170002937,-0.0001275418180739507,-0.3442312777042389,0.4535377025604248,1.1147687435150146,-2.1247782707214355,3.919410228729248,-2.8679966926574707,0.37796810269355774,0.7366103529930115,0.42000001668930054,-1.078608751296997,1.2360594272613525,-0.33952197432518005,-3.0000009536743164,-0.015858590602874756,-0.027822071686387062,-0.039603061974048615,-0.051203902810811996,-0.3731221854686737,-0.4024898111820221,-0.42775383591651917,-0.44924190640449524
0.2,0.05997897684574127,0.15352289378643036,0.0,0.9723429083824158,0.0,0.0,-0.23355789482593536,-0.06693249195814133,0.9312938451766968,0.0,0.0,0.0,-5.723292827606201,-0.47911691665649414,0.7566400170326233,0.4200000464916229,1.0,3.5999153169541387e-06,-2.291187911396264e-06,-2.2016379830347432e-07,0.0002657304867170751,0.00026644792524166405,-0.00010397983714938164,-0.0017226124182343483,0.004188839346170425,-0.00012773237540386617,-0.3791046738624573,0.5203740000724792,1.0603251457214355,-1.8821461200714111,4.228903770446777,-3.634148597717285,0.37796810269355774,0.7366103529930115,0.42000001668930054,-1.0341166257858276,2.9999916553497314,-0.3895476460456848,-3.000000238418579,-0.027638794854283333,-0.039171189069747925,-0.05050346627831459,-0.061652060598134995,-0.8477481603622437,-0.7981262803077698,-0.748282253742218,-0.6990116834640503
0.21666666666666667,0.05612342804670334,0.1703757643699646,0.0,0.9671038389205933,0.0,0.0,-0.25438183546066284,-0.2962753176689148,1.0422872304916382,0.0,0.0,0.0,-1.5460231304168701,-0.47911691665649414,0.7566400170326233,0.4200000464916229,0.9999999403953552,3.6394887956703315e-06,-2.261938107039896e-06,2.225111614961861e-07,0.00026687642093747854,0.0002675454888958484,-0.00010411953553557396,-0.0017403915990144014,0.004211097024381161,-0.0001278359559364617,-0.41339170932769775,0.5846900939941406,0.9921371936798096,-1.8940712213516235,3.7799763679504395,-4.483236789703369,0.37796810269355774,0.7366103529930115,0.42000001668930054,-0.9841176867485046,2.9995498657226562,-0.4395732581615448,-3.0,-0.042738430202007294,-0.053818803280591965,-0.06387892365455627,-0.07377364486455917,-0.9442509412765503,-0.8981300592422485,-0.8089523315429688,-0.7213024497032166
0.23333333333333334,0.05535569041967392,0.18483813107013702,0.0,0.9578108191490173,0.0,0.0,-0.2873995006084442,0.010832198895514011,0.7659463286399841,0.0,0.0,0.0,-4.840323448181152,-0.47911688685417175,0.7566400170326233,0.4200000464916229,1.0,3.4205220345029375e-06,-2.3167776816990227e-06,2.956315086066752e-07,0.0002668011002242565,0.0002680400793906301,-0.00010442500934004784,-0.0017437192145735025,0.00420679897069931,-0.00012899402645416558,-0.44350242614746094,0.645959734916687,0.9100731015205383,-1.5646692514419556,3.5241923332214355,-5.29766845703125,0.37796810269355774,0.7366103529930115,0.42000001668930054,-0.9341108798980713,2.999999761581421,-0.48960158228874207,-3.0000009536743164,-0.058003392070531845,-0.06863858550786972,-0.07760736346244812,-0.08579450845718384,-0.9628517031669617,-0.9470502734184265,-0.8961887359619141,-0.7757596969604492
0.25,0.05061940848827362,0.19972901046276093,0.0,0.9530968070030212,0.0,0.0,-0.302665650844574,-0.29900118708610535,0.9438706636428833,0.0,0.0,0.0,-0.9268622994422913,-0.47911691665649414,0.7566400170326233,0.4200000464916229,0.9999999403953552,3.3473763778602006e-06,-2.2591107153857592e-06,1.8088424269535608e-07,0.00026687863282859325,0.00026791077107191086,-0.00010439497418701649,-0.001740471227094531,0.004208289086818695,-0.00012870471982751042,-0.46823960542678833,0.6919792890548706,0.8157663345336914,-1.2158082723617554,2.3674874305725098,-5.914831161499023,0.37796810269355774,0.7366103529930115,0.42000001668930054,-0.8841001987457275,2.9999992847442627,-0.5396313071250916,-2.999999523162842,-0.0737570971250534,-0.08445875346660614,-0.09351824969053268,-0.10176321119070053,-0.8203068971633911,-0.8418357968330383,-0.8633974194526672,-0.8830212354660034
0.26666666666666666,0.04955734685063362,0.21047504246234894,0.0,0.9443387389183044,0.0,0.0,-0.32897478342056274,-0.01290892530232668,0.5620273351669312,0.0,0.0,0.0,-4.031620025634766,-0.47911691665649414,0.7566400170326233,0.4200000464916229,0.9999999403953552,3.707820951603935e-06,-2.3923903427203186e-06,-1.2721770303869562e-07,0.00026603747392073274,0.00026716626598499715,-0.00010421453043818474,-0.0017322177300229669,0.004193147644400597,-0.000128546089399606,-0.48623502254486084,0.7272239923477173,0.7114318013191223,-0.7738996148109436,1.7494087219238281,-6.477609634399414,0.37796810269355774,0.7366103529930115,0.42000001668930054,-0.8340896964073181,3.0000007152557373,-0.5896610617637634,-3.0,-0.08859100937843323,-0.0993226170539856,-0.10842215269804001,-0.11655190587043762,-0.991702675819397,-0.9913937449455261,-0.9752942323684692,-0.9433871507644653
0.2833333333333333,0.04536765068769455,0.21764054894447327,0.0,0.9416428804397583,0.0,0.0,-0.3366135358810425,-0.31647223234176636,0.373904287815094,0.0,0.0,0.0,-0.010518706403672695,-0.47911691665649414,0.7566400766372681,0.4200000464916229,0.9999999403953552,3.572407877072692e-06,-2.303904466316453e-06,1.2990359721243294e-07,0.00026521814288571477,0.0002645525673869997,-0.00010317121632397175,-0.0017021826934069395,0.004185078199952841,-0.00012500252341851592,-0.49620306491851807,0.743826150894165,0.6048712730407715,-0.2741209864616394,0.40835559368133545,-6.284693717956543,0.37796810269355774,0.7366103529930115,0.42000001668930054,-0.7840808033943176,3.000001907348633,-0.6396908164024353,-3.000002861022949,-0.10581564903259277,-0.11637432128190994,-0.12534981966018677,-0.13338901102542877,-1.001168131828308,-1.0008796453475952,-1.0006600618362427,-1.000485897064209
0.3,0.038229070603847504,0.22127225995063782,0.0,0.9345518946647644,0.0,0.0,-0.3558269441127777,-0.4615142345428467,0.15225185453891754,0.0,0.0,0.0,-3.3032948970794678,-0.47911691665649414,0.7566400170326233,0.4200000464916229,1.0,3.7448494367708918e-06,-2.2379372239811346e-06,-1.7673770003057143e-07,0.00026436097687110305,0.000266234390437603,-0.00010442966595292091,-0.0017119572730734944,0.004158670082688332,-0.00012990014511160553,-0.4949342608451843,0.7476896047592163,0.5018666982650757,0.40415647625923157,0.05244401842355728,-5.994837760925293,0.37796810269355774,0.7366103529930115,0.42000001668930054,-0.7340720295906067,2.99999737739563,-0.6897186636924744,-3.0000009536743164,-0.12285169959068298,-0.13330884277820587,-0.14222559332847595,-0.15022799372673035,-1.007417917251587,-1.005609393119812,-1.004232406616211,-1.0031299591064453
0.31666666666666665,0.029204778373241425,0.22201873362064362,0.0,0.9336563944816589,0.0,0.0,-0.35816994309425354,-0.5738077759742737,0.0012356198858469725,0.0,0.0,0.0,0.6417173743247986,-0.47911691665649414,0.7566400766372681,0.4200000464916229,0.9999999403953552,3.6678875403595157e-06,-2.3070483621268068e-06,2.637760019297275e-07,0.0002669123059604317,0.00026760553009808064,-0.00010412652045488358,-0.0017413359601050615,0.004211626946926117,-0.00012787147716153413,-0.4862409234046936,0.7482296824455261,0.406992107629776,0.7480345368385315,-0.10354851931333542,-5.409127235412598,0.37796810269355774,0.7366103529930115,0.42000001668930054,-0.6840651631355286,3.0000009536743164,-0.7397444844245911,-2.999999523162842,-0.14010757207870483,-0.15042521059513092,-0.1592399775981903,-0.16716419160366058,-1.008912444114685,-1.0067774057388306,-1.0051442384719849,-1.0038294792175293
0.3333333333333333,0.01806659623980522,0.2201393097639084,0.0,0.9421799778938293,0.0,0.0,-0.33510735630989075,-0.7160506248474121,-0.15925750136375427,0.0,0.0,0.0,3.9539809226989746,-0.47922906279563904,0.7556692361831665,0.4199998080730438,0.9998083114624023,-1.8917355191661045e-05,-5.619108196697198e-05,-0.01957523822784424,0.006546172313392162,-0.0038528742734342813,-0.002186088589951396,0.02295777015388012,0.026048939675092697,0.015256085433065891,-0.4915219247341156,0.7539888620376587,0.42528432607650757,-0.4922833740711212,0.24469831585884094,-0.16439926624298096,0.37796810269355774,0.7366103529930115,0.42000001668930054,-0.6341313123703003,3.0000009536743164,-0.7900999784469604,-3.000000238418579,-0.13435058295726776,-0.1475812792778015,-0.15886645019054413,-0.16864359378814697,0.19510596990585327,0.05923410877585411,-0.06100600212812424,-0.1554747074842453
0.35,0.011600174941122532,0.2151099294424057,0.0,0.9447015523910522,0.0,0.0,-0.32793131470680237,-0.39036911725997925,-0.32866424322128296,0.0,0.0,0.0,-0.048467740416526794,-0.4795446991920471,0.7549272179603577,0.4200003445148468,0.9995778203010559,-1.3904148545407224e-05,2.2874016849527834e-06,-0.029053598642349243,-0.07237828522920609,-0.16877548396587372,-0.00029207218904048204,0.029246259480714798,-0.009829550050199032,-4.437921047210693,-0.4966385066509247,0.7553721070289612,0.42233043909072876,-0.1550193876028061,-0.12766945362091064,-0.15206840634346008,0.37796810269355774,0.7366103529930115,0.42000001668930054,-0.5841257572174072,2.999476432800293,-0.8401258587837219,-2.999976396560669,-0.1324348747730255,-0.14682462811470032,-0.15905806422233582,-0.1694183051586151,-0.20765939354896545,-0.1752156764268875,-0.13584594428539276,-0.08233273029327393
0.36666666666666664,0.0010780359152704477,0.2086649388074875,0.0,0.938758373260498,0.0,0.0,-0.3445760905742645,-0.7342148423194885,-0.415887713432312,0.0,0.0,0.0,-3.3731882572174072,-0.4803207218647003,0.7529804706573486,0.4200000464916229,0.9987579584121704,-2.86344999267385e-07,-8.584569854974688e-07,-0.049823254346847534,-0.0379486046731472,-0.09903226047754288,-1.5121186152100563e-06,6.421197031158954e-05,6.953643605811521e-06,-1.935004711151123,-0.4944753646850586,0.7598440051078796,0.4223693907260895,0.3459937572479248,0.5695852637290955,0.05429436266422272,0.37796810269355774,0.7366103529930115,0.42000001668930054,-0.5341126322746277,3.0000011920928955,-0.8901358842849731,-2.99996018409729,-0.1403966248035431,-0.1529996395111084,-0.16333946585655212,-0.17159990966320038,-0.5642184615135193,-0.4215049743652344,-0.2725692391395569,-0.11197691410779953
0.3833333333333333,-0.0062956796027719975,0.1992121934890747,0.0,0.9262138605117798,0.0,0.0,-0.3769986033439636,-0.40822309255599976,-0.6166176199913025,0.0,0.0,0.0,-4.511890888214111,-0.4746297597885132,0.7633904218673706,0.42083966732025146,0.9918330907821655,-0.020281078293919563,0.003036979353055358,-0.12588295340538025,0.5899574160575867,0.7529522776603699,0.11043152213096619,-5.225195407867432,1.4295421838760376,-3.6940855979919434,-0.4871363639831543,0.7692005634307861,0.42367833852767944,0.6524041891098022,0.6815413236618042,0.091032974421978,0.37796810269355774,0.7366103529930115,0.42000001668930054,-0.48409050703048706,2.9993715286254883,-0.9401525259017944,-2.999981641769409,-0.14868617057800293,-0.1585192233324051,-0.16594956815242767,-0.1710808426141739,-0.5830670595169067,-0.3720564544200897,-0.15329024195671082,0.0765848234295845
0.4,-0.017096422612667084,0.1878824532032013,0.0,0.9022907614707947,0.0,0.0,-0.43112805485725403,-0.7319527268409729,-0.7064809799194336,0.0,0.0,0.0,-8.012338638305664,-0.4588793218135834,0.7825864553451538,0.4222409725189209,0.9846462607383728,-0.05850975215435028,0.009308096952736378,-0.16419968008995056,1.3982644081115723,1.6519298553466797,0.06500031799077988,-3.260185718536377,0.8955546617507935,-7.350071430206299,-0.4690682888031006,0.7868616580963135,0.42520764470100403,1.5607887506484985,1.5509138107299805,0.09853383153676987,0.37796810269355774,0.7366103529930115,0.42000001668930054,-0.4340752065181732,2.99953031539917,-0.9901713132858276,-3.0000381469726562,-0.16132107377052307,-0.16694608330726624,-0.17007535696029663,-0.17078448832035065,-0.772084653377533,-0.5096744894981384,-0.2433164417743683,0.027836089953780174
0.4166666666666667,-0.024566108360886574,0.1737680733203888,0.0,0.8632038831710815,0.0,0.0,-0.5048554539680481,-0.3998377025127411,-0.8814153671264648,0.0,0.0,0.0,-10.58004093170166,-0.4112122356891632,0.819926917552948,0.4245349168777466,0.9772552251815796,-0.002922090468928218,-0.021870113909244537,-0.21091531217098236,3.8564488887786865,2.8028042316436768,0.5730835199356079,-11.461909294128418,-2.0629563331604004,-6.219934463500977,-0.42154407501220703,0.8259862661361694,0.4270974099636078,3.830015182495117,2.949620008468628,0.216913640499115,0.37796810269355774,0.7366103529930115,0.42000001668930054,-0.39147135615348816,1.580820918083191,-0.9528458118438721,2.999999523162842,-0.17486491799354553,-0.17550210654735565,-0.17366281151771545,-0.16944631934165955,-0.8419805765151978,-0.5366761088371277,-0.23643098771572113,0.05619477108120918
0.43333333333333335,-0.029531149193644524,0.16505202651023865,0.0,0.8059419393539429,0.0,0.0,-0.59199458360672,-0.24807341396808624,-0.39369773864746094,0.0,0.0,0.0,-13.313331604003906,-0.32159531116485596,0.8724529147148132,0.4310104250907898,0.952701985836029,0.07509805262088776,-0.06015675887465477,-0.28827136754989624,6.876898288726807,3.0527572631835938,0.7423949837684631,-5.287211894989014,-2.0700390338897705,-3.4105212688446045,-0.3328177332878113,0.880145788192749,0.43328288197517395,6.5101728439331055,3.580578327178955,0.44061362743377686,0.37796810269355774,0.7366103529930115,0.42000001668930054,-0.3738549053668976,1.0261878967285156,-0.9028030037879944,3.0000009536743164,-0.1907179057598114,-0.19013673067092896,-0.1832955926656723,-0.17338095605373383,-0.8908347487449646,-0.8931757807731628,-0.6882428526878357,-0.3743528127670288
0.45,-0.03607194870710373,0.15309913456439972,0.0,0.7549353837966919,0.0,0.0,-0.6557992100715637,-0.3620777130126953,-0.7436486482620239,0.0,0.0,0.0,-8.465459823608398,-0.21306893229484558,0.917691707611084,0.4424448013305664,0.909125030040741,0.10810109972953796,-0.06794226169586182,-0.3964712917804718,7.016435623168945,1.8118938207626343,1.020638108253479,-0.8314679861068726,-5.729791641235352,0.5244671106338501,-0.22402960062026978,0.929250955581665,0.44436484575271606,6.7330827713012695,2.25801944732666,0.7530572414398193,0.37796810269355774,0.7366103529930115,0.42000001668930054,-0.35566213726997375,1.0933555364608765,-0.9288843870162964,-2.999087333679199,-0.2051122486591339,-0.20332716405391693,-0.19235236942768097,-0.17710663378238678,-0.9362061023712158,-0.8422459363937378,-0.5623739957809448,-0.23750334978103638
0.4666666666666667,-0.043639712035655975,0.14364784955978394,0.0,0.7271469831466675,0.0,0.0,-0.6864818334579468,-0.5124327540397644,-0.49275338649749756,0.0,0.0,0.0,-3.77227520942688,-0.10254132747650146,0.9418827891349792,0.45411399006843567,0.870140552520752,0.10454995930194855,-0.06022946909070015,-0.47780439257621765,6.851118564605713,-0.04701030254364014,0.8149406313896179,-4.825185775756836,-5.1443328857421875,15.193965911865234,-0.11041048169136047,0.9566699266433716,0.4571242332458496,6.860069274902344,0.87430739402771,0.8282930850982666,0.37796810269355774,0.7366103529930115,0.42000001668930054,-0.33859384059906006,0.9021506905555725,-0.978908360004425,-2.9998738765716553,-0.22092926502227783,-0.21801763772964478,-0.20267705619335175,-0.18133608996868134,-0.9807377457618713,-0.8374815583229065,-0.5510313510894775,-0.1887257993221283
0.48333333333333334,-0.04939422756433487,0.13123399019241333,0.0,0.7022697925567627,0.0,0.0,-0.7119109034538269,-0.2798328995704651,-0.7526484727859497,0.0,0.0,0.0,-4.3835225105285645,0.009209033101797104,0.9416037797927856,0.4646245539188385,0.7854308485984802,0.11030517518520355,-0.04155505448579788,-0.6076218485832214,6.819711208343506,-1.3781838417053223,0.7346001863479614,-7.761057376861572,-2.271435260772705,8.165755271911621,0.0017184782773256302,0.9592993855476379,0.46815627813339233,6.70061731338501,-0.687850832939148,0.5881223678588867,0.37796810269355774,0.7366103529930115,0.42000001668930054,-0.3253070116043091,0.6249621510505676,-1.0289312601089478,-3.000002384185791,-0.23630139231681824,-0.22980336844921112,-0.20913398265838623,-0.1816922128200531,-0.9906449913978577,-0.7048938274383545,-0.34865865111351013,0.02703162282705307
0.5,-0.051412682980298996,0.12403938174247742,0.0,0.694436252117157,0.0,0.0,-0.7195542454719543,-0.05029089003801346,-0.33204537630081177,0.0,0.0,0.0,-0.2820589244365692,0.10585299134254456,0.9210150837898254,0.4713691174983978,0.7386540174484253,0.09612981975078583,-0.03380522504448891,-0.6663380265235901,4.668080806732178,-2.580073833465576,0.3568894565105438,-9.453758239746094,-1.7904102802276611,33.37339782714844,0.10337689518928528,0.9401813745498657,0.47617143392562866,5.518436908721924,-1.5461347103118896,0.3328820765018463,0.37796810269355774,0.7366103529930115,0.42000001668930054,-0.3180411159992218,0.17318356037139893,-1.0789533853530884,-2.999999523162842,-0.23996828496456146,-0.23995965719223022,-0.21931269764900208,-0.18618638813495636,-0.0367584191262722,-0.025250457227230072,-0.5935558080673218,-0.3509095311164856
0.5166666666666666,-0.049549128860235214,0.11320903897285461,0.0,0.6769603490829468,0.0,0.0,-0.736019492149353,0.13417315483093262,-0.6737668514251709,0.0,0.0,0.0,-3.739875316619873,0.18543663620948792,0.8933426141738892,0.470673143863678,0.6361284852027893,0.06715346872806549,-0.052199866622686386,-0.7668806910514832,3.7290596961975098,-2.6077442169189453,-0.3107181787490845,-17.932668685913086,21.946216583251953,10.512850761413574,0.18166330456733704,0.9136698842048645,0.47740915417671204,4.365608215332031,-1.9293739795684814,0.005807213485240936,0.37796810269355774,0.7366103529930115,0.42000001668930054,-0.31565994024276733,-0.06881581246852875,-1.1289753913879395,-2.9962849617004395,-0.23544223606586456,-0.23548951745033264,-0.22345151007175446,-0.18833887577056885,0.2054615318775177,0.26090261340141296,-0.1546074002981186,-0.0830814465880394
0.5333333333333333,-0.045550160109996796,0.10720548778772354,0.0,0.6722624897956848,0.0,0.0,-0.7403128743171692,0.27756187319755554,-0.32524287700653076,0.0,0.0,0.0,0.17188027501106262,0.24624872207641602,0.8585367798805237,0.4660099148750305,0.5792274475097656,0.04044584184885025,-0.024510079994797707,-0.813792884349823,3.3050873279571533,-3.142366886138916,-0.12946365773677826,-9.912922859191895,14.24383544921875,14.156407356262207,0.24424082040786743,0.8781113624572754,0.4733904004096985,3.2543954849243164,-2.193859577178955,-0.4131912589073181,0.37796810269355774,0.7366103529930115,0.42000001668930054,-0.3222641050815582,-0.6579834222793579,-1.17899751663208,-2.9999775886535645,-0.2345758080482483,-0.23285047709941864,-0.22612623870372772,-0.19056685268878937,0.165288507938385,0.2520160973072052,-0.034216444939374924,-0.08762479573488235
0.55,-0.04316900670528412,0.10430578887462616,0.0,0.6587125062942505,0.0,0.0,-0.7523947358131409,0.07352102547883987,-0.11566229909658432,0.0,0.0,0.0,-3.068343162536621,0.2959881126880646,0.8234668374061584,0.45363107323646545,0.5360822677612305,0.0062620146200060844,-0.011759603396058083,-0.8440605401992798,2.495012044906616,-2.635467290878296,-0.7034221291542053,-0.7893355488777161,11.546090126037598,6.820393085479736,0.2938573360443115,0.8416584730148315,0.46189701557159424,2.6097450256347656,-2.1711301803588867,-0.8901841640472412,0.37796810269355774,0.7366103529930115,0.42000001668930054,-0.33376598358154297,-0.5489363670349121,-1.2290196418762207,-2.99931263923645,-0.22986705601215363,-0.2274119257926941,-0.2252085953950882,-0.19190971553325653,0.3395833671092987,0.3703431487083435,0.13276991248130798,-0.058812808245420456
0.5666666666666667,-0.040252044796943665,0.10348637402057648,0.0,0.6582099199295044,0.0,0.0,-0.7528344392776489,0.21250152587890625,0.05040651932358742,0.0,0.0,0.0,0.7248991131782532,0.3310985267162323,0.78889399766922,0.4364067316055298,0.5001035928726196,-0.035961274057626724,0.006264439783990383,-0.8651959300041199,1.5570733547210693,-2.007312536239624,-1.105446219444275,-0.029031939804553986,7.939826011657715,-5.186553478240967,0.3300386071205139,0.806229829788208,0.4450598657131195,1.7161595821380615,-2.0359230041503906,-1.111219882965088,0.37796810269355774,0.7366103529930115,0.42000001668930054,-0.3321339786052704,0.7375240325927734,-1.2790398597717285,-3.0,-0.22309032082557678,-0.22050461173057556,-0.2218313366174698,-0.19255176186561584,0.43782666325569153,0.4242754876613617,0.23398570716381073,-0.0489642508327961
0.5833333333333334,-0.03416740894317627,0.09780532866716385,0.0,0.645521879196167,0.0,0.0,-0.7637417316436768,0.425491064786911,-0.47360432147979736,0.0,0.0,0.0,-3.0180771350860596,0.3546081781387329,0.7655416131019592,0.421519011259079,0.4969013035297394,-0.023323891684412956,0.0206612441688776,-0.867247462272644,0.8225089907646179,-1.4117774963378906,0.07599948346614838,5.092731952667236,4.9908528327941895,20.21247673034668,0.35386380553245544,0.7814450263977051,0.42939239740371704,0.8775290846824646,-0.8775074481964111,-0.10494174808263779,0.37796810269355774,0.7366103529930115,0.42000001668930054,-0.31201958656311035,1.3630640506744385,-1.240885615348816,2.9899561405181885,-0.20927508175373077,-0.20853137969970703,-0.21383337676525116,-0.1907450407743454,0.9551671743392944,0.811719536781311,0.5811901688575745,0.1818675845861435
0.6,-0.03129289299249649,0.09544438123703003,0.0,0.6445465087890625,0.0,0.0,-0.764565110206604,0.1525476574897766,-0.1601446568965912,0.0,0.0,0.0,0.4634576439857483,0.36682191491127014,0.7535324692726135,0.42219388484954834,0.5003755688667297,-0.027138613164424896,0.04991263523697853,-0.8639424443244934,0.5887413024902344,-1.429626226425171,0.3688433766365051,11.240198135375977,7.752427101135254,16.964353561401367,0.365722119808197,0.7682428359985352,0.4310779571533203,0.6510152220726013,-0.6668761372566223,0.023323561996221542,0.37796810269355774,0.7366103529930115,0.42000001668930054,-0.3013615906238556,-0.13485707342624664,-1.261657953262329,-2.9993817806243896,-0.19719332456588745,-0.19810308516025543,-0.20607048273086548,-0.18912220001220703,0.7415333390235901,0.6196106672286987,0.46640729904174805,0.08260461688041687
0.6166666666666667,-0.027219705283641815,0.09192030876874924,0.0,0.6331576704978943,0.0,0.0,-0.7740228176116943,0.2869511842727661,-0.27601712942123413,0.0,0.0,0.0,-2.581247091293335,0.3731895089149475,0.7469540238380432,0.42182889580726624,0.5267462730407715,-0.013837259262800217,0.038865312933921814,-0.8490208387374878,0.12041502445936203,-0.4254058301448822,0.06756370514631271,2.880725145339966,-2.3589911460876465,13.288867950439453,0.37028664350509644,0.7608270645141602,0.43123480677604675,-0.046198148280382156,-0.20457831025123596,0.03665350750088692,0.37796810269355774,0.7366103529930115,0.42000001668930054,-0.3034311830997467,0.1557042896747589,-1.2235978841781616,2.999565601348877,-0.18768922984600067,-0.19013866782188416,-0.19974872469902039,-0.18854306638240814,0.5070258378982544,0.4313872158527374,0.369517982006073,0.05112743750214577
0.6333333333333333,-0.020818965509533882,0.09091754257678986,0.0,0.6352416276931763,0.0,0.0,-0.7723134756088257,0.41809144616127014,0.003155931830406189,0.0,0.0,0.0,1.1592128276824951,0.3727843463420868,0.7429428696632385,0.42051976919174194,0.5560333132743835,-0.007344476412981749,0.01063894759863615,-0.8310593366622925,-0.11389343440532684,-0.2426426261663437,-0.07342822849750519,-1.5481938123703003,-3.551547050476074,2.8206958770751953,0.36897194385528564,0.7573572397232056,0.4292052388191223,-0.10635759681463242,-0.048164792358875275,0.11833218485116959,0.37796810269355774,0.7366103529930115,0.42000001668930054,-0.3238435387611389,-2.339891195297241,-1.2446283102035522,-2.9984946250915527,-0.18131721019744873,-0.18482747673988342,-0.1949562132358551,-0.18855339288711548,0.35165807604789734,0.29095038771629333,0.279006689786911,0.014286269433796406
0.65,-0.01252824254333973,0.0864504799246788,0.0,0.6254504323005676,0.0,0.0,-0.7802639007568359,0.4996746778488159,-0.3272928297519684,0.0,0.0,0.0,-2.4172632694244385,0.3726319372653961,0.7426610589027405,0.42055177688598633,0.5695438385009766,-0.010010047815740108,5.271106419968419e-05,-0.8219000101089478,-0.04606802389025688,-0.08224094659090042,-0.08098433166742325,-1.3785251379013062,-3.7052371501922607,4.692661762237549,0.3690046966075897,0.7601186037063599,0.4317648410797119,-0.007602758705615997,0.2725207805633545,0.18186599016189575,0.37796810269355774,0.7366103529930115,0.42000001668930054,-0.362581729888916,-2.2652597427368164,-1.2945753335952759,-2.9977543354034424,-0.1708177626132965,-0.17625488340854645,-0.187235489487648,-0.18564002215862274,0.620553195476532,0.5178413987159729,0.4865107238292694,0.22634899616241455
0.6666666666666666,-0.0017595812678337097,0.08558093756437302,0.0,0.6281014680862427,0.0,0.0,-0.7781314253807068,0.6610135436058044,-0.01923426426947117,0.0,0.0,0.0,1.2889667749404907,0.37217459082603455,0.7421976923942566,0.41999998688697815,0.5726417899131775,1.336764285042591e-06,4.5405149649013765e-06,-0.8198056221008301,-0.0015976423164829612,-0.00038022594526410103,-8.342997170984745e-05,-0.0018240837380290031,-0.0007878632168285549,0.05542142689228058,0.3684800863265991,0.763043999671936,0.43465864658355713,0.00946081429719925,0.21195900440216064,0.18903037905693054,0.37796810269355774,0.7366103529930115,0.42000001668930054,-0.41184061765670776,-2.9999871253967285,-1.3445749282836914,-2.99997615814209,-0.1648617833852768,-0.17125079035758972,-0.18194302916526794,-0.18369494378566742,0.36588239669799805,0.3019729554653168,0.31684252619743347,0.1296127289533615
0.6833333333333333,0.006054129917174578,0.08075926452875137,0.0,0.6519736647605896,0.0,0.0,-0.758241593837738,0.4052920639514923,-0.3454291820526123,0.0,0.0,0.0,4.470839023590088,0.37178120017051697,0.74222332239151,0.420177161693573,0.5721089839935303,0.0024999789893627167,-0.003529744455590844,-0.8201661705970764,-0.14990338683128357,0.012347238138318062,0.06438350677490234,-1.1943333148956299,-3.281877040863037,-1.479813814163208,0.36722153425216675,0.7650258541107178,0.438381552696228,-0.16189265251159668,0.042213693261146545,0.25912949442863464,0.37796810269355774,0.7366103529930115,0.42000001668930054,-0.46181851625442505,-2.999505043029785,-1.3945566415786743,-2.9998669624328613,-0.15931425988674164,-0.16591520607471466,-0.17546610534191132,-0.17914453148841858,0.20427286624908447,0.247039794921875,0.37060195207595825,0.3259061872959137
0.7,0.014487188309431076,0.07289908826351166,0.0,0.6603692173957825,0.0,0.0,-0.7509410381317139,0.5433115363121033,-0.5099636316299438,0.0,0.0,0.0,0.31083303689956665,0.3698500096797943,0.7423905730247498,0.4204240143299103,0.5646896362304688,0.006049062591046095,-0.008844283409416676,-0.8252336978912354,-0.10349684953689575,0.00838075578212738,-0.0026075695641338825,0.04734868183732033,0.12464245408773422,-0.9814196228981018,0.36706167459487915,0.7662094235420227,0.44326508045196533,0.06251202523708344,0.011701665818691254,0.3104381561279297,0.37796810269355774,0.7366103529930115,0.42000001668930054,-0.5118265748023987,-2.999999523162842,-1.444564938545227,-3.0,-0.15760710835456848,-0.16292168200016022,-0.16980785131454468,-0.17325007915496826,0.06277327239513397,0.16287793219089508,0.34467577934265137,0.4002172350883484
0.7166666666666667,0.02494576945900917,0.06248448044061661,0.0,0.6461957693099976,0.0,0.0,-0.7631717324256897,0.6637262105941772,-0.6825178265571594,0.0,0.0,0.0,-3.14192795753479,0.3689345419406891,0.7423931360244751,0.42000001668930054,0.5609668493270874,-1.5399951962535852e-06,-8.024163435038645e-06,-0.8278381824493408,-0.02215917967259884,-0.00039699036278761923,-2.5052344426512718e-05,0.002224127994850278,-0.000429687206633389,-0.268106073141098,0.3719618320465088,0.7676961421966553,0.4554806649684906,0.5135387182235718,0.1218012273311615,1.252962589263916,0.37796810269355774,0.7366103529930115,0.42000001668930054,-0.5618391036987305,-2.999979019165039,-1.494583249092102,-2.999999523162842,-0.15888966619968414,-0.16232353448867798,-0.16604410111904144,-0.16812382638454437,-0.14308947324752808,-0.023328104987740517,0.1681145280599594,0.2675049304962158
0.7333333333333333,0.039699338376522064,0.05788619816303253,0.0,0.6088842749595642,0.0,0.0,-0.7932590842247009,0.9692193269729614,-0.14061473309993744,0.0,0.0,0.0,-6.805794715881348,0.36893430352211,0.7423930764198303,0.41999998688697815,0.5609674453735352,1.0412393294245703e-06,-4.378588982945075e-06,-0.8278378248214722,0.00022886050282977521,-0.000320017512422055,-7.663900032639503e-05,0.008232960477471352,-0.001975252293050289,-0.0011880755191668868,0.3901541233062744,0.7622333765029907,0.48236286640167236,1.718930959701538,-0.6793239712715149,2.088690757751465,0.37796810269355774,0.7366103529930115,0.42000001668930054,-0.6118478775024414,-2.9997286796569824,-1.544601559638977,-2.9999639987945557,-0.1701834350824356,-0.16989800333976746,-0.1689135730266571,-0.16769888997077942,-0.8482033610343933,-0.590933620929718,-0.282482773065567,-0.04677898809313774
0.75,0.05057018995285034,0.05645298212766647,0.0,0.5858778953552246,0.0,0.0,-0.8103993535041809,0.5520223379135132,-0.21258118748664856,0.0,0.0,0.0,-2.1128907203674316,0.36893442273139954,0.7423930168151855,0.4200000464916229,0.560966968536377,8.774034654379648e-08,-2.7418957415648038e-06,-0.8278381824493408,6.51159934932366e-05,-0.00025759110576473176,-8.160993456840515e-05,0.006488160230219364,-0.0018669025739654899,-0.0007022767094895244,0.41722384095191956,0.7560000419616699,0.5178750157356262,1.5873509645462036,-0.14975135028362274,2.135497808456421,0.37796810269355774,0.7366103529930115,0.42000001668930054,-0.6302833557128906,0.4917029142379761,-1.5946189165115356,-3.000000238418579,-0.17896400392055511,-0.1761036217212677,-0.17168235778808594,-0.1679590493440628,-0.15530353784561157,-0.1119719073176384,-0.020061349496245384,0.03420671448111534
0.7666666666666666,0.05630550533533096,0.05499567836523056,0.0,0.5905244946479797,0.0,0.0,-0.8070197105407715,0.2722075581550598,-0.03773929551243782,0.0,0.0,0.0,1.5255086421966553,0.36893442273139954,0.7423930168151855,0.4200000464916229,0.5609667897224426,1.085433964931326e-07,-2.6038649139081826e-06,-0.8278381824493408,6.897089042467996e-05,-0.0002571607765275985,-8.24399758130312e-05,0.00645504891872406,-0.0018209445988759398,-0.0007104861433617771,0.4398769736289978,0.7551283836364746,0.5474216938018799,1.0287220478057861,0.00826194602996111,1.487290859222412,0.37796810269355774,0.7366103529930115,0.42000001668930054,-0.5996080040931702,2.948726177215576,-1.5610123872756958,3.0000007152557373,-0.1797553300857544,-0.17646287381649017,-0.1709439754486084,-0.16658125817775726,0.04259436950087547,0.056115325540304184,0.09979914128780365,0.12343408167362213
0.7833333333333333,0.05799904838204384,0.05359523743391037,0.0,0.582890510559082,0.0,0.0,-0.8125507235527039,0.08293798565864563,-0.05369679629802704,0.0,0.0,0.0,-2.066555976867676,0.36893442273139954,0.7423930168151855,0.4200000464916229,0.5609671473503113,1.215391307596292e-07,-2.5477725102973636e-06,-0.8278380632400513,6.76943818689324e-05,-0.0002568298950791359,-8.209538646042347e-05,0.006454238668084145,-0.0018320095259696245,-0.0007067662663757801,0.4492972791194916,0.7564668655395508,0.5664931535720825,0.08586150407791138,0.06316064298152924,0.9527132511138916,0.37796810269355774,0.7366103529930115,0.42000001668930054,-0.5496413111686707,2.9999911785125732,-1.510971188545227,2.999999761581421,-0.17853261530399323,-0.17514480650424957,-0.1691930890083313,-0.1646357774734497,-0.03056219406425953,-0.002381770173087716,0.03418717160820961,0.05783259868621826
0.8,0.057369083166122437,0.054677851498126984,0.0,0.5881079435348511,0.0,0.0,-0.8087824583053589,-0.07911557704210281,0.12896160781383514,0.0,0.0,0.0,1.573081612586975,0.36893442273139954,0.7423929572105408,0.4200000464916229,0.5609670877456665,3.424470378377009e-07,-2.6319962671550456e-06,-0.8278380036354065,6.610726268263534e-05,-0.00025588099379092455,-8.179200813174248e-05,0.0064383926801383495,-0.0018467369955033064,-0.0007017191965132952,0.44622403383255005,0.7578023076057434,0.5811043977737427,-0.4599018096923828,0.14564169943332672,0.8342219591140747,0.37796810269355774,0.7366103529930115,0.42000001668930054,-0.499644935131073,2.9998621940612793,-1.497836947441101,-1.0821653604507446,-0.17884261906147003,-0.1750219464302063,-0.16857153177261353,-0.16361063718795776,0.0458655022084713,0.05553805083036423,0.06566629558801651,0.07731342315673828
0.8166666666666667,0.054658181965351105,0.05256512016057968,0.0,0.5809322595596313,0.0,0.0,-0.8139519095420837,-0.20039691030979156,-0.23266395926475525,0.0,0.0,0.0,-2.002936363220215,0.36893442273139954,0.7423930168151855,0.4200000464916229,0.5609669089317322,1.4788392377340642e-07,-2.6171123863605317e-06,-0.8278381824493408,6.94179252604954e-05,-0.00025684916181489825,-8.256337605416775e-05,0.006444101687520742,-0.0018152716802433133,-0.0007107006967999041,0.43246275186538696,0.7605898380279541,0.5892617702484131,-1.172471284866333,0.16661934554576874,0.32758399844169617,0.37796810269355774,0.7366103529930115,0.42000001668930054,-0.46718886494636536,1.0373777151107788,-1.4528194665908813,3.000000476837158,-0.17607863247394562,-0.17240162193775177,-0.1661338061094284,-0.16122518479824066,0.21517468988895416,0.20457738637924194,0.18747833371162415,0.18135809898376465
0.8333333333333334,0.054905544966459274,0.05535183846950531,0.0,0.586306095123291,0.0,0.0,-0.8100895881652832,-0.06223176792263985,0.193861722946167,0.0,0.0,0.0,1.4537612199783325,0.36893442273139954,0.7423930168151855,0.4200000464916229,0.5609667897224426,5.677515346746986e-08,-2.701768835322582e-06,-0.8278383016586304,6.828924233559519e-05,-0.00025753476074896753,-8.229585364460945e-05,0.006468548905104399,-0.0018306567799299955,-0.0007093925378285348,0.41551291942596436,0.7628042101860046,0.5956201553344727,-0.783251166343689,0.36602866649627686,0.4753275215625763,0.37796810269355774,0.7366103529930115,0.42000001668930054,-0.43963703513145447,2.1501200199127197,-1.4027782678604126,3.000000476837158,-0.17815840244293213,-0.17381447553634644,-0.16708022356033325,-0.16154244542121887,0.11409521847963333,0.08008194714784622,0.04160759225487709,0.026180634275078773
0.85,0.05563563480973244,0.05498119816184044,0.0,0.5794670581817627,0.0,0.0,-0.8149956464767456,0.13804911077022552,-0.04878325015306473,0.0,0.0,0.0,-1.746752142906189,0.36893442273139954,0.7423930168151855,0.4200000464916229,0.5609671473503113,2.594403802902434e-08,-2.9168684250180377e-06,-0.8278379440307617,6.509062950499356e-05,-0.0002594945253804326,-8.162064477801323e-05,0.006536171771585941,-0.001877579023130238,-0.0007065751706250012,0.40290001034736633,0.7670268416404724,0.6016209125518799,-0.7380295395851135,0.06530430167913437,0.3771103620529175,0.37796810269355774,0.7366103529930115,0.42000001668930054,-0.4524920582771301,-2.9998695850372314,-1.352725625038147,2.999999761581421,-0.17534767091274261,-0.1716921031475067,-0.16568689048290253,-0.1604081243276596,0.042887479066848755,0.03386121243238449,0.020564045757055283,0.03504536300897598
0.8666666666666667,0.0592653751373291,0.05217348039150238,0.0,0.5860069394111633,0.0,0.0,-0.8103060126304626,0.2633990943431854,-0.23938298225402832,0.0,0.0,0.0,1.7864166498184204,0.3689344525337219,0.7423930168151855,0.4200000464916229,0.560966968536377,1.429203848601901e-07,-2.4836635930114426e-06,-0.827838122844696,6.754670175723732e-05,-0.0002562245063018054,-8.208095096051693e-05,0.00643951166421175,-0.0018312220927327871,-0.0007054281886667013,0.39692842960357666,0.767922580242157,0.6058367490768433,-0.0636955201625824,0.023734334856271744,0.1895563006401062,0.37796810269355774,0.7366103529930115,0.42000001668930054,-0.48014435172080994,-0.5124911069869995,-1.3716877698898315,-3.000000476837158,-0.17492610216140747,-0.17089979350566864,-0.16456714272499084,-0.15847015380859375,0.020874781534075737,0.0689825788140297,0.1143212541937828,0.18888910114765167
0.8833333333333333,0.06516297906637192,0.0464906208217144,0.0,0.5799705982208252,0.0,0.0,-0.8146374225616455,0.3952706754207611,-0.39278900623321533,0.0,0.0,0.0,-1.8049384355545044,0.36893442273139954,0.7423930168151855,0.4200000464916229,0.5609667897224426,7.219355779852776e-08,-2.755037712631747e-06,-0.8278383016586304,6.845827010693029e-05,-0.0002579710562713444,-8.239527232944965e-05,0.006478118244558573,-0.0018327157013118267,-0.0007107931887730956,0.39966124296188354,0.7654667496681213,0.6065311431884766,0.4150282144546509,-0.2932893633842468,0.09390642493963242,0.37796810269355774,0.7366103529930115,0.42000001668930054,-0.5185083746910095,-3.000000476837158,-1.3333237171173096,3.000000238418579,-0.17548996210098267,-0.17045524716377258,-0.16312606632709503,-0.1555265337228775,-0.03532220050692558,0.034799691289663315,0.10454446822404861,0.20408010482788086
0.9,0.07370635867118835,0.04305405542254448,0.0,0.5563247203826904,0.0,0.0,-0.830964982509613,0.5655803084373474,-0.13503342866897583,0.0,0.0,0.0,-4.623177528381348,0.36893442273139954,0.7423930168151855,0.4200000464916229,0.5609673261642456,3.1117426857463215e-08,-2.577862233010819e-06,-0.8278379440307617,6.872070662211627e-05,-0.0002578696294222027,-8.237548172473907e-05,0.006474620196968317,-0.0018270795699208975,-0.0007118894136510789,0.40822991728782654,0.7599020600318909,0.6076430082321167,0.6190824508666992,-0.4286419153213501,0.1486692726612091,0.37796810269355774,0.7366103529930115,0.42000001668930054,-0.5404910445213318,0.11220745742321014,-1.3526482582092285,-2.999988317489624,-0.17586545646190643,-0.17034626007080078,-0.16253747045993805,-0.15397527813911438,0.003227155189961195,0.010048354044556618,0.01295545231550932,0.040430694818496704
0.9166666666666666,0.07953501492738724,0.042202651500701904,0.0,0.5460995435714722,0.0,0.0,-0.8377202749252319,0.25985878705978394,-0.007999931462109089,0.0,0.0,0.0,-0.46213462948799133,0.36893442273139954,0.7423930168151855,0.4200000464916229,0.5609667897224426,7.410667279827976e-08,-2.8085041776648723e-06,-0.8278383016586304,6.825773016316816e-05,-0.00025727564934641123,-8.228770457208157e-05,0.006461777724325657,-0.001829952816478908,-0.0007091468432918191,0.41733819246292114,0.7559983730316162,0.6102042198181152,0.42199939489364624,-0.12725581228733063,0.10854741930961609,0.37796810269355774,0.7366103529930115,0.42000001668930054,-0.5184654593467712,2.3195130825042725,-1.3181445598602295,2.999999761581421,-0.17305760085582733,-0.16805316507816315,-0.1608595997095108,-0.1525591015815735,0.2593967914581299,0.20557749271392822,0.14203470945358276,0.09481392800807953
