vladlanda/robotic-transformer/data/env_000_episode_0108.csv
sim_time_s,robot_box_x,robot_box_y,robot_box_z,robot_box_quat_w,robot_box_quat_x,robot_box_quat_y,robot_box_quat_z,robot_box_linvel_x,robot_box_linvel_y,robot_box_linvel_z,robot_box_angvel_x,robot_box_angvel_y,robot_box_angvel_z,cube_world_x,cube_world_y,cube_world_z,cube_quat_w,cube_quat_x,cube_quat_y,cube_quat_z,cube_linvel_x,cube_linvel_y,cube_linvel_z,cube_angvel_x,cube_angvel_y,cube_angvel_z,endpoint_world_x,endpoint_world_y,endpoint_world_z,endpoint_linvel_x,endpoint_linvel_y,endpoint_linvel_z,target_cube_world_x,target_cube_world_y,target_cube_world_z,gripper_actual_pos_rad_gp_leftgearjoint,gripper_actual_vel_rad_s_gp_leftgearjoint,gripper_actual_pos_rad_gp_rotatingjoint,gripper_actual_vel_rad_s_gp_rotatingjoint,motor_angle_rad_joint1,motor_angle_rad_joint2,motor_angle_rad_joint3,motor_angle_rad_joint4,motor_speed_rad_s_joint1,motor_speed_rad_s_joint2,motor_speed_rad_s_joint3,motor_speed_rad_s_joint4
0.0,0.0,0.0,0.0,1.0,0.0,0.0,0.0,0.0,0.0,0.0,0.0,0.0,0.0,-0.47725558280944824,0.7237067818641663,0.41999998688697815,1.0,0.0,0.0,0.0,0.0,0.0,0.0,0.0,0.0,0.0,3.42540442943573e-06,-0.005000244826078415,1.313499927520752,0.0,0.0,0.0,0.3538953959941864,0.7258825302124023,0.42000001668930054,-1.5707999467849731,0.0,0.0,0.0,0.0,0.0,0.0,0.0,0.0,0.0,0.0,0.0
0.016666666666666666,0.0028778850100934505,0.0021806680597364902,0.0,0.9998081922531128,0.0,0.0,0.019586581736803055,0.24087215960025787,0.18240931630134583,0.0,0.0,0.0,3.1418697834014893,-0.4772557020187378,0.7237064838409424,0.41999998688697815,1.0,3.2799832752061775e-06,-8.339598593920527e-07,8.465660528145236e-08,-1.9833856640616432e-05,0.00017983021098189056,-6.132945418357849e-05,0.0009432561928406358,-0.004689492750912905,-0.0003198107879143208,-0.007110234349966049,0.003379564033821225,1.3159373998641968,-0.8143353462219238,0.9868683815002441,0.18095196783542633,0.3538953959941864,0.7258825302124023,0.42000001668930054,-1.5301095247268677,3.0000011920928955,-0.04584788903594017,-2.9999992847442627,0.0008691533003002405,0.0007963840034790337,0.0007110277656465769,0.0006108740926720202,0.11094217747449875,0.09756709635257721,0.08334315568208694,0.06823883205652237
0.03333333333333333,0.008961846120655537,0.006812790874391794,0.0,0.9997941255569458,0.0,0.0,0.02029159478843212,0.40715938806533813,0.31538844108581543,0.0,0.0,0.0,-0.8721295595169067,-0.47725582122802734,0.7237064242362976,0.4200000464916229,1.0,3.3908236218849197e-06,-2.1324740373529494e-06,-3.7087911408661967e-08,0.0002635786950122565,0.00026937879738397896,-0.00010509719140827656,-0.0017707741353660822,0.004130927845835686,-0.00013548358401749283,-0.027552040293812752,0.02602081000804901,1.3166234493255615,-1.59158194065094,1.6147946119308472,-0.08193442225456238,0.3538953959941864,0.7258825302124023,0.42000001668930054,-1.4800903797149658,3.000002145767212,-0.09588772058486938,-3.0000007152557373,0.002990058157593012,0.0026527545414865017,0.002277403837069869,0.0018609340768307447,0.16426993906497955,0.13981224596500397,0.1138690710067749,0.08634903281927109
0.05,0.017761318013072014,0.013785301707684994,0.0,0.9993720650672913,0.0,0.0,0.03543327376246452,0.5940284132957458,0.46524104475975037,0.0,0.0,0.0,2.6450955867767334,-0.47725585103034973,0.7237064838409424,0.4200000464916229,1.0,3.7651166167051997e-06,-2.2119024833955336e-06,5.637348365894468e-09,0.0002653102274052799,0.00026691530365496874,-0.0001044049859046936,-0.0017243424663320184,0.004177475813776255,-0.00012949523807037622,-0.05969240888953209,0.053830452263355255,1.3116719722747803,-2.187859535217285,1.7566030025482178,-0.4742428958415985,0.3538953959941864,0.7258825302124023,0.42000001668930054,-1.4300720691680908,2.999999761581421,-0.145926371216774,-3.0,0.005712058395147324,0.004919884260743856,0.004055562429130077,0.003114663762971759,0.19274665415287018,0.15584667026996613,0.11707139760255814,0.07632747292518616
0.06666666666666667,0.02908024750649929,0.0230814628303051,0.0,0.9994453191757202,0.0,0.0,0.03330202400684357,0.7206006646156311,0.5953528881072998,0.0,0.0,0.0,-1.2140198945999146,-0.47725585103034973,0.7237064242362976,0.4200000464916229,0.9999999403953552,3.4067338674503844e-06,-2.2856738723930903e-06,4.301002434203838e-07,0.0002670263347681612,0.0002679180761333555,-0.00010437914170324802,-0.001740648876875639,0.004211838357150555,-0.00012851078645326197,-0.09815207123756409,0.08806633949279785,1.2990524768829346,-2.4431300163269043,2.2365899085998535,-1.014114499092102,0.3538953959941864,0.7258825302124023,0.42000001668930054,-1.3800537586212158,3.0000014305114746,-0.19596369564533234,-3.0000009536743164,0.008301959373056889,0.006822868250310421,0.005233250092715025,0.003526155836880207,0.15244466066360474,0.10174686461687088,0.049008239060640335,-0.005827493499964476
0.08333333333333333,0.03440866246819496,0.03581809252500534,0.0,0.9992017149925232,0.0,0.0,0.039948418736457825,0.18794910609722137,0.8288387060165405,0.0,0.0,0.0,1.8647907972335815,-0.47725585103034973,0.7237064242362976,0.4200000464916229,0.9999999403953552,3.6260375964047853e-06,-2.335399813091499e-06,3.0323869282256055e-07,0.0002661397447809577,0.0002668508095666766,-0.00010405457578599453,-0.0017283371416851878,0.004196438007056713,-0.00012790974869858474,-0.1405543088912964,0.12468867003917694,1.276951789855957,-2.6055123805999756,2.151231288909912,-1.5280300378799438,0.3538953959941864,0.7258825302124023,0.42000001668930054,-1.3300354480743408,3.0000009536743164,-0.2459740936756134,-3.0000007152557373,0.005370825994759798,0.003378386842086911,0.0012252368032932281,-0.0010995595948770642,-0.2610134482383728,-0.29730409383773804,-0.33609938621520996,-0.3776736259460449
0.1,0.04368923604488373,0.049326710402965546,0.0,0.9994988441467285,0.0,0.0,0.03165594860911369,0.6710006594657898,0.8265654444694519,0.0,0.0,0.0,-1.9275895357131958,-0.47725585103034973,0.7237064242362976,0.4200000464916229,1.0,3.4220713587274076e-06,-2.3086856799636735e-06,1.7965174947676132e-07,0.0002668143715709448,0.00026800335035659373,-0.00010440708138048649,-0.0017429604195058346,0.0042070322670042515,-0.00012891279766336083,-0.1796744167804718,0.1665499210357666,1.2519948482513428,-2.2039847373962402,2.7192978858947754,-1.5536363124847412,0.3538953959941864,0.7258825302124023,0.42000001668930054,-1.280018925666809,3.0000009536743164,-0.2959962487220764,-3.0,0.005919731687754393,0.002383374609053135,-0.0013096312759444118,-0.005170560907572508,0.06885931640863419,-0.043223682790994644,-0.1542346030473709,-0.2641095519065857
0.11666666666666667,0.05132476985454559,0.06526399403810501,0.0,0.9999856352806091,0.0,0.0,-0.005365789867937565,0.46136170625686646,1.024705171585083,0.0,0.0,0.0,-5.1074066162109375,-0.47725585103034973,0.7237064838409424,0.4200000464916229,1.0,3.711511908477405e-06,-2.332793883397244e-06,2.574444977199164e-07,0.00026485658599995077,0.0002663535997271538,-0.00010423408821225166,-0.001718230894766748,0.004170102532953024,-0.000129159219795838,-0.2138206660747528,0.21682503819465637,1.226754903793335,-1.9499733448028564,3.1936843395233154,-1.4594416618347168,0.3538953959941864,0.7258825302124023,0.42000001668930054,-1.2299983501434326,2.9999890327453613,-0.2617163062095642,3.000000476837158,0.005070504266768694,-0.0004211044870316982,-0.006040564272552729,-0.011797286570072174,3.92901711165905e-08,-0.13368064165115356,-0.26511943340301514,-0.39322659373283386
0.13333333333333333,0.05605024844408035,0.07994820177555084,0.0,0.9997572898864746,0.0,0.0,-0.02203209325671196,0.20807702839374542,0.7751052379608154,0.0,0.0,0.0,-0.8505155444145203,-0.47725585103034973,0.7237064242362976,0.4200000464916229,1.0,3.335756900924025e-06,-2.232025735793286e-06,3.1132088906815625e-07,0.000266698538325727,0.0002675947325769812,-0.00010428577661514282,-0.00173714489210397,0.004205858334898949,-0.00012839627743232995,-0.25117355585098267,0.26493722200393677,1.2018460035324097,-2.2810096740722656,2.8907623291015625,-1.5512962341308594,0.3538953959941864,0.7258825302124023,0.42000001668930054,-1.1881909370422363,2.066197156906128,-0.2927067279815674,-3.0000007152557373,0.003926298581063747,-0.0037122403737157583,-0.011425511911511421,-0.019206618890166283,-0.13370023667812347,-0.2532092034816742,-0.36920997500419617,-0.4808826446533203
0.15,0.05700229853391647,0.09433243423700333,0.0,0.9987533688545227,0.0,0.0,-0.04991670325398445,-0.0018148083472624421,0.9056799411773682,0.0,0.0,0.0,-4.181689739227295,-0.47725585103034973,0.7237064242362976,0.4200000464916229,1.0,3.5189823393011466e-06,-2.283213461851119e-06,-3.625408737661928e-07,0.0002661829348653555,0.00026735683786682785,-0.00010425481013953686,-0.001734927762299776,0.00419573811814189,-0.0001286085316678509,-0.2885205149650574,0.3191074728965759,1.1721501350402832,-2.1418297290802,3.5716300010681152,-2.049689531326294,0.3538953959941864,0.7258825302124023,0.42000001668930054,-1.1405537128448486,2.999992847442627,-0.25843873620033264,3.000000476837158,0.00022689391335006803,-0.00926196575164795,-0.018754540011286736,-0.028232883661985397,-0.3062637746334076,-0.4009028971195221,-0.4913119375705719,-0.5770270824432373
0.16666666666666666,0.06222032383084297,0.1113458126783371,0.0,0.9942891001701355,0.0,0.0,-0.10672006011009216,0.3617340922355652,1.0199819803237915,0.0,0.0,0.0,-7.615273952484131,-0.47725585103034973,0.7237064242362976,0.4200000464916229,1.0,3.6666531286755344e-06,-2.3392676666844636e-06,-3.149868348373275e-07,0.0002659579913597554,0.0002666742948349565,-0.00010403618216514587,-0.0017253393307328224,0.004192851949483156,-0.0001277901028515771,-0.32389968633651733,0.38061121106147766,1.1366758346557617,-2.0145578384399414,3.87751841545105,-2.3012354373931885,0.3538953959941864,0.7258825302124023,0.42000001668930054,-1.1092548370361328,0.9085250496864319,-0.2894987165927887,-2.9999990463256836,-0.004015505779534578,-0.015103382989764214,-0.026118161156773567,-0.03703560680150986,-0.41649869084358215,-0.4829455316066742,-0.5461903214454651,-0.6059899926185608
0.18333333333333332,0.06358058005571365,0.1257229596376419,0.0,0.9896711707115173,0.0,0.0,-0.14335602521896362,0.06441816687583923,0.8074777126312256,0.0,0.0,0.0,-3.2866251468658447,-0.47725585103034973,0.7237064242362976,0.4200000464916229,1.0,3.8143518850120017e-06,-2.399646291451063e-06,-2.7025731696994626e-07,0.0002654919517226517,0.00026611160137690604,-0.00010391208343207836,-0.001717837294563651,0.004184891935437918,-0.0001275384856853634,-0.3621492385864258,0.4415552616119385,1.0898678302764893,-2.1649513244628906,3.887057304382324,-3.216740608215332,0.3538953959941864,0.7258825302124023,0.42000001668930054,-1.0669113397598267,3.000000476837158,-0.33952632546424866,-3.000000238418579,-0.01635800302028656,-0.027498556300997734,-0.038546234369277954,-0.04948398843407631,-0.7583117485046387,-0.7468917965888977,-0.7340799570083618,-0.7204350829124451
0.2,0.0615486204624176,0.1415328085422516,0.0,0.981535792350769,0.0,0.0,-0.19127850234508514,-0.16610707342624664,0.9545318484306335,0.0,0.0,0.0,-6.649966716766357,-0.47725585103034973,0.7237064242362976,0.4200000464916229,1.0,3.600073569032247e-06,-2.291323880854179e-06,-2.2018119238964573e-07,0.00026572952629067004,0.00026644792524166405,-0.00010397983714938164,-0.001722598564811051,0.004188759718090296,-0.00012773163325618953,-0.3970051407814026,0.5075464248657227,1.0308951139450073,-1.884421944618225,4.122990131378174,-3.8021273612976074,0.3538953959941864,0.7258825302124023,0.42000001668930054,-1.0169121026992798,2.9999985694885254,-0.38955238461494446,-3.000000476837158,-0.03153260052204132,-0.042848728597164154,-0.05343646556138992,-0.06383159011602402,-0.9327228665351868,-0.938633143901825,-0.908373236656189,-0.8727418780326843
0.21666666666666667,0.06470606476068497,0.153432235121727,0.0,0.9752603769302368,0.0,0.0,-0.2210593819618225,0.25947603583335876,0.6609897017478943,0.0,0.0,0.0,-2.521803855895996,-0.47725585103034973,0.7237064242362976,0.4200000464916229,0.9999999403953552,3.6396959330886602e-06,-2.2620615709456615e-06,2.2247240849537775e-07,0.0002668746456038207,0.0002675444702617824,-0.00010411837138235569,-0.001740331994369626,0.00421107467263937,-0.00012783997226506472,-0.43104875087738037,0.5698891878128052,0.9603098630905151,-1.7614476680755615,3.7121334075927734,-4.7307891845703125,0.3538953959941864,0.7258825302124023,0.42000001668930054,-0.9669409990310669,2.9859588146209717,-0.4395797550678253,-3.0000009536743164,-0.04498419538140297,-0.05591229349374771,-0.0656517967581749,-0.07515303045511246,-0.9583837985992432,-0.8869932889938354,-0.7967517971992493,-0.7072469592094421
0.23333333333333334,0.06224710866808891,0.1674017459154129,0.0,0.9647239446640015,0.0,0.0,-0.26326367259025574,-0.15884464979171753,0.8337839245796204,0.0,0.0,0.0,-5.944391250610352,-0.47725582122802734,0.7237064242362976,0.4200000464916229,1.0,3.420747589188977e-06,-2.3168618099589366e-06,2.9559538461398915e-07,0.0002668018569238484,0.0002680394100025296,-0.00010442547500133514,-0.001743677188642323,0.0042068506591022015,-0.0001289943465963006,-0.457424521446228,0.625347375869751,0.8746107816696167,-1.304002046585083,3.2279467582702637,-5.354794502258301,0.3538953959941864,0.7258825302124023,0.42000001668930054,-0.9169303774833679,2.999972105026245,-0.489609032869339,-3.0000007152557373,-0.06182407587766647,-0.07260064780712128,-0.08225654810667038,-0.09164214134216309,-0.8623809814453125,-0.8765907287597656,-0.8936483860015869,-0.9097924828529358
0.25,0.06462951749563217,0.17669568955898285,0.0,0.9582830667495728,0.0,0.0,-0.28582096099853516,0.1710682213306427,0.4683479368686676,0.0,0.0,0.0,-1.6211131811141968,-0.47725585103034973,0.7237064242362976,0.4200000464916229,0.9999999403953552,3.3476092085038545e-06,-2.259211214550305e-06,1.8084379860283661e-07,0.00026687755598686635,0.00026791193522512913,-0.00010439427569508553,-0.0017404996324330568,0.004208226688206196,-0.00012869930651504546,-0.4803239405155182,0.669413685798645,0.7810635566711426,-1.0682061910629272,2.315856456756592,-5.939979553222656,0.3538953959941864,0.7258825302124023,0.42000001668930054,-0.8669214844703674,2.999999523162842,-0.5396389365196228,-3.0,-0.07606863975524902,-0.086760513484478,-0.09597772359848022,-0.10486940294504166,-0.9902670383453369,-0.9915373921394348,-0.9359362721443176,-0.8587952852249146
0.26666666666666666,0.061986904591321945,0.1854511797428131,0.0,0.9475613236427307,0.0,0.0,-0.3195740282535553,-0.14153331518173218,0.48948487639427185,0.0,0.0,0.0,-5.240816593170166,-0.47725585103034973,0.7237064242362976,0.4200000464916229,0.9999999403953552,3.535746600391576e-06,-2.3002696707408177e-06,-1.2686737704825646e-07,0.0002660173049662262,0.0002671213587746024,-0.00010419590398669243,-0.0017316379817202687,0.004192808177322149,-0.00012849376071244478,-0.4929312467575073,0.698341965675354,0.6787603497505188,-0.34046587347984314,1.3901695013046265,-6.1851301193237305,0.3538953959941864,0.7258825302124023,0.42000001668930054,-0.8169112205505371,2.999854326248169,-0.5896687507629395,-2.999917507171631,-0.09358863532543182,-0.10403647273778915,-0.11307613551616669,-0.12183582782745361,-0.7888833284378052,-0.8300792574882507,-0.8681594729423523,-0.9021744728088379
0.2833333333333333,0.05756800249218941,0.19073177874088287,0.0,0.9421958923339844,0.0,0.0,-0.33506259322166443,-0.3125993311405182,0.24884383380413055,0.0,0.0,0.0,-0.9141966700553894,-0.47725585103034973,0.7237064838409424,0.4200000464916229,1.0,3.5934926927438937e-06,-2.262580892420374e-06,-5.654662160736734e-08,0.00026704708579927683,0.00026775008882395923,-0.00010416633449494839,-0.0017431725282222033,0.004214146174490452,-0.00012789566244464368,-0.49860310554504395,0.7136880159378052,0.577716588973999,-0.08388665318489075,0.5342452526092529,-6.010919094085693,0.3538953959941864,0.7258825302124023,0.42000001668930054,-0.7669023871421814,2.999999523162842,-0.6396985054016113,-3.0000011920928955,-0.10981247574090958,-0.12018786370754242,-0.12917208671569824,-0.13787800073623657,-0.9970470666885376,-0.9977061748504639,-0.9982185363769531,-0.9986308813095093
0.3,0.05065447464585304,0.19250153005123138,0.0,0.9467146992683411,0.0,0.0,-0.322073370218277,-0.4682936370372772,0.05875808000564575,0.0,0.0,0.0,2.579275369644165,-0.47725582122802734,0.7237064242362976,0.4200000464916229,0.9999999403953552,3.7250299556035316e-06,-2.2360261482390342e-06,3.828811827588652e-07,0.0002647970977704972,0.00026673130923882127,-0.00010453816503286362,-0.001718895393423736,0.004166608210653067,-0.00013016520824749023,-0.499676913022995,0.7173213958740234,0.47959601879119873,0.11660196632146835,-0.1307573914527893,-5.753438472747803,0.3538953959941864,0.7258825302124023,0.42000001668930054,-0.7168939113616943,3.0000011920928955,-0.6897263526916504,-2.9999992847442627,-0.12689675390720367,-0.13716022670269012,-0.14606373012065887,-0.15470877289772034,-1.002625584602356,-1.0019892454147339,-1.0015062093734741,-1.001115322113037
0.31666666666666665,0.0414295420050621,0.19166721403598785,0.0,0.9459612965583801,0.0,0.0,-0.3242795169353485,-0.5911084413528442,-0.0934579074382782,0.0,0.0,0.0,-1.1954247951507568,-0.4777953326702118,0.7209724187850952,0.4199979901313782,0.9996630549430847,0.00026733052800409496,-0.00013474338629748672,-0.025952115654945374,0.015081627294421196,-0.13989746570587158,-0.008077532984316349,-0.3480043113231659,0.17397360503673553,-5.326501369476318,-0.49774909019470215,0.718911349773407,0.4302884042263031,0.10618988424539566,-0.005390174686908722,-0.23111465573310852,0.3538953959941864,0.7258825302124023,0.42000001668930054,-0.666888415813446,2.998483657836914,-0.7401654124259949,-2.999596357345581,-0.1364625096321106,-0.1474991738796234,-0.15701976418495178,-0.16604894399642944,-0.10031604021787643,-0.19471168518066406,-0.27025407552719116,-0.31798022985458374
0.3333333333333333,0.030018756166100502,0.18827605247497559,0.0,0.9499577283859253,0.0,0.0,-0.31237858533859253,-0.7369946241378784,-0.25437629222869873,0.0,0.0,0.0,2.2585670948028564,-0.4774641692638397,0.71950763463974,0.4200000464916229,0.9989690184593201,4.2580545311921014e-08,-6.89580986090732e-07,-0.04539675638079643,0.019806062802672386,-0.06957510113716125,-7.648603059351444e-06,0.0003564841754268855,6.047469014447415e-06,-1.6712512969970703,-0.4974578619003296,0.7259049415588379,0.4270092248916626,0.15061596035957336,0.5491284728050232,-0.22380758821964264,0.3538953959941864,0.7258825302124023,0.42000001668930054,-0.6168817281723022,2.999990224838257,-0.790210485458374,-3.0000011920928955,-0.14037202298641205,-0.15197919309139252,-0.1617870032787323,-0.17066511511802673,-0.3277229368686676,-0.319534569978714,-0.2967964708805084,-0.24978426098823547
0.35,0.022294970229268074,0.1817871630191803,0.0,0.9485662579536438,0.0,0.0,-0.3165786564350128,-0.38056543469429016,-0.4367656707763672,0.0,0.0,0.0,-1.3652667999267578,-0.47474318742752075,0.7228999733924866,0.42000019550323486,0.994831919670105,-6.874943665025057e-06,6.208644208527403e-06,-0.10153502225875854,0.22198857367038727,0.28200116753578186,-0.0003379345580469817,0.01909416727721691,-0.005496619734913111,-8.94302749633789,-0.4941393733024597,0.7319795489311218,0.42355677485466003,0.3426605463027954,0.3847652077674866,-0.19810974597930908,0.3538953959941864,0.7258825302124023,0.42000001668930054,-0.5668766498565674,2.999988317489624,-0.8402535915374756,-2.99999737739563,-0.14718639850616455,-0.15782016515731812,-0.16642580926418304,-0.1737152487039566,-0.4703280031681061,-0.36982041597366333,-0.2584230899810791,-0.12690752744674683
0.36666666666666664,0.01199350506067276,0.1736544966697693,0.0,0.9522107243537903,0.0,0.0,-0.3054419159889221,-0.713195264339447,-0.5106754302978516,0.0,0.0,0.0,2.3698954582214355,-0.4678303301334381,0.7327377796173096,0.4199994206428528,0.9896206855773926,-0.00011334048758726567,7.731764344498515e-05,-0.14370416104793549,0.5774929523468018,0.8254178762435913,-0.003576114308089018,0.1925964057445526,-0.07953762263059616,-4.952968597412109,-0.48567575216293335,0.7418184280395508,0.4209548234939575,0.6397862434387207,0.8200730085372925,-0.10238506644964218,0.3538953959941864,0.7258825302124023,0.42000001668930054,-0.5168717503547668,2.9999895095825195,-0.8902844190597534,-2.999943494796753,-0.15936918556690216,-0.16711536049842834,-0.1727248728275299,-0.17678193747997284,-0.7765296101570129,-0.5814446210861206,-0.3814924955368042,-0.16941004991531372
0.3833333333333333,0.005300240125507116,0.162986621260643,0.0,0.9510629177093506,0.0,0.0,-0.3089972138404846,-0.32971712946891785,-0.6798449754714966,0.0,0.0,0.0,-1.3114349842071533,-0.45854899287223816,0.745908796787262,0.4200000464916229,0.9840734004974365,-5.2728452715200547e-08,5.549395609705243e-07,-0.17776264250278473,0.5340807437896729,0.7622889876365662,-1.112155950977467e-05,0.0003813101793639362,0.0001235288509633392,-3.7185096740722656,-0.4735954999923706,0.7535832524299622,0.4210764765739441,0.8341561555862427,0.6150665283203125,0.09617916494607925,0.3538953959941864,0.7258825302124023,0.42000001668930054,-0.4668448865413666,2.9998042583465576,-0.9403150081634521,-2.999986410140991,-0.1696661114692688,-0.1740543246269226,-0.17615272104740143,-0.17643456161022186,-0.6056382060050964,-0.37478262186050415,-0.1341327577829361,0.12156214565038681
0.4,-0.004732229746878147,0.15070803463459015,0.0,0.9401692152023315,0.0,0.0,-0.3407078683376312,-0.7007584571838379,-0.763778030872345,0.0,0.0,0.0,-4.955899715423584,-0.443157434463501,0.7625861167907715,0.42175135016441345,0.9755612015724182,-0.02376571111381054,-0.004687679000198841,-0.21838845312595367,1.064460039138794,1.2832307815551758,-0.06505532562732697,14.268908500671387,-6.1032233238220215,-7.204213619232178,-0.45642954111099243,0.7697629928588867,0.4227757453918457,1.3212374448776245,1.373384952545166,0.10827524960041046,0.3538953959941864,0.7258825302124023,0.42000001668930054,-0.4168921411037445,2.8446667194366455,-0.9903265237808228,-3.0001795291900635,-0.18160876631736755,-0.18196873366832733,-0.1799107939004898,-0.1758398711681366,-0.6624338030815125,-0.43802791833877563,-0.20736561715602875,0.03333478048443794
0.4166666666666667,-0.011270014569163322,0.13563522696495056,0.0,0.9173384308815002,0.0,0.0,-0.3981083333492279,-0.36927366256713867,-0.9473156929016113,0.0,0.0,0.0,-8.15262508392334,-0.41431206464767456,0.7883492112159729,0.42446768283843994,0.9613671898841858,0.00464179553091526,-0.038970399647951126,-0.27245715260505676,2.4536521434783936,1.6825217008590698,0.17750591039657593,18.826412200927734,-12.34192943572998,8.449368476867676,-0.426541805267334,0.7970334887504578,0.42460107803344727,2.2345499992370605,1.7908095121383667,0.3752785623073578,0.3538953959941864,0.7258825302124023,0.42000001668930054,-0.3858194053173065,0.8563930988311768,-0.9737901091575623,2.996048927307129,-0.19101327657699585,-0.18777969479560852,-0.1820126324892044,-0.1740710288286209,-0.6370037198066711,-0.3962956368923187,-0.1509108543395996,0.09992364048957825
0.43333333333333335,-0.01609075255692005,0.12494923919439316,0.0,0.879836916923523,0.0,0.0,-0.4752756953239441,-0.24505506455898285,-0.5241568684577942,0.0,0.0,0.0,-11.000564575195312,-0.3533487319946289,0.8259071707725525,0.42920494079589844,0.9425250291824341,0.062132030725479126,-0.07925995439291,-0.3185966908931732,5.077307224273682,2.196094274520874,0.40369921922683716,4.5574116706848145,-8.507353782653809,16.709369659423828,-0.3644189238548279,0.8355368971824646,0.42917871475219727,4.859291076660156,2.870950937271118,0.3903003931045532,0.3538953959941864,0.7258825302124023,0.42000001668930054,-0.3731533885002136,0.857666015625,-0.9237696528434753,2.998887538909912,-0.20665918290615082,-0.19959817826747894,-0.18852499127388,-0.1755581945180893,-0.9135841131210327,-0.7913267016410828,-0.47768086194992065,-0.19246327877044678
0.45,-0.01710345782339573,0.11241480708122253,0.0,0.8238642811775208,0.0,0.0,-0.5667871236801147,0.01016770675778389,-0.897803544998169,0.0,0.0,0.0,-13.667957305908203,-0.2553005814552307,0.8711327910423279,0.43625202775001526,0.9073554277420044,0.09421374648809433,-0.095182403922081,-0.3984595835208893,7.007387161254883,2.009606122970581,0.5087754726409912,-0.8534090518951416,-4.731601238250732,19.19378662109375,-0.26553526520729065,0.882392942905426,0.4360737204551697,6.944657325744629,2.870110034942627,0.5852771401405334,0.3538953959941864,0.7258825302124023,0.42000001668930054,-0.3573397397994995,0.9545515775680542,-0.9494131207466125,-3.0000011920928955,-0.2211417704820633,-0.21122202277183533,-0.19502274692058563,-0.17758212983608246,-0.8390021920204163,-0.6442375779151917,-0.35631224513053894,-0.11453566700220108
0.4666666666666667,-0.019910559058189392,0.10263608396053314,0.0,0.7732490301132202,0.0,0.0,-0.634102463722229,-0.18005549907684326,-0.5404695272445679,0.0,0.0,0.0,-8.71599006652832,-0.14461030066013336,0.9025111794471741,0.4453519582748413,0.8646810054779053,0.14712269604206085,-0.10431376099586487,-0.46882861852645874,6.615962982177734,0.3799896240234375,0.5148572325706482,-4.641271591186523,-17.266265869140625,31.166481018066406,-0.15394505858421326,0.9162057042121887,0.4456962049007416,6.703404426574707,1.424363374710083,0.5617143511772156,0.3538953959941864,0.7258825302124023,0.42000001668930054,-0.34298914670944214,0.705007791519165,-0.9121562838554382,2.998044490814209,-0.2356589436531067,-0.2259075790643692,-0.20540621876716614,-0.18305493891239166,-0.7797764539718628,-0.7945815324783325,-0.5823055505752563,-0.3281378448009491
0.48333333333333334,-0.024899736046791077,0.0968802347779274,0.0,0.745251476764679,0.0,0.0,-0.6667835116386414,-0.34603193402290344,-0.2696670591831207,0.0,0.0,0.0,-4.018097877502441,-0.03871307522058487,0.9113731384277344,0.4519542455673218,0.8246210813522339,0.13420093059539795,-0.1162799820303917,-0.5370931625366211,6.232240200042725,-0.6718259453773499,0.6874390840530396,33.32158279418945,-6.871972560882568,26.702754974365234,-0.04669037461280823,0.9278474450111389,0.4535118639469147,6.304103851318359,-0.09668736159801483,0.36753934621810913,0.3538953959941864,0.7258825302124023,0.42000001668930054,-0.3322795033454895,0.552556037902832,-0.9375574588775635,-3.0000014305114746,-0.2400669902563095,-0.2400358021259308,-0.21763159334659576,-0.19022305309772491,0.006848855875432491,-0.02492067962884903,-0.8779131770133972,-0.5595476031303406
0.5,-0.027293648570775986,0.08707685023546219,0.0,0.7380566000938416,0.0,0.0,-0.6747387647628784,-0.13652710616588593,-0.5483153462409973,0.0,0.0,0.0,-0.1824144423007965,0.05480843782424927,0.9031978845596313,0.45526576042175293,0.780709981918335,0.10651246458292007,-0.10946225374937057,-0.6059412956237793,4.907580852508545,-2.147623300552368,0.4825635254383087,12.38558292388916,-3.9245564937591553,36.59264373779297,0.050480347126722336,0.9207264184951782,0.45796579122543335,5.403951644897461,-0.9970453977584839,0.12539203464984894,0.3538953959941864,0.7258825302124023,0.42000001668930054,-0.32553404569625854,0.18288831412792206,-0.9875814914703369,-3.0,-0.23738223314285278,-0.23702989518642426,-0.22641491889953613,-0.19461077451705933,-0.021193919703364372,0.09466977417469025,-0.43256083130836487,-0.17656370997428894
0.5166666666666666,-0.027322208508849144,0.07749445736408234,0.0,0.7227112650871277,0.0,0.0,-0.6911500692367554,0.0822593942284584,-0.6084074378013611,0.0,0.0,0.0,-3.4835989475250244,0.13429409265518188,0.8821067214012146,0.45295506715774536,0.714826226234436,0.057710036635398865,-0.11389874666929245,-0.6875463128089905,3.9884908199310303,-2.4835901260375977,0.2021206170320511,31.4379825592041,-15.706645011901855,44.74372482299805,0.1310039609670639,0.8995802402496338,0.4570038318634033,4.625046253204346,-1.681164264678955,-0.3431954085826874,0.3538953959941864,0.7258825302124023,0.42000001668930054,-0.32370689511299133,-0.049284305423498154,-1.0376040935516357,-3.000001907348633,-0.23767386376857758,-0.2349550426006317,-0.23129108548164368,-0.19640769064426422,-0.07394519448280334,0.10713925212621689,-0.19726160168647766,-0.06375046819448471
0.5333333333333333,-0.02405751310288906,0.07177916169166565,0.0,0.7201252579689026,0.0,0.0,-0.6938440799713135,0.2213343232870102,-0.3084419369697571,0.0,0.0,0.0,0.5154383182525635,0.20024412870407104,0.8527287840843201,0.44772493839263916,0.6574403047561646,0.053491342812776566,-0.0691901296377182,-0.7484139800071716,3.4994683265686035,-2.4518609046936035,-0.7673199772834778,-19.062101364135742,-0.21493904292583466,0.15327836573123932,0.1976824700832367,0.8670626878738403,0.4498291611671448,3.538654088973999,-2.079881191253662,-0.4583958387374878,0.3538953959941864,0.7258825302124023,0.42000001668930054,-0.3243144154548645,0.016124337911605835,-1.0876262187957764,-3.0000016689300537,-0.2397068440914154,-0.23387302458286285,-0.2338869273662567,-0.19783826172351837,0.03895106911659241,0.18251702189445496,-0.005766809917986393,-0.02390969730913639
0.55,-0.022467104718089104,0.0656309500336647,0.0,0.7079964876174927,0.0,0.0,-0.7062159776687622,0.04709675535559654,-0.38313838839530945,0.0,0.0,0.0,-3.0255398750305176,0.25617313385009766,0.8190480470657349,0.4301079511642456,0.5697382092475891,-0.0651765689253807,-0.13094870746135712,-0.8087044358253479,3.125258684158325,-1.9643133878707886,-1.1558544635772705,-9.87448501586914,4.347923755645752,-21.28761100769043,0.25189271569252014,0.833906888961792,0.4372994303703308,2.917912006378174,-2.014645576477051,-0.9470964670181274,0.3538953959941864,0.7258825302124023,0.42000001668930054,-0.31406140327453613,1.2096593379974365,-1.137648344039917,-2.999999761581421,-0.23530326783657074,-0.2281266748905182,-0.23111025989055634,-0.1969524472951889,0.3974878787994385,0.4398442804813385,0.2849070131778717,0.10175161808729172
0.5666666666666667,-0.019880451261997223,0.061756886541843414,0.0,0.7081499695777893,0.0,0.0,-0.7060620188713074,0.18227382004261017,-0.1501109004020691,0.0,0.0,0.0,0.8661168813705444,0.29836589097976685,0.7910584211349487,0.420444130897522,0.5325449109077454,0.0016621318645775318,-0.002963542938232422,-0.846394956111908,2.0396828651428223,-1.5527963638305664,-0.14284977316856384,-2.9504897594451904,-6.116987228393555,9.892972946166992,0.2946615219116211,0.8005475997924805,0.42108452320098877,1.781069278717041,-1.6729363203048706,-0.2918474078178406,0.3538953959941864,0.7258825302124023,0.42000001668930054,-0.28599873185157776,2.057447910308838,-1.1877186298370361,-3.000051259994507,-0.22868217527866364,-0.22135590016841888,-0.22649700939655304,-0.19626091420650482,0.4607827663421631,0.42963531613349915,0.3161133825778961,0.038682155311107635
0.5833333333333334,-0.015069788321852684,0.0559924952685833,0.0,0.6981689929962158,0.0,0.0,-0.7159330248832703,0.3311236500740051,-0.38383758068084717,0.0,0.0,0.0,-2.5093958377838135,0.3245760202407837,0.7723908424377441,0.42153969407081604,0.5328141450881958,0.013338899239897728,-0.0011830023722723126,-0.8461263179779053,1.5394490957260132,-1.7920650243759155,0.14745604991912842,-8.640615463256836,0.955579400062561,20.341876983642578,0.3218216896057129,0.7809131145477295,0.42232972383499146,1.432052731513977,-1.1022262573242188,-0.11061454564332962,0.3538953959941864,0.7258825302124023,0.42000001668930054,-0.25822487473487854,0.8695651888847351,-1.1519813537597656,3.000821590423584,-0.2188016176223755,-0.21277201175689697,-0.21972934901714325,-0.19476252794265747,0.5268338322639465,0.4535357654094696,0.38321149349212646,0.06099993363022804
0.6,-0.012236338108778,0.05369223654270172,0.0,0.700157642364502,0.0,0.0,-0.7139883041381836,0.1058349534869194,-0.10040118545293808,0.0,0.0,0.0,1.0973575115203857,0.3454647660255432,0.7517185807228088,0.4217262864112854,0.5316601395606995,0.0013680113479495049,0.006411887239664793,-0.8469322919845581,1.062018871307373,-1.2005043029785156,0.1052316427230835,5.210548400878906,5.831254959106445,2.108499526977539,0.34192097187042236,0.759773850440979,0.4229103624820709,1.0110852718353271,-1.1936557292938232,0.10359160602092743,0.3538953959941864,0.7258825302124023,0.42000001668930054,-0.269901841878891,-1.3718284368515015,-1.1738762855529785,-2.9992408752441406,-0.21261073648929596,-0.20745669305324554,-0.21470655500888824,-0.19472596049308777,0.42977187037467957,0.3542584478855133,0.3425694704055786,0.032128918915987015
0.6166666666666667,-0.008890683762729168,0.05412355437874794,0.0,0.6920323967933655,0.0,0.0,-0.7218664288520813,0.24737881124019623,0.10912871360778809,0.0,0.0,0.0,-2.1926188468933105,0.35808277130126953,0.7388238310813904,0.4229303300380707,0.5337483882904053,-0.015390243381261826,0.01917812041938305,-0.8452857136726379,0.5620438456535339,-0.36703529953956604,0.07666872441768646,-1.0215603113174438,1.3631532192230225,2.359550952911377,0.354716032743454,0.7478818893432617,0.42510318756103516,0.5520903468132019,-0.44523555040359497,0.15091723203659058,0.3538953959941864,0.7258825302124023,0.42000001668930054,-0.27780744433403015,0.2431761473417282,-1.2238306999206543,-3.0004868507385254,-0.20324812829494476,-0.20035044848918915,-0.20829331874847412,-0.1939590573310852,0.6233466863632202,0.46391385793685913,0.41690120100975037,0.07171182334423065
0.6333333333333333,-0.0025115972384810448,0.05014107748866081,0.0,0.6958934664726257,0.0,0.0,-0.7181450128555298,0.3503229022026062,-0.257379412651062,0.0,0.0,0.0,1.4597777128219604,0.3652990460395813,0.732670783996582,0.4223825931549072,0.546827495098114,-0.01964467391371727,0.008687885478138924,-0.8369696140289307,0.22978852689266205,-0.37544843554496765,-0.058437980711460114,-1.313352346420288,-2.2658333778381348,1.6779152154922485,0.3600669801235199,0.7402739524841309,0.4253247380256653,0.04933534562587738,-0.41901251673698425,-0.037897054105997086,0.3538953959941864,0.7258825302124023,0.42000001668930054,-0.30676984786987305,-2.9999923706054688,-1.210767388343811,2.9997072219848633,-0.1897677481174469,-0.1897352784872055,-0.19852297008037567,-0.18996106088161469,0.6989902257919312,0.5649711489677429,0.5549611449241638,0.250318318605423
0.65,0.005380837246775627,0.05050139129161835,0.0,0.6885371804237366,0.0,0.0,-0.7252010107040405,0.5239294171333313,0.011329550296068192,0.0,0.0,0.0,-2.0396971702575684,0.3662039041519165,0.7292442321777344,0.42059579491615295,0.5678385496139526,-0.004284786991775036,-0.009968253783881664,-0.8230684399604797,0.031226249411702156,-0.13915947079658508,-0.11500709503889084,4.068312168121338,0.16212241351604462,1.5451775789260864,0.3601539731025696,0.7388442754745483,0.4277048707008362,0.021103795617818832,0.08944258093833923,0.23516228795051575,0.3538953959941864,0.7258825302124023,0.42000001668930054,-0.35673436522483826,-2.9999585151672363,-1.2314658164978027,-2.998972177505493,-0.17972032725811005,-0.18192684650421143,-0.1907787322998047,-0.18691109120845795,0.7441531419754028,0.5730448365211487,0.5377063155174255,0.24495916068553925
0.6666666666666666,0.015424618497490883,0.047655992209911346,0.0,0.6932394504547119,0.0,0.0,-0.7207072973251343,0.6265368461608887,-0.2119884192943573,0.0,0.0,0.0,1.6640996932983398,0.3661346733570099,0.7284594774246216,0.42000001668930054,0.5723231434822083,-1.242037888005143e-05,-6.427570497180568e-06,-0.8200281858444214,-0.04761875420808792,-0.018230443820357323,-0.0005333929439075291,0.017478127032518387,-0.009439334273338318,1.7413431406021118,0.3589300513267517,0.7391176819801331,0.431095153093338,-0.14558762311935425,-0.00351787731051445,0.2001788318157196,0.3538953959941864,0.7258825302124023,0.42000001668930054,-0.4067615568637848,-3.0000011920928955,-1.2814629077911377,-2.999948263168335,-0.1693199872970581,-0.1736709326505661,-0.1825355440378189,-0.18275943398475647,0.47396931052207947,0.385463684797287,0.41611722111701965,0.21531620621681213
0.6833333333333333,0.02314605377614498,0.04789358749985695,0.0,0.6885822415351868,0.0,0.0,-0.7251582741737366,0.37180542945861816,0.040119968354701996,0.0,0.0,0.0,-1.9643433094024658,0.36594444513320923,0.7283720970153809,0.4200001358985901,0.5753011703491211,2.2023639758117497e-05,6.747142833773978e-06,-0.8179415464401245,0.0011593671515583992,0.0007154615595936775,-0.0007491863798350096,0.0002798292553052306,0.006640453357249498,-0.003440727712586522,0.3588019609451294,0.7401219606399536,0.4347624182701111,0.026275429874658585,0.11310344934463501,0.25740987062454224,0.3538953959941864,0.7258825302124023,0.42000001668930054,-0.45677122473716736,-2.999842405319214,-1.3314241170883179,-2.9992897510528564,-0.16343025863170624,-0.16888229548931122,-0.17690935730934143,-0.17973445355892181,0.4090384840965271,0.33923643827438354,0.3815727233886719,0.24183590710163116
0.7,0.03082149289548397,0.044730547815561295,0.0,0.6933862566947937,0.0,0.0,-0.7205660939216614,0.48752254247665405,-0.22261637449264526,0.0,0.0,0.0,1.6469312906265259,0.36586350202560425,0.7283874750137329,0.42000481486320496,0.576941967010498,8.871088357409462e-05,1.479219918110175e-05,-0.8167850971221924,-0.06774864345788956,0.01122566219419241,-0.00620094733312726,-0.10753782093524933,0.1927768737077713,3.474027156829834,0.3573794364929199,0.7414900064468384,0.44310930371284485,-0.16480550169944763,0.04531724005937576,0.7706053256988525,0.3538953959941864,0.7258825302124023,0.42000001668930054,-0.5067846179008484,-2.9989376068115234,-1.3814425468444824,-3.000000238418579,-0.15792278945446014,-0.16389866173267365,-0.17072108387947083,-0.17500503361225128,0.1617230474948883,0.1763373762369156,0.28527331352233887,0.2538270950317383
0.7166666666666667,0.040574438869953156,0.04131915047764778,0.0,0.6868082284927368,0.0,0.0,-0.7268386483192444,0.6212373971939087,-0.2528136074542999,0.0,0.0,0.0,-2.0076985359191895,0.36539793014526367,0.728374183177948,0.42000001668930054,0.582766056060791,-6.39649044842372e-07,1.508643435954582e-06,-0.8126398324966431,-0.0038551248144358397,-0.001486997352913022,-3.906179335899651e-05,-0.0011613453971222043,-0.0016757353441789746,0.12644414603710175,0.35865530371665955,0.7422308921813965,0.45293402671813965,0.28774410486221313,0.0026777125895023346,0.5798370838165283,0.3538953959941864,0.7258825302124023,0.42000001668930054,-0.556797206401825,-3.0000014305114746,-1.4314608573913574,-2.9999992847442627,-0.15715034306049347,-0.16228248178958893,-0.16677884757518768,-0.17065514624118805,0.025410274043679237,0.09955912828445435,0.2567279040813446,0.3214070796966553
0.7333333333333333,0.05254864692687988,0.03416938707232475,0.0,0.660723865032196,0.0,0.0,-0.7506290674209595,0.7610438466072083,-0.5052425861358643,0.0,0.0,0.0,-5.092737197875977,0.3653976023197174,0.7283744215965271,0.4200000464916229,0.5827661752700806,3.2879719924494566e-07,-2.803119741656701e-06,-0.8126398324966431,0.00012162225903011858,-0.0002723234356380999,-9.140674956142902e-05,0.0063776662573218346,-0.0012376115191727877,-0.0007150291348807514,0.367276132106781,0.7426537275314331,0.4697915315628052,0.7679980397224426,0.021706711500883102,1.5719423294067383,0.3538953959941864,0.7258825302124023,0.42000001668930054,-0.6068083643913269,-2.999967336654663,-1.4814791679382324,-2.9999992847442627,-0.15927350521087646,-0.16277320683002472,-0.16441960632801056,-0.16667987406253815,-0.2053958922624588,-0.09232965856790543,0.08383727818727493,0.20202051103115082
0.75,0.06723703444004059,0.03055981919169426,0.0,0.6478092670440674,0.0,0.0,-0.7618025541305542,0.8931356072425842,-0.19491851329803467,0.0,0.0,0.0,-0.9724417924880981,0.3653976023197174,0.7283744215965271,0.4200000464916229,0.5827662944793701,4.1826845631476317e-07,-3.1647323339711875e-06,-0.8126397132873535,0.00010665972513379529,-0.0002679518947843462,-8.974713273346424e-05,0.006327806040644646,-0.0014474806375801563,-0.0006805557641200721,0.38081735372543335,0.7467314004898071,0.5006147027015686,0.9198964238166809,0.4894879460334778,2.076289653778076,0.3538953959941864,0.7258825302124023,0.42000001668930054,-0.6255391836166382,0.46744975447654724,-1.5314974784851074,-2.999999761581421,-0.16504845023155212,-0.1669415533542633,-0.16617058217525482,-0.16679412126541138,-0.20250144600868225,-0.17373132705688477,-0.10447070002555847,-0.06630133837461472
0.7666666666666666,0.07896187901496887,0.029676856473088264,0.0,0.6588539481163025,0.0,0.0,-0.7522708773612976,0.6336212754249573,-0.0030037276446819305,0.0,0.0,0.0,2.5987210273742676,0.3653976023197174,0.7283744215965271,0.4200000464916229,0.5827664136886597,3.7653850881724793e-07,-3.1566532925353386e-06,-0.812639594078064,0.000107219246274326,-0.00026789691764861345,-8.984282612800598e-05,0.00632367143407464,-0.0014397924533113837,-0.0006816526874899864,0.39675092697143555,0.752393364906311,0.5282191038131714,0.9222979545593262,0.2616901993751526,1.315528392791748,0.3538953959941864,0.7258825302124023,0.42000001668930054,-0.5952684879302979,2.924515962600708,-1.4926797151565552,3.000000476837158,-0.16820915043354034,-0.16940303146839142,-0.16743528842926025,-0.16722112894058228,-0.13764777779579163,-0.09103577584028244,-0.02523125149309635,0.02650473266839981
0.7833333333333333,0.08594571053981781,0.02427445352077484,0.0,0.6576177477836609,0.0,0.0,-0.7533518075942993,0.3862060010433197,-0.31499233841896057,0.0,0.0,0.0,-1.1429189443588257,0.3653976023197174,0.7283744215965271,0.4200000464916229,0.5827664732933044,2.7957895554209244e-07,-3.2626724077999825e-06,-0.8126397132873535,0.0001055896354955621,-0.0002676983713172376,-8.950685150921345e-05,0.0063278586603701115,-0.001458374666981399,-0.0006776535301469266,0.4072950482368469,0.7567981481552124,0.5439858436584473,0.260811448097229,0.06008294224739075,0.7153770327568054,0.3538953959941864,0.7258825302124023,0.42000001668930054,-0.5663580298423767,0.7143188714981079,-1.4426270723342896,2.9999990463256836,-0.16641369462013245,-0.16731566190719604,-0.1648799180984497,-0.16428956389427185,-0.07146473228931427,-0.004726917948573828,0.05967288091778755,0.11845452338457108
0.8,0.08970329910516739,0.023319879546761513,0.0,0.6668952703475952,0.0,0.0,-0.7451514601707458,0.177775040268898,-0.017967259511351585,0.0,0.0,0.0,2.2696027755737305,0.3653976023197174,0.7283744215965271,0.4200000464916229,0.5827661156654358,4.1087125168814964e-07,-3.142371269859723e-06,-0.8126398324966431,0.00010663835564628243,-0.00026864290703088045,-8.973665535449982e-05,0.006345342844724655,-0.001451078220270574,-0.0006812278879806399,0.41173842549324036,0.7560877799987793,0.552741289138794,0.30326536297798157,-0.01920532062649727,0.3780570924282074,0.3538953959941864,0.7258825302124023,0.42000001668930054,-0.5440900921821594,1.8412724733352661,-1.4599217176437378,-3.0,-0.16961342096328735,-0.16907010972499847,-0.1653561145067215,-0.1635211706161499,-0.10152755677700043,-0.03951551020145416,0.008827782236039639,0.06195839121937752
0.8166666666666667,0.09021443873643875,0.01998639851808548,0.0,0.6638688445091248,0.0,0.0,-0.7478490471839905,0.005123978480696678,-0.29642948508262634,0.0,0.0,0.0,-1.3958805799484253,0.3653976023197174,0.7283744215965271,0.4200000464916229,0.5827661156654358,3.8443010907940334e-07,-3.0148073619784554e-06,-0.8126398324966431,0.00010603769624140114,-0.00026872422313317657,-8.959299884736538e-05,0.00635081622749567,-0.0014582258882001042,-0.0006799695547670126,0.4111865758895874,0.7556217908859253,0.552236795425415,-0.34371650218963623,-0.06616321951150894,-0.26480555534362793,0.3538953959941864,0.7258825302124023,0.42000001668930054,-0.5302273035049438,-0.027444448322057724,-1.4213080406188965,2.9999988079071045,-0.1701004058122635,-0.16873405873775482,-0.1645004153251648,-0.1620040237903595,0.007559813559055328,0.05404976010322571,0.0773724615573883,0.11077450215816498
0.8333333333333334,0.09148477762937546,0.01961708255112171,0.0,0.6706390380859375,0.0,0.0,-0.741783857345581,0.1148488000035286,-0.014114662073552608,0.0,0.0,0.0,1.7789011001586914,0.3653976023197174,0.7283744215965271,0.4200000464916229,0.5827664136886597,3.81859280196295e-07,-3.1153533655015053e-06,-0.812639594078064,0.00010698594996938482,-0.0002677525335457176,-8.981931023299694e-05,0.006321276538074017,-0.0014424117980524898,-0.0006809895858168602,0.4060717821121216,0.7545895576477051,0.5468162298202515,-0.18994417786598206,0.04150222986936569,-0.3446391224861145,0.3538953959941864,0.7258825302124023,0.42000001668930054,-0.5191217660903931,1.24256432056427,-1.43902587890625,-2.999999523162842,-0.1718074381351471,-0.16964229941368103,-0.16498763859272003,-0.16182628273963928,0.038108326494693756,0.041952770203351974,0.02681303210556507,0.0341019406914711
0.85,0.09115190804004669,0.017020491883158684,0.0,0.6651912331581116,0.0,0.0,-0.746673047542572,-0.08764725923538208,-0.1995275318622589,0.0,0.0,0.0,-1.7459889650344849,0.3653976023197174,0.7283744215965271,0.4200000464916229,0.5827664732933044,2.5995450414484367e-07,-3.218085566913942e-06,-0.8126397132873535,0.00010534142347751185,-0.00026775861624628305,-8.944841101765633e-05,0.006330645177513361,-0.0014616840053349733,-0.0006771815242245793,0.40313369035720825,0.7536503076553345,0.537163496017456,-0.16937631368637085,-0.17792701721191406,-0.6390702128410339,0.3538953959941864,0.7258825302124023,0.42000001668930054,-0.5361630320549011,-2.9130375385284424,-1.4004721641540527,3.000000238418579,-0.1718212366104126,-0.1694367378950119,-0.1648716777563095,-0.16139011085033417,-0.042418960481882095,-0.01591242291033268,-0.008256169967353344,0.024028055369853973
0.8666666666666667,0.0917254239320755,0.01788516156375408,0.0,0.6680222749710083,0.0,0.0,-0.7441412806510925,0.07289441674947739,0.13956943154335022,0.0,0.0,0.0,1.6448694467544556,0.3653976023197174,0.7283744215965271,0.4200000464916229,0.5827664732933044,4.125727173232008e-07,-3.329478431624011e-06,-0.812639594078064,0.00010775096598081291,-0.0002675584109965712,-9.000138379633427e-05,0.006312199868261814,-0.001432647928595543,-0.0006824509473517537,0.4017859697341919,0.7500715851783752,0.5289996862411499,0.011432391591370106,-0.21402165293693542,-0.28677889704704285,0.3538953959941864,0.7258825302124023,0.42000001668930054,-0.571474552154541,-1.4238814115524292,-1.4185962677001953,-2.9999988079071045,-0.1740560382604599,-0.17114757001399994,-0.1662703901529312,-0.16198083758354187,-0.11731495708227158,-0.09319330751895905,-0.07689964771270752,-0.026852674782276154
0.8833333333333333,0.09474045783281326,0.014964831061661243,0.0,0.6619529128074646,0.0,0.0,-0.7495453953742981,0.19485941529273987,-0.22106897830963135,0.0,0.0,0.0,-1.7896302938461304,0.3653976023197174,0.7283744215965271,0.4200000464916229,0.5827663540840149,4.3338303612472373e-07,-3.091376584052341e-06,-0.8126397132873535,0.00010498020856175572,-0.00026774214347824454,-8.93683172762394e-05,0.006331923417747021,-0.001466099638491869,-0.0006766112637706101,0.4053725600242615,0.747044563293457,0.5214441418647766,0.29802682995796204,-0.2698916792869568,-0.45734477043151855,0.3538953959941864,0.7258825302124023,0.42000001668930054,-0.6110787391662598,-2.999997138977051,-1.4686145782470703,-2.999999523162842,-0.17207616567611694,-0.16932733356952667,-0.1646246761083603,-0.15984944999217987,0.07506745308637619,0.09158682078123093,0.10796429216861725,0.16211861371994019
0.9,0.100155770778656,0.00983743742108345,0.0,0.6362263560295105,0.0,0.0,-0.7715024352073669,0.3791230618953705,-0.4156649708747864,0.0,0.0,0.0,-4.829649448394775,0.3653976023197174,0.7283744215965271,0.4200000464916229,0.5827664732933044,4.0507092080588336e-07,-3.264372708144947e-06,-0.812639594078064,0.00010677367390599102,-0.0002679477911442518,-8.973805233836174e-05,0.006327511742711067,-0.0014450352173298597,-0.0006807163008488715,0.4153335690498352,0.7426673173904419,0.5185854434967041,0.8901630640029907,-0.2583063244819641,0.2365858554840088,0.3538953959941864,0.7258825302124023,0.42000001668930054,-0.6610821485519409,-2.999995708465576,-1.5186328887939453,-2.999999761581421,-0.1730373054742813,-0.16981925070285797,-0.1646306812763214,-0.15876993536949158,-0.09545093029737473,-0.06512434035539627,-0.03280814737081528,0.033703628927469254
0.9166666666666666,0.10948511213064194,0.008955605328083038,0.0,0.6241398453712463,0.0,0.0,-0.7813126444816589,0.5143254399299622,0.0007619627867825329,0.0,0.0,0.0,-0.8068023324012756,0.3653976023197174,0.7283744215965271,0.4200000464916229,0.5827661752700806,3.998937359028787e-07,-3.1430251965502976e-06,-0.8126398324966431,0.00010662418208085,-0.0002686325751710683,-8.973060175776482e-05,0.006345227360725403,-0.0014511399203911424,-0.0006811757921241224,0.42551952600479126,0.740872859954834,0.5264620184898376,0.42940467596054077,0.19608311355113983,0.6455125212669373,0.3538953959941864,0.7258825302124023,0.42000001668930054,-0.6778610348701477,0.6802735924720764,-1.5686511993408203,-3.0000009536743164,-0.1787695586681366,-0.1747126579284668,-0.16881883144378662,-0.16190262138843536,-0.18333111703395844,-0.19679102301597595,-0.21857024729251862,-0.22107632458209991
