vladlanda/robotic-transformer/data/env_000_episode_0200.csv
sim_time_s,robot_box_x,robot_box_y,robot_box_z,robot_box_quat_w,robot_box_quat_x,robot_box_quat_y,robot_box_quat_z,robot_box_linvel_x,robot_box_linvel_y,robot_box_linvel_z,robot_box_angvel_x,robot_box_angvel_y,robot_box_angvel_z,cube_world_x,cube_world_y,cube_world_z,cube_quat_w,cube_quat_x,cube_quat_y,cube_quat_z,cube_linvel_x,cube_linvel_y,cube_linvel_z,cube_angvel_x,cube_angvel_y,cube_angvel_z,endpoint_world_x,endpoint_world_y,endpoint_world_z,endpoint_linvel_x,endpoint_linvel_y,endpoint_linvel_z,target_cube_world_x,target_cube_world_y,target_cube_world_z,gripper_actual_pos_rad_gp_leftgearjoint,gripper_actual_vel_rad_s_gp_leftgearjoint,gripper_actual_pos_rad_gp_rotatingjoint,gripper_actual_vel_rad_s_gp_rotatingjoint,motor_angle_rad_joint1,motor_angle_rad_joint2,motor_angle_rad_joint3,motor_angle_rad_joint4,motor_speed_rad_s_joint1,motor_speed_rad_s_joint2,motor_speed_rad_s_joint3,motor_speed_rad_s_joint4
0.0,0.0,0.0,0.0,1.0,0.0,0.0,0.0,0.0,0.0,0.0,0.0,0.0,0.0,-0.4137028455734253,0.6417233347892761,0.41999998688697815,1.0,0.0,0.0,0.0,0.0,0.0,0.0,0.0,0.0,0.0,3.42540442943573e-06,-0.005000244826078415,1.313499927520752,0.0,0.0,0.0,0.437375545501709,0.6286075115203857,0.42000001668930054,-1.5707999467849731,0.0,0.0,0.0,0.0,0.0,0.0,0.0,0.0,0.0,0.0,0.0
0.016666666666666666,0.0028778850100934505,0.0021806680597364902,0.0,0.9998081922531128,0.0,0.0,0.019586581736803055,0.24087215960025787,0.18240931630134583,0.0,0.0,0.0,3.1418697834014893,-0.41370296478271484,0.6417230367660522,0.41999998688697815,1.0,3.279964630564791e-06,-8.339746386809566e-07,8.465587342243452e-08,-1.9833529222523794e-05,0.00017983045836444944,-6.132945418357849e-05,0.0009432713268324733,-0.004689474124461412,-0.00031981561915017664,-0.007110234349966049,0.003379564033821225,1.3159373998641968,-0.8143353462219238,0.9868683815002441,0.18095196783542633,0.437375545501709,0.6286075115203857,0.42000001668930054,-1.5301095247268677,3.0000011920928955,-0.04584788903594017,-2.9999992847442627,0.0008691533003002405,0.0007963840034790337,0.0007110277656465769,0.0006108740926720202,0.11094217747449875,0.09756709635257721,0.08334315568208694,0.06823883205652237
0.03333333333333333,0.008960957638919353,0.006801827810704708,0.0,0.9997960329055786,0.0,0.0,0.020196828991174698,0.40701887011528015,0.31530511379241943,0.0,0.0,0.0,-0.8691297173500061,-0.4137030839920044,0.6417229771614075,0.4200000464916229,1.0,3.3908354453160428e-06,-2.1324485715012997e-06,-3.710144014235084e-08,0.00026357831666246057,0.00026937946677207947,-0.00010509486310184002,-0.0017707672668620944,0.004130808170884848,-0.000135478752781637,-0.027542928233742714,0.025831567123532295,1.3166530132293701,-1.5912494659423828,1.6056528091430664,-0.07832369953393936,0.437375545501709,0.6286075115203857,0.42000001668930054,-1.4800904989242554,3.000000238418579,-0.09588771313428879,-3.0000011920928955,0.002990195294842124,0.0026528416201472282,0.0022774459794163704,0.0018609323306009173,0.16422930359840393,0.13977578282356262,0.11383732408285141,0.08632191270589828
0.05,0.017670929431915283,0.013754503801465034,0.0,0.9994017481803894,0.0,0.0,0.03458517789840698,0.5918458700180054,0.46445631980895996,0.0,0.0,0.0,2.661179542541504,-0.4137031137943268,0.6417230367660522,0.4200000464916229,1.0,3.765139354072744e-06,-2.2119161258160602e-06,5.630195420991413e-09,0.0002653095289133489,0.00026691411039792,-0.00010440382175147533,-0.0017242460744455457,0.004177400842308998,-0.00012949357915204018,-0.05962160602211952,0.05322208255529404,1.3118383884429932,-2.186612844467163,1.7109285593032837,-0.45776888728141785,0.437375545501709,0.6286075115203857,0.42000001668930054,-1.4300721883773804,3.0000007152557373,-0.145926371216774,-3.000000476837158,0.005681244190782309,0.004890796262770891,0.004028230905532837,0.003088981844484806,0.19248345494270325,0.15558312833309174,0.11681072413921356,0.07607521116733551
0.06666666666666667,0.028954751789569855,0.02303759939968586,0.0,0.9994691014289856,0.0,0.0,0.03258158639073372,0.7184745073318481,0.5946135520935059,0.0,0.0,0.0,-1.198686122894287,-0.4137031137943268,0.6417229771614075,0.4200000464916229,0.9999999403953552,3.4067529668391217e-06,-2.2856381747260457e-06,4.300985096961085e-07,0.00026702662580646574,0.00026791892014443874,-0.00010437914170324802,-0.001740677747875452,0.004211848136037588,-0.0001285130565520376,-0.09835300594568253,0.08663951605558395,1.2996065616607666,-2.4747366905212402,2.180891990661621,-0.9851787090301514,0.437375545501709,0.6286075115203857,0.42000001668930054,-1.380043387413025,3.0000014305114746,-0.13978631794452667,3.000000476837158,0.008267981931567192,0.006793594919145107,0.005208726041018963,0.003506346372887492,0.15238463878631592,0.10198379307985306,0.04954235255718231,-0.004993161652237177
0.08333333333333333,0.0402587428689003,0.03465612232685089,0.0,0.9999997615814209,0.0,0.0,0.0006559713510796428,0.6894704103469849,0.7401677966117859,0.0,0.0,0.0,-4.738049030303955,-0.4137031137943268,0.6417229771614075,0.4200000464916229,0.9999999403953552,3.62606829185097e-06,-2.335380486329086e-06,3.0323212740768213e-07,0.0002661412872839719,0.00026685078046284616,-0.00010405294597148895,-0.001728333649225533,0.00419644033536315,-0.0001279062998946756,-0.13723140954971313,0.1255686730146408,1.2811264991760254,-2.270552635192871,2.3856420516967773,-1.1959753036499023,0.437375545501709,0.6286075115203857,0.42000001668930054,-1.3300366401672363,2.999999523162842,-0.17165963351726532,-3.0000011920928955,0.008747018873691559,0.0063623967580497265,0.003827201435342431,0.001134602352976799,-0.007821919396519661,-0.07345835864543915,-0.1409832090139389,-0.21049144864082336
0.1,0.04549063742160797,0.049798429012298584,0.0,0.9999023675918579,0.0,0.0,-0.01397543866187334,0.35151833295822144,0.797033429145813,0.0,0.0,0.0,-0.6758908033370972,-0.4137031137943268,0.6417229771614075,0.4200000464916229,1.0,3.4221370697196107e-06,-2.3086815872375155e-06,1.796389312858082e-07,0.00026681539020501077,0.00026800509658642113,-0.00010440591722726822,-0.0017431024461984634,0.004207069985568523,-0.00012891364167444408,-0.17901358008384705,0.16179722547531128,1.257509469985962,-2.5480732917785645,2.184777021408081,-1.3945695161819458,0.437375545501709,0.6286075115203857,0.42000001668930054,-1.2800124883651733,3.000002384185791,-0.13797245919704437,2.9999988079071045,0.003296125214546919,0.00017739504983182997,-0.003133069258183241,-0.006646451074630022,-0.14192327857017517,-0.22440609335899353,-0.3066028952598572,-0.3885922133922577
0.11666666666666667,0.056614894419908524,0.0608120821416378,0.0,0.9991647005081177,0.0,0.0,-0.04086402431130409,0.7476857304573059,0.6523053050041199,0.0,0.0,0.0,-3.9303882122039795,-0.4137031137943268,0.6417230367660522,0.4200000464916229,1.0,3.7115064515091944e-06,-2.332746817046427e-06,2.5743378273546114e-07,0.0002648558293003589,0.0002663525810930878,-0.0001042329240590334,-0.0017181531293317676,0.004169990308582783,-0.00012915756087750196,-0.21747471392154694,0.20394524931907654,1.2343515157699585,-2.138546943664551,2.835886001586914,-1.4286677837371826,0.437375545501709,0.6286075115203857,0.42000001668930054,-1.230013370513916,3.000001907348633,-0.16984504461288452,-3.000000476837158,0.0031984292436391115,-0.0018328239675611258,-0.007026596926152706,-0.012392316944897175,-0.07231779396533966,-0.19041667878627777,-0.30680277943611145,-0.42125654220581055
0.13333333333333333,0.06500303745269775,0.06939432770013809,0.0,0.9955488443374634,0.0,0.0,-0.09424690157175064,0.48888757824897766,0.4312727153301239,0.0,0.0,0.0,-7.221975326538086,-0.4137031137943268,0.6417229771614075,0.4200000464916229,0.9999999403953552,3.4247123039676808e-06,-2.3020688786346e-06,1.560015192580977e-07,0.00026707074721343815,0.00026811304269358516,-0.0001044438686221838,-0.0017433598404750228,0.004212041385471821,-0.0001287737104576081,-0.2530440390110016,0.2555786371231079,1.2053359746932983,-2.0900769233703613,3.3556175231933594,-1.9498151540756226,0.437375545501709,0.6286075115203857,0.42000001668930054,-1.1800018548965454,2.999990224838257,-0.13621041178703308,3.0000007152557373,-0.0014718555612489581,-0.008119611069560051,-0.014898112043738365,-0.021816208958625793,-0.25929170846939087,-0.35794496536254883,-0.4534677565097809,-0.5457914471626282
0.15,0.07011893391609192,0.07854816317558289,0.0,0.9921301603317261,0.0,0.0,-0.12521079182624817,0.23510092496871948,0.5936670303344727,0.0,0.0,0.0,-2.5767552852630615,-0.4137031137943268,0.6417229771614075,0.4200000464916229,1.0,3.713835667440435e-06,-2.2079088921600487e-06,-1.6908700217754813e-07,0.00026353431167081,0.0002653607807587832,-0.00010421895422041416,-0.001701335422694683,0.004144207574427128,-0.00012960559979546815,-0.2925443649291992,0.30700263381004333,1.1681177616119385,-2.2625980377197266,3.2789387702941895,-2.5152359008789062,0.437375545501709,0.6286075115203857,0.42000001668930054,-1.1306999921798706,2.8876149654388428,-0.16805437207221985,-3.000000476837158,-0.0073007200844585896,-0.015385899692773819,-0.023534782230854034,-0.03175629675388336,-0.4170686602592468,-0.48904818296432495,-0.5569238066673279,-0.6207725405693054
0.16666666666666666,0.07201750576496124,0.0864524245262146,0.0,0.9860243797302246,0.0,0.0,-0.1666012555360794,0.07133007794618607,0.39260831475257874,0.0,0.0,0.0,-5.890299320220947,-0.4137031137943268,0.6417229771614075,0.4200000464916229,0.9999999403953552,3.6383278256835183e-06,-2.2788660771766445e-06,2.7006709046872857e-07,0.00026682831230573356,0.00026749991229735315,-0.00010409974493086338,-0.001739937230013311,0.004210133571177721,-0.00012781568511854857,-0.32937178015708923,0.3652137219905853,1.1190435886383057,-2.0069169998168945,3.729640483856201,-3.331742286682129,0.437375545501709,0.6286075115203857,0.42000001668930054,-1.080770492553711,3.000002384185791,-0.21806924045085907,-2.999999523162842,-0.015712369233369827,-0.024745574221014977,-0.03376886248588562,-0.04279521852731705,-0.5687245726585388,-0.6073832511901855,-0.6420301198959351,-0.6730203628540039
0.18333333333333332,0.07905210554599762,0.09469405561685562,0.0,0.9805601239204407,0.0,0.0,-0.19621899724006653,0.5354660749435425,0.5288248062133789,0.0,0.0,0.0,-2.263218402862549,-0.4137031137943268,0.6417229771614075,0.4200000464916229,1.0,3.3863871067296714e-06,-2.3002933176030638e-06,1.4393209823992947e-07,0.00026674504624679685,0.0002678726159501821,-0.00010436959564685822,-0.0017412756569683552,0.0042059458792209625,-0.00012878415873274207,-0.36398547887802124,0.4242807626724243,1.0572171211242676,-1.8701694011688232,3.5415992736816406,-4.0510969161987305,0.437375545501709,0.6286075115203857,0.42000001668930054,-1.0307674407958984,3.0000009536743164,-0.26809775829315186,-3.0000009536743164,-0.02294163778424263,-0.03254745155572891,-0.04207313805818558,-0.05153973773121834,-0.4352460503578186,-0.45222699642181396,-0.4658348262310028,-0.4766382575035095
0.2,0.08191820234060287,0.10032501816749573,0.0,0.9718525409698486,0.0,0.0,-0.2355899065732956,0.14289157092571259,0.3411206305027008,0.0,0.0,0.0,-5.492071628570557,-0.4137031137943268,0.6417230367660522,0.4200000464916229,1.0,3.6754549910256173e-06,-2.3265376967174234e-06,2.211360623505243e-07,0.0002648445370141417,0.0002663123595993966,-0.00010421779006719589,-0.0017176861874759197,0.004169856198132038,-0.0001290989457629621,-0.39222007989883423,0.4836462736129761,0.9831907749176025,-1.3466503620147705,3.62813663482666,-4.681660175323486,0.437375545501709,0.6286075115203857,0.42000001668930054,-0.9807605743408203,2.9999985694885254,-0.31812527775764465,-3.0000009536743164,-0.03645502030849457,-0.04591888561844826,-0.05523547902703285,-0.06446855515241623,-0.7450624704360962,-0.7810293436050415,-0.8151113986968994,-0.8464606404304504
0.21666666666666667,0.08146291226148605,0.10746947675943375,0.0,0.9673771858215332,0.0,0.0,-0.25334036350250244,-0.09500209242105484,0.4606711268424988,0.0,0.0,0.0,-1.088530421257019,-0.4137031137943268,0.6417229771614075,0.4200000464916229,1.0,3.322217935419758e-06,-2.208007572335191e-06,2.74274469802549e-07,0.00026662900927476585,0.00026749528478831053,-0.00010426086373627186,-0.0017358182230964303,0.0042048669420182705,-0.00012833988876082003,-0.4169667959213257,0.535132646560669,0.9006032943725586,-1.2542651891708374,2.841398239135742,-5.214779853820801,0.437375545501709,0.6286075115203857,0.42000001668930054,-0.9307518005371094,3.0000007152557373,-0.3681550621986389,-2.9999990463256836,-0.05116952955722809,-0.06062500923871994,-0.0699128806591034,-0.07909020781517029,-0.9537840485572815,-0.9300446510314941,-0.9058520197868347,-0.8809710144996643
0.23333333333333334,0.08217821270227432,0.11200176924467087,0.0,0.9591038227081299,0.0,0.0,-0.28305450081825256,0.07367723435163498,0.19746436178684235,0.0,0.0,0.0,-4.401132583618164,-0.4137031137943268,0.6417229771614075,0.4200000464916229,1.0,3.6563753837981494e-06,-2.3734169189992826e-06,-4.076635491401248e-07,0.0002661168691702187,0.0002672604168765247,-0.00010423548519611359,-0.0017336057499051094,0.0041946847923099995,-0.00012855084787588567,-0.43515610694885254,0.5802911520004272,0.8066489696502686,-0.7721121311187744,2.448504686355591,-5.924253463745117,0.437375545501709,0.6286075115203857,0.42000001668930054,-0.8807411193847656,2.999997615814209,-0.4181859493255615,-3.00000262260437,-0.06718555092811584,-0.07641816139221191,-0.08545230329036713,-0.09436781704425812,-0.9896663427352905,-0.9917740225791931,-0.9895124435424805,-0.9854452610015869
0.25,0.07962357997894287,0.11777188628911972,0.0,0.9559078216552734,0.0,0.0,-0.293666809797287,-0.18892674148082733,0.37316030263900757,0.0,0.0,0.0,-0.28937944769859314,-0.4137031137943268,0.6417230367660522,0.4200000464916229,1.0,3.630414312283392e-06,-2.2426120267482474e-06,1.1219849938015614e-08,0.00026680229348130524,0.0002670614921953529,-0.00010390742681920528,-0.001734247081913054,0.00421068025752902,-0.0001270313368877396,-0.4467306137084961,0.6084259748458862,0.7089789509773254,-0.506573498249054,1.2856944799423218,-5.824036598205566,0.437375545501709,0.6286075115203857,0.42000001668930054,-0.8307313323020935,2.999998092651367,-0.4682171940803528,-3.0000011920928955,-0.0838840901851654,-0.0930103287100792,-0.10198990255594254,-0.11087978631258011,-0.9927264451980591,-0.9945422410964966,-0.9959555268287659,-0.9970864653587341
0.26666666666666666,0.08096756041049957,0.11994758993387222,0.0,0.9488810300827026,0.0,0.0,-0.31563398241996765,0.12967370450496674,0.07713395357131958,0.0,0.0,0.0,-3.390773296356201,-0.4137030839920044,0.6417229771614075,0.4200000464916229,0.9999999403953552,3.7400070596049773e-06,-2.2362767140293727e-06,4.499789270084875e-07,0.0002647957589942962,0.000266729824943468,-0.00010454049333930016,-0.0017189320642501116,0.004166644066572189,-0.0001301643205806613,-0.4514613449573517,0.6275582313537598,0.6070994138717651,0.12267519533634186,0.8177011609077454,-6.167522430419922,0.437375545501709,0.6286075115203857,0.42000001668930054,-0.7807225584983826,2.9999938011169434,-0.5182475447654724,-3.000000238418579,-0.09997813403606415,-0.10909906029701233,-0.11808378994464874,-0.1269863098859787,-1.0000571012496948,-1.0000367164611816,-1.0000238418579102,-1.0000134706497192
0.2833333333333333,0.07871633768081665,0.1199488714337349,0.0,0.9480407238006592,0.0,0.0,-0.31814897060394287,-0.21463796496391296,-0.02388286031782627,0.0,0.0,0.0,0.6233892440795898,-0.4137031137943268,0.6417229771614075,0.4200000464916229,1.0,3.3915171115950216e-06,-2.291076953042648e-06,1.2460760956400918e-07,0.0002667710359673947,0.00026789153343997896,-0.0001043747179210186,-0.0017412302549928427,0.004206305835396051,-0.00012878209236077964,-0.4461895823478699,0.6368077993392944,0.5135177969932556,0.6174748539924622,0.41969549655914307,-5.130773544311523,0.437375545501709,0.6286075115203857,0.42000001668930054,-0.7307137846946716,3.000000238418579,-0.5682762265205383,-2.9999988079071045,-0.11803420633077621,-0.12683969736099243,-0.1355881243944168,-0.14430572092533112,-1.018480658531189,-1.0139442682266235,-1.0104848146438599,-1.0077265501022339
0.3,0.07351794093847275,0.1176024079322815,0.0,0.9428843855857849,0.0,0.0,-0.33312010765075684,-0.31823962926864624,-0.20195956528186798,0.0,0.0,0.0,-2.716585159301758,-0.4137031137943268,0.6417230367660522,0.4200000464916229,1.0,3.6806081880058628e-06,-2.319014583918033e-06,2.010969240018312e-07,0.0002647903747856617,0.0002662577899172902,-0.00010421173647046089,-0.0017169492784887552,0.004168972838670015,-0.00012909305223729461,-0.4304237365722656,0.643031120300293,0.4286859631538391,1.2591352462768555,0.36143428087234497,-5.047405242919922,0.437375545501709,0.6286075115203857,0.42000001668930054,-0.6807068586349487,2.999993324279785,-0.6183031797409058,-2.9999988079071045,-0.13458938896656036,-0.14338208734989166,-0.15212726593017578,-0.16082555055618286,-1.000028133392334,-1.0000145435333252,-1.0000052452087402,-1.0000008344650269
0.31666666666666665,0.06670015305280685,0.11270017176866531,0.0,0.9434951543807983,0.0,0.0,-0.3313863277435303,-0.4488285183906555,-0.3330964744091034,0.0,0.0,0.0,1.1318464279174805,-0.4137031137943268,0.6417229771614075,0.4200000464916229,1.0,3.3041189908544766e-06,-2.2213887405087007e-06,2.535577721118898e-07,0.0002666086074896157,0.00026745055220089853,-0.00010424223728477955,-0.001735188765451312,0.004204343073070049,-0.0001282775483559817,-0.43117254972457886,0.6469718813896179,0.4246704578399658,0.03432463854551315,0.23090024292469025,-0.24127031862735748,0.437375545501709,0.6286075115203857,0.42000001668930054,-0.6307027339935303,2.9999849796295166,-0.6687353253364563,-2.9996819496154785,-0.1460879147052765,-0.15378230810165405,-0.161163792014122,-0.1681843250989914,-0.6748418807983398,-0.5923433899879456,-0.49538490176200867,-0.381855845451355
0.3333333333333333,0.05753902718424797,0.1055791974067688,0.0,0.939003586769104,0.0,0.0,-0.34390732645988464,-0.5970065593719482,-0.4677201807498932,0.0,0.0,0.0,-2.490389585494995,-0.41275596618652344,0.643685519695282,0.4200000464916229,0.9997557997703552,1.4530355656461325e-06,1.069441850631847e-06,-0.02209874801337719,0.07752169668674469,0.15596099197864532,-5.5310083553195e-06,-0.0002935429511126131,0.00027725769905373454,-3.34999680519104,-0.428899884223938,0.6501626372337341,0.4217427372932434,0.09303238242864609,0.16598254442214966,0.26868313550949097,0.437375545501709,0.6286075115203857,0.42000001668930054,-0.5806976556777954,3.0000007152557373,-0.7187862396240234,-2.999929189682007,-0.15773160755634308,-0.16364002227783203,-0.16893918812274933,-0.1735643744468689,-0.5933745503425598,-0.4771493971347809,-0.34098294377326965,-0.18448279798030853
0.35,0.04612988606095314,0.09620653837919235,0.0,0.9401004314422607,0.0,0.0,-0.3408975899219513,-0.7253941297531128,-0.6076714992523193,0.0,0.0,0.0,1.27790105342865,-0.4094071388244629,0.6507575511932373,0.42053940892219543,0.9941563010215759,-0.00376566918566823,0.007639128249138594,-0.10761292278766632,0.3625708222389221,0.7249131798744202,0.08511599153280258,-1.493577241897583,1.2059707641601562,-4.846686363220215,-0.4256793260574341,0.6580453515052795,0.42423057556152344,0.3058592677116394,0.7075927257537842,0.014344193041324615,0.437375545501709,0.6286075115203857,0.42000001668930054,-0.5306926965713501,3.000000476837158,-0.7688102722167969,-3.0000007152557373,-0.1680361032485962,-0.17162922024726868,-0.17425645887851715,-0.17586775124073029,-0.58771151304245,-0.4446788430213928,-0.27895811200141907,-0.09209425747394562
0.36666666666666664,0.03538350760936737,0.08442386984825134,0.0,0.9358304142951965,0.0,0.0,-0.3524506688117981,-0.5974087119102478,-0.7506222724914551,0.0,0.0,0.0,-2.382483959197998,-0.40229079127311707,0.6640968918800354,0.42011865973472595,0.9895334839820862,0.0007817363948561251,0.002621830441057682,-0.14427679777145386,0.543559730052948,0.9329370260238647,-0.05701614171266556,-1.0750563144683838,-2.117217540740967,-5.404618263244629,-0.41632166504859924,0.670752763748169,0.42190325260162354,0.8003584146499634,0.8529393672943115,-0.27184340357780457,0.437375545501709,0.6286075115203857,0.42000001668930054,-0.4806881248950958,2.999990463256836,-0.8188343048095703,-2.99963641166687,-0.17827507853507996,-0.17896120250225067,-0.1782865822315216,-0.17625214159488678,-0.570529043674469,-0.3828873634338379,-0.17203351855278015,0.05808303877711296
0.3833333333333333,0.02806798741221428,0.07003911584615707,0.0,0.9209184050559998,0.0,0.0,-0.3897554278373718,-0.330682635307312,-0.9194533824920654,0.0,0.0,0.0,-5.632933616638184,-0.39006051421165466,0.6831191778182983,0.4203994870185852,0.982329249382019,-0.00984934065490961,0.0015851963544264436,-0.18689441680908203,0.942491888999939,1.3382160663604736,0.09663813561201096,-4.593136787414551,1.6247774362564087,-6.825751781463623,-0.4006609618663788,0.6876134872436523,0.42097893357276917,1.1218541860580444,1.2289440631866455,0.15708091855049133,0.437375545501709,0.6286075115203857,0.42000001668930054,-0.4306061863899231,2.9986934661865234,-0.8688323497772217,-2.9999043941497803,-0.1864616423845291,-0.18412555754184723,-0.1799779087305069,-0.17409758269786835,-0.36962634325027466,-0.20209641754627228,-0.006295771338045597,0.21291860938072205
0.4,0.018980886787176132,0.05368141829967499,0.0,0.8920966982841492,0.0,0.0,-0.45184460282325745,-0.6437486410140991,-1.0030958652496338,0.0,0.0,0.0,-9.119924545288086,-0.3576658368110657,0.7089386582374573,0.42556989192962646,0.9717501997947693,0.02058405429124832,-0.03641362488269806,-0.23227517306804657,3.094017505645752,2.129913330078125,0.36281174421310425,30.998554229736328,-15.137334823608398,5.505850315093994,-0.36770886182785034,0.7148754596710205,0.42523565888404846,2.8165507316589355,2.11391544342041,0.5427327156066895,0.437375545501709,0.6286075115203857,0.42000001668930054,-0.39374038577079773,1.2816383838653564,-0.8421158194541931,2.994285821914673,-0.19677552580833435,-0.1906897872686386,-0.18247178196907043,-0.1723145842552185,-0.6963160037994385,-0.44715893268585205,-0.18519088625907898,0.0818084254860878
0.4166666666666667,0.011279822327196598,0.041793182492256165,0.0,0.8461610078811646,0.0,0.0,-0.5329273343086243,-0.3754698932170868,-0.7390432357788086,0.0,0.0,0.0,-11.714015007019043,-0.28581491112709045,0.7504755854606628,0.4331340193748474,0.9495561122894287,0.08609843999147415,-0.0803353413939476,-0.29064831137657166,5.754138469696045,2.5583250522613525,0.47955837845802307,14.724145889282227,-14.019219398498535,20.812480926513672,-0.29482918977737427,0.7580670118331909,0.4324537217617035,5.362596035003662,3.104923725128174,0.5295270681381226,0.437375545501709,0.6286075115203857,0.42000001668930054,-0.3763248026371002,0.8909381628036499,-0.7921222448348999,2.9950106143951416,-0.21038655936717987,-0.20133782923221588,-0.18821251392364502,-0.17337872087955475,-0.473329097032547,-0.49441954493522644,-0.2752680480480194,-0.07168497890233994
0.43333333333333335,0.007758879102766514,0.032269351184368134,0.0,0.8077733516693115,0.0,0.0,-0.5894931554794312,-0.15594127774238586,-0.5123478770256042,0.0,0.0,0.0,-6.977653503417969,-0.19331499934196472,0.7959117293357849,0.4425392150878906,0.9057192206382751,0.11372324079275131,-0.14079982042312622,-0.38329508900642395,5.992974758148193,2.064685821533203,0.7466400265693665,-0.18508777022361755,-7.057694911956787,-1.7885668277740479,-0.20268917083740234,0.8067367076873779,0.4427323639392853,5.824017524719238,2.5963053703308105,0.6806814670562744,0.437375545501709,0.6286075115203857,0.42000001668930054,-0.3608577847480774,0.9572975039482117,-0.8192688226699829,-3.000000476837158,-0.21906588971614838,-0.20975260436534882,-0.1933644711971283,-0.17567245662212372,-0.489316463470459,-0.45756995677948,-0.29116448760032654,-0.1534111499786377
0.45,0.006747004576027393,0.02062312886118889,0.0,0.7892768383026123,0.0,0.0,-0.6140374541282654,0.05750430002808571,-0.714484453201294,0.0,0.0,0.0,-2.3649792671203613,-0.09352880716323853,0.8246182799339294,0.45106837153434753,0.8419448733329773,0.05679062008857727,-0.22955550253391266,-0.4849824607372284,6.2384257316589355,0.23927068710327148,0.9142652750015259,11.038542747497559,-0.9285329580307007,31.54479217529297,-0.10226791352033615,0.8389353156089783,0.4546515941619873,6.363321781158447,1.2675557136535645,0.7160199880599976,0.437375545501709,0.6286075115203857,0.42000001668930054,-0.3451392948627472,0.8167792558670044,-0.8692930936813354,-3.00000262260437,-0.22927221655845642,-0.2177215814590454,-0.19753390550613403,-0.17660850286483765,-0.7412428259849548,-0.5321786403656006,-0.26376187801361084,-0.03217627480626106
0.4666666666666667,0.004531577229499817,0.014156111516058445,0.0,0.7633596658706665,0.0,0.0,-0.6459736824035645,-0.16572000086307526,-0.3867138624191284,0.0,0.0,0.0,-5.570427894592285,0.010059110820293427,0.828576385974884,0.45933833718299866,0.7572634220123291,0.02054336480796337,-0.26620015501976013,-0.5960432887077332,6.309322834014893,-1.0599631071090698,0.28515565395355225,-21.212345123291016,-7.620284557342529,7.544572830200195,0.0016509592533111572,0.8464152812957764,0.4653589129447937,6.286831378936768,-0.11749040335416794,0.673937201499939,0.437375545501709,0.6286075115203857,0.42000001668930054,-0.33336251974105835,0.5146093964576721,-0.919318437576294,-3.0000033378601074,-0.2400379180908203,-0.23000361025333405,-0.20482033491134644,-0.17953044176101685,-0.044225554913282394,-0.6516799926757812,-0.39472177624702454,-0.16476193070411682
0.48333333333333334,0.004811483900994062,0.0030734308529645205,0.0,0.7497249841690063,0.0,0.0,-0.6617494821548462,0.06668676435947418,-0.6466705799102783,0.0,0.0,0.0,-1.3509730100631714,0.11151652038097382,0.8135343790054321,0.46161746978759766,0.6333426237106323,-0.11658210307359695,-0.3345933258533478,-0.6879919767379761,5.508639335632324,-2.3127431869506836,0.39133182168006897,-2.319359064102173,14.517072677612305,23.850814819335938,0.10377486050128937,0.8357813358306885,0.47287532687187195,6.139191150665283,-1.2982335090637207,0.27724289894104004,0.437375545501709,0.6286075115203857,0.42000001668930054,-0.3272641897201538,0.1321166455745697,-0.9693427681922913,-2.996152400970459,-0.2389840930700302,-0.23669908940792084,-0.20787343382835388,-0.17943868041038513,-0.10684298723936081,-0.4038221836090088,-0.18526864051818848,-0.003016499802470207
0.5,0.004067589994519949,-0.003130731638520956,0.0,0.7281675338745117,0.0,0.0,-0.6853991746902466,-0.12466250360012054,-0.33422982692718506,0.0,0.0,0.0,-4.573166370391846,0.20269350707530975,0.7845008373260498,0.46132609248161316,0.5733768939971924,-0.11283549666404724,-0.2806580066680908,-0.7614054083824158,4.552255630493164,-2.8046786785125732,0.0008375309407711029,-3.34574556350708,22.669631958007812,10.697904586791992,0.19769906997680664,0.807604968547821,0.47282281517982483,5.497781753540039,-2.0996246337890625,-0.21042805910110474,0.437375545501709,0.6286075115203857,0.42000001668930054,-0.32759785652160645,-0.26715198159217834,-1.0193661451339722,-2.9895877838134766,-0.23973000049591064,-0.2397424727678299,-0.21267226338386536,-0.18194067478179932,0.03258538246154785,0.05022162199020386,-0.21537664532661438,-0.14525987207889557
0.5166666666666666,0.004212949890643358,-0.005679678171873093,0.0,0.7209070920944214,0.0,0.0,-0.6930316686630249,0.03803663328289986,-0.08707499504089355,0.0,0.0,0.0,-0.24316781759262085,0.2796933650970459,0.7466996908187866,0.4547782838344574,0.4977678060531616,-0.1527857631444931,-0.24723507463932037,-0.8171648383140564,3.963711977005005,-2.4088666439056396,-0.5270349979400635,2.13484525680542,4.360013484954834,-9.514185905456543,0.27708151936531067,0.7696667909622192,0.4669596552848816,4.187084197998047,-2.48551082611084,-0.4746094346046448,0.437375545501709,0.6286075115203857,0.42000001668930054,-0.32681238651275635,0.5537217259407043,-1.0693883895874023,-2.999861001968384,-0.23868803679943085,-0.23809903860092163,-0.2153647243976593,-0.18444745242595673,0.16544219851493835,0.19734948873519897,-0.0746159702539444,-0.13187441229820251
0.5333333333333333,0.00811855960637331,-0.01348294410854578,0.0,0.7037492394447327,0.0,0.0,-0.7104484438896179,0.2172025591135025,-0.4656589925289154,0.0,0.0,0.0,-3.683159589767456,0.34217262268066406,0.7097946405410767,0.440680593252182,0.4554034173488617,-0.1849043369293213,-0.23966296017169952,-0.8372452259063721,3.2599024772644043,-2.334477424621582,-0.9202501773834229,2.2513623237609863,5.336767196655273,-5.042044639587402,0.3423962891101837,0.7323392629623413,0.4539194703102112,3.4984614849090576,-2.304516553878784,-0.9878376722335815,0.437375545501709,0.6286075115203857,0.42000001668930054,-0.3084605038166046,1.4098312854766846,-1.119410514831543,-2.99979829788208,-0.22965091466903687,-0.2294434756040573,-0.21204110980033875,-0.18369434773921967,0.4671907424926758,0.47814854979515076,0.1917116791009903,0.018021168187260628
0.55,0.013360903598368168,-0.016358526423573494,0.0,0.6994673609733582,0.0,0.0,-0.7146645784378052,0.33149632811546326,-0.09216836839914322,0.0,0.0,0.0,0.213734433054924,0.38639354705810547,0.6761836409568787,0.4286212623119354,0.4449322819709778,-0.1767881065607071,-0.12681038677692413,-0.8687348961830139,1.9388599395751953,-2.9691343307495117,0.9223566055297852,-95.08915710449219,-1.79878830909729,7.992832183837891,0.38956525921821594,0.6958874464035034,0.4442524015903473,1.9039287567138672,-1.7778642177581787,-0.05869143456220627,0.437375545501709,0.6286075115203857,0.42000001668930054,-0.2911047339439392,0.5440812706947327,-1.1694326400756836,-2.9768714904785156,-0.2241986244916916,-0.22331871092319489,-0.21001695096492767,-0.18463771045207977,0.3562738597393036,0.3899916708469391,0.15436580777168274,-0.046514805406332016
0.5666666666666667,0.021271800622344017,-0.019602429121732712,0.0,0.6857540011405945,0.0,0.0,-0.7278333902359009,0.5345409512519836,-0.2040872573852539,0.0,0.0,0.0,-3.1806933879852295,0.4183076322078705,0.6550495624542236,0.42716270685195923,0.4534735381603241,-0.14373354613780975,-0.1131032258272171,-0.8723015189170837,1.341953992843628,-1.528926134109497,0.1621520072221756,-14.395140647888184,4.04728364944458,7.842496871948242,0.4196546673774719,0.6730090379714966,0.4435795247554779,1.4354722499847412,-1.056217908859253,0.06299073994159698,0.437375545501709,0.6286075115203857,0.42000001668930054,-0.2852855920791626,0.3604850471019745,-1.1316031217575073,2.9996466636657715,-0.21272453665733337,-0.21273818612098694,-0.20433712005615234,-0.18359707295894623,0.7743752598762512,0.6996157169342041,0.4050622880458832,0.10190385580062866
0.5833333333333334,0.02694018930196762,-0.02035481110215187,0.0,0.6845880746841431,0.0,0.0,-0.7289301753044128,0.2678493857383728,0.017808763310313225,0.0,0.0,0.0,0.6740082502365112,0.4369058907032013,0.6379401683807373,0.4260656535625458,0.46108245849609375,-0.12725472450256348,-0.09258217364549637,-0.8732912540435791,0.6669816374778748,-1.0124750137329102,-0.11204563826322556,4.660717964172363,2.089204788208008,0.271452933549881,0.4375095069408417,0.6535152792930603,0.44278597831726074,0.7784788608551025,-1.1196691989898682,-0.1628807783126831,0.437375545501709,0.6286075115203857,0.42000001668930054,-0.27205002307891846,1.1851410865783691,-1.1540836095809937,-2.9997100830078125,-0.2008419632911682,-0.20197051763534546,-0.19800733029842377,-0.18225406110286713,0.7002224922180176,0.6317688822746277,0.3821161985397339,0.07888378947973251
0.6,0.032667458057403564,-0.022985560819506645,0.0,0.6734769344329834,0.0,0.0,-0.7392082214355469,0.38683316111564636,-0.22389371693134308,0.0,0.0,0.0,-2.676284074783325,0.44426172971725464,0.6288050413131714,0.42385396361351013,0.4872978925704956,-0.09096754342317581,-0.05275839567184448,-0.8668806552886963,-0.08469215780496597,-1.078972339630127,0.289762407541275,-22.159914016723633,13.719013214111328,7.230429172515869,0.44421806931495667,0.6418079137802124,0.4406924545764923,0.04744558036327362,-0.35643866658210754,0.04331477731466293,0.437375545501709,0.6286075115203857,0.42000001668930054,-0.2583179771900177,0.27337345480918884,-1.116382122039795,3.000004291534424,-0.18930360674858093,-0.19165976345539093,-0.1915530562400818,-0.18076492846012115,0.6492764353752136,0.584284782409668,0.3812156915664673,0.0994320884346962
0.6166666666666667,0.040902815759181976,-0.022491902112960815,0.0,0.67459636926651,0.0,0.0,-0.738186776638031,0.5144198536872864,0.0567668192088604,0.0,0.0,0.0,1.0596637725830078,0.44477975368499756,0.6227707266807556,0.42423689365386963,0.5264829397201538,-0.10310352593660355,-0.06432321667671204,-0.8414558172225952,0.011046152561903,-0.25218647718429565,0.015160458162426949,-0.9337354302406311,0.4769437313079834,2.870087146759033,0.4422979950904846,0.6341753005981445,0.43882596492767334,-0.17187899351119995,-0.40732550621032715,-0.33770737051963806,0.437375545501709,0.6286075115203857,0.42000001668930054,-0.29306551814079285,-2.9999990463256836,-1.1391150951385498,-2.999998092651367,-0.18050254881381989,-0.18384100496768951,-0.18668413162231445,-0.18030354380607605,0.5884378552436829,0.5021610260009766,0.31773993372917175,0.04236610606312752
0.6333333333333333,0.050748229026794434,-0.019285544753074646,0.0,0.6876392364501953,0.0,0.0,-0.7260525226593018,0.6268072724342346,0.25200656056404114,0.0,0.0,0.0,2.686537265777588,0.44354042410850525,0.6197345852851868,0.42296111583709717,0.5287373065948486,-0.06743493676185608,-0.04207603260874748,-0.8450555205345154,-0.19164052605628967,-0.08787425607442856,-0.12539221346378326,7.429193019866943,-3.5381197929382324,0.9605197310447693,0.4387708008289337,0.6300634741783142,0.42959922552108765,-0.17885971069335938,0.08710156381130219,0.17546683549880981,0.437375545501709,0.6286075115203857,0.42000001668930054,-0.3400298058986664,-2.6367321014404297,-1.1890528202056885,-2.9994304180145264,-0.17080843448638916,-0.1759011447429657,-0.18176613748073578,-0.1798960119485855,0.5489638447761536,0.44874677062034607,0.2931148111820221,0.05150498449802399
0.65,0.06325864046812057,-0.02101965621113777,0.0,0.6867627501487732,0.0,0.0,-0.7268816232681274,0.7110992074012756,-0.11731007695198059,0.0,0.0,0.0,-1.1352754831314087,0.4406498968601227,0.6178869605064392,0.4200564920902252,0.541955828666687,0.00028077774913981557,-0.00038738385774195194,-0.8404067754745483,-0.1431509405374527,-0.12548355758190155,-0.009946182370185852,0.3650471866130829,0.3905593752861023,5.850188255310059,0.438037633895874,0.6357821226119995,0.43322038650512695,-0.04618091881275177,0.4314056634902954,0.24085693061351776,0.437375545501709,0.6286075115203857,0.42000001668930054,-0.389924556016922,-2.9989073276519775,-1.239014983177185,-2.999567747116089,-0.157024547457695,-0.16437748074531555,-0.17330887913703918,-0.17585024237632751,0.7094956636428833,0.621404767036438,0.4807659983634949,0.2569064199924469
0.6666666666666666,0.07668749243021011,-0.02389245480298996,0.0,0.6965156197547913,0.0,0.0,-0.7175416350364685,0.8519533276557922,-0.2517903447151184,0.0,0.0,0.0,2.4316766262054443,0.43818387389183044,0.6170801520347595,0.4200332760810852,0.5606076717376709,0.0004588531155604869,-0.0006843343144282699,-0.8280810713768005,-0.1536659598350525,-0.0282977893948555,-0.0018803278217092156,0.033089544624090195,0.07527633011341095,1.7245047092437744,0.4366788864135742,0.6405797004699707,0.43778926134109497,-0.07843174785375595,0.19891653954982758,0.3542861342430115,0.437375545501709,0.6286075115203857,0.42000001668930054,-0.4399385154247284,-2.9999845027923584,-1.2890334129333496,-3.0,-0.14926043152809143,-0.15690197050571442,-0.16670449078083038,-0.17144544422626495,0.30602481961250305,0.3362717628479004,0.3474441468715668,0.28393229842185974
0.6833333333333333,0.08972569555044174,-0.026304103434085846,0.0,0.6941617727279663,0.0,0.0,-0.7198190689086914,0.7298566699028015,-0.10506174713373184,0.0,0.0,0.0,-1.3941642045974731,0.4366072714328766,0.6167393922805786,0.42000022530555725,0.5701244473457336,-1.0008446224674117e-05,1.1447870747360867e-05,-0.8215582966804504,-0.07381852716207504,-0.0169278122484684,-0.0007675067754462361,-0.012099070474505424,-0.03431718423962593,1.270815372467041,0.43912890553474426,0.6426271796226501,0.4422643184661865,0.3275440037250519,0.03315427899360657,0.3333926498889923,0.437375545501709,0.6286075115203857,0.42000001668930054,-0.48995140194892883,-3.0000014305114746,-1.3390517234802246,-3.0000011920928955,-0.14772431552410126,-0.15396858751773834,-0.16244223713874817,-0.16698291897773743,0.005744956433773041,0.12168668955564499,0.24627450108528137,0.3103199601173401
0.7,0.1031995490193367,-0.031249308958649635,0.0,0.6716499328613281,0.0,0.0,-0.7408686280250549,0.8477848768234253,-0.37858352065086365,0.0,0.0,0.0,-4.542750358581543,0.43625885248184204,0.6166303753852844,0.4200001657009125,0.5737982392311096,1.146752993008704e-06,-2.1768553324363893e-06,-0.8189966082572937,-0.002879193052649498,-0.0016226235311478376,-0.00014353683218359947,-0.0022380307782441378,0.0054023838602006435,0.12718594074249268,0.4497835636138916,0.644058346748352,0.45603036880493164,0.9379509687423706,0.1128702163696289,1.4433484077453613,0.437375545501709,0.6286075115203857,0.42000001668930054,-0.539963960647583,-2.999979019165039,-1.3890700340270996,-2.999999761581421,-0.15038299560546875,-0.15439167618751526,-0.16033226251602173,-0.16324681043624878,-0.24383942782878876,-0.09970445185899734,0.06909459084272385,0.18881438672542572
0.7166666666666667,0.11914815753698349,-0.033209677785634995,0.0,0.6615135669708252,0.0,0.0,-0.7499332427978516,0.9622708559036255,-0.11446373909711838,0.0,0.0,0.0,-0.4750359356403351,0.4362587034702301,0.6166305541992188,0.4200000464916229,0.573798418045044,-8.975541021527533e-08,-2.9499340143956942e-06,-0.8189964890480042,7.917836046544835e-05,-0.00028758979169651866,-7.642852142453194e-05,0.007153911516070366,-0.0016204399289563298,-0.0006860682624392211,0.46790456771850586,0.6487770080566406,0.4859405755996704,1.2953813076019287,0.4679211676120758,2.1266140937805176,0.437375545501709,0.6286075115203857,0.42000001668930054,-0.5836918950080872,-2.273787021636963,-1.4390883445739746,-3.000000476837158,-0.1561114341020584,-0.15816330909729004,-0.16166602075099945,-0.16287484765052795,-0.1875147968530655,-0.13815589249134064,-0.05322536826133728,-0.002744954312220216
0.7333333333333333,0.13203682005405426,-0.032783687114715576,0.0,0.6752904057502747,0.0,0.0,-0.7375519275665283,0.705182671546936,0.07665929943323135,0.0,0.0,0.0,3.071634292602539,0.4362587034702301,0.616630494594574,0.4200000464916229,0.573798656463623,3.261476138050057e-07,-3.0446694836427923e-06,-0.8189963698387146,8.945116132963449e-05,-0.0002658312732819468,-8.650263771414757e-05,0.0064539602026343346,-0.0016396627761423588,-0.0006958728190511465,0.4897986054420471,0.6541306376457214,0.5133540630340576,1.2888447046279907,0.26694363355636597,1.2756251096725464,0.437375545501709,0.6286075115203857,0.42000001668930054,-0.5930299162864685,0.8850519061088562,-1.4891066551208496,-2.999999523162842,-0.15863960981369019,-0.15987472236156464,-0.16196928918361664,-0.1623048037290573,-0.08485987782478333,-0.0418320894241333,0.03471312299370766,0.08058138936758041
0.75,0.1402977705001831,-0.036715149879455566,0.0,0.6767913103103638,0.0,0.0,-0.7361748814582825,0.45191463828086853,-0.23403729498386383,0.0,0.0,0.0,-0.7426614165306091,0.4362586736679077,0.616630494594574,0.4200000464916229,0.5737985968589783,2.6590794277581153e-07,-3.022876398972585e-06,-0.8189963698387146,9.381730342283845e-05,-0.0002627114299684763,-8.749985136091709e-05,0.006349821109324694,-0.0015749161830171943,-0.0007008555112406611,0.5050387978553772,0.6598794460296631,0.5292116403579712,0.4648875594139099,0.23269879817962646,0.7881383299827576,0.437375545501709,0.6286075115203857,0.42000001668930054,-0.5983272790908813,-1.323063850402832,-1.4504119157791138,2.999999761581421,-0.15655271708965302,-0.15758144855499268,-0.15895012021064758,-0.15902477502822876,-0.036263834685087204,0.012052329257130623,0.08469673991203308,0.12622010707855225
0.7666666666666666,0.145133376121521,-0.03640611842274666,0.0,0.6882297396659851,0.0,0.0,-0.7254927754402161,0.24447232484817505,0.054252441972494125,0.0,0.0,0.0,2.6645052433013916,0.4362586736679077,0.6166305541992188,0.4200000464916229,0.5737985968589783,2.827114542469644e-07,-3.0522674023814034e-06,-0.8189964294433594,8.86096095200628e-05,-0.0002627922222018242,-8.63359309732914e-05,0.006381180603057146,-0.0016351760132238269,-0.0006890824297443032,0.5095906853675842,0.6622163653373718,0.538529634475708,0.1608104109764099,0.16687920689582825,0.37625402212142944,0.437375545501709,0.6286075115203857,0.42000001668930054,-0.5940387845039368,1.5821675062179565,-1.4675488471984863,-2.999999523162842,-0.15912361443042755,-0.15900923311710358,-0.15890733897686005,-0.15803274512290955,-0.07010745257139206,-0.02366069331765175,0.0407235249876976,0.07756524533033371
0.7833333333333333,0.1465858519077301,-0.039463695138692856,0.0,0.6871933937072754,0.0,0.0,-0.7264745235443115,0.014357808977365494,-0.1969594806432724,0.0,0.0,0.0,-0.9322981238365173,0.4362586736679077,0.616630494594574,0.4200000464916229,0.573798418045044,2.400671803570731e-07,-2.911171804953483e-06,-0.8189964890480042,9.402504656463861e-05,-0.00026184559101238847,-8.740578778088093e-05,0.0063286409713327885,-0.0015636126045137644,-0.000699356198310852,0.5059981346130371,0.6659505367279053,0.5393584966659546,-0.6355035305023193,0.22732478380203247,-0.10611269623041153,0.437375545501709,0.6286075115203857,0.42000001668930054,-0.5967717170715332,-1.6302655935287476,-1.4289164543151855,3.000000238418579,-0.1594138741493225,-0.15871961414813995,-0.1577797532081604,-0.15647205710411072,-0.09717634320259094,-0.04756411537528038,0.013240229338407516,0.050050560384988785
0.8,0.14900517463684082,-0.03850574418902397,0.0,0.6973588466644287,0.0,0.0,-0.7167221307754517,0.18639130890369415,0.051022663712501526,0.0,0.0,0.0,2.353100299835205,0.4362586736679077,0.6166305541992188,0.4200000464916229,0.5737985968589783,2.560763334713556e-07,-2.8647777980950195e-06,-0.8189964294433594,9.300700185121968e-05,-0.0002629808441270143,-8.725328370928764e-05,0.006361566483974457,-0.0015838575782254338,-0.0006993318093009293,0.4965397119522095,0.6685985922813416,0.5375649929046631,-0.4072476327419281,0.22579529881477356,-0.07875441014766693,0.437375545501709,0.6286075115203857,0.42000001668930054,-0.5967411398887634,1.3739900588989258,-1.4464845657348633,-2.999999523162842,-0.16264934837818146,-0.16094425320625305,-0.15876616537570953,-0.15650108456611633,-0.04382828623056412,-0.02087830752134323,0.021402429789304733,0.0576784722507
0.8166666666666667,0.1495349407196045,-0.041474711149930954,0.0,0.694885790348053,0.0,0.0,-0.7191201448440552,-0.02068786881864071,-0.20215658843517303,0.0,0.0,0.0,-1.2623039484024048,0.4362586736679077,0.6166305541992188,0.4200000464916229,0.573798418045044,2.730061225975078e-07,-3.1068079806573223e-06,-0.8189965486526489,8.797505870461464e-05,-0.00026619204436428845,-8.608284406363964e-05,0.00647162739187479,-0.001656286884099245,-0.0006929687224328518,0.4890900254249573,0.6718136668205261,0.5346522331237793,-0.5497170686721802,0.07750695198774338,-0.12344776093959808,0.437375545501709,0.6286075115203857,0.42000001668930054,-0.6145713329315186,-3.0000009536743164,-1.4079139232635498,3.000000238418579,-0.16277159750461578,-0.16072887182235718,-0.15789894759655,-0.15500737726688385,-0.11222296953201294,-0.06715863198041916,-0.005848628468811512,0.0546388253569603
0.8333333333333334,0.15133991837501526,-0.04098907485604286,0.0,0.6828590631484985,0.0,0.0,-0.7305501103401184,0.15441463887691498,0.06499963998794556,0.0,0.0,0.0,-2.3480944633483887,0.4362586736679077,0.6166305541992188,0.4200000464916229,0.5737985968589783,2.4921240537878475e-07,-2.868227966246195e-06,-0.8189964294433594,9.161930938716978e-05,-0.00026340907788835466,-8.68809875100851e-05,0.0063813719898462296,-0.0015996572328731418,-0.0006966757937334478,0.48566734790802,0.6742271184921265,0.5354944467544556,0.14123032987117767,0.2142564058303833,0.3046116828918457,0.437375545501709,0.6286075115203857,0.42000001668930054,-0.6380544900894165,-0.052983179688453674,-1.4259090423583984,-3.000000238418579,-0.16613848507404327,-0.16342957317829132,-0.15958404541015625,-0.15554705262184143,-0.1258184164762497,-0.1108715757727623,-0.07014084607362747,-0.012894169427454472
0.85,0.15549840033054352,-0.04392893612384796,0.0,0.6852790117263794,0.0,0.0,-0.7282806634902954,0.28206849098205566,-0.20956335961818695,0.0,0.0,0.0,1.2249900102615356,0.4362586736679077,0.6166305541992188,0.4200000464916229,0.573798418045044,3.008759392741922e-07,-3.1088770811038557e-06,-0.8189965486526489,8.78927021403797e-05,-0.0002661540056578815,-8.606188930571079e-05,0.006471200380474329,-0.0016569376457482576,-0.000692708941642195,0.48639464378356934,0.6780455708503723,0.5451114177703857,-0.03335261344909668,0.21598660945892334,0.8456823825836182,0.437375545501709,0.6286075115203857,0.42000001668930054,-0.644548773765564,-0.667328953742981,-1.3906389474868774,2.999999761581421,-0.16688403487205505,-0.16394518315792084,-0.15950384736061096,-0.15460579097270966,-0.1220640316605568,-0.09125950187444687,-0.04325684905052185,0.018329821527004242
0.8666666666666667,0.15793947875499725,-0.04993458092212677,0.0,0.7062594294548035,0.0,0.0,-0.707953155040741,0.09838845580816269,-0.4546072483062744,0.0,0.0,0.0,4.281692028045654,0.4362586736679077,0.6166305541992188,0.4200000464916229,0.5737985968589783,2.4323330194420123e-07,-2.869683839890058e-06,-0.8189964294433594,9.169347322313115e-05,-0.0002634525008033961,-8.689961396157742e-05,0.006381914485245943,-0.0015991213731467724,-0.000696919159963727,0.48585253953933716,0.6767774224281311,0.5584664344787598,-0.009609166532754898,-0.22666452825069427,0.8305133581161499,0.437375545501709,0.6286075115203857,0.42000001668930054,-0.6491827964782715,0.05078819394111633,-1.340915322303772,2.937748670578003,-0.17028982937335968,-0.16601811349391937,-0.16000086069107056,-0.1533287614583969,-0.1841171383857727,-0.08616188168525696,0.025165099650621414,0.1488807052373886
0.8833333333333333,0.15724673867225647,-0.051560547202825546,0.0,0.7140269875526428,0.0,0.0,-0.7001181840896606,-0.01919168047606945,-0.04095083475112915,0.0,0.0,0.0,0.12763097882270813,0.4362586736679077,0.6166305541992188,0.4200000464916229,0.573798418045044,3.0143968388074427e-07,-3.11076701109414e-06,-0.8189965486526489,8.796074689598754e-05,-0.0002662012411747128,-8.60774889588356e-05,0.006471971515566111,-0.001656500156968832,-0.0006929446244612336,0.48420417308807373,0.6724656820297241,0.56992506980896,-0.07913391292095184,-0.30825313925743103,0.6235967874526978,0.437375545501709,0.6286075115203857,0.42000001668930054,-0.6501439809799194,-0.14535750448703766,-1.339621663093567,-2.3268885612487793,-0.177210733294487,-0.17081709206104279,-0.16254571080207825,-0.15348747372627258,-0.3097653388977051,-0.2155967652797699,-0.11238222569227219,0.001732750330120325
