vladlanda/robotic-transformer/data/env_000_episode_0245.csv
sim_time_s,robot_box_x,robot_box_y,robot_box_z,robot_box_quat_w,robot_box_quat_x,robot_box_quat_y,robot_box_quat_z,robot_box_linvel_x,robot_box_linvel_y,robot_box_linvel_z,robot_box_angvel_x,robot_box_angvel_y,robot_box_angvel_z,cube_world_x,cube_world_y,cube_world_z,cube_quat_w,cube_quat_x,cube_quat_y,cube_quat_z,cube_linvel_x,cube_linvel_y,cube_linvel_z,cube_angvel_x,cube_angvel_y,cube_angvel_z,endpoint_world_x,endpoint_world_y,endpoint_world_z,endpoint_linvel_x,endpoint_linvel_y,endpoint_linvel_z,target_cube_world_x,target_cube_world_y,target_cube_world_z,gripper_actual_pos_rad_gp_leftgearjoint,gripper_actual_vel_rad_s_gp_leftgearjoint,gripper_actual_pos_rad_gp_rotatingjoint,gripper_actual_vel_rad_s_gp_rotatingjoint,motor_angle_rad_joint1,motor_angle_rad_joint2,motor_angle_rad_joint3,motor_angle_rad_joint4,motor_speed_rad_s_joint1,motor_speed_rad_s_joint2,motor_speed_rad_s_joint3,motor_speed_rad_s_joint4
0.0,0.0,0.0,0.0,1.0,0.0,0.0,0.0,0.0,0.0,0.0,0.0,0.0,0.0,-0.33865347504615784,0.7072257995605469,0.41999998688697815,1.0,0.0,0.0,0.0,0.0,0.0,0.0,0.0,0.0,0.0,3.42540442943573e-06,-0.005000244826078415,1.313499927520752,0.0,0.0,0.0,0.40102556347846985,0.6881817579269409,0.42000001668930054,-1.5707999467849731,0.0,0.0,0.0,0.0,0.0,0.0,0.0,0.0,0.0,0.0,0.0
0.016666666666666666,0.0028879796154797077,0.0021292681340128183,0.0,0.9998604655265808,0.0,0.0,-0.016704224050045013,0.2396123856306076,0.17950983345508575,0.0,0.0,0.0,-3.1456704139709473,-0.3386535942554474,0.707225501537323,0.41999998688697815,1.0,3.2799914606584935e-06,-8.339814598912199e-07,8.465387679734704e-08,-1.9833554688375443e-05,0.00017983050202019513,-6.133061833679676e-05,0.0009432226070202887,-0.004689437802881002,-0.0003198152990080416,-0.006991958245635033,0.004065643530339003,1.3159327507019043,-0.7949599027633667,1.0438146591186523,0.1793534755706787,0.40102556347846985,0.6881817579269409,0.42000001668930054,-1.5301094055175781,3.000002384185791,-0.045866891741752625,-3.000000476837158,0.0008714215946383774,0.0007975304033607244,0.0007115048938430846,0.0006121990154497325,0.11048546433448792,0.09705202281475067,0.08275668323040009,0.06753906607627869
0.03333333333333333,0.008896518498659134,0.006697464268654585,0.0,0.9998481273651123,0.0,0.0,-0.017427602782845497,0.4030103087425232,0.3133535087108612,0.0,0.0,0.0,0.8622095584869385,-0.33865371346473694,0.7072254419326782,0.4200000464916229,1.0,3.39090593115543e-06,-2.1324372028175276e-06,-3.7106541839193596e-08,0.0002635782293509692,0.0002693790593184531,-0.00010509486310184002,-0.0017707175575196743,0.004130743443965912,-0.00013547750131692737,-0.026491811498999596,0.025627069175243378,1.316794514656067,-1.4759207963943481,1.5760176181793213,-0.05494671314954758,0.40102556347846985,0.6881817579269409,0.42000001668930054,-1.4800902605056763,3.000000476837158,-0.09590667486190796,-3.000001907348633,0.0029295054264366627,0.002585961250588298,0.0022046498488634825,0.0017830552533268929,0.15903551876544952,0.13437335193157196,0.1082235798239708,0.08046631515026093
0.05,0.017559271305799484,0.013487128540873528,0.0,0.9994713664054871,0.0,0.0,-0.03251208737492561,0.5822560787200928,0.4500156044960022,0.0,0.0,0.0,-2.64125919342041,-0.3386537432670593,0.707225501537323,0.4200000464916229,1.0,3.765230758290272e-06,-2.211922264905297e-06,5.6083799826467384e-09,0.0002653090050444007,0.00026691501261666417,-0.00010440615005791187,-0.00172435212880373,0.0041774665005505085,-0.0001294955873163417,-0.051960933953523636,0.057502467185258865,1.312855839729309,-1.566755771636963,2.2019238471984863,-0.3852483928203583,0.40102556347846985,0.6881817579269409,0.42000001668930054,-1.4300719499588013,3.000002145767212,-0.14592716097831726,-3.000000476837158,0.00516040762886405,0.004212446045130491,0.003192555857822299,0.0020965642761439085,0.1394420713186264,0.08785320073366165,0.034393228590488434,-0.02103758230805397
0.06666666666666667,0.0297531895339489,0.022754887118935585,0.0,0.9972434043884277,0.0,0.0,-0.07419978082180023,0.791545569896698,0.6009964346885681,0.0,0.0,0.0,-5.864051342010498,-0.3386537432670593,0.7072254419326782,0.4200000464916229,0.9999999403953552,3.406835730856983e-06,-2.2856456780573353e-06,4.3008122929677484e-07,0.0002670265967026353,0.0002679176104720682,-0.0001043803058564663,-0.0017406701808795333,0.004211854189634323,-0.0001285061298403889,-0.07926391065120697,0.09772767126560211,1.3040080070495605,-1.6911506652832031,2.587376356124878,-0.6754461526870728,0.40102556347846985,0.6881817579269409,0.42000001668930054,-1.3800488710403442,3.0000011920928955,-0.11242040991783142,3.0000007152557373,0.007079385221004486,0.005223531741648912,0.0032571391202509403,0.001174520468339324,0.10933893173933029,0.04872986674308777,-0.013959191739559174,-0.07876017689704895
0.08333333333333333,0.03611239418387413,0.03672884404659271,0.0,0.9951297044754028,0.0,0.0,-0.09857437759637833,0.2481398582458496,0.9292970299720764,0.0,0.0,0.0,-1.9080947637557983,-0.3386537432670593,0.7072254419326782,0.4200000464916229,1.0,3.6973383430449758e-06,-2.188984808526584e-06,-2.6323331780986337e-07,0.0002638960722833872,0.0002658652374520898,-0.00010433932766318321,-0.0017081378027796745,0.00415008282288909,-0.0001299151626881212,-0.11045675724744797,0.13766244053840637,1.2899012565612793,-1.8510243892669678,2.4574098587036133,-0.928727924823761,0.40102556347846985,0.6881817579269409,0.42000001668930054,-1.330049753189087,2.9999992847442627,-0.1444089114665985,-3.0000016689300537,0.002735140034928918,0.00024761477834545076,-0.002403201535344124,-0.005226906388998032,-0.36500611901283264,-0.4073590934276581,-0.45233529806137085,-0.5002070665359497
0.1,0.047262273728847504,0.049777835607528687,0.0,0.9908932447433472,0.0,0.0,-0.13464966416358948,0.7465200424194336,0.816624641418457,0.0,0.0,0.0,-5.190954685211182,-0.3386537432670593,0.7072254419326782,0.4200000464916229,0.9999999403953552,3.6204280604579253e-06,-2.265225475639454e-06,1.7461863421885937e-07,0.00026676725246943533,0.0002674070419743657,-0.00010408065281808376,-0.0017385295359417796,0.004209065344184637,-0.00012775739014614373,-0.13800910115242004,0.1817394196987152,1.2757205963134766,-1.4655263423919678,2.927781105041504,-0.8868837356567383,0.40102556347846985,0.6881817579269409,0.42000001668930054,-1.2800390720367432,3.000000238418579,-0.19442227482795715,-3.0000014305114746,0.0029214562382549047,-0.0013005360960960388,-0.005672329571098089,-0.010203161276876926,-0.023041006177663803,-0.13336195051670074,-0.2425975352525711,-0.3506675064563751
0.11666666666666667,0.0560055710375309,0.06116366758942604,0.0,0.9884921908378601,0.0,0.0,-0.15127195417881012,0.4903483986854553,0.6219784617424011,0.0,0.0,0.0,-0.8306056261062622,-0.3386537432670593,0.7072254419326782,0.4200000464916229,1.0,3.7983741094649304e-06,-2.2627561975241406e-06,-1.5019411137018324e-07,0.00026374030858278275,0.00026566023007035255,-0.00010428880341351032,-0.001705368747934699,0.004147524479776621,-0.00012980001338291913,-0.16812723875045776,0.23042258620262146,1.257237195968628,-1.8917232751846313,3.0920796394348145,-1.2602221965789795,0.40102556347846985,0.6881817579269409,0.42000001668930054,-1.233532428741455,2.5801517963409424,-0.16062185168266296,3.0,0.0004921293584629893,-0.0053176116198301315,-0.011252930387854576,-0.017321715131402016,-0.1218339204788208,-0.21816904842853546,-0.31199246644973755,-0.40318983793258667
0.13333333333333333,0.062076274305582047,0.06874223053455353,0.0,0.9839277267456055,0.0,0.0,-0.1785670518875122,0.3153800666332245,0.3888709545135498,0.0,0.0,0.0,-4.138139247894287,-0.3386537432670593,0.707225501537323,0.4200000464916229,0.9999999403953552,3.550490419002017e-06,-2.2297924715530826e-06,2.9292351655385573e-07,0.0002670329122338444,0.0002677924057934433,-0.00010416773147881031,-0.001743975793942809,0.004213578533381224,-0.0001280030410271138,-0.19691911339759827,0.28606393933296204,1.2336819171905518,-1.5809259414672852,3.5864579677581787,-1.5710935592651367,0.40102556347846985,0.6881817579269409,0.42000001668930054,-1.1842646598815918,3.0000014305114746,-0.19235742092132568,-2.9999990463256836,-0.0018314498011022806,-0.009324973449110985,-0.01688542030751705,-0.02451893873512745,-0.18391622602939606,-0.28044626116752625,-0.37320610880851746,-0.4621110260486603
0.15,0.06947793811559677,0.07725922018289566,0.0,0.9727782011032104,0.0,0.0,-0.23173809051513672,0.4998764395713806,0.561533510684967,0.0,0.0,0.0,-7.3699750900268555,-0.3386537432670593,0.7072254419326782,0.4200000464916229,0.9999999403953552,3.3380592867615633e-06,-2.2428412194130942e-06,-2.8008338759377693e-08,0.00026674458058550954,0.00026758271269500256,-0.00010427972301840782,-0.0017367512919008732,0.004206824116408825,-0.0001283210440305993,-0.22490417957305908,0.3494265675544739,1.200667381286621,-1.6371383666992188,3.99626088142395,-2.349152088165283,0.40102556347846985,0.6881817579269409,0.42000001668930054,-1.1465548276901245,1.6124322414398193,-0.15861111879348755,3.0,-0.007600460667163134,-0.01614193804562092,-0.024707520380616188,-0.03330354019999504,-0.43269625306129456,-0.4711481034755707,-0.5076419115066528,-0.5423045754432678
0.16666666666666666,0.07489454001188278,0.08774150162935257,0.0,0.9646678566932678,0.0,0.0,-0.2634691298007965,0.2425958514213562,0.6950765252113342,0.0,0.0,0.0,-2.7818050384521484,-0.3386537432670593,0.707225501537323,0.4200000464916229,0.9999999403953552,3.647774974524509e-06,-2.3072600470186444e-06,3.529923020550996e-08,0.00026726865326054394,0.0002680135366972536,-0.00010418612509965897,-0.001747232861816883,0.0042175790295004845,-0.00012798202806152403,-0.2575898766517639,0.4133148789405823,1.1564843654632568,-1.7743501663208008,4.024330139160156,-2.9619717597961426,0.40102556347846985,0.6881817579269409,0.42000001668930054,-1.0995070934295654,3.000002861022949,-0.19031497836112976,-3.0000007152557373,-0.01623552478849888,-0.02523076720535755,-0.03420555591583252,-0.043169986456632614,-0.58319091796875,-0.5998470187187195,-0.6137981414794922,-0.6253200769424438
0.18333333333333332,0.07927843928337097,0.09549964219331741,0.0,0.9518592953681946,0.0,0.0,-0.3065352737903595,0.17203469574451447,0.43099576234817505,0.0,0.0,0.0,-6.214143753051758,-0.3386537432670593,0.7072254419326782,0.4200000464916229,0.9999999403953552,3.2904902127484092e-06,-2.1938533336651744e-06,-2.7920296474803763e-07,0.0002667788357939571,0.0002677598677109927,-0.00010434072464704514,-0.0017390816938132048,0.004206937272101641,-0.00012845655146520585,-0.28511250019073486,0.48297184705734253,1.0993118286132812,-1.3652331829071045,4.352374076843262,-3.89908504486084,0.40102556347846985,0.6881817579269409,0.42000001668930054,-1.049504041671753,3.0000011920928955,-0.24034282565116882,-3.000000476837158,-0.025505421683192253,-0.03464016318321228,-0.04370932653546333,-0.052730172872543335,-0.687495768070221,-0.6681499481201172,-0.6473797559738159,-0.6257758736610413
0.2,0.08460333198308945,0.10513778775930405,0.0,0.9434319138526917,0.0,0.0,-0.3315662443637848,0.3445114493370056,0.5798406600952148,0.0,0.0,0.0,-2.0873115062713623,-0.3386537432670593,0.7072254419326782,0.4200000464916229,1.0,3.2807631669129478e-06,-2.219166617578594e-06,1.5949673581872048e-07,0.0002662794722709805,0.0002674015995580703,-0.0001042510848492384,-0.00173571624327451,0.0041978564113378525,-0.00012865439930465072,-0.3098236322402954,0.5493261218070984,1.0256147384643555,-1.2611188888549805,3.8691623210906982,-4.827839374542236,0.40102556347846985,0.6881817579269409,0.42000001668930054,-0.9994973540306091,3.0,-0.2903689742088318,-2.9999985694885254,-0.039700184017419815,-0.04790828377008438,-0.05593283101916313,-0.06394731253385544,-0.8914634585380554,-0.8326374292373657,-0.7569695711135864,-0.6841984391212463
0.21666666666666667,0.08803199976682663,0.11357926577329636,0.0,0.9301818013191223,0.0,0.0,-0.36709922552108765,0.15246228873729706,0.46209293603897095,0.0,0.0,0.0,-5.416716575622559,-0.3386537432670593,0.707225501537323,0.4200000464916229,1.0,3.6130975331616355e-06,-2.2699948658555513e-06,2.2104775609932403e-07,0.00026712531689554453,0.0002678169694263488,-0.00010414118878543377,-0.0017444599652662873,0.004215109162032604,-0.0001278673007618636,-0.32853180170059204,0.6118639707565308,0.9375784397125244,-0.8265039920806885,3.5628714561462402,-5.633588790893555,0.40102556347846985,0.6881817579269409,0.42000001668930054,-0.9494882822036743,3.0000009536743164,-0.3403976261615753,-2.9999992847442627,-0.055625542998313904,-0.06339716166257858,-0.07023042440414429,-0.07683248817920685,-0.9715286493301392,-0.961757481098175,-0.8987632393836975,-0.8089345097541809
0.23333333333333334,0.08749617636203766,0.12303609400987625,0.0,0.9233716130256653,0.0,0.0,-0.38390734791755676,-0.09926660358905792,0.6118452548980713,0.0,0.0,0.0,-1.1518354415893555,-0.3386537432670593,0.7072254419326782,0.4200000464916229,1.0,3.3817855182860512e-06,-2.2908213850314496e-06,2.728465915424749e-07,0.0002669155946932733,0.0002678002056200057,-0.00010433141142129898,-0.0017395844915881753,0.0042098211124539375,-0.00012844095181208104,-0.34495025873184204,0.6609945297241211,0.8399121165275574,-0.7801456451416016,2.5083775520324707,-6.062363624572754,0.40102556347846985,0.6881817579269409,0.42000001668930054,-0.8994776010513306,2.999997854232788,-0.39042866230010986,-3.0000014305114746,-0.07203783094882965,-0.07975002378225327,-0.08651889115571976,-0.09237336367368698,-0.9853065013885498,-0.9797768592834473,-0.9720370769500732,-0.9682750701904297
0.25,0.09028466790914536,0.1283978819847107,0.0,0.9115052819252014,0.0,0.0,-0.41128844022750854,0.19664913415908813,0.27080029249191284,0.0,0.0,0.0,-4.326591968536377,-0.33865371346473694,0.7072254419326782,0.4200000464916229,0.9999999403953552,3.7064864955027588e-06,-2.2228989564609947e-06,-2.2546814193447062e-07,0.0002642463950905949,0.00026656698901206255,-0.00010457634925842285,-0.0017169405473396182,0.00415548961609602,-0.00013063351798336953,-0.35605037212371826,0.6985834836959839,0.7336181402206421,-0.39579716324806213,1.8287526369094849,-6.576235294342041,0.40102556347846985,0.6881817579269409,0.42000001668930054,-0.8494669198989868,2.999997138977051,-0.44046032428741455,-3.0000007152557373,-0.08724360167980194,-0.09495879709720612,-0.10170412063598633,-0.10756075382232666,-0.9908136129379272,-0.9923456311225891,-0.993587076663971,-0.985258162021637
0.26666666666666666,0.08973062038421631,0.1313716173171997,0.0,0.9072637557983398,0.0,0.0,-0.42056208848953247,-0.07666963338851929,0.0750756785273552,0.0,0.0,0.0,-0.21056289970874786,-0.3386537432670593,0.7072254419326782,0.4200000464916229,0.9999999403953552,3.719608457686263e-06,-2.4033261070144363e-06,-1.8304078253095213e-07,0.00026623241137713194,0.0002672903356142342,-0.00010425737127661705,-0.001732598408125341,0.004196526482701302,-0.0001285126927541569,-0.3630905747413635,0.7147546410560608,0.6252071857452393,-0.22557097673416138,0.29523876309394836,-6.420233249664307,0.40102556347846985,0.6881817579269409,0.42000001668930054,-0.7994579076766968,2.999995470046997,-0.49049150943756104,-3.0000009536743164,-0.10444692522287369,-0.11198507249355316,-0.11859135329723358,-0.12433665245771408,-0.9939888715744019,-0.9951009750366211,-0.9959624409675598,-0.9954145550727844
0.2833333333333333,0.085236094892025,0.1314859837293625,0.0,0.9138026237487793,0.0,0.0,-0.40615859627723694,-0.33899614214897156,-0.030216261744499207,0.0,0.0,0.0,3.136444568634033,-0.3386537432670593,0.707225501537323,0.4200000464916229,0.9999999403953552,3.5840300824929727e-06,-2.3153043002821505e-06,7.407601998465907e-08,0.00026522009284235537,0.00026455309125594795,-0.00010317424312233925,-0.0017022202955558896,0.00418515969067812,-0.000124995582154952,-0.3682587742805481,0.7101092338562012,0.5253167152404785,-0.30236443877220154,-0.8688793778419495,-5.561742782592773,0.40102556347846985,0.6881817579269409,0.42000001668930054,-0.7494491338729858,3.000000476837158,-0.5405211448669434,-2.999997854232788,-0.12230073660612106,-0.12955613434314728,-0.13594961166381836,-0.1415279507637024,-1.0091497898101807,-1.006942868232727,-1.005248785018921,-1.0038894414901733
0.3,0.08543142676353455,0.12772032618522644,0.0,0.9141959547996521,0.0,0.0,-0.4052724540233612,0.15085427463054657,-0.2962260842323303,0.0,0.0,0.0,-0.812436044216156,-0.3386537432670593,0.7072254419326782,0.4200000464916229,1.0,3.7242095913825324e-06,-2.271762923555798e-06,9.639254727744628e-08,0.00026312656700611115,0.00026525757857598364,-0.00010438100434839725,-0.00169602339155972,0.004134845454245806,-0.00013027741806581616,-0.36530572175979614,0.7053447365760803,0.4315974712371826,0.5798539519309998,0.014622294344007969,-5.464751243591309,0.40102556347846985,0.6881817579269409,0.42000001668930054,-0.6994414329528809,3.0000016689300537,-0.5905489325523376,-2.999999761581421,-0.13846293091773987,-0.145853653550148,-0.15242019295692444,-0.15815436840057373,-1.011820673942566,-1.0089613199234009,-1.0067684650421143,-1.0050095319747925
0.31666666666666665,0.08251896500587463,0.12303708493709564,0.0,0.9203090667724609,0.0,0.0,-0.39119207859039307,-0.27169424295425415,-0.29358816146850586,0.0,0.0,0.0,2.716808557510376,-0.33751779794692993,0.7056957483291626,0.4200010299682617,0.9995988607406616,6.78621836414095e-06,-8.594958671892527e-06,-0.028321877121925354,0.07459546625614166,-0.04393139109015465,-0.000141678232466802,-0.006136755924671888,-0.009819313883781433,-2.091582775115967,-0.36642318964004517,0.7147560715675354,0.42837733030319214,0.022043034434318542,0.6902793645858765,-0.15884867310523987,0.40102556347846985,0.6881817579269409,0.42000001668930054,-0.6494446992874146,2.999974012374878,-0.6408902406692505,-2.9999895095825195,-0.1508721560239792,-0.1569380909204483,-0.16210053861141205,-0.166291281580925,-0.8469242453575134,-0.7268455624580383,-0.6047730445861816,-0.4787387251853943
0.3333333333333333,0.07527890801429749,0.11696763336658478,0.0,0.9197673797607422,0.0,0.0,-0.3924640417098999,-0.3375988006591797,-0.4756225049495697,0.0,0.0,0.0,-1.110263705253601,-0.33493220806121826,0.7084060907363892,0.4200004041194916,0.9961585402488708,-1.7138798284577206e-05,1.4389263924385887e-05,-0.08756698668003082,0.21884438395500183,0.2371533066034317,-0.000701547076459974,0.035295791923999786,-0.004482139367610216,-8.644810676574707,-0.3629302978515625,0.7202149629592896,0.42595160007476807,0.384995698928833,0.30845311284065247,-0.14934521913528442,0.40102556347846985,0.6881817579269409,0.42000001668930054,-0.5994392037391663,2.9999325275421143,-0.690956175327301,-2.9999420642852783,-0.1669619381427765,-0.1705106794834137,-0.17248280346393585,-0.17339396476745605,-0.6713939905166626,-0.5824624300003052,-0.4087471067905426,-0.2214367687702179
0.35,0.06781086325645447,0.10784095525741577,0.0,0.9249325394630432,0.0,0.0,-0.3801313042640686,-0.49967288970947266,-0.5831319093704224,0.0,0.0,0.0,2.4659016132354736,-0.3309426009654999,0.7129291296005249,0.4200001060962677,0.9857736229896545,1.2863362826465163e-05,-2.028128619713243e-05,-0.1680781990289688,0.23439592123031616,0.2685237228870392,-8.221888856496662e-05,0.00408268952742219,-0.0011220700107514858,-9.445563316345215,-0.3541831374168396,0.7256463170051575,0.4232335090637207,0.660534679889679,0.32902252674102783,-0.14580336213111877,0.40102556347846985,0.6881817579269409,0.42000001668930054,-0.549434244632721,2.9999730587005615,-0.7410028576850891,-2.9999821186065674,-0.17892387509346008,-0.18024416267871857,-0.17876601219177246,-0.17600813508033752,-0.6704644560813904,-0.518467128276825,-0.3031086325645447,-0.0739913135766983
0.36666666666666664,0.05783635377883911,0.09660621732473373,0.0,0.9236774444580078,0.0,0.0,-0.3831709027290344,-0.6406989097595215,-0.7125163078308105,0.0,0.0,0.0,-1.3530654907226562,-0.3253643214702606,0.718876838684082,0.42000171542167664,0.9752681851387024,-4.751932283397764e-05,2.0756438971147873e-05,-0.22102436423301697,0.4964269697666168,0.4937841594219208,0.0023386646062135696,-0.10724931210279465,0.04697870463132858,-4.039475440979004,-0.34136277437210083,0.7302514314651489,0.42152971029281616,0.9086183309555054,0.2800110876560211,-0.100306436419487,0.40102556347846985,0.6881817579269409,0.42000001668930054,-0.49942949414253235,2.9999783039093018,-0.7910529971122742,-2.9999961853027344,-0.18910010159015656,-0.18781068921089172,-0.1827993094921112,-0.1762433797121048,-0.5229929685592651,-0.3651004135608673,-0.16176000237464905,0.056894224137067795
0.3833333333333333,0.050452303141355515,0.08280728757381439,0.0,0.9108917713165283,0.0,0.0,-0.4126453101634979,-0.35676127672195435,-0.8790039420127869,0.0,0.0,0.0,-4.708064079284668,-0.31301015615463257,0.7302770614624023,0.4200744926929474,0.9680426120758057,-0.001854639733210206,0.00042852136539295316,-0.2507782578468323,0.9608275890350342,0.8464016318321228,0.05302654206752777,-2.354644775390625,1.2105565071105957,-5.18489408493042,-0.32388395071029663,0.7378960847854614,0.4213833808898926,1.2113893032073975,0.6592779159545898,0.1384824812412262,0.40102556347846985,0.6881817579269409,0.42000001668930054,-0.44939982891082764,3.000000238418579,-0.8410802483558655,-2.999629497528076,-0.19637249410152435,-0.19254852831363678,-0.18434594571590424,-0.17430728673934937,-0.3235401213169098,-0.18268945813179016,-0.009631975553929806,0.1813817024230957
0.4,0.041035428643226624,0.06724788248538971,0.0,0.8840702772140503,0.0,0.0,-0.46735402941703796,-0.636026918888092,-0.9613998532295227,0.0,0.0,0.0,-8.226702690124512,-0.28371572494506836,0.7488013505935669,0.422712504863739,0.9528024792671204,-0.01564294658601284,-0.016247889026999474,-0.30275171995162964,2.6910181045532227,1.4276330471038818,0.3098093569278717,24.1740665435791,-17.019779205322266,2.124582529067993,-0.2927315831184387,0.7560554146766663,0.4240679144859314,2.4902777671813965,1.4285247325897217,0.3819340467453003,0.40102556347846985,0.6881817579269409,0.42000001668930054,-0.4019920825958252,2.186307668685913,-0.8911023139953613,-3.0000014305114746,-0.2041332721710205,-0.1974773108959198,-0.18608219921588898,-0.17263470590114594,-0.4830041825771332,-0.30415284633636475,-0.11349718272686005,0.08572056889533997
0.4166666666666667,0.033748093992471695,0.051876842975616455,0.0,0.8402112126350403,0.0,0.0,-0.5422592759132385,-0.3955465257167816,-0.9021285772323608,0.0,0.0,0.0,-11.138063430786133,-0.21714290976524353,0.7787830829620361,0.4278545677661896,0.9302849173545837,0.04059123620390892,-0.06034426391124725,-0.3595564365386963,5.506677150726318,1.9561541080474854,0.4900011420249939,-1.0843253135681152,-4.046090126037598,1.602138876914978,-0.22544428706169128,0.7867974042892456,0.4289226531982422,5.187021255493164,2.201045036315918,0.35983526706695557,0.40102556347846985,0.6881817579269409,0.42000001668930054,-0.37888118624687195,1.0743670463562012,-0.8569797277450562,3.0000011920928955,-0.21463629603385925,-0.20407506823539734,-0.18895529210567474,-0.17195647954940796,-0.669152021408081,-0.4267197251319885,-0.21107959747314453,-0.017624009400606155
0.43333333333333335,0.02994699217379093,0.039952654391527176,0.0,0.8041223287582397,0.0,0.0,-0.5944638252258301,-0.15137647092342377,-0.6861564517021179,0.0,0.0,0.0,-6.265796184539795,-0.1300630420446396,0.8128197193145752,0.43681466579437256,0.883796751499176,0.08210030943155289,-0.08773723244667053,-0.45217791199684143,5.463807106018066,1.1160494089126587,0.8388305902481079,-8.439413070678711,2.6841773986816406,3.9393444061279297,-0.13757988810539246,0.8230302929878235,0.43760788440704346,5.468096733093262,1.9371365308761597,0.5701704025268555,0.40102556347846985,0.6881817579269409,0.42000001668930054,-0.3629665672779083,0.8892346024513245,-0.8835249543190002,-2.9984898567199707,-0.2250356376171112,-0.2111445665359497,-0.19329850375652313,-0.1740318387746811,-0.4982949197292328,-0.3394745886325836,-0.22215576469898224,-0.13397207856178284
0.45,0.02993040159344673,0.0312589667737484,0.0,0.7896226048469543,0.0,0.0,-0.613592803478241,0.05770370364189148,-0.4552662670612335,0.0,0.0,0.0,-1.7611912488937378,-0.0403713695704937,0.8332043290138245,0.4467231035232544,0.8166248798370361,0.0961909070611,-0.11204805970191956,-0.5579572916030884,5.210707664489746,-0.03125026822090149,0.7875629663467407,-1.5002316236495972,6.4381608963012695,12.984618186950684,-0.04790306091308594,0.8459075689315796,0.4470921754837036,5.539712905883789,0.8675855994224548,0.658610463142395,0.40102556347846985,0.6881817579269409,0.42000001668930054,-0.3483940064907074,0.7955062389373779,-0.9335489273071289,-2.9995477199554443,-0.23337456583976746,-0.2167220115661621,-0.19680815935134888,-0.17595453560352325,-0.4745774269104004,-0.3094530701637268,-0.18698979914188385,-0.09354247897863388
0.4666666666666667,0.02860340103507042,0.026343395933508873,0.0,0.7686269879341125,0.0,0.0,-0.6396971940994263,-0.13982702791690826,-0.16768141090869904,0.0,0.0,0.0,-4.779849529266357,0.04640471562743187,0.8368915915489197,0.4538552761077881,0.7525187730789185,0.08751826733350754,-0.10578235238790512,-0.6441009044647217,5.42275333404541,-0.9574326276779175,0.6519668698310852,-4.105858325958252,-7.604492664337158,6.471449375152588,0.04021716117858887,0.8516220450401306,0.45485028624534607,5.127058029174805,-0.22741657495498657,0.42191842198371887,0.40102556347846985,0.6881817579269409,0.42000001668930054,-0.3384529650211334,0.3984960615634918,-0.9835729598999023,-3.0000016689300537,-0.24004176259040833,-0.22191952168941498,-0.20005491375923157,-0.17758668959140778,-0.03922444209456444,-0.38920682668685913,-0.25839927792549133,-0.14439500868320465
0.48333333333333334,0.029381632804870605,0.01877456344664097,0.0,0.758962094783783,0.0,0.0,-0.6511347889900208,0.06675666570663452,-0.4747845232486725,0.0,0.0,0.0,-0.7673274874687195,0.12846776843070984,0.8285913467407227,0.4581630229949951,0.6941800117492676,0.06994092464447021,-0.09046344459056854,-0.7106606364250183,4.2583489418029785,-1.8070122003555298,0.22344696521759033,-14.76247787475586,-4.409708023071289,30.154415130615234,0.12396109104156494,0.8427759408950806,0.4596319794654846,5.007467269897461,-0.9369992017745972,0.26157838106155396,0.40102556347846985,0.6881817579269409,0.42000001668930054,-0.33411088585853577,0.10703476518392563,-1.0335956811904907,-3.00000262260437,-0.23742423951625824,-0.22434020042419434,-0.2009982019662857,-0.1773621290922165,0.09057846665382385,-0.13092154264450073,-0.04580564424395561,0.015607616864144802
0.5,0.02817787043750286,0.015602147206664085,0.0,0.7411672472953796,0.0,0.0,-0.6713204383850098,-0.11041660606861115,-0.15462949872016907,0.0,0.0,0.0,-3.9632046222686768,0.20257216691970825,0.809358537197113,0.4563647508621216,0.654220700263977,0.05322553589940071,-0.08511699736118317,-0.7496113777160645,3.871514081954956,-1.824722170829773,-0.22665615379810333,-10.1419038772583,-0.2125597894191742,16.694225311279297,0.19962546229362488,0.8231508731842041,0.4588286280632019,4.4017744064331055,-1.3984270095825195,-0.21872755885124207,0.40102556347846985,0.6881817579269409,0.42000001668930054,-0.3299422264099121,0.3669498562812805,-1.0836178064346313,-3.000000476837158,-0.23709282279014587,-0.2270539104938507,-0.2028636634349823,-0.17873318493366241,0.13742206990718842,-0.039581283926963806,-0.044816046953201294,-0.06547321379184723
0.5166666666666666,0.02889038436114788,0.009522475302219391,0.0,0.7360203266143799,0.0,0.0,-0.6769593954086304,0.08692094683647156,-0.3659976124763489,0.0,0.0,0.0,0.08239395171403885,0.2661343812942505,0.7818619608879089,0.4485150873661041,0.5841981172561646,0.009981854818761349,-0.08207733929157257,-0.8073885440826416,3.253183126449585,-1.9130971431732178,-0.49266794323921204,-6.064693927764893,5.207108497619629,-3.486844778060913,0.2638663351535797,0.7965809106826782,0.45238855481147766,3.4446873664855957,-1.8733017444610596,-0.5382643938064575,0.40102556347846985,0.6881817579269409,0.42000001668930054,-0.3193073868751526,0.8132252097129822,-1.133639931678772,-3.0,-0.23304957151412964,-0.22535137832164764,-0.20170973241329193,-0.1784142702817917,0.19176799058914185,0.09674163907766342,0.05298300087451935,-0.010596396401524544
0.5333333333333333,0.03225473687052727,0.006766392849385738,0.0,0.7225577235221863,0.0,0.0,-0.6913105845451355,0.24986669421195984,-0.13501259684562683,0.0,0.0,0.0,-3.179342269897461,0.3184223175048828,0.7541523575782776,0.4340415298938751,0.530189037322998,-0.017959335818886757,-0.06992415338754654,-0.8448003530502319,2.7647578716278076,-2.178835153579712,-0.7797831296920776,-0.016426295042037964,9.377955436706543,4.253103733062744,0.31684303283691406,0.7682285904884338,0.4383184313774109,2.9482131004333496,-1.656648874282837,-1.0650724172592163,0.40102556347846985,0.6881817579269409,0.42000001668930054,-0.30159851908683777,1.068786382675171,-1.1836620569229126,-2.9999849796295166,-0.22891739010810852,-0.2231462299823761,-0.20123529434204102,-0.17985127866268158,0.36487746238708496,0.2309250831604004,0.07377272844314575,-0.08766570687294006
0.55,0.03823781758546829,0.0015599844045937061,0.0,0.7214035391807556,0.0,0.0,-0.692514955997467,0.3894777297973633,-0.3595873713493347,0.0,0.0,0.0,0.7525247931480408,0.3576647937297821,0.7288423180580139,0.42142629623413086,0.49683207273483276,-0.03167714923620224,-0.014274721965193748,-0.8671508431434631,1.7467172145843506,-1.4935967922210693,-0.0923241376876831,-4.949361801147461,-3.2640738487243652,12.787025451660156,0.3571779131889343,0.7415117025375366,0.4255864918231964,1.6451365947723389,-1.2650281190872192,0.07982708513736725,0.40102556347846985,0.6881817579269409,0.42000001668930054,-0.2873636484146118,0.648348867893219,-1.2336623668670654,-3.001439094543457,-0.22226940095424652,-0.21840092539787292,-0.19932515919208527,-0.18082530796527863,0.376056432723999,0.28137829899787903,0.10749992728233337,-0.06500924378633499
0.5666666666666667,0.04197980836033821,-0.0006679585785605013,0.0,0.7114512324333191,0.0,0.0,-0.702735424041748,0.165810227394104,-0.08926200866699219,0.0,0.0,0.0,-2.5208072662353516,0.38228896260261536,0.7120157480239868,0.4208122193813324,0.4965650737285614,-0.010538097470998764,-0.011186351999640465,-0.8678633570671082,1.0509560108184814,-1.2273364067077637,0.2716660499572754,-12.712024688720703,2.2050886154174805,12.774999618530273,0.38048791885375977,0.7238937616348267,0.4252466857433319,1.1020982265472412,-0.8253911733627319,0.16431298851966858,0.40102556347846985,0.6881817579269409,0.42000001668930054,-0.2802538573741913,0.3209061026573181,-1.1956629753112793,2.9977211952209473,-0.21627765893936157,-0.21410369873046875,-0.19827589392662048,-0.18287329375743866,0.4328422248363495,0.3224927484989166,0.10802873224020004,-0.0909065306186676
0.5833333333333334,0.0463433712720871,-0.0005379900685511529,0.0,0.7139570116996765,0.0,0.0,-0.7001895308494568,0.2978901267051697,0.11409502476453781,0.0,0.0,0.0,1.223999261856079,0.3967934846878052,0.6977127194404602,0.42055222392082214,0.49875709414482117,-0.010489440523087978,-0.0007914287270978093,-0.8666778802871704,0.5276634097099304,-0.6714198589324951,0.2026594877243042,5.380978584289551,8.391714096069336,0.7423868179321289,0.3942680358886719,0.7090630531311035,0.425314724445343,0.529657781124115,-0.7424939274787903,0.13783320784568787,0.40102556347846985,0.6881817579269409,0.42000001668930054,-0.28367841243743896,-0.4257105886936188,-1.2172141075134277,-2.996304988861084,-0.20842507481575012,-0.2081432342529297,-0.19608645141124725,-0.18414326012134552,0.47163280844688416,0.35940641164779663,0.1285899579524994,-0.08100690692663193
0.6,0.053615108132362366,-0.004478468559682369,0.0,0.7052725553512573,0.0,0.0,-0.7089362740516663,0.4190862476825714,-0.2801989018917084,0.0,0.0,0.0,-2.293400287628174,0.404023140668869,0.6896817088127136,0.42136940360069275,0.5174667835235596,-0.0198399368673563,0.0233738012611866,-0.8551537990570068,0.3042570948600769,-0.35505014657974243,6.211134314071387e-05,-0.6311211585998535,-0.1772705316543579,3.913276195526123,0.4011775255203247,0.7028077840805054,0.42451542615890503,0.1947072446346283,-0.21714536845684052,-0.04583299532532692,0.40102556347846985,0.6881817579269409,0.42000001668930054,-0.3141847252845764,-2.996551752090454,-1.1792125701904297,2.9998369216918945,-0.19519822299480438,-0.19743414223194122,-0.19016125798225403,-0.18253786861896515,0.7633262276649475,0.6509631872177124,0.3772505223751068,0.12932418286800385
0.6166666666666667,0.06273291260004044,-0.00397655600681901,0.0,0.708229124546051,0.0,0.0,-0.7059826254844666,0.5822359919548035,0.022959720343351364,0.0,0.0,0.0,1.2971802949905396,0.40829479694366455,0.6847072839736938,0.4200831651687622,0.5399906039237976,0.0005104428855702281,-0.0014663023175671697,-0.8416695594787598,0.16422699391841888,-0.18125863373279572,-0.019090332090854645,0.4667663872241974,0.5636947751045227,0.5266040563583374,0.4027635455131531,0.699388325214386,0.4258487820625305,0.07927065342664719,-0.052837833762168884,0.13285484910011292,0.40102556347846985,0.6881817579269409,0.42000001668930054,-0.36414727568626404,-2.99912428855896,-1.2007758617401123,-2.9993972778320312,-0.18684448301792145,-0.19037912786006927,-0.18699684739112854,-0.18291808664798737,0.6026343703269958,0.48434868454933167,0.22348164021968842,-0.013127068057656288
0.6333333333333333,0.0734977200627327,-0.0014358864864334464,0.0,0.7177631258964539,0.0,0.0,-0.6962873935699463,0.6868895888328552,0.22186870872974396,0.0,0.0,0.0,1.8126221895217896,0.4097667932510376,0.6831061840057373,0.42000052332878113,0.545569658279419,-7.926158218651835e-08,9.627498002373613e-06,-0.8380654454231262,0.03266843035817146,-0.03350235894322395,-0.0009412866202183068,-0.028516549617052078,-0.01960565894842148,0.3181288540363312,0.4033068120479584,0.700532078742981,0.42851752042770386,0.006296750158071518,0.1323353350162506,0.190427765250206,0.40102556347846985,0.6881817579269409,0.42000001668930054,-0.41415512561798096,-2.999987840652466,-1.2507363557815552,-2.9985201358795166,-0.17605826258659363,-0.18186570703983307,-0.18285053968429565,-0.1826687455177307,0.6587483286857605,0.524486780166626,0.27644798159599304,0.05564378201961517
0.65,0.08492560684680939,-0.002288677031174302,0.0,0.7167484760284424,0.0,0.0,-0.6973317265510559,0.6668958067893982,-0.061707768589258194,0.0,0.0,0.0,-1.2337204217910767,0.4095267951488495,0.6833725571632385,0.4200001358985901,0.5546551942825317,1.0049884622276295e-06,2.0834702354477486e-06,-0.8320803046226501,-0.039498623460531235,0.03665481507778168,-0.0001326764322584495,-0.0033963595051318407,-0.0030544849578291178,1.6134147644042969,0.4032956063747406,0.7050323486328125,0.43239346146583557,-0.04937152564525604,0.23517228662967682,0.26610636711120605,0.40102556347846985,0.6881817579269409,0.42000001668930054,-0.46416255831718445,-2.999997854232788,-1.3007022142410278,-2.9990367889404297,-0.16321298480033875,-0.17116135358810425,-0.1759568601846695,-0.1791449785232544,0.5943818092346191,0.5210319757461548,0.3567292392253876,0.21292373538017273
0.6666666666666666,0.09721948951482773,-0.006017130799591541,0.0,0.725316047668457,0.0,0.0,-0.688416063785553,0.7735029458999634,-0.2961645722389221,0.0,0.0,0.0,2.3762714862823486,0.40892133116722107,0.6836763024330139,0.4201069176197052,0.5588623285293579,0.0014877114444971085,-0.0022188315633684397,-0.8292561173439026,-0.03652568906545639,0.015681982040405273,0.008889811113476753,-0.1673404723405838,-0.4135730564594269,0.13541822135448456,0.40192076563835144,0.7066197395324707,0.44034671783447266,-0.07146056741476059,0.06392095237970352,0.7421501874923706,0.40102556347846985,0.6881817579269409,0.42000001668930054,-0.5141758322715759,-2.9999992847442627,-1.3507206439971924,-3.000000238418579,-0.15688468515872955,-0.16489440202713013,-0.1710214912891388,-0.17522475123405457,0.2785683572292328,0.31492695212364197,0.28879088163375854,0.28123754262924194
0.6833333333333333,0.11221882700920105,-0.005374961532652378,0.0,0.7228056192398071,0.0,0.0,-0.6910514235496521,0.8641111254692078,0.06433506309986115,0.0,0.0,0.0,-1.3740735054016113,0.408832311630249,0.6837152242660522,0.4200000464916229,0.5590978264808655,3.7468175833055284e-06,-5.698018412658712e-06,-0.8291016817092896,0.00043167461990378797,-0.00033968238858506083,-0.00023728003725409508,0.006319539621472359,1.2891956430394202e-05,-0.0018373625352978706,0.4052525460720062,0.7078863382339478,0.4518066346645355,0.5004923939704895,0.16785664856433868,0.7451397776603699,0.40102556347846985,0.6881817579269409,0.42000001668930054,-0.5641884207725525,-2.999999761581421,-1.4007389545440674,-3.0,-0.15701662003993988,-0.163551464676857,-0.16902291774749756,-0.17228135466575623,0.10464523732662201,0.17376886308193207,0.21037356555461884,0.26936158537864685
0.7,0.12844516336917877,-0.009245021268725395,0.0,0.6998202204704285,0.0,0.0,-0.7143189907073975,1.0315823554992676,-0.26566147804260254,0.0,0.0,0.0,-4.67260217666626,0.4088328182697296,0.6837151646614075,0.4200000464916229,0.5590974688529968,1.9098706616205163e-07,-2.6437719498062506e-06,-0.8291019797325134,6.370001938194036e-05,-0.00025597974308766425,-8.091656491160393e-05,0.006472069304436445,-0.0018606043886393309,-0.0007057587499730289,0.4194742441177368,0.7129150032997131,0.4715297818183899,1.1074519157409668,0.23909059166908264,1.7458733320236206,0.40102556347846985,0.6881817579269409,0.42000001668930054,-0.6141993403434753,-2.999995231628418,-1.4507572650909424,-3.000000476837158,-0.1550145149230957,-0.16034725308418274,-0.16500121355056763,-0.16710692644119263,-0.12338440865278244,4.262983566150069e-08,0.1049119085073471,0.22354494035243988
0.7166666666666667,0.14252302050590515,-0.00965212844312191,0.0,0.6900125741958618,0.0,0.0,-0.7237973809242249,0.7818384170532227,-0.0013865090440958738,0.0,0.0,0.0,-0.6152488589286804,0.408832848072052,0.6837151646614075,0.4200000464916229,0.5590974688529968,3.5638356621348066e-07,-2.559231916166027e-06,-0.8291019797325134,6.467646744567901e-05,-0.00025526314857415855,-8.149468339979649e-05,0.006445353850722313,-0.0018564413767307997,-0.0007074205204844475,0.43957287073135376,0.719140887260437,0.5048291087150574,1.3368809223175049,0.5671761631965637,2.2048099040985107,0.40102556347846985,0.6881817579269409,0.42000001668930054,-0.6325929760932922,0.5029264092445374,-1.5007755756378174,-2.9999990463256836,-0.15927870571613312,-0.162863090634346,-0.16607649624347687,-0.1666756421327591,-0.16012431681156158,-0.1131378784775734,-0.08140488713979721,-0.04976269602775574
0.7333333333333333,0.15251649916172028,-0.008106905966997147,0.0,0.7025091052055359,0.0,0.0,-0.7116747498512268,0.5431638956069946,0.21229404211044312,0.0,0.0,0.0,2.91161847114563,0.4088328182697296,0.6837151646614075,0.4200000464916229,0.559097409248352,1.6768666455391212e-07,-2.6527588943281444e-06,-0.8291019797325134,6.692185706924647e-05,-0.0002555736864451319,-8.205417543649673e-05,0.006440035533159971,-0.0018344651907682419,-0.0007134532788768411,0.4583212733268738,0.7248268127441406,0.5349858999252319,0.9038065671920776,0.2153737097978592,1.506893515586853,0.40102556347846985,0.6881817579269409,0.42000001668930054,-0.606374979019165,2.450301170349121,-1.462043046951294,2.999998092651367,-0.161795973777771,-0.16437570750713348,-0.16678400337696075,-0.16666510701179504,-0.17143070697784424,-0.09967204183340073,-0.0381857268512249,0.012672393582761288
0.75,0.15820394456386566,-0.009819118306040764,0.0,0.7031499743461609,0.0,0.0,-0.7110415697097778,0.285209983587265,-0.13942667841911316,0.0,0.0,0.0,-0.8336602449417114,0.408832848072052,0.6837151646614075,0.4200000464916229,0.5590973496437073,3.5460865888126136e-07,-2.5755518890946405e-06,-0.8291019797325134,6.397164543159306e-05,-0.0002554499660618603,-8.133891969919205e-05,0.006453962996602058,-0.0018654119921848178,-0.0007062146905809641,0.4669032096862793,0.7298402786254883,0.5537223815917969,0.06391745060682297,0.19355864822864532,0.8917964696884155,0.40102556347846985,0.6881817579269409,0.42000001668930054,-0.5848550796508789,0.3020915389060974,-1.4119865894317627,2.9999990463256836,-0.16118142008781433,-0.16304901242256165,-0.16486410796642303,-0.16435915231704712,-0.052377644926309586,0.01659892126917839,0.07707411050796509,0.11841277778148651
0.7666666666666666,0.16022370755672455,-0.007898450829088688,0.0,0.713571310043335,0.0,0.0,-0.7005825638771057,0.05555684119462967,0.11796121299266815,0.0,0.0,0.0,2.479923963546753,0.408832848072052,0.6837151646614075,0.4200000464916229,0.5590974688529968,1.3027658951614285e-07,-2.4841765480232425e-06,-0.8291018605232239,6.765331636415794e-05,-0.00025600657681934536,-8.218945004045963e-05,0.006447179708629847,-0.0018276621121913195,-0.0007157839718274772,0.4655008912086487,0.7306060791015625,0.5641003847122192,-0.1387990266084671,0.09534290432929993,0.4019017815589905,0.40102556347846985,0.6881817579269409,0.42000001668930054,-0.5603825449943542,2.4289746284484863,-1.4298508167266846,-2.999999761581421,-0.16403460502624512,-0.16439498960971832,-0.16483357548713684,-0.16333626210689545,-0.018503013998270035,0.03415696695446968,0.0838685855269432,0.11329585313796997
0.7833333333333333,0.1592167764902115,-0.008845075033605099,0.0,0.710651695728302,0.0,0.0,-0.703544020652771,-0.11380171775817871,-0.10374525189399719,0.0,0.0,0.0,-1.393506646156311,0.4088328182697296,0.6837151646614075,0.4200000464916229,0.5590972304344177,3.3392362297490763e-07,-2.590423264337005e-06,-0.8291019797325134,6.316599319688976e-05,-0.00025563983945176005,-8.126185275614262e-05,0.006462611258029938,-0.0018782650586217642,-0.0007048564730212092,0.4565274715423584,0.7327523231506348,0.5641943216323853,-0.9188658595085144,0.08365935832262039,-0.20994380116462708,0.40102556347846985,0.6881817579269409,0.42000001668930054,-0.5548075437545776,-1.4288276433944702,-1.3913241624832153,3.0000007152557373,-0.16445519030094147,-0.16400107741355896,-0.16365817189216614,-0.16173960268497467,-0.040185291320085526,0.011608770117163658,0.06070474535226822,0.08615688979625702
0.8,0.1593918800354004,-0.006873210892081261,0.0,0.7173345685005188,0.0,0.0,-0.6967288851737976,0.05942568928003311,0.15364545583724976,0.0,0.0,0.0,1.8537746667861938,0.408832848072052,0.6837151646614075,0.4200000464916229,0.559097409248352,1.1620484485774796e-07,-2.4989451503643068e-06,-0.8291019797325134,6.785333971492946e-05,-0.0002555105893407017,-8.217827416956425e-05,0.006433889735490084,-0.0018213384319096804,-0.0007150967139750719,0.4453621506690979,0.7336336374282837,0.5600017309188843,-0.3994777202606201,0.12983934581279755,-0.23965412378311157,0.40102556347846985,0.6881817579269409,0.42000001668930054,-0.5534863471984863,1.3457505702972412,-1.409606695175171,-3.0,-0.1660115271806717,-0.16477565467357635,-0.16359741985797882,-0.16115547716617584,-0.0055495137348771095,0.012118404731154442,0.039227444678545,0.05397731438279152
0.8166666666666667,0.162088543176651,-0.008349370211362839,0.0,0.7128176093101501,0.0,0.0,-0.7013494372367859,0.19704894721508026,-0.13768863677978516,0.0,0.0,0.0,-1.5691696405410767,0.408832848072052,0.6837151646614075,0.4200000464916229,0.5590973496437073,3.507998656004929e-07,-2.4212474727391964e-06,-0.8291019797325134,6.49181311018765e-05,-0.00025568559067323804,-8.162064477801323e-05,0.006454041693359613,-0.0018579857423901558,-0.0007090119179338217,0.43865376710891724,0.736565351486206,0.5520621538162231,-0.44802331924438477,0.08175458014011383,-0.5451220870018005,0.40102556347846985,0.6881817579269409,0.42000001668930054,-0.5731050968170166,-3.0000009536743164,-1.371137261390686,2.999999523162842,-0.16472364962100983,-0.16350917518138885,-0.1621588170528412,-0.15970447659492493,-0.0042615314014256,0.01297161728143692,0.04025759920477867,0.05653192847967148
0.8333333333333334,0.16715306043624878,-0.007366035599261522,0.0,0.7168321013450623,0.0,0.0,-0.6972457766532898,0.3361527919769287,0.1004575788974762,0.0,0.0,0.0,1.9684131145477295,0.4088328182697296,0.6837151646614075,0.4200000464916229,0.5590972304344177,3.776572441438475e-07,-2.4830644633766497e-06,-0.8291019797325134,6.417411350412294e-05,-0.0002552466175984591,-8.147931657731533e-05,0.00644683139398694,-0.0018648522673174739,-0.0007063353550620377,0.4359017014503479,0.7365298271179199,0.5457988977432251,0.15529391169548035,0.02482776716351509,-0.16352206468582153,0.40102556347846985,0.6881817579269409,0.42000001668930054,-0.6005943417549133,-0.4925036132335663,-1.3898035287857056,-3.0,-0.16732874512672424,-0.1652972400188446,-0.16290031373500824,-0.15952065587043762,-0.07860835641622543,-0.04781142622232437,0.004107284359633923,0.057217709720134735
0.85,0.1740521490573883,-0.00952280405908823,0.0,0.712462306022644,0.0,0.0,-0.7017103433609009,0.4415948987007141,-0.18780314922332764,0.0,0.0,0.0,-1.6410967111587524,0.4088328182697296,0.6837151646614075,0.4200000464916229,0.559097409248352,1.4712956897255935e-07,-2.5463334623054834e-06,-0.8291019797325134,6.625680543947965e-05,-0.00025539894704706967,-8.185277692973614e-05,0.006439771503210068,-0.001839629840105772,-0.0007111691520549357,0.4397798180580139,0.7363995313644409,0.5400546193122864,0.28123533725738525,-0.12879280745983124,-0.3595811128616333,0.40102556347846985,0.6881817579269409,0.42000001668930054,-0.6359001994132996,-3.0000007152557373,-1.3513898849487305,2.9999992847442627,-0.1679840385913849,-0.1653967946767807,-0.16206791996955872,-0.157692089676857,-0.08948183059692383,-0.03235839679837227,0.04581044614315033,0.12709541618824005
0.8666666666666667,0.1833617240190506,-0.008528501726686954,0.0,0.6876943111419678,0.0,0.0,-0.7260003685951233,0.5790207982063293,0.10626453161239624,0.0,0.0,0.0,-5.036337375640869,0.408832848072052,0.6837151646614075,0.4200000464916229,0.5590973496437073,3.778519612751552e-07,-2.4677237888681702e-06,-0.8291019797325134,6.439545541070402e-05,-0.00025529865524731576,-8.143973536789417e-05,0.006447664462029934,-0.0018600585171952844,-0.000706886756233871,0.4499918818473816,0.7359620928764343,0.5379787683486938,0.9339470863342285,0.09377870708703995,0.23713725805282593,0.40102556347846985,0.6881817579269409,0.42000001668930054,-0.6688320636749268,-1.089579463005066,-1.3704206943511963,-3.000000238418579,-0.1717575192451477,-0.16830652952194214,-0.1637401580810547,-0.15802647173404694,-0.1656280755996704,-0.14105075597763062,-0.09195399284362793,-0.0326814241707325
0.8833333333333333,0.19043278694152832,-0.005363720003515482,0.0,0.6764798164367676,0.0,0.0,-0.7364611625671387,0.35019612312316895,0.2427223175764084,0.0,0.0,0.0,-0.8223978877067566,0.4088328182697296,0.6837151050567627,0.4200000464916229,0.5590972900390625,3.8428140669566346e-07,-2.528503728171927e-06,-0.8291019797325134,6.418662087526172e-05,-0.00025516192545183003,-8.147605694830418e-05,0.006444793660193682,-0.0018640102352946997,-0.0007061669020913541,0.4615098237991333,0.739211916923523,0.544086754322052,0.4422273635864258,0.32380709052085876,0.4700571298599243,0.40102556347846985,0.6881817579269409,0.42000001668930054,-0.6587181687355042,2.0234527587890625,-1.4204390048980713,-2.999999761581421,-0.17325901985168457,-0.1699141263961792,-0.16512911021709442,-0.15907453000545502,-0.03479722514748573,-0.06772103160619736,-0.08709987252950668,-0.10268259048461914
