vladlanda/robotic-transformer/data/env_000_episode_0267.csv
sim_time_s,robot_box_x,robot_box_y,robot_box_z,robot_box_quat_w,robot_box_quat_x,robot_box_quat_y,robot_box_quat_z,robot_box_linvel_x,robot_box_linvel_y,robot_box_linvel_z,robot_box_angvel_x,robot_box_angvel_y,robot_box_angvel_z,cube_world_x,cube_world_y,cube_world_z,cube_quat_w,cube_quat_x,cube_quat_y,cube_quat_z,cube_linvel_x,cube_linvel_y,cube_linvel_z,cube_angvel_x,cube_angvel_y,cube_angvel_z,endpoint_world_x,endpoint_world_y,endpoint_world_z,endpoint_linvel_x,endpoint_linvel_y,endpoint_linvel_z,target_cube_world_x,target_cube_world_y,target_cube_world_z,gripper_actual_pos_rad_gp_leftgearjoint,gripper_actual_vel_rad_s_gp_leftgearjoint,gripper_actual_pos_rad_gp_rotatingjoint,gripper_actual_vel_rad_s_gp_rotatingjoint,motor_angle_rad_joint1,motor_angle_rad_joint2,motor_angle_rad_joint3,motor_angle_rad_joint4,motor_speed_rad_s_joint1,motor_speed_rad_s_joint2,motor_speed_rad_s_joint3,motor_speed_rad_s_joint4
0.0,0.0,0.0,0.0,1.0,0.0,0.0,0.0,0.0,0.0,0.0,0.0,0.0,0.0,-0.41783085465431213,0.7404094338417053,0.41999998688697815,1.0,0.0,0.0,0.0,0.0,0.0,0.0,0.0,0.0,0.0,3.42540442943573e-06,-0.005000244826078415,1.313499927520752,0.0,0.0,0.0,0.40208205580711365,0.6796460747718811,0.42000001668930054,-1.5707999467849731,0.0,0.0,0.0,0.0,0.0,0.0,0.0,0.0,0.0,0.0,0.0
0.016666666666666666,0.0028778850100934505,0.0021806680597364902,0.0,0.9998081922531128,0.0,0.0,0.019586581736803055,0.24087215960025787,0.18240931630134583,0.0,0.0,0.0,3.1418697834014893,-0.4178309738636017,0.7404091358184814,0.41999998688697815,1.0,3.2799914606584935e-06,-8.339814598912199e-07,8.465387679734704e-08,-1.9833554688375443e-05,0.00017983050202019513,-6.133061833679676e-05,0.0009432226070202887,-0.004689437802881002,-0.0003198152990080416,-0.007110234349966049,0.003379564033821225,1.3159373998641968,-0.8143353462219238,0.9868683815002441,0.18095196783542633,0.40208205580711365,0.6796460747718811,0.42000001668930054,-1.5301095247268677,3.0000011920928955,-0.04584788903594017,-2.9999992847442627,0.0008691533003002405,0.0007963840034790337,0.0007110277656465769,0.0006108740926720202,0.11094217747449875,0.09756709635257721,0.08334315568208694,0.06823883205652237
0.03333333333333333,0.008960993029177189,0.006802004761993885,0.0,0.9997960329055786,0.0,0.0,0.02019684575498104,0.4070221781730652,0.31530797481536865,0.0,0.0,0.0,-0.8691328763961792,-0.41783109307289124,0.7404090762138367,0.4200000464916229,1.0,3.390914116607746e-06,-2.132455392711563e-06,-3.71076644967161e-08,0.0002635782293509692,0.00026937935035675764,-0.00010509486310184002,-0.001770757487975061,0.0041308156214654446,-0.00013547815615311265,-0.027554649859666824,0.026252012699842453,1.3165879249572754,-1.5913524627685547,1.6161761283874512,-0.08612345159053802,0.40208205580711365,0.6796460747718811,0.42000001668930054,-1.4800903797149658,3.0000014305114746,-0.09588771313428879,-3.0000007152557373,0.002990097738802433,0.002652701223269105,0.0022772657684981823,0.0018607175443321466,0.164213627576828,0.1397569328546524,0.1138155460357666,0.08629743754863739
0.05,0.017198340967297554,0.013652944006025791,0.0,0.9998881220817566,0.0,0.0,0.014959676191210747,0.5328988432884216,0.45215484499931335,0.0,0.0,0.0,-0.5035383105278015,-0.4178311228752136,0.7404091358184814,0.4200000464916229,1.0,3.7652293940482195e-06,-2.2118967990536476e-06,5.613899567435965e-09,0.000265309150563553,0.0002669153909664601,-0.0001044049859046936,-0.00172426737844944,0.004177379421889782,-0.0001294983085244894,-0.05846847966313362,0.05596619099378586,1.3113532066345215,-2.074151039123535,1.9262394905090332,-0.5042572617530823,0.40208205580711365,0.6796460747718811,0.42000001668930054,-1.4300720691680908,3.00000262260437,-0.14592638611793518,-3.0000016689300537,0.005503383930772543,0.00471261702477932,0.003849766915664077,0.002910138573497534,0.17012085020542145,0.13336989283561707,0.09476369619369507,0.0541842058300972
0.06666666666666667,0.028582457453012466,0.022749824449419975,0.0,0.9999520778656006,0.0,0.0,-0.009791436605155468,0.7489335536956787,0.5894538760185242,0.0,0.0,0.0,-3.8255090713500977,-0.4178311228752136,0.7404090762138367,0.4200000464916229,0.9999999403953552,3.4068445984303253e-06,-2.2855729184811935e-06,4.300823945868615e-07,0.000267024093773216,0.0002679175231605768,-0.0001043803058564663,-0.0017406325787305832,0.004211729858070612,-0.00012850853090640157,-0.09192660450935364,0.09261760115623474,1.3004395961761475,-1.9515085220336914,2.4184348583221436,-0.7986698150634766,0.40208205580711365,0.6796460747718811,0.42000001668930054,-1.3800537586212158,3.000002384185791,-0.19595849514007568,-3.0000007152557373,0.0078320587053895,0.006208325736224651,0.004473074339330196,0.002622638363391161,0.12700992822647095,0.062323372811079025,-0.004431065637618303,-0.07333063334226608
0.08333333333333333,0.03426601365208626,0.03584561496973038,0.0,0.999843955039978,0.0,0.0,-0.017665140330791473,0.20683330297470093,0.8604665994644165,0.0,0.0,0.0,0.10150978714227676,-0.4178311228752136,0.7404090762138367,0.4200000464916229,0.9999999403953552,3.6261940294934902e-06,-2.335324097657576e-06,3.032077131592814e-07,0.00026613869704306126,0.00026684990734793246,-0.00010405178181827068,-0.0017283851047977805,0.004196336027234793,-0.00012790512118954211,-0.1275615692138672,0.1310453563928604,1.283400535583496,-2.1565122604370117,2.3593826293945312,-1.1537909507751465,0.40208205580711365,0.6796460747718811,0.42000001668930054,-1.330029845237732,2.9999942779541016,-0.1621481329202652,3.0000007152557373,0.004049121867865324,0.0017324265791103244,-0.0007476581959053874,-0.003399183275178075,-0.3261513113975525,-0.37124425172805786,-0.4189246892929077,-0.4694913923740387
0.1,0.04431258514523506,0.04953506216406822,0.0,0.9992478489875793,0.0,0.0,-0.038777563720941544,0.7017940878868103,0.8411619067192078,0.0,0.0,0.0,-3.4009599685668945,-0.4178311228752136,0.7404090762138367,0.4200000464916229,1.0,3.4221902751596645e-06,-2.308589955646312e-06,1.7962148035621794e-07,0.0002668164379429072,0.00026800547493621707,-0.00010440824553370476,-0.0017430244479328394,0.0042070322670042515,-0.00012891182268504053,-0.15818654000759125,0.174198180437088,1.266982078552246,-1.600628137588501,2.8312666416168213,-0.9412081241607666,0.40208205580711365,0.6796460747718811,0.42000001668930054,-1.2800322771072388,2.999999523162842,-0.1938794106245041,-2.999999761581421,0.003907590638846159,-0.00019877872546203434,-0.004460049793124199,-0.008885037153959274,-0.02142471633851528,-0.1437424123287201,-0.2650727927684784,-0.3853071928024292
0.11666666666666667,0.0522536002099514,0.0657697543501854,0.0,0.9961667656898499,0.0,0.0,-0.0874742642045021,0.476401150226593,1.0424230098724365,0.0,0.0,0.0,-6.508904933929443,-0.4178311228752136,0.7404091358184814,0.4200000464916229,1.0,3.7115696613909677e-06,-2.3326665541389957e-06,2.5742116349647404e-07,0.00026485652779228985,0.0002663531631696969,-0.00010423525236546993,-0.0017182076117023826,0.004170072730630636,-0.00012915638217236847,-0.18555736541748047,0.224663645029068,1.2499573230743408,-1.66627836227417,3.2239251136779785,-1.067926287651062,0.40208205580711365,0.6796460747718811,0.42000001668930054,-1.2327136993408203,2.664747953414917,-0.16012832522392273,3.0000011920928955,0.001489454647526145,-0.004511525388807058,-0.010638963431119919,-0.016900354996323586,-0.09254920482635498,-0.21283882856369019,-0.3300040662288666,-0.44386789202690125
0.13333333333333333,0.05784471705555916,0.08021476119756699,0.0,0.9934372901916504,0.0,0.0,-0.11437828093767166,0.274418443441391,0.7939836382865906,0.0,0.0,0.0,-2.176243543624878,-0.4178311228752136,0.7404090762138367,0.4200000464916229,1.0,3.33580555889057e-06,-2.2318915853247745e-06,3.1130230127018876e-07,0.0002666967629920691,0.00026759342290461063,-0.00010428694076836109,-0.0017371419817209244,0.004205943085253239,-0.0001284025638597086,-0.21931391954421997,0.27491599321365356,1.2292897701263428,-2.09395694732666,3.131659984588623,-1.3927401304244995,0.40208205580711365,0.6796460747718811,0.42000001668930054,-1.1946367025375366,1.9390355348587036,-0.19182783365249634,-3.0,-0.0006762550910934806,-0.00854738149791956,-0.01647813804447651,-0.024473201483488083,-0.18509677052497864,-0.28424307703971863,-0.3792792856693268,-0.4700826108455658
0.15,0.05972597375512123,0.09487329423427582,0.0,0.9883280992507935,0.0,0.0,-0.15234032273292542,0.04489394277334213,0.9349074363708496,0.0,0.0,0.0,-5.422420978546143,-0.4178311228752136,0.7404090762138367,0.4200000464916229,1.0,3.5190355447412003e-06,-2.283108187839389e-06,-3.6255448776501e-07,0.000266183604253456,0.0002673582639545202,-0.00010425667278468609,-0.0017349626868963242,0.004195743706077337,-0.00012861307186540216,-0.2537713050842285,0.33283257484436035,1.20212984085083,-1.933735966682434,3.85117244720459,-1.8927274942398071,0.40208205580711365,0.6796460747718811,0.42000001668930054,-1.1474698781967163,2.999995470046997,-0.1596108078956604,2.999999761581421,-0.005109603051096201,-0.014507930725812912,-0.02388637326657772,-0.03324756771326065,-0.34445497393608093,-0.4209826588630676,-0.4929064214229584,-0.5601664185523987
0.16666666666666666,0.06584661453962326,0.1068924069404602,0.0,0.9826344847679138,0.0,0.0,-0.1855517029762268,0.38541504740715027,0.6212562918663025,0.0,0.0,0.0,-3.1570680141448975,-0.4178311228752136,0.7404090762138367,0.4200000464916229,1.0,3.666726797746378e-06,-2.339156480957172e-06,-3.150096574700001e-07,0.00026595761300995946,0.0002666733635123819,-0.0001040350180119276,-0.0017252563266083598,0.004192715510725975,-0.00012778647942468524,-0.28945186734199524,0.39433109760284424,1.1652398109436035,-2.1334426403045654,3.8046412467956543,-2.5673470497131348,0.40208205580711365,0.6796460747718811,0.42000001668930054,-1.1165682077407837,0.8668833374977112,-0.19133342802524567,-3.0,-0.009468527510762215,-0.019935060292482376,-0.030310269445180893,-0.04059722274541855,-0.442389577627182,-0.46755701303482056,-0.4903967082500458,-0.5109947919845581
0.18333333333333332,0.06643149256706238,0.12045150995254517,0.0,0.9723871946334839,0.0,0.0,-0.2333735078573227,0.04414171352982521,0.8250247836112976,0.0,0.0,0.0,-6.5756449699401855,-0.4178311228752136,0.7404090762138367,0.4200000464916229,1.0,3.814431011051056e-06,-2.3995532956178067e-06,-2.702744552607328e-07,0.0002654912241268903,0.000266111281234771,-0.00010391324758529663,-0.001717864186502993,0.00418497622013092,-0.00012754154158756137,-0.32347214221954346,0.46077799797058105,1.1145306825637817,-1.8569955825805664,4.254741668701172,-3.333207130432129,0.40208205580711365,0.6796460747718811,0.42000001668930054,-1.0735691785812378,2.9999923706054688,-0.24136194586753845,-2.9999961853027344,-0.02294781245291233,-0.03335949033498764,-0.0436362698674202,-0.05343902111053467,-0.6978505253791809,-0.7310855984687805,-0.7576464414596558,-0.7360916137695312
0.2,0.07164579629898071,0.1311056911945343,0.0,0.9650329947471619,0.0,0.0,-0.26212841272354126,0.37077197432518005,0.49959686398506165,0.0,0.0,0.0,-2.3568027019500732,-0.4178311228752136,0.7404090762138367,0.4200000464916229,1.0,3.6001260923512746e-06,-2.2912167878530454e-06,-2.2018525669409428e-07,0.0002657284203451127,0.0002664485073182732,-0.00010398100130259991,-0.0017226488562300801,0.0041888137347996235,-0.00012773837079294026,-0.356769859790802,0.5275577306747437,1.0502431392669678,-1.7678278684616089,4.099794387817383,-4.355737209320068,0.40208205580711365,0.6796460747718811,0.42000001668930054,-1.0238311290740967,2.9385552406311035,-0.2913878560066223,-2.9999992847442627,-0.03371528908610344,-0.044154465198516846,-0.05438326671719551,-0.06350640207529068,-0.799153208732605,-0.7576071619987488,-0.7142295837402344,-0.6426861882209778
0.21666666666666667,0.07232948392629623,0.14297768473625183,0.0,0.9531826376914978,0.0,0.0,-0.3023952543735504,0.01586652360856533,0.7281251549720764,0.0,0.0,0.0,-5.802169322967529,-0.4178311228752136,0.7404090762138367,0.4200000464916229,0.9999999403953552,3.6397161693457747e-06,-2.261916051793378e-06,2.224815318641049e-07,0.00026687278295867145,0.0002675443247426301,-0.00010411837138235569,-0.0017404217505827546,0.004211027175188065,-0.00012783741112798452,-0.38302603363990784,0.5925732851028442,0.9714869260787964,-1.277403473854065,3.875114917755127,-4.904583930969238,0.40208205580711365,0.6796460747718811,0.42000001668930054,-0.9738215208053589,3.000000238418579,-0.3414152264595032,-2.9999985694885254,-0.049601178616285324,-0.06012469902634621,-0.07039127498865128,-0.07947292178869247,-0.8591732978820801,-0.8800238966941833,-0.899104654788971,-0.9174169898033142
0.23333333333333334,0.07144305109977722,0.1508868932723999,0.0,0.9463011622428894,0.0,0.0,-0.32328638434410095,-0.08429335057735443,0.35675570368766785,0.0,0.0,0.0,-1.5751456022262573,-0.41783109307289124,0.7404090762138367,0.4200000464916229,1.0,3.4208417218906106e-06,-2.3167299332271796e-06,2.955848401597905e-07,0.00026680331211537123,0.0002680404868442565,-0.00010442500934004784,-0.0017438061768189073,0.004206990823149681,-0.00012899591820314527,-0.406241238117218,0.6491814255714417,0.8841702938079834,-1.132406234741211,3.1486358642578125,-5.573128700256348,0.40208205580711365,0.6796460747718811,0.42000001668930054,-0.9238155484199524,3.0000014305114746,-0.3914451003074646,-3.0000009536743164,-0.06405344605445862,-0.0743042454123497,-0.0842960923910141,-0.09315866976976395,-0.8839106559753418,-0.8433728814125061,-0.8039005398750305,-0.7707182168960571
0.25,0.06631454080343246,0.16179761290550232,0.0,0.934660017490387,0.0,0.0,-0.35554274916648865,-0.3688203990459442,0.6536547541618347,0.0,0.0,0.0,-4.804524898529053,-0.4178311228752136,0.7404090762138367,0.4200000464916229,0.9999999403953552,3.3477169836260146e-06,-2.259082293676329e-06,1.808312646289778e-07,0.0002668776432983577,0.0002679125755093992,-0.00010439660400152206,-0.0017405485268682241,0.0042083123698830605,-0.00012870294449385256,-0.4211825132369995,0.6953232884407043,0.7839901447296143,-0.6448995471000671,2.391735076904297,-6.249838829040527,0.40208205580711365,0.6796460747718811,0.42000001668930054,-0.8738048672676086,2.999998092651367,-0.4414762854576111,-3.0,-0.08045638352632523,-0.09068737179040909,-0.10061659663915634,-0.1093987375497818,-0.8047246932983398,-0.8373571634292603,-0.8670331239700317,-0.8937093019485474
0.26666666666666666,0.06599623709917068,0.16708417236804962,0.0,0.9291844964027405,0.0,0.0,-0.36961618065834045,-0.058114003390073776,0.28096458315849304,0.0,0.0,0.0,-0.35092678666114807,-0.4178311228752136,0.7404090762138367,0.4200000464916229,0.9999999403953552,3.535839823598508e-06,-2.3001828139967984e-06,-1.268791862685248e-07,0.000266018119873479,0.00026712199905887246,-0.00010419473983347416,-0.0017316329758614302,0.004192839842289686,-0.00012849616177845746,-0.4336538314819336,0.726388692855835,0.6792361736297607,-0.48888474702835083,1.2793329954147339,-6.400611400604248,0.40208205580711365,0.6796460747718811,0.42000001668930054,-0.8237949013710022,2.9999940395355225,-0.49150794744491577,-3.00000262260437,-0.0920100286602974,-0.10230805724859238,-0.11226805299520493,-0.12107844650745392,-0.9851285815238953,-0.9824697375297546,-0.9589810967445374,-0.8817940950393677
0.2833333333333333,0.06086508929729462,0.17024582624435425,0.0,0.9204145073890686,0.0,0.0,-0.39094385504722595,-0.39763888716697693,0.1562022864818573,0.0,0.0,0.0,-3.7959699630737305,-0.4178311228752136,0.7404091358184814,0.4200000464916229,1.0,3.5935649975726847e-06,-2.262558382426505e-06,-5.655136803284222e-08,0.00026704679476097226,0.00026774988509714603,-0.00010416749864816666,-0.0017431802116334438,0.004214214626699686,-0.00012789499305654317,-0.4367084205150604,0.7403175830841064,0.5721704363822937,0.21879082918167114,0.34575721621513367,-6.229819297790527,0.40208205580711365,0.6796460747718811,0.42000001668930054,-0.7737861275672913,3.000002384185791,-0.5415384769439697,-3.0000011920928955,-0.10954618453979492,-0.11961210519075394,-0.1294018030166626,-0.1380857527256012,-1.011590838432312,-1.008738398551941,-1.0065703392028809,-1.0048433542251587
0.3,0.052065715193748474,0.17145881056785583,0.0,0.9180974364280701,0.0,0.0,-0.39635470509529114,-0.4786069095134735,-0.016290785744786263,0.0,0.0,0.0,0.24193137884140015,-0.41783109307289124,0.7404090762138367,0.4200000464916229,0.9999999403953552,3.725162969203666e-06,-2.2359929516824195e-06,3.8286188441816194e-07,0.00026479855296202004,0.0002667319786269218,-0.0001045397948473692,-0.0017189806094393134,0.004166760481894016,-0.00013016823504585773,-0.43145817518234253,0.7396989464759827,0.4757575988769531,0.48532408475875854,-0.3347543478012085,-5.489504814147949,0.40208205580711365,0.6796460747718811,0.42000001668930054,-0.7237775921821594,2.9999887943267822,-0.5915670990943909,-3.000000238418579,-0.12669090926647186,-0.13662074506282806,-0.1463257223367691,-0.1549542099237442,-0.8421533703804016,-0.8746529817581177,-0.9051015377044678,-0.9329055547714233
0.31666666666666665,0.042458128184080124,0.16940556466579437,0.0,0.9265351891517639,0.0,0.0,-0.3762081563472748,-0.6192864775657654,-0.1707039773464203,0.0,0.0,0.0,3.5120484828948975,-0.4178444445133209,0.7404547929763794,0.42000144720077515,0.9999997615814209,-0.000513835868332535,-0.0002725487865973264,-6.526737479362055e-07,-0.007425000891089439,-0.03341066837310791,0.001958125503733754,-0.3383052349090576,-0.4157821834087372,-0.021884392946958542,-0.4303761124610901,0.741029679775238,0.42999833822250366,-0.17353644967079163,0.16419990360736847,-0.2298269271850586,0.40208205580711365,0.6796460747718811,0.42000001668930054,-0.6737725734710693,2.9999887943267822,-0.6419551372528076,-3.000025510787964,-0.13519839942455292,-0.14630956947803497,-0.15702271461486816,-0.16642022132873535,-0.019202083349227905,-0.15898165106773376,-0.2802776098251343,-0.37656369805336
0.3333333333333333,0.03056168556213379,0.1648416817188263,0.0,0.9281637668609619,0.0,0.0,-0.3721720278263092,-0.7518554925918579,-0.3164304792881012,0.0,0.0,0.0,-0.4509526193141937,-0.41783106327056885,0.7404090762138367,0.4200000464916229,1.0,3.5947623473475687e-06,-1.3904457318858476e-06,1.3878106130960077e-07,6.409862544387579e-05,0.0001715949474601075,-5.217036232352257e-05,0.0033070563804358244,-0.00255969469435513,-0.0003193518496118486,-0.4321323335170746,0.7441471219062805,0.42692282795906067,0.11906781047582626,0.0706181600689888,-0.24494007229804993,0.40208205580711365,0.6796460747718811,0.42000001668930054,-0.6237660050392151,2.9999890327453613,-0.692015528678894,-2.999990463256836,-0.1382661610841751,-0.1503785252571106,-0.16175293922424316,-0.1714252531528473,-0.3187128007411957,-0.31113749742507935,-0.28418952226638794,-0.23831145465373993
0.35,0.016698531806468964,0.1578962653875351,0.0,0.9349493980407715,0.0,0.0,-0.3547810912132263,-0.8876150250434875,-0.45819056034088135,0.0,0.0,0.0,3.1063876152038574,-0.4169943928718567,0.7428966164588928,0.4200000464916229,0.9993706345558167,2.0911343199259136e-06,1.5506619774896535e-06,-0.035472266376018524,0.06886277347803116,0.19559139013290405,-1.006503589451313e-05,-0.0005004339618608356,0.00021673829178325832,-5.301468372344971,-0.4295046329498291,0.7483068108558655,0.42310523986816406,0.13578152656555176,0.3666398525238037,-0.1687723845243454,0.40208205580711365,0.6796460747718811,0.42000001668930054,-0.5737606883049011,2.9999852180480957,-0.7420529127120972,-2.999999761581421,-0.14517457783222198,-0.1564425528049469,-0.1666419357061386,-0.17485637962818146,-0.4097145199775696,-0.34490957856178284,-0.2593524754047394,-0.15727178752422333
0.36666666666666664,0.006359779741615057,0.14803557097911835,0.0,0.9353848695755005,0.0,0.0,-0.3536313772201538,-0.5614216923713684,-0.6347141861915588,0.0,0.0,0.0,-0.813962459564209,-0.4150172770023346,0.7469779849052429,0.4200001358985901,0.9964375495910645,-5.4413671932707075e-06,-3.4177759516751394e-05,-0.08433404564857483,0.1041058599948883,0.22102661430835724,-0.00035221624420955777,0.018382558599114418,-0.003192978212609887,-4.81917667388916,-0.42623811960220337,0.7514210939407349,0.4207099676132202,0.34303706884384155,0.14680252969264984,-0.15381497144699097,0.40208205580711365,0.6796460747718811,0.42000001668930054,-0.5237557888031006,2.999990463256836,-0.7920970916748047,-2.9999992847442627,-0.1529420167207718,-0.16231109201908112,-0.17024745047092438,-0.17594224214553833,-0.5523333549499512,-0.3907214403152466,-0.20878037810325623,-0.014946076087653637
0.3833333333333333,-0.006864566821604967,0.13657508790493011,0.0,0.924622118473053,0.0,0.0,-0.38088569045066833,-0.8817286491394043,-0.7133567929267883,0.0,0.0,0.0,-4.444304943084717,-0.41047245264053345,0.75298672914505,0.41999995708465576,0.9885378479957581,2.948552355519496e-05,-1.6189513189601712e-05,-0.1509733349084854,0.4400891959667206,0.510802686214447,-0.0009226158726960421,-0.041819266974925995,0.05796831473708153,-12.577743530273438,-0.4179292321205139,0.7563905715942383,0.41976040601730347,0.6407774686813354,0.49456220865249634,0.10830064862966537,0.40208205580711365,0.6796460747718811,0.42000001668930054,-0.4737270772457123,2.9999992847442627,-0.8421204686164856,-2.999965190887451,-0.1647939682006836,-0.1706790179014206,-0.17479002475738525,-0.17648829519748688,-0.7026200294494629,-0.4798082411289215,-0.23598293960094452,0.01787414774298668
0.4,-0.016971273347735405,0.12214628607034683,0.0,0.9013408422470093,0.0,0.0,-0.4331105053424835,-0.5714976191520691,-0.9125284552574158,0.0,0.0,0.0,-7.615809917449951,-0.39611953496932983,0.7680122256278992,0.420882910490036,0.973548948764801,-0.019044814631342888,0.0009943152545019984,-0.22768110036849976,1.748576045036316,1.0931345224380493,0.20872393250465393,-5.673785209655762,-6.384405136108398,-4.5999226570129395,-0.40150582790374756,0.7705739736557007,0.4219014048576355,1.3722798824310303,1.1778349876403809,0.14120200276374817,0.40208205580711365,0.6796460747718811,0.42000001668930054,-0.42368847131729126,2.962522029876709,-0.8921331763267517,-3.0001020431518555,-0.17428544163703918,-0.17659401893615723,-0.17673815786838531,-0.1742676943540573,-0.5837488770484924,-0.35065311193466187,-0.09563758224248886,0.16910290718078613
0.4166666666666667,-0.02347520925104618,0.10479938238859177,0.0,0.8634911179542542,0.0,0.0,-0.5043640732765198,-0.320327490568161,-1.0945866107940674,0.0,0.0,0.0,-10.440384864807129,-0.34837284684181213,0.7970464825630188,0.423740029335022,0.9637004137039185,0.009875433519482613,-0.03651007264852524,-0.26429346203804016,3.898940086364746,2.0347652435302734,0.38543900847435,23.46657943725586,-14.642704963684082,-0.13625283539295197,-0.35452741384506226,0.7994304895401001,0.42445141077041626,3.9786202907562256,2.2985939979553223,0.3019639253616333,0.40208205580711365,0.6796460747718811,0.42000001668930054,-0.3888443410396576,1.0755904912948608,-0.8604797720909119,2.9967362880706787,-0.18687239289283752,-0.18408004939556122,-0.17894333600997925,-0.1712551862001419,-0.7766039371490479,-0.4550783634185791,-0.13050638139247894,0.18208865821361542
0.43333333333333335,-0.027622705325484276,0.09274289011955261,0.0,0.8069742321968079,0.0,0.0,-0.5905866026878357,-0.20402705669403076,-0.5863050818443298,0.0,0.0,0.0,-13.14856243133545,-0.2568337917327881,0.8359787464141846,0.42981433868408203,0.9386847615242004,0.06164783239364624,-0.07579418271780014,-0.3306443393230438,7.23673152923584,2.4107465744018555,0.645571231842041,25.275680541992188,-14.904603004455566,-30.359798431396484,-0.26290518045425415,0.8394882082939148,0.4303632378578186,6.730629920959473,2.604140281677246,0.3955012261867523,0.40208205580711365,0.6796460747718811,0.42000001668930054,-0.37265458703041077,0.8937142491340637,-0.841131865978241,-0.35853487253189087,-0.20287089049816132,-0.19825974106788635,-0.1870739609003067,-0.1731555163860321,-0.8918941020965576,-0.8915620446205139,-0.597511351108551,-0.2514578104019165
0.45,-0.035204220563173294,0.08804620802402496,0.0,0.7571179270744324,0.0,0.0,-0.6532782316207886,-0.5757184028625488,-0.2699926793575287,0.0,0.0,0.0,-8.407025337219238,-0.14722967147827148,0.8647817373275757,0.4406544268131256,0.9100563526153564,0.08272289484739304,-0.08098369091749191,-0.397989958524704,7.1710944175720215,1.3423995971679688,0.9359095096588135,22.811214447021484,-20.971860885620117,-30.92974090576172,-0.15194100141525269,0.8724277019500732,0.44087347388267517,6.42338752746582,1.3328523635864258,0.6814161539077759,0.40208205580711365,0.6796460747718811,0.42000001668930054,-0.3584561049938202,0.8323956727981567,-0.8841070532798767,-3.000002145767212,-0.21696937084197998,-0.21262092888355255,-0.20139393210411072,-0.18202683329582214,-0.6339024901390076,-0.6834126114845276,-0.743457019329071,-0.5409272313117981
0.4666666666666667,-0.037934400141239166,0.07559588551521301,0.0,0.7279133200645447,0.0,0.0,-0.6856691241264343,-0.06932757049798965,-0.8918070197105408,0.0,0.0,0.0,-4.261911869049072,-0.03473096713423729,0.8792282938957214,0.4520498514175415,0.8698192238807678,0.0546577051281929,-0.08338448405265808,-0.4831913411617279,7.4234747886657715,-0.19962768256664276,1.1427457332611084,32.47407913208008,-15.22607421875,-45.675254821777344,-0.038800910115242004,0.8887115716934204,0.4520672559738159,6.626982688903809,0.19058236479759216,0.6403047442436218,0.40208205580711365,0.6796460747718811,0.42000001668930054,-0.3472210466861725,0.4870854914188385,-0.9341310858726501,-3.000001907348633,-0.22246511280536652,-0.2181575894355774,-0.20722916722297668,-0.18472321331501007,-0.2886841595172882,-0.2205408215522766,-0.17647555470466614,0.01872999034821987
0.48333333333333334,-0.042062342166900635,0.06608302146196365,0.0,0.721244215965271,0.0,0.0,-0.692680835723877,-0.2658597230911255,-0.4475412964820862,0.0,0.0,0.0,-0.12836073338985443,0.0681408941745758,0.8754391670227051,0.46200403571128845,0.8009870052337646,0.06710464507341385,-0.07035405188798904,-0.5907342433929443,6.109472751617432,-0.8826819062232971,0.5974782705307007,-0.11362066864967346,8.951534271240234,-43.38383483886719,0.06602709740400314,0.8853665590286255,0.46263378858566284,5.537586212158203,-0.6630575656890869,0.505832850933075,0.40208205580711365,0.6796460747718811,0.42000001668930054,-0.33880406618118286,0.5301574468612671,-0.9841551184654236,-2.9972987174987793,-0.22981159389019012,-0.22367054224014282,-0.2115160971879959,-0.18620085716247559,-0.34290188550949097,-0.2556042969226837,-0.21008671820163727,-0.11117713898420334
0.5,-0.04380525276064873,0.05666130408644676,0.0,0.7065454721450806,0.0,0.0,-0.7076676487922668,-0.04263937100768089,-0.6001832485198975,0.0,0.0,0.0,-3.3286678791046143,0.1555875539779663,0.8550735116004944,0.4672207236289978,0.7359684705734253,0.04533147066831589,-0.06064643710851669,-0.6727684140205383,5.373056411743164,-2.5046613216400146,0.5164199471473694,2.1360325813293457,-19.84572410583496,-49.9425163269043,0.1540362536907196,0.866385817527771,0.46883004903793335,4.72456693649292,-1.6807255744934082,0.24443449079990387,0.40208205580711365,0.6796460747718811,0.42000001668930054,-0.3298256993293762,0.4198877811431885,-1.0341778993606567,-3.0000016689300537,-0.23712055385112762,-0.2283293753862381,-0.21426509320735931,-0.1868174821138382,-0.46094051003456116,-0.2561253011226654,-0.09755883365869522,0.04111593961715698
0.5166666666666666,-0.042405348271131516,0.05120161548256874,0.0,0.704974889755249,0.0,0.0,-0.7092322707176208,0.11297651380300522,-0.25454339385032654,0.0,0.0,0.0,0.6982476115226746,0.22973094880580902,0.8201050162315369,0.46454697847366333,0.6517100930213928,-0.05423599109053612,-0.14553821086883545,-0.7423954010009766,4.0824689865112305,-2.7700910568237305,0.0988025888800621,8.655529022216797,-0.3838202655315399,-29.672286987304688,0.22836463153362274,0.8330817222595215,0.47133171558380127,3.9665422439575195,-2.2250285148620605,-0.11936615407466888,0.40208205580711365,0.6796460747718811,0.42000001668930054,-0.3206678032875061,0.6310316920280457,-1.0842000246047974,-3.000001907348633,-0.2398918867111206,-0.23354442417621613,-0.21691012382507324,-0.1877380758523941,0.021999282762408257,-0.18987342715263367,-0.0791422501206398,-0.04142765328288078
0.5333333333333333,-0.038244135677814484,0.04192490875720978,0.0,0.6934192776679993,0.0,0.0,-0.7205343246459961,0.2658326327800751,-0.6082410216331482,0.0,0.0,0.0,-2.7604031562805176,0.289573073387146,0.785356879234314,0.457868754863739,0.6246816515922546,-0.07694446295499802,-0.10550228506326675,-0.7698841094970703,3.3062305450439453,-2.979478359222412,-0.16383697092533112,-0.7736911773681641,-21.09390640258789,-30.685489654541016,0.2904399037361145,0.7976022958755493,0.46445757150650024,3.1577718257904053,-2.1252222061157227,-0.6846227645874023,0.40208205580711365,0.6796460747718811,0.42000001668930054,-0.31065553426742554,0.5158372521400452,-1.134222149848938,-3.000002145767212,-0.23387710750102997,-0.23129074275493622,-0.2142447531223297,-0.1860603392124176,0.3820422887802124,0.20546768605709076,0.20809078216552734,0.10953769832849503
0.55,-0.03167395666241646,0.036876291036605835,0.0,0.6937324404716492,0.0,0.0,-0.7202328443527222,0.42370983958244324,-0.28165504336357117,0.0,0.0,0.0,0.8675996661186218,0.33550316095352173,0.7484363317489624,0.4459473192691803,0.5946036577224731,-0.08436217159032822,-0.04732615500688553,-0.7981789112091064,2.5039029121398926,-2.964627265930176,-0.6377245187759399,-5.746219158172607,-16.545948028564453,-39.47422790527344,0.33776435256004333,0.7585467100143433,0.45115500688552856,2.3436994552612305,-2.2577567100524902,-0.9780887961387634,0.40208205580711365,0.6796460747718811,0.42000001668930054,-0.3010771870613098,0.5497753620147705,-1.1842442750930786,-3.0000033378601074,-0.22974169254302979,-0.22904887795448303,-0.2119918316602707,-0.1856958270072937,0.386789470911026,0.2675217092037201,0.21347270905971527,0.04489823803305626
0.5666666666666667,-0.02325846068561077,0.0350530706346035,0.0,0.6839285492897034,0.0,0.0,-0.729548990726471,0.5499506592750549,-0.05038757249712944,0.0,0.0,0.0,-2.5009262561798096,0.3711821734905243,0.7150611281394958,0.42449238896369934,0.5766709446907043,-0.13946717977523804,-0.026908956468105316,-0.8045343160629272,1.8535566329956055,-2.535456895828247,-1.0501521825790405,-3.1182847023010254,-9.861852645874023,-24.05974006652832,0.37461745738983154,0.7245863080024719,0.4301891028881073,1.7832034826278687,-1.8039703369140625,-1.4894087314605713,0.40208205580711365,0.6796460747718811,0.42000001668930054,-0.2937021553516388,0.37975549697875977,-1.2342664003372192,-3.000000238418579,-0.22129443287849426,-0.22314868867397308,-0.20819266140460968,-0.18577130138874054,0.5654065012931824,0.41319143772125244,0.24836190044879913,-0.02142077125608921
0.5833333333333334,-0.012090052478015423,0.031045088544487953,0.0,0.686215341091156,0.0,0.0,-0.7273984551429749,0.7346910834312439,-0.3619956076145172,0.0,0.0,0.0,1.3091472387313843,0.38916686177253723,0.7000088691711426,0.42467111349105835,0.5984886288642883,-0.08531994372606277,0.030830729752779007,-0.7959781885147095,0.8244920969009399,-1.5581165552139282,0.09066660702228546,-15.194058418273926,-4.440140247344971,-22.00984001159668,0.39178282022476196,0.7072350978851318,0.42824792861938477,0.5723328590393066,-0.6872114539146423,0.08012832701206207,0.40208205580711365,0.6796460747718811,0.42000001668930054,-0.28359153866767883,0.5252521634101868,-1.2154442071914673,2.99897837638855,-0.20753611624240875,-0.21248801052570343,-0.201243057847023,-0.18405450880527496,0.9203391671180725,0.735863983631134,0.48548203706741333,0.14717639982700348
0.6,-0.0035670797806233168,0.028992025181651115,0.0,0.6780261397361755,0.0,0.0,-0.7350378036499023,0.447712242603302,-0.03860176354646683,0.0,0.0,0.0,-2.118645429611206,0.3974226415157318,0.6914445161819458,0.4233890473842621,0.6343302130699158,-0.0599822960793972,0.038680873811244965,-0.7697603702545166,0.19312149286270142,-0.47338297963142395,-0.046098753809928894,1.8166909217834473,-0.9348121881484985,4.1994404792785645,0.4002265930175781,0.6977118849754333,0.42625904083251953,0.25513309240341187,-0.4293062686920166,-0.07302674651145935,0.40208205580711365,0.6796460747718811,0.42000001668930054,-0.2913530170917511,-1.0966323614120483,-1.1654016971588135,3.0001590251922607,-0.19338078796863556,-0.2011248767375946,-0.19411441683769226,-0.18251824378967285,0.7532460689544678,0.6151828169822693,0.37303200364112854,0.05423318222165108
0.6166666666666667,0.0037307110615074635,0.03091653622686863,0.0,0.6823607683181763,0.0,0.0,-0.7310156226158142,0.4667915105819702,0.17553508281707764,0.0,0.0,0.0,1.5812113285064697,0.400135338306427,0.6841024160385132,0.4213963747024536,0.6557517647743225,-0.023432515561580658,0.026053884997963905,-0.7541628479957581,0.10870573669672012,-0.3821762204170227,-0.13686245679855347,-1.7840242385864258,-8.239287376403809,2.374544858932495,0.4022509455680847,0.6917827129364014,0.427573025226593,0.054472148418426514,-0.2356407195329666,0.14119260013103485,0.40208205580711365,0.6796460747718811,0.42000001668930054,-0.31231483817100525,-1.3923100233078003,-1.1869336366653442,-2.9989635944366455,-0.18212386965751648,-0.19180598855018616,-0.18862226605415344,-0.1819802075624466,0.6566464900970459,0.5546715259552002,0.33046600222587585,0.04521600902080536
0.6333333333333333,0.012809309177100658,0.029726870357990265,0.0,0.675376832485199,0.0,0.0,-0.7374728322029114,0.5695626139640808,-0.11199378967285156,0.0,0.0,0.0,-2.0784754753112793,0.4024279713630676,0.6811990737915039,0.42033663392066956,0.6764246225357056,-0.005769042763859034,0.0055522313341498375,-0.7364682555198669,0.06968265771865845,-0.2141333520412445,-0.19062642753124237,0.7796531319618225,-8.057159423828125,4.3439483642578125,0.40494248270988464,0.6915191411972046,0.43031877279281616,0.13342897593975067,0.05708189308643341,0.18903742730617523,0.40208205580711365,0.6796460747718811,0.42000001668930054,-0.3472585082054138,-2.6243326663970947,-1.2368754148483276,-2.9983296394348145,-0.1690652221441269,-0.18063710629940033,-0.1814272254705429,-0.17961500585079193,0.7023186087608337,0.6201177835464478,0.40799033641815186,0.1481305956840515
0.65,0.024058224633336067,0.031996626406908035,0.0,0.6799697279930115,0.0,0.0,-0.7332401275634766,0.6932379007339478,0.15558591485023499,0.0,0.0,0.0,1.6328810453414917,0.4026339650154114,0.6797990202903748,0.4200000464916229,0.6834169030189514,-1.1893363449644312e-07,6.316741973932949e-08,-0.7300282120704651,0.00919115450233221,-0.05228961259126663,-2.9009534046053886e-06,0.00025346202892251313,0.00015995647117961198,0.6073469519615173,0.4052595794200897,0.6916171312332153,0.4335247576236725,0.00255415216088295,0.04774630442261696,0.22189894318580627,0.40208205580711365,0.6796460747718811,0.42000001668930054,-0.3966819643974304,-2.9996883869171143,-1.2868553400039673,-2.9991133213043213,-0.160230353474617,-0.17253583669662476,-0.17621903121471405,-0.1780126988887787,0.5915359854698181,0.5403039455413818,0.36355260014533997,0.15208888053894043
0.6666666666666666,0.032848916947841644,0.029867131263017654,0.0,0.7028588056564331,0.0,0.0,-0.7113294005393982,0.4561613202095032,-0.17011938989162445,0.0,0.0,0.0,4.907281398773193,0.40261679887771606,0.6796735525131226,0.4200049638748169,0.6831678748130798,-2.044837674475275e-05,-5.516780947800726e-05,-0.7302612662315369,-0.11377863585948944,-0.011857460252940655,0.04237508028745651,0.02888290397822857,-2.5119400024414062,-6.1619086265563965,0.40333443880081177,0.6921864748001099,0.43708518147468567,-0.20868903398513794,0.010811008512973785,0.19876492023468018,0.40208205580711365,0.6796460747718811,0.42000001668930054,-0.4466835856437683,-2.9997940063476562,-1.336828351020813,-2.99731183052063,-0.150509774684906,-0.16311192512512207,-0.1691408008337021,-0.17381298542022705,0.40316450595855713,0.437459260225296,0.35076960921287537,0.23243296146392822
0.6833333333333333,0.04204427823424339,0.024372180923819542,0.0,0.7128045558929443,0.0,0.0,-0.7013627290725708,0.5847821235656738,-0.37844377756118774,0.0,0.0,0.0,0.656661331653595,0.40106356143951416,0.6794191002845764,0.4200299084186554,0.6619635224342346,0.0005010927561670542,-0.0005599698051810265,-0.7495355606079102,-0.11652100086212158,0.01821311004459858,0.02393229864537716,-0.12161674350500107,-1.1986074447631836,-2.7121098041534424,0.4022830128669739,0.6945425271987915,0.44132983684539795,-0.0473383367061615,0.14868782460689545,0.29550981521606445,0.40208205580711365,0.6796460747718811,0.42000001668930054,-0.49667829275131226,-2.9983179569244385,-1.3867884874343872,-2.9999775886535645,-0.1457236260175705,-0.1569221466779709,-0.16334234178066254,-0.16877417266368866,0.2340828776359558,0.3552182912826538,0.3794323205947876,0.3883683681488037
0.7,0.05311683565378189,0.016125818714499474,0.0,0.701343297958374,0.0,0.0,-0.7128236889839172,0.6982332468032837,-0.5752646327018738,0.0,0.0,0.0,-2.814088821411133,0.3998487889766693,0.6795563697814941,0.4200000464916229,0.6536796689033508,-7.431169990468334e-08,-6.836597066239847e-08,-0.7567713260650635,-0.052433110773563385,0.004328045528382063,-4.555098712444305e-06,-0.00019768915080931038,-5.011054963688366e-05,-0.8023144602775574,0.40622472763061523,0.6979398727416992,0.45024171471595764,0.4580540657043457,0.1963219940662384,0.8894336819648743,0.40208205580711365,0.6796460747718811,0.42000001668930054,-0.5466907024383545,-2.9999966621398926,-1.4368067979812622,-2.999999761581421,-0.14467498660087585,-0.15332689881324768,-0.1586182415485382,-0.16307005286216736,-0.021793106570839882,0.15285339951515198,0.2527667284011841,0.3486521542072296
0.7166666666666667,0.06771209090948105,0.013285181485116482,0.0,0.6683304309844971,0.0,0.0,-0.7438645362854004,0.947675883769989,-0.034481968730688095,0.0,0.0,0.0,-6.450941562652588,0.3997202515602112,0.6795629262924194,0.4200001657009125,0.6531496047973633,8.284902833111119e-06,-1.0653814570105169e-05,-0.7572289109230042,0.0009182860958389938,-0.00033052818616852164,-0.00027167191728949547,-0.0030966773629188538,-0.0018723850371316075,-0.002293714787811041,0.42181384563446045,0.6970540285110474,0.4720768928527832,1.4625194072723389,-0.2853044867515564,1.861642837524414,0.40208205580711365,0.6796460747718811,0.42000001668930054,-0.5967018604278564,-2.999925136566162,-1.4868251085281372,-2.999990940093994,-0.1543300300836563,-0.15843065083026886,-0.16032977402210236,-0.16152910888195038,-0.7880697846412659,-0.47578558325767517,-0.22559022903442383,0.016030894592404366
0.7333333333333333,0.07903023064136505,0.015318403020501137,0.0,0.6477235555648804,0.0,0.0,-0.7618754506111145,0.5960899591445923,-0.06944802403450012,0.0,0.0,0.0,-1.8665729761123657,0.39972126483917236,0.6795626282691956,0.4200000464916229,0.6531491279602051,7.34361663035088e-07,-3.759038918360602e-06,-0.7572292685508728,0.0002179328294005245,-0.00028157507767900825,-0.00010511046275496483,0.0052728611044585705,0.0002070078335236758,-0.0004371872346382588,0.4458370506763458,0.6968153715133667,0.506661057472229,1.5894904136657715,0.20553994178771973,2.2204787731170654,0.40208205580711365,0.6796460747718811,0.42000001668930054,-0.6158444285392761,0.42458441853523254,-1.5368434190750122,-3.000000238418579,-0.16512872278690338,-0.16532838344573975,-0.16426122188568115,-0.1626209169626236,-0.21719366312026978,-0.12456562370061874,-0.07455624639987946,-0.022061757743358612
0.75,0.08572442084550858,0.016380049288272858,0.0,0.6535590291023254,0.0,0.0,-0.7568755745887756,0.3316796123981476,0.11395400762557983,0.0,0.0,0.0,1.7725412845611572,0.39972123503685,0.6795626282691956,0.4200000464916229,0.6531491875648499,8.93817457381374e-07,-3.955849933845457e-06,-0.7572292685508728,0.00021834629296790808,-0.00028272802592255175,-0.00010581174865365028,0.0052957599982619286,0.0001914875174406916,-0.00043872493552044034,0.4677978754043579,0.6997506618499756,0.5372848510742188,1.0236737728118896,0.20009587705135345,1.5420085191726685,0.40208205580711365,0.6796460747718811,0.42000001668930054,-0.586594820022583,2.8486809730529785,-1.5063810348510742,2.9999985694885254,-0.16759978234767914,-0.16654075682163239,-0.1648123413324356,-0.16246311366558075,-0.057605642825365067,-0.0031297188252210617,0.02044762298464775,0.046329911798238754
0.7666666666666666,0.08799893409013748,0.012379884719848633,0.0,0.6476507186889648,0.0,0.0,-0.7619373202323914,0.18015246093273163,-0.24843795597553253,0.0,0.0,0.0,-1.6418651342391968,0.39972126483917236,0.6795626282691956,0.4200000464916229,0.6531490683555603,8.790539141045883e-07,-3.934320830012439e-06,-0.7572293281555176,0.00021814763022121042,-0.0002828566066455096,-0.00010565086267888546,0.005300194025039673,0.00019115950271952897,-0.00043803383596241474,0.4783598780632019,0.7066354751586914,0.5571520328521729,0.11564027518033981,0.3495538830757141,0.9785630702972412,0.40208205580711365,0.6796460747718811,0.42000001668930054,-0.5425922870635986,2.433898448944092,-1.4563322067260742,2.999999761581421,-0.163380429148674,-0.16236653923988342,-0.16109012067317963,-0.15911969542503357,0.05605725198984146,0.09133096784353256,0.10160568356513977,0.1094685047864914
0.7833333333333333,0.08843936771154404,0.013639260083436966,0.0,0.6540838479995728,0.0,0.0,-0.7564220428466797,-0.008459368720650673,0.11547419428825378,0.0,0.0,0.0,1.7760556936264038,0.39972123503685,0.6795626878738403,0.4200000464916229,0.6531490683555603,8.969943223746668e-07,-3.863705387630034e-06,-0.7572293877601624,0.0002175726549467072,-0.00028268847381696105,-0.00010557589121162891,0.005299007520079613,0.0001825262006605044,-0.00043699576053768396,0.4739372134208679,0.7110406160354614,0.5713143944740295,-0.5030391812324524,0.3145710527896881,0.743929922580719,0.40208205580711365,0.6796460747718811,0.42000001668930054,-0.4948276877403259,2.9999122619628906,-1.4383211135864258,-0.5467828512191772,-0.16608932614326477,-0.16387712955474854,-0.16180410981178284,-0.1591634452342987,-0.07460200786590576,-0.033224016427993774,-0.009765581227838993,0.008443768136203289
0.8,0.08657340705394745,0.011402378790080547,0.0,0.6481941342353821,0.0,0.0,-0.761475145816803,-0.1344868689775467,-0.20270559191703796,0.0,0.0,0.0,-1.863579511642456,0.39972126483917236,0.6795626282691956,0.4200000464916229,0.6531490683555603,8.162708695635956e-07,-3.998218289780198e-06,-0.7572293877601624,0.0002191976527683437,-0.0002836296916939318,-0.00010575982742011547,0.00531392777338624,0.00020594798843376338,-0.00043958763126283884,0.4589983820915222,0.717597246170044,0.5774213075637817,-1.3072001934051514,0.39375337958335876,0.15891791880130768,0.40208205580711365,0.6796460747718811,0.42000001668930054,-0.469404935836792,0.266181081533432,-1.392021656036377,3.000000238418579,-0.16512885689735413,-0.16268116235733032,-0.16058024764060974,-0.15796740353107452,0.066843181848526,0.08044536411762238,0.08408057689666748,0.08331995457410812
0.8166666666666667,0.0862247571349144,0.01345295924693346,0.0,0.6533295512199402,0.0,0.0,-0.7570736408233643,0.004312402568757534,0.10841219872236252,0.0,0.0,0.0,1.3508644104003906,0.39972123503685,0.6795626282691956,0.4200000464916229,0.6531490087509155,8.833978313305124e-07,-3.936891062039649e-06,-0.7572293281555176,0.00021781615214422345,-0.00028274330543354154,-0.00010563875548541546,0.005299056880176067,0.0001855271984823048,-0.0004374852287583053,0.43880367279052734,0.7233495116233826,0.5787231922149658,-0.9635294675827026,0.4699639081954956,0.019856620579957962,0.40208205580711365,0.6796460747718811,0.42000001668930054,-0.44782325625419617,2.146209955215454,-1.363889217376709,0.5640478134155273,-0.1679757684469223,-0.16483798623085022,-0.1621469259262085,-0.15902161598205566,0.005328307393938303,-0.011969863437116146,-0.024266965687274933,-0.032122477889060974
0.8333333333333334,0.08797959238290787,0.011038717813789845,0.0,0.6454247236251831,0.0,0.0,-0.7638238668441772,0.13283900916576385,-0.17374688386917114,0.0,0.0,0.0,-2.1080679893493652,0.39972123503685,0.6795626878738403,0.4200000464916229,0.653148889541626,8.137420763887349e-07,-3.7497579796763603e-06,-0.7572295069694519,0.00021720149379689246,-0.00028369331266731024,-0.00010519730858504772,0.005323701538145542,0.00017877122445497662,-0.0004353342519607395,0.42363086342811584,0.7306119799613953,0.5761871933937073,-0.9241496920585632,0.29264697432518005,-0.17024531960487366,0.40208205580711365,0.6796460747718811,0.42000001668930054,-0.4604431688785553,-3.0000007152557373,-1.3155078887939453,2.999999523162842,-0.16612495481967926,-0.1635197252035141,-0.16117306053638458,-0.15824659168720245,0.023506298661231995,0.020683258771896362,0.030310876667499542,0.047349121421575546
0.85,0.09231996536254883,0.00860554538667202,0.0,0.64968341588974,0.0,0.0,-0.7602049112319946,0.30067694187164307,-0.21518033742904663,0.0,0.0,0.0,1.5042728185653687,0.39972126483917236,0.6795626878738403,0.4200000464916229,0.653148889541626,8.055301350395894e-07,-3.7843346945010126e-06,-0.7572295069694519,0.0002169549115933478,-0.00028377631679177284,-0.00010507018305361271,0.005327657796442509,0.00017724320059642196,-0.0004346664936747402,0.414131760597229,0.733043909072876,0.5746673345565796,-0.2148234099149704,0.10056490451097488,0.016426965594291687,0.40208205580711365,0.6796460747718811,0.42000001668930054,-0.49420613050460815,-1.1809674501419067,-1.335135817527771,-3.0000007152557373,-0.16851577162742615,-0.16509491205215454,-0.16168124973773956,-0.15756724774837494,-0.12805263698101044,-0.07142489403486252,0.00513279577717185,0.09232470393180847
0.8666666666666667,0.0987311452627182,0.0030874242074787617,0.0,0.6425173878669739,0.0,0.0,-0.7662711143493652,0.4258044362068176,-0.39275622367858887,0.0,0.0,0.0,-2.0001187324523926,0.39972123503685,0.6795626878738403,0.4200000464916229,0.6531490683555603,8.140169711623457e-07,-3.923278654838214e-06,-0.7572293877601624,0.00021835735242348164,-0.0002836788189597428,-0.00010554888285696507,0.005318683572113514,0.00019390899979043752,-0.00043786049354821444,0.41360366344451904,0.7316676378250122,0.5711407661437988,0.16144965589046478,-0.27282506227493286,-0.23993238806724548,0.40208205580711365,0.6796460747718811,0.42000001668930054,-0.535794198513031,-3.0000009536743164,-1.296872615814209,2.999999761581421,-0.17174245417118073,-0.16693763434886932,-0.16175074875354767,-0.15565738081932068,-0.20176900923252106,-0.09631185233592987,0.0335918627679348,0.17587091028690338
0.8833333333333333,0.10782784223556519,-0.0001648664620006457,0.0,0.6151400804519653,0.0,0.0,-0.7884178161621094,0.5943349599838257,-0.1331726461648941,0.0,0.0,0.0,-5.088260173797607,0.39972123503685,0.6795626282691956,0.4200000464916229,0.6531492471694946,8.462841378786834e-07,-4.079065547557548e-06,-0.757229208946228,0.0002188173239119351,-0.0002833021280821413,-0.00010574026964604855,0.005308215972036123,0.00020069812308065593,-0.000439084047684446,0.4212844669818878,0.7269206047058105,0.5698347091674805,0.7248190641403198,-0.2948676347732544,0.22671157121658325,0.40208205580711365,0.6796460747718811,0.42000001668930054,-0.5616920590400696,-0.3189469277858734,-1.3168407678604126,-2.9999985694885254,-0.1754739135503769,-0.16958342492580414,-0.16288748383522034,-0.15505799651145935,-0.18579261004924774,-0.15217533707618713,-0.09498509019613266,-0.02525792457163334
0.9,0.11476721614599228,-0.0005820588557980955,0.0,0.6026657819747925,0.0,0.0,-0.7979936599731445,0.3361293375492096,0.020928792655467987,0.0,0.0,0.0,-0.8529415130615234,0.39972123503685,0.6795626282691956,0.4200000464916229,0.6531490683555603,8.296656801576319e-07,-4.077809080627048e-06,-0.757229208946228,0.00021964464394841343,-0.0002835092891473323,-0.00010595982894301414,0.005307933781296015,0.00020964872965123504,-0.00044078388600610197,0.4326891005039215,0.7246637344360352,0.5749025344848633,0.5997997522354126,-0.011392084881663322,0.33514851331710815,0.40208205580711365,0.6796460747718811,0.42000001668930054,-0.5448434352874756,2.114485740661621,-1.3668358325958252,-2.9965221881866455,-0.17663127183914185,-0.1707916259765625,-0.16382548213005066,-0.15557216107845306,0.027644380927085876,-0.00856511015444994,-0.03037441149353981,-0.04648714140057564
