vladlanda/robotic-transformer/data/env_000_episode_0084.csv
sim_time_s,robot_box_x,robot_box_y,robot_box_z,robot_box_quat_w,robot_box_quat_x,robot_box_quat_y,robot_box_quat_z,robot_box_linvel_x,robot_box_linvel_y,robot_box_linvel_z,robot_box_angvel_x,robot_box_angvel_y,robot_box_angvel_z,cube_world_x,cube_world_y,cube_world_z,cube_quat_w,cube_quat_x,cube_quat_y,cube_quat_z,cube_linvel_x,cube_linvel_y,cube_linvel_z,cube_angvel_x,cube_angvel_y,cube_angvel_z,endpoint_world_x,endpoint_world_y,endpoint_world_z,endpoint_linvel_x,endpoint_linvel_y,endpoint_linvel_z,target_cube_world_x,target_cube_world_y,target_cube_world_z,gripper_actual_pos_rad_gp_leftgearjoint,gripper_actual_vel_rad_s_gp_leftgearjoint,gripper_actual_pos_rad_gp_rotatingjoint,gripper_actual_vel_rad_s_gp_rotatingjoint,motor_angle_rad_joint1,motor_angle_rad_joint2,motor_angle_rad_joint3,motor_angle_rad_joint4,motor_speed_rad_s_joint1,motor_speed_rad_s_joint2,motor_speed_rad_s_joint3,motor_speed_rad_s_joint4
0.0,0.0,0.0,0.0,1.0,0.0,0.0,0.0,0.0,0.0,0.0,0.0,0.0,0.0,-0.3794616758823395,0.6310585737228394,0.41999998688697815,1.0,0.0,0.0,0.0,0.0,0.0,0.0,0.0,0.0,0.0,3.42540442943573e-06,-0.005000244826078415,1.313499927520752,0.0,0.0,0.0,0.32377493381500244,0.741162121295929,0.42000001668930054,-1.5707999467849731,0.0,0.0,0.0,0.0,0.0,0.0,0.0,0.0,0.0,0.0,0.0
0.016666666666666666,0.0028778850100934505,0.0021806680597364902,0.0,0.9998081922531128,0.0,0.0,0.019586581736803055,0.24087215960025787,0.18240931630134583,0.0,0.0,0.0,3.1418697834014893,-0.37946179509162903,0.6310582756996155,0.41999998688697815,1.0,3.279964630564791e-06,-8.339746386809566e-07,8.465587342243452e-08,-1.9833529222523794e-05,0.00017983045836444944,-6.132945418357849e-05,0.0009432713268324733,-0.004689474124461412,-0.00031981561915017664,-0.007110234349966049,0.003379564033821225,1.3159373998641968,-0.8143353462219238,0.9868683815002441,0.18095196783542633,0.32377493381500244,0.741162121295929,0.42000001668930054,-1.5301095247268677,3.0000011920928955,-0.04584788903594017,-2.9999992847442627,0.0008691533003002405,0.0007963840034790337,0.0007110277656465769,0.0006108740926720202,0.11094217747449875,0.09756709635257721,0.08334315568208694,0.06823883205652237
0.03333333333333333,0.008960953913629055,0.00680182222276926,0.0,0.9997960329055786,0.0,0.0,0.02019682712852955,0.4070185720920563,0.31530478596687317,0.0,0.0,0.0,-0.8691299557685852,-0.3794619143009186,0.6310582160949707,0.4200000464916229,1.0,3.3908179375430336e-06,-2.132458348569344e-06,-3.7097745320124886e-08,0.00026357852038927376,0.00026937833172269166,-0.00010509369894862175,-0.0017707126680761576,0.004130884539335966,-0.0001354814594378695,-0.02754274010658264,0.02582480013370514,1.3166539669036865,-1.5912319421768188,1.6051584482192993,-0.07819212973117828,0.32377493381500244,0.741162121295929,0.42000001668930054,-1.4800904989242554,3.0000016689300537,-0.09588773548603058,-3.0000014305114746,0.0029901955276727676,0.002652842551469803,0.0022774471435695887,0.0018609344260767102,0.16422943770885468,0.1397758424282074,0.11383753269910812,0.08632217347621918
0.05,0.017126573249697685,0.013696613721549511,0.0,0.9998316168785095,0.0,0.0,0.0183519646525383,0.5275327563285828,0.45585060119628906,0.0,0.0,0.0,0.10102222114801407,-0.37946194410324097,0.6310582756996155,0.4200000464916229,1.0,3.7651902857760433e-06,-2.2119197637948673e-06,5.609367637049445e-09,0.00026530938339419663,0.00026691678795032203,-0.00010440615005791187,-0.0017243892652913928,0.004177466034889221,-0.00012949809024576098,-0.058675218373537064,0.05444186180830002,1.3116881847381592,-2.100426435470581,1.8127307891845703,-0.4758196473121643,0.32377493381500244,0.741162121295929,0.42000001668930054,-1.4300721883773804,2.999999761581421,-0.145925372838974,-3.000000476837158,0.00547461723908782,0.004688737448304892,0.0038307777140289545,0.0028960020281374454,0.16833363473415375,0.13200020790100098,0.09381259232759476,0.05364996939897537
0.06666666666666667,0.028179407119750977,0.02278028428554535,0.0,0.9999970197677612,0.0,0.0,-0.0024508575443178415,0.7284953594207764,0.5871497988700867,0.0,0.0,0.0,-3.3315112590789795,-0.37946194410324097,0.6310582160949707,0.4200000464916229,0.9999999403953552,3.406832092878176e-06,-2.28558906201215e-06,4.300801492718165e-07,0.0002670248504728079,0.0002679176686797291,-0.0001043803058564663,-0.00174071139190346,0.00421183044090867,-0.00012850876373704523,-0.09549088776111603,0.0890769362449646,1.3000646829605103,-2.314988613128662,2.27120304107666,-0.9086470603942871,0.32377493381500244,0.741162121295929,0.42000001668930054,-1.3800462484359741,2.999999523162842,-0.15315113961696625,1.7328498363494873,0.008000500500202179,0.006506212521344423,0.004901419393718243,0.003180638188496232,0.15790587663650513,0.10537135601043701,0.05082099512219429,-0.005825408268719912
0.08333333333333333,0.041761308908462524,0.034236736595630646,0.0,0.9999822378158569,0.0,0.0,-0.005962733644992113,0.8519755601882935,0.7334757447242737,0.0,0.0,0.0,0.5962137579917908,-0.37946194410324097,0.6310582160949707,0.4200000464916229,1.0,3.6973397072870284e-06,-2.18897503145854e-06,-2.6324283908252255e-07,0.00026389575214125216,0.000265863083768636,-0.00010433816350996494,-0.001708182506263256,0.004150256514549255,-0.00012991153926122934,-0.1363375335931778,0.12380973994731903,1.283191204071045,-2.469855785369873,2.088472843170166,-1.1089410781860352,0.32377493381500244,0.741162121295929,0.42000001668930054,-1.3300366401672363,3.0000038146972656,-0.19179397821426392,-3.0000007152557373,0.009315352886915207,0.006871790159493685,0.004278428852558136,0.0015272651799023151,0.04384249821305275,-0.022363342344760895,-0.09062695503234863,-0.16091206669807434
0.1,0.04909619316458702,0.04285053908824921,0.0,0.9996932744979858,0.0,0.0,-0.024766908958554268,0.3106803596019745,0.4431458115577698,0.0,0.0,0.0,-3.1958436965942383,-0.37946194410324097,0.6310582160949707,0.4200000464916229,0.9999999403953552,3.6204189655109076e-06,-2.2651970539300237e-06,1.7461321988321288e-07,0.00026676736888475716,0.0002674079150892794,-0.0001040794886648655,-0.001738528604619205,0.004209060221910477,-0.00012775698269251734,-0.1751352846622467,0.16414020955562592,1.260689616203308,-2.203122615814209,2.6837592124938965,-1.512056589126587,0.32377493381500244,0.741162121295929,0.42000001668930054,-1.2800090312957764,2.9999969005584717,-0.15804404020309448,3.000002145767212,0.0037632121238857508,0.0005627060309052467,-0.0028376062400639057,-0.006448500789701939,-0.4467097222805023,-0.4971317648887634,-0.5499231815338135,-0.6052863001823425
0.11666666666666667,0.06089526787400246,0.054730284959077835,0.0,0.997307300567627,0.0,0.0,-0.07333601266145706,0.7262842059135437,0.6918116211891174,0.0,0.0,0.0,-6.37880802154541,-0.37946194410324097,0.6310582160949707,0.4200000464916229,1.0,3.798416400968563e-06,-2.2627416456089122e-06,-1.5020985699720768e-07,0.00026374010485596955,0.00026566069573163986,-0.00010429113171994686,-0.001705370144918561,0.00414750212803483,-0.0001298012211918831,-0.21091300249099731,0.21262000501155853,1.2323098182678223,-2.231553077697754,2.988790512084961,-1.823045015335083,0.32377493381500244,0.741162121295929,0.42000001668930054,-1.2300143241882324,3.0000016689300537,-0.18979991972446442,-3.000000238418579,0.000760060444008559,-0.0038573825731873512,-0.008667150512337685,-0.013680987991392612,-0.29275327920913696,-0.36383605003356934,-0.43488985300064087,-0.5058823227882385
0.13333333333333333,0.07091069221496582,0.06351391226053238,0.0,0.9951953291893005,0.0,0.0,-0.09790919721126556,0.564741313457489,0.45204800367355347,0.0,0.0,0.0,-1.8072664737701416,-0.37946194410324097,0.6310582756996155,0.4200000464916229,0.9999999403953552,3.5505045161698945e-06,-2.2297124360193266e-06,2.9290509928614483e-07,0.0002670330286491662,0.000267792638624087,-0.00010417005978524685,-0.0017440036172047257,0.004213502164930105,-0.00012799850082956254,-0.25224462151527405,0.2585362195968628,1.1986892223358154,-2.395224094390869,2.9358468055725098,-2.2107338905334473,0.32377493381500244,0.741162121295929,0.42000001668930054,-1.1800042390823364,3.0000014305114746,-0.22369249165058136,-1.1999742984771729,-0.003764159744605422,-0.009758389554917812,-0.015911446884274483,-0.022234059870243073,-0.26369038224220276,-0.3507712483406067,-0.43482741713523865,-0.515789270401001
0.15,0.07792352885007858,0.0686553418636322,0.0,0.9911370873451233,0.0,0.0,-0.13284289836883545,0.3637010157108307,0.24954792857170105,0.0,0.0,0.0,-5.045816898345947,-0.37946194410324097,0.6310582160949707,0.4200000464916229,0.9999999403953552,3.3380501918145455e-06,-2.242820528408629e-06,-2.8022322240417452e-08,0.00026674597756937146,0.0002675814612302929,-0.00010427739471197128,-0.0017367637483403087,0.0042068837210536,-0.00012831276399083436,-0.2897944152355194,0.3117774426937103,1.157275915145874,-2.0517027378082275,3.447848320007324,-2.742793083190918,0.32377493381500244,0.741162121295929,0.42000001668930054,-1.1299916505813599,2.999998092651367,-0.20571093261241913,2.9819421768188477,-0.009504688903689384,-0.016916362568736076,-0.024422023445367813,-0.03203270211815834,-0.41507941484451294,-0.49168944358825684,-0.5643132925033569,-0.6330230832099915
0.16666666666666666,0.0808660164475441,0.07522131502628326,0.0,0.9812496304512024,0.0,0.0,-0.1927412748336792,0.10423657298088074,0.4532988965511322,0.0,0.0,0.0,-8.07082462310791,-0.37946194410324097,0.6310582756996155,0.4200000464916229,0.9999999403953552,3.647779067250667e-06,-2.307212753294152e-06,3.527146219539645e-08,0.00026726859505288303,0.0002680137986317277,-0.00010418682359158993,-0.0017473286716267467,0.0042176577262580395,-0.00012798354146070778,-0.32233938574790955,0.3746802508831024,1.1055059432983398,-1.6760517358779907,4.0575642585754395,-3.4290976524353027,0.32377493381500244,0.741162121295929,0.42000001668930054,-1.0799953937530518,3.000001907348633,-0.2372419685125351,-3.000000476837158,-0.018990671262145042,-0.02747875079512596,-0.03598403558135033,-0.04452009126543999,-0.660712480545044,-0.710026204586029,-0.7549176216125488,-0.7955950498580933
0.18333333333333332,0.08843067288398743,0.083472840487957,0.0,0.9722800850868225,0.0,0.0,-0.23381929099559784,0.573413074016571,0.548199474811554,0.0,0.0,0.0,-3.9751861095428467,-0.37946194410324097,0.6310582160949707,0.4200000464916229,0.9999999403953552,3.290514769105357e-06,-2.1938158170087263e-06,-2.7924590995098697e-07,0.0002667787193786353,0.0002677605953067541,-0.0001043414231389761,-0.0017390446737408638,0.004206892102956772,-0.00012845569290220737,-0.3530469536781311,0.4371223747730255,1.0412580966949463,-1.5650213956832886,3.8493528366088867,-4.259653091430664,0.32377493381500244,0.741162121295929,0.42000001668930054,-1.0299961566925049,2.9999985694885254,-0.2872694432735443,-3.0000011920928955,-0.02805669978260994,-0.03713617101311684,-0.04616419970989227,-0.055161505937576294,-0.5418033599853516,-0.560101330280304,-0.5749272704124451,-0.5867767333984375
0.2,0.09305310249328613,0.0893983542919159,0.0,0.9583979249000549,0.0,0.0,-0.28543540835380554,0.22230665385723114,0.3623099625110626,0.0,0.0,0.0,-7.292378902435303,-0.37946194410324097,0.6310582160949707,0.4200000464916229,1.0,3.280726787124877e-06,-2.219165025962866e-06,1.5945686016038962e-07,0.0002662799961399287,0.0002674010756891221,-0.0001042510848492384,-0.0017357835313305259,0.004197876434773207,-0.00012865287135355175,-0.3773144781589508,0.49944689869880676,0.9613204002380371,-1.061719298362732,3.834078073501587,-5.22242546081543,0.32377493381500244,0.741162121295929,0.42000001668930054,-0.9799862504005432,2.999999761581421,-0.3372977674007416,-3.000000476837158,-0.04246751219034195,-0.05141003057360649,-0.05984184890985489,-0.06817972660064697,-0.9715542197227478,-0.9732587337493896,-0.92369544506073,-0.8625743389129639
0.21666666666666667,0.09382574260234833,0.09694533050060272,0.0,0.9487732648849487,0.0,0.0,-0.31595784425735474,-0.03160246089100838,0.5123379230499268,0.0,0.0,0.0,-2.71181583404541,-0.37946194410324097,0.6310582756996155,0.4200000464916229,1.0,3.613114131439943e-06,-2.270080813104869e-06,2.2099777652329067e-07,0.0002671255497261882,0.00026781627093441784,-0.0001041400246322155,-0.0017444631084799767,0.004215197172015905,-0.00012786380830220878,-0.39750373363494873,0.5523704886436462,0.8701058626174927,-0.8974378705024719,2.9102377891540527,-5.741158485412598,0.32377493381500244,0.741162121295929,0.42000001668930054,-0.9299755692481995,3.000000238418579,-0.38732799887657166,-2.999999761581421,-0.05859679728746414,-0.06743171811103821,-0.07586249709129333,-0.08428580313920975,-0.9880103468894958,-0.990225076675415,-0.990982174873352,-0.9856933951377869
0.23333333333333334,0.0978587418794632,0.10104479640722275,0.0,0.9369013905525208,0.0,0.0,-0.34959372878074646,0.2873440086841583,0.1762068271636963,0.0,0.0,0.0,-5.0472941398620605,-0.37946194410324097,0.6310582160949707,0.4200000464916229,1.0,3.381833721505245e-06,-2.29093961934268e-06,2.727813352976227e-07,0.00026691294624470174,0.00026779971085488796,-0.00010433141142129898,-0.0017395353643223643,0.004209678154438734,-0.00012843581498600543,-0.4109213948249817,0.5961594581604004,0.7692078948020935,-0.41402411460876465,2.3431198596954346,-6.336146831512451,0.32377493381500244,0.741162121295929,0.42000001668930054,-0.8799648880958557,2.999997854232788,-0.4373595714569092,-3.0000011920928955,-0.0742967501282692,-0.08312258124351501,-0.09152132272720337,-0.09983981400728226,-0.9911753535270691,-0.9923543930053711,-0.9932876229286194,-0.9868386387825012
0.25,0.0979345440864563,0.10393139719963074,0.0,0.9310756921768188,0.0,0.0,-0.3648260235786438,-0.07290259003639221,0.11041026562452316,0.0,0.0,0.0,-0.8661149144172668,-0.3794619143009186,0.6310582160949707,0.4200000464916229,0.9999999403953552,3.7065449305373477e-06,-2.222977173005347e-06,-2.2551901679435105e-07,0.0002642468025442213,0.0002665686479303986,-0.00010457751341164112,-0.0017169659258797765,0.004155547823756933,-0.00013063880032859743,-0.41652873158454895,0.6190625429153442,0.6651673316955566,0.009781911969184875,0.7066612243652344,-6.177730560302734,0.32377493381500244,0.741162121295929,0.42000001668930054,-0.8299546837806702,2.999997854232788,-0.48739075660705566,-2.9999992847442627,-0.0919145792722702,-0.10047266632318497,-0.10867059975862503,-0.1168331578373909,-0.992843747138977,-0.9945563077926636,-0.9949309229850769,-0.994860827922821
0.26666666666666666,0.09474746882915497,0.10355719178915024,0.0,0.9217252731323242,0.0,0.0,-0.38784337043762207,-0.19929327070713043,-0.09185998141765594,0.0,0.0,0.0,-4.131210803985596,-0.37946194410324097,0.6310582160949707,0.4200000464916229,0.9999999403953552,3.7196000448602717e-06,-2.403485495960922e-06,-1.8307810023543425e-07,0.0002662320912349969,0.00026729173259809613,-0.00010425853542983532,-0.0017327233217656612,0.0041965520940721035,-0.00012851424980908632,-0.4116646945476532,0.6250130534172058,0.5630737543106079,0.5874871015548706,0.0886310338973999,-6.051182270050049,0.32377493381500244,0.741162121295929,0.42000001668930054,-0.7799459099769592,2.999995231628418,-0.5374207496643066,-3.0000009536743164,-0.1087028756737709,-0.11718632280826569,-0.12535378336906433,-0.1335081309080124,-0.9973543286323547,-0.9980737566947937,-0.9986341595649719,-0.9990876913070679
0.2833333333333333,0.08970676362514496,0.10101398080587387,0.0,0.9186002016067505,0.0,0.0,-0.3951881527900696,-0.33425310254096985,-0.22293385863304138,0.0,0.0,0.0,0.050691090524196625,-0.37946194410324097,0.6310582756996155,0.4200000464916229,0.9999999403953552,3.5840146210830426e-06,-2.31546050599718e-06,7.404324975368581e-08,0.00026522012194618583,0.0002645521017257124,-0.00010317075066268444,-0.0017020526574924588,0.004185048397630453,-0.0001249978959094733,-0.4036872386932373,0.6271357536315918,0.47120171785354614,0.5667976140975952,0.023208610713481903,-4.967779636383057,0.32377493381500244,0.741162121295929,0.42000001668930054,-0.7299383282661438,2.9999992847442627,-0.5874483585357666,-3.000002861022949,-0.12606079876422882,-0.13441064953804016,-0.1424804925918579,-0.15055948495864868,-1.0256989002227783,-1.0194858312606812,-1.01473867893219,-1.0109291076660156
0.3,0.0824832171201706,0.0957658514380455,0.0,0.9267564415931702,0.0,0.0,-0.37566277384757996,-0.47845783829689026,-0.35765179991722107,0.0,0.0,0.0,3.36894154548645,-0.37946179509162903,0.6310582160949707,0.41999995708465576,0.9999999403953552,5.062243417341961e-06,-1.2003646361335996e-06,3.952160113840364e-06,0.0003324038698337972,0.0003957022854592651,-9.835857053985819e-05,-0.00693008815869689,0.005994025617837906,-0.014362950809299946,-0.40151524543762207,0.6307154297828674,0.427198588848114,-0.15175455808639526,0.19178366661071777,-0.2827971279621124,0.32377493381500244,0.741162121295929,0.42000001668930054,-0.6799331307411194,2.9999053478240967,-0.637791633605957,-2.9984936714172363,-0.13689269125461578,-0.14591418206691742,-0.1545652151107788,-0.16307321190834045,-0.19467532634735107,-0.29595038294792175,-0.3839811086654663,-0.4514855444431305
0.31666666666666665,0.07291574776172638,0.08827860653400421,0.0,0.928045928478241,0.0,0.0,-0.3724658191204071,-0.6135754585266113,-0.48860931396484375,0.0,0.0,0.0,-0.5581185221672058,-0.37946194410324097,0.6310582756996155,0.4200000464916229,0.9999999403953552,3.756040996449883e-06,-2.4505038709321525e-06,7.845520855198629e-08,0.00026778102619573474,0.00026631681248545647,-0.00010382058098912239,-0.0017122136196121573,0.0042315199971199036,-0.00012482539750635624,-0.4009096026420593,0.634245753288269,0.4233391284942627,0.30425989627838135,0.18407201766967773,-0.22815671563148499,0.32377493381500244,0.741162121295929,0.42000001668930054,-0.6299267411231995,2.9999823570251465,-0.6878648400306702,-2.9999992847442627,-0.14275634288787842,-0.15208952128887177,-0.16074277460575104,-0.16884800791740417,-0.4605677127838135,-0.41286540031433105,-0.3441723883152008,-0.2499881088733673
0.3333333333333333,0.06206431984901428,0.07860592007637024,0.0,0.9345401525497437,0.0,0.0,-0.3558577597141266,-0.717856228351593,-0.6246551871299744,0.0,0.0,0.0,2.8971023559570312,-0.37767961621284485,0.6340187191963196,0.4202938377857208,0.9994437098503113,0.00726344296708703,5.886329017812386e-05,-0.03254794329404831,0.2812683880329132,0.4665817618370056,0.05847802385687828,3.0592758655548096,-0.06945110112428665,-9.899662017822266,-0.39610162377357483,0.6414339542388916,0.42016589641571045,0.19928425550460815,0.594627857208252,0.0039027146995067596,0.32377493381500244,0.741162121295929,0.42000001668930054,-0.5799214243888855,2.999403238296509,-0.7379004955291748,-2.989009380340576,-0.15170066058635712,-0.15964335203170776,-0.1665315181016922,-0.17243792116641998,-0.5105060338973999,-0.42072638869285583,-0.3049616515636444,-0.1599719375371933
0.35,0.05423016846179962,0.06622343510389328,0.0,0.9344879984855652,0.0,0.0,-0.35599467158317566,-0.38016343116760254,-0.7893800139427185,0.0,0.0,0.0,-0.9605734348297119,-0.37290963530540466,0.6418055891990662,0.42000284790992737,0.993516206741333,-1.060390150087187e-05,-0.0002455140056554228,-0.11369044333696365,0.32707175612449646,0.5080158710479736,-0.0004913421580567956,-0.024734225124120712,0.02230082079768181,-10.698254585266113,-0.38986465334892273,0.650190532207489,0.4204639792442322,0.6138731837272644,0.4999222755432129,-0.07986712455749512,0.32377493381500244,0.741162121295929,0.42000001668930054,-0.5299164056777954,3.0000007152557373,-0.7879245281219482,-3.0000011920928955,-0.16107575595378876,-0.16665135324001312,-0.1707117259502411,-0.17330515384674072,-0.5652547478675842,-0.3893844783306122,-0.18686048686504364,0.042635634541511536
0.36666666666666664,0.0439084954559803,0.052304286509752274,0.0,0.9230808615684509,0.0,0.0,-0.38460588455200195,-0.7062434554100037,-0.8604331016540527,0.0,0.0,0.0,-4.640058517456055,-0.3640669882297516,0.6535772085189819,0.4207165837287903,0.9817125201225281,-0.01767069287598133,0.002944645006209612,-0.1895245760679245,0.7983022332191467,0.9681640863418579,0.1089550107717514,-5.144468307495117,1.798291802406311,-6.117855548858643,-0.37651363015174866,0.6611090302467346,0.42117592692375183,1.00396728515625,0.8672360181808472,0.1241534948348999,0.32377493381500244,0.741162121295929,0.42000001668930054,-0.47987109422683716,2.9999661445617676,-0.8379324674606323,-2.999972343444824,-0.1726258248090744,-0.17468567192554474,-0.1748017519712448,-0.1730409860610962,-0.6626481413841248,-0.4475276470184326,-0.20764240622520447,0.05524063482880592
0.3833333333333333,0.03679058700799942,0.03553552180528641,0.0,0.8986519575119019,0.0,0.0,-0.4386623799800873,-0.3902350664138794,-1.0493578910827637,0.0,0.0,0.0,-7.902630805969238,-0.341916561126709,0.6777976751327515,0.4221097528934479,0.970642626285553,-0.02815404161810875,-0.017120270058512688,-0.23825852572917938,1.7510992288589478,1.8383545875549316,0.1148965135216713,-0.2755071222782135,-4.777543067932129,-6.038635730743408,-0.3512439727783203,0.6827802062034607,0.42349401116371155,2.0665268898010254,1.64382004737854,0.26934874057769775,0.32377493381500244,0.741162121295929,0.42000001668930054,-0.429850310087204,3.0,-0.8879512548446655,-2.9999921321868896,-0.18157747387886047,-0.18026511371135712,-0.1765918731689453,-0.17066322267055511,-0.5583682060241699,-0.34484854340553284,-0.11029450595378876,0.14201205968856812
0.4,0.03154315426945686,0.02346181869506836,0.0,0.8583705425262451,0.0,0.0,-0.5130301713943481,-0.26816779375076294,-0.6056987643241882,0.0,0.0,0.0,-10.897727012634277,-0.2811582088470459,0.7110865116119385,0.42627203464508057,0.9541441202163696,0.015927597880363464,-0.06179214268922806,-0.2924670875072479,4.926041603088379,2.5870676040649414,0.09879358857870102,36.273284912109375,-22.483232498168945,-1.5747796297073364,-0.2904568612575531,0.7183682918548584,0.4266440272331238,4.7904486656188965,2.595132827758789,0.30009934306144714,0.32377493381500244,0.741162121295929,0.42000001668930054,-0.3901461660861969,1.2221214771270752,-0.8511245250701904,2.9940662384033203,-0.19703668355941772,-0.1920446902513504,-0.18295873701572418,-0.17172744870185852,-0.8684384226799011,-0.7515403032302856,-0.44135695695877075,-0.14957745373249054
0.4166666666666667,0.03014722280204296,0.014192672446370125,0.0,0.8226982951164246,0.0,0.0,-0.5684782266616821,-0.01643851213157177,-0.5196110606193542,0.0,0.0,0.0,-6.321388244628906,-0.2011280208826065,0.7546104192733765,0.4328167140483856,0.915961742401123,0.07323231548070908,-0.09587842971086502,-0.3826987147331238,5.146824359893799,1.7677311897277832,0.4711664617061615,6.414357662200928,-10.724910736083984,21.361793518066406,-0.21002504229545593,0.7635940313339233,0.43291664123535156,4.9888834953308105,2.54604434967041,0.5166095495223999,0.32377493381500244,0.741162121295929,0.42000001668930054,-0.37776434421539307,0.7300878763198853,-0.8614365458488464,-3.000002145767212,-0.20644135773181915,-0.20192836225032806,-0.18932248651981354,-0.1748807728290558,-0.4943356513977051,-0.5110547542572021,-0.33933061361312866,-0.1902521401643753
0.43333333333333335,0.031779494136571884,0.008151615038514137,0.0,0.8082531094551086,0.0,0.0,-0.5888351798057556,0.18019947409629822,-0.31698763370513916,0.0,0.0,0.0,-1.8555972576141357,-0.11972471326589584,0.7886762022972107,0.44086378812789917,0.8751283288002014,0.08001857250928879,-0.10371870547533035,-0.4658217430114746,5.187469005584717,0.8760888576507568,0.6003112196922302,2.091287136077881,-11.170462608337402,21.688587188720703,-0.12639331817626953,0.7990404963493347,0.440909206867218,5.191249847412109,1.8075592517852783,0.6017025709152222,0.32377493381500244,0.741162121295929,0.42000001668930054,-0.3649331331253052,0.7285366058349609,-0.9114605188369751,-3.0,-0.21485592424869537,-0.20999641716480255,-0.19476743042469025,-0.178126260638237,-0.47249874472618103,-0.4285869896411896,-0.2914011776447296,-0.180939182639122
0.45,0.031107135117053986,0.006843163166195154,0.0,0.7868565320968628,0.0,0.0,-0.6171360015869141,-0.020704276859760284,-0.053369294852018356,0.0,0.0,0.0,-4.928314208984375,-0.036184582859277725,0.8083836436271667,0.4478186070919037,0.8258947730064392,0.09025118499994278,-0.10656671971082687,-0.5462563633918762,5.010258197784424,-0.21235227584838867,0.36531469225883484,-8.976890563964844,-14.637910842895508,28.292627334594727,-0.04167698696255684,0.819977879524231,0.4480406939983368,5.22770881652832,0.9241183400154114,0.4992838501930237,0.32377493381500244,0.741162121295929,0.42000001668930054,-0.35329851508140564,0.5473279356956482,-0.9614845514297485,-3.000004291534424,-0.22434720396995544,-0.21819353103637695,-0.20065957307815552,-0.1820826381444931,-0.484872967004776,-0.4039367735385895,-0.2881568968296051,-0.18741117417812347
0.4666666666666667,0.03325503692030907,-0.00041014328598976135,0.0,0.7763237953186035,0.0,0.0,-0.6303343176841736,0.23632028698921204,-0.571790874004364,0.0,0.0,0.0,-1.0710252523422241,0.045240361243486404,0.8169955015182495,0.4517417550086975,0.7782651782035828,0.07999269664287567,-0.10207165032625198,-0.614398717880249,4.610807418823242,-0.7447296977043152,0.18291957676410675,-10.077719688415527,-9.93484878540039,21.843204498291016,0.041526731103658676,0.828364372253418,0.4525170624256134,4.948575019836426,0.12332166731357574,0.25284042954444885,0.32377493381500244,0.741162121295929,0.42000001668930054,-0.3431923985481262,0.5941071510314941,-1.011508822441101,-3.000002861022949,-0.22653061151504517,-0.21932905912399292,-0.20066407322883606,-0.1811780035495758,-0.02618357352912426,0.054411981254816055,0.11250414699316025,0.15553715825080872
0.48333333333333334,0.033086877316236496,-0.0042088935151696205,0.0,0.7575258016586304,0.0,0.0,-0.6528052687644958,-0.05142264813184738,-0.12147661298513412,0.0,0.0,0.0,-4.025038242340088,0.12238489091396332,0.8132606148719788,0.44995638728141785,0.6950070858001709,0.03015078417956829,-0.15524660050868988,-0.7013946175575256,4.232842445373535,-0.9450914859771729,-0.15466000139713287,-21.968246459960938,4.594064235687256,-1.8395720720291138,0.11707314848899841,0.8266230225563049,0.4542950987815857,4.458385467529297,-0.2940584421157837,0.05476624518632889,0.32377493381500244,0.741162121295929,0.42000001668930054,-0.3317463994026184,0.7079773545265198,-1.0615310668945312,-2.999255895614624,-0.2298547327518463,-0.2211366593837738,-0.20173785090446472,-0.18182416260242462,-0.20772826671600342,-0.13619516789913177,-0.1277719885110855,-0.13605797290802002
0.5,0.03421397507190704,-0.004294177517294884,0.0,0.7529267072677612,0.0,0.0,-0.6581043601036072,0.10463062673807144,0.06498020887374878,0.0,0.0,0.0,0.08249625563621521,0.18858784437179565,0.8017561435699463,0.44516298174858093,0.6325098276138306,-0.0008371924050152302,-0.1567516028881073,-0.7585245370864868,3.1328723430633545,-1.3835572004318237,-0.2590673565864563,-1.2878785133361816,12.933188438415527,13.903223037719727,0.18411841988563538,0.816072940826416,0.45067697763442993,3.823482036590576,-0.9412710666656494,-0.39113831520080566,0.32377493381500244,0.741162121295929,0.42000001668930054,-0.3175640106201172,0.8602489233016968,-1.1115531921386719,-2.998203992843628,-0.23270061612129211,-0.22276277840137482,-0.20337724685668945,-0.1837177872657776,-0.12006797641515732,-0.04932422935962677,-0.062110088765621185,-0.08800183981657028
0.5166666666666666,0.037882350385189056,-0.006900367327034473,0.0,0.740692138671875,0.0,0.0,-0.6718445420265198,0.2752363681793213,-0.22922182083129883,0.0,0.0,0.0,-3.0242795944213867,0.24439871311187744,0.7860645651817322,0.43236494064331055,0.5502338409423828,-0.04418184235692024,-0.16484951972961426,-0.8173831701278687,3.167867660522461,-0.8980209827423096,-1.0091984272003174,-2.166504144668579,0.3018924593925476,-15.851760864257812,0.23881661891937256,0.800702691078186,0.4393070340156555,2.921896457672119,-1.0301514863967896,-0.8454120755195618,0.32377493381500244,0.741162121295929,0.42000001668930054,-0.3026401400566101,1.1278682947158813,-1.1615753173828125,-3.0000011920928955,-0.23292355239391327,-0.22215883433818817,-0.2034047693014145,-0.1845337450504303,0.07760895043611526,0.10937649011611938,0.04990570247173309,-0.016711771488189697
0.5333333333333333,0.03959446772933006,-0.005803884007036686,0.0,0.7397759556770325,0.0,0.0,-0.6728532910346985,0.07415346056222916,0.09668279439210892,0.0,0.0,0.0,0.7028229236602783,0.2821214199066162,0.7697018384933472,0.4243047833442688,0.5549750328063965,-0.046075236052274704,-0.0726604089140892,-0.8274056315422058,1.7648825645446777,-1.5362356901168823,0.3098582625389099,-17.83072280883789,-1.591469645500183,9.972111701965332,0.2795965373516083,0.7817119359970093,0.43149715662002563,1.7167706489562988,-0.9014053344726562,0.1900433897972107,0.32377493381500244,0.741162121295929,0.42000001668930054,-0.28532645106315613,0.7825035452842712,-1.2115974426269531,-3.000007390975952,-0.23464612662792206,-0.22297796607017517,-0.20491530001163483,-0.18690094351768494,0.025983404368162155,0.03354700282216072,-0.04831283167004585,-0.13203425705432892
0.55,0.042921099811792374,-0.008960258215665817,0.0,0.7293210029602051,0.0,0.0,-0.6841716766357422,0.23076288402080536,-0.21666382253170013,0.0,0.0,0.0,-2.563403844833374,0.3070186674594879,0.7592377066612244,0.4232633709907532,0.5458905696868896,-0.06014227122068405,-0.05021297559142113,-0.8341853022575378,1.0306873321533203,-1.1620672941207886,0.2480887472629547,-17.766700744628906,6.976175785064697,12.588582038879395,0.30473023653030396,0.7702682018280029,0.43094831705093384,1.0287044048309326,-0.5484298467636108,0.16193605959415436,0.32377493381500244,0.741162121295929,0.42000001668930054,-0.2724357545375824,0.48956596851348877,-1.2616081237792969,-2.9978270530700684,-0.22909897565841675,-0.21832451224327087,-0.20248554646968842,-0.18656212091445923,0.2958719730377197,0.25745779275894165,0.14398369193077087,0.03996875882148743
0.5666666666666667,0.04651999846100807,-0.008627197705209255,0.0,0.7306894063949585,0.0,0.0,-0.6827099919319153,0.20980943739414215,0.03455545753240585,0.0,0.0,0.0,1.0854222774505615,0.32226768136024475,0.7476548552513123,0.4229472577571869,0.5450451970100403,-0.06723836064338684,-0.042927127331495285,-0.8346028923988342,0.7466474771499634,-0.8193093538284302,-0.024556022137403488,-1.1900913715362549,-1.040976881980896,1.289590835571289,0.3194972276687622,0.7577528953552246,0.4305429458618164,0.7434051632881165,-0.6976858377456665,-0.11424391716718674,0.32377493381500244,0.741162121295929,0.42000001668930054,-0.2686857581138611,0.18240192532539368,-1.2818695306777954,0.30117228627204895,-0.22515225410461426,-0.21503272652626038,-0.201063334941864,-0.18688014149665833,0.3705708980560303,0.2909519076347351,0.14518506824970245,0.010692138224840164
0.5833333333333334,0.0518004335463047,-0.011937549337744713,0.0,0.7221068143844604,0.0,0.0,-0.6917815804481506,0.3562050759792328,-0.2476298063993454,0.0,0.0,0.0,-2.306701421737671,0.33143115043640137,0.7428064942359924,0.4204433560371399,0.5597727298736572,-0.00733920419588685,-0.0055578420870006084,-0.8285950422286987,0.30769121646881104,-0.21036390960216522,-0.19760340452194214,10.146562576293945,-4.429197311401367,3.1235716342926025,0.3274400234222412,0.7509348392486572,0.42481520771980286,0.23523923754692078,-0.32443365454673767,-0.5140098333358765,0.32377493381500244,0.741162121295929,0.42000001668930054,-0.27420350909233093,-0.6955934762954712,-1.2407567501068115,3.000000476837158,-0.21577037870883942,-0.2077891081571579,-0.19694451987743378,-0.18564531207084656,0.5544162392616272,0.4241930842399597,0.23697185516357422,0.061295218765735626
0.6,0.059056613594293594,-0.011883288621902466,0.0,0.7249700427055359,0.0,0.0,-0.6887803673744202,0.4894639551639557,0.01549137569963932,0.0,0.0,0.0,1.3269771337509155,0.3344351053237915,0.7405087351799011,0.41999760270118713,0.5700013041496277,9.734241029946133e-05,-0.0002110143832396716,-0.8216436505317688,0.15864874422550201,-0.1150144562125206,-0.004692647606134415,0.02423454076051712,0.21168656647205353,1.1829643249511719,0.3283444941043854,0.7464883327484131,0.4248470664024353,-0.04085104539990425,-0.1331082284450531,0.12851645052433014,0.32377493381500244,0.741162121295929,0.42000001668930054,-0.31703537702560425,-3.000000476837158,-1.261023998260498,-2.9999639987945557,-0.20938611030578613,-0.20324373245239258,-0.19508987665176392,-0.18631000816822052,0.47108447551727295,0.3285948634147644,0.14296852052211761,-0.029438138008117676
0.6166666666666667,0.06393036246299744,-0.009242161177098751,0.0,0.7175033092498779,0.0,0.0,-0.6965550780296326,0.22896775603294373,0.2105698585510254,0.0,0.0,0.0,-2.1747641563415527,0.3362274765968323,0.7392197847366333,0.4200000464916229,0.574675977230072,-2.0542174183901807e-07,-2.150203748385593e-08,-0.8183810710906982,0.09134121239185333,-0.06507254391908646,-2.849130396498367e-06,0.0002389621367910877,8.756670285947621e-05,0.5666708946228027,0.3282199800014496,0.7468640804290771,0.4274613857269287,0.002746492624282837,0.08049765229225159,0.18573246896266937,0.32377493381500244,0.741162121295929,0.42000001668930054,-0.3670577108860016,-3.000000476837158,-1.3109837770462036,-2.9988934993743896,-0.20004582405090332,-0.19688956439495087,-0.19221611320972443,-0.18657098710536957,0.61690354347229,0.4294024705886841,0.21870288252830505,0.029673989862203598
0.6333333333333333,0.06977388262748718,-0.011464652605354786,0.0,0.7211994528770447,0.0,0.0,-0.6927274465560913,0.3211901783943176,-0.18860888481140137,0.0,0.0,0.0,1.4648723602294922,0.33682936429977417,0.7387529015541077,0.42000219225883484,0.5795361995697021,0.0001326593483099714,-3.5604949516709894e-05,-0.8149463534355164,-0.01935003697872162,-0.013486283831298351,-0.0026242926251143217,0.04698796942830086,0.1011263057589531,3.324537515640259,0.32689476013183594,0.7478139996528625,0.43065863847732544,-0.18257620930671692,0.02929900772869587,0.21731795370578766,0.32377493381500244,0.741162121295929,0.42000001668930054,-0.4170765280723572,-2.9999840259552,-1.360992193222046,-2.999910354614258,-0.18736878037452698,-0.1872790902853012,-0.18597456812858582,-0.18335050344467163,0.6538981795310974,0.5141395926475525,0.35768836736679077,0.21695789694786072
0.65,0.07760950922966003,-0.009303079918026924,0.0,0.7141854763031006,0.0,0.0,-0.699956476688385,0.4979424476623535,0.10975480079650879,0.0,0.0,0.0,-2.079291820526123,0.3360806703567505,0.7384701371192932,0.4200001358985901,0.5935646295547485,-2.174128667320474e-06,-4.866304607276106e-06,-0.8047862648963928,-0.010929305106401443,-0.006352655123919249,-0.00019026109657716006,0.006887467578053474,-0.0002288812247570604,0.4306057393550873,0.3259020745754242,0.7484312057495117,0.43471062183380127,-0.004225887358188629,0.09769273549318314,0.2974317967891693,0.32377493381500244,0.741162121295929,0.42000001668930054,-0.4670872092247009,-3.000016927719116,-1.4109779596328735,-2.9999828338623047,-0.18101122975349426,-0.18225185573101044,-0.1823992133140564,-0.18093162775039673,0.5098345279693604,0.4154804050922394,0.3263446092605591,0.26281440258026123
0.6666666666666666,0.08735711872577667,-0.011058634147047997,0.0,0.688324511051178,0.0,0.0,-0.7254028916358948,0.6275068521499634,-0.18411284685134888,0.0,0.0,0.0,-5.201129913330078,0.3360804617404938,0.7384702563285828,0.4200000464916229,0.593565046787262,-6.500874860648764e-07,-4.332684966357192e-06,-0.8047860264778137,0.00015514224651269615,-0.00020490604219958186,-4.276423715054989e-05,0.001656448352150619,-0.0013026974629610777,-0.0007699494017288089,0.3271700143814087,0.7514463663101196,0.4462988078594208,0.200435608625412,0.22569645941257477,1.212380290031433,0.32377493381500244,0.741162121295929,0.42000001668930054,-0.5171000957489014,-2.999976634979248,-1.460996389389038,-2.9999992847442627,-0.17525379359722137,-0.1774374395608902,-0.17839273810386658,-0.17735084891319275,0.22763670980930328,0.2032032012939453,0.18820786476135254,0.19288697838783264
0.6833333333333333,0.09973007440567017,-0.00891677662730217,0.0,0.6747997999191284,0.0,0.0,-0.7380008101463318,0.7558119893074036,0.12286988645792007,0.0,0.0,0.0,-1.1734931468963623,0.3360804319381714,0.7384701371192932,0.4200000464916229,0.5935649275779724,3.4979976248905587e-07,-3.3754631658666767e-06,-0.8047860264778137,0.00012559702736325562,-0.0002747511607594788,-9.09597147256136e-05,0.006299983244389296,-0.0011832311283797026,-0.0006544450297951698,0.33043500781059265,0.7562698125839233,0.4732380509376526,0.2816060781478882,0.48667681217193604,1.9616209268569946,0.32377493381500244,0.741162121295929,0.42000001668930054,-0.5671031475067139,-2.9999806880950928,-1.511014699935913,-2.999999761581421,-0.17613297700881958,-0.17810757458209991,-0.17872507870197296,-0.17712029814720154,0.061134856194257736,0.027797915041446686,0.007412988692522049,0.003833756549283862
0.7,0.10914783924818039,-0.005408936180174351,0.0,0.6845678687095642,0.0,0.0,-0.7289491295814514,0.4993301331996918,0.3015996813774109,0.0,0.0,0.0,2.464069128036499,0.3360804319381714,0.7384701371192932,0.4200000464916229,0.593565046787262,2.8115474037804233e-07,-3.30210991705826e-06,-0.804785966873169,0.00012431369395926595,-0.0002725945960264653,-9.281467646360397e-05,0.006237460765987635,-0.001249303575605154,-0.0006540434551425278,0.3380892872810364,0.7632225751876831,0.4995124936103821,0.516743540763855,0.36466550827026367,1.2632484436035156,0.32377493381500244,0.741162121295929,0.42000001668930054,-0.5886684060096741,0.15363799035549164,-1.561033010482788,-2.999999523162842,-0.17472882568836212,-0.1769373118877411,-0.1775561422109604,-0.17571496963500977,0.08206360042095184,0.08968200534582138,0.10993723571300507,0.14030355215072632
0.7166666666666667,0.11417794972658157,-0.0059417178854346275,0.0,0.6830002069473267,0.0,0.0,-0.7304182052612305,0.2608642280101776,-0.07359880954027176,0.0,0.0,0.0,-1.125856876373291,0.3360804319381714,0.7384701371192932,0.4200000464916229,0.5935649871826172,2.838173998043203e-07,-3.4083668651874177e-06,-0.8047860264778137,0.00012520256859716028,-0.0002729363623075187,-9.298417717218399e-05,0.00624097092077136,-0.0012397859245538712,-0.000656258431263268,0.34488245844841003,0.7682454586029053,0.5142966508865356,0.285512775182724,0.06157631054520607,0.6609399318695068,0.32377493381500244,0.741162121295929,0.42000001668930054,-0.6153658032417297,-3.000000238418579,-1.5221329927444458,3.000000476837158,-0.16981960833072662,-0.1722109615802765,-0.17287011444568634,-0.17098797857761383,0.1639372855424881,0.1977042704820633,0.23179911077022552,0.25997021794319153
0.7333333333333333,0.12047671526670456,-0.001729130744934082,0.0,0.6929923295974731,0.0,0.0,-0.7209449410438538,0.3445124626159668,0.3056144416332245,0.0,0.0,0.0,2.498856782913208,0.3360804319381714,0.7384701371192932,0.4200000464916229,0.5935649871826172,2.68584898321933e-07,-3.086275455643772e-06,-0.8047860860824585,0.0001264846505364403,-0.0002724803925957531,-9.330781176686287e-05,0.006222440395504236,-0.0012230649590492249,-0.0006588838878087699,0.35115379095077515,0.7691402435302734,0.5266028642654419,0.4717215299606323,0.19636526703834534,0.8334629535675049,0.32377493381500244,0.741162121295929,0.42000001668930054,-0.6372668743133545,0.11810220777988434,-1.537839651107788,-2.999999523162842,-0.1713324338197708,-0.17249910533428192,-0.1720077097415924,-0.16918858885765076,-0.02696615643799305,0.02124658040702343,0.06603214889764786,0.09878210723400116
0.75,0.12347570806741714,-0.0019410555250942707,0.0,0.6910160779953003,0.0,0.0,-0.72283935546875,0.13657748699188232,-0.06557995826005936,0.0,0.0,0.0,-1.2281712293624878,0.3360804319381714,0.7384701371192932,0.4200000464916229,0.5935649275779724,3.203431901965814e-07,-3.19131936521444e-06,-0.8047861456871033,0.00012456199328880757,-0.00027244779630564153,-9.287847205996513e-05,0.006232420448213816,-0.0012458371929824352,-0.0006544547504745424,0.3602360486984253,0.7695835828781128,0.5343004465103149,0.5692391991615295,-0.21836557984352112,0.2645445764064789,0.32377493381500244,0.741162121295929,0.42000001668930054,-0.6674951910972595,-3.0000009536743164,-1.4990062713623047,2.999999523162842,-0.16984133422374725,-0.1702328771352768,-0.16901354491710663,-0.16566675901412964,6.868503987789154e-09,0.08527076989412308,0.16269493103027344,0.223253533244133
0.7666666666666666,0.1273317039012909,0.0006444511818699539,0.0,0.6976233124732971,0.0,0.0,-0.7164647579193115,0.25380939245224,0.1757262498140335,0.0,0.0,0.0,2.3255534172058105,0.3360804319381714,0.7384701371192932,0.4200000464916229,0.5935649871826172,3.186669914612139e-07,-3.1138231406657724e-06,-0.804785966873169,0.00012432811490725726,-0.0002725218946579844,-9.282724931836128e-05,0.006235538516193628,-0.001249026390723884,-0.000654019822832197,0.37200668454170227,0.7663743495941162,0.5415967702865601,0.8658673763275146,-0.09299243986606598,0.6432477831840515,0.32377493381500244,0.741162121295929,0.42000001668930054,-0.6852862238883972,0.5704531669616699,-1.5151846408843994,-3.0,-0.17141908407211304,-0.1702854037284851,-0.16762423515319824,-0.16307856142520905,0.00826778169721365,0.06944578140974045,0.13091124594211578,0.18336355686187744
0.7833333333333333,0.12853774428367615,-5.394386244006455e-05,0.0,0.6947662234306335,0.0,0.0,-0.7192355990409851,0.01783038303256035,-0.09959559887647629,0.0,0.0,0.0,-1.3172287940979004,0.3360804319381714,0.7384701371192932,0.4200000464916229,0.5935648083686829,1.9939497519771976e-07,-3.3368635286024073e-06,-0.804786205291748,0.0001232980575878173,-0.0002735042362473905,-9.256694465875626e-05,0.006265200674533844,-0.0012659922940656543,-0.0006525854696519673,0.38629937171936035,0.7633029222488403,0.5496505498886108,0.8306257724761963,-0.303774893283844,0.46225374937057495,0.32377493381500244,0.741162121295929,0.42000001668930054,-0.7012410163879395,-2.2290029525756836,-1.4764230251312256,3.000000238418579,-0.17145082354545593,-0.16923221945762634,-0.16549812257289886,-0.16005346179008484,-0.026218337938189507,0.04613254591822624,0.11571501195430756,0.17259414494037628
0.8,0.13086779415607452,0.0027555597480386496,0.0,0.7030559182167053,0.0,0.0,-0.7111345529556274,0.17387746274471283,0.1601582169532776,0.0,0.0,0.0,2.1856842041015625,0.3360804319381714,0.7384701371192932,0.4200000464916229,0.5935649275779724,2.9044031180092134e-07,-3.2633222417643992e-06,-0.8047861456871033,0.0001241955760633573,-0.0002726290258578956,-9.278859943151474e-05,0.006239025387912989,-0.0012508721556514502,-0.0006538197631016374,0.40025293827056885,0.7575596570968628,0.5591391324996948,0.9132407307624817,-0.243679940700531,0.6898499727249146,0.32377493381500244,0.741162121295929,0.42000001668930054,-0.7056047320365906,1.394572138786316,-1.4930524826049805,-3.000000476837158,-0.17408493161201477,-0.17037466168403625,-0.1651945561170578,-0.15851876139640808,0.0027090839575976133,0.04950817674398422,0.09865442663431168,0.14144615828990936
0.8166666666666667,0.13114593923091888,0.001618172274902463,0.0,0.6993509531021118,0.0,0.0,-0.7147784233093262,-0.03639090061187744,-0.09649533033370972,0.0,0.0,0.0,-1.4647589921951294,0.3360804319381714,0.7384701371192932,0.4200000464916229,0.5935649871826172,2.886916377065063e-07,-3.185663672411465e-06,-0.804785966873169,0.00012388492177706212,-0.0002726191596593708,-9.271199814975262e-05,0.006240447051823139,-0.00125439977273345,-0.0006531071267090738,0.41291067004203796,0.7548315525054932,0.5685562491416931,0.5757513642311096,-0.17941373586654663,0.5651462078094482,0.32377493381500244,0.741162121295929,0.42000001668930054,-0.6992023587226868,-0.46972280740737915,-1.454353928565979,3.000000476837158,-0.17266924679279327,-0.16860812902450562,-0.1630721390247345,-0.15615758299827576,0.02844912000000477,0.05252908915281296,0.07283718138933182,0.08270958065986633
0.8333333333333334,0.1286458820104599,0.004065350163727999,0.0,0.7062547206878662,0.0,0.0,-0.7079578042030334,-0.19521407783031464,0.17340822517871857,0.0,0.0,0.0,1.8621364831924438,0.3360804319381714,0.7384701371192932,0.4200000464916229,0.5935651063919067,3.214971115994558e-07,-3.107950306002749e-06,-0.8047859072685242,0.00012432789662852883,-0.0002725285303313285,-9.282538667321205e-05,0.006235630251467228,-0.0012490996159613132,-0.0006540270987898111,0.4209940731525421,0.750092625617981,0.5775861144065857,0.452485591173172,-0.21487891674041748,0.5467835068702698,0.32377493381500244,0.741162121295929,0.42000001668930054,-0.6791859865188599,2.5880043506622314,-1.4714244604110718,-2.9999992847442627,-0.17388440668582916,-0.16919073462486267,-0.16309694945812225,-0.15580902993679047,0.04709401726722717,0.05182695388793945,0.055252574384212494,0.05211465433239937
0.85,0.12373117357492447,0.0034021493047475815,0.0,0.7013638019561768,0.0,0.0,-0.7128034830093384,-0.33841994404792786,-0.06627865880727768,0.0,0.0,0.0,-1.66374671459198,0.3360804319381714,0.7384701371192932,0.4200000464916229,0.593565046787262,3.181686452080612e-07,-3.2126629321282962e-06,-0.804785966873169,0.00012466318730730563,-0.0002724194491747767,-9.289919398725033e-05,0.006231233943253756,-0.0012443388113752007,-0.0006546444492414594,0.4228938817977905,0.7500588297843933,0.584564208984375,-0.23888176679611206,0.0766095370054245,0.41498130559921265,0.32377493381500244,0.741162121295929,0.42000001668930054,-0.6409729719161987,2.0165326595306396,-1.432786464691162,3.000000476837158,-0.17129762470722198,-0.16711369156837463,-0.1615651249885559,-0.15491797029972076,0.09340463578701019,0.064871646463871,0.030685728415846825,-0.011961730197072029
0.8666666666666667,0.11664584279060364,0.006078020203858614,0.0,0.7076572179794312,0.0,0.0,-0.7065559029579163,-0.45213332772254944,0.2067079246044159,0.0,0.0,0.0,1.876215934753418,0.3360804319381714,0.7384701371192932,0.4200000464916229,0.593565046787262,3.2377113257098245e-07,-3.136350414933986e-06,-0.804785966873169,0.00012441552826203406,-0.00027252917061559856,-9.283027611672878e-05,0.006235381122678518,-0.0012475264957174659,-0.0006541829789057374,0.41771572828292847,0.7490891218185425,0.5931866765022278,-0.3366048038005829,-0.036475732922554016,0.6522864699363708,0.32377493381500244,0.741162121295929,0.42000001668930054,-0.6000015735626221,2.797037363052368,-1.4502824544906616,-2.999999523162842,-0.17133192718029022,-0.16739943623542786,-0.1621435582637787,-0.15587776899337769,0.05618074908852577,0.02406635507941246,-0.006062227301299572,-0.036335378885269165
