vladlanda/robotic-transformer/data/env_000_episode_0045.csv
sim_time_s,robot_box_x,robot_box_y,robot_box_z,robot_box_quat_w,robot_box_quat_x,robot_box_quat_y,robot_box_quat_z,robot_box_linvel_x,robot_box_linvel_y,robot_box_linvel_z,robot_box_angvel_x,robot_box_angvel_y,robot_box_angvel_z,cube_world_x,cube_world_y,cube_world_z,cube_quat_w,cube_quat_x,cube_quat_y,cube_quat_z,cube_linvel_x,cube_linvel_y,cube_linvel_z,cube_angvel_x,cube_angvel_y,cube_angvel_z,endpoint_world_x,endpoint_world_y,endpoint_world_z,endpoint_linvel_x,endpoint_linvel_y,endpoint_linvel_z,target_cube_world_x,target_cube_world_y,target_cube_world_z,gripper_actual_pos_rad_gp_leftgearjoint,gripper_actual_vel_rad_s_gp_leftgearjoint,gripper_actual_pos_rad_gp_rotatingjoint,gripper_actual_vel_rad_s_gp_rotatingjoint,motor_angle_rad_joint1,motor_angle_rad_joint2,motor_angle_rad_joint3,motor_angle_rad_joint4,motor_speed_rad_s_joint1,motor_speed_rad_s_joint2,motor_speed_rad_s_joint3,motor_speed_rad_s_joint4
0.0,0.0,0.0,0.0,1.0,0.0,0.0,0.0,0.0,0.0,0.0,0.0,0.0,0.0,-0.45009973645210266,0.6253910064697266,0.41999998688697815,1.0,0.0,0.0,0.0,0.0,0.0,0.0,0.0,0.0,0.0,3.42540442943573e-06,-0.005000244826078415,1.313499927520752,0.0,0.0,0.0,0.3271523714065552,0.7138631939888,0.42000001668930054,-1.5707999467849731,0.0,0.0,0.0,0.0,0.0,0.0,0.0,0.0,0.0,0.0,0.0
0.016666666666666666,0.0028778850100934505,0.0021806680597364902,0.0,0.9998081922531128,0.0,0.0,0.019586581736803055,0.24087215960025787,0.18240931630134583,0.0,0.0,0.0,3.1418697834014893,-0.4500998556613922,0.6253907084465027,0.41999998688697815,1.0,3.2799914606584935e-06,-8.339814598912199e-07,8.465387679734704e-08,-1.9833554688375443e-05,0.00017983050202019513,-6.133061833679676e-05,0.0009432226070202887,-0.004689437802881002,-0.0003198152990080416,-0.007110234349966049,0.003379564033821225,1.3159373998641968,-0.8143353462219238,0.9868683815002441,0.18095196783542633,0.3271523714065552,0.7138631939888,0.42000001668930054,-1.5301095247268677,3.0000011920928955,-0.04584788903594017,-2.9999992847442627,0.0008691533003002405,0.0007963840034790337,0.0007110277656465769,0.0006108740926720202,0.11094217747449875,0.09756709635257721,0.08334315568208694,0.06823883205652237
0.03333333333333333,0.00895855575799942,0.0068017845042049885,0.0,0.9997958540916443,0.0,0.0,0.020204687491059303,0.40699851512908936,0.31528952717781067,0.0,0.0,0.0,-0.8692412376403809,-0.45009997487068176,0.6253906488418579,0.4200000464916229,1.0,3.390885240150965e-06,-2.1324319732229924e-06,-3.711133800265998e-08,0.00026357753085903823,0.00026937859365716577,-0.00010509602725505829,-0.0017706351354718208,0.004130707122385502,-0.00013548039714805782,-0.027533244341611862,0.025456136092543602,1.3167088031768799,-1.5902129411697388,1.5778470039367676,-0.07124800235033035,0.3271523714065552,0.7138631939888,0.42000001668930054,-1.4800904989242554,3.000001907348633,-0.09588772058486938,-3.000000238418579,0.0029894050676375628,0.002652144292369485,0.0022768385242670774,0.0018604096258059144,0.16424906253814697,0.1397969126701355,0.11385977268218994,0.08634539693593979
0.05,0.017756789922714233,0.013772555626928806,0.0,0.9993744492530823,0.0,0.0,0.035365622490644455,0.5939507484436035,0.46514004468917847,0.0,0.0,0.0,2.6473276615142822,-0.45010000467300415,0.6253907084465027,0.4200000464916229,1.0,3.7651666389137972e-06,-2.2119106688478496e-06,5.6201381326559385e-09,0.00026530789909884334,0.00026691396487876773,-0.0001044049859046936,-0.0017242879839614034,0.004177392926067114,-0.00012949586380273104,-0.05965070053935051,0.0524359866976738,1.3120641708374023,-2.1874985694885254,1.6955540180206299,-0.44798675179481506,0.3271523714065552,0.7138631939888,0.42000001668930054,-1.4300721883773804,2.999999761581421,-0.145926371216774,-3.000000238418579,0.005714137107133865,0.004922180436551571,0.0040580593049526215,0.003117334796115756,0.19301815330982208,0.1561262160539627,0.11735732853412628,0.07661830633878708
0.06666666666666667,0.02907411754131317,0.023066770285367966,0.0,0.9994469881057739,0.0,0.0,0.033251676708459854,0.720477819442749,0.5952372550964355,0.0,0.0,0.0,-1.2120119333267212,-0.45010000467300415,0.6253906488418579,0.4200000464916229,0.9999999403953552,3.406765927138622e-06,-2.285584969285992e-06,4.3010237504859106e-07,0.0002670253161340952,0.00026791723212227225,-0.00010437797755002975,-0.0017405577236786485,0.004211726598441601,-0.0001285084872506559,-0.0986022874712944,0.08496038615703583,1.3000946044921875,-2.4866151809692383,2.0989580154418945,-0.9599261283874512,0.3271523714065552,0.7138631939888,0.42000001668930054,-1.3800538778305054,2.999997615814209,-0.19595028460025787,-2.999999523162842,0.008371258154511452,0.006910461001098156,0.005338671617209911,0.003650832688435912,0.15859003365039825,0.10918401926755905,0.057744111865758896,0.004168258514255285
0.08333333333333333,0.04267992824316025,0.0347273088991642,0.0,0.9989227652549744,0.0,0.0,0.04640372470021248,0.8711358308792114,0.7429059147834778,0.0,0.0,0.0,2.5356030464172363,-0.45010000467300415,0.6253906488418579,0.4200000464916229,1.0,3.697324700624449e-06,-2.1889497929805657e-06,-2.6323201041122957e-07,0.00026389677077531815,0.0002658632874954492,-0.00010433816350996494,-0.001708115916699171,0.004150166176259518,-0.0001299091090913862,-0.1446743905544281,0.11771093308925629,1.2797194719314575,-2.939432144165039,1.9128223657608032,-1.4527804851531982,0.3271523714065552,0.7138631939888,0.42000001668930054,-1.3300247192382812,3.0000009536743164,-0.18546397984027863,2.999999761581421,0.010178450495004654,0.007926808670163155,0.0055251638405025005,0.002967146225273609,0.10149972140789032,0.04901673272252083,-0.005448675714433193,-0.06194724142551422
0.1,0.05025201663374901,0.04313325509428978,0.0,0.9990615248680115,0.0,0.0,0.04331314563751221,0.31742751598358154,0.40915873646736145,0.0,0.0,0.0,-1.3234766721725464,-0.45010000467300415,0.6253906488418579,0.4200000464916229,0.9999999403953552,3.6204476145940134e-06,-2.2652093321084976e-06,1.746138025282562e-07,0.00026676998822949827,0.0002674069837667048,-0.00010407832451164722,-0.0017385098617523909,0.0042091780342161655,-0.00012775610957760364,-0.18881353735923767,0.1545003354549408,1.2527086734771729,-2.4637911319732666,2.353713035583496,-1.7065637111663818,0.3271523714065552,0.7138631939888,0.42000001668930054,-1.2800203561782837,3.000002145767212,-0.21702852845191956,-3.0000011920928955,0.005338749848306179,0.002430368447676301,-0.0006771981134079397,-0.003994470462203026,-0.41756588220596313,-0.4683041274547577,-0.5214576721191406,-0.5772905945777893
0.11666666666666667,0.06124045327305794,0.05473359301686287,0.0,0.9999561309814453,0.0,0.0,0.009365001693367958,0.7980165481567383,0.807919442653656,0.0,0.0,0.0,-5.008816242218018,-0.45010000467300415,0.6253906488418579,0.4200000464916229,1.0,3.7984607388352742e-06,-2.2627837097388692e-06,-1.502189377333707e-07,0.0002637402794789523,0.000265660259174183,-0.00010428996756672859,-0.001705392962321639,0.004147498402744532,-0.0001297990238526836,-0.22928088903427124,0.19999749958515167,1.2181627750396729,-2.4593396186828613,2.8613967895507812,-2.405268669128418,0.3271523714065552,0.7138631939888,0.42000001668930054,-1.229994535446167,2.999999523162842,-0.19350391626358032,2.9999990463256836,0.0017611610237509012,-0.002371805254369974,-0.006705946754664183,-0.011254709213972092,-0.15006370842456818,-0.2284577339887619,-0.3058028519153595,-0.3822517693042755
0.13333333333333333,0.07116174697875977,0.0657505914568901,0.0,0.9999935626983643,0.0,0.0,-0.003589141648262739,0.5093072056770325,0.6665979027748108,0.0,0.0,0.0,-0.405830055475235,-0.45010000467300415,0.6253907084465027,0.4200000464916229,0.9999999403953552,3.5505347568687284e-06,-2.22979360842146e-06,2.929032234533224e-07,0.00026703241746872663,0.0002677922893781215,-0.00010416889563202858,-0.0017439969815313816,0.004213562235236168,-0.00012800225522369146,-0.27429819107055664,0.24036329984664917,1.180983304977417,-2.623283624649048,2.4281744956970215,-2.242316246032715,0.3271523714065552,0.7138631939888,0.42000001668930054,-1.180001139640808,2.999999523162842,-0.2249717116355896,-2.999999761581421,-0.001047962112352252,-0.00681373942643404,-0.012734577991068363,-0.01882247067987919,-0.20053310692310333,-0.30535298585891724,-0.40665310621261597,-0.5043027400970459
0.15,0.07688101381063461,0.07422549277544022,0.0,0.9996261596679688,0.0,0.0,-0.02734101377427578,0.28226932883262634,0.43940234184265137,0.0,0.0,0.0,-3.650897264480591,-0.45010000467300415,0.6253906488418579,0.4200000464916229,0.9999999403953552,3.3381270441168454e-06,-2.242865321022691e-06,-2.8034685684019678e-08,0.00026674428954720497,0.00026758096646517515,-0.00010427669622004032,-0.001736762817017734,0.004206823650747538,-0.00012831517960876226,-0.3151177167892456,0.28701987862586975,1.1404316425323486,-2.25545072555542,3.0619022846221924,-2.6135783195495605,0.3271523714065552,0.7138631939888,0.42000001668930054,-1.1299808025360107,2.999993085861206,-0.1910414695739746,2.999999761581421,-0.006196269299834967,-0.01371889840811491,-0.02132289670407772,-0.029018990695476532,-0.39211511611938477,-0.4912813603878021,-0.5859023928642273,-0.675940752029419
0.16666666666666666,0.07890728116035461,0.08378671854734421,0.0,0.9970178604125977,0.0,0.0,-0.0771712213754654,0.06159042939543724,0.6282897591590881,0.0,0.0,0.0,-6.800112247467041,-0.45010000467300415,0.6253907084465027,0.4200000464916229,0.9999999403953552,3.6478829770203447e-06,-2.3072709609550657e-06,3.525496694578578e-08,0.0002672694972716272,0.00026801449712365866,-0.0001041849609464407,-0.0017472092295065522,0.0042175669223070145,-0.00012798579700756818,-0.3509170711040497,0.3440086841583252,1.0933420658111572,-1.9226429462432861,3.700925827026367,-3.0410990715026855,0.3271523714065552,0.7138631939888,0.42000001668930054,-1.0799906253814697,2.999999761581421,-0.22256672382354736,-3.000002145767212,-0.015362483449280262,-0.02440691366791725,-0.033446744084358215,-0.04249275475740433,-0.650429904460907,-0.7279424071311951,-0.8004750609397888,-0.8680685758590698
0.18333333333333332,0.07770859450101852,0.09600138664245605,0.0,0.9943205714225769,0.0,0.0,-0.10642644017934799,-0.142761692404747,0.7726307511329651,0.0,0.0,0.0,-2.410297393798828,-0.45010000467300415,0.6253906488418579,0.4200000464916229,0.9999999403953552,3.2905975331232185e-06,-2.1938601548754377e-06,-2.792509121718467e-07,0.00026677976711653173,0.000267760653514415,-0.00010434305295348167,-0.0017391698202118278,0.004207034129649401,-0.00012845548917539418,-0.3866357207298279,0.3989746570587158,1.0356322526931763,-1.9745824337005615,3.32985782623291,-3.8725452423095703,0.3271523714065552,0.7138631939888,0.42000001668930054,-1.033980369567871,2.524641990661621,-0.27259597182273865,-3.0000009536743164,-0.027651285752654076,-0.037412870675325394,-0.047092024236917496,-0.056705690920352936,-0.7989505529403687,-0.8149175643920898,-0.8269352316856384,-0.8355209231376648
0.2,0.08236970752477646,0.10491128265857697,0.0,0.9887250661849976,0.0,0.0,-0.14974211156368256,0.4258396625518799,0.4353886842727661,0.0,0.0,0.0,-6.224267959594727,-0.45010000467300415,0.6253906488418579,0.4200000464916229,1.0,3.2808072774059838e-06,-2.2191500193002867e-06,1.5945313691645424e-07,0.0002662790648173541,0.00026740203611552715,-0.00010425224900245667,-0.0017357355682179332,0.00419772369787097,-0.00012865342432633042,-0.4186146855354309,0.4571245014667511,0.9650833606719971,-1.6520500183105469,3.5860400199890137,-4.562912940979004,0.3271523714065552,0.7138631939888,0.42000001668930054,-0.9843589663505554,2.9999990463256836,-0.3226245939731598,-3.0,-0.037862107157707214,-0.048028867691755295,-0.05804474651813507,-0.06793393939733505,-0.6069045662879944,-0.615644633769989,-0.6214154958724976,-0.6246659755706787
0.21666666666666667,0.08657874166965485,0.10965752601623535,0.0,0.9847639203071594,0.0,0.0,-0.17389646172523499,0.1944705694913864,0.2011038362979889,0.0,0.0,0.0,-1.8019955158233643,-0.45010000467300415,0.6253907084465027,0.4200000464916229,1.0,3.6132007608102867e-06,-2.27001987695985e-06,2.209884542025975e-07,0.00026712543331086636,0.000267817173153162,-0.00010414118878543377,-0.0017445571720600128,0.0042151594534516335,-0.00012786350271198899,-0.4460732638835907,0.5099419355392456,0.8869990110397339,-1.3414289951324463,3.093254804611206,-4.797634124755859,0.3271523714065552,0.7138631939888,0.42000001668930054,-0.9343482851982117,3.000001907348633,-0.3726549446582794,-3.000001907348633,-0.05084270238876343,-0.06050240248441696,-0.0700022503733635,-0.07938146591186523,-0.8464033603668213,-0.8024899959564209,-0.7590987086296082,-0.7171337604522705
0.23333333333333334,0.08439581841230392,0.1182505190372467,0.0,0.9775775074958801,0.0,0.0,-0.2105758786201477,-0.24822892248630524,0.6405253410339355,0.0,0.0,0.0,-5.398835182189941,-0.45010000467300415,0.6253906488418579,0.4200000464916229,1.0,3.3819155760284048e-06,-2.2908357095730025e-06,2.72774286713684e-07,0.0002669130335561931,0.00026779918698593974,-0.00010433373972773552,-0.0017396233743056655,0.004209747537970543,-0.0001284362078877166,-0.4633913040161133,0.556881308555603,0.7998533248901367,-0.5567722916603088,2.5057897567749023,-5.4309797286987305,0.3271523714065552,0.7138631939888,0.42000001668930054,-0.8843376040458679,3.0000016689300537,-0.4226864278316498,-2.9999983310699463,-0.06825953722000122,-0.07769963890314102,-0.08700750768184662,-0.09621518850326538,-0.9968031644821167,-0.9970195293426514,-0.9972397089004517,-0.9974493384361267
0.25,0.08542300015687943,0.1240607351064682,0.0,0.9733900427818298,0.0,0.0,-0.2291545271873474,-0.00368922739289701,0.20828719437122345,0.0,0.0,0.0,-0.8930813670158386,-0.45009997487068176,0.6253906488418579,0.4200000464916229,0.9999999403953552,3.7066249660711037e-06,-2.222870307377889e-06,-2.2553399503522087e-07,0.00026424837415106595,0.0002665679494384676,-0.00010457751341164112,-0.0017169459024444222,0.004155553411692381,-0.00013062948710285127,-0.4746936559677124,0.5890586376190186,0.7082103490829468,-0.426845520734787,1.4760807752609253,-5.668569564819336,0.3271523714065552,0.7138631939888,0.42000001668930054,-0.8343273997306824,2.999995231628418,-0.4727180600166321,-2.999999761581421,-0.08314818888902664,-0.09241125732660294,-0.10152432322502136,-0.11056781560182571,-0.9917057156562805,-0.9931759238243103,-0.9943095445632935,-0.9950854778289795
0.26666666666666666,0.08283907175064087,0.12508516013622284,0.0,0.9666163921356201,0.0,0.0,-0.2562280595302582,-0.1885974109172821,-0.0007687442121095955,0.0,0.0,0.0,-4.122091293334961,-0.45010000467300415,0.6253906488418579,0.4200000464916229,0.9999999403953552,3.719741698660073e-06,-2.40333838519291e-06,-1.8310879568161909e-07,0.00026623293524608016,0.00026729016099125147,-0.00010425737127661705,-0.0017326247179880738,0.004196592606604099,-0.00012851442443206906,-0.476672887802124,0.6076856851577759,0.611577570438385,0.18802008032798767,0.9071831703186035,-5.820827484130859,0.3271523714065552,0.7138631939888,0.42000001668930054,-0.7843185067176819,2.999995470046997,-0.5227483510971069,-2.9999990463256836,-0.09996949881315231,-0.1091294214129448,-0.11818169802427292,-0.12718628346920013,-1.000000238418579,-0.9999832510948181,-0.9999769926071167,-0.9999634623527527
0.2833333333333333,0.07784471660852432,0.12329534441232681,0.0,0.964615523815155,0.0,0.0,-0.2636605501174927,-0.3331615924835205,-0.1512618362903595,0.0,0.0,0.0,0.047776371240615845,-0.45010000467300415,0.6253907084465027,0.4200000464916229,0.9999999403953552,3.5841662793245632e-06,-2.315337951586116e-06,7.401188639732936e-08,0.0002652204711921513,0.00026455201441422105,-0.00010317075066268444,-0.001702053239569068,0.004185079596936703,-0.0001249972265213728,-0.4726182520389557,0.6198421120643616,0.5204017162322998,0.4737544059753418,0.5901257991790771,-5.13063907623291,0.3271523714065552,0.7138631939888,0.42000001668930054,-0.734309732913971,2.9999990463256836,-0.5727778673171997,-3.0000016689300537,-0.11718907207250595,-0.1262340396642685,-0.1352023184299469,-0.14414279162883759,-1.0148887634277344,-1.0112041234970093,-1.008394479751587,-1.006159782409668
0.3,0.07025597244501114,0.11894365400075912,0.0,0.9591209292411804,0.0,0.0,-0.2829965353012085,-0.5083866119384766,-0.3077351748943329,0.0,0.0,0.0,-3.2578392028808594,-0.45010000467300415,0.6253906488418579,0.4200000464916229,1.0,3.724338057509158e-06,-2.2718145373801235e-06,9.632610442622536e-08,0.0002631258394103497,0.00026525926659815013,-0.00010438263416290283,-0.0016961469082161784,0.00413482217118144,-0.00013027766544837505,-0.46023839712142944,0.6266149282455444,0.43364217877388,1.0915231704711914,0.22236868739128113,-5.165374755859375,0.3271523714065552,0.7138631939888,0.42000001668930054,-0.684302568435669,2.9999947547912598,-0.6228055953979492,-3.000002384185791,-0.13443687558174133,-0.1433282196521759,-0.1521783024072647,-0.16102451086044312,-1.0002074241638184,-1.0001368522644043,-1.000088095664978,-1.000049352645874
0.31666666666666665,0.06023138761520386,0.11224106699228287,0.0,0.958540678024292,0.0,0.0,-0.28495582938194275,-0.6385233998298645,-0.44259634613990784,0.0,0.0,0.0,0.6928935647010803,-0.45014703273773193,0.6254814267158508,0.42000633478164673,0.9999943375587463,-0.000128174593555741,0.00023261737078428268,-0.0033576027490198612,-0.055197007954120636,0.09907017648220062,-0.010068402625620365,0.047828108072280884,-0.45312681794166565,-7.710115909576416,-0.4623086452484131,0.6304305791854858,0.42553529143333435,-0.07909708470106125,0.20544712245464325,-0.2164289951324463,0.3271523714065552,0.7138631939888,0.42000001668930054,-0.6342982649803162,2.999972105026245,-0.6732364296913147,-2.999917984008789,-0.14484873414039612,-0.15410453081130981,-0.1623130440711975,-0.16994602978229523,-0.5333464741706848,-0.5459395051002502,-0.5006873607635498,-0.4221610426902771
0.3333333333333333,0.04790079966187477,0.10320985317230225,0.0,0.9536982178688049,0.0,0.0,-0.3007652163505554,-0.7885364890098572,-0.5827921628952026,0.0,0.0,0.0,-2.8653669357299805,-0.4509160816669464,0.6272130012512207,0.4200003147125244,0.9992260932922363,-9.366926860820968e-06,7.453677881130716e-06,-0.03933289647102356,-0.029504330828785896,0.12415943294763565,-0.0003386148309800774,0.017777372151613235,-0.0016026545781642199,-4.4450297355651855,-0.46123427152633667,0.6325594186782837,0.4219485819339752,0.20438367128372192,0.15004844963550568,-0.1980305314064026,0.3271523714065552,0.7138631939888,0.42000001668930054,-0.5842932462692261,2.999979019165039,-0.7233052253723145,-2.9999501705169678,-0.15451715886592865,-0.16323375701904297,-0.17001789808273315,-0.17567676305770874,-0.6022979617118835,-0.526528537273407,-0.404586523771286,-0.2526353895664215
0.35,0.03895261511206627,0.09162470698356628,0.0,0.9539016485214233,0.0,0.0,-0.30011942982673645,-0.4267090857028961,-0.7399734258651733,0.0,0.0,0.0,0.9949564337730408,-0.4501761794090271,0.6319052577018738,0.42009294033050537,0.9950450658798218,0.0009140141191892326,0.0008092705393210053,-0.09941660612821579,0.16833661496639252,0.5687637329101562,0.05668392404913902,0.07033388316631317,0.8552981019020081,-3.437577724456787,-0.46009913086891174,0.6376880407333374,0.4235244393348694,0.11988608539104462,0.5200499296188354,0.01549144834280014,0.3271523714065552,0.7138631939888,0.42000001668930054,-0.534288227558136,2.999976396560669,-0.7733294367790222,-2.9999959468841553,-0.16442148387432098,-0.17121291160583496,-0.17540563642978668,-0.17801958322525024,-0.5371577739715576,-0.40977907180786133,-0.2494291067123413,-0.06511814892292023
0.36666666666666664,0.027530375868082047,0.07836966961622238,0.0,0.9492485523223877,0.0,0.0,-0.3145269453525543,-0.7812566757202148,-0.822760283946991,0.0,0.0,0.0,-2.772221088409424,-0.44515490531921387,0.6444723010063171,0.4200005531311035,0.9911569952964783,-0.0001420056214556098,9.484689508099109e-05,-0.13269412517547607,0.4626852571964264,0.9757264852523804,-0.002928494941443205,0.2901448607444763,-0.3152385354042053,-5.122673988342285,-0.4539174437522888,0.6490833759307861,0.4208586812019348,0.6063037514686584,0.894102931022644,-0.30808019638061523,0.3271523714065552,0.7138631939888,0.42000001668930054,-0.4842836558818817,2.999999761581421,-0.8233534693717957,-2.999950408935547,-0.17617511749267578,-0.17995792627334595,-0.18071188032627106,-0.17957407236099243,-0.7054458260536194,-0.5078675746917725,-0.29024451971054077,-0.05709394812583923
0.3833333333333333,0.019528638571500778,0.06250426173210144,0.0,0.9344557523727417,0.0,0.0,-0.3560793399810791,-0.4535331428050995,-0.9947429895401001,0.0,0.0,0.0,-6.056015491485596,-0.43507084250450134,0.6631920337677002,0.42008844017982483,0.9847119450569153,-0.0021816296502947807,0.0003115119179710746,-0.17417673766613007,0.7812591791152954,1.3180497884750366,0.027961209416389465,-1.3495715856552124,0.44445502758026123,-5.909743785858154,-0.44170278310775757,0.6660060882568359,0.42078620195388794,0.9923925995826721,1.1604926586151123,0.12005387991666794,0.3271523714065552,0.7138631939888,0.42000001668930054,-0.4342755973339081,2.999943494796753,-0.8734147548675537,-2.998063802719116,-0.18439970910549164,-0.18507160246372223,-0.1823294460773468,-0.17734646797180176,-0.48412367701530457,-0.27631422877311707,-0.04861675947904587,0.19795049726963043
0.4,0.01488354243338108,0.04388444498181343,0.0,0.9074640274047852,0.0,0.0,-0.42012977600097656,-0.20660604536533356,-1.1713979244232178,0.0,0.0,0.0,-9.11780071258545,-0.40419384837150574,0.6903829574584961,0.42484864592552185,0.9754783511161804,0.03360786661505699,-0.03722328320145607,-0.21430528163909912,2.9014058113098145,2.343549966812134,0.343803733587265,16.46253204345703,-9.994403839111328,-0.5646382570266724,-0.4106796979904175,0.6942152380943298,0.4250308871269226,2.792353630065918,2.2946743965148926,0.38027524948120117,0.3271523714065552,0.7138631939888,0.42000001668930054,-0.39403849840164185,1.4344638586044312,-0.8367191553115845,2.999601364135742,-0.19454829394817352,-0.1909550577402115,-0.18379011750221252,-0.1742464005947113,-0.6372595429420471,-0.36386844515800476,-0.09109347313642502,0.18066556751728058
0.4166666666666667,0.012315766885876656,0.029948078095912933,0.0,0.864791750907898,0.0,0.0,-0.5021306872367859,-0.1186257153749466,-0.7139872312545776,0.0,0.0,0.0,-11.81633186340332,-0.33251142501831055,0.7357004880905151,0.4306725561618805,0.95516437292099,0.09828106313943863,-0.07966431975364685,-0.2676853537559509,5.887190341949463,2.753274440765381,0.41707101464271545,14.839239120483398,-14.965497970581055,18.584766387939453,-0.3386632800102234,0.7402293682098389,0.43080461025238037,5.48294734954834,3.2775943279266357,0.46294736862182617,0.3271523714065552,0.7138631939888,0.42000001668930054,-0.37768465280532837,0.8001267910003662,-0.7866873145103455,2.996762752532959,-0.21031509339809418,-0.20280933380126953,-0.18988420069217682,-0.1749923676252365,-0.8993017673492432,-0.7908626794815063,-0.45672863721847534,-0.15862628817558289
0.43333333333333335,0.005677277222275734,0.02373006008565426,0.0,0.8275071978569031,0.0,0.0,-0.5614550709724426,-0.5124335885047913,-0.39454224705696106,0.0,0.0,0.0,-7.080596446990967,-0.24103586375713348,0.779697060585022,0.44148215651512146,0.9115203619003296,0.13486813008785248,-0.10381130129098892,-0.3743852972984314,5.772425651550293,1.7764346599578857,0.7972198724746704,16.413604736328125,-4.708310127258301,18.83977699279785,-0.24667231738567352,0.7857811450958252,0.44126594066619873,5.626949310302734,2.392751693725586,0.6973041296005249,0.3271523714065552,0.7138631939888,0.42000001668930054,-0.36326029896736145,0.9431151747703552,-0.8140323758125305,-3.00000262260437,-0.2244253009557724,-0.21726800501346588,-0.20262904465198517,-0.18256649374961853,-0.571946918964386,-0.640775740146637,-0.6896993517875671,-0.45090052485466003
0.45,0.0037575645837932825,0.011081505566835403,0.0,0.8082616925239563,0.0,0.0,-0.5888234376907349,0.045535337179899216,-0.9903239607810974,0.0,0.0,0.0,-2.973684549331665,-0.14071154594421387,0.8120028972625732,0.45213520526885986,0.8382704257965088,0.1451207995414734,-0.13360171020030975,-0.5083238482475281,6.364065647125244,0.6058439612388611,0.7462910413742065,-9.913041114807129,-0.03688165545463562,3.956028938293457,-0.14785225689411163,0.8193989992141724,0.45152750611305237,6.324258327484131,1.5672236680984497,0.6523621082305908,0.3271523714065552,0.7138631939888,0.42000001668930054,-0.34577998518943787,1.0040249824523926,-0.8640567660331726,-2.9999606609344482,-0.22823458909988403,-0.2217838615179062,-0.20772746205329895,-0.1843794286251068,-0.05274353176355362,-0.05770335718989372,-0.06690005958080292,0.1059185042977333
0.4666666666666667,0.0011115678353235126,-0.0003027515485882759,0.0,0.7811553478240967,0.0,0.0,-0.6243366599082947,-0.21811100840568542,-0.5708380341529846,0.0,0.0,0.0,-5.94133996963501,-0.037790313363075256,0.8268006443977356,0.46176373958587646,0.779787003993988,0.14373107254505157,-0.13631610572338104,-0.5938782095909119,6.00179386138916,-0.40282219648361206,0.3691011071205139,-11.807099342346191,-18.94614028930664,31.004127502441406,-0.04376623407006264,0.8370760679244995,0.4613765776157379,6.408651351928711,0.6973610520362854,0.7262731790542603,0.3271523714065552,0.7138631939888,0.42000001668930054,-0.3331235349178314,0.5231590270996094,-0.9140818119049072,-3.0000038146972656,-0.2323247343301773,-0.22531796991825104,-0.21110881865024567,-0.18552905321121216,-0.29970672726631165,-0.2528791129589081,-0.2441963404417038,-0.15748628973960876
0.48333333333333334,-0.00016583928663749248,-0.0066604926250875,0.0,0.767953634262085,0.0,0.0,-0.6405054330825806,-0.014192727394402027,-0.31035783886909485,0.0,0.0,0.0,-1.374489426612854,0.05968501418828964,0.8245664238929749,0.46902644634246826,0.7136750221252441,0.13868066668510437,-0.12846124172210693,-0.6744874119758606,5.275618076324463,-1.5791674852371216,0.14248919486999512,-17.583003997802734,-11.827310562133789,21.887069702148438,0.055260639637708664,0.8367092609405518,0.46847039461135864,5.792287826538086,-0.6227601766586304,0.41284051537513733,0.3271523714065552,0.7138631939888,0.42000001668930054,-0.32609301805496216,0.22685456275939941,-0.9641071557998657,-3.0000009536743164,-0.23862843215465546,-0.23000605404376984,-0.21499690413475037,-0.18804369866847992,-0.3736877739429474,-0.24639904499053955,-0.17655092477798462,-0.1085340604186058
0.5,0.0015561803011223674,-0.00932392105460167,0.0,0.7478320598602295,0.0,0.0,-0.6638879179954529,0.17273765802383423,-0.10582465678453445,0.0,0.0,0.0,-4.600370407104492,0.14367136359214783,0.8109807372093201,0.4678359031677246,0.6846291422843933,0.11612527817487717,-0.12417570501565933,-0.7087863683700562,4.32607364654541,-1.7536288499832153,-0.3060722053050995,-10.764719009399414,-3.9256138801574707,19.469009399414062,0.1412181705236435,0.8229614496231079,0.4682619869709015,4.807033538818359,-1.1345860958099365,-0.14350655674934387,0.3271523714065552,0.7138631939888,0.42000001668930054,-0.32176390290260315,0.29231128096580505,-1.0141315460205078,-3.0000007152557373,-0.2397298961877823,-0.23302611708641052,-0.21724945306777954,-0.1899011880159378,0.045051246881484985,-0.10037290304899216,-0.05995876342058182,-0.06370235979557037
0.5166666666666666,0.0020247444044798613,-0.008591796271502972,0.0,0.7408412098884583,0.0,0.0,-0.671680212020874,-0.029271651059389114,0.08488920331001282,0.0,0.0,0.0,-0.2365778684616089,0.21412651240825653,0.7869925498962402,0.46140554547309875,0.6321700811386108,0.10583838075399399,-0.08895112574100494,-0.762395441532135,3.4040982723236084,-1.9984726905822754,-0.4111599624156952,7.621370315551758,8.786713600158691,9.097493171691895,0.21231794357299805,0.7985358834266663,0.4609457850456238,3.917834758758545,-1.7406566143035889,-0.6185524463653564,0.3271523714065552,0.7138631939888,0.42000001668930054,-0.31314700841903687,0.6244230270385742,-1.064153790473938,-2.9993598461151123,-0.23931193351745605,-0.23427799344062805,-0.2179262787103653,-0.19109280407428741,0.08122412115335464,0.006358131766319275,0.02051219716668129,-0.04747726023197174
0.5333333333333333,0.004347885958850384,-0.012766753323376179,0.0,0.7247305512428284,0.0,0.0,-0.6890323758125305,0.13673269748687744,-0.2842797636985779,0.0,0.0,0.0,-3.629194498062134,0.2737485468387604,0.7616266012191772,0.4426625370979309,0.5629886388778687,-0.027301544323563576,-0.16622570157051086,-0.8091151118278503,3.276430130004883,-1.5541402101516724,-1.299519419670105,-16.573015213012695,1.4318737983703613,-15.871358871459961,0.27027416229248047,0.7741345167160034,0.44782403111457825,3.0598878860473633,-1.4634039402008057,-0.9323514699935913,0.3271523714065552,0.7138631939888,0.42000001668930054,-0.2987336814403534,1.260138988494873,-1.1141759157180786,-2.999999761581421,-0.23212920129299164,-0.22914522886276245,-0.21394085884094238,-0.1896730363368988,0.4376629590988159,0.3351186215877533,0.25035974383354187,0.07046964764595032
0.55,0.0087607866153121,-0.012306253425776958,0.0,0.720537543296814,0.0,0.0,-0.6934159398078918,0.2915264368057251,0.02357829362154007,0.0,0.0,0.0,0.16301371157169342,0.3172266483306885,0.7403249740600586,0.42420268058776855,0.5560699105262756,-0.032685283571481705,-0.03839683532714844,-0.82960444688797,2.1051011085510254,-1.0030640363693237,-0.6634700894355774,45.63140106201172,-12.518752098083496,10.849634170532227,0.3143504858016968,0.7472020387649536,0.4318431615829468,2.1584911346435547,-1.4970111846923828,-0.795876145362854,0.3271523714065552,0.7138631939888,0.42000001668930054,-0.2710791230201721,1.9050524234771729,-1.1641980409622192,-2.9998650550842285,-0.22874833643436432,-0.22648414969444275,-0.21227465569972992,-0.19076527655124664,0.3906683325767517,0.3041425049304962,0.18439798057079315,-0.03381258249282837
0.5666666666666667,0.015266899950802326,-0.015576976351439953,0.0,0.7073091268539429,0.0,0.0,-0.7069043517112732,0.43318793177604675,-0.2547930181026459,0.0,0.0,0.0,-3.089749336242676,0.3421781659126282,0.7300887107849121,0.421009361743927,0.5467331409454346,0.012146285735070705,-0.01862919144332409,-0.8370115160942078,0.8570141196250916,-1.0963135957717896,0.03496561199426651,-8.576339721679688,-9.963855743408203,18.01498794555664,0.33827802538871765,0.7320201396942139,0.42602604627609253,0.8168849945068359,-0.5127217769622803,0.12837985157966614,0.3271523714065552,0.7138631939888,0.42000001668930054,-0.23775780200958252,1.864599585533142,-1.1265068054199219,2.9966728687286377,-0.2205542027950287,-0.21996627748012543,-0.20820093154907227,-0.19063851237297058,0.5053144693374634,0.41278260946273804,0.2601734697818756,0.021448461338877678
0.5833333333333334,0.019603684544563293,-0.015572789125144482,0.0,0.706194281578064,0.0,0.0,-0.7080181241035461,0.21019801497459412,0.0218938197940588,0.0,0.0,0.0,0.6762192845344543,0.35084572434425354,0.716883659362793,0.4209507703781128,0.5861675143241882,-0.007823213934898376,0.0019668571185320616,-0.810149610042572,0.2701677083969116,-0.9704737067222595,-0.20407293736934662,6.142282009124756,6.477601051330566,1.8990429639816284,0.3469514846801758,0.7186377048492432,0.42504751682281494,0.3139179050922394,-0.8308811783790588,-0.22609004378318787,0.3271523714065552,0.7138631939888,0.42000001668930054,-0.24205538630485535,-1.453387975692749,-1.1490803956985474,-3.0000009536743164,-0.21514196693897247,-0.21537157893180847,-0.20569190382957458,-0.19166816771030426,0.3927138149738312,0.3304813802242279,0.1836615353822708,-0.04421674460172653
0.6,0.02480733022093773,-0.01289953663945198,0.0,0.6952817440032959,0.0,0.0,-0.7187373042106628,0.33609539270401,0.1933707743883133,0.0,0.0,0.0,-2.7251532077789307,0.3530113101005554,0.7076429128646851,0.42000052332878113,0.5994346737861633,1.6852546877998975e-06,3.251950693083927e-05,-0.8004236817359924,0.0505811832845211,-0.6680417060852051,-0.0011279652826488018,-0.03585369884967804,-0.04796062409877777,4.521938800811768,0.35031455755233765,0.7120282649993896,0.4216488003730774,0.28016385436058044,-0.07284995168447495,0.14491240680217743,0.3271523714065552,0.7138631939888,0.42000001668930054,-0.25440916419029236,-0.10874514281749725,-1.1990759372711182,-2.999079465866089,-0.2068375051021576,-0.20878680050373077,-0.2021714299917221,-0.19228726625442505,0.5694360136985779,0.4534740447998047,0.2579002380371094,0.00901129748672247
0.6166666666666667,0.03215693309903145,-0.015086011029779911,0.0,0.6960817575454712,0.0,0.0,-0.7179625630378723,0.42546361684799194,-0.1436140537261963,0.0,0.0,0.0,1.0076191425323486,0.35359594225883484,0.7065731287002563,0.4211190938949585,0.6151838898658752,-0.01710013672709465,0.01870197430253029,-0.7879761457443237,-0.18162862956523895,-0.10488113760948181,-0.023765528574585915,-1.1133487224578857,-2.4904325008392334,3.040125846862793,0.34897416830062866,0.7107335329055786,0.42421263456344604,-0.3240986764431,-0.08290118724107742,0.17230920493602753,0.3271523714065552,0.7138631939888,0.42000001668930054,-0.29532185196876526,-3.0000014305114746,-1.2490668296813965,-2.999161720275879,-0.1941213458776474,-0.19816626608371735,-0.19501252472400665,-0.18937449157238007,0.6139003038406372,0.5399370789527893,0.37886103987693787,0.17031395435333252
0.6333333333333333,0.04187048226594925,-0.0128879863768816,0.0,0.7160841226577759,0.0,0.0,-0.6980140209197998,0.6197341680526733,0.12303649634122849,0.0,0.0,0.0,4.356314182281494,0.34974002838134766,0.7050414681434631,0.42000576853752136,0.6333708167076111,-0.0001039198468788527,5.473232886288315e-05,-0.7738483548164368,-0.19583146274089813,-0.07235796004533768,-0.005576987285166979,-0.032147057354450226,-0.2491946518421173,2.276510000228882,0.3442704379558563,0.7094449996948242,0.42694520950317383,-0.1754949390888214,0.07068361341953278,0.17998573184013367,0.3271523714065552,0.7138631939888,0.42000001668930054,-0.3453797996044159,-2.999877691268921,-1.2990319728851318,-2.998682737350464,-0.1873091161251068,-0.19194863736629486,-0.19081740081310272,-0.18791845440864563,0.5164937376976013,0.4570332467556,0.3182761073112488,0.14671729505062103
0.65,0.04894780367612839,-0.014201167039573193,0.0,0.7234766483306885,0.0,0.0,-0.6903488636016846,0.34296369552612305,-0.12949834764003754,0.0,0.0,0.0,0.22780893743038177,0.3474610149860382,0.7041618227958679,0.4200000464916229,0.6456134915351868,4.2737610783660784e-07,1.0940327683783835e-06,-0.7636642456054688,-0.11689038574695587,-0.046712782233953476,-4.153756890445948e-06,-6.267621938604861e-05,-0.0002231167018180713,1.8168721199035645,0.34269189834594727,0.7113246917724609,0.43052661418914795,-0.10994294285774231,0.10653118044137955,0.22936156392097473,0.3271523714065552,0.7138631939888,0.42000001668930054,-0.3954441249370575,-2.99836802482605,-1.3489991426467896,-3.0000147819519043,-0.17957769334316254,-0.18459314107894897,-0.1850758194923401,-0.1842481642961502,0.3927615284919739,0.40530550479888916,0.34683364629745483,0.2640257179737091
0.6666666666666666,0.056135110557079315,-0.019281800836324692,0.0,0.7110161185264587,0.0,0.0,-0.7031757235527039,0.4765200912952423,-0.38181445002555847,0.0,0.0,0.0,-2.973433494567871,0.34642714262008667,0.703692615032196,0.42000001668930054,0.6536638140678406,6.110011554483208e-07,1.0310349125575158e-06,-0.7567850351333618,-0.04248996824026108,-0.02184714749455452,-1.7446043784730136e-05,-0.0007796569261699915,-0.00012026727199554443,1.0961092710494995,0.3414495885372162,0.7138620018959045,0.4360830783843994,-0.05463429167866707,0.1395898312330246,0.5505406856536865,0.3271523714065552,0.7138631939888,0.42000001668930054,-0.4454580247402191,-2.999999523162842,-1.399017333984375,-2.9999990463256836,-0.17483600974082947,-0.17907005548477173,-0.1797819435596466,-0.1794436275959015,0.22324159741401672,0.2977904677391052,0.31993773579597473,0.3330009877681732
0.6833333333333333,0.0667191818356514,-0.01957215927541256,0.0,0.6777728199958801,0.0,0.0,-0.7352713346481323,0.6184189319610596,-0.02860696241259575,0.0,0.0,0.0,-6.332315921783447,0.3463301360607147,0.7036205530166626,0.4200001358985901,0.655254065990448,1.340803373750532e-05,-3.5191746974305715e-06,-0.7554084658622742,0.001016762456856668,0.0004530323203653097,-0.0004864853108301759,-0.0019487066892907023,0.007241487968713045,-0.0026029455475509167,0.3457690179347992,0.7131566405296326,0.4531521201133728,0.723697304725647,-0.08012384176254272,1.5753109455108643,0.3271523714065552,0.7138631939888,0.42000001668930054,-0.4954710900783539,-2.999998092651367,-1.44903564453125,-3.000000238418579,-0.17884418368339539,-0.18050679564476013,-0.17947427928447723,-0.17756609618663788,-0.1890949010848999,-0.0528053380548954,0.043832264840602875,0.1381029486656189
0.7,0.07852713018655777,-0.017067784443497658,0.0,0.65826815366745,0.0,0.0,-0.752783477306366,0.7668176293373108,0.14542847871780396,0.0,0.0,0.0,-2.0601577758789062,0.34633129835128784,0.7036218047142029,0.41999998688697815,0.6552528738975525,-1.050792342027762e-08,-5.634782155539142e-06,-0.7554094791412354,0.0002432659239275381,-0.00040646514389663935,-9.147939272224903e-05,0.008611660450696945,-0.0005579058779403567,-0.00047109255683608353,0.35793572664260864,0.7159258127212524,0.4826647639274597,0.7916926145553589,0.37313058972358704,1.952641248703003,0.3271523714065552,0.7138631939888,0.42000001668930054,-0.5200580954551697,-0.1733538955450058,-1.499053955078125,-2.999999761581421,-0.1821138709783554,-0.18224963545799255,-0.18028195202350616,-0.17743851244449615,-0.05719035863876343,-0.03450213745236397,-0.04128391295671463,-0.043092139065265656
0.7166666666666667,0.0880018100142479,-0.012839378789067268,0.0,0.6631722450256348,0.0,0.0,-0.7484668493270874,0.49234533309936523,0.298631876707077,0.0,0.0,0.0,1.6822291612625122,0.34633132815361023,0.7036218047142029,0.41999998688697815,0.6552531123161316,-7.647300037660898e-08,-5.911957487114705e-06,-0.7554094195365906,0.00024320594093296677,-0.0004069408751092851,-9.170104749500751e-05,0.008609396405518055,-0.0005452506593428552,-0.0004695258685387671,0.37128961086273193,0.7225859761238098,0.5076484680175781,0.7308461666107178,0.4309035539627075,1.1334221363067627,0.3271523714065552,0.7138631939888,0.42000001668930054,-0.5049428939819336,1.8008959293365479,-1.4603267908096313,2.999999761581421,-0.18200811743736267,-0.1818798929452896,-0.18007588386535645,-0.17730796337127686,0.08561917394399643,0.09236043691635132,0.0753321722149849,0.06259199231863022
0.7333333333333333,0.09249543398618698,-0.014354052022099495,0.0,0.6564646363258362,0.0,0.0,-0.7543568015098572,0.2936190366744995,-0.07059010863304138,0.0,0.0,0.0,-1.759460687637329,0.34633129835128784,0.7036218047142029,0.41999998688697815,0.6552531719207764,-4.3975713737154365e-08,-5.918790520809125e-06,-0.755409300327301,0.0002420218224870041,-0.0004068829002790153,-9.169778786599636e-05,0.008603728376328945,-0.0005567059270106256,-0.00046663949615322053,0.37846270203590393,0.7305422425270081,0.5208873152732849,0.04360242187976837,0.21918293833732605,0.5573794841766357,0.3271523714065552,0.7138631939888,0.42000001668930054,-0.5004435777664185,-1.0185617208480835,-1.4102741479873657,3.0,-0.1745641678571701,-0.17520838975906372,-0.17450952529907227,-0.17274008691310883,0.15234093368053436,0.17997609078884125,0.18255701661109924,0.181248277425766
0.75,0.09452305734157562,-0.011079201474785805,0.0,0.6625445485115051,0.0,0.0,-0.7490225434303284,0.0699363574385643,0.24831432104110718,0.0,0.0,0.0,1.7704370021820068,0.34633129835128784,0.7036218047142029,0.41999998688697815,0.6552532315254211,-4.562342681424525e-08,-6.041098913556198e-06,-0.7554091811180115,0.00024229846894741058,-0.00040679704397916794,-9.166798554360867e-05,0.008603454567492008,-0.0005532123614102602,-0.0004673365911003202,0.37912243604660034,0.733273983001709,0.5259062051773071,0.051007065922021866,0.22364330291748047,0.08418332040309906,0.3271523714065552,0.7138631939888,0.42000001668930054,-0.5025354027748108,0.6266913414001465,-1.4281877279281616,-3.000000238418579,-0.17478328943252563,-0.17444509267807007,-0.17319275438785553,-0.17101404070854187,0.048428673297166824,0.08864918351173401,0.10606703162193298,0.11518791317939758
0.7666666666666666,0.09822641313076019,-0.011169769801199436,0.0,0.6573321223258972,0.0,0.0,-0.7536010146141052,0.20291343331336975,0.02240661159157753,0.0,0.0,0.0,-1.491999626159668,0.34633129835128784,0.7036218047142029,0.41999998688697815,0.6552532911300659,-3.0871464673509763e-07,-5.663601314154221e-06,-0.7554091215133667,0.00024066315381787717,-0.00040671121678315103,-9.164214134216309e-05,0.008595867082476616,-0.0005688619567081332,-0.00046339715481735766,0.3764629662036896,0.73618483543396,0.5206201672554016,-0.42875492572784424,0.04569068178534508,-0.5314126014709473,0.3271523714065552,0.7138631939888,0.42000001668930054,-0.5198099613189697,-2.4226553440093994,-1.389662742614746,3.0,-0.17192351818084717,-0.1713026463985443,-0.17009860277175903,-0.16809390485286713,0.013355826027691364,0.06355983018875122,0.09298825263977051,0.11047614365816116
0.7833333333333333,0.10371734946966171,-0.009214970283210278,0.0,0.6656337976455688,0.0,0.0,-0.7462785243988037,0.3298802375793457,0.055931732058525085,0.0,0.0,0.0,2.1789119243621826,0.34633129835128784,0.7036218047142029,0.41999998688697815,0.6552532315254211,-5.392872992615594e-08,-5.947878435108578e-06,-0.7554091811180115,0.00024190390831790864,-0.00040657538920640945,-9.163469076156616e-05,0.008597004227340221,-0.0005552837974391878,-0.00046640890650451183,0.3716999888420105,0.7355673313140869,0.5141221284866333,-0.11413373053073883,0.042756445705890656,-0.2281256914138794,0.3271523714065552,0.7138631939888,0.42000001668930054,-0.5678603649139404,-2.9999985694885254,-1.4079927206039429,-2.99999737739563,-0.17410317063331604,-0.17208977043628693,-0.1697302758693695,-0.1667136400938034,0.03660702705383301,0.08283153176307678,0.12644919753074646,0.17144745588302612
0.8,0.11039542406797409,-0.010860319249331951,0.0,0.6618837118148804,0.0,0.0,-0.7496065497398376,0.43189340829849243,-0.16616714000701904,0.0,0.0,0.0,-1.5219714641571045,0.34633129835128784,0.7036218047142029,0.41999998688697815,0.6552533507347107,-4.724757829421833e-08,-6.073000804462936e-06,-0.7554091811180115,0.00024240699713118374,-0.0004068681155331433,-9.167962707579136e-05,0.008605459704995155,-0.0005525529268197715,-0.000467575213406235,0.37384262681007385,0.7343429327011108,0.5068504214286804,0.3440297245979309,-0.1672794371843338,-0.43863803148269653,0.3271523714065552,0.7138631939888,0.42000001668930054,-0.6178697347640991,-2.9999961853027344,-1.4580110311508179,-2.999999523162842,-0.17528098821640015,-0.17206653952598572,-0.16842412948608398,-0.16402705013751984,-0.07167784124612808,0.011976433917880058,0.10575125366449356,0.2085757553577423
0.8166666666666667,0.1192270964384079,-0.01647316850721836,0.0,0.6380556225776672,0.0,0.0,-0.7699902653694153,0.5745079517364502,-0.40552327036857605,0.0,0.0,0.0,-4.638067722320557,0.34633129835128784,0.7036218047142029,0.41999998688697815,0.6552531123161316,-5.661744140184055e-08,-6.006574039929546e-06,-0.7554093599319458,0.0002421099052298814,-0.0004067082772962749,-9.165098890662193e-05,0.00860067643225193,-0.0005541009013541043,-0.00046687439316883683,0.3818308115005493,0.7303459644317627,0.5053595304489136,0.6293944120407104,-0.27861469984054565,0.3851564824581146,0.3271523714065552,0.7138631939888,0.42000001668930054,-0.6678798198699951,-2.999976396560669,-1.5080293416976929,-2.999999523162842,-0.17797043919563293,-0.17327573895454407,-0.16794486343860626,-0.161697119474411,-0.18051211535930634,-0.096177838742733,0.0021428794134408236,0.1106337383389473
0.8333333333333334,0.13109369575977325,-0.018022218719124794,0.0,0.6275069713592529,0.0,0.0,-0.7786109447479248,0.7176428437232971,-0.08290834724903107,0.0,0.0,0.0,-0.5667359828948975,0.34633129835128784,0.7036218047142029,0.41999998688697815,0.6552531719207764,-5.8345687392602485e-08,-5.951234925305471e-06,-0.7554092407226562,0.00024262764782179147,-0.0004070280119776726,-9.170034900307655e-05,0.008609799668192863,-0.000551388249732554,-0.00046807085163891315,0.38983988761901855,0.7304913997650146,0.5165079236030579,0.42988985776901245,0.34495609998703003,0.887100100517273,0.3271523714065552,0.7138631939888,0.42000001668930054,-0.6843704581260681,0.713715136051178,-1.5580476522445679,-3.000000238418579,-0.1829351782798767,-0.17723514139652252,-0.17076744139194489,-0.16331882774829865,-0.08887401968240738,-0.11659421026706696,-0.13485416769981384,-0.1464499533176422
0.85,0.13981300592422485,-0.017437202855944633,0.0,0.6410704851150513,0.0,0.0,-0.7674819827079773,0.45491117238998413,0.08065482974052429,0.0,0.0,0.0,2.9432437419891357,0.34633129835128784,0.7036218047142029,0.41999998688697815,0.6552532911300659,-5.315672169103891e-08,-6.075623332435498e-06,-0.7554092407226562,0.00024241195933427662,-0.0004068801936227828,-9.168172255158424e-05,0.008605686947703362,-0.0005526228342205286,-0.0004675927630160004,0.39771562814712524,0.7367364168167114,0.525987982749939,0.4328297972679138,0.39102044701576233,0.29906895756721497,0.3271523714065552,0.7138631939888,0.42000001668930054,-0.653080940246582,2.8298423290252686,-1.5191516876220703,3.000000476837158,-0.18299166858196259,-0.17801718413829803,-0.17211921513080597,-0.16513897478580475,0.058127280324697495,0.007694076746702194,-0.03567961975932121,-0.07545218616724014
0.8666666666666667,0.1438688039779663,-0.02116364985704422,0.0,0.6420401930809021,0.0,0.0,-0.7666710019111633,0.20847965776920319,-0.23679937422275543,0.0,0.0,0.0,-0.7918416857719421,0.34633129835128784,0.7036218047142029,0.41999998688697815,0.6552532315254211,-6.361837989743435e-08,-6.074209522921592e-06,-0.7554092407226562,0.0002412067842669785,-0.0004061164509039372,-9.156670421361923e-05,0.008584462106227875,-0.0005593886598944664,-0.00046484768972732127,0.39938920736312866,0.7417200803756714,0.5265753269195557,-0.2304953932762146,0.07818372547626495,-0.08980167657136917,0.3271523714065552,0.7138631939888,0.42000001668930054,-0.6389261484146118,-0.8244260549545288,-1.4690958261489868,2.999999761581421,-0.1789029985666275,-0.17511704564094543,-0.1703030914068222,-0.1643533706665039,0.08183498680591583,0.055075161159038544,0.028790201991796494,-1.4668330550193787e-07
0.8833333333333333,0.14508794248104095,-0.020073387771844864,0.0,0.6535349488258362,0.0,0.0,-0.7568963170051575,0.03790900856256485,0.09831123799085617,0.0,0.0,0.0,2.567465305328369,0.34633129835128784,0.7036218047142029,0.41999998688697815,0.6552531719207764,-5.524010049384742e-08,-5.885672180738766e-06,-0.755409300327301,0.00024170594406314194,-0.00040663659456185997,-9.164540097117424e-05,0.008597389794886112,-0.0005571750807575881,-0.000465880410047248,0.3984275460243225,0.7421916723251343,0.5237241983413696,0.1167374849319458,0.10916904360055923,-0.23665641248226166,0.3271523714065552,0.7138631939888,0.42000001668930054,-0.6340876221656799,1.2231842279434204,-1.4858742952346802,-3.000000238418579,-0.1811891496181488,-0.17709699273109436,-0.17197690904140472,-0.16579578816890717,-0.05677946284413338,-0.05718132108449936,-0.053249992430210114,-0.04926837608218193
