vladlanda/robotic-transformer/data/env_000_episode_0105.csv
sim_time_s,robot_box_x,robot_box_y,robot_box_z,robot_box_quat_w,robot_box_quat_x,robot_box_quat_y,robot_box_quat_z,robot_box_linvel_x,robot_box_linvel_y,robot_box_linvel_z,robot_box_angvel_x,robot_box_angvel_y,robot_box_angvel_z,cube_world_x,cube_world_y,cube_world_z,cube_quat_w,cube_quat_x,cube_quat_y,cube_quat_z,cube_linvel_x,cube_linvel_y,cube_linvel_z,cube_angvel_x,cube_angvel_y,cube_angvel_z,endpoint_world_x,endpoint_world_y,endpoint_world_z,endpoint_linvel_x,endpoint_linvel_y,endpoint_linvel_z,target_cube_world_x,target_cube_world_y,target_cube_world_z,gripper_actual_pos_rad_gp_leftgearjoint,gripper_actual_vel_rad_s_gp_leftgearjoint,gripper_actual_pos_rad_gp_rotatingjoint,gripper_actual_vel_rad_s_gp_rotatingjoint,motor_angle_rad_joint1,motor_angle_rad_joint2,motor_angle_rad_joint3,motor_angle_rad_joint4,motor_speed_rad_s_joint1,motor_speed_rad_s_joint2,motor_speed_rad_s_joint3,motor_speed_rad_s_joint4
0.0,0.0,0.0,0.0,1.0,0.0,0.0,0.0,0.0,0.0,0.0,0.0,0.0,0.0,-0.39739614725112915,0.6858927011489868,0.41999998688697815,1.0,0.0,0.0,0.0,0.0,0.0,0.0,0.0,0.0,0.0,3.42540442943573e-06,-0.005000244826078415,1.313499927520752,0.0,0.0,0.0,0.3990544378757477,0.6474053263664246,0.42000001668930054,-1.5707999467849731,0.0,0.0,0.0,0.0,0.0,0.0,0.0,0.0,0.0,0.0,0.0
0.016666666666666666,0.0028778850100934505,0.0021806680597364902,0.0,0.9998081922531128,0.0,0.0,0.019586581736803055,0.24087215960025787,0.18240931630134583,0.0,0.0,0.0,3.1418697834014893,-0.3973962664604187,0.6858924031257629,0.41999998688697815,1.0,3.279964630564791e-06,-8.339746386809566e-07,8.465587342243452e-08,-1.9833529222523794e-05,0.00017983045836444944,-6.132945418357849e-05,0.0009432713268324733,-0.004689474124461412,-0.00031981561915017664,-0.007110234349966049,0.003379564033821225,1.3159373998641968,-0.8143353462219238,0.9868683815002441,0.18095196783542633,0.3990544378757477,0.6474053263664246,0.42000001668930054,-1.5301095247268677,3.0000011920928955,-0.04584788903594017,-2.9999992847442627,0.0008691533003002405,0.0007963840034790337,0.0007110277656465769,0.0006108740926720202,0.11094217747449875,0.09756709635257721,0.08334315568208694,0.06823883205652237
0.03333333333333333,0.00896097905933857,0.006801950745284557,0.0,0.9997960329055786,0.0,0.0,0.020196838304400444,0.40702155232429504,0.31530851125717163,0.0,0.0,0.0,-0.869130551815033,-0.39739638566970825,0.6858923435211182,0.4200000464916229,1.0,3.3908354453160428e-06,-2.1324485715012997e-06,-3.710144014235084e-08,0.00026357831666246057,0.00026937946677207947,-0.00010509486310184002,-0.0017707672668620944,0.004130808170884848,-0.000135478752781637,-0.02755098044872284,0.02611694112420082,1.3166087865829468,-1.5914796590805054,1.615704894065857,-0.08346645534038544,0.3990544378757477,0.6474053263664246,0.42000001668930054,-1.4800904989242554,3.0000011920928955,-0.0958876982331276,-2.999999523162842,0.002990130567923188,0.0026527505833655596,0.002277328632771969,0.0018607917008921504,0.16421949863433838,0.13976383209228516,0.11382332444190979,0.08630608767271042
0.05,0.01835571974515915,0.013783699832856655,0.0,0.9999975562095642,0.0,0.0,-0.0022009036038070917,0.6345750689506531,0.4669935405254364,0.0,0.0,0.0,-3.922902822494507,-0.39739641547203064,0.6858924031257629,0.4200000464916229,1.0,3.765139354072744e-06,-2.2119161258160602e-06,5.630195420991413e-09,0.0002653095289133489,0.00026691411039792,-0.00010440382175147533,-0.0017242460744455457,0.004177400842308998,-0.00012949357915204018,-0.05750768631696701,0.05660852789878845,1.3119755983352661,-1.9619519710540771,2.0075697898864746,-0.4470493793487549,0.3990544378757477,0.6474053263664246,0.42000001668930054,-1.4300721883773804,3.0000009536743164,-0.14592638611793518,-3.0,0.005967064294964075,0.005133325699716806,0.004227173514664173,0.00324437883682549,0.2074202448129654,0.16702784597873688,0.12472563982009888,0.08043179661035538
0.06666666666666667,0.03056921996176243,0.02317647635936737,0.0,0.9999541640281677,0.0,0.0,-0.00957520492374897,0.7672393321990967,0.6103870272636414,0.0,0.0,0.0,0.0851990282535553,-0.39739641547203064,0.6858923435211182,0.4200000464916229,0.9999999403953552,3.4067325032083318e-06,-2.285616346853203e-06,4.301086846680846e-07,0.0002670263056643307,0.0002679172612261027,-0.00010437914170324802,-0.0017406872939318419,0.004211808554828167,-0.0001285045873373747,-0.09502396732568741,0.08875532448291779,1.3012809753417969,-2.387960433959961,2.037898063659668,-0.8255569934844971,0.3990544378757477,0.6474053263664246,0.42000001668930054,-1.3800439834594727,3.000002384185791,-0.1356155276298523,2.9999992847442627,0.008650374598801136,0.007099019829183817,0.00543485302478075,0.003654551925137639,0.14826937019824982,0.09745632857084274,0.044526319950819016,-0.010633827187120914
0.08333333333333333,0.036539215594530106,0.03635125979781151,0.0,0.9994732737541199,0.0,0.0,-0.03245219215750694,0.22247454524040222,0.8653731942176819,0.0,0.0,0.0,-3.685903549194336,-0.39739641547203064,0.6858923435211182,0.4200000464916229,1.0,3.6972751331632026e-06,-2.188954113080399e-06,-2.6322550183977e-07,0.0002638972655404359,0.00026586506282910705,-0.00010434049181640148,-0.0017082244157791138,0.004150220658630133,-0.00012991207768209279,-0.12926343083381653,0.1270586997270584,1.2853350639343262,-1.7606801986694336,2.5554771423339844,-1.001796007156372,0.3990544378757477,0.6474053263664246,0.42000001668930054,-1.3300364017486572,3.000000476837158,-0.16750554740428925,-3.0000016689300537,0.004883816000074148,0.00258855102583766,0.0001271049550268799,-0.002508377656340599,-0.3527818024158478,-0.41283220052719116,-0.4756297469139099,-0.5414518117904663
0.1,0.04640685021877289,0.051121197640895844,0.0,0.9966736435890198,0.0,0.0,-0.0814962238073349,0.7364528775215149,0.8953022360801697,0.0,0.0,0.0,-6.850250244140625,-0.39739641547203064,0.6858923435211182,0.4200000464916229,0.9999999403953552,3.620343704824336e-06,-2.265245484522893e-06,1.7462637913467915e-07,0.00026676931884139776,0.000267408206127584,-0.00010407879017293453,-0.001738669816404581,0.004209199454635382,-0.00012775094364769757,-0.16097083687782288,0.1718991994857788,1.2675323486328125,-2.015568733215332,2.8505773544311523,-1.1909483671188354,0.3990544378757477,0.6474053263664246,0.42000001668930054,-1.280022144317627,3.000000476837158,-0.1787603348493576,1.290332317352295,0.003612603060901165,-0.0002148386847693473,-0.0042107803747057915,-0.00838508177548647,0.015222280286252499,-0.08373793959617615,-0.18174134194850922,-0.2787501811981201
0.11666666666666667,0.05487743392586708,0.06305120140314102,0.0,0.9936752319335938,0.0,0.0,-0.11229230463504791,0.5287102460861206,0.6793357729911804,0.0,0.0,0.0,-2.4700794219970703,-0.39739641547203064,0.6858923435211182,0.4200000464916229,1.0,3.798347734118579e-06,-2.2628460101259407e-06,-1.5019826093976008e-07,0.0002637401921674609,0.00026566156884655356,-0.00010429113171994686,-0.0017054638592526317,0.004147501662373543,-0.00012979934399481863,-0.19740653038024902,0.21629248559474945,1.2460719347000122,-2.1129274368286133,2.8634252548217773,-1.2972300052642822,0.3990544378757477,0.6474053263664246,0.42000001668930054,-1.230026364326477,2.999999523162842,-0.21936897933483124,-3.0,0.00163631746545434,-0.0038064499385654926,-0.009392762556672096,-0.015132429078221321,-0.03912855312228203,-0.15684807300567627,-0.27142173051834106,-0.38269123435020447
0.13333333333333333,0.061125949025154114,0.07217775285243988,0.0,0.9882326126098633,0.0,0.0,-0.152958482503891,0.327114462852478,0.472121924161911,0.0,0.0,0.0,-5.7090044021606445,-0.39739641547203064,0.6858924031257629,0.4200000464916229,0.9999999403953552,3.550474502844736e-06,-2.229893652838655e-06,2.9291419423316256e-07,0.0002670332323759794,0.0002677943557500839,-0.00010417005978524685,-0.0017440859228372574,0.004213657695800066,-0.00012800388503819704,-0.2305862009525299,0.2696266174316406,1.2209864854812622,-1.8210251331329346,3.5771923065185547,-1.684164047241211,0.3990544378757477,0.6474053263664246,0.42000001668930054,-1.1800113916397095,2.999995231628418,-0.18547116219997406,2.9999990463256836,-0.0003969274112023413,-0.0077415090054273605,-0.015166761353611946,-0.02268053963780403,-0.1662759780883789,-0.2758026421070099,-0.3812069594860077,-0.482365220785141
0.15,0.06349100172519684,0.08177433162927628,0.0,0.9849172234535217,0.0,0.0,-0.17302629351615906,0.0622422955930233,0.6105589866638184,0.0,0.0,0.0,-1.2494175434112549,-0.39739638566970825,0.6858923435211182,0.4200000464916229,1.0,3.332175083414768e-06,-2.1020707663410576e-06,1.3131682408129564e-07,0.0002673084964044392,0.00026859689387492836,-0.00010459520854055882,-0.0017496650107204914,0.0042156632989645,-0.00012928851356264204,-0.26716792583465576,0.3241046369075775,1.1876307725906372,-2.2186131477355957,3.315959930419922,-2.319411277770996,0.3990544378757477,0.6474053263664246,0.42000001668930054,-1.1447652578353882,1.346084475517273,-0.21699678897857666,-2.999999523162842,-0.004640857223421335,-0.013499666936695576,-0.02236028015613556,-0.031229572370648384,-0.32328829169273376,-0.39380303025245667,-0.45975446701049805,-0.5211836695671082
0.16666666666666666,0.06890523433685303,0.09050056338310242,0.0,0.9788467288017273,0.0,0.0,-0.20459496974945068,0.37260735034942627,0.4854786694049835,0.0,0.0,0.0,-4.573670864105225,-0.39739641547203064,0.6858923435211182,0.4200000464916229,1.0,3.737257202374167e-06,-2.2331987565848976e-06,-1.8764458786790783e-07,0.00026433030143380165,0.000266268034465611,-0.00010445783846080303,-0.0017118732212111354,0.004157560411840677,-0.00013001071056351066,-0.3029480278491974,0.3849884271621704,1.1424682140350342,-1.9990421533584595,3.927415370941162,-3.0864059925079346,0.3990544378757477,0.6474053263664246,0.42000001668930054,-1.0988408327102661,2.9999966621398926,-0.1844828873872757,3.0000016689300537,-0.010205429047346115,-0.01996270939707756,-0.029657773673534393,-0.039299849420785904,-0.4727415144443512,-0.4971823990345001,-0.5192203521728516,-0.5390500426292419
0.18333333333333332,0.07033061236143112,0.10150198638439178,0.0,0.9650558233261108,0.0,0.0,-0.2620444893836975,0.05849665775895119,0.6962855458259583,0.0,0.0,0.0,-7.830564022064209,-0.39739641547203064,0.6858924031257629,0.4200000464916229,0.9999999403953552,3.6601879855879815e-06,-2.302341272297781e-06,2.528711604554701e-07,0.000266908056801185,0.00026760302716866136,-0.000104124890640378,-0.0017413176828995347,0.004211504012346268,-0.00012786878505721688,-0.332908570766449,0.45327603816986084,1.0846456289291382,-1.4721746444702148,4.355838775634766,-3.702986717224121,0.3990544378757477,0.6474053263664246,0.42000001668930054,-1.0488425493240356,3.0000007152557373,-0.21605779230594635,-3.0000007152557373,-0.02342347986996174,-0.03305219113826752,-0.04259798675775528,-0.0520789735019207,-0.7905648350715637,-0.788649320602417,-0.7846162915229797,-0.7788509130477905
0.2,0.07669799029827118,0.10872910171747208,0.0,0.9540753960609436,0.0,0.0,-0.2995665967464447,0.4094700515270233,0.34476178884506226,0.0,0.0,0.0,-3.3919663429260254,-0.39739641547203064,0.6858923435211182,0.4200000464916229,1.0,3.5907578421756625e-06,-2.3004690774541814e-06,1.3875796867068857e-07,0.00026654661633074284,0.00026732246624305844,-0.0001042394433170557,-0.0017325595254078507,0.00420342106372118,-0.00012821020209230483,-0.3600747287273407,0.5203659534454346,1.0157630443572998,-1.3414723873138428,4.052961349487305,-4.587133407592773,0.3990544378757477,0.6474053263664246,0.42000001668930054,-0.9988431334495544,3.0000009536743164,-0.26608458161354065,-3.000000476837158,-0.035292938351631165,-0.04452811926603317,-0.05366502329707146,-0.06273192912340164,-0.8783543109893799,-0.8161770701408386,-0.7551729083061218,-0.6960862278938293
0.21666666666666667,0.0772428885102272,0.11905128508806229,0.0,0.9506425857543945,0.0,0.0,-0.3102880120277405,0.03872780129313469,0.5950303077697754,0.0,0.0,0.0,-0.16183964908123016,-0.39739641547203064,0.6858924031257629,0.4200000464916229,1.0,3.606865902838763e-06,-2.261095914946054e-06,1.9646103410764226e-08,0.0002644704363774508,0.0002655842690728605,-0.00010396563448011875,-0.0017088704043999314,0.004164243582636118,-0.00012832065112888813,-0.38364341855049133,0.5740396976470947,0.9317641258239746,-1.2409214973449707,2.867704391479492,-5.301236152648926,0.3990544378757477,0.6474053263664246,0.42000001668930054,-0.9488339424133301,2.9999940395355225,-0.3161138594150543,-3.000001907348633,-0.05131843686103821,-0.06051940098404884,-0.06964758038520813,-0.07864254713058472,-0.6699214577674866,-0.7157803177833557,-0.7591843008995056,-0.7986633777618408
0.23333333333333334,0.07669489085674286,0.12460722029209137,0.0,0.9432006478309631,0.0,0.0,-0.3322235941886902,-0.07267583906650543,0.2527201473712921,0.0,0.0,0.0,-3.6512744426727295,-0.39739638566970825,0.6858923435211182,0.4200000464916229,0.9999999403953552,3.742164153663907e-06,-2.227621735073626e-06,4.589477669014741e-07,0.0002647507353685796,0.00026671186788007617,-0.00010453304275870323,-0.0017189144855365157,0.004165781196206808,-0.00013019215839449316,-0.4012375473976135,0.6205714344978333,0.837823748588562,-0.8165900111198425,2.516303777694702,-5.8671979904174805,0.3990544378757477,0.6474053263664246,0.42000001668930054,-0.8988232612609863,2.9999992847442627,-0.3661450445652008,-3.0,-0.06313205510377884,-0.0727761834859848,-0.08231166750192642,-0.09166327863931656,-0.7765113115310669,-0.781243085861206,-0.7846232056617737,-0.7861945033073425
0.25,0.0723915621638298,0.13256429135799408,0.0,0.9414790272712708,0.0,0.0,-0.33707165718078613,-0.2897440791130066,0.46364787220954895,0.0,0.0,0.0,0.31223607063293457,-0.39739641547203064,0.6858923435211182,0.4200000464916229,1.0,3.394281748114736e-06,-2.2822139271738706e-06,1.3366967266392749e-07,0.0002667936496436596,0.00026793917641043663,-0.0001043959055095911,-0.0017416636692360044,0.004206570331007242,-0.0001288379280595109,-0.4150819778442383,0.6525373458862305,0.7389243841171265,-0.7181944847106934,1.4182512760162354,-5.937853813171387,0.3990544378757477,0.6474053263664246,0.42000001668930054,-0.8488128781318665,2.9999940395355225,-0.4161767065525055,-2.9999992847442627,-0.07880503684282303,-0.0885300412774086,-0.09812711179256439,-0.10726097971200943,-0.830873429775238,-0.8541420102119446,-0.8770890235900879,-0.8985961675643921
0.26666666666666666,0.07272209972143173,0.135582834482193,0.0,0.934889018535614,0.0,0.0,-0.35494014620780945,0.002960146637633443,0.17575454711914062,0.0,0.0,0.0,-2.7365167140960693,-0.39739641547203064,0.6858924031257629,0.4200000464916229,1.0,3.683290287881391e-06,-2.3102563773136353e-06,2.1014641049532656e-07,0.0002647915680427104,0.0002662589540705085,-0.00010421173647046089,-0.00171689223498106,0.004168987274169922,-0.0001290979707846418,-0.42405247688293457,0.6743639707565308,0.6350033283233643,-0.21472960710525513,0.8884764313697815,-6.340610980987549,0.3990544378757477,0.6474053263664246,0.42000001668930054,-0.7988040447235107,2.9999966621398926,-0.46620792150497437,-3.000002384185791,-0.09215632826089859,-0.1020837351679802,-0.11189699172973633,-0.12125135213136673,-0.9968555569648743,-0.9969751834869385,-0.997086226940155,-0.9971987009048462
0.2833333333333333,0.0686836987733841,0.13692443072795868,0.0,0.9356853365898132,0.0,0.0,-0.35283562541007996,-0.3277989625930786,0.05603288859128952,0.0,0.0,0.0,1.141182780265808,-0.39739641547203064,0.6858923435211182,0.4200000464916229,1.0,3.3067699405364692e-06,-2.212680783486576e-06,2.626196646815515e-07,0.00026660721050575376,0.0002674503193702549,-0.00010424340143799782,-0.0017352817812934518,0.004204391967505217,-0.00012828312173951417,-0.4243394136428833,0.6822500228881836,0.5362787842750549,0.27268728613853455,0.12776705622673035,-5.495691299438477,0.3990544378757477,0.6474053263664246,0.42000001668930054,-0.7487952709197998,3.0000014305114746,-0.5162379145622253,-3.000002384185791,-0.11007066071033478,-0.11970032751560211,-0.12929098308086395,-0.1384718269109726,-1.0140079259872437,-1.0105611085891724,-1.0079355239868164,-1.005845069885254
0.3,0.06150680035352707,0.13601167500019073,0.0,0.9311327338218689,0.0,0.0,-0.3646804094314575,-0.42008134722709656,-0.12353574484586716,0.0,0.0,0.0,-2.338564395904541,-0.39739641547203064,0.6858923435211182,0.4200000464916229,1.0,3.6408114283403847e-06,-2.3781321942806244e-06,-4.193823031073407e-07,0.000266095477854833,0.00026721254107542336,-0.00010421359911561012,-0.0017330015543848276,0.004194345790892839,-0.00012849061749875546,-0.4136746823787689,0.6839205622673035,0.44684386253356934,0.935916543006897,0.10383512079715729,-5.207069396972656,0.3990544378757477,0.6474053263664246,0.42000001668930054,-0.6987875699996948,2.9999911785125732,-0.5662656426429749,-3.000000238418579,-0.12702390551567078,-0.1365766078233719,-0.14612185955047607,-0.155272975564003,-0.9633190035820007,-0.9717384576797485,-0.9786220192909241,-0.9842193126678467
0.31666666666666665,0.053092554211616516,0.13224093616008759,0.0,0.932707667350769,0.0,0.0,-0.36063331365585327,-0.5446388125419617,-0.26712891459465027,0.0,0.0,0.0,1.4097719192504883,-0.39739471673965454,0.6858744621276855,0.4200184941291809,0.9999998211860657,0.00045607041101902723,2.3553135179099627e-05,-7.683133844693657e-06,-0.0007660804549232125,-0.002244547475129366,0.0017089402535930276,0.1090032309293747,-0.0080027524381876,0.03057008795440197,-0.4065331220626831,0.6868650913238525,0.41716206073760986,0.261016309261322,0.16016872227191925,-0.16487771272659302,0.3990544378757477,0.6474053263664246,0.42000001668930054,-0.6488946080207825,2.9645907878875732,-0.6167803406715393,-2.897489547729492,-0.13544383645057678,-0.14538545906543732,-0.1551412045955658,-0.16427458822727203,-0.279869943857193,-0.28727802634239197,-0.27332597970962524,-0.23363611102104187
0.3333333333333333,0.042456988245248795,0.12611913681030273,0.0,0.9286112785339355,0.0,0.0,-0.3710540533065796,-0.6839922070503235,-0.4082295894622803,0.0,0.0,0.0,-2.2482104301452637,-0.3960273861885071,0.6879845857620239,0.4202203154563904,0.9998183250427246,0.005484180059283972,4.757946589961648e-05,-0.018255578354001045,0.2295914888381958,0.327859103679657,0.04227832704782486,2.176708459854126,-0.04354303702712059,-5.067721366882324,-0.40426650643348694,0.6922354102134705,0.4229046702384949,0.22910724580287933,0.35710853338241577,-0.15221470594406128,0.3990544378757477,0.6474053263664246,0.42000001668930054,-0.5988835096359253,2.999985456466675,-0.6668541431427002,-3.000000476837158,-0.13935253024101257,-0.14918668568134308,-0.1584550440311432,-0.1666741967201233,-0.3343569338321686,-0.30099377036094666,-0.2501707375049591,-0.18084058165550232
0.35,0.029678216204047203,0.11766456812620163,0.0,0.9305140376091003,0.0,0.0,-0.3662562668323517,-0.8168593049049377,-0.5476953387260437,0.0,0.0,0.0,1.490198016166687,-0.39098986983299255,0.695136547088623,0.42018619179725647,0.996475338935852,0.004681016784161329,-0.000493832107167691,-0.08375424146652222,0.34070664644241333,0.4731035828590393,-0.012049013748764992,-0.6131919026374817,0.06109703332185745,-8.763690948486328,-0.3992682099342346,0.6998104453086853,0.42041078209877014,0.3667895495891571,0.5042234659194946,-0.13430243730545044,0.3990544378757477,0.6474053263664246,0.42000001668930054,-0.54887855052948,2.999986410140991,-0.7168907523155212,-2.999983310699463,-0.1465071737766266,-0.15506748855113983,-0.1627863347530365,-0.1691962331533432,-0.4764304757118225,-0.3753904402256012,-0.2580685615539551,-0.12682338058948517
0.36666666666666664,0.020264072343707085,0.10633084177970886,0.0,0.9267001152038574,0.0,0.0,-0.375801682472229,-0.47836795449256897,-0.7284055948257446,0.0,0.0,0.0,-2.1142313480377197,-0.38565593957901,0.7025424242019653,0.4200001657009125,0.9885016083717346,6.553391358465888e-06,2.9556770186900394e-06,-0.15120986104011536,0.3432212769985199,0.4714376926422119,-0.00023792247520759702,-0.01139769796282053,0.007749076467007399,-9.5594482421875,-0.39174342155456543,0.7072099447250366,0.4196763038635254,0.5553790330886841,0.45205458998680115,0.08120733499526978,0.3990544378757477,0.6474053263664246,0.42000001668930054,-0.4988488256931305,2.999864339828491,-0.7669057250022888,-2.999986171722412,-0.15489061176776886,-0.16114771366119385,-0.16625715792179108,-0.16981814801692963,-0.4916688799858093,-0.32967835664749146,-0.1494073122739792,0.04407573863863945
0.3833333333333333,0.008442806079983711,0.0933704525232315,0.0,0.9109652638435364,0.0,0.0,-0.4124831259250641,-0.7947433590888977,-0.8022801876068115,0.0,0.0,0.0,-5.721433162689209,-0.375093936920166,0.7149738073348999,0.42064493894577026,0.9776385426521301,-0.015894224867224693,0.0031355598475784063,-0.2096671164035797,0.929758608341217,1.0188090801239014,0.07322895526885986,-3.314120292663574,1.1466459035873413,-5.162996292114258,-0.37918972969055176,0.7178517580032349,0.4213535785675049,0.9691157341003418,0.8975688219070435,0.12315845489501953,0.3990544378757477,0.6474053263664246,0.42000001668930054,-0.44878917932510376,2.999999761581421,-0.8169122338294983,-2.9999730587005615,-0.16521485149860382,-0.16827939450740814,-0.1698826253414154,-0.1697281301021576,-0.5933613777160645,-0.4006821811199188,-0.18884888291358948,0.03543996438384056
0.4,-0.0002865745627786964,0.07746909558773041,0.0,0.8810718655586243,0.0,0.0,-0.47298240661621094,-0.4842587113380432,-0.995734453201294,0.0,0.0,0.0,-8.834824562072754,-0.3455307185649872,0.7371299266815186,0.42340993881225586,0.9646754860877991,-0.033273402601480484,-0.0218217670917511,-0.26041853427886963,2.689244270324707,1.6721965074539185,0.00647249910980463,29.128253936767578,-20.86052131652832,1.3122831583023071,-0.34951430559158325,0.7403178215026855,0.4236788749694824,2.6539440155029297,1.7607595920562744,0.32658651471138,0.3990544378757477,0.6474053263664246,0.42000001668930054,-0.4012812674045563,2.2154393196105957,-0.8669296503067017,-3.000002384185791,-0.17471498250961304,-0.1741042137145996,-0.17170779407024384,-0.167363241314888,-0.6480531096458435,-0.3841056823730469,-0.10373649001121521,0.18348024785518646
0.4166666666666667,-0.0068435873836278915,0.06627845019102097,0.0,0.8339856266975403,0.0,0.0,-0.5517861247062683,-0.3491138517856598,-0.5225042104721069,0.0,0.0,0.0,-11.834026336669922,-0.27380919456481934,0.7720054388046265,0.4267289936542511,0.9438369870185852,0.02618981897830963,-0.06914928555488586,-0.3220313489437103,5.856131553649902,2.3111822605133057,0.3940834403038025,7.123849391937256,-10.111538887023926,2.5271172523498535,-0.27759453654289246,0.7753287553787231,0.42722928524017334,5.519519329071045,2.496990203857422,0.35332512855529785,0.3990544378757477,0.6474053263664246,0.42000001668930054,-0.3809606432914734,0.9657248258590698,-0.8299996852874756,3.0004405975341797,-0.19048739969730377,-0.1867515742778778,-0.17828623950481415,-0.16811859607696533,-0.8858882784843445,-0.8597095608711243,-0.5007351040840149,-0.16683107614517212
0.43333333333333335,-0.00973603781312704,0.05808127671480179,0.0,0.7951127290725708,0.0,0.0,-0.6064616441726685,-0.11884970963001251,-0.4255183935165405,0.0,0.0,0.0,-6.850307464599609,-0.18141569197177887,0.8126208186149597,0.43506795167922974,0.9026211500167847,0.055156514048576355,-0.09860686957836151,-0.4153425097465515,5.91956901550293,1.7413747310638428,0.7012865543365479,19.298107147216797,-5.561988353729248,18.41427993774414,-0.1851871758699417,0.81744384765625,0.43533146381378174,5.772281646728516,2.319347620010376,0.5666989684104919,0.3990544378757477,0.6474053263664246,0.42000001668930054,-0.36517661809921265,0.9758603572845459,-0.8567947745323181,-3.0000030994415283,-0.20173965394496918,-0.1981608122587204,-0.18526813387870789,-0.1710786670446396,-0.6182286143302917,-0.6150806546211243,-0.3990991711616516,-0.2095494568347931
0.45,-0.014483463950455189,0.046536754816770554,0.0,0.775288462638855,0.0,0.0,-0.6316073536872864,-0.25530967116355896,-0.6236041188240051,0.0,0.0,0.0,-2.5829110145568848,-0.08356509357690811,0.8399812579154968,0.4469205439090729,0.83316969871521,0.08054696023464203,-0.10496581345796585,-0.536956787109375,6.006914138793945,0.17657731473445892,0.9438470602035522,-5.109196186065674,5.963854789733887,4.430592060089111,-0.08861768990755081,0.8458217978477478,0.4460313022136688,6.076709747314453,1.007973313331604,0.7825679779052734,0.3990544378757477,0.6474053263664246,0.42000001668930054,-0.34817278385162354,0.9697309732437134,-0.9068187475204468,-2.9999074935913086,-0.2116156369447708,-0.20655283331871033,-0.18960465490818024,-0.17184527218341827,-0.8652793765068054,-0.6621273159980774,-0.3567239046096802,-0.0858507752418518
0.4666666666666667,-0.018443744629621506,0.03350811451673508,0.0,0.7479603886604309,0.0,0.0,-0.6637433767318726,-0.320532888174057,-0.8171748518943787,0.0,0.0,0.0,-5.77475643157959,0.015562314540147781,0.8413617610931396,0.4576369524002075,0.766986072063446,0.06989803910255432,-0.09662630409002304,-0.630483865737915,6.15797758102417,-0.47223803400993347,0.514555811882019,-1.6113609075546265,-8.202676773071289,13.860468864440918,0.010826455429196358,0.8501622676849365,0.45725178718566895,5.833294868469238,-0.5528678297996521,0.7188093662261963,0.3990544378757477,0.6474053263664246,0.42000001668930054,-0.3345845639705658,0.613891065120697,-0.9568427801132202,-3.0000007152557373,-0.22629067301750183,-0.21686780452728271,-0.19454263150691986,-0.17194154858589172,-0.9248353242874146,-0.6142593026161194,-0.27806293964385986,0.028133535757660866
0.48333333333333334,-0.021394677460193634,0.02423504739999771,0.0,0.7336387634277344,0.0,0.0,-0.679539680480957,-0.09876012802124023,-0.5226863622665405,0.0,0.0,0.0,-1.3465029001235962,0.10778441280126572,0.8248814940452576,0.4669440984725952,0.6990726590156555,0.058356259018182755,-0.07955417037010193,-0.7082111239433289,5.304119110107422,-1.736995816230774,0.4628819227218628,-0.9754932522773743,-0.5198071599006653,0.41398102045059204,0.1037902683019638,0.8345459699630737,0.4668746590614319,5.295925140380859,-1.3037469387054443,0.49688053131103516,0.3990544378757477,0.6474053263664246,0.42000001668930054,-0.32676973938941956,0.4892237186431885,-1.0068665742874146,-3.0000007152557373,-0.23803654313087463,-0.22837330400943756,-0.2009095549583435,-0.17375391721725464,-0.47268232703208923,-0.4789668619632721,-0.2650671899318695,-0.0798811987042427
0.5,-0.02184256725013256,0.018472572788596153,0.0,0.7127753496170044,0.0,0.0,-0.701392412185669,0.029684416949748993,-0.2834874987602234,0.0,0.0,0.0,-4.516507148742676,0.1888362467288971,0.7988726496696472,0.46969911456108093,0.6610981822013855,0.04206106439232826,-0.06604716926813126,-0.7462022304534912,4.246700763702393,-2.3694441318511963,0.03455893322825432,-8.940200805664062,-3.5600619316101074,16.8643856048584,0.18653987348079681,0.8088183403015137,0.4707224667072296,4.718581199645996,-1.857879877090454,0.11858736723661423,0.3990544378757477,0.6474053263664246,0.42000001668930054,-0.3162427842617035,0.6401922702789307,-1.0568886995315552,-3.000000238418579,-0.23986440896987915,-0.2353612333536148,-0.2053624987602234,-0.17598287761211395,0.03850759565830231,-0.29487213492393494,-0.1951422393321991,-0.10870237648487091
0.5166666666666666,-0.0192714873701334,0.015557795763015747,0.0,0.7051025032997131,0.0,0.0,-0.709105372428894,0.1795651763677597,-0.05685894563794136,0.0,0.0,0.0,-0.26799193024635315,0.25805607438087463,0.7656376361846924,0.4681297242641449,0.6025164723396301,0.017547259107232094,-0.03930988907814026,-0.7969445586204529,3.2789487838745117,-2.5798232555389404,-0.22000591456890106,-8.955952644348145,2.135742425918579,16.893800735473633,0.2564709782600403,0.7754557132720947,0.46967148780822754,3.8866634368896484,-2.194944143295288,-0.1475168615579605,0.3990544378757477,0.6474053263664246,0.42000001668930054,-0.304948627948761,0.6197177767753601,-1.1069108247756958,-2.9999988079071045,-0.23788388073444366,-0.2378944605588913,-0.2073480635881424,-0.1775965690612793,0.15831269323825836,-0.056325044482946396,-0.08044147491455078,-0.11289627850055695
0.5333333333333333,-0.01296829991042614,0.007870842702686787,0.0,0.6871641278266907,0.0,0.0,-0.7265022397041321,0.4510054886341095,-0.6009309887886047,0.0,0.0,0.0,-4.023205280303955,0.3164899945259094,0.7332302927970886,0.45943379402160645,0.5656799674034119,-0.008705059997737408,-0.02269616536796093,-0.8242663741111755,3.0066258907318115,-2.0989816188812256,-0.5803626179695129,-4.122220993041992,3.792109489440918,5.236841201782227,0.31537336111068726,0.7423345446586609,0.461771696805954,3.2557785511016846,-1.995182752609253,-0.6614127159118652,0.3990544378757477,0.6474053263664246,0.42000001668930054,-0.292758584022522,0.7420835494995117,-1.1569329500198364,-2.9999771118164062,-0.22773204743862152,-0.23181791603565216,-0.20374836027622223,-0.17641600966453552,0.7657279372215271,0.5466371178627014,0.33689677715301514,0.13334229588508606
0.55,-0.010198893956840038,0.0038432367146015167,0.0,0.6806080937385559,0.0,0.0,-0.732647716999054,0.13933038711547852,-0.13975702226161957,0.0,0.0,0.0,-0.11814392358064651,0.3627723753452301,0.701755166053772,0.4465348422527313,0.5181614756584167,-0.0043987794779241085,-0.025063740089535713,-0.8549041152000427,2.357027053833008,-1.886885643005371,-0.831889271736145,-0.10851588100194931,-2.7871835231781006,-1.926192045211792,0.359776109457016,0.7085584402084351,0.4495638608932495,2.3166651725769043,-2.0403664112091064,-0.8380096554756165,0.3990544378757477,0.6474053263664246,0.42000001668930054,-0.2742157578468323,1.5323036909103394,-1.129456639289856,2.999602794647217,-0.21891850233078003,-0.22498726844787598,-0.20010581612586975,-0.17598523199558258,0.5762026309967041,0.46086812019348145,0.21858642995357513,-0.017433542758226395
0.5666666666666667,-0.005928789731115103,-0.0013009177055209875,0.0,0.6656408905982971,0.0,0.0,-0.7462722063064575,0.3060046136379242,-0.3349286913871765,0.0,0.0,0.0,-3.2286133766174316,0.39478033781051636,0.6720117330551147,0.42794451117515564,0.4977165162563324,-0.029699377715587616,-0.010605054907500744,-0.8667662739753723,1.3996076583862305,-2.370391845703125,-1.0030696392059326,4.15962553024292,5.220153331756592,17.3768253326416,0.3927772343158722,0.678479790687561,0.4310392141342163,1.541858196258545,-1.6606727838516235,-1.2396072149276733,0.3990544378757477,0.6474053263664246,0.42000001668930054,-0.2528040409088135,0.6511330604553223,-1.15195631980896,-3.000000238418579,-0.2096034586429596,-0.21720804274082184,-0.19677692651748657,-0.17696890234947205,0.46960917115211487,0.414031058549881,0.14285516738891602,-0.1211795061826706
0.5833333333333334,0.0009347677696496248,-0.0029550441540777683,0.0,0.6640362739562988,0.0,0.0,-0.7477003335952759,0.4372831881046295,-0.05380834639072418,0.0,0.0,0.0,0.6523419618606567,0.4094293415546417,0.6540152430534363,0.42338743805885315,0.5050272345542908,-0.03373989090323448,0.005104349926114082,-0.862428605556488,0.37511342763900757,-1.3032984733581543,0.13882339000701904,16.49498748779297,8.61815071105957,7.806725025177002,0.40682879090309143,0.6597756743431091,0.42669814825057983,0.44060903787612915,-0.8361008763313293,-0.10940688103437424,0.3990544378757477,0.6474053263664246,0.42000001668930054,-0.24414408206939697,0.12008287012577057,-1.1515666246414185,2.4738564491271973,-0.20273075997829437,-0.2110748589038849,-0.19526426494121552,-0.17979466915130615,0.4693072736263275,0.41744452714920044,0.1170019879937172,-0.16121290624141693
0.6,0.005360504146665335,-0.002477197675034404,0.0,0.6523196697235107,0.0,0.0,-0.7579439282417297,0.20804700255393982,0.12973825633525848,0.0,0.0,0.0,-2.715466260910034,0.4137650728225708,0.6456555128097534,0.4233466386795044,0.5322967767715454,-0.03752158582210541,0.026491962373256683,-0.8453108072280884,0.050104137510061264,-0.4306754469871521,-0.0019047330133616924,2.6884493827819824,0.8011681437492371,3.7580392360687256,0.4102441966533661,0.6510475873947144,0.4272282123565674,0.06575845181941986,-0.3441391885280609,0.09892962872982025,0.3990544378757477,0.6474053263664246,0.42000001668930054,-0.25061681866645813,-0.5704310536384583,-1.1778957843780518,-2.9998016357421875,-0.19377444684505463,-0.20328712463378906,-0.19285352528095245,-0.18226996064186096,0.5062966346740723,0.44682198762893677,0.13012871146202087,-0.15628717839717865
0.6166666666666667,0.01055409200489521,-0.005611596629023552,0.0,0.6532906293869019,0.0,0.0,-0.7571071982383728,0.2934345304965973,-0.19922959804534912,0.0,0.0,0.0,1.0254443883895874,0.4128490388393402,0.6416641473770142,0.4219002425670624,0.5555087327957153,-0.028384191915392876,0.03595350682735443,-0.8302478790283203,-0.1970457285642624,-0.17845633625984192,-0.1119326651096344,1.420039176940918,-3.4952449798583984,6.423486232757568,0.40927398204803467,0.6474523544311523,0.4263450503349304,-0.23452746868133545,-0.09303848445415497,-0.14055761694908142,0.3990544378757477,0.6474053263664246,0.42000001668930054,-0.25855863094329834,-0.4707288146018982,-1.1646404266357422,2.9976747035980225,-0.1823146492242813,-0.19299905002117157,-0.18800301849842072,-0.1823553442955017,0.6024306416511536,0.5642530918121338,0.2714115381240845,0.003792207920923829
0.6333333333333333,0.017737990245223045,-0.004649571143090725,0.0,0.6432806253433228,0.0,0.0,-0.7656304836273193,0.46707504987716675,0.05933094024658203,0.0,0.0,0.0,-2.422149658203125,0.4113592505455017,0.6404643654823303,0.42076292634010315,0.5783355832099915,-0.011234517209231853,0.01556638814508915,-0.8155730366706848,-0.08046448230743408,-0.06752154231071472,-0.08178972452878952,-1.5402895212173462,-4.123790264129639,2.3287153244018555,0.4086991548538208,0.6470215320587158,0.42725539207458496,0.030143536627292633,0.05610433220863342,0.15878348052501678,0.3990544378757477,0.6474053263664246,0.42000001668930054,-0.29895541071891785,-2.9999823570251465,-1.1860045194625854,-2.999248504638672,-0.1740923672914505,-0.1852497160434723,-0.18473084270954132,-0.18310508131980896,0.5846500396728516,0.5370425581932068,0.2644011080265045,0.021586759015917778
0.65,0.026953130960464478,-0.00421102112159133,0.0,0.6460679173469543,0.0,0.0,-0.763279914855957,0.5848705768585205,0.05095997452735901,0.0,0.0,0.0,1.333901286125183,0.4108232259750366,0.6402551531791687,0.4200059473514557,0.5843737721443176,0.0005920208641327918,0.000208046636544168,-0.8114843368530273,-0.018131418153643608,-0.002612777752801776,-0.024203117936849594,-1.083648681640625,0.39531177282333374,1.1952464580535889,0.4083425998687744,0.6482391357421875,0.4300372004508972,-0.06611999869346619,0.08722098171710968,0.1896001100540161,0.3990544378757477,0.6474053263664246,0.42000001668930054,-0.3489733040332794,-2.99967885017395,-1.23598313331604,-2.999244451522827,-0.1644056886434555,-0.17614461481571198,-0.17970684170722961,-0.18171435594558716,0.501068115234375,0.4923136532306671,0.28686287999153137,0.10315043479204178
0.6666666666666666,0.038018207997083664,-0.00637701153755188,0.0,0.670039176940918,0.0,0.0,-0.7423257231712341,0.7050832509994507,-0.2034219205379486,0.0,0.0,0.0,4.655700206756592,0.41083741188049316,0.6402760744094849,0.41999998688697815,0.5843744277954102,-1.0238965160169755e-06,-5.123598839418264e-06,-0.8114840984344482,0.00018486040062271059,-0.00043790123891085386,-9.434414096176624e-05,0.010014603845775127,0.0015933989780023694,-0.0008944844012148678,0.40683993697166443,0.6496257781982422,0.4333100914955139,-0.06215951219201088,0.12814535200595856,0.2145179957151413,0.3990544378757477,0.6474053263664246,0.42000001668930054,-0.39900070428848267,-3.0001168251037598,-1.2859491109848022,-2.9978718757629395,-0.1577221304178238,-0.16894277930259705,-0.1749766767024994,-0.17916926741600037,0.36037254333496094,0.41384854912757874,0.3041994571685791,0.20772045850753784
0.6833333333333333,0.04667333886027336,-0.011991878971457481,0.0,0.6792622804641724,0.0,0.0,-0.7338955998420715,0.434481143951416,-0.42071834206581116,0.0,0.0,0.0,0.44177964329719543,0.4108372926712036,0.6402761340141296,0.41999995708465576,0.5843743085861206,-1.1325320201649447e-06,-5.709001925424673e-06,-0.811484158039093,0.00011939602700294927,-0.0003997448366135359,-7.873181311879307e-05,0.00988763477653265,-0.0027927833143621683,-0.0008640006999485195,0.4057845175266266,0.6519405841827393,0.43798506259918213,-0.09701106697320938,0.11696908622980118,0.3244093060493469,0.3990544378757477,0.6474053263664246,0.42000001668930054,-0.44899025559425354,-2.999758720397949,-1.3359228372573853,-2.999988079071045,-0.15414610505104065,-0.16347472369670868,-0.16994349658489227,-0.17434313893318176,0.17205683887004852,0.3200647532939911,0.34893691539764404,0.3912597894668579
0.7,0.055419836193323135,-0.0206499844789505,0.0,0.6662875413894653,0.0,0.0,-0.7456949353218079,0.5600079894065857,-0.6095524430274963,0.0,0.0,0.0,-2.9615941047668457,0.410837322473526,0.6402759552001953,0.4200000464916229,0.5843744277954102,2.0190984173495963e-07,-3.2228265354206087e-06,-0.811484158039093,0.00010158756776945665,-0.00027715941541828215,-8.991616778075695e-05,0.0065776812843978405,-0.0015796691877767444,-0.0006722162361256778,0.40848100185394287,0.6547763347625732,0.4492207169532776,0.39127445220947266,0.186661034822464,1.125183343887329,0.3990544378757477,0.6474053263664246,0.42000001668930054,-0.499003529548645,-2.9999969005584717,-1.3859410285949707,-2.9999992847442627,-0.15392424166202545,-0.1605316549539566,-0.16593636572360992,-0.16906331479549408,-0.05435553565621376,0.11515019834041595,0.20266138017177582,0.30149054527282715
0.7166666666666667,0.0682433471083641,-0.024021554738283157,0.0,0.630835235118866,0.0,0.0,-0.7759168148040771,0.8499819040298462,-0.06898558884859085,0.0,0.0,0.0,-6.628111839294434,0.410837322473526,0.6402759552001953,0.4200000464916229,0.5843742489814758,3.088382811711199e-07,-3.2766415642981883e-06,-0.811484158039093,0.00010806649515870959,-0.00026845833053812385,-8.996762335300446e-05,0.006317664869129658,-0.0014324840158224106,-0.0006737920339219272,0.4233420491218567,0.6513196229934692,0.4741901159286499,1.4730629920959473,-0.5366485714912415,2.0065300464630127,0.3990544378757477,0.6474053263664246,0.42000001668930054,-0.5490161180496216,-2.9998457431793213,-1.4359593391418457,-2.999983072280884,-0.16402505338191986,-0.1661735326051712,-0.16830341517925262,-0.16813024878501892,-0.8026020526885986,-0.49931344389915466,-0.2543955147266388,-0.012541277334094048
0.7333333333333333,0.07706800848245621,-0.024600418284535408,0.0,0.6100022196769714,0.0,0.0,-0.7923997044563293,0.46866574883461,-0.11077876389026642,0.0,0.0,0.0,-1.9276620149612427,0.4108372926712036,0.6402759552001953,0.4200000464916229,0.5843744874000549,3.8789423228990927e-07,-2.9926345632702578e-06,-0.8114840388298035,0.00011081631964771077,-0.00026842186343856156,-9.05988272279501e-05,0.0063010347075760365,-0.001400593901053071,-0.0006800680421292782,0.4471443295478821,0.6477680206298828,0.5094634294509888,1.3881001472473145,-0.042865969240665436,2.1876773834228516,0.3990544378757477,0.6474053263664246,0.42000001668930054,-0.5699210166931152,0.22652509808540344,-1.4859776496887207,-3.0,-0.17200855910778046,-0.1709560751914978,-0.17061276733875275,-0.16799835860729218,-0.220045804977417,-0.1240672767162323,-0.059624165296554565,0.0035754654090851545
0.75,0.08156169950962067,-0.024383535608649254,0.0,0.6155717372894287,0.0,0.0,-0.7880808711051941,0.20309899747371674,0.060738056898117065,0.0,0.0,0.0,1.6739463806152344,0.410837322473526,0.6402759552001953,0.4200000464916229,0.5843744874000549,3.433422932630492e-07,-3.4105196391465142e-06,-0.8114839792251587,0.00010748279601102695,-0.00026820707716979086,-8.983863517642021e-05,0.006314366590231657,-0.0014382890658453107,-0.0006722743273712695,0.4675619602203369,0.6486236453056335,0.5391992330551147,0.9846677780151367,0.13207978010177612,1.4724071025848389,0.3990544378757477,0.6474053263664246,0.42000001668930054,-0.5451849699020386,2.5208706855773926,-1.4493443965911865,2.9999990463256836,-0.17392288148403168,-0.17168091237545013,-0.170508474111557,-0.16712509095668793,-0.011934708803892136,0.03605125471949577,0.06943301111459732,0.09608444571495056
0.7666666666666666,0.08218149840831757,-0.028521616011857986,0.0,0.609366774559021,0.0,0.0,-0.7928884625434875,0.06348234415054321,-0.3034977614879608,0.0,0.0,0.0,-1.7200199365615845,0.4108372926712036,0.6402759552001953,0.4200000464916229,0.5843743681907654,3.761321067941026e-07,-2.9510479180316906e-06,-0.8114840984344482,0.00011040472600143403,-0.00026865681866183877,-9.049405343830585e-05,0.006309238728135824,-0.0014063832350075245,-0.0006792195490561426,0.4776511788368225,0.6523538827896118,0.5575730800628662,0.1525404304265976,0.16034173965454102,0.8667079210281372,0.3990544378757477,0.6474053263664246,0.42000001668930054,-0.5074677467346191,2.017749309539795,-1.399291753768921,2.9999992847442627,-0.17036499083042145,-0.1679963618516922,-0.16682882606983185,-0.16358792781829834,0.10597500950098038,0.13613469898700714,0.1597486138343811,0.1680801659822464
0.7833333333333333,0.08118262887001038,-0.02724616602063179,0.0,0.6161249279975891,0.0,0.0,-0.7876484394073486,-0.09773257374763489,0.06420393288135529,0.0,0.0,0.0,1.7592291831970215,0.4108372926712036,0.6402759552001953,0.4200000464916229,0.5843744277954102,3.534471204602596e-07,-3.367048748259549e-06,-0.811484158039093,0.00010729365749284625,-0.0002681948826648295,-8.979463018476963e-05,0.006315117701888084,-0.001440403051674366,-0.0006718285148963332,0.4764014780521393,0.6541405916213989,0.5695812702178955,-0.12156235426664352,0.2034246325492859,0.5907174348831177,0.3990544378757477,0.6474053263664246,0.42000001668930054,-0.4640490412712097,3.0000009536743164,-1.3492810726165771,3.000000476837158,-0.17323391139507294,-0.1694943755865097,-0.1670742779970169,-0.16297155618667603,0.013033753260970116,0.0432722344994545,0.07506082206964493,0.08773262053728104
0.8,0.07969681173563004,-0.029859790578484535,0.0,0.6101475954055786,0.0,0.0,-0.7922877669334412,-0.15535160899162292,-0.10043009370565414,0.0,0.0,0.0,-1.6042393445968628,0.410837322473526,0.6402759552001953,0.4200000464916229,0.5843744277954102,3.274010111908865e-07,-3.2416314752481412e-06,-0.8114840984344482,0.00010678489343263209,-0.000268506322754547,-8.964561857283115e-05,0.006325994618237019,-0.0014469934394583106,-0.0006710247253067791,0.4694308638572693,0.6575887799263,0.5741423964500427,-0.8121639490127563,0.18150247633457184,0.13398344814777374,0.3990544378757477,0.6474053263664246,0.42000001668930054,-0.4389878213405609,0.22363129258155823,-1.2992284297943115,3.0000007152557373,-0.17168265581130981,-0.16777928173542023,-0.16509053111076355,-0.16101433336734772,-0.0571083202958107,-0.020274784415960312,0.023733491078019142,0.046938229352235794
0.8166666666666667,0.07982167601585388,-0.027547648176550865,0.0,0.616969645023346,0.0,0.0,-0.7869869470596313,0.031204890459775925,0.11137133091688156,0.0,0.0,0.0,1.6502307653427124,0.410837322473526,0.6402759552001953,0.4200000464916229,0.5843743085861206,3.3205196814378724e-07,-3.311140517325839e-06,-0.8114842176437378,0.00010815566929522902,-0.0002683145285118371,-8.99850856512785e-05,0.00631340779364109,-0.0014307815581560135,-0.0006738166557624936,0.45895054936408997,0.6594506502151489,0.5757666826248169,-0.3776530623435974,0.16289344429969788,0.09630350023508072,0.3990544378757477,0.6474053263664246,0.42000001668930054,-0.4445015788078308,-0.7906726002693176,-1.3191320896148682,-2.9999990463256836,-0.1739930808544159,-0.1693153977394104,-0.1656019538640976,-0.16075794398784637,0.05454644933342934,0.054095059633255005,0.08002649247646332,0.1011827364563942
0.8333333333333334,0.08185026794672012,-0.029398556798696518,0.0,0.6108224987983704,0.0,0.0,-0.7917675971984863,0.15555185079574585,-0.13351228833198547,0.0,0.0,0.0,-1.9072997570037842,0.4108372926712036,0.6402759552001953,0.4200000464916229,0.5843744874000549,3.957237879603781e-07,-3.0290448194136843e-06,-0.8114839792251587,0.00011107053433079273,-0.0002683582715690136,-9.065866470336914e-05,0.006298021413385868,-0.0013973646564409137,-0.000680561934132129,0.45501989126205444,0.6611489653587341,0.5716108083724976,-0.1545400470495224,-0.030033539980649948,-0.4102211594581604,0.3990544378757477,0.6474053263664246,0.42000001668930054,-0.4816548824310303,-2.99999737739563,-1.2878488302230835,3.0,-0.1712685227394104,-0.16677528619766235,-0.16273872554302216,-0.1575838327407837,0.09777357429265976,0.11559920758008957,0.16287121176719666,0.20802275836467743
0.85,0.08664153516292572,-0.028634613379836082,0.0,0.5940753817558289,0.0,0.0,-0.804409384727478,0.3309395909309387,0.10542140901088715,0.0,0.0,0.0,-2.9055402278900146,0.410837322473526,0.6402759552001953,0.4200000464916229,0.5843745470046997,3.293785084679257e-07,-3.4486108688724926e-06,-0.8114840388298035,0.00010760364239104092,-0.000268173695076257,-8.986704051494598e-05,0.006312882993370295,-0.0014367077965289354,-0.0006724920240230858,0.45594173669815063,0.660065770149231,0.5676898956298828,0.2581839859485626,-0.09569782018661499,0.027214091271162033,0.3990544378757477,0.6474053263664246,0.42000001668930054,-0.5289604663848877,-2.6659247875213623,-1.307956576347351,-2.9999992847442627,-0.17050309479236603,-0.16608142852783203,-0.16156060993671417,-0.15587395429611206,0.06632567197084427,0.04139440879225731,0.05129535123705864,0.06715084612369537
0.8666666666666667,0.09345350414514542,-0.030435655266046524,0.0,0.5942138433456421,0.0,0.0,-0.8043071031570435,0.44700732827186584,-0.13310913741588593,0.0,0.0,0.0,0.9453773498535156,0.410837322473526,0.6402759552001953,0.4200000464916229,0.5843744277954102,2.901510640640481e-07,-3.161781933158636e-06,-0.811484158039093,0.00010841542825801298,-0.0002684325445443392,-9.003630839288235e-05,0.006314938887953758,-0.001428078394383192,-0.0006745331338606775,0.4620908796787262,0.6602573990821838,0.5688308477401733,0.4194674491882324,0.01525937020778656,0.09259522706270218,0.3990544378757477,0.6474053263664246,0.42000001668930054,-0.545913815498352,0.381307452917099,-1.357974886894226,-3.0,-0.1677103191614151,-0.16385644674301147,-0.15941651165485382,-0.1537676602602005,0.08781015127897263,0.07085330784320831,0.07607864588499069,0.07860863208770752
0.8833333333333333,0.0978643074631691,-0.035491324961185455,0.0,0.6155498623847961,0.0,0.0,-0.7880979180335999,0.19441242516040802,-0.43217092752456665,0.0,0.0,0.0,3.9280474185943604,0.410837322473526,0.6402759552001953,0.4200000464916229,0.5843742489814758,2.94181432991536e-07,-3.2321227081411052e-06,-0.811484158039093,0.00010874194413190708,-0.00026829703710973263,-9.013642556965351e-05,0.006309580523520708,-0.0014243307523429394,-0.0006751389591954648,0.4699922800064087,0.6581047177314758,0.5689226388931274,0.5299681425094604,-0.20782418549060822,-0.01548418216407299,0.3990544378757477,0.6474053263664246,0.42000001668930054,-0.5625295639038086,-2.1438472270965576,-1.31964910030365,3.0,-0.16716624796390533,-0.16304397583007812,-0.158015638589859,-0.15185081958770752,0.06103422865271568,0.08478480577468872,0.12608657777309418,0.16342905163764954
0.9,0.1038254126906395,-0.03677815943956375,0.0,0.6226056218147278,0.0,0.0,-0.7825357913970947,0.3492521345615387,-0.007172718178480864,0.0,0.0,0.0,0.02744312398135662,0.4108372926712036,0.6402759552001953,0.4200000464916229,0.5843744874000549,3.881221743995411e-07,-2.9467919375747442e-06,-0.8114840388298035,0.00011064561840612441,-0.0002684018400032073,-9.055831469595432e-05,0.006301462650299072,-0.0014025782002136111,-0.0006796673405915499,0.47606831789016724,0.651790976524353,0.5625240802764893,0.263058602809906,-0.40459519624710083,-0.59038245677948,0.3990544378757477,0.6474053263664246,0.42000001668930054,-0.5980316996574402,-2.0919158458709717,-1.3391889333724976,-2.9999983310699463,-0.1704363077878952,-0.16522164642810822,-0.1588909924030304,-0.15154734253883362,-0.09054776281118393,-0.0479540154337883,0.008154485374689102,0.06032808497548103
