vladlanda/robotic-transformer/data/env_000_episode_0099.csv
sim_time_s,robot_box_x,robot_box_y,robot_box_z,robot_box_quat_w,robot_box_quat_x,robot_box_quat_y,robot_box_quat_z,robot_box_linvel_x,robot_box_linvel_y,robot_box_linvel_z,robot_box_angvel_x,robot_box_angvel_y,robot_box_angvel_z,cube_world_x,cube_world_y,cube_world_z,cube_quat_w,cube_quat_x,cube_quat_y,cube_quat_z,cube_linvel_x,cube_linvel_y,cube_linvel_z,cube_angvel_x,cube_angvel_y,cube_angvel_z,endpoint_world_x,endpoint_world_y,endpoint_world_z,endpoint_linvel_x,endpoint_linvel_y,endpoint_linvel_z,target_cube_world_x,target_cube_world_y,target_cube_world_z,gripper_actual_pos_rad_gp_leftgearjoint,gripper_actual_vel_rad_s_gp_leftgearjoint,gripper_actual_pos_rad_gp_rotatingjoint,gripper_actual_vel_rad_s_gp_rotatingjoint,motor_angle_rad_joint1,motor_angle_rad_joint2,motor_angle_rad_joint3,motor_angle_rad_joint4,motor_speed_rad_s_joint1,motor_speed_rad_s_joint2,motor_speed_rad_s_joint3,motor_speed_rad_s_joint4
0.0,0.0,0.0,0.0,1.0,0.0,0.0,0.0,0.0,0.0,0.0,0.0,0.0,0.0,-0.4093649089336395,0.6803637146949768,0.41999998688697815,1.0,0.0,0.0,0.0,0.0,0.0,0.0,0.0,0.0,0.0,3.42540442943573e-06,-0.005000244826078415,1.313499927520752,0.0,0.0,0.0,0.34524232149124146,0.6400033831596375,0.42000001668930054,-1.5707999467849731,0.0,0.0,0.0,0.0,0.0,0.0,0.0,0.0,0.0,0.0,0.0
0.016666666666666666,0.0028778850100934505,0.0021806680597364902,0.0,0.9998081922531128,0.0,0.0,0.019586581736803055,0.24087215960025787,0.18240931630134583,0.0,0.0,0.0,3.1418697834014893,-0.4093650281429291,0.6803634166717529,0.41999998688697815,1.0,3.279964630564791e-06,-8.339746386809566e-07,8.465587342243452e-08,-1.9833529222523794e-05,0.00017983045836444944,-6.132945418357849e-05,0.0009432713268324733,-0.004689474124461412,-0.00031981561915017664,-0.007110234349966049,0.003379564033821225,1.3159373998641968,-0.8143353462219238,0.9868683815002441,0.18095196783542633,0.34524232149124146,0.6400033831596375,0.42000001668930054,-1.5301095247268677,3.0000011920928955,-0.04584788903594017,-2.9999992847442627,0.0008691533003002405,0.0007963840034790337,0.0007110277656465769,0.0006108740926720202,0.11094217747449875,0.09756709635257721,0.08334315568208694,0.06823883205652237
0.03333333333333333,0.008960967883467674,0.006801886949688196,0.0,0.9997960329055786,0.0,0.0,0.020196836441755295,0.407020628452301,0.3153073787689209,0.0,0.0,0.0,-0.86913001537323,-0.40936514735221863,0.6803633570671082,0.4200000464916229,1.0,3.3908179375430336e-06,-2.132458348569344e-06,-3.7097745320124886e-08,0.00026357852038927376,0.00026937833172269166,-0.00010509369894862175,-0.0017707126680761576,0.004130884539335966,-0.0001354814594378695,-0.027546683326363564,0.02596586011350155,1.3166322708129883,-1.5914350748062134,1.611872911453247,-0.08078508824110031,0.34524232149124146,0.6400033831596375,0.42000001668930054,-1.4800904989242554,3.0000014305114746,-0.09588772058486938,-3.0000007152557373,0.002990161767229438,0.0026527962181717157,0.0022773901000618935,0.0018608667887747288,0.16422489285469055,0.13977016508579254,0.11383088678121567,0.08631468564271927
0.05,0.017601462081074715,0.013740705326199532,0.0,0.9994255304336548,0.0,0.0,0.033890578895807266,0.5895876288414001,0.46396803855895996,0.0,0.0,0.0,2.6748359203338623,-0.409365177154541,0.6803634166717529,0.4200000464916229,1.0,3.7651293496310245e-06,-2.2119379536889028e-06,5.6273887771851605e-09,0.0002653067058417946,0.00026691422681324184,-0.00010440615005791187,-0.0017243530601263046,0.00417736079543829,-0.00012949267693329602,-0.05958482623100281,0.05355929583311081,1.3117384910583496,-2.18593692779541,1.7223128080368042,-0.4629853069782257,0.34524232149124146,0.6400033831596375,0.42000001668930054,-1.4300721883773804,3.0000014305114746,-0.14592638611793518,-3.0000011920928955,0.005654565524309874,0.004865509457886219,0.004004360642284155,0.0030660589691251516,0.19185365736484528,0.1549673229455948,0.1162128821015358,0.07551117986440659
0.06666666666666667,0.0288498904556036,0.023015134036540985,0.0,0.9994880557060242,0.0,0.0,0.03199483081698418,0.7163677215576172,0.5941410660743713,0.0,0.0,0.0,-1.1856844425201416,-0.409365177154541,0.6803633570671082,0.4200000464916229,0.9999999403953552,3.406754103707499e-06,-2.2856077066535363e-06,4.300980265270482e-07,0.0002670255198609084,0.0002679179306142032,-0.0001043803058564663,-0.001740670995786786,0.004211848136037588,-0.00012850687198806554,-0.09707826375961304,0.08759485930204391,1.2998427152633667,-2.338284492492676,2.240635395050049,-0.939531147480011,0.34524232149124146,0.6400033831596375,0.42000001668930054,-1.38004732131958,3.000000238418579,-0.16405680775642395,0.5373199582099915,0.008096341043710709,0.006575360894203186,0.004943428095430136,0.0031945412047207355,0.1356537789106369,0.08022190630435944,0.022745700553059578,-0.03683560714125633
0.08333333333333333,0.03419191762804985,0.0356450080871582,0.0,0.9999993443489075,0.0,0.0,-0.0011431380407884717,0.1862753927707672,0.824805498123169,0.0,0.0,0.0,-4.910314083099365,-0.409365177154541,0.6803633570671082,0.4200000464916229,0.9999999403953552,3.6260603337723296e-06,-2.3353738924924983e-06,3.0322857469400333e-07,0.00026613770751282573,0.00026685066404752433,-0.00010405178181827068,-0.0017283547203987837,0.004196325317025185,-0.000127911422168836,-0.1336863934993744,0.12844932079315186,1.2805438041687012,-2.1253671646118164,2.5447885990142822,-1.2909337282180786,0.34524232149124146,0.6400033831596375,0.42000001668930054,-1.330039381980896,3.000000476837158,-0.20783402025699615,-3.000000238418579,0.004771092906594276,0.0026040798984467983,0.0002751116990111768,-0.002225724281743169,-0.2971191108226776,-0.34219250082969666,-0.3898380696773529,-0.4403223395347595
0.1,0.04386422410607338,0.04953879117965698,0.0,0.9998792409896851,0.0,0.0,-0.015540340915322304,0.6716477274894714,0.8493451476097107,0.0,0.0,0.0,-0.6791181564331055,-0.409365177154541,0.6803633570671082,0.4200000464916229,1.0,3.4220743145851884e-06,-2.30867885875341e-06,1.7964234189093986e-07,0.0002668164379429072,0.0002680036413948983,-0.00010440708138048649,-0.0017430284060537815,0.004207152873277664,-0.00012891023652628064,-0.17332181334495544,0.16725578904151917,1.2589879035949707,-2.4501633644104004,2.3880019187927246,-1.385807991027832,0.34524232149124146,0.6400033831596375,0.42000001668930054,-1.2800170183181763,3.000000476837158,-0.2105265110731125,2.222806692123413,0.005101591814309359,0.0014412609161809087,-0.002376734744757414,-0.00636255694553256,0.04328000918030739,-0.05321120843291283,-0.14880605041980743,-0.2434709668159485
0.11666666666666667,0.05158383771777153,0.06119820475578308,0.0,0.9990999102592468,0.0,0.0,-0.04241878166794777,0.459672212600708,0.6554871201515198,0.0,0.0,0.0,-3.895987033843994,-0.409365177154541,0.6803634166717529,0.4200000464916229,1.0,3.7114557471795706e-06,-2.332793883397244e-06,2.5744137133187905e-07,0.0002648575755301863,0.00026635421090759337,-0.00010423525236546993,-0.001718215993605554,0.004170078784227371,-0.00012915751722175628,-0.20870143175125122,0.212739959359169,1.2365789413452148,-1.8610402345657349,3.0497355461120605,-1.2587203979492188,0.34524232149124146,0.6400033831596375,0.42000001668930054,-1.2300220727920532,2.9999990463256836,-0.24083861708641052,-3.000000238418579,0.003850458888337016,-0.0016858055023476481,-0.00735097611322999,-0.013154110871255398,-0.043508268892765045,-0.18036504089832306,-0.3141711950302124,-0.44471150636672974
0.13333333333333333,0.056674133986234665,0.06985585391521454,0.0,0.9955430626869202,0.0,0.0,-0.09430789947509766,0.24326099455356598,0.4504969120025635,0.0,0.0,0.0,-7.051568031311035,-0.409365177154541,0.6803633570671082,0.4200000464916229,1.0,3.335647988933488e-06,-2.2320116386254085e-06,3.113250670594425e-07,0.00026669682119973004,0.000267594848992303,-0.00010428694076836109,-0.0017371177673339844,0.004205875098705292,-0.00012840732233598828,-0.24088546633720398,0.26719650626182556,1.2106297016143799,-1.9437696933746338,3.453021764755249,-1.8520843982696533,0.34524232149124146,0.6400033831596375,0.42000001668930054,-1.1936819553375244,1.4615535736083984,-0.20683929324150085,3.0,0.001974763348698616,-0.005644845776259899,-0.013327810913324356,-0.021080531179904938,-0.18230374157428741,-0.2881765365600586,-0.39002078771591187,-0.4877736270427704
0.15,0.05863313004374504,0.07927615940570831,0.0,0.99219810962677,0.0,0.0,-0.12467131018638611,0.0048957341350615025,0.6064350008964539,0.0,0.0,0.0,-2.4628868103027344,-0.409365177154541,0.6803633570671082,0.4200000464916229,1.0,3.518864104989916e-06,-2.283212324982742e-06,-3.625428917075624e-07,0.00026618369156494737,0.00026735756546258926,-0.00010425550863146782,-0.0017349214758723974,0.004195664543658495,-0.00012860912829637527,-0.2793869078159332,0.3203335404396057,1.1766592264175415,-2.2603306770324707,3.3342912197113037,-2.256852149963379,0.34524232149124146,0.6400033831596375,0.42000001668930054,-1.148293137550354,3.0,-0.2382120043039322,-3.0,-0.002278295112773776,-0.011465433053672314,-0.020638704299926758,-0.029804037883877754,-0.34429264068603516,-0.4222896993160248,-0.49578872323036194,-0.5648056268692017
0.16666666666666666,0.0642491802573204,0.0868455022573471,0.0,0.9859527349472046,0.0,0.0,-0.16702452301979065,0.36332836747169495,0.36182403564453125,0.0,0.0,0.0,-5.721654891967773,-0.409365177154541,0.6803633570671082,0.4200000464916229,1.0,3.666546717795427e-06,-2.3392813091049902e-06,-3.150027225728991e-07,0.0002659583115018904,0.00026667400379665196,-0.00010403734631836414,-0.001725324080325663,0.004192811902612448,-0.00012778834206983447,-0.315643846988678,0.3801690340042114,1.1330726146697998,-2.0231776237487793,3.836580276489258,-2.9647741317749023,0.34524232149124146,0.6400033831596375,0.42000001668930054,-1.0989183187484741,2.89060378074646,-0.20773562788963318,3.0000009536743164,-0.0070869894698262215,-0.017468435689806938,-0.027763105928897858,-0.03797895833849907,-0.49037736654281616,-0.5249761939048767,-0.5571638941764832,-0.5870862007141113
0.18333333333333332,0.06474236398935318,0.09592723101377487,0.0,0.9722537398338318,0.0,0.0,-0.2339288741350174,0.021157927811145782,0.5781847834587097,0.0,0.0,0.0,-9.014320373535156,-0.409365177154541,0.6803633570671082,0.4200000464916229,1.0,3.8142911762406584e-06,-2.3995992251002463e-06,-2.7027797955270216e-07,0.00026548971072770655,0.000266111281234771,-0.00010391324758529663,-0.0017178148264065385,0.004184778779745102,-0.00012754148337990046,-0.34599071741104126,0.44836050271987915,1.0764696598052979,-1.4763193130493164,4.430551052093506,-3.6215872764587402,0.34524232149124146,0.6400033831596375,0.42000001668930054,-1.049019694328308,2.9999992847442627,-0.23914127051830292,-3.000000238418579,-0.02212034910917282,-0.03232010453939438,-0.042423587292432785,-0.05244910717010498,-0.8767150044441223,-0.8754024505615234,-0.8722452521324158,-0.8676449656486511
0.2,0.06938958913087845,0.1062205582857132,0.0,0.9594820141792297,0.0,0.0,-0.2817698121070862,0.2990133762359619,0.6847816109657288,0.0,0.0,0.0,-4.791529178619385,-0.409365177154541,0.6803633570671082,0.4200000464916229,1.0,3.5999869396619033e-06,-2.2913013708603103e-06,-2.201937832069234e-07,0.00026573010836727917,0.0002664492931216955,-0.00010398332960903645,-0.0017227825010195374,0.004188841208815575,-0.00012773113849107176,-0.375013530254364,0.5152415037155151,1.0085344314575195,-1.4663561582565308,4.0489068031311035,-4.571998596191406,0.34524232149124146,0.6400033831596375,0.42000001668930054,-1.0005757808685303,2.7897403240203857,-0.28916823863983154,-3.000000238418579,-0.03607123717665672,-0.045868728309869766,-0.05550764128565788,-0.06506481766700745,-0.9845290184020996,-0.9556859731674194,-0.8871399164199829,-0.8208422660827637
0.21666666666666667,0.0712316557765007,0.11427007615566254,0.0,0.9553229212760925,0.0,0.0,-0.2955639958381653,0.06623335927724838,0.412469744682312,0.0,0.0,0.0,-0.6582308411598206,-0.409365177154541,0.6803633570671082,0.4200000464916229,0.9999999403953552,3.639563374235877e-06,-2.2620122308580903e-06,2.2247465381042275e-07,0.00026687391800805926,0.0002675444120541215,-0.00010411837138235569,-0.001740379841066897,0.004211025312542915,-0.00012783984129782766,-0.40316659212112427,0.5707324147224426,0.9267518520355225,-1.4430501461029053,3.118403911590576,-5.266090393066406,0.34524232149124146,0.6400033831596375,0.42000001668930054,-0.9506092667579651,2.999999761581421,-0.3391975164413452,-3.0000009536743164,-0.05229315534234047,-0.06211050599813461,-0.0717223584651947,-0.08051200956106186,-0.9865412712097168,-0.9865509271621704,-0.9711726903915405,-0.9390432238578796
0.23333333333333334,0.06898821145296097,0.12390419095754623,0.0,0.9470943808555603,0.0,0.0,-0.3209553062915802,-0.20297271013259888,0.5996790528297424,0.0,0.0,0.0,-3.9978811740875244,-0.40936514735221863,0.6803633570671082,0.4200000464916229,1.0,3.420630036998773e-06,-2.3168879579316126e-06,2.955902687062917e-07,0.0002668013039510697,0.0002680388279259205,-0.00010442384518682957,-0.0017437251517549157,0.004206957295536995,-0.00012900005094707012,-0.42380696535110474,0.61864173412323,0.8316356539726257,-1.0098339319229126,2.6068334579467773,-5.981231689453125,0.34524232149124146,0.6400033831596375,0.42000001668930054,-0.9005985856056213,3.000002384185791,-0.3892287015914917,-2.999999523162842,-0.06862061470746994,-0.07845606654882431,-0.08808079361915588,-0.09686090797185898,-0.9902419447898865,-0.9920653104782104,-0.9934412240982056,-0.9866141080856323
0.25,0.07120370119810104,0.12866879999637604,0.0,0.9441883563995361,0.0,0.0,-0.32940611243247986,0.11246167868375778,0.20820865035057068,0.0,0.0,0.0,-0.06729371100664139,-0.409365177154541,0.6803633570671082,0.4200000464916229,0.9999999403953552,3.347485289850738e-06,-2.2592903405893594e-06,1.8084206487856136e-07,0.0002668781380634755,0.00026791184791363776,-0.0001043954398483038,-0.001740514999255538,0.004208283498883247,-0.000128701634821482,-0.44173094630241394,0.6532970666885376,0.7304917573928833,-0.8063544034957886,1.5741252899169922,-6.244610786437988,0.34524232149124146,0.6400033831596375,0.42000001668930054,-0.8505879640579224,2.9999923706054688,-0.4392603635787964,-2.999998092651367,-0.08308147639036179,-0.09276886284351349,-0.10209117084741592,-0.1104845181107521,-0.9888553023338318,-0.9908797740936279,-0.9898154139518738,-0.9875943660736084
0.26666666666666666,0.0684666857123375,0.13055172562599182,0.0,0.9367189407348633,0.0,0.0,-0.3500823974609375,-0.25933071970939636,0.07818814367055893,0.0,0.0,0.0,-3.522456169128418,-0.409365177154541,0.6803633570671082,0.4200000464916229,0.9999999403953552,3.707919859152753e-06,-2.392595661149244e-06,-1.2726982845379098e-07,0.00026603692094795406,0.00026716693537309766,-0.00010421336628496647,-0.0017321702325716615,0.004193120636045933,-0.00012854926171712577,-0.44796526432037354,0.670863151550293,0.6238375902175903,0.08669698238372803,0.5263720154762268,-6.332600116729736,0.34524232149124146,0.6400033831596375,0.42000001668930054,-0.800578773021698,3.0000014305114746,-0.48929160833358765,-2.9999990463256836,-0.10084814578294754,-0.11023843288421631,-0.11933695524930954,-0.12755559384822845,-1.004462718963623,-1.003353476524353,-1.0025099515914917,-1.0018399953842163
0.2833333333333333,0.06246570870280266,0.13031984865665436,0.0,0.9353718161582947,0.0,0.0,-0.35366594791412354,-0.3355894684791565,-0.07732168585062027,0.0,0.0,0.0,0.47638311982154846,-0.409365177154541,0.6803634166717529,0.4200000464916229,0.9999999403953552,3.5725404359254753e-06,-2.304164354427485e-06,1.2984229158519156e-07,0.0002652165130712092,0.00026455134502612054,-0.00010317238047719002,-0.0017021878156811,0.004185077268630266,-0.00012500181037466973,-0.44452348351478577,0.6764819622039795,0.5257758498191833,0.37897107005119324,0.25511157512664795,-5.568302154541016,0.34524232149124146,0.6400033831596375,0.42000001668930054,-0.7505699992179871,3.0000011920928955,-0.5393214821815491,-2.9999985694885254,-0.11798705905675888,-0.127280130982399,-0.13627935945987701,-0.14441029727458954,-1.0050116777420044,-1.0037829875946045,-1.0028479099273682,-1.002100944519043
0.3,0.054984577000141144,0.1273021399974823,0.0,0.929145872592926,0.0,0.0,-0.3697133958339691,-0.4983645975589752,-0.22534318268299103,0.0,0.0,0.0,-2.9158341884613037,-0.409365177154541,0.6803633570671082,0.4200000464916229,1.0,3.744931063920376e-06,-2.238220076833386e-06,-1.7679303709883243e-07,0.00026436246116645634,0.00026623631129041314,-0.00010443315841257572,-0.0017120876582339406,0.004158840514719486,-0.0001299011637456715,-0.43150967359542847,0.6814265847206116,0.4332321882247925,1.1735599040985107,0.24217309057712555,-5.351381301879883,0.34524232149124146,0.6400033831596375,0.42000001668930054,-0.7005621790885925,3.0000009536743164,-0.5893492698669434,-3.000002145767212,-0.13546451926231384,-0.14456862211227417,-0.15342459082603455,-0.161441832780838,-1.0097558498382568,-1.0073989629745483,-1.0055975914001465,-1.0041494369506836
0.31666666666666665,0.04538368806242943,0.12192478775978088,0.0,0.9293473362922668,0.0,0.0,-0.36920666694641113,-0.6130770444869995,-0.36379340291023254,0.0,0.0,0.0,0.9959845542907715,-0.409365177154541,0.6803634166717529,0.4200000464916229,0.9999999403953552,3.6680191897175973e-06,-2.3073625925462693e-06,2.637042086917063e-07,0.00026690878439694643,0.00026760288164950907,-0.0001041253563016653,-0.0017413778696209192,0.0042116218246519566,-0.00012786732986569405,-0.43158045411109924,0.685995876789093,0.42834317684173584,0.08280325680971146,0.22919273376464844,-0.2666522264480591,0.34524232149124146,0.6400033831596375,0.42000001668930054,-0.6505575776100159,2.9999849796295166,-0.6398013830184937,-3.0000016689300537,-0.1447642594575882,-0.15334409475326538,-0.16141246259212494,-0.16833387315273285,-0.561344563961029,-0.5034208297729492,-0.43172624707221985,-0.3457728922367096
0.3333333333333333,0.03356914967298508,0.11424297839403152,0.0,0.9238943457603455,0.0,0.0,-0.38264769315719604,-0.7547467947006226,-0.5010038018226624,0.0,0.0,0.0,-2.6491141319274902,-0.408119797706604,0.6823843717575073,0.42000019550323486,0.9998540878295898,-6.4763817135826685e-06,4.559099124890054e-06,-0.017079152166843414,0.14387258887290955,0.2256348729133606,-0.00029748197994194925,0.012945909984409809,-0.001478556077927351,-3.9871864318847656,-0.42821377515792847,0.6888320446014404,0.4243452548980713,0.34388142824172974,0.2131003886461258,-0.21121586859226227,0.34524232149124146,0.6400033831596375,0.42000001668930054,-0.6005520820617676,2.9999778270721436,-0.6898710131645203,-2.999959945678711,-0.15523764491081238,-0.16230051219463348,-0.16860181093215942,-0.17353497445583344,-0.6402269601821899,-0.5267103314399719,-0.39862313866615295,-0.2593759000301361
0.35,0.019599802792072296,0.10421495139598846,0.0,0.9246283769607544,0.0,0.0,-0.3808705806732178,-0.8778079748153687,-0.6467289328575134,0.0,0.0,0.0,1.1442118883132935,-0.4043689966201782,0.6879438161849976,0.4200010895729065,0.9974543452262878,3.501840546960011e-05,-4.2182298784609884e-05,-0.07130767405033112,0.29848068952560425,0.42355620861053467,-0.0015627173706889153,-0.041411228477954865,0.07258614152669907,-8.581705093383789,-0.4220171868801117,0.6944146752357483,0.4218023419380188,0.3019983172416687,0.4601871967315674,0.19962622225284576,0.34524232149124146,0.6400033831596375,0.42000001668930054,-0.5505470037460327,3.0000007152557373,-0.73990797996521,-2.999937057495117,-0.1668006181716919,-0.17141228914260864,-0.17499347031116486,-0.17702928185462952,-0.6653660535812378,-0.5018587112426758,-0.31989309191703796,-0.12632963061332703
0.36666666666666664,0.009104868397116661,0.0912783220410347,0.0,0.9195931553840637,0.0,0.0,-0.39287200570106506,-0.5427551865577698,-0.825335681438446,0.0,0.0,0.0,-2.450514078140259,-0.3990066945552826,0.6954957842826843,0.42000052332878113,0.9882528185844421,-1.7430143998353742e-05,1.2946153219672851e-05,-0.15282751619815826,0.385159432888031,0.5324587821960449,-0.0005819866200909019,0.029734374955296516,-0.008304472081363201,-12.987970352172852,-0.41337770223617554,0.7031139135360718,0.42224350571632385,0.7617636919021606,0.6248743534088135,-0.12171044945716858,0.34524232149124146,0.6400033831596375,0.42000001668930054,-0.5005420446395874,2.9999935626983643,-0.7899320125579834,-3.000000238418579,-0.17747287452220917,-0.17895711958408356,-0.1790582686662674,-0.17740260064601898,-0.5893564820289612,-0.3879539668560028,-0.16528759896755219,0.06923311203718185
0.3833333333333333,-0.0036027489695698023,0.07670126110315323,0.0,0.9019508957862854,0.0,0.0,-0.43183863162994385,-0.8449278473854065,-0.8989356756210327,0.0,0.0,0.0,-6.071225643157959,-0.3865472674369812,0.7106689214706421,0.41999998688697815,0.9808831214904785,7.168205047491938e-05,-6.339189712889493e-05,-0.19459758698940277,0.88401198387146,1.0560106039047241,0.00016289259656332433,-0.15394039452075958,-0.04589617997407913,-5.176706790924072,-0.3972981870174408,0.7161614894866943,0.4200707674026489,1.1483237743377686,0.9657518267631531,0.0934038832783699,0.34524232149124146,0.6400033831596375,0.42000001668930054,-0.4505307078361511,2.9994583129882812,-0.839985191822052,-3.0000014305114746,-0.18851664662361145,-0.18637965619564056,-0.1825043112039566,-0.17669132351875305,-0.5872382521629333,-0.3804783225059509,-0.1513378769159317,0.08960755914449692
0.4,-0.013362448662519455,0.05920548364520073,0.0,0.8693878650665283,0.0,0.0,-0.49413031339645386,-0.5403172969818115,-1.090461254119873,0.0,0.0,0.0,-9.183539390563965,-0.3560551702976227,0.7343955039978027,0.42263007164001465,0.9692316055297852,-0.004310051444917917,-0.019880667328834534,-0.2453082650899887,2.9698641300201416,1.777789831161499,0.2283324897289276,30.864913940429688,-20.142675399780273,-0.41144639253616333,-0.3647335171699524,0.7399818301200867,0.4228903651237488,2.8850388526916504,1.8905467987060547,0.3535501956939697,0.34524232149124146,0.6400033831596375,0.42000001668930054,-0.40221738815307617,2.3684678077697754,-0.8900149464607239,-3.0000014305114746,-0.19771727919578552,-0.19190214574337006,-0.18400456011295319,-0.17401744425296783,-0.609150767326355,-0.3611180782318115,-0.09710218757390976,0.1703478991985321
0.4166666666666667,-0.02073441632091999,0.04722770303487778,0.0,0.8192506432533264,0.0,0.0,-0.5734355449676514,-0.3919147551059723,-0.590668261051178,0.0,0.0,0.0,-12.058788299560547,-0.28141555190086365,0.7692409753799438,0.428182989358902,0.9501346349716187,0.047804538160562515,-0.06319030374288559,-0.3016054034233093,6.022745609283447,2.6351535320281982,0.389028400182724,20.43859100341797,-16.513519287109375,5.040904998779297,-0.2894803285598755,0.7768667340278625,0.42786169052124023,5.732921123504639,2.5207486152648926,0.4108404219150543,0.34524232149124146,0.6400033831596375,0.42000001668930054,-0.36988207697868347,1.2572425603866577,-0.8529037237167358,2.9978299140930176,-0.21323749423027039,-0.20385275781154633,-0.1904190480709076,-0.1752304583787918,-0.8468629717826843,-0.7674849033355713,-0.4603484869003296,-0.18340550363063812
0.43333333333333335,-0.024584008380770683,0.0385400727391243,0.0,0.7779476046562195,0.0,0.0,-0.6283290982246399,-0.17271718382835388,-0.48614615201950073,0.0,0.0,0.0,-7.092170715332031,-0.18681120872497559,0.8061699867248535,0.4376944303512573,0.9091064929962158,0.09870436787605286,-0.0938200131058693,-0.393675833940506,6.076103687286377,1.5173481702804565,0.6998375058174133,10.309447288513184,-13.280172348022461,12.422836303710938,-0.19406118988990784,0.8163713216781616,0.4372645616531372,5.829416275024414,2.0010035037994385,0.6677709221839905,0.34524232149124146,0.6400033831596375,0.42000001668930054,-0.3585869073867798,0.5793734192848206,-0.8435981869697571,-1.4410455226898193,-0.22314828634262085,-0.2147592157125473,-0.19805148243904114,-0.17925426363945007,-0.5106066465377808,-0.5585944652557373,-0.40744975209236145,-0.24342955648899078
0.45,-0.030559424310922623,0.025680504739284515,0.0,0.7558446526527405,0.0,0.0,-0.6547510027885437,-0.29512250423431396,-0.7127658724784851,0.0,0.0,0.0,-2.859832525253296,-0.08936607092618942,0.8293817043304443,0.45011499524116516,0.8466618657112122,0.11347215622663498,-0.08489468693733215,-0.5129138231277466,5.906709671020508,-0.17729271948337555,0.48769432306289673,-7.264708995819092,-12.376383781433105,29.753280639648438,-0.09648464620113373,0.840154767036438,0.448727011680603,6.08151388168335,0.7288026213645935,0.8906084299087524,0.34524232149124146,0.6400033831596375,0.42000001668930054,-0.348742812871933,0.46921589970588684,-0.8921080231666565,-3.000006675720215,-0.23043318092823029,-0.2215317338705063,-0.20187275111675262,-0.18009382486343384,-0.7141866087913513,-0.5621622204780579,-0.3118450343608856,-0.0733652114868164
0.4666666666666667,-0.036880917847156525,0.018129270523786545,0.0,0.7264044284820557,0.0,0.0,-0.6872674822807312,-0.46916818618774414,-0.452693909406662,0.0,0.0,0.0,-5.970559597015381,0.008956365287303925,0.8258188366889954,0.460004597902298,0.7823581695556641,0.10665687173604965,-0.07581539452075958,-0.6089269518852234,5.873086929321289,-0.9820972681045532,0.30549436807632446,16.359188079833984,-16.823448181152344,1.786464810371399,0.0015137102454900742,0.8392496109008789,0.45876544713974,5.756176948547363,-0.6405125856399536,0.6015840768814087,0.34524232149124146,0.6400033831596375,0.42000001668930054,-0.34317946434020996,0.21927469968795776,-0.9421320557594299,-3.00000262260437,-0.24004842340946198,-0.23295532166957855,-0.20867405831813812,-0.18254122138023376,-0.014671850018203259,-0.570410430431366,-0.32864630222320557,-0.09720468521118164
0.48333333333333334,-0.04157138615846634,0.00635751336812973,0.0,0.7093276381492615,0.0,0.0,-0.7048789262771606,-0.2608228027820587,-0.7150523662567139,0.0,0.0,0.0,-1.8371118307113647,0.09972484409809113,0.8082234263420105,0.46575862169265747,0.7217199206352234,0.08506537973880768,-0.05643853917717934,-0.6846158504486084,4.88697624206543,-1.887892246246338,0.19639231264591217,-6.181520462036133,-2.3116040229797363,5.667544364929199,0.09370968490839005,0.8227881193161011,0.46481937170028687,5.312138080596924,-1.4845914840698242,0.27995017170906067,0.34524232149124146,0.6400033831596375,0.42000001668930054,-0.3408859074115753,0.3122258484363556,-0.9921560883522034,-2.999915838241577,-0.2380373328924179,-0.23821279406547546,-0.2108064740896225,-0.1818804144859314,-0.0037070144899189472,-0.2894917130470276,-0.11584696918725967,0.02591630257666111
0.5,-0.043601348996162415,-0.001209118403494358,0.0,0.6839134097099304,0.0,0.0,-0.7295631766319275,-0.040532972663640976,-0.42519623041152954,0.0,0.0,0.0,-5.047971248626709,0.17725816369056702,0.7796464562416077,0.46423977613449097,0.6827465891838074,0.06726133078336716,-0.05086865276098251,-0.7257721424102783,3.9936907291412354,-2.582991123199463,-0.31232181191444397,-9.593069076538086,-4.203823566436768,23.348047256469727,0.17373104393482208,0.7941169738769531,0.46447595953941345,4.551931381225586,-1.9475531578063965,-0.18391217291355133,0.34524232149124146,0.6400033831596375,0.42000001668930054,-0.3345765769481659,0.3753627836704254,-1.0421785116195679,-3.0000011920928955,-0.23954905569553375,-0.23970624804496765,-0.21359995007514954,-0.18318837881088257,0.031958550214767456,0.09351439028978348,-0.07717902213335037,-0.05926946923136711
0.5166666666666666,-0.04214603453874588,-0.005242379382252693,0.0,0.6734990477561951,0.0,0.0,-0.7391880750656128,0.121416836977005,-0.17284449934959412,0.0,0.0,0.0,-0.6468413472175598,0.24285191297531128,0.7457579374313354,0.4573604464530945,0.6253308057785034,0.03940872475504875,-0.033821288496255875,-0.7786298394203186,3.4732131958007812,-2.18642258644104,-0.5261913537979126,-0.2605826258659363,-3.8174972534179688,-3.4303596019744873,0.23980878293514252,0.7598256468772888,0.45807188749313354,3.4819140434265137,-2.2061564922332764,-0.49226176738739014,0.34524232149124146,0.6400033831596375,0.42000001668930054,-0.32511720061302185,0.7004381418228149,-1.0922006368637085,-3.0000016689300537,-0.2386496365070343,-0.23759664595127106,-0.2144806981086731,-0.18460966646671295,0.13701878488063812,0.20714044570922852,0.010759953409433365,-0.07535497099161148
0.5333333333333333,-0.03758890926837921,-0.013232660479843616,0.0,0.6530605554580688,0.0,0.0,-0.7573056817054749,0.26915276050567627,-0.5177808403968811,0.0,0.0,0.0,-4.090020179748535,0.2947525084018707,0.7131943702697754,0.44353339076042175,0.5804233551025391,0.011421743780374527,-0.022628851234912872,-0.813920259475708,2.478173017501831,-2.5657129287719727,-0.6594088077545166,6.158275127410889,14.97600269317627,3.7795424461364746,0.2917807102203369,0.7265794277191162,0.4451330900192261,2.6276626586914062,-1.990967869758606,-0.9603472948074341,0.34524232149124146,0.6400033831596375,0.42000001668930054,-0.30847322940826416,0.99748694896698,-1.1422227621078491,-2.999366521835327,-0.23058289289474487,-0.22942931950092316,-0.21065698564052582,-0.18373358249664307,0.4029408097267151,0.4399711787700653,0.2036103755235672,0.015075392089784145
0.55,-0.031280335038900375,-0.016828060150146484,0.0,0.6462970972061157,0.0,0.0,-0.7630859017372131,0.423265278339386,-0.18848055601119995,0.0,0.0,0.0,-0.08763062953948975,0.33113372325897217,0.6806125640869141,0.4263726770877838,0.5553249716758728,-0.02513844519853592,-0.002283887704834342,-0.8312503099441528,1.728942632675171,-2.4659554958343506,-0.9491257071495056,4.0629963874816895,12.347959518432617,8.209129333496094,0.32840073108673096,0.6932046413421631,0.42848899960517883,1.8243906497955322,-1.9025685787200928,-1.0761345624923706,0.34524232149124146,0.6400033831596375,0.42000001668930054,-0.2962472140789032,0.4658023715019226,-1.1922448873519897,-2.9993183612823486,-0.22630052268505096,-0.2242249846458435,-0.2090238332748413,-0.18536508083343506,0.3449844419956207,0.3633415400981903,0.12458363175392151,-0.11333990097045898
0.5666666666666667,-0.026796886697411537,-0.01777740940451622,0.0,0.6305630803108215,0.0,0.0,-0.7761380076408386,0.2149115353822708,-0.002660010941326618,0.0,0.0,0.0,-3.36187744140625,0.3504560589790344,0.6600393056869507,0.42256322503089905,0.5644121766090393,-0.01799924112856388,0.009760059416294098,-0.8252391219139099,0.7369599938392639,-1.5206137895584106,0.06844992935657501,5.852658271789551,2.8695833683013916,8.087102890014648,0.34669238328933716,0.6714483499526978,0.4250124394893646,0.7077044248580933,-1.066821575164795,-0.10990169644355774,0.34524232149124146,0.6400033831596375,0.42000001668930054,-0.28537917137145996,0.6265536546707153,-1.1539664268493652,3.000617504119873,-0.2186674326658249,-0.21719099581241608,-0.20640762150287628,-0.18722641468048096,0.49422961473464966,0.4415689706802368,0.17553198337554932,-0.10813941061496735
0.5833333333333334,-0.021367734298110008,-0.022998282685875893,0.0,0.6277781128883362,0.0,0.0,-0.7783923149108887,0.31539636850357056,-0.26081839203834534,0.0,0.0,0.0,0.4921118915081024,0.3579254746437073,0.6466548442840576,0.4226830005645752,0.5759681463241577,-0.026529759168624878,0.0349639430642128,-0.8162930011749268,0.05647290125489235,-1.0908007621765137,0.1358634978532791,6.1825737953186035,7.831880569458008,8.915115356445312,0.3537157475948334,0.6573506593704224,0.4259152412414551,0.03721795603632927,-0.6901035308837891,0.11565612256526947,0.34524232149124146,0.6400033831596375,0.42000001668930054,-0.2763638496398926,0.45503780245780945,-1.1757105588912964,-2.999389410018921,-0.20668146014213562,-0.20666654407978058,-0.20056715607643127,-0.18652081489562988,0.5477839708328247,0.5012703537940979,0.2739711403846741,0.0030098194256424904
0.6,-0.014163050800561905,-0.0234727431088686,0.0,0.6149088740348816,0.0,0.0,-0.7885981798171997,0.492299348115921,-0.020403478294610977,0.0,0.0,0.0,-2.776066780090332,0.35834094882011414,0.6391797661781311,0.42118048667907715,0.6103187203407288,-0.01873920112848282,0.023764828220009804,-0.7915775179862976,-0.00644198153167963,-0.29842811822891235,-0.06710343062877655,-1.274836540222168,-3.2918238639831543,5.638844966888428,0.35289156436920166,0.6488167643547058,0.4245236814022064,-0.07435031235218048,-0.30620822310447693,-0.09551232308149338,0.34524232149124146,0.6400033831596375,0.42000001668930054,-0.2785171568393707,-0.37283843755722046,-1.1378401517868042,2.9993748664855957,-0.19796015322208405,-0.19912953674793243,-0.19681759178638458,-0.18732358515262604,0.6019362807273865,0.5029827356338501,0.27030766010284424,-0.009295755997300148
0.6166666666666667,-0.009434377774596214,-0.0244044940918684,0.0,0.6155024766921997,0.0,0.0,-0.7881349325180054,0.22939245402812958,0.011054343543946743,0.0,0.0,0.0,0.9458425045013428,0.35716643929481506,0.6354390978813171,0.42000290751457214,0.6332663893699646,-2.020788269874174e-05,-5.975255771772936e-05,-0.7739338874816895,-0.14710476994514465,-0.15338464081287384,0.0035989563912153244,0.28153035044670105,-0.03286103159189224,1.831428050994873,0.35066699981689453,0.6456409692764282,0.42608511447906494,-0.23498839139938354,-0.14008070528507233,0.15843188762664795,0.34524232149124146,0.6400033831596375,0.42000001668930054,-0.3192402124404907,-2.9999547004699707,-1.159765362739563,-2.998699188232422,-0.18815292418003082,-0.1906907707452774,-0.19166827201843262,-0.18632711470127106,0.44603562355041504,0.3989992141723633,0.25058165192604065,0.04343390464782715
0.6333333333333333,-0.0034238467924296856,-0.021337373182177544,0.0,0.6375299096107483,0.0,0.0,-0.77042555809021,0.37894800305366516,0.24325241148471832,0.0,0.0,0.0,4.171652317047119,0.35493654012680054,0.6337342858314514,0.4200003445148468,0.6357941031455994,-3.864882728521479e-06,-9.35886419028975e-06,-0.7718586325645447,-0.1654110699892044,-0.06020604819059372,-0.0005359259666875005,0.03618348762392998,0.012437288649380207,-1.6254674196243286,0.3481639623641968,0.6465151309967041,0.4285995364189148,-0.14740821719169617,0.2287161648273468,0.1727360635995865,0.34524232149124146,0.6400033831596375,0.42000001668930054,-0.36276859045028687,-2.2257697582244873,-1.2097183465957642,-2.9983155727386475,-0.18145926296710968,-0.1848890781402588,-0.1880972981452942,-0.1859157383441925,0.473407119512558,0.3990088403224945,0.26175162196159363,0.07158509641885757
0.65,0.004018248058855534,-0.022318685427308083,0.0,0.6454973816871643,0.0,0.0,-0.7637624740600586,0.4351933002471924,-0.10012808442115784,0.0,0.0,0.0,0.20580150187015533,0.35312873125076294,0.6330568790435791,0.4199998676776886,0.627536952495575,3.003141728186165e-06,-5.546276952372864e-06,-0.7785868048667908,-0.08849852532148361,-0.034290239214897156,-2.912408672273159e-05,0.001364764990285039,0.0009302626131102443,-1.2211304903030396,0.34615403413772583,0.651436984539032,0.43293526768684387,-0.1268101930618286,0.2750589847564697,0.3038267493247986,0.34524232149124146,0.6400033831596375,0.42000001668930054,-0.4119797646999359,-3.0000338554382324,-1.259672999382019,-2.998711347579956,-0.1700059324502945,-0.17499826848506927,-0.18048527836799622,-0.18134069442749023,0.6242973804473877,0.5680229663848877,0.48074010014533997,0.3479693531990051
0.6666666666666666,0.012907142750918865,-0.025948362424969673,0.0,0.6314796805381775,0.0,0.0,-0.7753924131393433,0.5683106184005737,-0.2854219079017639,0.0,0.0,0.0,-3.197389841079712,0.3521837890148163,0.632745623588562,0.419999897480011,0.6279050707817078,1.498090000495722e-06,-1.191991373161727e-06,-0.7782899141311646,-0.017510971054434776,-0.011244058609008789,-7.116061169654131e-06,-0.006852565333247185,-0.001282486948184669,-0.7361608147621155,0.3475852310657501,0.654579758644104,0.4402061998844147,0.29374104738235474,0.1514800488948822,0.7005566954612732,0.34524232149124146,0.6400033831596375,0.42000001668930054,-0.4619933068752289,-2.999990463256836,-1.3096914291381836,-2.999999761581421,-0.16410019993782043,-0.1690833568572998,-0.17485621571540833,-0.17670927941799164,0.2531558871269226,0.28301891684532166,0.30635514855384827,0.2904110848903656
0.6833333333333333,0.025633595883846283,-0.02545025385916233,0.0,0.5951002836227417,0.0,0.0,-0.8036514520645142,0.7128172516822815,0.09640410542488098,0.0,0.0,0.0,-6.62741231918335,0.35218343138694763,0.6327459812164307,0.41999998688697815,0.6279053092002869,5.391746640270867e-07,-6.0492543525469955e-06,-0.7782897353172302,0.0002811932354234159,-0.0004259715788066387,-9.207078255712986e-05,0.010006853379309177,-0.0016020886832848191,-0.0008923624409362674,0.3592566251754761,0.6515404582023621,0.45855358242988586,1.3157477378845215,-0.389771431684494,1.6062119007110596,0.34524232149124146,0.6400033831596375,0.42000001668930054,-0.5120058655738831,-2.999927520751953,-1.3597097396850586,-2.9999947547912598,-0.1676751673221588,-0.17073838412761688,-0.1746179610490799,-0.1752747744321823,-0.20889216661453247,-0.10018762946128845,0.017774658277630806,0.10087183117866516
0.7,0.03803139552474022,-0.021823622286319733,0.0,0.5718318819999695,0.0,0.0,-0.8203707933425903,0.7834456562995911,0.22441072762012482,0.0,0.0,0.0,-2.342501401901245,0.3521835505962372,0.6327458620071411,0.4200000464916229,0.6279051303863525,6.016250040374871e-07,-3.686262061819434e-06,-0.7782899141311646,0.0001802373444661498,-0.0002836479397956282,-0.00010115792974829674,0.00581725686788559,-0.0004895157762803137,-0.0005421026726253331,0.3798704147338867,0.6502400040626526,0.48526638746261597,1.142009973526001,0.15862134099006653,1.5880303382873535,0.34524232149124146,0.6400033831596375,0.42000001668930054,-0.5343480706214905,0.0695115178823471,-1.4097280502319336,-3.000000238418579,-0.17051133513450623,-0.17249038815498352,-0.1750863790512085,-0.1750207096338272,-0.05496846139431,-0.04442238062620163,-0.01948177069425583,-0.02581346221268177
0.7166666666666667,0.04685718193650246,-0.019679587334394455,0.0,0.5753686428070068,0.0,0.0,-0.8178942203521729,0.4447908401489258,0.1446523368358612,0.0,0.0,0.0,1.4119315147399902,0.3521835505962372,0.6327458620071411,0.4200000464916229,0.6279052495956421,5.681980042027135e-07,-3.5101870707876515e-06,-0.7782897353172302,0.00018146545335184783,-0.00028212941833771765,-0.0001015497837215662,0.005771034397184849,-0.0004715587419923395,-0.0005448235897347331,0.3971378803253174,0.6574246883392334,0.506263017654419,0.8326916694641113,0.5830202102661133,0.9658629894256592,0.34524232149124146,0.6400033831596375,0.42000001668930054,-0.5131638646125793,2.2636337280273438,-1.371259093284607,2.9999990463256836,-0.16751985251903534,-0.169838547706604,-0.17249228060245514,-0.17295226454734802,0.24515600502490997,0.2208935022354126,0.21330730617046356,0.17810885608196259
0.7333333333333333,0.05161731690168381,-0.02164127677679062,0.0,0.5788103342056274,0.0,0.0,-0.8154621720314026,0.23102650046348572,-0.18273940682411194,0.0,0.0,0.0,0.16035644710063934,0.3521835505962372,0.6327458620071411,0.4200000464916229,0.6279050707817078,6.008445438965282e-07,-3.623386419349117e-06,-0.7782898545265198,0.00018109344819094986,-0.000282279186649248,-0.00010142428800463676,0.005776924081146717,-0.000475930399261415,-0.0005439745727926493,0.4047390818595886,0.6662672758102417,0.5170632600784302,0.05453883484005928,0.49045008420944214,0.4761228859424591,0.34524232149124146,0.6400033831596375,0.42000001668930054,-0.4843129813671112,1.260048747062683,-1.321210265159607,3.000000476837158,-0.1639348566532135,-0.1662924736738205,-0.1687518060207367,-0.16950635612010956,0.1478569656610489,0.16874177753925323,0.20013335347175598,0.20008547604084015
0.75,0.0532616525888443,-0.01818322390317917,0.0,0.5975836515426636,0.0,0.0,-0.8018065690994263,0.051509592682123184,0.35112643241882324,0.0,0.0,0.0,3.6517324447631836,0.3521835505962372,0.6327458620071411,0.4200000464916229,0.6279050707817078,5.972530630060646e-07,-3.8042151118133916e-06,-0.7782899141311646,0.0001820363977458328,-0.00028245701105333865,-0.0001016280148178339,0.005775833036750555,-0.00046471896348521113,-0.0005459753447212279,0.4004032611846924,0.673954963684082,0.5222680568695068,-0.5254714488983154,0.503264844417572,0.17979854345321655,0.34524232149124146,0.6400033831596375,0.42000001668930054,-0.4627538025379181,1.3066561222076416,-1.2926459312438965,0.6112453937530518,-0.16750885546207428,-0.16827723383903503,-0.16909217834472656,-0.16883333027362823,-0.2845384478569031,-0.1793978363275528,-0.07335887104272842,-0.004977991804480553
0.7666666666666666,0.05224866792559624,-0.01684018224477768,0.0,0.6017667055130005,0.0,0.0,-0.7986719012260437,-0.10357076674699783,0.03730444237589836,0.0,0.0,0.0,-0.2734988331794739,0.3521835505962372,0.6327458620071411,0.4200000464916229,0.6279051899909973,6.262797000999853e-07,-3.831564754364081e-06,-0.7782897353172302,0.00018197071040049195,-0.00028211629251018167,-0.00010167923755943775,0.0057680667378008366,-0.0004653032519854605,-0.0005459250533021986,0.38775038719177246,0.6789652705192566,0.5191582441329956,-1.0125911235809326,0.13256175816059113,-0.34338289499282837,0.34524232149124146,0.6400033831596375,0.42000001668930054,-0.4795295298099518,-2.9392995834350586,-1.2442296743392944,2.9999992847442627,-0.1709425449371338,-0.17009463906288147,-0.1692279875278473,-0.1678456813097,-0.2344500869512558,-0.12595494091510773,-0.013114910572767258,0.06766650825738907
0.7833333333333333,0.052883330732584,-0.01850670576095581,0.0,0.6158668398857117,0.0,0.0,-0.7878502607345581,0.0904477909207344,-0.16367411613464355,0.0,0.0,0.0,2.9779748916625977,0.3521835505962372,0.6327458620071411,0.4200000464916229,0.627905011177063,5.937788500887109e-07,-3.648886604423751e-06,-0.7782899141311646,0.00018152419943362474,-0.0002824925468303263,-0.00010149646550416946,0.005779350642114878,-0.0004712293448392302,-0.0005448663723655045,0.3761586546897888,0.6819021701812744,0.5135462284088135,-0.4183378219604492,0.2199001908302307,-0.262878954410553,0.34524232149124146,0.6400033831596375,0.42000001668930054,-0.5294869542121887,-2.999999523162842,-1.2650065422058105,-2.9999990463256836,-0.17556129395961761,-0.17265047132968903,-0.1695472002029419,-0.1663036197423935,-0.2443062961101532,-0.12311303615570068,0.01378228235989809,0.1374673694372177
0.8,0.055966559797525406,-0.023164667189121246,0.0,0.6158984899520874,0.0,0.0,-0.7878255248069763,0.22076165676116943,-0.3286915421485901,0.0,0.0,0.0,-0.9237154722213745,0.3521835505962372,0.6327458620071411,0.4200000464916229,0.6279051899909973,5.847790021107357e-07,-3.470653837212012e-06,-0.7782898545265198,0.00018132956756744534,-0.00028207950526848435,-0.00010151881724596024,0.005770492367446423,-0.00047315406845882535,-0.0005445286515168846,0.37309128046035767,0.6833715438842773,0.5057268142700195,0.049696508795022964,-0.02276293933391571,-0.4671834111213684,0.34524232149124146,0.6400033831596375,0.42000001668930054,-0.5794957280158997,-2.999999523162842,-1.3150248527526855,-3.0000007152557373,-0.1802811622619629,-0.17520752549171448,-0.1696021407842636,-0.16394244134426117,-0.2572810649871826,-0.12550845742225647,0.029308130964636803,0.18511338531970978
0.8166666666666667,0.06141100078821182,-0.030864212661981583,0.0,0.5945934057235718,0.0,0.0,-0.8040265440940857,0.3706771731376648,-0.5207042098045349,0.0,0.0,0.0,-4.111912250518799,0.3521835505962372,0.6327458620071411,0.4200000464916229,0.6279052495956421,5.117708496982232e-07,-3.4754141324810917e-06,-0.7782896757125854,0.0001789632224244997,-0.00028296755044721067,-0.00010082288645207882,0.005803795997053385,-0.0005049409228377044,-0.0005394648178480566,0.37715184688568115,0.6792889833450317,0.5029348134994507,0.4529905915260315,-0.39124417304992676,0.26967352628707886,0.34524232149124146,0.6400033831596375,0.42000001668930054,-0.6295064091682434,-2.999965190887451,-1.3650431632995605,-2.9999992847442627,-0.18599024415016174,-0.1786690056324005,-0.17043834924697876,-0.16208714246749878,-0.3410436809062958,-0.21637338399887085,-0.06964211165904999,0.08376186341047287
0.8333333333333334,0.07089460641145706,-0.03361723944544792,0.0,0.5863440036773682,0.0,0.0,-0.8100621700286865,0.48194077610969543,-0.1068677082657814,0.0,0.0,0.0,-0.17695744335651398,0.3521835505962372,0.6327458620071411,0.4200000464916229,0.6279051303863525,6.046135467840941e-07,-3.5842824672727147e-06,-0.7782899141311646,0.0001809365930967033,-0.00028224929701536894,-0.00010138656944036484,0.005777046084403992,-0.0004777707508765161,-0.0005436292267404497,0.3838226795196533,0.6762890219688416,0.5127884149551392,0.38058871030807495,0.13188141584396362,0.8719400763511658,0.34524232149124146,0.6400033831596375,0.42000001668930054,-0.6473925709724426,0.5586604475975037,-1.4150614738464355,-3.0,-0.19451525807380676,-0.18531018495559692,-0.1749812215566635,-0.16451312601566315,-0.2661105990409851,-0.24759580194950104,-0.21527516841888428,-0.17606277763843536
0.85,0.07595052570104599,-0.041971925646066666,0.0,0.602021336555481,0.0,0.0,-0.7984799742698669,0.2795567214488983,-0.5782623887062073,0.0,0.0,0.0,3.108280897140503,0.3521835505962372,0.6327458620071411,0.4200000464916229,0.6279052495956421,6.160415182421275e-07,-3.780764473049203e-06,-0.7782897353172302,0.00018190345144830644,-0.0002821139642037451,-0.00010167155414819717,0.005768247880041599,-0.0004663731378968805,-0.0005457928054966033,0.3943314552307129,0.6781684160232544,0.5231196880340576,0.6914534568786621,-0.013013742864131927,0.43618500232696533,0.34524232149124146,0.6400033831596375,0.42000001668930054,-0.638900637626648,0.45818328857421875,-1.376571536064148,3.000000238418579,-0.19374200701713562,-0.18476556241512299,-0.17437511682510376,-0.1636282056570053,0.02166018821299076,0.03749888390302658,0.06698466837406158,0.10706502199172974
0.8666666666666667,0.0781877338886261,-0.04640301316976547,0.0,0.6039566993713379,0.0,0.0,-0.7970171570777893,0.07517188787460327,-0.23010745644569397,0.0,0.0,0.0,-0.6261667013168335,0.3521835505962372,0.6327458620071411,0.4200000464916229,0.6279050707817078,5.984197741781827e-07,-3.590243068174459e-06,-0.7782899141311646,0.00018125618225894868,-0.00028245101566426456,-0.00010143290273845196,0.0057797543704509735,-0.00047433737199753523,-0.0005442756810225546,0.4033519923686981,0.6745958924293518,0.5267817378044128,0.4835057258605957,-0.2804996371269226,0.1481124460697174,0.34524232149124146,0.6400033831596375,0.42000001668930054,-0.6423579454421997,-0.7630549073219299,-1.395121693611145,-3.000000476837158,-0.1962372064590454,-0.186666801571846,-0.17553627490997314,-0.16393794119358063,-0.028392497450113297,-0.02588980458676815,-0.0147951515391469,0.004885142203420401
0.8833333333333333,0.08084000647068024,-0.04932931438088417,0.0,0.6161736249923706,0.0,0.0,-0.7876103520393372,0.2075953632593155,-0.0896306112408638,0.0,0.0,0.0,2.5768470764160156,0.3521835505962372,0.6327458620071411,0.4200000464916229,0.6279051899909973,6.095776825532084e-07,-3.7866514048801037e-06,-0.7782897353172302,0.00018190723494626582,-0.0002821158559527248,-0.00010167225264012814,0.00576828233897686,-0.00046631976147182286,-0.0005458018276840448,0.4113049805164337,0.6711117029190063,0.5287306904792786,0.44143760204315186,-0.20064561069011688,0.13869540393352509,0.34524232149124146,0.6400033831596375,0.42000001668930054,-0.6481912136077881,-6.067093636374921e-07,-1.44514000415802,-2.9999990463256836,-0.1944994479417801,-0.18546795845031738,-0.17467080056667328,-0.1631726622581482,0.14234888553619385,0.09925656020641327,0.06842032819986343,0.05271301046013832
