vladlanda/robotic-transformer/data/env_000_episode_0003.csv
sim_time_s,robot_box_x,robot_box_y,robot_box_z,robot_box_quat_w,robot_box_quat_x,robot_box_quat_y,robot_box_quat_z,robot_box_linvel_x,robot_box_linvel_y,robot_box_linvel_z,robot_box_angvel_x,robot_box_angvel_y,robot_box_angvel_z,cube_world_x,cube_world_y,cube_world_z,cube_quat_w,cube_quat_x,cube_quat_y,cube_quat_z,cube_linvel_x,cube_linvel_y,cube_linvel_z,cube_angvel_x,cube_angvel_y,cube_angvel_z,endpoint_world_x,endpoint_world_y,endpoint_world_z,endpoint_linvel_x,endpoint_linvel_y,endpoint_linvel_z,target_cube_world_x,target_cube_world_y,target_cube_world_z,gripper_actual_pos_rad_gp_leftgearjoint,gripper_actual_vel_rad_s_gp_leftgearjoint,gripper_actual_pos_rad_gp_rotatingjoint,gripper_actual_vel_rad_s_gp_rotatingjoint,motor_angle_rad_joint1,motor_angle_rad_joint2,motor_angle_rad_joint3,motor_angle_rad_joint4,motor_speed_rad_s_joint1,motor_speed_rad_s_joint2,motor_speed_rad_s_joint3,motor_speed_rad_s_joint4
0.0,0.0,0.0,0.0,1.0,0.0,0.0,0.0,0.0,0.0,0.0,0.0,0.0,0.0,-0.40077874064445496,0.6201949119567871,0.41999998688697815,1.0,0.0,0.0,0.0,0.0,0.0,0.0,0.0,0.0,0.0,3.42540442943573e-06,-0.005000244826078415,1.313499927520752,0.0,0.0,0.0,0.44533056020736694,0.6466659307479858,0.42000001668930054,-1.5707999467849731,0.0,0.0,0.0,0.0,0.0,0.0,0.0,0.0,0.0,0.0,0.0
0.016666666666666666,0.0028778850100934505,0.0021806680597364902,0.0,0.9998081922531128,0.0,0.0,0.019586581736803055,0.24087215960025787,0.18240931630134583,0.0,0.0,0.0,3.1418697834014893,-0.4007788598537445,0.6201946139335632,0.41999998688697815,1.0,3.279964630564791e-06,-8.339746386809566e-07,8.465587342243452e-08,-1.9833529222523794e-05,0.00017983045836444944,-6.132945418357849e-05,0.0009432713268324733,-0.004689474124461412,-0.00031981561915017664,-0.007110234349966049,0.003379564033821225,1.3159373998641968,-0.8143353462219238,0.9868683815002441,0.18095196783542633,0.44533056020736694,0.6466659307479858,0.42000001668930054,-1.5301095247268677,3.0000011920928955,-0.04584788903594017,-2.9999992847442627,0.0008691533003002405,0.0007963840034790337,0.0007110277656465769,0.0006108740926720202,0.11094217747449875,0.09756709635257721,0.08334315568208694,0.06823883205652237
0.03333333333333333,0.008960949257016182,0.006801774259656668,0.0,0.9997960329055786,0.0,0.0,0.020196830853819847,0.40701788663864136,0.31530144810676575,0.0,0.0,0.0,-0.8691303730010986,-0.40077897906303406,0.6201945543289185,0.4200000464916229,1.0,3.3908179375430336e-06,-2.132458348569344e-06,-3.7097745320124886e-08,0.00026357852038927376,0.00026937833172269166,-0.00010509369894862175,-0.0017707126680761576,0.004130884539335966,-0.0001354814594378695,-0.027539709582924843,0.02571106143295765,1.3166711330413818,-1.5909502506256104,1.5972316265106201,-0.07609068602323532,0.44533056020736694,0.6466659307479858,0.42000001668930054,-1.4800903797149658,3.0000016689300537,-0.09588772058486938,-3.000000476837158,0.002990217413753271,0.002652874682098627,0.0022774888202548027,0.001860984368249774,0.16423320770263672,0.13978056609630585,0.11384312063455582,0.08632859587669373
0.05,0.017612038180232048,0.013742265291512012,0.0,0.9994217753410339,0.0,0.0,0.03400210291147232,0.5899537801742554,0.4640291631221771,0.0,0.0,0.0,2.6725716590881348,-0.40077900886535645,0.6201946139335632,0.4200000464916229,1.0,3.7651293496310245e-06,-2.2119379536889028e-06,5.6273887771851605e-09,0.0002653067058417946,0.00026691422681324184,-0.00010440615005791187,-0.0017243530601263046,0.00417736079543829,-0.00012949267693329602,-0.05957549065351486,0.05282489210367203,1.3119443655014038,-2.1858725547790527,1.6824378967285156,-0.44767487049102783,0.44533056020736694,0.6466659307479858,0.42000001668930054,-1.4300720691680908,3.0000016689300537,-0.14592304825782776,-3.000002384185791,0.005659992806613445,0.0048708305694162846,0.004009556025266647,0.003071190556511283,0.19210436940193176,0.15521842241287231,0.1164626032114029,0.07575587183237076
0.06666666666666667,0.02886599488556385,0.023017648607492447,0.0,0.9994850158691406,0.0,0.0,0.032088324427604675,0.7166901230812073,0.5941838622093201,0.0,0.0,0.0,-1.1879440546035767,-0.40077900886535645,0.6201945543289185,0.4200000464916229,0.9999999403953552,3.406754103707499e-06,-2.2856077066535363e-06,4.300980265270482e-07,0.0002670255198609084,0.0002679179306142032,-0.0001043803058564663,-0.001740670995786786,0.004211848136037588,-0.00012850687198806554,-0.09851014614105225,0.08572421967983246,1.2999029159545898,-2.488311767578125,2.1409082412719727,-0.9708928465843201,0.44533056020736694,0.6466659307479858,0.42000001668930054,-1.3800445795059204,3.000004768371582,-0.12063322216272354,2.9999990463256836,0.008260081522166729,0.006793375127017498,0.005215458106249571,0.0035211483482271433,0.15427090227603912,0.10437483340501785,0.05245952308177948,-0.0015695204492658377
0.08333333333333333,0.043353673070669174,0.03440236300230026,0.0,0.9999986290931702,0.0,0.0,0.0016595060005784035,0.9343624114990234,0.7267367839813232,0.0,0.0,0.0,-4.506930351257324,-0.40077900886535645,0.6201945543289185,0.4200000464916229,1.0,3.697269221447641e-06,-2.188940243286197e-06,-2.6321629320591455e-07,0.00026389610138721764,0.0002658638986758888,-0.00010433932766318321,-0.0017081708647310734,0.004150133114308119,-0.00012991161202080548,-0.13878995180130005,0.12336839735507965,1.2824314832687378,-2.4066500663757324,2.26731014251709,-1.1332132816314697,0.44533056020736694,0.6466659307479858,0.42000001668930054,-1.3300375938415527,2.9999988079071045,-0.1526220738887787,-2.999999761581421,0.010103489272296429,0.00767345679923892,0.005091582424938679,0.0023528574965894222,0.0877210795879364,0.02038596197962761,-0.04906732216477394,-0.12063252180814743
0.1,0.051994193345308304,0.04322716221213341,0.0,0.9999356865882874,0.0,0.0,-0.011340273544192314,0.3731166124343872,0.4503476023674011,0.0,0.0,0.0,-0.5783790349960327,-0.40077900886535645,0.6201945543289185,0.4200000464916229,0.9999999403953552,3.6203723539074417e-06,-2.2652432107861387e-06,1.7462606649587542e-07,0.00026676998822949827,0.00026740916655398905,-0.0001040794886648655,-0.0017386159161105752,0.0042092096991837025,-0.00012775268987752497,-0.181690976023674,0.15773341059684753,1.2603468894958496,-2.538351058959961,2.120450019836426,-1.4398748874664307,0.44533056020736694,0.6466659307479858,0.42000001668930054,-1.28001070022583,2.9999966621398926,-0.11903104186058044,3.000000476837158,0.005156191531568766,0.002022134605795145,-0.0013154522748664021,-0.004864916671067476,-0.4224819839000702,-0.46674656867980957,-0.5136106014251709,-0.5633161067962646
0.11666666666666667,0.055303461849689484,0.05507565289735794,0.0,0.9992792010307312,0.0,0.0,-0.03796207904815674,0.36778971552848816,0.6457871198654175,0.0,0.0,0.0,-3.5744802951812744,-0.40077900886535645,0.6201945543289185,0.4200000464916229,1.0,3.7983443235134473e-06,-2.2628721580986166e-06,-1.5019327292975504e-07,0.00026374091976322234,0.0002656608703546226,-0.00010428996756672859,-0.0017054241616278887,0.004147560801357031,-0.00012980113388039172,-0.22048762440681458,0.19920702278614044,1.2328026294708252,-2.2304391860961914,2.784291982650757,-1.5961195230484009,0.44533056020736694,0.6466659307479858,0.42000001668930054,-1.2300068140029907,3.00000262260437,-0.15101782977581024,-3.0,-0.0028742672875523567,-0.007017156574875116,-0.01137674879282713,-0.01596575416624546,-0.12022749334573746,-0.24429640173912048,-0.3647508919239044,-0.4814804494380951
0.13333333333333333,0.06692840903997421,0.06256595253944397,0.0,0.9958988428115845,0.0,0.0,-0.09047387540340424,0.8998171091079712,0.35013237595558167,0.0,0.0,0.0,-7.321556568145752,-0.40077900886535645,0.6201946139335632,0.4200000464916229,0.9999999403953552,3.550494056980824e-06,-2.2298402200249257e-06,2.929137679075211e-07,0.00026703279581852257,0.0002677927550394088,-0.00010417005978524685,-0.0017440064111724496,0.00421349098905921,-0.00012799979595001787,-0.2584669291973114,0.25000470876693726,1.201197624206543,-2.2711589336395264,3.2457871437072754,-2.1999552249908447,0.44533056020736694,0.6466659307479858,0.42000001668930054,-1.1799964904785156,2.999992609024048,-0.11747784167528152,3.000000476837158,-0.0017071989132091403,-0.008133532479405403,-0.014688469469547272,-0.021382376551628113,0.12886402010917664,-1.1100200936198235e-07,-0.1254103034734726,-0.24411043524742126
0.15,0.07540207356214523,0.06756410002708435,0.0,0.9925095438957214,0.0,0.0,-0.1221671849489212,0.4242608845233917,0.2581463158130646,0.0,0.0,0.0,-2.674020528793335,-0.40077900886535645,0.6201945543289185,0.4200000464916229,0.9999999403953552,3.338043143230607e-06,-2.2429089767683763e-06,-2.8016239994599346e-08,0.00026674362015910447,0.0002675791038200259,-0.00010427739471197128,-0.0017366725951433182,0.0042068627662956715,-0.00012831800268031657,-0.29746222496032715,0.30110639333724976,1.1591620445251465,-2.092055320739746,3.287717342376709,-2.7019107341766357,0.44533056020736694,0.6466659307479858,0.42000001668930054,-1.1300010681152344,2.999999523162842,-0.14942365884780884,-2.999999761581421,-0.007570649962872267,-0.015207488089799881,-0.02295389398932457,-0.030779290944337845,-0.45570793747901917,-0.5192565321922302,-0.5814455151557922,-0.6403246521949768
0.16666666666666666,0.07905521243810654,0.07451777160167694,0.0,0.986507773399353,0.0,0.0,-0.1637144833803177,0.18480679392814636,0.41305088996887207,0.0,0.0,0.0,-5.689653396606445,-0.40077900886535645,0.6201946139335632,0.4200000464916229,0.9999999403953552,3.6478172660281416e-06,-2.3073148440744262e-06,3.5270211640181515e-08,0.00026726824580691755,0.0002680130710359663,-0.00010418565943837166,-0.0017472313484176993,0.004217550624161959,-0.0001279815041925758,-0.33267074823379517,0.3582802712917328,1.1062953472137451,-1.9962961673736572,3.6108202934265137,-3.516758918762207,0.44533056020736694,0.6466659307479858,0.42000001668930054,-1.0799980163574219,2.9999983310699463,-0.19943362474441528,-3.000000238418579,-0.01805824413895607,-0.026394112035632133,-0.034805599600076675,-0.04323996603488922,-0.6158640384674072,-0.6542232632637024,-0.6894389986991882,-0.7204988598823547
0.18333333333333332,0.08146264404058456,0.0835728570818901,0.0,0.9750617146492004,0.0,0.0,-0.22193396091461182,0.07563942670822144,0.6022569537162781,0.0,0.0,0.0,-7.740566253662109,-0.40077900886535645,0.6201945543289185,0.4200000464916229,0.9999999403953552,3.2905281841522083e-06,-2.1939001726423157e-06,-2.7923803713747475e-07,0.0002667795342858881,0.00026776199229061604,-0.0001043418888002634,-0.001739125233143568,0.004206986166536808,-0.00012845758465118706,-0.3646484911441803,0.42127498984336853,1.0394847393035889,-1.5646483898162842,4.02521276473999,-4.420437812805176,0.44533056020736694,0.6466659307479858,0.42000001668930054,-1.0299948453903198,3.0,-0.24946223199367523,-3.000000476837158,-0.03012019954621792,-0.03882257640361786,-0.04754449799656868,-0.05622488260269165,-0.8134790062904358,-0.8181191682815552,-0.8196581602096558,-0.8179733753204346
0.2,0.08910540491342545,0.08864276856184006,0.0,0.9654737114906311,0.0,0.0,-0.2605004906654358,0.5303117632865906,0.3393059968948364,0.0,0.0,0.0,-3.4362235069274902,-0.40077900886535645,0.6201945543289185,0.4200000464916229,1.0,3.2807477055030176e-06,-2.2192027699929895e-06,1.594728331610895e-07,0.00026627787156030536,0.00026740014436654747,-0.0001042510848492384,-0.0017356369644403458,0.004197677131742239,-0.00012865001917816699,-0.39302271604537964,0.4801847040653229,0.9612924456596375,-1.287942886352539,3.5132226943969727,-5.096485137939453,0.44533056020736694,0.6466659307479858,0.42000001668930054,-0.9799879789352417,3.0000014305114746,-0.29949092864990234,-2.9999990463256836,-0.04033192992210388,-0.04901540279388428,-0.057677604258060455,-0.06626219302415848,-0.8290420770645142,-0.7798123359680176,-0.7310212850570679,-0.683445155620575
0.21666666666666667,0.09181958436965942,0.09776543080806732,0.0,0.9511934518814087,0.0,0.0,-0.308595210313797,0.06712454557418823,0.5201202630996704,0.0,0.0,0.0,-6.8680338859558105,-0.40077900886535645,0.6201946139335632,0.4200000464916229,1.0,3.613160288296058e-06,-2.270090135425562e-06,2.210125700230492e-07,0.00026712537510320544,0.0002678160381037742,-0.0001041400246322155,-0.0017444418044760823,0.0042151897214353085,-0.0001278668933082372,-0.41125601530075073,0.5336763858795166,0.8694696426391602,-0.7521389722824097,3.079366445541382,-5.688680648803711,0.44533056020736694,0.6466659307479858,0.42000001668930054,-0.929977297782898,2.9999983310699463,-0.3495217561721802,-2.9999988079071045,-0.0568857416510582,-0.06545596569776535,-0.0740477442741394,-0.08257538825273514,-0.9482842087745667,-0.9452420473098755,-0.9496129751205444,-0.9571640491485596
0.23333333333333334,0.09242765605449677,0.10284337401390076,0.0,0.9418626427650452,0.0,0.0,-0.3359981179237366,-0.053808510303497314,0.26778966188430786,0.0,0.0,0.0,-2.311025381088257,-0.40077900886535645,0.6201945543289185,0.4200000464916229,1.0,3.3818625979620265e-06,-2.290899601575802e-06,2.7279764935883577e-07,0.0002669132372830063,0.00026779971085488796,-0.00010433327406644821,-0.0017395989270880818,0.004209729842841625,-0.00012843607692047954,-0.42568719387054443,0.5749792456626892,0.7736832499504089,-0.5246739387512207,2.1194193363189697,-5.915984153747559,0.44533056020736694,0.6466659307479858,0.42000001668930054,-0.8799666166305542,2.99999737739563,-0.39955341815948486,-3.0000007152557373,-0.07187705487012863,-0.08065035194158554,-0.08933281153440475,-0.09779813885688782,-0.9909910559654236,-0.9924992322921753,-0.9937323927879333,-0.9849027991294861
0.25,0.0894378125667572,0.10464932024478912,0.0,0.9429200291633606,0.0,0.0,-0.3330191969871521,-0.23076239228248596,0.043222542852163315,0.0,0.0,0.0,1.3319575786590576,-0.40077897906303406,0.6201945543289185,0.4200000464916229,0.9999999403953552,3.706540383063839e-06,-2.2229808109841542e-06,-2.2549713207808963e-07,0.00026424849056638777,0.00026656684349291027,-0.00010457984171807766,-0.0017169424099847674,0.0041556889191269875,-0.0001306327903876081,-0.43708309531211853,0.5988874435424805,0.6758958101272583,-0.5534858703613281,0.87386155128479,-5.8546223640441895,0.44533056020736694,0.6466659307479858,0.42000001668930054,-0.8299567699432373,2.999971866607666,-0.44958505034446716,-3.000000476837158,-0.08867121487855911,-0.09736565500497818,-0.10599511861801147,-0.11442317068576813,-0.9944751262664795,-0.9954038858413696,-0.9961777925491333,-0.9968386292457581
0.26666666666666666,0.0849439725279808,0.10371744632720947,0.0,0.9391058087348938,0.0,0.0,-0.34362807869911194,-0.3281294107437134,-0.10540925711393356,0.0,0.0,0.0,-2.214465618133545,-0.40077900886535645,0.6201945543289185,0.4200000464916229,0.9999999403953552,3.719671894941712e-06,-2.403462985967053e-06,-1.8307585492038925e-07,0.00026623281883075833,0.00026729030651040375,-0.00010425737127661705,-0.0017326161032542586,0.004196559078991413,-0.0001285147009184584,-0.43866831064224243,0.6099551320075989,0.5764562487602234,0.2919948399066925,0.339670330286026,-5.869847297668457,0.44533056020736694,0.6466659307479858,0.42000001668930054,-0.7799479961395264,2.9999911785125732,-0.49961531162261963,-3.000002384185791,-0.10622964799404144,-0.11469567567110062,-0.12315155565738678,-0.13144297897815704,-0.9916562438011169,-0.9933406114578247,-0.9947472810745239,-0.9959392547607422
0.2833333333333333,0.07803258299827576,0.10036105662584305,0.0,0.9408231973648071,0.0,0.0,-0.33889779448509216,-0.4564402401447296,-0.24043600261211395,0.0,0.0,0.0,1.488966464996338,-0.40077900886535645,0.6201946139335632,0.4200000464916229,0.9999999403953552,3.58410306944279e-06,-2.3154889277066104e-06,7.404336344052354e-08,0.0002652212860994041,0.0002645532658789307,-0.00010317191481590271,-0.0017022429965436459,0.004185271915048361,-0.00012499967124313116,-0.43246129155158997,0.6175342798233032,0.4849870204925537,0.5600859522819519,0.4615468978881836,-5.087660312652588,0.44533056020736694,0.6466659307479858,0.42000001668930054,-0.7299392819404602,3.000001907348633,-0.5496439933776855,-3.000002861022949,-0.12364163249731064,-0.13195621967315674,-0.14030028879642487,-0.14850488305091858,-1.0185437202453613,-1.0140289068222046,-1.010581374168396,-1.0078239440917969
0.3,0.06899416446685791,0.09474135935306549,0.0,0.9372748732566833,0.0,0.0,-0.3485911786556244,-0.5863564014434814,-0.3800865709781647,0.0,0.0,0.0,-2.0941007137298584,-0.40077900886535645,0.6201945543289185,0.4200000464916229,1.0,3.724301677721087e-06,-2.271899347761064e-06,9.634896969146212e-08,0.0002631264796946198,0.00026525871362537146,-0.00010438216850161552,-0.0016960971988737583,0.004134890157729387,-0.00013027788372710347,-0.41641008853912354,0.6228095293045044,0.3989582657814026,1.345792293548584,0.14766523241996765,-5.097445487976074,0.44533056020736694,0.6466659307479858,0.42000001668930054,-0.6799322962760925,2.9999918937683105,-0.5996707081794739,-3.000000238418579,-0.14086809754371643,-0.149028941988945,-0.15725569427013397,-0.1653674840927124,-1.0001935958862305,-1.0001280307769775,-1.0000823736190796,-1.0000468492507935
0.31666666666666665,0.05780135467648506,0.08676771819591522,0.0,0.9394899606704712,0.0,0.0,-0.34257641434669495,-0.7119470238685608,-0.516673743724823,0.0,0.0,0.0,1.6806644201278687,-0.40077900886535645,0.6201945543289185,0.4200000464916229,1.0,3.6662129332398763e-06,-2.3925058485474437e-06,1.6798929891592707e-07,0.0002660205645952374,0.0002670693211257458,-0.00010418589226901531,-0.0017311713891103864,0.004193530417978764,-0.0001284943282371387,-0.41833657026290894,0.6270829439163208,0.42284920811653137,0.025459524244070053,0.41183528304100037,-0.16326646506786346,0.44533056020736694,0.6466659307479858,0.42000001668930054,-0.6301156282424927,3.0000011920928955,-0.6500750780105591,-2.999702215194702,-0.14317351579666138,-0.15133631229400635,-0.15919195115566254,-0.1664969027042389,-0.4701751470565796,-0.4082838296890259,-0.3254510462284088,-0.21999827027320862
0.3333333333333333,0.050041038542985916,0.07609724998474121,0.0,0.936428427696228,0.0,0.0,-0.350858598947525,-0.37432482838630676,-0.6877099871635437,0.0,0.0,0.0,-1.931930422782898,-0.3991507291793823,0.6234753727912903,0.4200000464916229,0.99928879737854,2.094258064744281e-07,1.5323981870096759e-06,-0.03770735114812851,0.10774239897727966,0.2005465030670166,-5.795656761620194e-06,0.001880826079286635,-0.0006564594223164022,-4.16467809677124,-0.41666361689567566,0.630428671836853,0.42131251096725464,0.14119534194469452,0.17741398513317108,0.16364087164402008,0.44533056020736694,0.6466659307479858,0.42000001668930054,-0.5801106095314026,2.99996018409729,-0.7001107931137085,-3.0000009536743164,-0.1518218070268631,-0.15833507478237152,-0.16417333483695984,-0.1690922975540161,-0.5283580422401428,-0.3979947865009308,-0.24618791043758392,-0.07417967170476913
0.35,0.040032759308815,0.06395197659730911,0.0,0.9390538334846497,0.0,0.0,-0.34377020597457886,-0.6833436489105225,-0.7506957650184631,0.0,0.0,0.0,1.8830022811889648,-0.3957677483558655,0.6298895478248596,0.42000067234039307,0.9901413917541504,-1.525150946690701e-05,4.4842886381957214e-06,-0.14007079601287842,0.3295416235923767,0.5751292705535889,-0.0006369730108417571,0.02859104983508587,-0.005928561091423035,-19.693519592285156,-0.4114340543746948,0.6390076875686646,0.42216742038726807,0.4607822895050049,0.8169176578521729,-0.019780460745096207,0.44533056020736694,0.6466659307479858,0.42000001668930054,-0.5301056504249573,2.9999895095825195,-0.7501348257064819,-3.000000476837158,-0.16396203637123108,-0.1674647331237793,-0.16998592019081116,-0.17133258283138275,-0.7341694831848145,-0.5477531552314758,-0.34365981817245483,-0.12557385861873627
0.36666666666666664,0.03377231955528259,0.049238573759794235,0.0,0.9364266991615295,0.0,0.0,-0.35086336731910706,-0.3296818435192108,-0.9176858067512512,0.0,0.0,0.0,-1.8130005598068237,-0.3868900537490845,0.6432142853736877,0.4200000464916229,0.9811604619026184,6.816324003011687e-07,1.977326064661611e-06,-0.1931947022676468,0.5261989235877991,0.7871994376182556,-2.9796281069138786e-06,-0.0001429847616236657,9.760505781741813e-05,-6.001363754272461,-0.4004051685333252,0.6498221158981323,0.42013096809387207,0.7569433450698853,0.43306005001068115,0.1322588473558426,0.44533056020736694,0.6466659307479858,0.42000001668930054,-0.48005884885787964,2.999480962753296,-0.8001412153244019,-2.9999914169311523,-0.17397038638591766,-0.17417192459106445,-0.17302358150482178,-0.1704130321741104,-0.5758634209632874,-0.34498170018196106,-0.09005406498908997,0.1825362592935562
0.3833333333333333,0.024178558960556984,0.033149439841508865,0.0,0.9224780201911926,0.0,0.0,-0.3860495686531067,-0.6615782976150513,-0.9917775988578796,0.0,0.0,0.0,-5.489023208618164,-0.37465575337409973,0.659183919429779,0.4209064543247223,0.9714041352272034,-0.021824374794960022,0.004596598446369171,-0.23638205230236053,1.1322416067123413,1.2494556903839111,0.07142174988985062,-0.16609439253807068,-3.6205501556396484,-6.257193088531494,-0.3828612267971039,0.6635981798171997,0.4224931001663208,1.3258769512176514,1.0998921394348145,0.22375380992889404,0.44533056020736694,0.6466659307479858,0.42000001668930054,-0.43003204464912415,2.9967870712280273,-0.8501569032669067,-3.0000014305114746,-0.1849214881658554,-0.18131256103515625,-0.17599055171012878,-0.16895855963230133,-0.6099931597709656,-0.40560993552207947,-0.1826520562171936,0.05225574970245361
0.4,0.01795804128050804,0.014238076284527779,0.0,0.8949393033981323,0.0,0.0,-0.4461878836154938,-0.33314383029937744,-1.179925560951233,0.0,0.0,0.0,-8.690464973449707,-0.3399393856525421,0.6830697655677795,0.42621365189552307,0.9579579830169678,0.012938135303556919,-0.03464491665363312,-0.2845149636268616,3.1818623542785645,1.890647530555725,0.43332868814468384,22.57764434814453,-14.135968208312988,8.434463500976562,-0.3476178050041199,0.6887189745903015,0.4270273745059967,2.9023244380950928,1.8504005670547485,0.5530623197555542,0.44533056020736694,0.6466659307479858,0.42000001668930054,-0.39381781220436096,1.2716823816299438,-0.836275041103363,2.9951443672180176,-0.19488362967967987,-0.18766765296459198,-0.17846380174160004,-0.16740292310714722,-0.6728460788726807,-0.42577698826789856,-0.16588856279850006,0.09778647869825363
0.4166666666666667,0.01390917133539915,0.00019767816411331296,0.0,0.8514689803123474,0.0,0.0,-0.5244049429893494,-0.144255131483078,-0.8895183205604553,0.0,0.0,0.0,-11.331273078918457,-0.26592817902565,0.7188152074813843,0.4340316653251648,0.9362174868583679,0.07938214391469955,-0.08074858039617538,-0.3326783776283264,5.754748821258545,2.231578826904297,0.5407670736312866,10.38800048828125,-14.81360149383545,17.615337371826172,-0.2730150818824768,0.7254520654678345,0.4346901774406433,5.511828422546387,2.7162208557128906,0.5139699578285217,0.44533056020736694,0.6466659307479858,0.42000001668930054,-0.3774656057357788,0.8743247985839844,-0.7862651348114014,2.9962453842163086,-0.2104104608297348,-0.20002534985542297,-0.18542778491973877,-0.1692708432674408,-0.5393473505973816,-0.551878035068512,-0.3130377531051636,-0.09248004108667374
0.43333333333333335,0.013925207778811455,-0.012228237465023994,0.0,0.8097405433654785,0.0,0.0,-0.5867881178855896,0.05437244102358818,-0.6839932203292847,0.0,0.0,0.0,-7.677270412445068,-0.17133603990077972,0.7599481344223022,0.4446435570716858,0.8848973512649536,0.119510218501091,-0.11275027692317963,-0.43584561347961426,6.03438138961792,1.5150644779205322,0.8084508180618286,15.441564559936523,-7.905033588409424,24.324880599975586,-0.17836682498455048,0.7681550979614258,0.444868803024292,5.930174350738525,2.2124342918395996,0.663235068321228,0.44533056020736694,0.6466659307479858,0.42000001668930054,-0.36212238669395447,0.9157401919364929,-0.8129339814186096,-3.0000014305114746,-0.21959088742733002,-0.20913110673427582,-0.1912236213684082,-0.17217135429382324,-0.5237404108047485,-0.49785539507865906,-0.32684946060180664,-0.1850649118423462
0.45,0.010988445021212101,-0.01918858103454113,0.0,0.7880517244338989,0.0,0.0,-0.6156090497970581,-0.1468091756105423,-0.37527769804000854,0.0,0.0,0.0,-2.923652172088623,-0.07316669821739197,0.7839314937591553,0.4563673734664917,0.8151941895484924,0.1369144171476364,-0.11527234315872192,-0.5508403778076172,5.889927387237549,0.1075066328048706,0.5635443925857544,-8.727873802185059,-14.931764602661133,26.52310562133789,-0.07989214360713959,0.7946276664733887,0.45515578985214233,6.112797737121582,1.195318579673767,0.7531086802482605,0.44533056020736694,0.6466659307479858,0.42000001668930054,-0.347822904586792,0.7005648016929626,-0.8629581928253174,-3.000005006790161,-0.23158897459506989,-0.21952292323112488,-0.1983911544084549,-0.1767192929983139,-0.6060807704925537,-0.5225045084953308,-0.374860018491745,-0.2594675123691559
0.4666666666666667,0.011222871951758862,-0.023277372121810913,0.0,0.7601673603057861,0.0,0.0,-0.6497273445129395,0.06840695440769196,-0.18137678503990173,0.0,0.0,0.0,-6.177709579467773,0.023193787783384323,0.7921509742736816,0.46271297335624695,0.7661223411560059,0.13033124804496765,-0.11955591291189194,-0.6178807616233826,5.594228744506836,-1.0601613521575928,0.2623388171195984,-12.357111930847168,-11.54311752319336,24.43730354309082,0.018623225390911102,0.8039183616638184,0.46225565671920776,5.9582343101501465,-0.04074414074420929,0.44907402992248535,0.44533056020736694,0.6466659307479858,0.42000001668930054,-0.33845484256744385,0.42567476630210876,-0.9129840731620789,-3.0000016689300537,-0.24004675447940826,-0.2271304577589035,-0.2036462128162384,-0.17998585104942322,-0.05585143342614174,-0.4960571527481079,-0.3365468382835388,-0.19383376836776733
0.48333333333333334,0.014479245990514755,-0.024909554049372673,0.0,0.7441918253898621,0.0,0.0,-0.6679659485816956,0.2398444414138794,0.013242988847196102,0.0,0.0,0.0,-1.7386442422866821,0.11651711165904999,0.7862274646759033,0.46573808789253235,0.6953479051589966,0.11077035218477249,-0.12383989989757538,-0.6992029547691345,5.2366042137146,-1.2071573734283447,0.06332119554281235,-5.084201812744141,-6.748106479644775,9.195344924926758,0.11273273080587387,0.7978507876396179,0.46584373712539673,5.5371904373168945,-0.7244707942008972,0.18182873725891113,0.44533056020736694,0.6466659307479858,0.42000001668930054,-0.32844725251197815,0.7109836339950562,-0.9630088806152344,-3.0000007152557373,-0.23990027606487274,-0.23342663049697876,-0.2081366330385208,-0.18295609951019287,1.3562384992837906e-06,-0.3070817291736603,-0.24048009514808655,-0.19128744304180145
0.5,0.015857800841331482,-0.03127705305814743,0.0,0.7192342877388,0.0,0.0,-0.6947675943374634,0.018907127901911736,-0.5163501501083374,0.0,0.0,0.0,-5.408498764038086,0.20206819474697113,0.7721929550170898,0.46297091245651245,0.6398605108261108,0.09400113672018051,-0.11840269714593887,-0.7534739971160889,4.411538600921631,-1.671882152557373,-0.33242201805114746,-12.484772682189941,0.45931369066238403,20.36380958557129,0.19939649105072021,0.7844263315200806,0.4637730121612549,5.056448936462402,-1.0623679161071777,-0.21006518602371216,0.44533056020736694,0.6466659307479858,0.42000001668930054,-0.3151676058769226,0.7014608383178711,-1.0130324363708496,-2.9999914169311523,-0.23360341787338257,-0.23206447064876556,-0.20711423456668854,-0.18239566683769226,0.47107183933258057,0.2365649938583374,0.18625526130199432,0.13024528324604034
0.5166666666666666,0.0201849564909935,-0.03403124585747719,0.0,0.7050617933273315,0.0,0.0,-0.7091458439826965,0.2821057438850403,-0.11714823544025421,0.0,0.0,0.0,-1.2756788730621338,0.27650803327560425,0.7480797171592712,0.4557245969772339,0.5931800007820129,0.07384923845529556,-0.1098196879029274,-0.7941179871559143,4.0027174949646,-1.8234519958496094,-0.5471698641777039,-7.2498393058776855,0.5424290299415588,-1.3783149719238281,0.2745475769042969,0.7594828605651855,0.4571836590766907,4.167014122009277,-1.7193349599838257,-0.5522305369377136,0.44533056020736694,0.6466659307479858,0.42000001668930054,-0.3031913638114929,0.6714659333229065,-1.0630545616149902,-3.0000011920928955,-0.2314954549074173,-0.2315714955329895,-0.20674745738506317,-0.18245883285999298,0.1984456181526184,0.12692245841026306,0.0760306566953659,0.010855642147362232
0.5333333333333333,0.02366076037287712,-0.03389792516827583,0.0,0.6850894689559937,0.0,0.0,-0.7284589409828186,0.19623073935508728,0.10122644901275635,0.0,0.0,0.0,-4.131829738616943,0.34250813722610474,0.7231991291046143,0.44069117307662964,0.4910789132118225,0.0874025970697403,-0.14215773344039917,-0.8549814820289612,3.8038933277130127,-1.3802735805511475,-0.9929267764091492,8.109853744506836,-16.729883193969727,-17.21375846862793,0.3363083004951477,0.7337964773178101,0.4430169463157654,3.26496958732605,-1.5749993324279785,-1.0381797552108765,0.44533056020736694,0.6466659307479858,0.42000001668930054,-0.28674712777137756,1.4283480644226074,-1.1130766868591309,-2.999997138977051,-0.22650264203548431,-0.22804123163223267,-0.2051950991153717,-0.18293312191963196,0.3026444911956787,0.23378147184848785,0.08377508074045181,-0.06671509146690369
0.55,0.028317470103502274,-0.03504558280110359,0.0,0.6793471574783325,0.0,0.0,-0.7338170409202576,0.3125690817832947,-0.12879076600074768,0.0,0.0,0.0,0.005874252878129482,0.38777098059654236,0.7025527954101562,0.42173951864242554,0.5007705092430115,0.016242990270256996,-0.0343988798558712,-0.864743709564209,1.8668363094329834,-1.095638632774353,-0.4853760004043579,14.521012306213379,29.92181396484375,-6.8069024085998535,0.38374948501586914,0.7064157724380493,0.42771750688552856,2.0326642990112305,-1.3358280658721924,-0.24893221259117126,0.44533056020736694,0.6466659307479858,0.42000001668930054,-0.2579449713230133,2.0324196815490723,-1.1631721258163452,-2.9999706745147705,-0.22339291870594025,-0.22501684725284576,-0.20437073707580566,-0.1843872368335724,0.2222001701593399,0.22933471202850342,0.08060973882675171,-0.0674879178404808
0.5666666666666667,0.035221830010414124,-0.03783322125673294,0.0,0.6640393733978271,0.0,0.0,-0.7476975917816162,0.46448731422424316,-0.24596187472343445,0.0,0.0,0.0,-3.3443737030029297,0.4115133583545685,0.6874573826789856,0.4216803014278412,0.5208038687705994,0.022392716258764267,-0.03561536595225334,-0.8526390790939331,1.0982255935668945,-0.7804619669914246,0.05953792482614517,15.139683723449707,0.2923367917537689,-5.542867660522461,0.4091453552246094,0.6912936568260193,0.4273120164871216,1.1967297792434692,-0.7511146664619446,0.09161940217018127,0.44533056020736694,0.6466659307479858,0.42000001668930054,-0.22631379961967468,1.3585749864578247,-1.1287423372268677,3.000004768371582,-0.21967235207557678,-0.22098228335380554,-0.20293614268302917,-0.1854449063539505,0.30452752113342285,0.3218099772930145,0.14865964651107788,-0.014201470650732517
0.5833333333333334,0.040100958198308945,-0.038404639810323715,0.0,0.6617252826690674,0.0,0.0,-0.7497463822364807,0.22590519487857819,-0.020273076370358467,0.0,0.0,0.0,0.5264899134635925,0.42830890417099,0.6718804836273193,0.42106300592422485,0.526681125164032,0.016102775931358337,-0.014130420051515102,-0.8497928380966187,0.9122888445854187,-1.0204198360443115,-0.15011829137802124,1.469844102859497,6.304336071014404,0.08486954867839813,0.4248747229576111,0.6753745079040527,0.4273172616958618,0.8684884309768677,-1.0130152702331543,-0.20532219111919403,0.44533056020736694,0.6466659307479858,0.42000001668930054,-0.24019071459770203,-1.91232430934906,-1.1513792276382446,-2.999018669128418,-0.21640785038471222,-0.21694575250148773,-0.20149780809879303,-0.18645818531513214,0.2982151508331299,0.3229846954345703,0.14075762033462524,-0.029622456058859825
0.6,0.04566119983792305,-0.03605220094323158,0.0,0.6493704319000244,0.0,0.0,-0.7604722380638123,0.3546270728111267,0.1830720603466034,0.0,0.0,0.0,-2.856534719467163,0.43941429257392883,0.6603451371192932,0.42000243067741394,0.5326801538467407,-3.8538972148671746e-05,0.00023586909810546786,-0.8463166356086731,0.31150317192077637,-0.2950228452682495,-0.00972031895071268,-0.24817506968975067,-0.4532950222492218,3.737753391265869,0.43584108352661133,0.6652654409408569,0.42330247163772583,0.3508704602718353,-0.18287184834480286,0.16823631525039673,0.44533056020736694,0.6466659307479858,0.42000001668930054,-0.2585076093673706,-0.2798280715942383,-1.2013509273529053,-2.9987645149230957,-0.20967744290828705,-0.21062977612018585,-0.198886439204216,-0.18717531859874725,0.550706684589386,0.4854433536529541,0.23241299390792847,0.010043623857200146
0.6166666666666667,0.05290314927697182,-0.037964172661304474,0.0,0.6494473814964294,0.0,0.0,-0.7604065537452698,0.4584486782550812,-0.11205949634313583,0.0,0.0,0.0,0.8824557662010193,0.4430985152721405,0.6565094590187073,0.42009419202804565,0.5526773929595947,0.0007266952889040112,-0.001884261961095035,-0.8333927989006042,0.05078146606683731,-0.19406886398792267,0.015449399128556252,-0.984844446182251,1.0341334342956543,1.8965648412704468,0.43813207745552063,0.6626366376876831,0.42571383714675903,-0.06896312534809113,-0.20784543454647064,0.13948629796504974,0.44533056020736694,0.6466659307479858,0.42000001668930054,-0.2969028949737549,-2.9999990463256836,-1.2410457134246826,-1.8349162340164185,-0.1982610523700714,-0.20033429563045502,-0.192755326628685,-0.1847301423549652,0.49751487374305725,0.48233482241630554,0.2870870530605316,0.11269861459732056
0.6333333333333333,0.06271642446517944,-0.0354626290500164,0.0,0.669826865196228,0.0,0.0,-0.7425172924995422,0.6138694286346436,0.14893676340579987,0.0,0.0,0.0,4.295506477355957,0.44254404306411743,0.6540513634681702,0.4200030565261841,0.5541425347328186,7.468321564374492e-05,1.79678900167346e-05,-0.8324217796325684,-0.09609415382146835,-0.10355119407176971,-0.0031797983683645725,-0.0911114364862442,0.08486361056566238,-1.032469630241394,0.4360806345939636,0.6602191925048828,0.4286261200904846,-0.13721877336502075,0.00981764867901802,0.1871403306722641,0.44533056020736694,0.6466659307479858,0.42000001668930054,-0.34689268469810486,-2.9992423057556152,-1.2899640798568726,-2.999084949493408,-0.19236668944358826,-0.1943705826997757,-0.18952448666095734,-0.18391002714633942,0.46854496002197266,0.4421529769897461,0.26290035247802734,0.10602233558893204
0.65,0.07416395843029022,-0.037120163440704346,0.0,0.678260326385498,0.0,0.0,-0.7348216772079468,0.7118605375289917,-0.11702503263950348,0.0,0.0,0.0,0.3176104426383972,0.44159165024757385,0.6531107425689697,0.41999974846839905,0.552930474281311,-9.844819714999176e-07,1.807651642593555e-05,-0.833227276802063,-0.035598043352365494,-0.04621972516179085,-0.00023067602887749672,-0.00925030093640089,-0.012898679822683334,-0.86749267578125,0.4353830814361572,0.662506103515625,0.43281838297843933,-0.013485483825206757,0.06217857822775841,0.2818360924720764,0.44533056020736694,0.6466659307479858,0.42000001668930054,-0.3969283103942871,-2.9999101161956787,-1.3399344682693481,-2.9996583461761475,-0.18210789561271667,-0.184715136885643,-0.18269653618335724,-0.17946842312812805,0.5172571539878845,0.519515872001648,0.4015392065048218,0.3071085512638092
0.6666666666666666,0.08710749447345734,-0.041671112179756165,0.0,0.6642544269561768,0.0,0.0,-0.7475065588951111,0.8086808919906616,-0.3449244201183319,0.0,0.0,0.0,-3.173882484436035,0.44147789478302,0.6529766321182251,0.41999995708465576,0.5519846081733704,1.0214609574177302e-05,-3.1277889434022654e-07,-0.8338542580604553,0.0004028238181490451,-0.00045029266038909554,-0.000101892976090312,0.024526169523596764,0.0009934735717251897,-0.00022314929810818285,0.43743783235549927,0.6638502478599548,0.43984749913215637,0.2432287037372589,0.051162805408239365,0.6834450364112854,0.44533056020736694,0.6466659307479858,0.42000001668930054,-0.44694191217422485,-2.9999897480010986,-1.3899527788162231,-2.999999523162842,-0.17567630112171173,-0.17772787809371948,-0.1768677681684494,-0.1744057983160019,0.3117641806602478,0.3694203197956085,0.3390916585922241,0.3312316834926605
0.6833333333333333,0.10308617353439331,-0.041870955377817154,0.0,0.6279869079589844,0.0,0.0,-0.7782238721847534,0.9408940076828003,0.013940651901066303,0.0,0.0,0.0,-6.573539733886719,0.4414784610271454,0.6529775261878967,0.4200000464916229,0.5519838929176331,1.3212078897595347e-07,-2.8736001240758924e-06,-0.8338547348976135,4.6028129872865975e-05,-0.0002592488890513778,-7.647136226296425e-05,0.006732014007866383,-0.0020302664488554,-0.0007064396049827337,0.44818609952926636,0.6615074872970581,0.45878446102142334,1.120245337486267,-0.205983966588974,1.6583380699157715,0.44533056020736694,0.6466659307479858,0.42000001668930054,-0.49695491790771484,-2.9999356269836426,-1.4399710893630981,-2.999995231628418,-0.17713123559951782,-0.17718547582626343,-0.17561255395412445,-0.17217424511909485,-0.0794927179813385,0.027709055691957474,0.07293860614299774,0.13479697704315186
0.7,0.11585298180580139,-0.040689628571271896,0.0,0.6059753894805908,0.0,0.0,-0.795483410358429,0.6919261813163757,0.09446056187152863,0.0,0.0,0.0,-2.2985405921936035,0.441478431224823,0.6529775857925415,0.4200000464916229,0.5519841909408569,1.3009395161134307e-07,-2.588841198303271e-06,-0.8338545560836792,4.700111094280146e-05,-0.0002543786831665784,-7.797707803547382e-05,0.00657064002007246,-0.0020464430563151836,-0.0007043362711556256,0.4685307741165161,0.6622675061225891,0.48915737867355347,1.2373332977294922,0.2730494737625122,1.9494376182556152,0.44533056020736694,0.6466659307479858,0.42000001668930054,-0.5198156237602234,0.010366899892687798,-1.4899893999099731,-3.0,-0.1767307072877884,-0.17604422569274902,-0.1746147871017456,-0.17111007869243622,0.12247028946876526,0.11001288890838623,0.05155530571937561,-5.704350769519806e-08
0.7166666666666667,0.12382801622152328,-0.037586186081171036,0.0,0.6095929741859436,0.0,0.0,-0.7927145957946777,0.4020903706550598,0.22871726751327515,0.0,0.0,0.0,1.4303442239761353,0.441478431224823,0.6529775261878967,0.4200000464916229,0.5519841313362122,2.7745639386012044e-07,-2.412108415228431e-06,-0.8338545560836792,5.068020254839212e-05,-0.00025426532374694943,-7.868511602282524e-05,0.006548373028635979,-0.0020015512127429247,-0.0007121191010810435,0.48597124218940735,0.6680487394332886,0.5155473947525024,0.7965476512908936,0.40840739011764526,1.2687381505966187,0.44533056020736694,0.6466659307479858,0.42000001668930054,-0.5000036954879761,2.162184476852417,-1.4512890577316284,2.999999523162842,-0.17345136404037476,-0.1731371432542801,-0.17269234359264374,-0.17010512948036194,0.24958978593349457,0.22144679725170135,0.16308537125587463,0.10483027249574661
0.7333333333333333,0.12776300311088562,-0.038618557155132294,0.0,0.6019201874732971,0.0,0.0,-0.7985562682151794,0.19836662709712982,-0.1385284960269928,0.0,0.0,0.0,-2.069899797439575,0.441478431224823,0.6529775857925415,0.4200000464916229,0.5519841313362122,2.1644197545356292e-07,-2.857815161405597e-06,-0.833854615688324,5.489660907187499e-05,-0.00025137682678177953,-7.953657768666744e-05,0.0064501529559493065,-0.0019386508502066135,-0.0007153220940381289,0.4926147162914276,0.6741963624954224,0.5300706624984741,-0.024458661675453186,0.29902762174606323,0.6452421545982361,0.44533056020736694,0.6466659307479858,0.42000001668930054,-0.4836733937263489,-0.027157699689269066,-1.4012364149093628,2.999999523162842,-0.1684810072183609,-0.16858775913715363,-0.16897957026958466,-0.16730347275733948,0.24235475063323975,0.23804640769958496,0.21147720515727997,0.17422008514404297
0.75,0.12852269411087036,-0.034854866564273834,0.0,0.6070425510406494,0.0,0.0,-0.7946693301200867,-0.0042746239341795444,0.362926185131073,0.0,0.0,0.0,1.6525533199310303,0.4414784610271454,0.6529775857925415,0.4200000464916229,0.5519841313362122,4.5842179474675504e-07,-2.5926447051460855e-06,-0.833854615688324,5.181521919439547e-05,-0.00025465479120612144,-7.893843576312065e-05,0.006552086677402258,-0.0019907355308532715,-0.0007154116174206138,0.4901142120361328,0.677605152130127,0.5363095998764038,-0.2443801760673523,0.21519318222999573,0.139952152967453,0.44533056020736694,0.6466659307479858,0.42000001668930054,-0.46572571992874146,1.9914294481277466,-1.419317364692688,-2.999999523162842,-0.17003998160362244,-0.16897988319396973,-0.16859693825244904,-0.16650168597698212,-0.1590586006641388,-0.0773262307047844,-0.016178913414478302,0.02010730281472206
0.7666666666666666,0.13119852542877197,-0.03309899941086769,0.0,0.600675642490387,0.0,0.0,-0.7994928359985352,0.17165589332580566,0.09761892259120941,0.0,0.0,0.0,-1.6989507675170898,0.441478431224823,0.6529775261878967,0.4200000464916229,0.5519842505455017,2.9588076699837984e-07,-2.5651499981904635e-06,-0.8338544964790344,5.4502444982063025e-05,-0.0002511191414669156,-7.94616062194109e-05,0.006446321494877338,-0.0019416391151025891,-0.0007138033397495747,0.4811388850212097,0.680662214756012,0.5324323177337646,-0.8613263964653015,0.11475799232721329,-0.40624791383743286,0.44533056020736694,0.6466659307479858,0.42000001668930054,-0.4680839776992798,-1.9334717988967896,-1.380818486213684,2.9999988079071045,-0.17056605219841003,-0.16872264444828033,-0.16779187321662903,-0.16552822291851044,-0.10410135239362717,-0.04848429188132286,-0.004096236079931259,0.01568722352385521
0.7833333333333333,0.13549312949180603,-0.0336078405380249,0.0,0.6075739860534668,0.0,0.0,-0.7942630648612976,0.2816251814365387,-0.15502074360847473,0.0,0.0,0.0,1.800085425376892,0.441478431224823,0.6529775857925415,0.4200000464916229,0.5519841909408569,2.763231066182925e-07,-2.649640236995765e-06,-0.8338544964790344,5.134090315550566e-05,-0.0002512240316718817,-7.878360338509083e-05,0.006465894170105457,-0.0019785775803029537,-0.000706981576513499,0.4705359935760498,0.6814823150634766,0.5250369906425476,-0.4356481730937958,0.03431481868028641,-0.44142961502075195,0.44533056020736694,0.6466659307479858,0.42000001668930054,-0.5062031149864197,-2.5557973384857178,-1.3993040323257446,-2.9999990463256836,-0.17340269684791565,-0.1702546775341034,-0.16806507110595703,-0.16488239169120789,-0.1295827180147171,-0.05535215139389038,0.02455288916826248,0.08986131101846695
0.8,0.14143739640712738,-0.03820225968956947,0.0,0.6017677783966064,0.0,0.0,-0.7986710667610168,0.3941034972667694,-0.336984783411026,0.0,0.0,0.0,-1.7754435539245605,0.441478431224823,0.6529775261878967,0.4200000464916229,0.5519842505455017,2.7575254080147715e-07,-2.795281716316822e-06,-0.8338544964790344,5.1133443776052445e-05,-0.0002510299673303962,-7.868977263569832e-05,0.0064630392007529736,-0.0019782132003456354,-0.0007058961200527847,0.46756938099861145,0.6795901656150818,0.5134764909744263,0.06894303113222122,-0.2463979721069336,-0.7419398427009583,0.44533056020736694,0.6466659307479858,0.42000001668930054,-0.5558609962463379,-2.9999985694885254,-1.4493223428726196,-3.000000476837158,-0.17611508071422577,-0.17157286405563354,-0.16773246228694916,-0.16301941871643066,-0.15226741135120392,-0.06008106842637062,0.05390398949384689,0.16538749635219574
0.8166666666666667,0.1499033123254776,-0.0426347479224205,0.0,0.5743155479431152,0.0,0.0,-0.818634033203125,0.5572947859764099,-0.20376437902450562,0.0,0.0,0.0,-4.971736431121826,0.4414784610271454,0.6529775857925415,0.4200000464916229,0.5519841909408569,2.9981617899466073e-07,-2.746687187027419e-06,-0.8338544964790344,4.7917266783770174e-05,-0.00025428514345549047,-7.814634591341019e-05,0.006563218776136637,-0.0020349666010588408,-0.0007061310461722314,0.47244352102279663,0.673462986946106,0.5073328018188477,0.5268338322639465,-0.440849244594574,0.123206228017807,0.44533056020736694,0.6466659307479858,0.42000001668930054,-0.6058727502822876,-2.999983072280884,-1.4993406534194946,-2.999999761581421,-0.1788097769021988,-0.1732257455587387,-0.1678694188594818,-0.16157330572605133,-0.1464332491159439,-0.10696712136268616,-0.035291049629449844,0.044449787586927414
0.8333333333333334,0.16069908440113068,-0.04309966042637825,0.0,0.5623049736022949,0.0,0.0,-0.8269299268722534,0.684666633605957,0.04706079885363579,0.0,0.0,0.0,-0.7521987557411194,0.4414784610271454,0.6529775857925415,0.4200000464916229,0.5519841909408569,4.5045933916298964e-07,-2.643431571414112e-06,-0.8338544964790344,5.231840623309836e-05,-0.000254524260526523,-7.909489795565605e-05,0.006545589305460453,-0.0019856125582009554,-0.0007163622067309916,0.4817037284374237,0.6729499101638794,0.5138227939605713,0.5452204942703247,0.255460262298584,0.6090571880340576,0.44533056020736694,0.6466659307479858,0.42000001668930054,-0.6246722340583801,0.45956870913505554,-1.5493589639663696,-3.0,-0.18019980192184448,-0.17498967051506042,-0.16949652135372162,-0.16292674839496613,-0.015376257710158825,-0.08672163635492325,-0.13124461472034454,-0.16924385726451874
0.85,0.1681927591562271,-0.04170258715748787,0.0,0.5758661031723022,0.0,0.0,-0.8175440430641174,0.3809652030467987,0.17709653079509735,0.0,0.0,0.0,2.8020317554473877,0.4414784610271454,0.6529775857925415,0.4200000464916229,0.5519841909408569,2.0331032146714278e-07,-2.781582224997692e-06,-0.8338544964790344,5.562368460232392e-05,-0.00025164338876493275,-7.969723083078861e-05,0.006453529465943575,-0.0019314155215397477,-0.0007173356716521084,0.4929407835006714,0.679020881652832,0.5189099311828613,0.7110991477966309,0.38597577810287476,0.03832913935184479,0.44533056020736694,0.6466659307479858,0.42000001668930054,-0.6128562688827515,0.9085452556610107,-1.5104889869689941,2.9999992847442627,-0.17764700949192047,-0.17404237389564514,-0.16972577571868896,-0.16421553492546082,0.1676885485649109,0.07545091211795807,0.0048898933455348015,-0.0613895021378994
0.8666666666666667,0.1712925285100937,-0.04383933171629906,0.0,0.575554609298706,0.0,0.0,-0.8177633881568909,0.15077058970928192,-0.20098170638084412,0.0,0.0,0.0,-1.0513243675231934,0.441478431224823,0.6529775261878967,0.4200000464916229,0.5519841909408569,1.4607240927944076e-07,-2.656240440046531e-06,-0.8338544964790344,4.854902363149449e-05,-0.00025392891257070005,-7.83063005656004e-05,0.006551176775246859,-0.0020261332392692566,-0.0007067226688377559,0.500941276550293,0.683094322681427,0.5148634314537048,0.24530580639839172,0.08130187541246414,-0.3592678904533386,0.44533056020736694,0.6466659307479858,0.42000001668930054,-0.6342883706092834,-2.999999523162842,-1.4604363441467285,3.0000007152557373,-0.17298561334609985,-0.17097440361976624,-0.1679496169090271,-0.16368842124938965,0.19270098209381104,0.12858721613883972,0.07631481438875198,0.021296605467796326
0.8833333333333333,0.17728738486766815,-0.04030515253543854,0.0,0.5876621603965759,0.0,0.0,-0.8091064095497131,0.30011114478111267,0.28691571950912476,0.0,0.0,0.0,2.5450501441955566,0.441478431224823,0.6529775857925415,0.4200000464916229,0.5519841313362122,4.256634156263317e-07,-2.867926696126233e-06,-0.8338544964790344,5.076923480373807e-05,-0.0002546530158724636,-7.874961011111736e-05,0.006556972861289978,-0.0020040306262671947,-0.000713359855581075,0.506117045879364,0.6839253902435303,0.5087625980377197,0.369684636592865,0.21147803962230682,-0.3658599853515625,0.44533056020736694,0.6466659307479858,0.42000001668930054,-0.6520432233810425,0.5723201632499695,-1.477405071258545,-3.0,-0.1765674650669098,-0.17421258985996246,-0.17072509229183197,-0.16613009572029114,-0.11614111810922623,-0.12106135487556458,-0.11327002197504044,-0.10570726543664932
