vladlanda/robotic-transformer/data/env_000_episode_0008.csv
sim_time_s,robot_box_x,robot_box_y,robot_box_z,robot_box_quat_w,robot_box_quat_x,robot_box_quat_y,robot_box_quat_z,robot_box_linvel_x,robot_box_linvel_y,robot_box_linvel_z,robot_box_angvel_x,robot_box_angvel_y,robot_box_angvel_z,cube_world_x,cube_world_y,cube_world_z,cube_quat_w,cube_quat_x,cube_quat_y,cube_quat_z,cube_linvel_x,cube_linvel_y,cube_linvel_z,cube_angvel_x,cube_angvel_y,cube_angvel_z,endpoint_world_x,endpoint_world_y,endpoint_world_z,endpoint_linvel_x,endpoint_linvel_y,endpoint_linvel_z,target_cube_world_x,target_cube_world_y,target_cube_world_z,gripper_actual_pos_rad_gp_leftgearjoint,gripper_actual_vel_rad_s_gp_leftgearjoint,gripper_actual_pos_rad_gp_rotatingjoint,gripper_actual_vel_rad_s_gp_rotatingjoint,motor_angle_rad_joint1,motor_angle_rad_joint2,motor_angle_rad_joint3,motor_angle_rad_joint4,motor_speed_rad_s_joint1,motor_speed_rad_s_joint2,motor_speed_rad_s_joint3,motor_speed_rad_s_joint4
0.0,0.0,0.0,0.0,1.0,0.0,0.0,0.0,0.0,0.0,0.0,0.0,0.0,0.0,-0.3785366117954254,0.664300799369812,0.41999998688697815,1.0,0.0,0.0,0.0,0.0,0.0,0.0,0.0,0.0,0.0,3.42540442943573e-06,-0.005000244826078415,1.313499927520752,0.0,0.0,0.0,0.3314400017261505,0.6580808162689209,0.42000001668930054,-1.5707999467849731,0.0,0.0,0.0,0.0,0.0,0.0,0.0,0.0,0.0,0.0,0.0
0.016666666666666666,0.0028778850100934505,0.0021806680597364902,0.0,0.9998081922531128,0.0,0.0,0.019586581736803055,0.24087215960025787,0.18240931630134583,0.0,0.0,0.0,3.1418697834014893,-0.37853673100471497,0.6643005013465881,0.41999998688697815,1.0,3.279964630564791e-06,-8.339746386809566e-07,8.465587342243452e-08,-1.9833529222523794e-05,0.00017983045836444944,-6.132945418357849e-05,0.0009432713268324733,-0.004689474124461412,-0.00031981561915017664,-0.007110234349966049,0.003379564033821225,1.3159373998641968,-0.8143353462219238,0.9868683815002441,0.18095196783542633,0.3314400017261505,0.6580808162689209,0.42000001668930054,-1.5301095247268677,3.0000011920928955,-0.04584788903594017,-2.9999992847442627,0.0008691533003002405,0.0007963840034790337,0.0007110277656465769,0.0006108740926720202,0.11094217747449875,0.09756709635257721,0.08334315568208694,0.06823883205652237
0.03333333333333333,0.008960971608757973,0.006801900453865528,0.0,0.9997960329055786,0.0,0.0,0.020196840167045593,0.4070209562778473,0.3153079152107239,0.0,0.0,0.0,-0.8691299557685852,-0.3785368502140045,0.6643004417419434,0.4200000464916229,1.0,3.3908179375430336e-06,-2.132458348569344e-06,-3.7097745320124886e-08,0.00026357852038927376,0.00026937833172269166,-0.00010509369894862175,-0.0017707126680761576,0.004130884539335966,-0.0001354814594378695,-0.027548115700483322,0.025999411940574646,1.316626787185669,-1.5914803743362427,1.6134696006774902,-0.08146336674690247,0.3314400017261505,0.6580808162689209,0.42000001668930054,-1.4800904989242554,3.0,-0.09588772803544998,-3.0000016689300537,0.0029901531524956226,0.0026527836453169584,0.002277373569086194,0.0018608486279845238,0.16422346234321594,0.1397686004638672,0.11382898688316345,0.0863124430179596
0.05,0.018437976017594337,0.013855685479938984,0.0,0.9999857544898987,0.0,0.0,-0.0053399293683469296,0.6359188556671143,0.4708653688430786,0.0,0.0,0.0,-4.081387519836426,-0.3785368800163269,0.6643005013465881,0.4200000464916229,1.0,3.7651902857760433e-06,-2.2119197637948673e-06,5.609367637049445e-09,0.00026530938339419663,0.00026691678795032203,-0.00010440615005791187,-0.0017243892652913928,0.004177466034889221,-0.00012949809024576098,-0.05733374133706093,0.05649182200431824,1.3121185302734375,-1.9592249393463135,1.988450527191162,-0.43729788064956665,0.3314400017261505,0.6580808162689209,0.42000001668930054,-1.4300721883773804,3.0000009536743164,-0.1459134817123413,-2.999999523162842,0.006000053603202105,0.005162798799574375,0.004253080580383539,0.0032666875049471855,0.2073250263929367,0.16697490215301514,0.12470930814743042,0.08044588565826416
0.06666666666666667,0.03074292279779911,0.023317614570260048,0.0,0.9999046325683594,0.0,0.0,-0.013809717260301113,0.7724184989929199,0.6145579218864441,0.0,0.0,0.0,-0.04623354971408844,-0.3785368800163269,0.6643004417419434,0.4200000464916229,0.9999999403953552,3.406832092878176e-06,-2.28558906201215e-06,4.300801492718165e-07,0.0002670248504728079,0.0002679176686797291,-0.0001043803058564663,-0.00174071139190346,0.00421183044090867,-0.00012850876373704523,-0.09503798186779022,0.08838827908039093,1.3015947341918945,-2.4059481620788574,2.0135743618011475,-0.8150157928466797,0.3314400017261505,0.6580808162689209,0.42000001668930054,-1.38004469871521,2.999999761581421,-0.11627239733934402,2.9999990463256836,0.008734975010156631,0.00719043193385005,0.005533311050385237,0.0037580563221126795,0.15282124280929565,0.10305210202932358,0.05115070566534996,-0.0029473488684743643
0.08333333333333333,0.03702523186802864,0.030539384111762047,0.0,0.9992824196815491,0.0,0.0,-0.037877172231674194,0.22834067046642303,0.3305843472480774,0.0,0.0,0.0,-3.8148441314697266,-0.3785368800163269,0.6643004417419434,0.4200000464916229,1.0,3.6973397072870284e-06,-2.18897503145854e-06,-2.6324283908252255e-07,0.00026389575214125216,0.000265863083768636,-0.00010433816350996494,-0.001708182506263256,0.004150256514549255,-0.00012991153926122934,-0.12952256202697754,0.1262785643339157,1.2860521078109741,-1.7844094038009644,2.5438051223754883,-0.9708479642868042,0.3314400017261505,0.6580808162689209,0.42000001668930054,-1.330036997795105,3.000001907348633,-0.14827945828437805,-3.000000476837158,0.005331666674464941,0.003030980471521616,0.0005653054686263204,-0.002074533374980092,-0.34415286779403687,-0.4031694829463959,-0.4650310277938843,-0.5299649238586426
0.1,0.046426642686128616,0.040516823530197144,0.0,0.9983651638031006,0.0,0.0,-0.057157937437295914,0.5742340087890625,0.5971973538398743,0.0,0.0,0.0,-1.4198133945465088,-0.3785368800163269,0.6643004417419434,0.4200000464916229,0.9999999403953552,3.6204189655109076e-06,-2.2651970539300237e-06,1.7461321988321288e-07,0.00026676736888475716,0.0002674079150892794,-0.0001040794886648655,-0.001738528604619205,0.004209060221910477,-0.00012775698269251734,-0.16350379586219788,0.1705130636692047,1.263683557510376,-2.2556259632110596,2.7812039852142334,-1.6049245595932007,0.3314400017261505,0.6580808162689209,0.42000001668930054,-1.280017614364624,2.9984781742095947,-0.1147254928946495,2.9999871253967285,0.0030110205989331007,-0.0005633976543322206,-0.004314014688134193,-0.008252433501183987,-0.21825307607650757,-0.2791450619697571,-0.34088313579559326,-0.4035933017730713
0.11666666666666667,0.05470189452171326,0.05083346366882324,0.0,0.9962331056594849,0.0,0.0,-0.08671574294567108,0.4436582624912262,0.6914806365966797,0.0,0.0,0.0,-4.291823863983154,-0.3785368800163269,0.6643004417419434,0.4200000464916229,1.0,3.798416400968563e-06,-2.2627416456089122e-06,-1.5020985699720768e-07,0.00026374010485596955,0.00026566069573163986,-0.00010429113171994686,-0.001705370144918561,0.00414750212803483,-0.0001298012211918831,-0.19938871264457703,0.21895962953567505,1.2384600639343262,-2.05191969871521,3.0149521827697754,-1.5199717283248901,0.3314400017261505,0.6580808162689209,0.42000001668930054,-1.2300227880477905,3.0000007152557373,-0.14673998951911926,-2.999999523162842,0.0016382072353735566,-0.0036303310189396143,-0.009040762670338154,-0.014603105373680592,-0.09816958755254745,-0.2097512185573578,-0.3183842897415161,-0.4239223599433899
0.13333333333333333,0.05982331559062004,0.059929508715867996,0.0,0.9901431798934937,0.0,0.0,-0.14005868136882782,0.251691609621048,0.49137306213378906,0.0,0.0,0.0,-7.515536308288574,-0.3785368800163269,0.6643005013465881,0.4200000464916229,0.9999999403953552,3.5505045161698945e-06,-2.2297124360193266e-06,2.9290509928614483e-07,0.0002670330286491662,0.000267792638624087,-0.00010417005978524685,-0.0017440036172047257,0.004213502164930105,-0.00012799850082956254,-0.23368540406227112,0.2735756039619446,1.209007740020752,-1.967311143875122,3.5307135581970215,-2.0016374588012695,0.3314400017261505,0.6580808162689209,0.42000001668930054,-1.180010437965393,2.9999916553497314,-0.11321566253900528,3.0000011920928955,-0.00080915039870888,-0.007907013408839703,-0.015081385150551796,-0.022340338677167892,-0.20652547478675842,-0.3061255216598511,-0.401645302772522,-0.4930252134799957
0.15,0.06809740513563156,0.06893729418516159,0.0,0.9843923449516296,0.0,0.0,-0.1759878247976303,0.5246466994285583,0.615660548210144,0.0,0.0,0.0,-3.089310646057129,-0.3785368800163269,0.6643004417419434,0.4200000464916229,0.9999999403953552,3.3380476907041157e-06,-2.2427855128626106e-06,-2.8018968478704664e-08,0.00026674478431232274,0.00026758163585327566,-0.00010427623055875301,-0.0017367067048326135,0.004206846933811903,-0.00012831886124331504,-0.27105075120925903,0.32817542552948,1.1711121797561646,-2.153404951095581,3.4778261184692383,-2.552639961242676,0.3314400017261505,0.6580808162689209,0.42000001668930054,-1.1300206184387207,3.000000238418579,-0.14519789814949036,-3.0000007152557373,-0.0035741357132792473,-0.01222237292677164,-0.020874572917819023,-0.029538732022047043,-0.3438870906829834,-0.4059153199195862,-0.4651300311088562,-0.5215466618537903
0.16666666666666666,0.07340887933969498,0.07676983624696732,0.0,0.9750563502311707,0.0,0.0,-0.22195741534233093,0.29785045981407166,0.4124225378036499,0.0,0.0,0.0,-6.452016353607178,-0.3785368800163269,0.6643005013465881,0.4200000464916229,0.9999999403953552,3.6477515550359385e-06,-2.3071481791703263e-06,3.528846903577687e-08,0.00026726751821115613,0.0002680142060853541,-0.00010418612509965897,-0.0017472724430263042,0.004217501729726791,-0.00012797869567293674,-0.30458760261535645,0.38941511511802673,1.1216521263122559,-1.744834065437317,3.942720651626587,-3.2742886543273926,0.3314400017261505,0.6580808162689209,0.42000001668930054,-1.0800175666809082,3.0,-0.19522768259048462,-2.999999523162842,-0.012828737497329712,-0.022069789469242096,-0.03127888962626457,-0.04046875983476639,-0.5777063369750977,-0.6073829531669617,-0.6346341967582703,-0.6597660779953003
0.18333333333333332,0.07516597211360931,0.0858963280916214,0.0,0.9690412282943726,0.0,0.0,-0.24689896404743195,0.037339482456445694,0.5742963552474976,0.0,0.0,0.0,-1.946428656578064,-0.3785368800163269,0.6643004417419434,0.4200000464916229,0.9999999403953552,3.290458380433847e-06,-2.193713044107426e-06,-2.7921399237129663e-07,0.00026677967980504036,0.00026776117738336325,-0.0001043418888002634,-0.0017391219735145569,0.004206927493214607,-0.00012845566379837692,-0.3368370532989502,0.449967622756958,1.059574007987976,-1.7283039093017578,3.6690211296081543,-4.111984729766846,0.3314400017261505,0.6580808162689209,0.42000001668930054,-1.0300182104110718,3.0000016689300537,-0.24525490403175354,-3.000000238418579,-0.024789242073893547,-0.03404251113533974,-0.04322486370801926,-0.05235861986875534,-0.7561169266700745,-0.7421864867210388,-0.7260453104972839,-0.7083141207695007
0.2,0.08127312362194061,0.09143582731485367,0.0,0.9589365124702454,0.0,0.0,-0.28362077474594116,0.3969898819923401,0.266792893409729,0.0,0.0,0.0,-5.142466068267822,-0.3785368800163269,0.6643004417419434,0.4200000464916229,1.0,3.280689952589455e-06,-2.219024509031442e-06,1.594884366795668e-07,0.0002662799961399287,0.0002674008719623089,-0.00010425224900245667,-0.0017357695614919066,0.004197873640805483,-0.00012865354074165225,-0.3628053069114685,0.5124098062515259,0.9842764139175415,-1.2721662521362305,3.734050750732422,-4.897521018981934,0.3314400017261505,0.6580808162689209,0.42000001668930054,-0.9800113439559937,2.9999985694885254,-0.2952828109264374,-2.9999992847442627,-0.03629046678543091,-0.04522475227713585,-0.05406401306390762,-0.06284124404191971,-0.8856614232063293,-0.8320103287696838,-0.7790029644966125,-0.7273348569869995
0.21666666666666667,0.08187482506036758,0.1000734195113182,0.0,0.9535704851150513,0.0,0.0,-0.3011700212955475,0.03684867545962334,0.4905923902988434,0.0,0.0,0.0,-1.073716402053833,-0.3785368800163269,0.6643005013465881,0.4200000464916229,1.0,3.6130954867985565e-06,-2.269954165967647e-06,2.210255729551136e-07,0.0002671264810487628,0.0002678182499948889,-0.00010414235293865204,-0.001744590001180768,0.004215233027935028,-0.00012786359002348036,-0.38330936431884766,0.5625842809677124,0.8971999287605286,-0.9632604122161865,2.7126708030700684,-5.377460479736328,0.3314400017261505,0.6580808162689209,0.42000001668930054,-0.9300009608268738,2.999999523162842,-0.34531304240226746,-3.000000238418579,-0.05239312723278999,-0.061287201941013336,-0.07013247907161713,-0.07888209819793701,-0.7355892658233643,-0.7676610350608826,-0.8018365502357483,-0.8350415229797363
0.23333333333333334,0.0812741070985794,0.10425420105457306,0.0,0.9440367221832275,0.0,0.0,-0.32984042167663574,-0.07672488689422607,0.17578363418579102,0.0,0.0,0.0,-4.498304843902588,-0.3785368800163269,0.6643004417419434,0.4200000464916229,1.0,3.3818200790847186e-06,-2.290785687364405e-06,2.728022536757635e-07,0.0002669146633706987,0.0002677999727893621,-0.00010433373972773552,-0.00173960963729769,0.004209722857922316,-0.0001284381141886115,-0.3971429169178009,0.6060870885848999,0.8022158145904541,-0.5515148043632507,2.366116523742676,-5.90916633605957,0.3314400017261505,0.6580808162689209,0.42000001668930054,-0.87999027967453,3.000000238418579,-0.39534464478492737,-3.0000033378601074,-0.06570102274417877,-0.07481373101472855,-0.08390602469444275,-0.09289352595806122,-0.8718253970146179,-0.864553689956665,-0.8591206669807434,-0.8539277911186218
0.25,0.07681223750114441,0.11124398559331894,0.0,0.9402108192443848,0.0,0.0,-0.34059301018714905,-0.2956565320491791,0.4001704156398773,0.0,0.0,0.0,-0.3643580377101898,-0.3785368502140045,0.6643004417419434,0.4200000464916229,0.9999999403953552,3.706541974679567e-06,-2.2228152829484316e-06,-2.2551301981366123e-07,0.0002642470644786954,0.000266568036749959,-0.00010457867756485939,-0.0017170833889394999,0.00415569543838501,-0.00013063359074294567,-0.406436026096344,0.6353790760040283,0.7044538855552673,-0.4015933573246002,1.2917009592056274,-5.782318115234375,0.3314400017261505,0.6580808162689209,0.42000001668930054,-0.8299802541732788,2.999998092651367,-0.44537630677223206,-2.99999737739563,-0.08205006271600723,-0.09117788821458817,-0.1002846509218216,-0.10928361117839813,-0.8837983012199402,-0.9031263589859009,-0.9210475087165833,-0.9368345141410828
0.26666666666666666,0.07726798206567764,0.1130615845322609,0.0,0.9313777685165405,0.0,0.0,-0.36405426263809204,0.002294183475896716,0.1177033856511116,0.0,0.0,0.0,-3.4384000301361084,-0.3785368800163269,0.6643004417419434,0.4200000464916229,0.9999999403953552,3.719688493220019e-06,-2.403317694188445e-06,-1.8309575011699053e-07,0.00026623302255757153,0.00026729193632490933,-0.00010425853542983532,-0.0017327427631244063,0.00419660797342658,-0.00012851154315285385,-0.4101979732513428,0.6559815406799316,0.6034915447235107,0.14718233048915863,0.8452984094619751,-6.131174087524414,0.3314400017261505,0.6580808162689209,0.42000001668930054,-0.7799714207649231,3.0000007152557373,-0.4954071342945099,-2.999997854232788,-0.09582135081291199,-0.10513342171907425,-0.1144198402762413,-0.1235661506652832,-1.003633975982666,-1.0027310848236084,-1.0020431280136108,-1.0014952421188354
0.2833333333333333,0.07350437343120575,0.11374328285455704,0.0,0.9303783178329468,0.0,0.0,-0.3666009306907654,-0.29098644852638245,0.015022769570350647,0.0,0.0,0.0,0.6214327812194824,-0.3785368800163269,0.6643005013465881,0.4200000464916229,0.9999999403953552,3.584116939236992e-06,-2.3153263555286685e-06,7.402376667187127e-08,0.00026522012194618583,0.0002645518397912383,-0.00010317075066268444,-0.0017020788509398699,0.004185091704130173,-0.00012499977310653776,-0.4053773880004883,0.6644120216369629,0.509395956993103,0.542737603187561,0.24971267580986023,-5.226171493530273,0.3314400017261505,0.6580808162689209,0.42000001668930054,-0.7299626469612122,3.000000476837158,-0.5454358458518982,-2.9999985694885254,-0.11370186507701874,-0.12272843718528748,-0.1318012773990631,-0.14078101515769958,-1.0138236284255981,-1.0104320049285889,-1.0078486204147339,-1.0057849884033203
0.3,0.06647475063800812,0.11227202415466309,0.0,0.9242966771125793,0.0,0.0,-0.3816748261451721,-0.41164159774780273,-0.16162902116775513,0.0,0.0,0.0,-2.75602388381958,-0.3785368800163269,0.6643004417419434,0.4200000464916229,1.0,3.7243148653942626e-06,-2.2717647425452014e-06,9.633560438260247e-08,0.00026312581030651927,0.00026525743305683136,-0.00010438100434839725,-0.001696073217317462,0.0041348133236169815,-0.00013027583190705627,-0.3905276656150818,0.6657613515853882,0.42392295598983765,1.1774729490280151,-0.023370888084173203,-5.00827693939209,0.3314400017261505,0.6580808162689209,0.42000001668930054,-0.6799557209014893,2.999992847442627,-0.5954627394676208,-2.9999992847442627,-0.13059742748737335,-0.13952778279781342,-0.1485406905412674,-0.15747734904289246,-0.9429435729980469,-0.9503957033157349,-0.9561594724655151,-0.9599803686141968
0.31666666666666665,0.05822209641337395,0.10793311893939972,0.0,0.9249014854431152,0.0,0.0,-0.38020679354667664,-0.5330478549003601,-0.30169323086738586,0.0,0.0,0.0,1.1051675081253052,-0.3785368800163269,0.6643004417419434,0.4200000464916229,1.0,3.6662484035332454e-06,-2.3923957996885292e-06,1.6798234980797133e-07,0.0002660209429450333,0.00026706972857937217,-0.00010418822057545185,-0.0017310596304014325,0.004193526227027178,-0.00012849683116655797,-0.3916562497615814,0.669237494468689,0.4252892732620239,-0.10780192911624908,0.21468746662139893,-0.2125105857849121,0.3314400017261505,0.6580808162689209,0.42000001668930054,-0.6300079226493835,2.9999868869781494,-0.6459193229675293,-3.0,-0.1371414065361023,-0.1457628607749939,-0.15413011610507965,-0.1620381623506546,-0.4218203127384186,-0.3887975215911865,-0.33933520317077637,-0.2716161012649536
0.3333333333333333,0.0477464385330677,0.10125955194234848,0.0,0.9196637868881226,0.0,0.0,-0.39270660281181335,-0.6745819449424744,-0.4411989152431488,0.0,0.0,0.0,-2.5303525924682617,-0.3781086504459381,0.6658428907394409,0.42000001668930054,0.9997894763946533,-1.3152926840120926e-05,1.5317089491873048e-05,-0.020515475422143936,0.06970158964395523,0.16473838686943054,-0.00039416574873030186,0.026034221053123474,-0.006831977050751448,-3.641380548477173,-0.3906508684158325,0.6711612343788147,0.42186903953552246,0.18450072407722473,0.13152500987052917,-0.19486494362354279,0.3314400017261505,0.6580808162689209,0.42000001668930054,-0.5800028443336487,2.9999780654907227,-0.6959747076034546,-2.99996280670166,-0.14528799057006836,-0.15293556451797485,-0.16006483137607574,-0.16646017134189606,-0.5230299234390259,-0.4435441195964813,-0.35023820400238037,-0.24340851604938507
0.35,0.035101212561130524,0.09220840781927109,0.0,0.9208666086196899,0.0,0.0,-0.3898777663707733,-0.7976408004760742,-0.586039125919342,0.0,0.0,0.0,1.3085354566574097,-0.3751682639122009,0.6707906723022461,0.42000675201416016,0.9972324371337891,-8.12626676633954e-05,7.280935096787289e-05,-0.07434599101543427,0.22092588245868683,0.38220110535621643,0.011813490651547909,0.1232168972492218,0.7066752910614014,-10.112641334533691,-0.38752076029777527,0.6763044595718384,0.42020389437675476,0.14783796668052673,0.4555574357509613,0.1670874059200287,0.3314400017261505,0.6580808162689209,0.42000001668930054,-0.5299959778785706,3.0,-0.7460092306137085,-2.9997527599334717,-0.15489929914474487,-0.16070593893527985,-0.16573020815849304,-0.16978351771831512,-0.5529906749725342,-0.4260534644126892,-0.28156739473342896,-0.12188360840082169
0.36666666666666664,0.025795290246605873,0.08029306679964066,0.0,0.9162243604660034,0.0,0.0,-0.4006655514240265,-0.4657912254333496,-0.7650051116943359,0.0,0.0,0.0,-2.2958757877349854,-0.3706938326358795,0.6780194044113159,0.4200001657009125,0.9855309128761292,1.151373544416856e-05,3.2358846056013135e-06,-0.16949571669101715,0.291299968957901,0.4597732424736023,-0.00037986147799529135,-0.017111603170633316,0.0157659649848938,-12.145668983459473,-0.38103699684143066,0.6842583417892456,0.4202294945716858,0.5425527095794678,0.4785224497318268,0.08964164555072784,0.3314400017261505,0.6580808162689209,0.42000001668930054,-0.4799612760543823,2.9998691082000732,-0.7960229516029358,-2.9999806880950928,-0.1642831563949585,-0.16745124757289886,-0.1694934368133545,-0.1702815443277359,-0.5292956233024597,-0.3527105748653412,-0.15386125445365906,0.06285639852285385
0.3833333333333333,0.014435078017413616,0.066732257604599,0.0,0.8988320231437683,0.0,0.0,-0.4382932782173157,-0.7617381811141968,-0.8385803699493408,0.0,0.0,0.0,-5.910152912139893,-0.3593657612800598,0.6919674873352051,0.4216291904449463,0.9789258241653442,-0.033695802092552185,-0.0028265637811273336,-0.2013971209526062,0.9328663945198059,1.0409597158432007,0.22377614676952362,-7.3476786613464355,-3.547956943511963,-5.28501033782959,-0.36790359020233154,0.6958135366439819,0.4220842719078064,1.091451644897461,1.0261402130126953,0.13587979972362518,0.3314400017261505,0.6580808162689209,0.42000001668930054,-0.4299015700817108,2.9809765815734863,-0.8460310697555542,-2.998551845550537,-0.17457081377506256,-0.1744450330734253,-0.1728040724992752,-0.16960926353931427,-0.5707893371582031,-0.3769855499267578,-0.15934044122695923,0.07658973336219788
0.4,0.005964759737253189,0.050203997641801834,0.0,0.8665116429328918,0.0,0.0,-0.4991568326950073,-0.4619275629520416,-1.0351098775863647,0.0,0.0,0.0,-9.024151802062988,-0.3259531855583191,0.7154446840286255,0.42544877529144287,0.9652807116508484,-0.034532222896814346,-0.03640503063797951,-0.2563498318195343,3.310739517211914,1.8332645893096924,0.24645791947841644,22.687936782836914,-11.580822944641113,9.367425918579102,-0.33384308218955994,0.720818042755127,0.42493414878845215,2.9574828147888184,1.9483327865600586,0.392704039812088,0.3314400017261505,0.6580808162689209,0.42000001668930054,-0.3909744620323181,1.5535304546356201,-0.8960473537445068,-3.0000016689300537,-0.18421809375286102,-0.18042528629302979,-0.1747625321149826,-0.1673046350479126,-0.6469396948814392,-0.3956013023853302,-0.12731721997261047,0.14992882311344147
0.4166666666666667,-8.335706661455333e-05,0.0392146110534668,0.0,0.8170210123062134,0.0,0.0,-0.576607882976532,-0.31211057305336,-0.530045747756958,0.0,0.0,0.0,-11.800243377685547,-0.25034427642822266,0.7519129514694214,0.4306963086128235,0.9457691311836243,0.02845284715294838,-0.0816991925239563,-0.3131074905395508,6.0804524421691895,2.0884008407592773,0.4146408438682556,6.1412224769592285,-9.02763557434082,17.946176528930664,-0.25755125284194946,0.7584280967712402,0.4299679398536682,5.781028747558594,2.664306640625,0.3958714008331299,0.3314400017261505,0.6580808162689209,0.42000001668930054,-0.37162506580352783,0.8786148428916931,-0.858840823173523,2.999361276626587,-0.1998482197523117,-0.19285738468170166,-0.1816723495721817,-0.16890844702720642,-0.8701936602592468,-0.8160109519958496,-0.5034186244010925,-0.21393176913261414
0.43333333333333335,-0.0027765885461121798,0.031518492847681046,0.0,0.7768736481666565,0.0,0.0,-0.6296564936637878,-0.1047259196639061,-0.42623552680015564,0.0,0.0,0.0,-6.831237316131592,-0.15704764425754547,0.7887187600135803,0.44018229842185974,0.907100260257721,0.05516612157225609,-0.11673842370510101,-0.40062177181243896,5.787803649902344,1.7504749298095703,0.8476560115814209,35.463706970214844,-2.9899520874023438,12.26819133758545,-0.16372832655906677,0.7980132699012756,0.43950116634368896,5.667455673217773,1.9732351303100586,0.6800651550292969,0.3314400017261505,0.6580808162689209,0.42000001668930054,-0.3579539656639099,0.8135085105895996,-0.8808411955833435,-3.000002861022949,-0.21029624342918396,-0.20416171848773956,-0.18963341414928436,-0.1731332689523697,-0.5399295091629028,-0.5809991955757141,-0.4282788634300232,-0.25929123163223267
0.45,-0.007496987469494343,0.019581472501158714,0.0,0.7562559843063354,0.0,0.0,-0.6542758941650391,-0.22700455784797668,-0.6573405861854553,0.0,0.0,0.0,-2.5790646076202393,-0.06291361153125763,0.8127567172050476,0.452424019575119,0.8503350019454956,0.06891784071922302,-0.11109539121389389,-0.5097436308860779,5.396170139312744,-0.09557431191205978,0.5184968113899231,-14.984535217285156,6.154843330383301,41.6207389831543,-0.06949743628501892,0.8229122161865234,0.45147669315338135,5.957710266113281,0.9138447046279907,0.8943369388580322,0.3314400017261505,0.6580808162689209,0.42000001668930054,-0.3450225591659546,0.5690961480140686,-0.9308651685714722,-3.0000011920928955,-0.21792800724506378,-0.21126200258731842,-0.1938440352678299,-0.1743631213903427,-0.7303757071495056,-0.5838622450828552,-0.34371712803840637,-0.11170203983783722
0.4666666666666667,-0.012742736376821995,0.01296794693917036,0.0,0.7284618616104126,0.0,0.0,-0.6850863695144653,-0.4044237434864044,-0.3963403105735779,0.0,0.0,0.0,-5.682386875152588,0.030831534415483475,0.8130447864532471,0.4623875021934509,0.7979141473770142,0.06970635801553726,-0.09966358542442322,-0.5903737545013428,5.298462390899658,-1.4048835039138794,0.45216941833496094,-11.714776039123535,-11.018791198730469,26.577495574951172,0.025102287530899048,0.824845552444458,0.462024450302124,5.704787254333496,-0.3967604637145996,0.6471484899520874,0.3314400017261505,0.6580808162689209,0.42000001668930054,-0.3375052511692047,0.2705984115600586,-0.9808892011642456,-3.0000038146972656,-0.23241853713989258,-0.2223525494337082,-0.20057529211044312,-0.17693811655044556,-0.7123544216156006,-0.515023946762085,-0.28523382544517517,-0.0636802613735199
0.48333333333333334,-0.016671419143676758,0.006123938597738743,0.0,0.7138152718544006,0.0,0.0,-0.7003340721130371,-0.1777239441871643,-0.36574023962020874,0.0,0.0,0.0,-1.4744001626968384,0.11591064929962158,0.8009192943572998,0.4687742292881012,0.7535680532455444,0.049259576946496964,-0.08101291209459305,-0.6504963636398315,4.580585479736328,-1.731741189956665,0.30376893281936646,-6.244042873382568,-2.6138765811920166,14.23867130279541,0.11214764416217804,0.8122282028198242,0.46914952993392944,4.968841552734375,-1.1721346378326416,0.35324713587760925,0.3314400017261505,0.6580808162689209,0.42000001668930054,-0.3303039073944092,0.5475362539291382,-1.0309120416641235,-3.0000014305114746,-0.23997987806797028,-0.22842472791671753,-0.20368705689907074,-0.17734655737876892,-0.018028181046247482,-0.3374033570289612,-0.1944257766008377,-0.07359092682600021
0.5,-0.01718686707317829,0.0023610421922057867,0.0,0.6915149092674255,0.0,0.0,-0.722362220287323,0.027355380356311798,-0.1216966062784195,0.0,0.0,0.0,-4.576298713684082,0.19013077020645142,0.7783586382865906,0.4686727523803711,0.7123252749443054,0.023698311299085617,-0.06467866897583008,-0.6984609365463257,3.748187780380249,-2.1449766159057617,0.023225991055369377,7.387633323669434,1.1074583530426025,23.88584327697754,0.1873357743024826,0.7902045249938965,0.4700685143470764,4.304876327514648,-1.5825812816619873,-0.14183694124221802,0.3314400017261505,0.6580808162689209,0.42000001668930054,-0.3191922903060913,0.6013401746749878,-1.0809341669082642,-3.0000016689300537,-0.23890259861946106,-0.2320561707019806,-0.20598283410072327,-0.17859262228012085,0.09539470821619034,-0.13507919013500214,-0.09549984335899353,-0.07274401932954788
0.5166666666666666,-0.01433135662227869,-0.0044981250539422035,0.0,0.6816627979278564,0.0,0.0,-0.7316664457321167,0.16418269276618958,-0.3670198917388916,0.0,0.0,0.0,-0.6708825826644897,0.2521986961364746,0.7521775960922241,0.4635310471057892,0.6753347516059875,-0.019699135795235634,-0.048169851303100586,-0.7356727719306946,2.910219430923462,-2.2143917083740234,-0.2601647973060608,4.331151008605957,1.4068527221679688,23.025678634643555,0.2502937316894531,0.7630480527877808,0.46596938371658325,3.3934240341186523,-1.8138515949249268,-0.35745131969451904,0.3314400017261505,0.6580808162689209,0.42000001668930054,-0.3079097867012024,0.6767035126686096,-1.1309562921524048,-3.0000009536743164,-0.23325392603874207,-0.2298285812139511,-0.20417244732379913,-0.17750325798988342,0.24241900444030762,0.11140554398298264,0.07806040346622467,0.01901060901582241
0.5333333333333333,-0.012310413643717766,-0.006843724753707647,0.0,0.6624505519866943,0.0,0.0,-0.7491056323051453,0.09042851626873016,-0.11848238855600357,0.0,0.0,0.0,-3.8947434425354004,0.3000562787055969,0.7233022451400757,0.45242488384246826,0.6413742303848267,-0.05869736522436142,-0.02881312184035778,-0.7644367218017578,2.301393747329712,-1.9279584884643555,-0.4912225604057312,15.083684921264648,1.094077706336975,10.492076873779297,0.29832518100738525,0.7335870862007141,0.45577919483184814,2.5783143043518066,-1.7796642780303955,-0.8588734269142151,0.3314400017261505,0.6580808162689209,0.42000001668930054,-0.2952519655227661,0.7343250513076782,-1.1809784173965454,-3.0000014305114746,-0.2291182279586792,-0.22769789397716522,-0.2034733146429062,-0.1785861998796463,0.3646279275417328,0.23955833911895752,0.09518368542194366,-0.06533454358577728
0.55,-0.009052376262843609,-0.00635276036337018,0.0,0.6580685973167419,0.0,0.0,-0.7529579401016235,0.2266947329044342,0.11789019405841827,0.0,0.0,0.0,0.22166083753108978,0.3371613919734955,0.696913480758667,0.43631553649902344,0.5591863989830017,-0.0936509296298027,-0.01903284527361393,-0.8235154151916504,1.9397468566894531,-1.418276071548462,-1.0985107421875,-3.9750704765319824,2.962754011154175,-20.32810401916504,0.33283424377441406,0.7053301334381104,0.4406178593635559,1.6187087297439575,-1.6249759197235107,-0.9933755993843079,0.3314400017261505,0.6580808162689209,0.42000001668930054,-0.27892938256263733,1.3721214532852173,-1.2193256616592407,-1.6849236488342285,-0.22270171344280243,-0.22319678962230682,-0.20195241272449493,-0.18024097383022308,0.4291408658027649,0.31725943088531494,0.10321541875600815,-0.11941123753786087
0.5666666666666667,-0.0035280114971101284,-0.009100433439016342,0.0,0.6430028676986694,0.0,0.0,-0.7658637762069702,0.3501514196395874,-0.19469189643859863,0.0,0.0,0.0,-3.2819573879241943,0.3565289378166199,0.6789332628250122,0.4241795539855957,0.5797964930534363,-0.06607747822999954,0.0580611377954483,-0.8099991083145142,0.6335351467132568,-0.9011759757995605,-0.21550434827804565,15.856369972229004,-3.562711238861084,10.85688591003418,0.3531150817871094,0.6852058172225952,0.4270649552345276,0.5661070942878723,-0.7852690815925598,-0.12069479376077652,0.3314400017261505,0.6580808162689209,0.42000001668930054,-0.2520343065261841,1.6083835363388062,-1.176449179649353,2.992116689682007,-0.21230871975421906,-0.21506808698177338,-0.19820772111415863,-0.18087999522686005,0.6010991334915161,0.4886219799518585,0.22754918038845062,-0.02970888651907444
0.5833333333333334,-0.00021440559066832066,-0.009198606014251709,0.0,0.641223669052124,0.0,0.0,-0.7673540115356445,0.13915295898914337,0.03381970897316933,0.0,0.0,0.0,0.6066502332687378,0.36193355917930603,0.6664692163467407,0.42432552576065063,0.5932076573371887,-0.07402916252613068,0.08800604939460754,-0.7967931032180786,0.1706206202507019,-0.8375707268714905,0.12391792982816696,3.5927622318267822,8.706658363342285,6.934914588928223,0.35839956998825073,0.67229163646698,0.42755961418151855,0.08492540568113327,-0.6483621597290039,0.10318692028522491,0.3314400017261505,0.6580808162689209,0.42000001668930054,-0.2664709985256195,-2.856501817703247,-1.1979986429214478,-2.9985759258270264,-0.2053021788597107,-0.20907478034496307,-0.19601424038410187,-0.18245403468608856,0.4829334616661072,0.4138528108596802,0.16807228326797485,-0.07160143554210663
0.6,0.004229634068906307,-0.005749209318310022,0.0,0.6592947840690613,0.0,0.0,-0.7518845796585083,0.2934998571872711,0.26471051573753357,0.0,0.0,0.0,3.803582191467285,0.36082422733306885,0.6563369631767273,0.4247894585132599,0.593152642250061,-0.08394593745470047,0.09821555763483047,-0.7946550250053406,-0.14257390797138214,-0.3873998820781708,0.018573131412267685,-2.720968008041382,-0.8088559508323669,-6.7841081619262695,0.3566674292087555,0.6660051941871643,0.4285869598388672,-0.28089550137519836,-0.10775545239448547,0.03774653375148773,0.3314400017261505,0.6580808162689209,0.42000001668930054,-0.2959335446357727,-0.8453375697135925,-1.238747477531433,-1.9530775547027588,-0.19748561084270477,-0.2025577872991562,-0.19374528527259827,-0.18422526121139526,0.5338283777236938,0.4416723847389221,0.17283330857753754,-0.07943069189786911
0.6166666666666667,0.010373217053711414,-0.006487120874226093,0.0,0.6648682355880737,0.0,0.0,-0.7469606399536133,0.3872513771057129,-0.05675724893808365,0.0,0.0,0.0,-0.12343146651983261,0.35832786560058594,0.6533243060112,0.4238666892051697,0.6029109954833984,-0.06605035066604614,0.08658836036920547,-0.7903405427932739,-0.1719912588596344,-0.31772464513778687,-0.07338032871484756,-1.335374355316162,-4.861292839050293,-1.086851954460144,0.3543145954608917,0.6661703586578369,0.4277808964252472,-0.1722513884305954,-0.005837108939886093,-0.033903975039720535,0.3314400017261505,0.6580808162689209,0.42000001668930054,-0.3402631878852844,-2.999690532684326,-1.196729302406311,2.999666690826416,-0.18517404794692993,-0.1920642852783203,-0.18791213631629944,-0.18269456923007965,0.579316258430481,0.5243841409683228,0.3006369471549988,0.09455986320972443
0.6333333333333333,0.01831023395061493,-0.009855692274868488,0.0,0.6799512505531311,0.0,0.0,-0.7332572937011719,0.5153288841247559,-0.2991689443588257,0.0,0.0,0.0,3.210096597671509,0.3554163873195648,0.6489636898040771,0.4218430519104004,0.6103423237800598,-0.029083963483572006,0.03717365115880966,-0.7907302975654602,-0.20897413790225983,-0.24276971817016602,-0.1360580027103424,-2.2314646244049072,-7.921202659606934,3.4032838344573975,0.35166871547698975,0.6660071611404419,0.4302130341529846,-0.1643773913383484,0.020264767110347748,0.251406729221344,0.3314400017261505,0.6580808162689209,0.42000001668930054,-0.3902721703052521,-2.999988079071045,-1.218043565750122,-2.999892473220825,-0.17811129987239838,-0.1848060041666031,-0.18305541574954987,-0.17990151047706604,0.3872564733028412,0.4333326816558838,0.3360353112220764,0.26150086522102356
0.65,0.02825019508600235,-0.016451697796583176,0.0,0.6817651987075806,0.0,0.0,-0.7315710783004761,0.6261463761329651,-0.45615196228027344,0.0,0.0,0.0,-0.7016888856887817,0.3528766632080078,0.6467218995094299,0.4200148284435272,0.6225003600120544,5.4376403568312526e-05,-0.00015059710131026804,-0.7826194763183594,-0.15562187135219574,-0.09334272146224976,-0.006689984351396561,-0.07859573513269424,0.3253645896911621,0.7823433876037598,0.35149866342544556,0.667262077331543,0.43532508611679077,0.04604804888367653,0.08722327649593353,0.3342859447002411,0.3314400017261505,0.6580808162689209,0.42000001668930054,-0.4402834475040436,-2.99906063079834,-1.2680503129959106,-2.9998955726623535,-0.17310062050819397,-0.17843621969223022,-0.17746761441230774,-0.17468449473381042,0.2822272479534149,0.3853015899658203,0.3723617196083069,0.38417506217956543
0.6666666666666666,0.04021672159433365,-0.024851422756910324,0.0,0.6621407270431519,0.0,0.0,-0.7493795156478882,0.750594437122345,-0.5980013608932495,0.0,0.0,0.0,-4.024517059326172,0.3511972725391388,0.645707368850708,0.4200000464916229,0.6275081634521484,-2.7099654289486352e-06,6.840032824584341e-07,-0.7786098718643188,-0.08263813704252243,-0.049682725220918655,-9.020068682730198e-05,5.321136995917186e-05,-0.0036103297024965286,0.7807062268257141,0.3567293882369995,0.6692055463790894,0.4486227035522461,0.5896374583244324,0.1361394077539444,1.3588261604309082,0.3314400017261505,0.6580808162689209,0.42000001668930054,-0.4902959167957306,-2.999990463256836,-1.3180686235427856,-3.0,-0.17132970690727234,-0.17468738555908203,-0.17349518835544586,-0.17013019323349,0.040786948055028915,0.16364933550357819,0.19154693186283112,0.23816172778606415
0.6833333333333333,0.05654638633131981,-0.028064219281077385,0.0,0.655051052570343,0.0,0.0,-0.7555845975875854,1.0669599771499634,-0.05908449739217758,0.0,0.0,0.0,-0.13479973375797272,0.350663423538208,0.6453785300254822,0.4199999272823334,0.6319491863250732,-1.8523605831433088e-05,1.333262389380252e-06,-0.77500981092453,-0.014610376209020615,-0.009432800114154816,-0.00031192286405712366,-9.065673657460138e-05,-0.0027967016212642193,0.5019054412841797,0.36665797233581543,0.6723998785018921,0.4776341915130615,0.6490973234176636,0.29765060544013977,2.1048431396484375,0.3314400017261505,0.6580808162689209,0.42000001668930054,-0.5403028130531311,-3.0000011920928955,-1.3680869340896606,-3.000000238418579,-0.17682096362113953,-0.17752081155776978,-0.17515374720096588,-0.1704486906528473,-0.37703853845596313,-0.2378798872232437,-0.1773846447467804,-0.1092725619673729
0.7,0.06951159983873367,-0.026678187772631645,0.0,0.670632541179657,0.0,0.0,-0.741789698600769,0.6997225880622864,-0.10753047466278076,0.0,0.0,0.0,2.9812469482421875,0.3506625294685364,0.6453784108161926,0.42000001668930054,0.6319493055343628,-3.837165536424436e-07,-4.2639435378077906e-06,-0.7750096321105957,0.0001849922991823405,-0.00034768530167639256,-7.155979983508587e-05,0.008003568276762962,-0.001269499072805047,-0.0005701463087461889,0.3767065703868866,0.6779837608337402,0.5063969492912292,0.6923720836639404,0.43359559774398804,1.3466095924377441,0.3314400017261505,0.6580808162689209,0.42000001668930054,-0.56150883436203,0.2020919919013977,-1.4181052446365356,-3.000000476837158,-0.18061257898807526,-0.17944523692131042,-0.17636990547180176,-0.17089621722698212,0.1740216463804245,0.19409143924713135,0.16039085388183594,0.135575532913208
0.7166666666666667,0.07771439105272293,-0.033328503370285034,0.0,0.6715649962425232,0.0,0.0,-0.7409456372261047,0.4655749797821045,-0.3625480830669403,0.0,0.0,0.0,-0.8401893377304077,0.3506624400615692,0.6453784704208374,0.41999998688697815,0.6319494843482971,-5.704339969270222e-07,-5.463658908411162e-06,-0.7750095725059509,0.0002039310202235356,-0.00041245605098083615,-8.821231313049793e-05,0.009203510358929634,-0.0014152341755107045,-0.0006165378727018833,0.38482579588890076,0.6850711703300476,0.5223591327667236,0.19711139798164368,0.19805651903152466,0.7308627963066101,0.3314400017261505,0.6580808162689209,0.42000001668930054,-0.5790588855743408,-2.0938570499420166,-1.3796085119247437,3.000000476837158,-0.17404349148273468,-0.17305701971054077,-0.17095717787742615,-0.1663927584886551,0.1681491732597351,0.20884229242801666,0.2016553282737732,0.18625253438949585
0.7333333333333333,0.08280321210622787,-0.035432156175374985,0.0,0.6824106574058533,0.0,0.0,-0.7309690117835999,0.257282018661499,-0.07750483602285385,0.0,0.0,0.0,2.558349370956421,0.3506624400615692,0.6453784704208374,0.41999998688697815,0.6319494843482971,-6.210351557456306e-07,-5.793326181446901e-06,-0.7750095129013062,0.0002020440879277885,-0.00041054480243474245,-8.792243897914886e-05,0.009153309278190136,-0.001415241858921945,-0.0006112064002081752,0.38548147678375244,0.6867332458496094,0.5305449962615967,-0.09071416407823563,0.09041435271501541,0.3024137020111084,0.3314400017261505,0.6580808162689209,0.42000001668930054,-0.5889732241630554,0.6727222204208374,-1.3980859518051147,-3.000000476837158,-0.17299993336200714,-0.17098470032215118,-0.16858595609664917,-0.163972407579422,0.1186523288488388,0.16699081659317017,0.17718003690242767,0.16946174204349518
0.75,0.08437051624059677,-0.039634328335523605,0.0,0.6813167333602905,0.0,0.0,-0.7319887280464172,0.04005267471075058,-0.2677662968635559,0.0,0.0,0.0,-1.0046546459197998,0.3506624400615692,0.6453784704208374,0.41999998688697815,0.6319495439529419,-5.527840585273225e-07,-5.59796399102197e-06,-0.7750095129013062,0.0002020226966124028,-0.00041036895709112287,-8.788495324552059e-05,0.009149561636149883,-0.0014142714207991958,-0.000611110997851938,0.38065260648727417,0.6868801116943359,0.5290869474411011,-0.5029057264328003,-0.10059535503387451,-0.2913254499435425,0.3314400017261505,0.6580808162689209,0.42000001668930054,-0.5996146202087402,-1.7330265045166016,-1.359649419784546,3.0,-0.17092525959014893,-0.16817717254161835,-0.16560038924217224,-0.1611594259738922,0.058616019785404205,0.11246868968009949,0.13600419461727142,0.13433204591274261
0.7666666666666666,0.08680108934640884,-0.041046496480703354,0.0,0.6901618242263794,0.0,0.0,-0.723655104637146,0.1868859827518463,-0.03654969856142998,0.0,0.0,0.0,2.254192590713501,0.3506624400615692,0.6453784704208374,0.41999998688697815,0.6319495439529419,-5.533309490601823e-07,-5.574606802838389e-06,-0.7750093936920166,0.00020123840658925474,-0.00040988848195411265,-8.782511577010155e-05,0.009135481901466846,-0.0014163277810439467,-0.0006089915405027568,0.37499067187309265,0.6848570108413696,0.5254799127578735,-0.18746985495090485,-0.10855679959058762,-0.09808096289634705,0.3314400017261505,0.6580808162689209,0.42000001668930054,-0.617766797542572,-0.5341923832893372,-1.3784972429275513,-2.999999761581421,-0.17035813629627228,-0.16687308251857758,-0.16384601593017578,-0.1592639982700348,0.07693607360124588,0.1054939329624176,0.12704181671142578,0.13543429970741272
0.7833333333333333,0.091525599360466,-0.04534582421183586,0.0,0.6874008774757385,0.0,0.0,-0.7262781858444214,0.31877273321151733,-0.284157931804657,0.0,0.0,0.0,-1.3040871620178223,0.3506624400615692,0.6453784704208374,0.41999998688697815,0.6319496035575867,-5.593088872046792e-07,-5.5533796512463596e-06,-0.7750093936920166,0.00020190392388030887,-0.00041026194230653346,-8.787587285041809e-05,0.009146485477685928,-0.0014149006456136703,-0.0006108104716986418,0.3744819760322571,0.6820828914642334,0.520298957824707,0.0745200514793396,-0.3254934549331665,-0.34526312351226807,0.3314400017261505,0.6580808162689209,0.42000001668930054,-0.6502200365066528,-3.000000476837158,-1.340118169784546,3.000000476837158,-0.1678057610988617,-0.16402682662010193,-0.1606835424900055,-0.15593211352825165,0.056637514382600784,0.1006302759051323,0.1495693027973175,0.18931905925273895
0.8,0.09884090721607208,-0.046476077288389206,0.0,0.6647781133651733,0.0,0.0,-0.747040867805481,0.4841811954975128,-0.030765783041715622,0.0,0.0,0.0,-4.48850154876709,0.3506624400615692,0.6453784704208374,0.41999998688697815,0.6319494247436523,-7.278368343577313e-07,-5.459032763610594e-06,-0.7750095129013062,0.00020213035168126225,-0.00040996194002218544,-8.784467354416847e-05,0.009139656089246273,-0.001410412834957242,-0.0006112089031375945,0.38159608840942383,0.6773173809051514,0.5189493894577026,0.7498858571052551,-0.2398049384355545,0.31370338797569275,0.3314400017261505,0.6580808162689209,0.42000001668930054,-0.7001557350158691,-2.9768359661102295,-1.3593418598175049,-2.9999990463256836,-0.1684207171201706,-0.16417761147022247,-0.16012990474700928,-0.15471206605434418,0.0016517714830115438,0.00623741652816534,0.03253021463751793,0.06226422265172005
0.8166666666666667,0.10835972428321838,-0.04451272264122963,0.0,0.6565347909927368,0.0,0.0,-0.7542957067489624,0.603019654750824,0.18089450895786285,0.0,0.0,0.0,-0.3357882797718048,0.3506624400615692,0.6453784704208374,0.41999998688697815,0.6319494843482971,-5.695880531675357e-07,-5.442058409244055e-06,-0.7750095129013062,0.00020153641526121646,-0.00041012291330844164,-8.786353282630444e-05,0.009141906164586544,-0.0014163748128339648,-0.0006098378798924387,0.39412015676498413,0.678215503692627,0.527744710445404,0.7522002458572388,0.29149329662323,0.7222262620925903,0.3314400017261505,0.6580808162689209,0.42000001668930054,-0.7150400876998901,0.8697425723075867,-1.4093601703643799,-3.0,-0.16751573979854584,-0.16396790742874146,-0.16026364266872406,-0.15515172481536865,0.10225380957126617,0.023967662826180458,-0.03610856458544731,-0.09609107673168182
0.8333333333333334,0.1150178611278534,-0.047546032816171646,0.0,0.6713550090789795,0.0,0.0,-0.7411358952522278,0.388660192489624,-0.2338152378797531,0.0,0.0,0.0,3.06449031829834,0.3506624400615692,0.6453784704208374,0.41999998688697815,0.6319494843482971,-6.196959816406888e-07,-5.773209522885736e-06,-0.7750094532966614,0.0002020405954681337,-0.00041052629239857197,-8.791754953563213e-05,0.00915293674916029,-0.0014152548974379897,-0.0006111988914199173,0.4030487537384033,0.683821439743042,0.5359613299369812,0.3121691048145294,0.2494804561138153,0.27763986587524414,0.3314400017261505,0.6580808162689209,0.42000001668930054,-0.6894620656967163,2.076099157333374,-1.370888352394104,3.0,-0.16143926978111267,-0.15951651334762573,-0.15717457234859467,-0.15345452725887299,0.23229041695594788,0.17432110011577606,0.1259894222021103,0.06921982765197754
0.85,0.11854016780853271,-0.046693701297044754,0.0,0.6727167963981628,0.0,0.0,-0.7399000525474548,0.15271104872226715,0.08911210298538208,0.0,0.0,0.0,-0.6524394750595093,0.3506624400615692,0.6453784704208374,0.41999998688697815,0.6319495439529419,-5.603668000730977e-07,-5.5760538089089096e-06,-0.7750094532966614,0.00020191290241200477,-0.0004103017272427678,-8.787889964878559e-05,0.00914756953716278,-0.001414569327607751,-0.0006108173984102905,0.4028356671333313,0.6864048838615417,0.536329984664917,-0.21522453427314758,0.15615519881248474,-0.09486035257577896,0.3314400017261505,0.6580808162689209,0.42000001668930054,-0.6731272339820862,0.04735983535647392,-1.3208357095718384,2.999999761581421,-0.1620652973651886,-0.1604708880186081,-0.15837499499320984,-0.15512077510356903,0.04159625992178917,-0.0037115805316716433,-0.0428793765604496,-0.09283040463924408
0.8666666666666667,0.11892463266849518,-0.04868403822183609,0.0,0.6838741898536682,0.0,0.0,-0.7295999526977539,-0.05340517312288284,-0.16821937263011932,0.0,0.0,0.0,2.435453176498413,0.3506624400615692,0.6453784704208374,0.41999998688697815,0.6319493651390076,-7.233051064758911e-07,-5.482267170009436e-06,-0.7750095725059509,0.00020224761101417243,-0.0004100402002222836,-8.785398676991463e-05,0.009141763672232628,-0.0014103115536272526,-0.0006115386495366693,0.3989916443824768,0.6885796785354614,0.5333408117294312,-0.30312401056289673,0.15225693583488464,-0.2465740144252777,0.3314400017261505,0.6580808162689209,0.42000001668930054,-0.6512922644615173,2.352705478668213,-1.3403416872024536,-3.000000238418579,-0.16135089099407196,-0.16024687886238098,-0.1585657149553299,-0.15592442452907562,-0.04294506460428238,-0.05236322805285454,-0.05890509486198425,-0.078505739569664
