vladlanda/robotic-transformer/data/env_000_episode_0284.csv
sim_time_s,robot_box_x,robot_box_y,robot_box_z,robot_box_quat_w,robot_box_quat_x,robot_box_quat_y,robot_box_quat_z,robot_box_linvel_x,robot_box_linvel_y,robot_box_linvel_z,robot_box_angvel_x,robot_box_angvel_y,robot_box_angvel_z,cube_world_x,cube_world_y,cube_world_z,cube_quat_w,cube_quat_x,cube_quat_y,cube_quat_z,cube_linvel_x,cube_linvel_y,cube_linvel_z,cube_angvel_x,cube_angvel_y,cube_angvel_z,endpoint_world_x,endpoint_world_y,endpoint_world_z,endpoint_linvel_x,endpoint_linvel_y,endpoint_linvel_z,target_cube_world_x,target_cube_world_y,target_cube_world_z,gripper_actual_pos_rad_gp_leftgearjoint,gripper_actual_vel_rad_s_gp_leftgearjoint,gripper_actual_pos_rad_gp_rotatingjoint,gripper_actual_vel_rad_s_gp_rotatingjoint,motor_angle_rad_joint1,motor_angle_rad_joint2,motor_angle_rad_joint3,motor_angle_rad_joint4,motor_speed_rad_s_joint1,motor_speed_rad_s_joint2,motor_speed_rad_s_joint3,motor_speed_rad_s_joint4
0.0,0.0,0.0,0.0,1.0,0.0,0.0,0.0,0.0,0.0,0.0,0.0,0.0,0.0,-0.46641668677330017,0.7089229226112366,0.41999998688697815,1.0,0.0,0.0,0.0,0.0,0.0,0.0,0.0,0.0,0.0,3.42540442943573e-06,-0.005000244826078415,1.313499927520752,0.0,0.0,0.0,0.42345887422561646,0.7366762161254883,0.42000001668930054,-1.5707999467849731,0.0,0.0,0.0,0.0,0.0,0.0,0.0,0.0,0.0,0.0,0.0
0.016666666666666666,0.0028778850100934505,0.0021806680597364902,0.0,0.9998081922531128,0.0,0.0,0.019586581736803055,0.24087215960025787,0.18240931630134583,0.0,0.0,0.0,3.1418697834014893,-0.4664168059825897,0.7089226245880127,0.41999998688697815,1.0,3.2799914606584935e-06,-8.339814598912199e-07,8.465387679734704e-08,-1.9833554688375443e-05,0.00017983050202019513,-6.133061833679676e-05,0.0009432226070202887,-0.004689437802881002,-0.0003198152990080416,-0.007110234349966049,0.003379564033821225,1.3159373998641968,-0.8143353462219238,0.9868683815002441,0.18095196783542633,0.42345887422561646,0.7366762161254883,0.42000001668930054,-1.5301095247268677,3.0000011920928955,-0.04584788903594017,-2.9999992847442627,0.0008691533003002405,0.0007963840034790337,0.0007110277656465769,0.0006108740926720202,0.11094217747449875,0.09756709635257721,0.08334315568208694,0.06823883205652237
0.03333333333333333,0.008960983715951443,0.006801954470574856,0.0,0.9997960329055786,0.0,0.0,0.020196838304400444,0.407021701335907,0.31530845165252686,0.0,0.0,0.0,-0.8691308498382568,-0.4664169251918793,0.7089225649833679,0.4200000464916229,1.0,3.390885240150965e-06,-2.1324319732229924e-06,-3.711133800265998e-08,0.00026357753085903823,0.00026937859365716577,-0.00010509602725505829,-0.0017706351354718208,0.004130707122385502,-0.00013548039714805782,-0.027551067993044853,0.026125330477952957,1.3166074752807617,-1.5914725065231323,1.6157304048538208,-0.08360535651445389,0.42345887422561646,0.7366762161254883,0.42000001668930054,-1.4800903797149658,3.0000016689300537,-0.09588772058486938,-3.000000238418579,0.0029901296366006136,0.0026527477893978357,0.0022773253731429577,0.0018607878591865301,0.16421929001808167,0.1397634893655777,0.11382300406694412,0.08630559593439102
0.05,0.01775973290205002,0.01377328671514988,0.0,0.9993746876716614,0.0,0.0,0.0353589802980423,0.5939871072769165,0.46518149971961975,0.0,0.0,0.0,2.64748215675354,-0.46641695499420166,0.7089226245880127,0.4200000464916229,1.0,3.7652134778909385e-06,-2.2118977085483493e-06,5.605784725304375e-09,0.0002653079864103347,0.00026691483799368143,-0.00010440615005791187,-0.0017242918256670237,0.0041773696430027485,-0.00012949654774274677,-0.05969400331377983,0.05424334853887558,1.311554193496704,-2.1878294944763184,1.7897155284881592,-0.4855647683143616,0.42345887422561646,0.7366762161254883,0.42000001668930054,-1.4300720691680908,2.999999523162842,-0.145926371216774,-3.000000238418579,0.005710977129638195,0.004918734543025494,0.004054369870573282,0.003113440703600645,0.19264031946659088,0.15574024617671967,0.11696656793355942,0.07622542232275009
0.06666666666666667,0.02907799370586872,0.023068400099873543,0.0,0.9994471669197083,0.0,0.0,0.03324659541249275,0.7205447554588318,0.5952986478805542,0.0,0.0,0.0,-1.2117935419082642,-0.46641695499420166,0.7089225649833679,0.4200000464916229,0.9999999403953552,3.4068298191414215e-06,-2.28560702453251e-06,4.300801776935259e-07,0.00026702682953327894,0.0002679186000023037,-0.00010437914170324802,-0.0017406968399882317,0.004211870953440666,-0.00012850748316850513,-0.09817618876695633,0.08892300724983215,1.2986595630645752,-2.4446301460266113,2.257504463195801,-1.0343235731124878,0.42345887422561646,0.7366762161254883,0.42000001668930054,-1.3800537586212158,3.000000238418579,-0.19596369564533234,-3.0,0.008309517987072468,0.006833281833678484,0.005246057640761137,0.003543194616213441,0.15351751446723938,0.10308118164539337,0.050618771463632584,-0.003979290369898081
0.08333333333333333,0.042285338044166565,0.0345015749335289,0.0,0.9999694228172302,0.0,0.0,0.00782416108995676,0.9100032448768616,0.722419023513794,0.0,0.0,0.0,-4.047235488891602,-0.46641695499420166,0.7089225649833679,0.4200000464916229,0.9999999403953552,3.6261494642531034e-06,-2.3353520646196557e-06,3.03220957675876e-07,0.00026613869704306126,0.00026685185730457306,-0.00010405178181827068,-0.001728373346850276,0.0041963220573961735,-0.0001279099815292284,-0.13758336007595062,0.13004089891910553,1.2785930633544922,-2.302398443222046,2.6187353134155273,-1.3271501064300537,0.42345887422561646,0.7366762161254883,0.42000001668930054,-1.3300354480743408,2.999997854232788,-0.24597127735614777,-3.000002384185791,0.009604428894817829,0.0071906461380422115,0.004616257734596729,0.0019043772481381893,0.08047328144311905,0.011766580864787102,-0.060006655752658844,-0.13175250589847565
0.1,0.05057636275887489,0.049670036882162094,0.0,0.9999988079071045,0.0,0.0,-0.0015657125040888786,0.36091601848602295,0.9843872785568237,0.0,0.0,0.0,-0.11223903298377991,-0.46641695499420166,0.7089225649833679,0.4200000464916229,1.0,3.422180270717945e-06,-2.3086204237188213e-06,1.7963316167879384e-07,0.0002668162633199245,0.00026800515479408205,-0.00010440475307404995,-0.001743071130476892,0.0042070611380040646,-0.00012891352525912225,-0.1782824993133545,0.16964399814605713,1.254014015197754,-2.3716516494750977,2.4085440635681152,-1.5376594066619873,0.42345887422561646,0.7366762161254883,0.42000001668930054,-1.280006766319275,2.999992847442627,-0.21190306544303894,2.9999992847442627,0.00454723322764039,0.0013639930402860045,-0.0020442146342247725,-0.005615579895675182,-0.4240591526031494,-0.47474855184555054,-0.5285768508911133,-0.5837690234184265
0.11666666666666667,0.054398491978645325,0.06530461460351944,0.0,0.999718189239502,0.0,0.0,-0.023737799376249313,0.22704970836639404,0.9152742028236389,0.0,0.0,0.0,-3.454719066619873,-0.46641695499420166,0.7089226245880127,0.4200000464916229,1.0,3.7115075883775717e-06,-2.3327127109951107e-06,2.5744481035872013e-07,0.00026485862326808274,0.0002663535997271538,-0.00010423525236546993,-0.0017182156443595886,0.004170025233179331,-0.00012915159459225833,-0.21412119269371033,0.2129758596420288,1.2315586805343628,-1.9646847248077393,2.8136067390441895,-1.2335104942321777,0.42345887422561646,0.7366762161254883,0.42000001668930054,-1.2300114631652832,3.00000262260437,-0.24328464269638062,-3.000000238418579,-0.002036353573203087,-0.006640381179749966,-0.011479489505290985,-0.016468333080410957,-0.34536755084991455,-0.4563279449939728,-0.565944254398346,-0.6731112003326416
0.13333333333333333,0.05738382786512375,0.08322314918041229,0.0,0.9988086223602295,0.0,0.0,-0.048798538744449615,0.14119431376457214,1.1216678619384766,0.0,0.0,0.0,-2.9288928508758545,-0.46641695499420166,0.7089225649833679,0.4200000464916229,1.0,3.335707560836454e-06,-2.231929784102249e-06,3.113250670594425e-07,0.00026669655926525593,0.00026759272441267967,-0.00010428344830870628,-0.0017370833083987236,0.004205867648124695,-0.00012840259296353906,-0.2502426505088806,0.2621554732322693,1.2081286907196045,-2.2338685989379883,3.1277332305908203,-1.6173696517944336,0.42345887422561646,0.7366762161254883,0.42000001668930054,-1.1799956560134888,2.9999890327453613,-0.21199946105480194,3.0000007152557373,-0.005800700280815363,-0.012493923306465149,-0.019352449104189873,-0.026277154684066772,-0.23862461745738983,-0.3543020486831665,-0.4650792181491852,-0.5705023407936096
0.15,0.058709919452667236,0.09960006922483444,0.0,0.9955465793609619,0.0,0.0,-0.09427084028720856,-0.02336280234158039,0.919672429561615,0.0,0.0,0.0,-6.256172180175781,-0.46641695499420166,0.7089225649833679,0.4200000464916229,1.0,3.518910716593382e-06,-2.283128196722828e-06,-3.6253297253097116e-07,0.00026618537958711386,0.0002673573326319456,-0.00010425900109112263,-0.001734911696985364,0.004195764660835266,-0.0001286038022954017,-0.2858864665031433,0.31668418645858765,1.1797208786010742,-2.012549638748169,3.4728994369506836,-1.831803798675537,0.42345887422561646,0.7366762161254883,0.42000001668930054,-1.1399381160736084,1.8694372177124023,-0.2433781623840332,-3.0,-0.010438541881740093,-0.01905795931816101,-0.027747564017772675,-0.03640612214803696,-0.36682990193367004,-0.4709990620613098,-0.5694155097007751,-0.6622326970100403
0.16666666666666666,0.06467863917350769,0.11692239344120026,0.0,0.9925816059112549,0.0,0.0,-0.12158036231994629,0.49105119705200195,1.0823993682861328,0.0,0.0,0.0,-2.313044786453247,-0.46641695499420166,0.7089225649833679,0.4200000464916229,1.0,3.6666367577709025e-06,-2.339185357413953e-06,-3.1499951091973344e-07,0.00026595836970955133,0.00026667435304261744,-0.0001040350180119276,-0.001725263660773635,0.004192706663161516,-0.0001277874398510903,-0.32463574409484863,0.37225931882858276,1.1423046588897705,-2.328648567199707,3.5156171321868896,-2.6272356510162354,0.42345887422561646,0.7366762161254883,0.42000001668930054,-1.0987465381622314,2.946901321411133,-0.2934074401855469,-3.000000476837158,-0.01346524991095066,-0.023687254637479782,-0.033872198313474655,-0.043926842510700226,-0.16848766803741455,-0.24209070205688477,-0.30984097719192505,-0.37250539660453796
0.18333333333333332,0.0676988810300827,0.1311568319797516,0.0,0.9865082502365112,0.0,0.0,-0.16371172666549683,0.21330302953720093,0.8155786395072937,0.0,0.0,0.0,-5.840536594390869,-0.46641695499420166,0.7089225649833679,0.4200000464916229,1.0,3.81432801077608e-06,-2.3995953597477637e-06,-2.702601591408893e-07,0.00026549241738393903,0.00026611125213094056,-0.0001039144117385149,-0.001717846025712788,0.004184907767921686,-0.0001275365357287228,-0.3604927361011505,0.43376481533050537,1.0942368507385254,-1.881765365600586,4.009368896484375,-3.0424649715423584,0.42345887422561646,0.7366762161254883,0.42000001668930054,-1.0508763790130615,2.7694365978240967,-0.3434213101863861,-3.000000476837158,-0.02208682708442211,-0.03280695155262947,-0.04343607649207115,-0.053903017193078995,-0.48705941438674927,-0.5249007344245911,-0.5585945844650269,-0.5893487930297852
0.2,0.06905802339315414,0.14153404533863068,0.0,0.982578694820404,0.0,0.0,-0.1858469694852829,0.03955768048763275,0.5042802095413208,0.0,0.0,0.0,-1.6332231760025024,-0.46641695499420166,0.7089225649833679,0.4200000464916229,1.0,3.600060153985396e-06,-2.291302735102363e-06,-2.201773270371632e-07,0.0002657297591213137,0.00026644914760254323,-0.00010398100130259991,-0.001722595770843327,0.004188771825283766,-0.00012773473281413317,-0.3940093219280243,0.4958525002002716,1.0352776050567627,-1.8177285194396973,3.767688274383545,-3.955061435699463,0.42345887422561646,0.7366762161254883,0.42000001668930054,-1.0121511220932007,1.9190633296966553,-0.39344772696495056,-2.999999523162842,-0.031581614166498184,-0.04233637452125549,-0.052946124225854874,-0.06336631625890732,-0.6135778427124023,-0.5908674001693726,-0.5659231543540955,-0.5404895544052124
0.21666666666666667,0.06627588719129562,0.1518884301185608,0.0,0.9756859540939331,0.0,0.0,-0.2191733717918396,-0.24847277998924255,0.6676621437072754,0.0,0.0,0.0,-4.872333526611328,-0.46641695499420166,0.7089225649833679,0.4200000464916229,0.9999999403953552,3.639672286226414e-06,-2.2620502022618894e-06,2.2248650566325523e-07,0.000266873772488907,0.00026754458667710423,-0.00010411953553557396,-0.0017403344390913844,0.004211024381220341,-0.00012783858983311802,-0.4241046905517578,0.5585131645202637,0.9632399082183838,-1.6109895706176758,3.7251362800598145,-4.613387107849121,0.42345887422561646,0.7366762161254883,0.42000001668930054,-0.9641453623771667,3.000002145767212,-0.44347503781318665,-3.000000476837158,-0.04505876824259758,-0.05510236322879791,-0.0649704858660698,-0.07464929670095444,-0.8891749978065491,-0.8351883292198181,-0.7798503637313843,-0.7249173521995544
0.23333333333333334,0.06461484730243683,0.16428710520267487,0.0,0.9722940921783447,0.0,0.0,-0.2337609976530075,-0.08616828918457031,0.7934903502464294,0.0,0.0,0.0,-0.7162951231002808,-0.4664169251918793,0.7089225649833679,0.4200000464916229,1.0,3.4207396311103366e-06,-2.316890231668367e-06,2.956003868348489e-07,0.0002668009256012738,0.0002680391480680555,-0.00010442500934004784,-0.001743813743814826,0.004206887446343899,-0.00012899574358016253,-0.4527473747730255,0.6111942529678345,0.880335807800293,-1.5039646625518799,2.838562488555908,-5.299341201782227,0.42345887422561646,0.7366762161254883,0.42000001668930054,-0.9141384959220886,2.999999523162842,-0.4935039281845093,-2.9999985694885254,-0.06059461459517479,-0.07025576382875443,-0.07946528494358063,-0.08784768730401993,-0.987037718296051,-0.9796097278594971,-0.9681732654571533,-0.8897024393081665
0.25,0.06335484236478806,0.17438726127147675,0.0,0.9654721021652222,0.0,0.0,-0.2605064809322357,-0.06192772835493088,0.5373446941375732,0.0,0.0,0.0,-4.1728715896606445,-0.46641695499420166,0.7089225649833679,0.4200000464916229,0.9999999403953552,3.3476337648608023e-06,-2.259205075461068e-06,1.8083990482864465e-07,0.00026687842910178006,0.00026791240088641644,-0.00010439497418701649,-0.0017405577236786485,0.004208357073366642,-0.00012870198406744748,-0.47402310371398926,0.6544643640518188,0.7841174006462097,-0.978386640548706,2.3079700469970703,-6.043387413024902,0.42345887422561646,0.7366762161254883,0.42000001668930054,-0.8641278147697449,3.000000238418579,-0.5435336828231812,-3.0000011920928955,-0.07723233848810196,-0.0868135392665863,-0.09593848884105682,-0.10422947257757187,-0.9906716346740723,-0.9923356175422668,-0.9926069378852844,-0.9812207221984863
0.26666666666666666,0.060095496475696564,0.1802070140838623,0.0,0.9631446003913879,0.0,0.0,-0.26898425817489624,-0.23688249289989471,0.2775682210922241,0.0,0.0,0.0,-0.0855737179517746,-0.46641695499420166,0.7089225649833679,0.4200000464916229,0.9999999403953552,3.5357140859559877e-06,-2.3003274236543803e-06,-1.2686156480867794e-07,0.00026601788704283535,0.00026712179533205926,-0.00010419590398669243,-0.0017317213350906968,0.0041928826831281185,-0.0001284949539694935,-0.48882657289505005,0.6816533803939819,0.6814574003219604,-0.6195552349090576,1.1369811296463013,-6.254552841186523,0.42345887422561646,0.7366762161254883,0.42000001668930054,-0.8141182065010071,2.999998092651367,-0.593563437461853,-2.9999983310699463,-0.09390949457883835,-0.10344746708869934,-0.11253369599580765,-0.12075051665306091,-0.9930709600448608,-0.994329035282135,-0.9953023791313171,-0.9947503209114075
0.2833333333333333,0.05472992733120918,0.1825343519449234,0.0,0.957149088382721,0.0,0.0,-0.2895956337451935,-0.40120238065719604,0.07996590435504913,0.0,0.0,0.0,-3.4099385738372803,-0.46641695499420166,0.7089226245880127,0.4200000464916229,1.0,3.5934606330556562e-06,-2.2626402369496645e-06,-5.653511081504803e-08,0.0002670461544767022,0.0002677498559933156,-0.00010416866280138493,-0.001743200235068798,0.004214190412312746,-0.00012789414904545993,-0.4933038055896759,0.696110725402832,0.5756384134292603,0.1346297264099121,0.5820841193199158,-6.255411624908447,0.42345887422561646,0.7366762161254883,0.42000001668930054,-0.7641094326972961,2.9999923706054688,-0.6435930728912354,-3.0000011920928955,-0.11132411658763885,-0.12067417800426483,-0.12961728870868683,-0.1377210021018982,-0.995183527469635,-0.9963011145591736,-0.9973563551902771,-0.9982982873916626
0.3,0.05165434628725052,0.1817644089460373,0.0,0.9565333724021912,0.0,0.0,-0.2916228175163269,-0.095183826982975,-0.08978182822465897,0.0,0.0,0.0,0.5897732377052307,-0.4664169251918793,0.7089225649833679,0.4200000464916229,0.9999999403953552,3.725018814293435e-06,-2.2360595721693244e-06,3.828810974937369e-07,0.0002647961082402617,0.0002667308726813644,-0.00010453863069415092,-0.0017189140198752284,0.004166588187217712,-0.00013016707089263946,-0.48869937658309937,0.7040613889694214,0.47626635432243347,0.5690171122550964,0.3616400361061096,-5.637115955352783,0.42345887422561646,0.7366762161254883,0.42000001668930054,-0.7141010761260986,3.0000011920928955,-0.6936208009719849,-3.0000014305114746,-0.12849996984004974,-0.1377304494380951,-0.14659146964550018,-0.1546362042427063,-1.0142884254455566,-1.0107921361923218,-1.008120059967041,-1.0059839487075806
0.31666666666666665,0.04545755684375763,0.17911873757839203,0.0,0.951443076133728,0.0,0.0,-0.3078247606754303,-0.47732260823249817,-0.19013983011245728,0.0,0.0,0.0,-2.9187235832214355,-0.4665107727050781,0.7083460092544556,0.4199998676776886,0.9999722838401794,-1.6480743170177448e-06,-8.576309483032674e-06,-0.007434268016368151,-0.0038841217756271362,-0.03918735682964325,7.7604636317119e-06,0.0027396029327064753,-0.0013828705996274948,-1.2049657106399536,-0.48355716466903687,0.7079766988754272,0.427282452583313,0.06512317806482315,0.019020937383174896,-0.21102434396743774,0.42345887422561646,0.7366762161254883,0.42000001668930054,-0.664095938205719,2.999994993209839,-0.7440334558486938,-2.9990103244781494,-0.14376984536647797,-0.15282529592514038,-0.1609729379415512,-0.16817201673984528,-0.6795894503593445,-0.6838345527648926,-0.6192222237586975,-0.5359121561050415
0.3333333333333333,0.03741707280278206,0.1741248220205307,0.0,0.9515266418457031,0.0,0.0,-0.30756640434265137,-0.49376723170280457,-0.3445512652397156,0.0,0.0,0.0,0.9724475741386414,-0.4665086269378662,0.7083112001419067,0.41999998688697815,0.9999697804450989,4.1951307139243e-06,-3.938775705591979e-07,-0.007773581892251968,-5.18156957696192e-05,0.0002570061478763819,-9.06351488083601e-05,0.0004940316430293024,-0.0063934228383004665,-0.0005207232316024601,-0.4817606210708618,0.7161688804626465,0.4247512221336365,0.28509747982025146,0.5880399942398071,-0.17942754924297333,0.42345887422561646,0.7366762161254883,0.42000001668930054,-0.6140897274017334,2.999979019165039,-0.7940933108329773,-2.9999985694885254,-0.15410520136356354,-0.16267484426498413,-0.16929495334625244,-0.17463131248950958,-0.6041488647460938,-0.5428507328033447,-0.4275895059108734,-0.2936648428440094
0.35,0.027490295469760895,0.16679266095161438,0.0,0.9469636082649231,0.0,0.0,-0.3213409185409546,-0.6444650888442993,-0.48012062907218933,0.0,0.0,0.0,-2.6297035217285156,-0.46129360795021057,0.7155464291572571,0.42043253779411316,0.9962545037269592,0.010884566232562065,-0.0010203546844422817,-0.08577567338943481,0.27686652541160583,0.38533949851989746,-0.011757604777812958,-0.6007213592529297,0.06344524770975113,-7.999375820159912,-0.47643744945526123,0.7236719131469727,0.4217979311943054,0.4759203791618347,0.5452864170074463,-0.15371404588222504,0.42345887422561646,0.7366762161254883,0.42000001668930054,-0.5640847086906433,2.999974250793457,-0.8441502451896667,-2.999966621398926,-0.16434241831302643,-0.17151577770709991,-0.17596770823001862,-0.17883935570716858,-0.6026882529258728,-0.4971866011619568,-0.35426458716392517,-0.19635452330112457
0.36666666666666664,0.015308796428143978,0.15721073746681213,0.0,0.9475633502006531,0.0,0.0,-0.319568008184433,-0.7708901762962341,-0.6186604499816895,0.0,0.0,0.0,1.171074390411377,-0.452859491109848,0.7278127074241638,0.42000752687454224,0.9898527264595032,-5.579789649345912e-05,0.00025067926617339253,-0.14209671318531036,0.6231310963630676,0.9099544286727905,-0.008494466543197632,0.024982042610645294,-0.3579934537410736,-5.148486614227295,-0.4668842554092407,0.7354745864868164,0.4198375940322876,0.6749783158302307,0.8867462277412415,-0.085924431681633,0.42345887422561646,0.7366762161254883,0.42000001668930054,-0.5140798091888428,2.99999737739563,-0.8941891193389893,-2.9999959468841553,-0.17471624910831451,-0.17967449128627777,-0.18138132989406586,-0.18126614391803741,-0.5823575258255005,-0.4415262043476105,-0.2735547423362732,-0.09078236669301987
0.3833333333333333,0.00664937449619174,0.1449040323495865,0.0,0.9434686303138733,0.0,0.0,-0.3314617872238159,-0.4377138912677765,-0.7831852436065674,0.0,0.0,0.0,-2.3755593299865723,-0.4418795108795166,0.7434771656990051,0.42007365822792053,0.9838706851005554,-0.0018218258628621697,0.00027082019369117916,-0.17887112498283386,0.7657026648521423,1.059213399887085,0.032770078629255295,-1.5544040203094482,0.519710123538971,-5.369655609130859,-0.454245924949646,0.7499970197677612,0.42019349336624146,0.9018465280532837,0.9551513195037842,0.10355283319950104,0.42345887422561646,0.7366762161254883,0.42000001668930054,-0.4640500843524933,2.999918222427368,-0.9442195296287537,-2.999979257583618,-0.1834149807691574,-0.185740128159523,-0.18438032269477844,-0.18090832233428955,-0.4473532736301422,-0.27887874841690063,-0.08803008496761322,0.12029517441987991
0.4,-0.004990044049918652,0.13094861805438995,0.0,0.9286783337593079,0.0,0.0,-0.3708862364292145,-0.7923805117607117,-0.8627627491950989,0.0,0.0,0.0,-5.9815497398376465,-0.422651469707489,0.765403151512146,0.42218518257141113,0.971551239490509,-0.0249321311712265,-0.007043781690299511,-0.2354077696800232,1.7671679258346558,1.3165031671524048,0.22722388803958893,19.382699966430664,-9.85731315612793,7.695919513702393,-0.434165894985199,0.7719504833221436,0.4223058819770813,1.4738125801086426,1.5604404211044312,0.2800952196121216,0.42345887422561646,0.7366762161254883,0.42000001668930054,-0.41435515880584717,2.751053810119629,-0.994236946105957,-3.0000011920928955,-0.1929478496313095,-0.19207727909088135,-0.18723762035369873,-0.18004129827022552,-0.5811046361923218,-0.3853377401828766,-0.17813801765441895,0.040775198489427567
0.4166666666666667,-0.013272048905491829,0.11409490555524826,0.0,0.9004210233688354,0.0,0.0,-0.43501946330070496,-0.469830721616745,-1.0533992052078247,0.0,0.0,0.0,-9.151379585266113,-0.3869072198867798,0.7962015271186829,0.42862609028816223,0.9566828608512878,0.024127129465341568,-0.04317339509725571,-0.28690028190612793,3.229724884033203,2.2099103927612305,0.6093652248382568,7.666540145874023,-7.491004943847656,5.189448833465576,-0.397461473941803,0.8040957450866699,0.4282364547252655,2.9411325454711914,2.2394895553588867,0.6486449837684631,0.42345887422561646,0.7366762161254883,0.42000001668930054,-0.38488641381263733,1.0111624002456665,-0.9570199251174927,3.000000238418579,-0.20188595354557037,-0.1976117491722107,-0.1892719864845276,-0.17844709753990173,-0.6426472067832947,-0.3979818522930145,-0.1546623557806015,0.08950123190879822
0.43333333333333335,-0.019575458019971848,0.10229194909334183,0.0,0.8562690615653992,0.0,0.0,-0.5165299773216248,-0.2761308252811432,-0.7391638159751892,0.0,0.0,0.0,-11.701756477355957,-0.31371790170669556,0.837165117263794,0.4390982985496521,0.9338575601577759,0.0893390104174614,-0.08051086217164993,-0.3368180990219116,5.740314960479736,2.5518293380737305,0.6453486084938049,4.211389541625977,-8.52421760559082,13.149175643920898,-0.3231850266456604,0.8467398881912231,0.4384983479976654,5.496403694152832,3.0258753299713135,0.7319687604904175,0.42345887422561646,0.7366762161254883,0.42000001668930054,-0.3708989918231964,0.7084339261054993,-0.9069905877113342,2.999833345413208,-0.21759559214115143,-0.2098407745361328,-0.19620412588119507,-0.1804792284965515,-0.5851255655288696,-0.5784080028533936,-0.3339119851589203,-0.11511725932359695
0.45,-0.02167334593832493,0.09234249591827393,0.0,0.8118606209754944,0.0,0.0,-0.5838513374328613,-0.07227960228919983,-0.5352048277854919,0.0,0.0,0.0,-8.505578994750977,-0.21912634372711182,0.8800026774406433,0.4515969157218933,0.8877671360969543,0.12669192254543304,-0.11041485518217087,-0.42851734161376953,5.794462203979492,1.5420712232589722,0.5536230206489563,-3.4742932319641113,-11.947286605834961,42.15896987915039,-0.2279210239648819,0.8925062417984009,0.4511542022228241,6.116133689880371,2.4053869247436523,0.8549216389656067,0.42345887422561646,0.7366762161254883,0.42000001668930054,-0.3581699728965759,0.7270505428314209,-0.932417631149292,-3.000002861022949,-0.22850267589092255,-0.21985258162021637,-0.20237402617931366,-0.18339087069034576,-0.6344860196113586,-0.5513895750045776,-0.3411152958869934,-0.1703549325466156
0.4666666666666667,-0.022188330069184303,0.08635061234235764,0.0,0.7858426570892334,0.0,0.0,-0.618426501750946,0.05678807199001312,-0.3122823238372803,0.0,0.0,0.0,-4.029624938964844,-0.11817921698093414,0.9052181243896484,0.4610539674758911,0.8131925463676453,0.08461453765630722,-0.20132412016391754,-0.5394688844680786,6.242718696594238,0.46695777773857117,0.2360270470380783,-16.328771591186523,-16.445125579833984,17.07207489013672,-0.12727192044258118,0.9211984872817993,0.4639853239059448,6.193950176239014,1.124307632446289,0.9219120144844055,0.42345887422561646,0.7366762161254883,0.42000001668930054,-0.3453558087348938,0.6570672392845154,-0.9824416041374207,-2.999751567840576,-0.2400239109992981,-0.2298230528831482,-0.20838001370429993,-0.18614262342453003,-0.026229698210954666,-0.6393781304359436,-0.40339523553848267,-0.20748744904994965
0.48333333333333334,-0.02385159209370613,0.07698669284582138,0.0,0.7505046129226685,0.0,0.0,-0.6608651876449585,-0.08612310886383057,-0.526231586933136,0.0,0.0,0.0,-7.351536750793457,-0.017063148319721222,0.9123740792274475,0.46964094042778015,0.760152280330658,0.06564062088727951,-0.18885181844234467,-0.6182190179824829,6.031972408294678,-1.4299578666687012,0.3999956250190735,-12.82441234588623,-8.384939193725586,35.747615814208984,-0.02345578745007515,0.9304611682891846,0.47285449504852295,6.475563049316406,-0.12115262448787689,0.5293089151382446,0.42345887422561646,0.7366762161254883,0.42000001668930054,-0.3362163305282593,0.3480750322341919,-1.0324662923812866,-3.0,-0.24004262685775757,-0.2375585287809372,-0.21217751502990723,-0.18659421801567078,-0.08311807364225388,-0.584674060344696,-0.2921290099620819,-0.03770687058568001
0.5,-0.023423166945576668,0.07188227027654648,0.0,0.7278028130531311,0.0,0.0,-0.6857864260673523,0.08414808660745621,-0.30094119906425476,0.0,0.0,0.0,-2.7800981998443604,0.08185966312885284,0.8997764587402344,0.4737108051776886,0.6874791383743286,0.02283213660120964,-0.18901774287223816,-0.7008019089698792,5.301755428314209,-2.1667163372039795,0.2418026328086853,-9.29423713684082,0.8637111783027649,37.71097946166992,0.07759611308574677,0.9188501834869385,0.4780102074146271,5.998592376708984,-1.0680062770843506,0.19874420762062073,0.42345887422561646,0.7366762161254883,0.42000001668930054,-0.332288533449173,0.012275313027203083,-1.0824885368347168,-2.999116897583008,-0.23994477093219757,-0.23990894854068756,-0.21916985511779785,-0.18982699513435364,-0.04913133755326271,0.0032244683243334293,-0.24920526146888733,-0.10300423949956894
0.5166666666666666,-0.019871395081281662,0.06946448236703873,0.0,0.6995488405227661,0.0,0.0,-0.7145847678184509,0.26271307468414307,-0.07733641564846039,0.0,0.0,0.0,-5.9489617347717285,0.17143464088439941,0.8774511814117432,0.46806076169013977,0.581979513168335,-0.061580900102853775,-0.239884153008461,-0.7745727896690369,4.494988918304443,-1.9287152290344238,-0.5646150708198547,-19.479692459106445,11.347014427185059,8.515987396240234,0.1659882515668869,0.8986920118331909,0.47608792781829834,5.016970634460449,-1.490329384803772,-0.3039902448654175,0.42345887422561646,0.7366762161254883,0.42000001668930054,-0.33343642950057983,-0.09731607139110565,-1.1325106620788574,-2.997978925704956,-0.23927819728851318,-0.23842743039131165,-0.22180144488811493,-0.19130156934261322,0.09576081484556198,0.15933921933174133,-0.06752630323171616,-0.05615323781967163
0.5333333333333333,-0.015742264688014984,0.0686713382601738,0.0,0.683274507522583,0.0,0.0,-0.7301615476608276,0.2295616716146469,0.026888234540820122,0.0,0.0,0.0,-1.5582234859466553,0.2441885769367218,0.8487673997879028,0.4575747549533844,0.5274901390075684,-0.11969605088233948,-0.21944166719913483,-0.8119559288024902,3.804755210876465,-2.123615026473999,-0.6553618907928467,-7.244308948516846,7.089958190917969,-5.17203426361084,0.24066834151744843,0.8707973957061768,0.46654564142227173,4.021268367767334,-1.884804368019104,-0.732977032661438,0.42345887422561646,0.7366762161254883,0.42000001668930054,-0.32716113328933716,0.7158310413360596,-1.182532787322998,-3.0000016689300537,-0.23714867234230042,-0.23481087386608124,-0.22136570513248444,-0.19133152067661285,0.15505962073802948,0.25389719009399414,0.0858021229505539,0.016680186614394188
0.55,-0.009916252456605434,0.06466063112020493,0.0,0.6582724452018738,0.0,0.0,-0.7527797818183899,0.40067166090011597,-0.2382599264383316,0.0,0.0,0.0,-4.822751522064209,0.304697185754776,0.8201199173927307,0.4407403767108917,0.5016881823539734,-0.1576707661151886,-0.207555890083313,-0.8248450756072998,3.120114803314209,-2.3020246028900146,-0.7197690010070801,-7.942022323608398,20.31258773803711,-0.4475416839122772,0.3032684326171875,0.841577410697937,0.45031917095184326,3.425699234008789,-1.8582667112350464,-1.174665927886963,0.42345887422561646,0.7366762161254883,0.42000001668930054,-0.31220588088035583,0.8570905327796936,-1.2325549125671387,-2.9972903728485107,-0.23144708573818207,-0.2280275523662567,-0.2176087200641632,-0.18982964754104614,0.2195812463760376,0.3120909333229065,0.17210309207439423,0.02511630579829216
0.5666666666666667,-0.005623236298561096,0.06426393985748291,0.0,0.6476951837539673,0.0,0.0,-0.7618995904922485,0.1778833419084549,-0.012308093719184399,0.0,0.0,0.0,-0.5647776126861572,0.3507803976535797,0.7928380966186523,0.4265049397945404,0.5036988854408264,-0.1582949012517929,-0.09024593979120255,-0.8444440960884094,2.154106378555298,-1.6512943506240845,-0.022731870412826538,-1.454026460647583,-2.908252000808716,0.4136168360710144,0.35102057456970215,0.8102881908416748,0.4360414147377014,2.1138834953308105,-1.6004772186279297,-0.2662632167339325,0.42345887422561646,0.7366762161254883,0.42000001668930054,-0.3000989556312561,0.6707451343536377,-1.2825766801834106,-2.999887704849243,-0.22925150394439697,-0.22413082420825958,-0.21550674736499786,-0.19031208753585815,0.2766982614994049,0.33315369486808777,0.2085367888212204,0.012033596634864807
0.5833333333333334,-0.0006691646995022893,0.060801729559898376,0.0,0.6287722587585449,0.0,0.0,-0.7775894999504089,0.33618277311325073,-0.25361353158950806,0.0,0.0,0.0,-3.805302143096924,0.3826715648174286,0.773827075958252,0.42378801107406616,0.5082460641860962,-0.08880524337291718,-0.05287604779005051,-0.8549874424934387,1.6414880752563477,-0.9491643905639648,-0.18884967267513275,11.618769645690918,-7.0840744972229,2.9025158882141113,0.3807867169380188,0.7889620065689087,0.4315422773361206,1.5280101299285889,-1.1612565517425537,-0.3382176160812378,0.42345887422561646,0.7366762161254883,0.42000001668930054,-0.2850225865840912,1.261635184288025,-1.2565112113952637,3.0000011920928955,-0.22311709821224213,-0.2175908386707306,-0.2111394703388214,-0.18967832624912262,0.39956170320510864,0.40616288781166077,0.27959176898002625,0.03956621140241623
0.6,0.006896191276609898,0.06068503484129906,0.0,0.623798668384552,0.0,0.0,-0.7815850973129272,0.47615355253219604,0.03103753924369812,0.0,0.0,0.0,0.2429058998823166,0.40070655941963196,0.7591112852096558,0.4243505001068115,0.5077107548713684,-0.08647733181715012,-0.0406942144036293,-0.8562098145484924,0.7913805842399597,-1.3670830726623535,0.4986514747142792,11.11113452911377,19.78719711303711,10.61992359161377,0.3995732367038727,0.7729368209838867,0.43291178345680237,0.8685657978057861,-0.8040221333503723,0.03548489138484001,0.42345887422561646,0.7366762161254883,0.42000001668930054,-0.26923003792762756,0.5193196535110474,-1.277237892150879,-2.998396873474121,-0.21845510601997375,-0.21282614767551422,-0.20808567106723785,-0.19043511152267456,0.34240832924842834,0.31317874789237976,0.19684287905693054,-0.05286727100610733
0.6166666666666667,0.011553419753909111,0.05611208826303482,0.0,0.6087104678153992,0.0,0.0,-0.7933924198150635,0.2177705019712448,-0.3049454689025879,0.0,0.0,0.0,-3.0753333568573,0.41243311762809753,0.7494440078735352,0.4232098460197449,0.5290932059288025,-0.07359956949949265,-0.04271145910024643,-0.8442861437797546,0.27439096570014954,-0.7626891732215881,0.29960688948631287,7.449679374694824,13.762436866760254,9.103022575378418,0.41005074977874756,0.7626838684082031,0.43183743953704834,0.2934240698814392,-0.493206262588501,-0.044480275362730026,0.42345887422561646,0.7366762161254883,0.42000001668930054,-0.2685551047325134,-0.23779296875,-1.2391493320465088,3.0000014305114746,-0.2088838517665863,-0.2044854611158371,-0.2020527422428131,-0.1889398843050003,0.4636750817298889,0.4158725142478943,0.31794682145118713,0.08008872717618942
0.6333333333333333,0.01790500618517399,0.05645094811916351,0.0,0.6069655418395996,0.0,0.0,-0.79472815990448,0.37931862473487854,0.019850151613354683,0.0,0.0,0.0,0.5551310777664185,0.41506168246269226,0.7421724796295166,0.4235387146472931,0.5433041453361511,-0.07364318519830704,-0.024903230369091034,-0.8359287977218628,0.08290135860443115,-0.3185769021511078,-0.011191943660378456,1.0885416269302368,-0.11259306967258453,0.9850175380706787,0.41206812858581543,0.7550170421600342,0.43189454078674316,0.06731200218200684,-0.2912665009498596,-0.11598902940750122,0.42345887422561646,0.7366762161254883,0.42000001668930054,-0.27740755677223206,-0.5303603410720825,-1.2599393129348755,-3.0000007152557373,-0.2050500214099884,-0.2009684145450592,-0.19946938753128052,-0.18966197967529297,0.3736303448677063,0.30157190561294556,0.2105768620967865,-0.013798234052956104
0.65,0.025503020733594894,0.05216812714934349,0.0,0.5931671261787415,0.0,0.0,-0.8050793409347534,0.4667283594608307,-0.29409152269363403,0.0,0.0,0.0,-2.971432685852051,0.4171658754348755,0.7399651408195496,0.42192885279655457,0.5487322211265564,-0.04132871702313423,-0.023871395736932755,-0.8346346616744995,0.0688624456524849,-0.23107051849365234,-0.13800053298473358,4.773268699645996,-4.051702499389648,2.1471219062805176,0.41318464279174805,0.7534045577049255,0.42779672145843506,0.02880006656050682,-0.05249983072280884,0.188224658370018,0.42345887422561646,0.7366762161254883,0.42000001668930054,-0.3108693063259125,-2.999990463256836,-1.3098715543746948,-2.99989914894104,-0.19467072188854218,-0.19269926846027374,-0.193344846367836,-0.1876949965953827,0.6690986156463623,0.5338172316551208,0.4091401994228363,0.17310869693756104
0.6666666666666666,0.03565366938710213,0.051753345876932144,0.0,0.5926308631896973,0.0,0.0,-0.8054741621017456,0.6251698136329651,0.008560683578252792,0.0,0.0,0.0,0.8509204983711243,0.4177262485027313,0.7371273636817932,0.4200034439563751,0.557789146900177,2.1249983547022566e-05,-1.1073964742536191e-05,-0.8299826979637146,0.017975253984332085,-0.09286960959434509,-0.0004622894630301744,-0.02201477438211441,0.023534033447504044,0.6025466918945312,0.41321074962615967,0.7525673508644104,0.43067991733551025,0.03672531619668007,0.03660351783037186,0.17281091213226318,0.42345887422561646,0.7366762161254883,0.42000001668930054,-0.3608773946762085,-2.999894618988037,-1.359885811805725,-2.9999070167541504,-0.1875193864107132,-0.1872822791337967,-0.18937556445598602,-0.1869370937347412,0.44791215658187866,0.325660765171051,0.22884927690029144,0.03671824932098389
0.6833333333333333,0.042891424149274826,0.047266583889722824,0.0,0.6152490973472595,0.0,0.0,-0.7883327603340149,0.34716367721557617,-0.3335472643375397,0.0,0.0,0.0,4.038061141967773,0.4178347587585449,0.7365660071372986,0.4200000464916229,0.5590085387229919,-1.1306456215720573e-08,-1.4335682863020338e-08,-0.8291618227958679,0.0023850370198488235,-0.012562733143568039,-1.4242250472307205e-06,-5.7849330914905295e-05,8.271344267996028e-05,0.0527021624147892,0.41247010231018066,0.7529398202896118,0.4342194199562073,-0.13355211913585663,-0.037613511085510254,0.2690933346748352,0.42345887422561646,0.7366762161254883,0.42000001668930054,-0.4108489453792572,-2.9999849796295166,-1.409866452217102,-2.9997496604919434,-0.17974834144115448,-0.18084725737571716,-0.183688685297966,-0.18336817622184753,0.3267521560192108,0.3081846833229065,0.3306046426296234,0.28006476163864136
0.7,0.050392042845487595,0.039902981370687485,0.0,0.6216245293617249,0.0,0.0,-0.7833153009414673,0.4885084629058838,-0.48066505789756775,0.0,0.0,0.0,-0.05010082200169563,0.41783446073532104,0.7365662455558777,0.4200000464916229,0.5590088963508606,2.1266859562274476e-07,-4.220612026983872e-06,-0.8291615843772888,0.00016921664064284414,-0.00016898114699870348,-7.795426063239574e-05,0.0015493221580982208,-0.0011504106223583221,-0.0009579418110661209,0.41346830129623413,0.7529451847076416,0.43956831097602844,0.2300349920988083,-0.008991949260234833,0.41942617297172546,0.42345887422561646,0.7366762161254883,0.42000001668930054,-0.4608626961708069,-2.999999523162842,-1.459884524345398,-2.999999523162842,-0.17601324617862701,-0.17701242864131927,-0.17898640036582947,-0.17881456017494202,0.1876821517944336,0.20707646012306213,0.27543264627456665,0.2932816743850708
0.7166666666666667,0.06001731753349304,0.03008785843849182,0.0,0.6049096584320068,0.0,0.0,-0.796294093132019,0.6148984432220459,-0.6500903367996216,0.0,0.0,0.0,-3.4422597885131836,0.4178345203399658,0.7365661859512329,0.4200000464916229,0.5590085983276367,3.107135739810474e-07,-2.687595269890153e-06,-0.8291618824005127,6.346865120576695e-05,-0.00025577351334504783,-8.129631169140339e-05,0.006464601028710604,-0.0018748996080830693,-0.0007060476928018034,0.41998547315597534,0.7539313435554504,0.4538344740867615,0.5745198726654053,0.09386458992958069,1.3771519660949707,0.42345887422561646,0.7366762161254883,0.42000001668930054,-0.5108755230903625,-2.9999687671661377,-1.509902834892273,-2.9999988079071045,-0.1752151995897293,-0.17563894391059875,-0.17623089253902435,-0.17538246512413025,-0.019063083454966545,0.023406218737363815,0.11282646656036377,0.16724656522274017
0.7333333333333333,0.07473341375589371,0.02580220252275467,0.0,0.600068986415863,0.0,0.0,-0.7999482154846191,0.980504035949707,-0.12766632437705994,0.0,0.0,0.0,0.4282989799976349,0.4178345203399658,0.7365661859512329,0.4200000464916229,0.5590087175369263,1.5594578428590467e-07,-2.6006823645730037e-06,-0.8291616439819336,6.632869190070778e-05,-0.0002556584367994219,-8.189002983272076e-05,0.006446498446166515,-0.0018405286828055978,-0.0007126854616217315,0.4289739727973938,0.7545024752616882,0.4845859408378601,0.5336049795150757,0.07296570390462875,2.283236026763916,0.42345887422561646,0.7366762161254883,0.42000001668930054,-0.5608881115913391,-2.999997854232788,-1.559921145439148,-2.9999990463256836,-0.18243950605392456,-0.18101069331169128,-0.17907851934432983,-0.1762702614068985,-0.5041390657424927,-0.3920567035675049,-0.24121081829071045,-0.11677233874797821
0.75,0.08522018045186996,0.02410200983285904,0.0,0.6189419627189636,0.0,0.0,-0.785436749458313,0.5607113838195801,-0.18203048408031464,0.0,0.0,0.0,3.535184621810913,0.4178345203399658,0.7365661859512329,0.4200000464916229,0.5590085387229919,3.2053148402155784e-07,-2.761692712738295e-06,-0.8291618824005127,6.383793515851721e-05,-0.00025613224715925753,-8.138478733599186e-05,0.006472208071500063,-0.0018722229870036244,-0.000707706029061228,0.4407472014427185,0.7544535398483276,0.5159828662872314,0.8388737440109253,-0.0946037620306015,1.5674781799316406,0.42345887422561646,0.7366762161254883,0.42000001668930054,-0.5922431349754333,-0.9156057834625244,-1.609939455986023,-3.0,-0.18559080362319946,-0.18309392035007477,-0.17936824262142181,-0.17496804893016815,0.043647538870573044,0.07726797461509705,0.15536175668239594,0.23109494149684906
0.7666666666666666,0.09128544479608536,0.01674722135066986,0.0,0.62354975938797,0.0,0.0,-0.7817836403846741,0.3057449460029602,-0.3671140968799591,0.0,0.0,0.0,-0.31536197662353516,0.4178345203399658,0.7365661859512329,0.4200000464916229,0.5590086579322815,1.0470640177118185e-07,-2.7945477540924912e-06,-0.8291618227958679,6.474872498074546e-05,-0.0002565101021900773,-8.153286762535572e-05,0.006477210205048323,-0.0018622904317453504,-0.000710547377821058,0.454123854637146,0.7510542869567871,0.5371134281158447,0.689560055732727,-0.4430427849292755,1.0866554975509644,0.42345887422561646,0.7366762161254883,0.42000001668930054,-0.6343587040901184,-2.999802350997925,-1.5776456594467163,2.9999730587005615,-0.1819390207529068,-0.17909367382526398,-0.17440250515937805,-0.16905352473258972,0.018629752099514008,0.09315092116594315,0.1931159645318985,0.2865554690361023
0.7833333333333333,0.09864183515310287,0.014912473037838936,0.0,0.6056049466133118,0.0,0.0,-0.7957653999328613,0.47335943579673767,-0.0897170826792717,0.0,0.0,0.0,-3.504377841949463,0.4178345203399658,0.7365661859512329,0.4200000464916229,0.5590086579322815,8.402819418051877e-08,-2.7605003651842708e-06,-0.8291618227958679,6.56160555081442e-05,-0.0002562527952250093,-8.174660615622997e-05,0.006465523969382048,-0.0018519496079534292,-0.000712049484718591,0.46578556299209595,0.744922935962677,0.556365966796875,0.7669739127159119,-0.31814849376678467,1.3105661869049072,0.42345887422561646,0.7366762161254883,0.42000001668930054,-0.6739266514778137,-1.8162074089050293,-1.5921354293823242,-2.999999761581421,-0.1829896718263626,-0.17908254265785217,-0.1729341298341751,-0.1661480963230133,0.05150895193219185,0.08093851059675217,0.1336643099784851,0.19168825447559357
0.8,0.1078626960515976,0.016240941360592842,0.0,0.6026699542999268,0.0,0.0,-0.7979905605316162,0.5865803956985474,0.1474478840827942,0.0,0.0,0.0,0.501029908657074,0.4178345203399658,0.7365661859512329,0.4200000464916229,0.5590086579322815,8.284959562843142e-08,-2.728523668338312e-06,-0.8291618227958679,6.54158357065171e-05,-0.0002562532899901271,-8.170329965651035e-05,0.006466641090810299,-0.001854182337410748,-0.0007116087945178151,0.47841665148735046,0.7412753105163574,0.5770859718322754,0.7162033319473267,-0.12485472857952118,1.2447590827941895,0.42345887422561646,0.7366762161254883,0.42000001668930054,-0.6736241579055786,1.5583299398422241,-1.6421537399291992,-3.000000476837158,-0.18151909112930298,-0.1775873750448227,-0.17113319039344788,-0.16395561397075653,0.14578069746494293,0.12423297762870789,0.11179008334875107,0.10263228416442871
0.8166666666666667,0.11347413808107376,0.012364781461656094,0.0,0.6243981719017029,0.0,0.0,-0.7811062335968018,0.355040967464447,-0.2893303632736206,0.0,0.0,0.0,3.9504446983337402,0.4178345203399658,0.7365661859512329,0.4200000464916229,0.5590086579322815,1.0195024913173256e-07,-2.6971711122314446e-06,-0.8291618227958679,6.530426617246121e-05,-0.00025629508309066296,-8.16788524389267e-05,0.006468415260314941,-0.0018556155264377594,-0.0007114448817446828,0.4886226952075958,0.7401454448699951,0.5961580276489258,0.47138866782188416,-0.17895689606666565,1.0881879329681396,0.42345887422561646,0.7366762161254883,0.42000001668930054,-0.6625607013702393,-0.09335797280073166,-1.6030223369598389,3.0,-0.17319320142269135,-0.17038637399673462,-0.16498827934265137,-0.15879425406455994,0.36051279306411743,0.32878777384757996,0.29132962226867676,0.2515307068824768
0.8333333333333334,0.11670732498168945,0.012501467019319534,0.0,0.630781352519989,0.0,0.0,-0.7759606242179871,0.11064787209033966,0.03349072486162186,0.0,0.0,0.0,-0.03716649115085602,0.4178345203399658,0.7365661859512329,0.4200000464916229,0.5590085983276367,1.208563702448373e-07,-2.8526101232273504e-06,-0.8291618227958679,6.508881779154763e-05,-0.0002562953159213066,-8.162716403603554e-05,0.006469446234405041,-0.0018580477917566895,-0.0007109600701369345,0.4941346347332001,0.7366229295730591,0.6084614396095276,0.29819542169570923,-0.19450020790100098,0.5004275441169739,0.42345887422561646,0.7366762161254883,0.42000001668930054,-0.660430371761322,0.3119198977947235,-1.5529645681381226,3.000000238418579,-0.17074847221374512,-0.16785728931427002,-0.1625663936138153,-0.15657660365104675,0.2401900440454483,0.2251954823732376,0.19829650223255157,0.16818682849407196
0.85,0.11670602113008499,0.010201791301369667,0.0,0.6464459300041199,0.0,0.0,-0.7629597783088684,-0.07973222434520721,-0.20895591378211975,0.0,0.0,0.0,3.0034217834472656,0.4178345203399658,0.7365661859512329,0.4200000464916229,0.5590085983276367,8.653881877762615e-08,-2.818106622726191e-06,-0.8291618227958679,6.586102972505614e-05,-0.0002561607107054442,-8.180015720427036e-05,0.006461931858211756,-0.001848604646511376,-0.0007124085677787662,0.4979456067085266,0.7311044931411743,0.6171214580535889,0.13338926434516907,-0.3382485508918762,0.5623089075088501,0.42345887422561646,0.7366762161254883,0.42000001668930054,-0.6473077535629272,1.172961711883545,-1.502927541732788,3.000000476837158,-0.16719046235084534,-0.16421882808208466,-0.1591104418039322,-0.15339353680610657,0.13724668323993683,0.1584014594554901,0.16134332120418549,0.1576063185930252
0.8666666666666667,0.11380330473184586,0.011802535504102707,0.0,0.6474642157554626,0.0,0.0,-0.7620958685874939,-0.166503444314003,0.12430869787931442,0.0,0.0,0.0,-0.7535333633422852,0.4178345203399658,0.7365661859512329,0.4200000464916229,0.5590085983276367,1.1228891594328161e-07,-2.786037612168002e-06,-0.8291618227958679,6.56555057503283e-05,-0.0002561666478868574,-8.175312541425228e-05,0.006463119760155678,-0.0018509171204641461,-0.0007119627553038299,0.5006428956985474,0.7248259782791138,0.624663233757019,0.25855985283851624,-0.39777320623397827,0.4447784125804901,0.42345887422561646,0.7366762161254883,0.42000001668930054,-0.6293478608131409,0.9844763278961182,-1.4528710842132568,3.0,-0.16852550208568573,-0.16481544077396393,-0.15925560891628265,-0.1531754583120346,-0.014793877489864826,0.00693042716011405,0.0159443486481905,0.025153104215860367
0.8833333333333333,0.11307091265916824,0.015766724944114685,0.0,0.6571706533432007,0.0,0.0,-0.7537418007850647,0.007233990356326103,0.3574332594871521,0.0,0.0,0.0,2.195974826812744,0.4178345203399658,0.7365661859512329,0.4200000464916229,0.5590085983276367,1.1782282172134728e-07,-2.7540570499695605e-06,-0.8291618227958679,6.544939969899133e-05,-0.0002561638248153031,-8.170702494680882e-05,0.0064642648212611675,-0.0018532124813646078,-0.000711488479282707,0.5045260190963745,0.7199639081954956,0.6334818601608276,0.1973799616098404,-0.22175467014312744,0.6622121334075928,0.42345887422561646,0.7366762161254883,0.42000001668930054,-0.5995593667030334,2.440321683883667,-1.4699848890304565,-2.999999761581421,-0.16705262660980225,-0.16371430456638336,-0.15863464772701263,-0.15291728079319,0.09329727292060852,0.05478885769844055,0.011459953151643276,-0.022803090512752533
0.9,0.10986977070569992,0.015350290574133396,0.0,0.6534429788589478,0.0,0.0,-0.7569757699966431,-0.15142233669757843,-0.04744550958275795,0.0,0.0,0.0,-1.4142102003097534,0.4178345203399658,0.7365661859512329,0.4200000464916229,0.5590085983276367,1.0991547583216743e-07,-2.72214879259991e-06,-0.8291618227958679,6.542538176290691e-05,-0.0002562464796938002,-8.170539513230324e-05,0.006466417573392391,-0.0018541100434958935,-0.0007116242777556181,0.5083835124969482,0.7200391888618469,0.6424713134765625,0.13199838995933533,-0.08756203949451447,0.4876270294189453,0.42345887422561646,0.7366762161254883,0.42000001668930054,-0.5829699039459229,-0.22818928956985474,-1.4313459396362305,3.000000238418579,-0.15969209372997284,-0.15801775455474854,-0.15461696684360504,-0.150339737534523,0.2677147388458252,0.20752881467342377,0.1420917958021164,0.08560118079185486
0.9166666666666666,0.109980508685112,0.019512835890054703,0.0,0.661262571811676,0.0,0.0,-0.7501545548439026,0.0014014649204909801,0.26324397325515747,0.0,0.0,0.0,1.8483949899673462,0.4178345203399658,0.7365661859512329,0.4200000464916229,0.5590085983276367,9.526722521968622e-08,-2.690345581868314e-06,-0.8291618227958679,6.529807433253154e-05,-0.00025629482115618885,-8.16762913018465e-05,0.006468413397669792,-0.0018557037692517042,-0.000711426546331495,0.5117858648300171,0.7155789732933044,0.6490641832351685,0.3972935974597931,-0.2108154147863388,0.3680674135684967,0.42345887422561646,0.7366762161254883,0.42000001668930054,-0.5639180541038513,2.27980375289917,-1.4488677978515625,-3.0000007152557373,-0.15857569873332977,-0.15720674395561218,-0.1542312055826187,-0.1502869725227356,0.19465415179729462,0.14705875515937805,0.09733621031045914,0.057772766798734665
