vladlanda/robotic-transformer/data/env_000_episode_0272.csv
sim_time_s,robot_box_x,robot_box_y,robot_box_z,robot_box_quat_w,robot_box_quat_x,robot_box_quat_y,robot_box_quat_z,robot_box_linvel_x,robot_box_linvel_y,robot_box_linvel_z,robot_box_angvel_x,robot_box_angvel_y,robot_box_angvel_z,cube_world_x,cube_world_y,cube_world_z,cube_quat_w,cube_quat_x,cube_quat_y,cube_quat_z,cube_linvel_x,cube_linvel_y,cube_linvel_z,cube_angvel_x,cube_angvel_y,cube_angvel_z,endpoint_world_x,endpoint_world_y,endpoint_world_z,endpoint_linvel_x,endpoint_linvel_y,endpoint_linvel_z,target_cube_world_x,target_cube_world_y,target_cube_world_z,gripper_actual_pos_rad_gp_leftgearjoint,gripper_actual_vel_rad_s_gp_leftgearjoint,gripper_actual_pos_rad_gp_rotatingjoint,gripper_actual_vel_rad_s_gp_rotatingjoint,motor_angle_rad_joint1,motor_angle_rad_joint2,motor_angle_rad_joint3,motor_angle_rad_joint4,motor_speed_rad_s_joint1,motor_speed_rad_s_joint2,motor_speed_rad_s_joint3,motor_speed_rad_s_joint4
0.0,0.0,0.0,0.0,1.0,0.0,0.0,0.0,0.0,0.0,0.0,0.0,0.0,0.0,-0.3623548448085785,0.6219518780708313,0.41999998688697815,1.0,0.0,0.0,0.0,0.0,0.0,0.0,0.0,0.0,0.0,3.42540442943573e-06,-0.005000244826078415,1.313499927520752,0.0,0.0,0.0,0.36162644624710083,0.7204305529594421,0.42000001668930054,-1.5707999467849731,0.0,0.0,0.0,0.0,0.0,0.0,0.0,0.0,0.0,0.0,0.0
0.016666666666666666,0.0028804431203752756,0.0021777083165943623,0.0,0.9998140931129456,0.0,0.0,0.01928073726594448,0.2409473955631256,0.18230141699314117,0.0,0.0,0.0,3.1418097019195557,-0.36235496401786804,0.6219515800476074,0.41999998688697815,1.0,3.279964630564791e-06,-8.339746386809566e-07,8.465587342243452e-08,-1.9833529222523794e-05,0.00017983045836444944,-6.132945418357849e-05,0.0009432713268324733,-0.004689474124461412,-0.00031981561915017664,-0.007108917459845543,0.0033871796913444996,1.3159382343292236,-0.8140690326690674,0.9871653318405151,0.18095973134040833,0.36162644624710083,0.7204305529594421,0.42000001668930054,-1.5301095247268677,3.0000035762786865,-0.04584866017103195,-3.0000009536743164,0.0008700374746695161,0.0007966925040818751,0.0007112605380825698,0.000611115712672472,0.11094746738672256,0.09758560359477997,0.08336249738931656,0.06825707107782364
0.03333333333333333,0.008964087814092636,0.006797200068831444,0.0,0.9998021721839905,0.0,0.0,0.01989104226231575,0.4070521593093872,0.31520703434944153,0.0,0.0,0.0,-0.8690786957740784,-0.3623550832271576,0.6219515204429626,0.4200000464916229,1.0,3.3908179375430336e-06,-2.132458348569344e-06,-3.7097745320124886e-08,0.00026357852038927376,0.00026937833172269166,-0.00010509369894862175,-0.0017707126680761576,0.004130884539335966,-0.0001354814594378695,-0.027530834078788757,0.025876305997371674,1.3166491985321045,-1.5904030799865723,1.6080663204193115,-0.07877819240093231,0.36162644624710083,0.7204305529594421,0.42000001668930054,-1.4800902605056763,3.0000016689300537,-0.09588848054409027,-2.999999761581421,0.0029905098490417004,0.0026528264861553907,0.0022774136159569025,0.0018609295366331935,0.16418911516666412,0.13974913954734802,0.11381426453590393,0.08629991114139557
0.05,0.018458396196365356,0.01387110911309719,0.0,0.9999802708625793,0.0,0.0,-0.006286341696977615,0.6360213756561279,0.4714474678039551,0.0,0.0,0.0,-4.077903747558594,-0.36235511302948,0.6219515800476074,0.4200000464916229,1.0,3.7651902857760433e-06,-2.2119197637948673e-06,5.609367637049445e-09,0.00026530938339419663,0.00026691678795032203,-0.00010440615005791187,-0.0017243892652913928,0.004177466034889221,-0.00012949809024576098,-0.0572890006005764,0.05610599368810654,1.3122584819793701,-1.9609344005584717,1.959546685218811,-0.42627817392349243,0.36162644624710083,0.7204305529594421,0.42000001668930054,-1.4300719499588013,3.0000007152557373,-0.14590831100940704,-3.0000009536743164,0.006005359813570976,0.005167657975107431,0.0042576296254992485,0.0032709240913391113,0.20709550380706787,0.16681545972824097,0.12460951507091522,0.08040208369493484
0.06666666666666667,0.030762232840061188,0.023343510925769806,0.0,0.9998915195465088,0.0,0.0,-0.0147296953946352,0.7723427414894104,0.615199089050293,0.0,0.0,0.0,-0.04307212680578232,-0.36235511302948,0.6219515204429626,0.4200000464916229,0.9999999403953552,3.406832092878176e-06,-2.28558906201215e-06,4.300801492718165e-07,0.0002670248504728079,0.0002679176686797291,-0.0001043803058564663,-0.00174071139190346,0.00421183044090867,-0.00012850876373704523,-0.09532058238983154,0.08742204308509827,1.301856517791748,-2.4366533756256104,1.973320484161377,-0.8091452121734619,0.36162644624710083,0.7204305529594421,0.42000001668930054,-1.3800445795059204,3.000000238418579,-0.12102288007736206,2.999999523162842,0.008783815428614616,0.007253898307681084,0.005611428990960121,0.003851178102195263,0.15716655552387238,0.1084684208035469,0.05763380229473114,0.004592264071106911
0.08333333333333333,0.04552140459418297,0.030615076422691345,0.0,0.9992972016334534,0.0,0.0,-0.0374845452606678,0.9491775035858154,0.37757259607315063,0.0,0.0,0.0,-3.544368267059326,-0.36235511302948,0.6219515204429626,0.4200000464916229,0.9999999403953552,3.626166289905086e-06,-2.3353043161478126e-06,3.032100153177453e-07,0.00026614085072651505,0.0002668516826815903,-0.00010405341163277626,-0.001728349830955267,0.004196455702185631,-0.0001279077841900289,-0.13143780827522278,0.12498918175697327,1.2874729633331299,-1.9409286975860596,2.500516891479492,-0.8983423709869385,0.36162644624710083,0.7204305529594421,0.42000001668930054,-1.3300366401672363,3.0000016689300537,-0.15299956500530243,-3.0000007152557373,0.009986833669245243,0.007364205550402403,0.004586793947964907,0.0016485268715769053,0.022357258945703506,-0.06059824675321579,-0.14584937691688538,-0.23330529034137726
0.1,0.05440804734826088,0.04037368670105934,0.0,0.9973053336143494,0.0,0.0,-0.07336291670799255,0.39461663365364075,0.6683375835418701,0.0,0.0,0.0,-4.565123081207275,-0.36235511302948,0.6219515204429626,0.4200000464916229,1.0,3.4222334761579987e-06,-2.3086047349352157e-06,1.796183539681806e-07,0.0002668157103471458,0.00026800340856425464,-0.00010440708138048649,-0.0017429988365620375,0.004207124002277851,-0.00012891183723695576,-0.16764113306999207,0.16755974292755127,1.2661664485931396,-2.2884178161621094,2.6870689392089844,-1.561606764793396,0.36162644624710083,0.7204305529594421,0.42000001668930054,-1.2800180912017822,2.999994993209839,-0.11944091320037842,3.0000011920928955,0.003987952135503292,0.0006483307224698365,-0.00289878505282104,-0.0066625745967030525,-0.46973690390586853,-0.502683699131012,-0.5381337404251099,-0.5763697624206543
0.11666666666666667,0.06514063477516174,0.052621714770793915,0.0,0.9938545227050781,0.0,0.0,-0.11069383472204208,0.8506264686584473,0.6958930492401123,0.0,0.0,0.0,-4.3607354164123535,-0.36235511302948,0.6219515800476074,0.4200000464916229,1.0,3.711570343511994e-06,-2.332746134925401e-06,2.5742929210537113e-07,0.0002648576919455081,0.0002663539198692888,-0.00010423408821225166,-0.0017182708252221346,0.004170178435742855,-0.0001291575754294172,-0.20727959275245667,0.20981106162071228,1.2384430170059204,-2.308948040008545,2.6512889862060547,-1.7109267711639404,0.36162644624710083,0.7204305529594421,0.42000001668930054,-1.2300175428390503,2.9999985694885254,-0.15141183137893677,-3.0000014305114746,-0.0026271699462085962,-0.006866101175546646,-0.011330137960612774,-0.016030648723244667,-0.19274482131004333,-0.282436728477478,-0.3705848455429077,-0.4571268558502197
0.13333333333333333,0.07479434460401535,0.06093543767929077,0.0,0.9924237728118896,0.0,0.0,-0.12286202609539032,0.5667323470115662,0.46725064516067505,0.0,0.0,0.0,-0.368119478225708,-0.36235511302948,0.6219515204429626,0.4200000464916229,1.0,3.335774863444385e-06,-2.2319691197481006e-06,3.1131583000387764e-07,0.0002666965883690864,0.0002675943251233548,-0.00010428344830870628,-0.0017370636342093349,0.004205815959721804,-0.0001284035388380289,-0.24811138212680817,0.25154587626457214,1.2056443691253662,-2.3385508060455322,2.7676994800567627,-2.1155307292938232,0.36162644624710083,0.7204305529594421,0.42000001668930054,-1.1799989938735962,2.9999966621398926,-0.12477261573076248,3.000000238418579,-0.008472363464534283,-0.013983320444822311,-0.019687140360474586,-0.02559666521847248,-0.22682973742485046,-0.3279075026512146,-0.42455002665519714,-0.5166728496551514
0.15,0.08186003565788269,0.0661882758140564,0.0,0.9892302751541138,0.0,0.0,-0.1463676542043686,0.3695630431175232,0.2586999237537384,0.0,0.0,0.0,-3.6702537536621094,-0.36235511302948,0.6219515204429626,0.4200000464916229,1.0,3.51896619577019e-06,-2.2831691239844076e-06,-3.625396516326873e-07,0.00026618328411132097,0.00026735622668638825,-0.00010425481013953686,-0.0017348447581753135,0.004195693414658308,-0.0001286104234168306,-0.2843775451183319,0.3026087284088135,1.1660841703414917,-2.0234808921813965,3.270514965057373,-2.630707025527954,0.36162644624710083,0.7204305529594421,0.42000001668930054,-1.1299973726272583,3.0000011920928955,-0.1567225605249405,-3.0,-0.013420281931757927,-0.020518356934189796,-0.027725012972950935,-0.035053372383117676,-0.36101311445236206,-0.44538769125938416,-0.524772584438324,-0.5992386341094971
0.16666666666666666,0.0849139541387558,0.07275107502937317,0.0,0.9808076024055481,0.0,0.0,-0.19497813284397125,0.1090058758854866,0.46209263801574707,0.0,0.0,0.0,-6.698111057281494,-0.36235511302948,0.6219515204429626,0.4200000464916229,1.0,3.6666901905846316e-06,-2.339151933483663e-06,-3.150083500713663e-07,0.00026595874805934727,0.0002666740329004824,-0.00010403385385870934,-0.001725255511701107,0.004192718770354986,-0.0001277866685995832,-0.31725195050239563,0.36273467540740967,1.11419677734375,-1.7903348207473755,3.834549903869629,-3.525049924850464,0.36162644624710083,0.7204305529594421,0.42000001668930054,-1.079996109008789,3.0000016689300537,-0.16715575754642487,1.379485011100769,-0.021803827956318855,-0.030000414699316025,-0.038215503096580505,-0.04646528139710426,-0.5898522138595581,-0.6354882121086121,-0.676106870174408,-0.7119717001914978
0.18333333333333332,0.09324098378419876,0.07555726915597916,0.0,0.9739545583724976,0.0,0.0,-0.22674331068992615,0.6293716430664062,0.0501420684158802,0.0,0.0,0.0,-2.7909748554229736,-0.36235511302948,0.6219515204429626,0.4200000464916229,1.0,3.814420779235661e-06,-2.399499635430402e-06,-2.7027235205423494e-07,0.00026548944879323244,0.0002661115431692451,-0.00010391324758529663,-0.0017178029520437121,0.004184751771390438,-0.00012753890769090503,-0.3482760787010193,0.4219823479652405,1.0493347644805908,-1.5755771398544312,3.59005069732666,-4.2521185874938965,0.36162644624710083,0.7204305529594421,0.42000001668930054,-1.029991865158081,2.9999990463256836,-0.20740807056427002,-2.999999761581421,-0.027876870706677437,-0.036797888576984406,-0.045658085495233536,-0.05448004603385925,-0.3443715572357178,-0.36915814876556396,-0.39043399691581726,-0.40867936611175537
0.2,0.09739663451910019,0.0820407122373581,0.0,0.9631612300872803,0.0,0.0,-0.2689245641231537,0.2171291559934616,0.3815644383430481,0.0,0.0,0.0,-5.8151936531066895,-0.36235511302948,0.6219515204429626,0.4200000464916229,1.0,3.600188847485697e-06,-2.291208829774405e-06,-2.2020329026872787e-07,0.00026573031209409237,0.0002664495841600001,-0.00010398100130259991,-0.0017226987984031439,0.004188769496977329,-0.00012773128401022404,-0.37079182267189026,0.4816400408744812,0.9694262146949768,-1.1071279048919678,3.587934970855713,-4.9969587326049805,0.36162644624710083,0.7204305529594421,0.42000001668930054,-0.9799819588661194,2.9999990463256836,-0.25743651390075684,-3.0000009536743164,-0.0426248200237751,-0.05128408968448639,-0.05986762419342995,-0.06833535432815552,-0.7124904990196228,-0.7580104470252991,-0.7998756766319275,-0.8375207781791687
0.21666666666666667,0.10126582533121109,0.08560533821582794,0.0,0.957382321357727,0.0,0.0,-0.288823664188385,0.2273269146680832,0.15451061725616455,0.0,0.0,0.0,-1.3130961656570435,-0.36235511302948,0.6219515204429626,0.4200000464916229,0.9999999403953552,3.6397420899447752e-06,-2.2619685751124052e-06,2.2246368303058262e-07,0.00026687313220463693,0.00026754301507025957,-0.00010411837138235569,-0.0017404037062078714,0.004211082123219967,-0.00012783679994754493,-0.3895847797393799,0.5318571925163269,0.8810988664627075,-0.8078354597091675,2.7178683280944824,-5.5601277351379395,0.36162644624710083,0.7204305529594421,0.42000001668930054,-0.9299718141555786,3.0000009536743164,-0.30746689438819885,-2.99999737739563,-0.057758230715990067,-0.06643332540988922,-0.07499919086694717,-0.08345352113246918,-0.9873681664466858,-0.9857659339904785,-0.9701282978057861,-0.9570169448852539
0.23333333333333334,0.10170545428991318,0.09077098965644836,0.0,0.9483009576797485,0.0,0.0,-0.31737250089645386,-0.040161505341529846,0.3653801381587982,0.0,0.0,0.0,-4.3915934562683105,-0.3623550832271576,0.6219515204429626,0.4200000464916229,1.0,3.4208560464321636e-06,-2.3167735889728647e-06,2.955749494049087e-07,0.00026680153678171337,0.000268039497314021,-0.0001044231466948986,-0.001743743778206408,0.004206785000860691,-0.00012899443390779197,-0.40056371688842773,0.5722435712814331,0.7819188833236694,-0.32615017890930176,2.07545804977417,-6.134568214416504,0.36162644624710083,0.7204305529594421,0.42000001668930054,-0.8799611330032349,2.999997854232788,-0.35749855637550354,-3.0000016689300537,-0.07467934489250183,-0.08322007954120636,-0.09167762100696564,-0.10005893558263779,-0.9927632808685303,-0.993888258934021,-0.9947909116744995,-0.9955365061759949
0.25,0.10583211481571198,0.09214797616004944,0.0,0.9444047212600708,0.0,0.0,-0.3287852108478546,0.22713187336921692,0.02738945558667183,0.0,0.0,0.0,-0.41891732811927795,-0.36235511302948,0.6219515204429626,0.4200000464916229,0.9999999403953552,3.3476892440376105e-06,-2.2591661945625674e-06,1.8082083386161685e-07,0.00026687668287195265,0.0002679106837604195,-0.00010439427569508553,-0.0017404770478606224,0.004208184313029051,-0.00012870125647168607,-0.4070226550102234,0.5985413789749146,0.6802672743797302,-0.11459869891405106,1.083073377609253,-6.119629383087158,0.36162644624710083,0.7204305529594421,0.42000001668930054,-0.8299517631530762,2.999993085861206,-0.4075302183628082,-2.9999990463256836,-0.08990763872861862,-0.0983564555644989,-0.1066736951470375,-0.11487115174531937,-0.9941178560256958,-0.9949235320091248,-0.995566725730896,-0.9961005449295044
0.26666666666666666,0.10518531501293182,0.09131123870611191,0.0,0.9359734654426575,0.0,0.0,-0.35207048058509827,-0.12612351775169373,-0.08813492953777313,0.0,0.0,0.0,-3.83695387840271,-0.36235511302948,0.6219515204429626,0.4200000464916229,0.9999999403953552,3.5357459182705497e-06,-2.3003199203230906e-06,-1.268702192191995e-07,0.0002660168393049389,0.00026712208637036383,-0.00010419590398669243,-0.0017316138837486506,0.004192820750176907,-0.00012849303311668336,-0.4011293053627014,0.6106326580047607,0.579704999923706,0.8054653406143188,0.4068431258201599,-5.723206043243408,0.36162644624710083,0.7204305529594421,0.42000001668930054,-0.7799429297447205,3.0000040531158447,-0.45756080746650696,-2.9999969005584717,-0.1081487238407135,-0.11621899157762527,-0.12424803525209427,-0.1322174072265625,-1.012675166130066,-1.0095350742340088,-1.0071427822113037,-1.0052422285079956
0.2833333333333333,0.10206349194049835,0.08820059895515442,0.0,0.933928370475769,0.0,0.0,-0.35746026039123535,-0.19544477760791779,-0.2342378795146942,0.0,0.0,0.0,0.2774004638195038,-0.36235511302948,0.6219515800476074,0.4200000464916229,1.0,3.5934981497121044e-06,-2.2626372810918838e-06,-5.6559525063448746e-08,0.00026704746414907277,0.00026775026344694197,-0.00010416866280138493,-0.0017432172317057848,0.004214204382151365,-0.00012789266475010663,-0.3886885344982147,0.6192827820777893,0.49243560433387756,0.8557523488998413,0.5688236951828003,-4.88232421875,0.36162644624710083,0.7204305529594421,0.42000001668930054,-0.7299343943595886,3.000000476837158,-0.5075898766517639,-3.000002861022949,-0.12447234243154526,-0.13265644013881683,-0.1408168226480484,-0.1489136964082718,-1.0191457271575928,-1.0144799947738647,-1.010915756225586,-1.0080636739730835
0.3,0.09696722775697708,0.08288318663835526,0.0,0.9274353384971619,0.0,0.0,-0.37398356199264526,-0.3593922257423401,-0.36096495389938354,0.0,0.0,0.0,-3.2273333072662354,-0.3623550832271576,0.6219515204429626,0.4200000464916229,0.9999999403953552,3.7250597415550146e-06,-2.236036380054429e-06,3.8286003700704896e-07,0.00026479727239347994,0.00026673031970858574,-0.00010454049333930016,-0.001718925777822733,0.0041666231118142605,-0.00013016141019761562,-0.36936140060424805,0.6261770725250244,0.4096720218658447,1.4927756786346436,0.21751508116722107,-4.936114311218262,0.36162644624710083,0.7204305529594421,0.42000001668930054,-0.679927408695221,2.9999959468841553,-0.5576172471046448,-3.0000016689300537,-0.14170312881469727,-0.1497383564710617,-0.15778546035289764,-0.16579286754131317,-1.0013635158538818,-1.0010368824005127,-1.0007853507995605,-1.0005828142166138
0.31666666666666665,0.08945875614881516,0.07539726048707962,0.0,0.9266749620437622,0.0,0.0,-0.3758636713027954,-0.48859402537345886,-0.48717835545539856,0.0,0.0,0.0,0.7027647495269775,-0.3616156280040741,0.6244016289710999,0.4207785129547119,0.998360276222229,0.0007239627302624285,0.019741730764508247,-0.053725715726614,0.07132145762443542,0.20820976793766022,0.03208699822425842,0.05195850133895874,1.6370658874511719,-8.418444633483887,-0.36903437972068787,0.6302976608276367,0.4236862361431122,0.10896329581737518,0.29120588302612305,-0.15576374530792236,0.36162644624710083,0.7204305529594421,0.42000001668930054,-0.6301089525222778,2.9999938011169434,-0.6082415580749512,-2.999990463256836,-0.14794804155826569,-0.15528909862041473,-0.16228260099887848,-0.16882063448429108,-0.463206022977829,-0.4019973576068878,-0.32284805178642273,-0.22337691485881805
0.3333333333333333,0.07958437502384186,0.06568056344985962,0.0,0.9205494523048401,0.0,0.0,-0.39062604308128357,-0.6389369368553162,-0.6227672696113586,0.0,0.0,0.0,-2.8918938636779785,-0.36062881350517273,0.6275882124900818,0.4202268719673157,0.9939783215522766,0.0008981277351267636,0.005505297798663378,-0.10943444073200226,0.052868686616420746,0.18273551762104034,-0.053859226405620575,-0.46996617317199707,-2.750476837158203,-6.026992321014404,-0.3670012950897217,0.632727861404419,0.42277348041534424,0.11332182586193085,0.12600862979888916,0.13096004724502563,0.36162644624710083,0.7204305529594421,0.42000001668930054,-0.580103874206543,2.999985456466675,-0.658286988735199,-3.0000014305114746,-0.15609431266784668,-0.1621997058391571,-0.1676272451877594,-0.17224915325641632,-0.46019917726516724,-0.3730947971343994,-0.2676055431365967,-0.14336137473583221
0.35,0.0674152672290802,0.05379925295710564,0.0,0.920638918876648,0.0,0.0,-0.390415221452713,-0.7693608403205872,-0.7517038583755493,0.0,0.0,0.0,0.9747474193572998,-0.35822737216949463,0.6353239417076111,0.42019352316856384,0.9913246035575867,0.002047987189143896,-0.0023619176354259253,-0.13139915466308594,0.2576028108596802,0.7576356530189514,-0.005148167256265879,3.246896982192993,1.2542139291763306,-5.341994285583496,-0.3638976812362671,0.6403573751449585,0.4226973056793213,0.30217263102531433,0.7053266763687134,-0.14804691076278687,0.36162644624710083,0.7204305529594421,0.42000001668930054,-0.5300989151000977,2.9996609687805176,-0.7083115577697754,-3.0000014305114746,-0.16430099308490753,-0.1685650646686554,-0.17182117700576782,-0.1739559769630432,-0.46479615569114685,-0.3468090891838074,-0.20871254801750183,-0.0519321970641613
0.36666666666666664,0.058495961129665375,0.039272844791412354,0.0,0.9148793816566467,0.0,0.0,-0.403727263212204,-0.4524973928928375,-0.9196041226387024,0.0,0.0,0.0,-2.6467771530151367,-0.35267555713653564,0.6490394473075867,0.4199972450733185,0.9846603274345398,0.0003442441811785102,-6.688260327791795e-05,-0.17448177933692932,0.3588331639766693,0.8474602699279785,-0.008447297848761082,-0.39197877049446106,-0.06854415684938431,-5.338973522186279,-0.3556653559207916,0.6510220170021057,0.4205184578895569,0.6672097444534302,0.6240907311439514,0.035265371203422546,0.36162644624710083,0.7204305529594421,0.42000001668930054,-0.4800923466682434,2.9999780654907227,-0.7583639025688171,-2.9999992847442627,-0.17187954485416412,-0.17372719943523407,-0.1741792857646942,-0.17317025363445282,-0.4135141670703888,-0.2488386482000351,-0.05998566001653671,0.14921976625919342
0.3833333333333333,0.047511227428913116,0.023475132882595062,0.0,0.8959847092628479,0.0,0.0,-0.44408488273620605,-0.7416257262229919,-0.9938102960586548,0.0,0.0,0.0,-6.278077602386475,-0.3418789803981781,0.6676517724990845,0.4205213785171509,0.977295994758606,0.007490535732358694,-0.0036723462399095297,-0.21171404421329498,0.9979129433631897,1.4646495580673218,0.0822775810956955,-0.5601680874824524,-0.8467977046966553,-6.11891508102417,-0.33941400051116943,0.6665504574775696,0.42297762632369995,1.2897595167160034,1.2018455266952515,0.320021390914917,0.36162644624710083,0.7204305529594421,0.42000001668930054,-0.43008872866630554,2.999990940093994,-0.8084025382995605,-2.999999523162842,-0.18031664192676544,-0.1792183369398117,-0.1763373166322708,-0.1716848760843277,-0.4908197522163391,-0.32294610142707825,-0.13417601585388184,0.07082850486040115
0.4,0.03820449113845825,0.010336101055145264,0.0,0.8613872528076172,0.0,0.0,-0.5079488158226013,-0.4822866916656494,-0.7610421180725098,0.0,0.0,0.0,-9.386454582214355,-0.300258070230484,0.6959772109985352,0.42709046602249146,0.9623731970787048,0.01997859962284565,-0.035591840744018555,-0.2686481475830078,3.669318914413452,2.266767978668213,0.49103763699531555,17.176546096801758,-9.87570858001709,5.058609485626221,-0.29781442880630493,0.6951678991317749,0.42949795722961426,3.34670352935791,2.2037007808685303,0.6786945462226868,0.36162644624710083,0.7204305529594421,0.42000001668930054,-0.39499932527542114,1.2607696056365967,-0.8584104180335999,-3.0000007152557373,-0.1911524087190628,-0.18645568192005157,-0.17969270050525665,-0.1709848940372467,-0.529120922088623,-0.33807572722435,-0.12862129509449005,0.09255959838628769
0.4166666666666667,0.03301054239273071,0.0005498543032445014,0.0,0.8099037408828735,0.0,0.0,-0.5865627527236938,-0.25435009598731995,-0.5209679007530212,0.0,0.0,0.0,-12.006095886230469,-0.2194664627313614,0.7398015260696411,0.4367051422595978,0.9387800693511963,0.08510815352201462,-0.07888028025627136,-0.3243862986564636,6.1537370681762695,2.522235870361328,0.6579015851020813,4.9927167892456055,-9.853724479675293,13.081793785095215,-0.21766100823879242,0.7388342618942261,0.43944841623306274,5.963223457336426,3.0376415252685547,0.7301912903785706,0.36162644624710083,0.7204305529594421,0.42000001668930054,-0.3736547827720642,1.3216114044189453,-0.8213760256767273,2.998417854309082,-0.20107021927833557,-0.19307276606559753,-0.18292182683944702,-0.17085625231266022,-0.5738188624382019,-0.39476650953292847,-0.22047317028045654,-0.05725815147161484
0.43333333333333335,0.031012315303087234,-0.0054457043297588825,0.0,0.7667980194091797,0.0,0.0,-0.6418884992599487,-0.06848156452178955,-0.2950644791126251,0.0,0.0,0.0,-7.27271032333374,-0.12079402804374695,0.7834680676460266,0.45079633593559265,0.8925797343254089,0.12174972146749496,-0.10096469521522522,-0.42223745584487915,6.109900951385498,1.759743094444275,0.958073616027832,14.967320442199707,-6.760006904602051,13.425246238708496,-0.12040309607982635,0.783198356628418,0.4530204236507416,5.923464775085449,2.2024405002593994,0.8651929497718811,0.36162644624710083,0.7204305529594421,0.42000001668930054,-0.35179030895233154,1.2799111604690552,-0.848099410533905,-3.00000262260437,-0.21185113489627838,-0.20072418451309204,-0.1876882165670395,-0.17309319972991943,-0.6214466691017151,-0.44158193469047546,-0.2820476293563843,-0.14922009408473969
0.45,0.027644410729408264,-0.007048687431961298,0.0,0.7462581396102905,0.0,0.0,-0.6656566858291626,-0.2308168113231659,-0.0354287289083004,0.0,0.0,0.0,-2.5559723377227783,-0.021598268300294876,0.8113105893135071,0.46427565813064575,0.8381956815719604,0.1280871033668518,-0.09789726138114929,-0.5209968686103821,5.865319728851318,0.5415616035461426,0.6230557560920715,-0.8107807040214539,-10.96789264678955,6.764352798461914,-0.02259490080177784,0.8111938238143921,0.4655255377292633,5.942311763763428,1.1499607563018799,0.8232280015945435,0.36162644624710083,0.7204305529594421,0.42000001668930054,-0.33081695437431335,1.2014477252960205,-0.8981234431266785,-3.000001907348633,-0.22378931939601898,-0.20930805802345276,-0.1932676136493683,-0.17615072429180145,-0.6730137467384338,-0.4806337356567383,-0.3086274564266205,-0.16511023044586182
0.4666666666666667,0.0267172921448946,-0.013165445066988468,0.0,0.7174274921417236,0.0,0.0,-0.6966331601142883,-0.05211031436920166,-0.40965262055397034,0.0,0.0,0.0,-5.919973373413086,0.0738610327243805,0.8201085925102234,0.4723479151725769,0.7820568084716797,0.10599277913570404,-0.10383973270654678,-0.6052849888801575,5.4782609939575195,-0.4640347361564636,0.48988276720046997,1.3044002056121826,-6.2350263595581055,-1.6549153327941895,0.07148509472608566,0.8210439682006836,0.4742962718009949,5.507171630859375,-0.07138244807720184,0.45303457975387573,0.36162644624710083,0.7204305529594421,0.42000001668930054,-0.3142494559288025,0.9538686871528625,-0.9481475949287415,-3.0000009536743164,-0.23122982680797577,-0.21380595862865448,-0.19505882263183594,-0.1756110042333603,-0.49018236994743347,-0.284208208322525,-0.09115464985370636,0.07920465618371964
0.48333333333333334,0.028110133484005928,-0.014547805301845074,0.0,0.70093834400177,0.0,0.0,-0.7132218480110168,0.1447090208530426,-0.09588367491960526,0.0,0.0,0.0,-1.535056471824646,0.1583215892314911,0.8112106323242188,0.4787176251411438,0.7427904605865479,0.1368468999862671,-0.0510081946849823,-0.6534013152122498,4.686671257019043,-0.9711311459541321,0.07931489497423172,-22.45425796508789,19.91546058654785,-8.003981590270996,0.15728457272052765,0.8134041428565979,0.4787745177745819,4.891773223876953,-0.7414889335632324,0.19774986803531647,0.36162644624710083,0.7204305529594421,0.42000001668930054,-0.30051547288894653,0.8185032606124878,-0.9981716275215149,-2.9961178302764893,-0.2399609088897705,-0.22173693776130676,-0.199424609541893,-0.1769641637802124,-0.008718769997358322,-0.34340620040893555,-0.20049218833446503,-0.08432656526565552
0.5,0.028292503207921982,-0.013430888764560223,0.0,0.6780484318733215,0.0,0.0,-0.7350171804428101,-0.04258451983332634,0.13439156115055084,0.0,0.0,0.0,-4.6861371994018555,0.2319236397743225,0.7953094244003296,0.47524815797805786,0.6837712526321411,0.10648802667856216,-0.06418506801128387,-0.7190252542495728,3.609572172164917,-1.7582427263259888,-0.4809437096118927,-17.508283615112305,-8.03042984008789,18.582828521728516,0.2294929325580597,0.7982915639877319,0.4766664505004883,4.001331329345703,-1.1085171699523926,-0.2421804815530777,0.36162644624710083,0.7204305529594421,0.42000001668930054,-0.28722602128982544,0.5523115396499634,-1.0481939315795898,-3.0000033378601074,-0.23919212818145752,-0.2261376976966858,-0.20241467654705048,-0.17889128625392914,0.09235018491744995,-0.17732305824756622,-0.13560031354427338,-0.11270708590745926
0.5166666666666666,0.029467711225152016,-0.015417646616697311,0.0,0.6682304739952087,0.0,0.0,-0.7439543008804321,0.09574732184410095,-0.15608729422092438,0.0,0.0,0.0,-0.4660920798778534,0.28856903314590454,0.7736720442771912,0.4652891755104065,0.6815740466117859,0.09434866905212402,-0.0770600363612175,-0.7215377688407898,2.8869354724884033,-1.3665549755096436,-0.8036227226257324,0.8693243265151978,2.6361963748931885,1.0654057264328003,0.2871599495410919,0.7785780429840088,0.4685756266117096,2.9838085174560547,-1.3928203582763672,-0.5956130027770996,0.36162644624710083,0.7204305529594421,0.42000001668930054,-0.2758718729019165,1.0361076593399048,-1.0982160568237305,-2.9999494552612305,-0.23444664478302002,-0.22545237839221954,-0.20188505947589874,-0.1787995845079422,0.20140975713729858,0.024692930281162262,0.010939236730337143,-0.02279260940849781
0.5333333333333333,0.03318754956126213,-0.013547426089644432,0.0,0.6496829986572266,0.0,0.0,-0.7602052092552185,0.26589807868003845,0.12613317370414734,0.0,0.0,0.0,-3.782135486602783,0.33188506960868835,0.750984787940979,0.44371771812438965,0.630781888961792,-0.085734061896801,-0.17611803114414215,-0.750830352306366,1.9448245763778687,-1.5338388681411743,-1.3408833742141724,-13.940313339233398,5.457338809967041,13.600584983825684,0.32886314392089844,0.7563104033470154,0.4543449878692627,2.2642483711242676,-1.3175702095031738,-1.091296911239624,0.36162644624710083,0.7204305529594421,0.42000001668930054,-0.26594266295433044,0.4653417468070984,-1.148238182067871,-2.9997382164001465,-0.23205973207950592,-0.2256317436695099,-0.20287737250328064,-0.18084567785263062,0.29524102807044983,0.12733927369117737,0.017121030017733574,-0.09914779663085938
0.55,0.039342790842056274,-0.013656160794198513,0.0,0.6444495916366577,0.0,0.0,-0.7646468281745911,0.390765517950058,-0.00514957495033741,0.0,0.0,0.0,0.11683814972639084,0.3599260449409485,0.7307849526405334,0.42507821321487427,0.6370885968208313,-0.10543740540742874,-0.0839998796582222,-0.7589104175567627,1.2650485038757324,-0.7839081883430481,-0.5646683573722839,49.950096130371094,-11.920662879943848,4.065338134765625,0.35938718914985657,0.7348453402519226,0.43225201964378357,1.2772650718688965,-1.2860565185546875,-1.3590153455734253,0.36162644624710083,0.7204305529594421,0.42000001668930054,-0.25189459323883057,1.1792622804641724,-1.1982603073120117,-3.0000016689300537,-0.22496916353702545,-0.22117911279201508,-0.20087546110153198,-0.18134695291519165,0.39738091826438904,0.27298760414123535,0.11833993345499039,-0.03993275761604309
0.5666666666666667,0.0450005903840065,-0.012239242903888226,0.0,0.629418134689331,0.0,0.0,-0.7770668268203735,0.3202471137046814,0.17725037038326263,0.0,0.0,0.0,-3.245683431625366,0.3701503872871399,0.7201069593429565,0.4248613119125366,0.7129299640655518,0.08550817519426346,0.03573030233383179,-0.6950845122337341,0.23445308208465576,-0.39513716101646423,0.5052578449249268,13.139704704284668,-12.517829895019531,7.761460781097412,0.3719627559185028,0.7226768136024475,0.4238853454589844,0.3826153874397278,-0.3473723530769348,-0.0821869745850563,0.36162644624710083,0.7204305529594421,0.42000001668930054,-0.23446503281593323,1.220329761505127,-1.1603726148605347,2.9970905780792236,-0.21583586931228638,-0.21488767862319946,-0.19821445643901825,-0.18208438158035278,0.6746978759765625,0.47740164399147034,0.21300825476646423,-0.028269043192267418
0.5833333333333334,0.04705868288874626,-0.012862903997302055,0.0,0.6279541850090027,0.0,0.0,-0.7782502770423889,0.05717264488339424,-0.10819326341152191,0.0,0.0,0.0,0.5494474768638611,0.3750726282596588,0.7156317830085754,0.4239497780799866,0.7110996842384338,0.027388960123062134,0.018193723633885384,-0.7023218870162964,0.02061484009027481,-0.6515641212463379,0.10029258579015732,5.146835803985596,-11.74142837524414,16.567983627319336,0.37418133020401,0.7167546153068542,0.42529016733169556,-0.02358270436525345,-0.2917535901069641,0.1254122108221054,0.36162644624710083,0.7204305529594421,0.42000001668930054,-0.26367729902267456,-2.9906718730926514,-1.1822351217269897,-3.0000319480895996,-0.2062271684408188,-0.2075134664773941,-0.19460441172122955,-0.18192481994628906,0.5169129371643066,0.4223315417766571,0.21634724736213684,0.02620096132159233
0.6,0.050874464213848114,-0.009081323631107807,0.0,0.6477550268173218,0.0,0.0,-0.7618486881256104,0.2558107376098633,0.2239137440919876,0.0,0.0,0.0,3.8689093589782715,0.37305912375450134,0.7100071310997009,0.42363402247428894,0.7388609647750854,0.029538609087467194,0.0064225574024021626,-0.6731795072555542,-0.15711872279644012,-0.0946115031838417,-0.047995902597904205,-7.158050537109375,2.5158731937408447,3.0682566165924072,0.37254831194877625,0.7139925956726074,0.4269731044769287,-0.08493652194738388,0.0906684547662735,0.1042880192399025,0.36162644624710083,0.7204305529594421,0.42000001668930054,-0.2956179678440094,-0.9902215003967285,-1.2321984767913818,-2.99604868888855,-0.2012684941291809,-0.2033461332321167,-0.19328001141548157,-0.1832042783498764,0.45859214663505554,0.3753042221069336,0.16842156648635864,-0.015824612230062485
0.6166666666666667,0.0563066229224205,-0.010419216006994247,0.0,0.6537107825279236,0.0,0.0,-0.7567445039749146,0.316750168800354,-0.12110530585050583,0.0,0.0,0.0,-0.08159860968589783,0.37065571546554565,0.7098684906959534,0.4211101233959198,0.7582246661186218,-0.019055897369980812,-0.010161432437598705,-0.6516355276107788,-0.16704240441322327,-0.03874843195080757,-0.11536100506782532,0.9039198160171509,-5.288894176483154,2.9159326553344727,0.37047117948532104,0.7169795632362366,0.4279109835624695,-0.23017892241477966,0.15788209438323975,-0.0013143550604581833,0.36162644624710083,0.7204305529594421,0.42000001668930054,-0.3406420052051544,-2.999958038330078,-1.2293764352798462,2.8067104816436768,-0.18937811255455017,-0.19331394135951996,-0.1871095448732376,-0.18039441108703613,0.6686716675758362,0.5930888652801514,0.3951161205768585,0.22504793107509613
0.6333333333333333,0.06443201750516891,-0.00811345037072897,0.0,0.670081377029419,0.0,0.0,-0.7422876358032227,0.5087868571281433,0.14687399566173553,0.0,0.0,0.0,3.367748260498047,0.36841005086898804,0.7091140151023865,0.4200018644332886,0.7606134414672852,6.60631267237477e-05,-2.131288783857599e-05,-0.6492049098014832,-0.11500637978315353,-0.03032546117901802,-0.003571245353668928,-0.11337292939424515,0.17259258031845093,-0.06518286466598511,0.3671201467514038,0.7183104753494263,0.43182799220085144,-0.1323416531085968,0.14360417425632477,0.451458603143692,0.36162644624710083,0.7204305529594421,0.42000001668930054,-0.3906543552875519,-2.9998202323913574,-1.2521517276763916,-2.999993324279785,-0.1829530894756317,-0.18709102272987366,-0.18305188417434692,-0.17804481089115143,0.43300187587738037,0.4136098623275757,0.2869257628917694,0.1937512904405594
0.65,0.07384345680475235,-0.008884185925126076,0.0,0.6727710366249084,0.0,0.0,-0.7398507595062256,0.5913081765174866,-0.10915136337280273,0.0,0.0,0.0,-0.5657659769058228,0.36734136939048767,0.7088802456855774,0.4200000464916229,0.7606334090232849,8.47988076202455e-07,3.2128934890351957e-07,-0.6491816639900208,-0.03518357872962952,-0.010301301255822182,-3.316850052215159e-05,-0.001959375338628888,0.00020542764104902744,0.02334742434322834,0.3669683635234833,0.719865083694458,0.4371933937072754,0.10006051510572433,0.0034213438630104065,0.3553818464279175,0.36162644624710083,0.7204305529594421,0.42000001668930054,-0.440667986869812,-3.000000476837158,-1.3021700382232666,-2.999999523162842,-0.17689508199691772,-0.18072116374969482,-0.1780194491147995,-0.17379319667816162,0.3070354759693146,0.3605865240097046,0.3219616413116455,0.31493833661079407
0.6666666666666666,0.08487193286418915,-0.013530559837818146,0.0,0.6540745496749878,0.0,0.0,-0.7564300894737244,0.6990780830383301,-0.35058122873306274,0.0,0.0,0.0,-3.8743691444396973,0.367341011762619,0.708880603313446,0.42000001668930054,0.760633111000061,6.342563096950471e-07,-4.991199602955021e-06,-0.6491819024085999,0.00031152775045484304,-0.00032797714811749756,-9.798607788980007e-05,0.005052048247307539,0.003746497444808483,0.000451811560196802,0.3725953698158264,0.7216407060623169,0.450842022895813,0.5777937173843384,0.19473418593406677,1.3826611042022705,0.36162644624710083,0.7204305529594421,0.42000001668930054,-0.4906810224056244,-2.999979257583618,-1.3521883487701416,-2.999999761581421,-0.17396117746829987,-0.17665165662765503,-0.1742483228445053,-0.16985836625099182,0.11139573156833649,0.1861848384141922,0.18056809902191162,0.1988489031791687
0.6833333333333333,0.09952851384878159,-0.013251529075205326,0.0,0.6479811072349548,0.0,0.0,-0.7616564035415649,0.825186014175415,0.057986438274383545,0.0,0.0,0.0,0.007443493697792292,0.3673410713672638,0.7088804841041565,0.42000001668930054,0.7606333494186401,1.2835820371037698e-06,-4.153597728873137e-06,-0.649181604385376,0.00027629005489870906,-0.0002316577738383785,-9.031174704432487e-05,0.0033623494673520327,0.0033267575781792402,0.00028609452419914305,0.3831098675727844,0.7255959510803223,0.4811009168624878,0.7140390276908875,0.4468269944190979,2.1962647438049316,0.36162644624710083,0.7204305529594421,0.42000001668930054,-0.5406898260116577,-2.999999523162842,-1.4022066593170166,-2.999999761581421,-0.17734047770500183,-0.1780531108379364,-0.17493003606796265,-0.16953913867473602,-0.059813082218170166,0.008922569453716278,0.015166262164711952,0.042226918041706085
0.7,0.11019247025251389,-0.011222224682569504,0.0,0.6646193265914917,0.0,0.0,-0.7471821308135986,0.5801181197166443,0.13772547245025635,0.0,0.0,0.0,3.463434934616089,0.3673410713672638,0.7088805437088013,0.42000001668930054,0.7606333494186401,9.774173577170586e-07,-4.205259756417945e-06,-0.6491816639900208,0.0002725317026488483,-0.00023375035380013287,-8.924282155930996e-05,0.0033996847923845053,0.00323261646553874,0.0002919307444244623,0.39774948358535767,0.7297840118408203,0.5118744373321533,0.9478919506072998,0.10715828090906143,1.5861644744873047,0.36162644624710083,0.7204305529594421,0.42000001668930054,-0.581039547920227,-1.906036138534546,-1.4522249698638916,-3.000000476837158,-0.1766490936279297,-0.176242396235466,-0.1728757619857788,-0.1669188141822815,0.12798987329006195,0.19665414094924927,0.2196466326713562,0.2586085796356201
0.7166666666666667,0.11648031324148178,-0.01386797334998846,0.0,0.6685040593147278,0.0,0.0,-0.7437084913253784,0.3311747610569,-0.1766095757484436,0.0,0.0,0.0,-0.37340694665908813,0.3673410713672638,0.7088805437088013,0.42000001668930054,0.7606333494186401,1.0047626801679144e-06,-4.2595061131578404e-06,-0.6491817235946655,0.00027241389034315944,-0.00023330407566390932,-8.915876969695091e-05,0.0033923524897545576,0.0032349301036447287,0.0002911989577114582,0.410580575466156,0.7308344841003418,0.5315190553665161,0.5590570569038391,-0.12802502512931824,0.9077777862548828,0.36162644624710083,0.7204305529594421,0.42000001668930054,-0.6177516579627991,-2.422757148742676,-1.5022432804107666,-2.999999523162842,-0.17132818698883057,-0.17017148435115814,-0.16679270565509796,-0.16068905591964722,0.20944523811340332,0.2832344174385071,0.31032615900039673,0.33337315917015076
0.7333333333333333,0.12461256980895996,-0.011641636490821838,0.0,0.6826990246772766,0.0,0.0,-0.7306997179985046,0.45335790514945984,0.15802021324634552,0.0,0.0,0.0,3.1756651401519775,0.3673410713672638,0.7088805437088013,0.42000001668930054,0.7606332302093506,1.183428480544535e-06,-4.014914793515345e-06,-0.6491818428039551,0.0002723750367294997,-0.00023269277880899608,-8.93082469701767e-05,0.0033795081544667482,0.003231779672205448,0.00029012892628088593,0.41887447237968445,0.7278627157211304,0.5451501607894897,0.47474461793899536,-0.06431837379932404,0.7356934547424316,0.36162644624710083,0.7204305529594421,0.42000001668930054,-0.6287723183631897,0.8254216909408569,-1.5522615909576416,-2.999999761581421,-0.17073945701122284,-0.16800731420516968,-0.16383875906467438,-0.15717566013336182,0.19141550362110138,0.23928967118263245,0.24631355702877045,0.23894931375980377
0.75,0.12917642295360565,-0.013262422755360603,0.0,0.6842878460884094,0.0,0.0,-0.7292119860649109,0.1998908519744873,-0.12890726327896118,0.0,0.0,0.0,-0.7202750444412231,0.3673410713672638,0.7088805437088013,0.42000001668930054,0.7606332302093506,9.808596814764314e-07,-4.220953996991739e-06,-0.6491817831993103,0.0002725897647906095,-0.00023353213327936828,-8.921697735786438e-05,0.0033964095637202263,0.0032370577100664377,0.00029150370392017066,0.4249665141105652,0.7258979678153992,0.5538324117660522,0.2236383557319641,-0.25586381554603577,0.44457563757896423,0.36162644624710083,0.7204305529594421,0.42000001668930054,-0.6509377360343933,-2.9998927116394043,-1.5133916139602661,2.999997138977051,-0.16665421426296234,-0.1633433848619461,-0.1592022031545639,-0.1528499871492386,0.14644776284694672,0.1963777095079422,0.21162278950214386,0.2047896683216095
0.7666666666666666,0.13440164923667908,-0.011898931115865707,0.0,0.6954535245895386,0.0,0.0,-0.7185710668563843,0.3529137074947357,0.1037515252828598,0.0,0.0,0.0,2.609224319458008,0.3673410713672638,0.7088805437088013,0.42000001668930054,0.7606332302093506,1.128188387156115e-06,-4.241207989252871e-06,-0.6491818428039551,0.00027277067420072854,-0.0002332187577849254,-8.93990509212017e-05,0.0033893894869834185,0.0032379422336816788,0.000290843250695616,0.42999589443206787,0.7212295532226562,0.5600825548171997,0.41422316431999207,-0.24067163467407227,0.35678035020828247,0.36162644624710083,0.7204305529594421,0.42000001668930054,-0.6678978800773621,0.6614471673965454,-1.5292479991912842,-2.999999523162842,-0.16491708159446716,-0.16080133616924286,-0.15629032254219055,-0.14989539980888367,0.1970261037349701,0.2209624946117401,0.22747057676315308,0.21829140186309814
0.7833333333333333,0.13725093007087708,-0.014150395058095455,0.0,0.6946482062339783,0.0,0.0,-0.7193496227264404,0.11011196672916412,-0.18392862379550934,0.0,0.0,0.0,-0.9413857460021973,0.3673410713672638,0.7088805437088013,0.42000001668930054,0.760633111000061,9.88253987088683e-07,-4.2364149521745276e-06,-0.6491819024085999,0.0002727008832152933,-0.00023370257986243814,-8.923723362386227e-05,0.003399662207812071,0.0032388283871114254,0.00029174258816055954,0.4359065890312195,0.7175723314285278,0.5638415217399597,0.25333863496780396,-0.25816309452056885,0.2279490977525711,0.36162644624710083,0.7204305529594421,0.42000001668930054,-0.6788283586502075,-1.7549256086349487,-1.4904470443725586,3.000000238418579,-0.16104653477668762,-0.1567867249250412,-0.1523585319519043,-0.1463102102279663,0.17022475600242615,0.18430960178375244,0.18610122799873352,0.16985325515270233
0.8,0.1412021666765213,-0.012721775099635124,0.0,0.7049646973609924,0.0,0.0,-0.7092424035072327,0.27944791316986084,0.08565155416727066,0.0,0.0,0.0,2.4463839530944824,0.3673410713672638,0.7088805437088013,0.42000001668930054,0.7606332302093506,9.746584055392304e-07,-4.200157036393648e-06,-0.6491819024085999,0.00027265894459560513,-0.0002335190074518323,-8.925399743020535e-05,0.003396236104890704,0.0032381764613091946,0.00029142704443074763,0.440310537815094,0.7124879360198975,0.5675862431526184,0.3594565987586975,-0.22836986184120178,0.2512803077697754,0.36162644624710083,0.7204305529594421,0.42000001668930054,-0.6774434447288513,1.6268497705459595,-1.5067781209945679,-3.000000476837158,-0.16027633845806122,-0.15553301572799683,-0.15076126158237457,-0.1446593552827835,0.18160121142864227,0.17450512945652008,0.16689275205135345,0.14782139658927917
0.8166666666666667,0.1430651694536209,-0.015296981669962406,0.0,0.7030903697013855,0.0,0.0,-0.7111005187034607,0.053862154483795166,-0.17989668250083923,0.0,0.0,0.0,-1.136449933052063,0.3673410713672638,0.7088805437088013,0.42000001668930054,0.7606332302093506,9.493057859799592e-07,-4.150029781158082e-06,-0.6491818428039551,0.0002728738181758672,-0.00023392339062411338,-8.9260283857584e-05,0.0034039493184536695,0.003242286155000329,0.00029204654856584966,0.4458720088005066,0.7101799249649048,0.5708703994750977,0.24121513962745667,-0.13761791586875916,0.26662182807922363,0.36162644624710083,0.7204305529594421,0.42000001668930054,-0.6732214689254761,-0.9047065377235413,-1.4680416584014893,3.0,-0.15626245737075806,-0.1520274430513382,-0.14772921800613403,-0.1422676146030426,0.142191544175148,0.12124841660261154,0.10185476392507553,0.07064238935709
0.8333333333333334,0.1420813351869583,-0.01406580675393343,0.0,0.7114409804344177,0.0,0.0,-0.7027458548545837,-0.12450092285871506,0.09810616075992584,0.0,0.0,0.0,2.0977494716644287,0.3673410713672638,0.7088805437088013,0.42000001668930054,0.7606332302093506,1.0108004744324717e-06,-4.285019258531975e-06,-0.6491817831993103,0.00027281162329018116,-0.0002338109043193981,-8.926168084144592e-05,0.0034016529098153114,0.0032409161794930696,0.0002918807149399072,0.4497445821762085,0.7056872844696045,0.5746510028839111,0.2935390770435333,-0.24886304140090942,0.22408179938793182,0.36162644624710083,0.7204305529594421,0.42000001668930054,-0.6601952910423279,2.187760591506958,-1.4848284721374512,-3.0,-0.15593740344047546,-0.15170465409755707,-0.14735348522663116,-0.14202913641929626,0.11184627562761307,0.08878383785486221,0.07380504161119461,0.05215971916913986
0.85,0.13873520493507385,-0.013816584832966328,0.0,0.7073481678962708,0.0,0.0,-0.7068653106689453,-0.2755398750305176,0.05284203961491585,0.0,0.0,0.0,-1.4766074419021606,0.3673410713672638,0.7088805437088013,0.42000001668930054,0.7606332302093506,9.797120128496317e-07,-4.242048362357309e-06,-0.6491817235946655,0.000272654986474663,-0.0002335267054149881,-8.924398571252823e-05,0.003396411659196019,0.003238365286961198,0.00029145178268663585,0.4532161355018616,0.705891489982605,0.5777742862701416,0.05591617524623871,0.11619989573955536,0.27283239364624023,0.36162644624710083,0.7204305529594421,0.42000001668930054,-0.6285533905029297,1.6324137449264526,-1.4461545944213867,3.0000007152557373,-0.15188248455524445,-0.14887107908725739,-0.14555488526821136,-0.14130744338035583,0.16543486714363098,0.09339447319507599,0.031054988503456116,-0.03496203571557999
0.8666666666666667,0.13329005241394043,-0.010788138955831528,0.0,0.71434485912323,0.0,0.0,-0.699793815612793,-0.3998378813266754,0.2801956534385681,0.0,0.0,0.0,1.9512693881988525,0.3673410713672638,0.7088805437088013,0.42000001668930054,0.7606333494186401,9.661306421548943e-07,-4.205481673125178e-06,-0.6491817235946655,0.0002726574894040823,-0.00023351699928753078,-8.925748988986015e-05,0.0033963085152208805,0.003238254925236106,0.00029141618870198727,0.4534515142440796,0.7071928977966309,0.5851091146469116,-0.003214992582798004,0.08134039491415024,0.6467316746711731,0.36162644624710083,0.7204305529594421,0.42000001668930054,-0.5984256267547607,1.9324991703033447,-1.4633959531784058,-3.0,-0.14932671189308167,-0.14753957092761993,-0.14522330462932587,-0.14196959137916565,0.1165689080953598,0.04724536091089249,-0.007213601376861334,-0.059292059391736984
