vladlanda/robotic-transformer/data/env_000_episode_0222.csv
sim_time_s,robot_box_x,robot_box_y,robot_box_z,robot_box_quat_w,robot_box_quat_x,robot_box_quat_y,robot_box_quat_z,robot_box_linvel_x,robot_box_linvel_y,robot_box_linvel_z,robot_box_angvel_x,robot_box_angvel_y,robot_box_angvel_z,cube_world_x,cube_world_y,cube_world_z,cube_quat_w,cube_quat_x,cube_quat_y,cube_quat_z,cube_linvel_x,cube_linvel_y,cube_linvel_z,cube_angvel_x,cube_angvel_y,cube_angvel_z,endpoint_world_x,endpoint_world_y,endpoint_world_z,endpoint_linvel_x,endpoint_linvel_y,endpoint_linvel_z,target_cube_world_x,target_cube_world_y,target_cube_world_z,gripper_actual_pos_rad_gp_leftgearjoint,gripper_actual_vel_rad_s_gp_leftgearjoint,gripper_actual_pos_rad_gp_rotatingjoint,gripper_actual_vel_rad_s_gp_rotatingjoint,motor_angle_rad_joint1,motor_angle_rad_joint2,motor_angle_rad_joint3,motor_angle_rad_joint4,motor_speed_rad_s_joint1,motor_speed_rad_s_joint2,motor_speed_rad_s_joint3,motor_speed_rad_s_joint4
0.0,0.0,0.0,0.0,1.0,0.0,0.0,0.0,0.0,0.0,0.0,0.0,0.0,0.0,-0.4064040780067444,0.6457609534263611,0.41999998688697815,1.0,0.0,0.0,0.0,0.0,0.0,0.0,0.0,0.0,0.0,3.42540442943573e-06,-0.005000244826078415,1.313499927520752,0.0,0.0,0.0,0.3761415183544159,0.6583043932914734,0.42000001668930054,-1.5707999467849731,0.0,0.0,0.0,0.0,0.0,0.0,0.0,0.0,0.0,0.0,0.0
0.016666666666666666,0.0028778850100934505,0.0021806680597364902,0.0,0.9998081922531128,0.0,0.0,0.019586581736803055,0.24087215960025787,0.18240931630134583,0.0,0.0,0.0,3.1418697834014893,-0.40640419721603394,0.6457606554031372,0.41999998688697815,1.0,3.279964630564791e-06,-8.339746386809566e-07,8.465587342243452e-08,-1.9833529222523794e-05,0.00017983045836444944,-6.132945418357849e-05,0.0009432713268324733,-0.004689474124461412,-0.00031981561915017664,-0.007110234349966049,0.003379564033821225,1.3159373998641968,-0.8143353462219238,0.9868683815002441,0.18095196783542633,0.3761415183544159,0.6583043932914734,0.42000001668930054,-1.5301095247268677,3.0000011920928955,-0.04584788903594017,-2.9999992847442627,0.0008691533003002405,0.0007963840034790337,0.0007110277656465769,0.0006108740926720202,0.11094217747449875,0.09756709635257721,0.08334315568208694,0.06823883205652237
0.03333333333333333,0.008960956707596779,0.006801827345043421,0.0,0.9997960329055786,0.0,0.0,0.02019682712852955,0.407018780708313,0.31530508399009705,0.0,0.0,0.0,-0.8691298961639404,-0.4064043164253235,0.6457605957984924,0.4200000464916229,1.0,3.3908354453160428e-06,-2.1324485715012997e-06,-3.710144014235084e-08,0.00026357831666246057,0.00026937946677207947,-0.00010509486310184002,-0.0017707672668620944,0.004130808170884848,-0.000135478752781637,-0.02754300832748413,0.025827128440141678,1.3166532516479492,-1.5912376642227173,1.6053318977355957,-0.07823897898197174,0.3761415183544159,0.6583043932914734,0.42000001668930054,-1.4800903797149658,3.0,-0.09588770568370819,-3.0000009536743164,0.002990195993334055,0.002652842318639159,0.0022774466779083014,0.0018609337275847793,0.16422942280769348,0.1397758573293686,0.11383745819330215,0.08632206916809082
0.05,0.01766159012913704,0.01375320740044117,0.0,0.9994046092033386,0.0,0.0,0.034502845257520676,0.5915579795837402,0.4644230902194977,0.0,0.0,0.0,2.6628289222717285,-0.4064043462276459,0.6457606554031372,0.4200000464916229,1.0,3.765139354072744e-06,-2.2119161258160602e-06,5.630195420991413e-09,0.0002653095289133489,0.00026691411039792,-0.00010440382175147533,-0.0017242460744455457,0.004177400842308998,-0.00012949357915204018,-0.05961683392524719,0.053263552486896515,1.3118255138397217,-2.1865410804748535,1.7156078815460205,-0.4591962695121765,0.3761415183544159,0.6583043932914734,0.42000001668930054,-1.4300720691680908,2.9999983310699463,-0.145926371216774,-3.000000238418579,0.005677641369402409,0.0048873876221477985,0.004025017376989126,0.0030859129037708044,0.19240841269493103,0.1555086225271225,0.11673729866743088,0.07600526511669159
0.06666666666666667,0.028940914198756218,0.023035624995827675,0.0,0.9994713068008423,0.0,0.0,0.03251226991415024,0.7182077765464783,0.5945806503295898,0.0,0.0,0.0,-1.1971054077148438,-0.4064043462276459,0.6457605957984924,0.4200000464916229,0.9999999403953552,3.4067325032083318e-06,-2.285616346853203e-06,4.301086846680846e-07,0.0002670263056643307,0.0002679172612261027,-0.00010437914170324802,-0.0017406872939318419,0.004211808554828167,-0.0001285045873373747,-0.09816467016935349,0.08683005720376968,1.2996256351470947,-2.4557371139526367,2.193432092666626,-0.9802312850952148,0.3761415183544159,0.6583043932914734,0.42000001668930054,-1.3800432682037354,3.000002145767212,-0.14013563096523285,2.9999992847442627,0.008236751891672611,0.006754517089575529,0.005161372944712639,0.0034515210427343845,0.14930152893066406,0.0981234535574913,0.044912420213222504,-0.010410520248115063
0.08333333333333333,0.042669735848903656,0.03450538218021393,0.0,0.9999987483024597,0.0,0.0,0.0015704056713730097,0.9424862265586853,0.7271841168403625,0.0,0.0,0.0,-4.491631984710693,-0.4064043462276459,0.6457605957984924,0.4200000464916229,0.9999999403953552,3.626018951763399e-06,-2.335360477445647e-06,3.0324326871777885e-07,0.00026613904628902674,0.00026685016928240657,-0.00010405411012470722,-0.0017283597262576222,0.004196425899863243,-0.00012790990876965225,-0.13708704710006714,0.12624990940093994,1.2817922830581665,-2.2951691150665283,2.4240572452545166,-1.1370108127593994,0.3761415183544159,0.6583043932914734,0.42000001668930054,-1.330036997795105,2.999999761581421,-0.17200638353824615,-3.0000014305114746,0.009651318192481995,0.007187178824096918,0.004571759607642889,0.0017990701599046588,0.08435963094234467,0.013111121021211147,-0.06024462729692459,-0.13565687835216522
0.1,0.05164226144552231,0.043940771371126175,0.0,0.9999323487281799,0.0,0.0,-0.0116328876465559,0.3770684003829956,0.44747355580329895,0.0,0.0,0.0,-0.5644013285636902,-0.4064043462276459,0.6457605957984924,0.4200000464916229,1.0,3.422117288209847e-06,-2.3086265628080582e-06,1.7964211451726442e-07,0.0002668147499207407,0.0002680043689906597,-0.00010440591722726822,-0.0017430688021704555,0.004207088612020016,-0.0001289069332415238,-0.17866390943527222,0.1630212515592575,1.2596595287322998,-2.49448823928833,2.254755973815918,-1.4431798458099365,0.3761415183544159,0.6583043932914734,0.42000001668930054,-1.2800127267837524,2.9999942779541016,-0.13831841945648193,3.0000009536743164,0.0049260747618973255,0.0016997482161968946,-0.0017273763660341501,-0.005364050157368183,-0.43076291680336,-0.47368761897087097,-0.5193069577217102,-0.5678364634513855
0.11666666666666667,0.05503503233194351,0.0555698499083519,0.0,0.9992817044258118,0.0,0.0,-0.03789559751749039,0.36687132716178894,0.6454474925994873,0.0,0.0,0.0,-3.563349962234497,-0.4064043462276459,0.6457606554031372,0.4200000464916229,1.0,3.7115232771611772e-06,-2.332744770683348e-06,2.5743875653461146e-07,0.0002648573135957122,0.0002663538616616279,-0.0001042329240590334,-0.0017182383453473449,0.004170004278421402,-0.00012915604747831821,-0.21635912358760834,0.2067207396030426,1.2324552536010742,-2.13690447807312,2.9299769401550293,-1.5798410177230835,0.3761415183544159,0.6583043932914734,0.42000001668930054,-1.2300105094909668,3.000002384185791,-0.1701878309249878,-2.999999761581421,-0.003019138239324093,-0.007281957194209099,-0.011757935397326946,-0.016459545120596886,-0.13923920691013336,-0.2621004283428192,-0.38150501251220703,-0.49732258915901184
0.13333333333333333,0.05883075296878815,0.06454087048768997,0.0,0.9961817860603333,0.0,0.0,-0.087303027510643,0.17035147547721863,0.4623689651489258,0.0,0.0,0.0,-6.763735771179199,-0.4064043462276459,0.6457605957984924,0.4200000464916229,0.9999999403953552,3.4247721032443224e-06,-2.302058646819205e-06,1.5600532776716136e-07,0.0002670695830602199,0.00026811397401615977,-0.0001044438686221838,-0.0017433526227250695,0.004212038591504097,-0.00012877356493845582,-0.25325626134872437,0.2590418756008148,1.201047420501709,-2.2196590900421143,3.292695999145508,-2.1956496238708496,0.3761415183544159,0.6583043932914734,0.42000001668930054,-1.1819075345993042,2.7513363361358643,-0.1365484595298767,3.0,-0.006177680566906929,-0.012370575219392776,-0.018700873479247093,-0.02518000826239586,-0.23838546872138977,-0.3399627208709717,-0.4367639422416687,-0.5288037657737732
0.15,0.06801734864711761,0.07458791136741638,0.0,0.9929368495941162,0.0,0.0,-0.11864384263753891,0.6822009682655334,0.6470730304718018,0.0,0.0,0.0,-2.716803550720215,-0.4064043462276459,0.6457605957984924,0.4200000464916229,1.0,3.7139011510589626e-06,-2.207917759733391e-06,-1.6907199551496888e-07,0.0002635329437907785,0.00026536150835454464,-0.00010421965271234512,-0.0017012760508805513,0.004144118633121252,-0.0001296106056543067,-0.29261818528175354,0.31031882762908936,1.1615562438964844,-2.1920506954193115,3.2462563514709473,-2.5528364181518555,0.3761415183544159,0.6583043932914734,0.42000001668930054,-1.1321300268173218,3.0000009536743164,-0.16838888823986053,-3.0000007152557373,-0.007051174063235521,-0.015194530598819256,-0.023374151438474655,-0.031601499766111374,-0.04469054937362671,-0.15637828409671783,-0.26217859983444214,-0.36207425594329834
0.16666666666666666,0.07402945309877396,0.08146975934505463,0.0,0.9864643216133118,0.0,0.0,-0.16397611796855927,0.38185304403305054,0.3903833329677582,0.0,0.0,0.0,-6.1491379737854,-0.4064043462276459,0.6457605957984924,0.4200000464916229,0.9999999403953552,3.6384042232384672e-06,-2.2789229205955053e-06,2.7008715619558643e-07,0.0002668272063601762,0.00026750034885481,-0.00010409974493086338,-0.001739923725835979,0.00421003857627511,-0.00012781501573044807,-0.327423095703125,0.36788463592529297,1.1128989458084106,-1.8522449731826782,3.7726683616638184,-3.1618757247924805,0.3761415183544159,0.6583043932914734,0.42000001668930054,-1.0821223258972168,2.999999523162842,-0.14465516805648804,2.9999988079071045,-0.013883986510336399,-0.02310575731098652,-0.032303109765052795,-0.041493892669677734,-0.38488346338272095,-0.45316728949546814,-0.5168473124504089,-0.5761564373970032
0.18333333333333332,0.0772017315030098,0.08947957307100296,0.0,0.981383740901947,0.0,0.0,-0.19205723702907562,0.10847661644220352,0.5361425876617432,0.0,0.0,0.0,-1.9973810911178589,-0.4064043462276459,0.6457605957984924,0.4200000464916229,1.0,3.386441903785453e-06,-2.3003881324257236e-06,1.4394986180832348e-07,0.00026674504624679685,0.00026787177193909883,-0.00010436959564685822,-0.0017412236193194985,0.004205957055091858,-0.00012878549750894308,-0.36074215173721313,0.42661792039871216,1.054760456085205,-1.8130378723144531,3.556088924407959,-3.7880353927612305,0.3761415183544159,0.6583043932914734,0.42000001668930054,-1.0321359634399414,2.9936928749084473,-0.1764555424451828,-2.999999761581421,-0.02256949618458748,-0.032498739659786224,-0.04232898727059364,-0.05208469182252884,-0.610543429851532,-0.6301798224449158,-0.6460849642753601,-0.6587396264076233
0.2,0.07726330310106277,0.0954621359705925,0.0,0.9734501838684082,0.0,0.0,-0.22889907658100128,-0.04265633597970009,0.28186506032943726,0.0,0.0,0.0,-5.371796131134033,-0.4064043462276459,0.6457606554031372,0.4200000464916229,1.0,3.6755063774762675e-06,-2.326639560124022e-06,2.2115435172054276e-07,0.00026484508998692036,0.0002663136983755976,-0.00010421895422041416,-0.001717768725939095,0.004169930703938007,-0.00012909887300338596,-0.3884178400039673,0.4877817928791046,0.9838180541992188,-1.3886089324951172,3.705728769302368,-4.626092910766602,0.3761415183544159,0.6583043932914734,0.42000001668930054,-0.9821321964263916,2.999999523162842,-0.22648420929908752,-3.000001907348633,-0.034516096115112305,-0.044415540993213654,-0.05416430905461311,-0.06379767507314682,-0.7880111336708069,-0.7664844393730164,-0.7428181767463684,-0.7176980376243591
0.21666666666666667,0.07805992662906647,0.10234419256448746,0.0,0.9685263633728027,0.0,0.0,-0.24891109764575958,0.08933664858341217,0.4442867040634155,0.0,0.0,0.0,-1.0029393434524536,-0.4064043462276459,0.6457605957984924,0.4200000464916229,1.0,3.3222438560187584e-06,-2.2081051156419562e-06,2.74300816727191e-07,0.0002666279615368694,0.00026749621611088514,-0.00010426435619592667,-0.0017357913311570883,0.004204741679131985,-0.00012833758955821395,-0.4125990867614746,0.5405828952789307,0.9004448652267456,-1.221726655960083,2.86368727684021,-5.277578353881836,0.3761415183544159,0.6583043932914734,0.42000001668930054,-0.9321234226226807,3.0,-0.2765152156352997,-3.000000476837158,-0.050497688353061676,-0.06002268195152283,-0.06914395838975906,-0.0781506597995758,-0.9727229475975037,-0.948430597782135,-0.9277063012123108,-0.9107160568237305
0.23333333333333334,0.07722479104995728,0.107445128262043,0.0,0.9608256220817566,0.0,0.0,-0.2771536707878113,-0.10670098662376404,0.20919308066368103,0.0,0.0,0.0,-4.346931457519531,-0.4064043462276459,0.6457605957984924,0.4200000464916229,1.0,3.656482931546634e-06,-2.3735231025057146e-06,-4.0765050357549626e-07,0.00026611628709360957,0.00026726044598035514,-0.00010423432104289532,-0.0017335705924779177,0.004194592125713825,-0.00012855060049332678,-0.4296722114086151,0.5859912633895874,0.8053677678108215,-0.7038601636886597,2.4685657024383545,-5.960806846618652,0.3761415183544159,0.6583043932914734,0.42000001668930054,-0.8821127414703369,2.999995231628418,-0.3265473544597626,-3.000000238418579,-0.0669884905219078,-0.07647030055522919,-0.08554113656282425,-0.09447869658470154,-0.9907741546630859,-0.9917435646057129,-0.9925985336303711,-0.9933729767799377
0.25,0.07606487721204758,0.11264536529779434,0.0,0.9580157995223999,0.0,0.0,-0.28671547770500183,-0.03459859639406204,0.35490962862968445,0.0,0.0,0.0,-0.16835476458072662,-0.4064043462276459,0.6457606554031372,0.4200000464916229,1.0,3.6305284538684646e-06,-2.24274663196411e-06,1.1225676388448846e-08,0.0002667999069672078,0.00026706064818426967,-0.00010390742681920528,-0.0017342597711831331,0.0042105307802557945,-0.0001270237407879904,-0.4423998296260834,0.6160948276519775,0.7046946287155151,-0.540181577205658,1.3148375749588013,-6.106646537780762,0.3761415183544159,0.6583043932914734,0.42000001668930054,-0.83210289478302,2.999995231628418,-0.37657997012138367,-2.9999983310699463,-0.08367686718702316,-0.09312786161899567,-0.10217788815498352,-0.11110062152147293,-0.9941288232803345,-0.9949600696563721,-0.9956239461898804,-0.9961780905723572
0.26666666666666666,0.073092021048069,0.11586275696754456,0.0,0.9515351057052612,0.0,0.0,-0.3075401484966278,-0.2329891324043274,0.14047227799892426,0.0,0.0,0.0,-3.457738161087036,-0.4064043164253235,0.6457605957984924,0.4200000464916229,0.9999999403953552,3.740110059879953e-06,-2.2364406504493672e-06,4.49988931450207e-07,0.0002647962246555835,0.00026673031970858574,-0.00010454049333930016,-0.0017189658246934414,0.004166740458458662,-0.00013016746379435062,-0.4453798830509186,0.6325826644897461,0.5998340845108032,0.24145396053791046,0.617938220500946,-6.282883644104004,0.3761415183544159,0.6583043932914734,0.42000001668930054,-0.7820940613746643,2.9999959468841553,-0.42661169171333313,-2.999997615814209,-0.10107918083667755,-0.11033421754837036,-0.11923418939113617,-0.12803812325000763,-1.0000014305114746,-1.000001072883606,-1.0000008344650269,-0.9998332262039185
0.2833333333333333,0.06801896542310715,0.11614654958248138,0.0,0.95069819688797,0.0,0.0,-0.3101177215576172,-0.3653707802295685,-0.02445141412317753,0.0,0.0,0.0,0.5928524136543274,-0.4064043462276459,0.6457605957984924,0.4200000464916229,1.0,3.391638983885059e-06,-2.291242708452046e-06,1.246128675802538e-07,0.0002667730441316962,0.00026789261028170586,-0.0001043747179210186,-0.001741221291013062,0.00420632166787982,-0.00012878607958555222,-0.4391804337501526,0.6413565874099731,0.5015482902526855,0.6529256105422974,0.44618844985961914,-5.497309684753418,0.3761415183544159,0.6583043932914734,0.42000001668930054,-0.7320852875709534,3.000002384185791,-0.47664186358451843,-3.0000011920928955,-0.11856675893068314,-0.12764473259449005,-0.13641273975372314,-0.14511393010616302,-1.0086387395858765,-1.0064706802368164,-1.0048344135284424,-1.0035396814346313
0.3,0.06007729470729828,0.11391618847846985,0.0,0.9455969333648682,0.0,0.0,-0.3253404200077057,-0.5276088714599609,-0.18006111681461334,0.0,0.0,0.0,-2.7706706523895264,-0.4064043462276459,0.6457606554031372,0.4200000464916229,1.0,3.6806886782869697e-06,-2.3191903437691508e-06,2.0109642662191618e-07,0.0002647917135618627,0.00026625802274793386,-0.00010421290062367916,-0.0017169015482068062,0.0041690124198794365,-0.00012909753422718495,-0.4218476712703705,0.6477973461151123,0.40972137451171875,1.4596991539001465,0.28878146409988403,-5.342731475830078,0.3761415183544159,0.6583043932914734,0.42000001668930054,-0.6820783615112305,3.000001907348633,-0.5266700387001038,-3.0,-0.13605034351348877,-0.144927516579628,-0.15354099869728088,-0.16211861371994019,-1.0055816173553467,-1.0042251348495483,-1.003184199333191,-1.002348780632019
0.31666666666666665,0.04992128163576126,0.10919411480426788,0.0,0.9461169242858887,0.0,0.0,-0.3238251507282257,-0.648165762424469,-0.3241555094718933,0.0,0.0,0.0,1.1048061847686768,-0.40610525012016296,0.6468703746795654,0.4203921854496002,0.9995756149291992,8.032842742977664e-05,0.00972973182797432,-0.027456946671009064,0.10104940831661224,0.27760887145996094,0.09154170006513596,0.3560628890991211,4.220999240875244,-12.116593360900879,-0.4222032427787781,0.6533715128898621,0.42556628584861755,0.14414973556995392,0.3947051167488098,-0.20036698877811432,0.3761415183544159,0.6583043932914734,0.42000001668930054,-0.6324414610862732,2.9999780654907227,-0.5772957801818848,-2.9998340606689453,-0.14138413965702057,-0.14960603415966034,-0.15713241696357727,-0.16412580013275146,-0.42986196279525757,-0.36301493644714355,-0.2787787616252899,-0.17397302389144897
0.3333333333333333,0.040862079709768295,0.10191474109888077,0.0,0.9418532848358154,0.0,0.0,-0.3360244631767273,-0.4839300513267517,-0.486098051071167,0.0,0.0,0.0,-2.3820972442626953,-0.4046076238155365,0.6512064933776855,0.4207516610622406,0.9932825565338135,0.0021879596170037985,0.01904112473130226,-0.1141149252653122,0.08547616750001907,0.25396767258644104,7.175107020884752e-05,0.0004530057485681027,0.00381837273016572,-9.803154945373535,-0.41796910762786865,0.6583882570266724,0.4223262071609497,0.36894363164901733,0.3326982259750366,-0.18796013295650482,0.3761415183544159,0.6583043932914734,0.42000001668930054,-0.5824363827705383,2.9999799728393555,-0.627352237701416,-2.999953269958496,-0.1500636339187622,-0.15666523575782776,-0.16234005987644196,-0.16721288859844208,-0.5440006256103516,-0.4299998879432678,-0.30629393458366394,-0.17113645374774933
0.35,0.030041946098208427,0.09268055111169815,0.0,0.9432382583618164,0.0,0.0,-0.3321168124675751,-0.6625922918319702,-0.6009030938148499,0.0,0.0,0.0,1.4250785112380981,-0.4010019600391388,0.6583346128463745,0.4202507436275482,0.9873393774032593,0.006295108702033758,-0.001012732507660985,-0.15849334001541138,0.3643464744091034,0.6605056524276733,0.02417766861617565,1.1769750118255615,-0.35497936606407166,-4.007609844207764,-0.4112037420272827,0.6657600402832031,0.4212546944618225,0.4048066735267639,0.617304801940918,0.08061201125383377,0.3761415183544159,0.6583043932914734,0.42000001668930054,-0.5324314832687378,2.9999804496765137,-0.6773905754089355,-2.999995470046997,-0.16105706989765167,-0.1650422066450119,-0.16795851290225983,-0.16992413997650146,-0.5594550371170044,-0.4078338146209717,-0.246375173330307,-0.07479869574308395
0.36666666666666664,0.01740596815943718,0.08112268894910812,0.0,0.9394451975822449,0.0,0.0,-0.34269919991493225,-0.8036680221557617,-0.7339293956756592,0.0,0.0,0.0,-2.263566493988037,-0.39324671030044556,0.6708415746688843,0.4200007915496826,0.9807738661766052,-1.9586359485401772e-05,-2.0835086615988985e-05,-0.1951475739479065,0.5641238689422607,0.835638701915741,-0.0016365039627999067,0.103951096534729,-0.08956444263458252,-5.111510753631592,-0.40044766664505005,0.6764270067214966,0.4198114573955536,0.8734647035598755,0.6810165047645569,-0.23628482222557068,0.3761415183544159,0.6583043932914734,0.42000001668930054,-0.48242688179016113,3.0000014305114746,-0.7274152040481567,-2.999589681625366,-0.17037144303321838,-0.1715167909860611,-0.17136596143245697,-0.17005093395709991,-0.5209803581237793,-0.3391672670841217,-0.14260205626487732,0.06712063401937485
0.3833333333333333,0.007359526585787535,0.06686117500066757,0.0,0.9255210757255554,0.0,0.0,-0.37869617342948914,-0.5291417241096497,-0.9081600308418274,0.0,0.0,0.0,-5.452034950256348,-0.38139036297798157,0.6868433952331543,0.4203190505504608,0.9727306962013245,-0.0078089977614581585,0.0016319092828780413,-0.23180000483989716,1.135413646697998,0.9452826380729675,0.28637072443962097,-12.857800483703613,4.466982841491699,-9.853164672851562,-0.38523730635643005,0.6892226338386536,0.42147544026374817,1.1099134683609009,0.9690097570419312,0.1652575582265854,0.3761415183544159,0.6583043932914734,0.42000001668930054,-0.43233388662338257,2.979971408843994,-0.777411162853241,-2.99631667137146,-0.17777810990810394,-0.17592215538024902,-0.17242556810379028,-0.16746076941490173,-0.3586443066596985,-0.18258845806121826,0.015473142266273499,0.2327282875776291
0.4,0.001385182375088334,0.049534015357494354,0.0,0.8990347981452942,0.0,0.0,-0.4378771483898163,-0.2916797995567322,-1.0943599939346313,0.0,0.0,0.0,-8.611005783081055,-0.3506222069263458,0.7096253037452698,0.42435795068740845,0.9584977626800537,-0.019025811925530434,-0.03065504878759384,-0.28280776739120483,2.8172085285186768,1.6384412050247192,0.212235227227211,29.479244232177734,-19.482444763183594,3.8384249210357666,-0.35425102710723877,0.7126379013061523,0.42485129833221436,2.6547091007232666,1.8747389316558838,0.45159852504730225,0.3761415183544159,0.6583043932914734,0.42000001668930054,-0.39504164457321167,1.4046788215637207,-0.8274352550506592,-3.0000014305114746,-0.1850281059741974,-0.17984719574451447,-0.1727045327425003,-0.16384145617485046,-0.4760608971118927,-0.2552605867385864,-0.01956680603325367,0.22606460750102997
0.4166666666666667,-0.002620124723762274,0.0368577241897583,0.0,0.8562038540840149,0.0,0.0,-0.5166381001472473,-0.20405977964401245,-0.6388171315193176,0.0,0.0,0.0,-11.546403884887695,-0.2792285978794098,0.7453606128692627,0.4289158880710602,0.9394229650497437,0.03333089128136635,-0.07850037515163422,-0.33198079466819763,5.876964092254639,2.1371328830718994,0.29435840249061584,5.070245742797852,-8.842681884765625,13.263015747070312,-0.2827407717704773,0.748918354511261,0.4293653964996338,5.542096138000488,2.612238883972168,0.33880361914634705,0.3761415183544159,0.6583043932914734,0.42000001668930054,-0.375560462474823,1.0030112266540527,-0.7906116247177124,2.9998996257781982,-0.19979839026927948,-0.19046734273433685,-0.1778344064950943,-0.16371074318885803,-0.8951683044433594,-0.7259541749954224,-0.3972679078578949,-0.09396945685148239
0.43333333333333335,-0.003748613642528653,0.030373886227607727,0.0,0.81791090965271,0.0,0.0,-0.5753449201583862,-0.013169480487704277,-0.4579847753047943,0.0,0.0,0.0,-6.612145900726318,-0.1854633390903473,0.7832542061805725,0.4351326525211334,0.8922979831695557,0.05715233460068703,-0.16211487352848053,-0.4174406826496124,5.853037357330322,1.7410595417022705,0.5412161946296692,-5.165740966796875,-13.484838485717773,-0.08189727365970612,-0.18990856409072876,0.7893059849739075,0.43740493059158325,5.654849052429199,2.225385904312134,0.5859598517417908,0.3761415183544159,0.6583043932914734,0.42000001668930054,-0.35921868681907654,1.0034502744674683,-0.8177978992462158,-3.0000016689300537,-0.21294188499450684,-0.2040131837129593,-0.18704791367053986,-0.16859576106071472,-0.44936251640319824,-0.5364880561828613,-0.41635677218437195,-0.24967147409915924
0.45,-0.007707861252129078,0.02176915667951107,0.0,0.799742579460144,0.0,0.0,-0.6003430485725403,-0.316679447889328,-0.5857414603233337,0.0,0.0,0.0,-2.704500675201416,-0.08982425928115845,0.808152437210083,0.4465693533420563,0.8261346817016602,0.05204169452190399,-0.172376811504364,-0.5339282155036926,5.810091972351074,0.13116344809532166,0.7334226369857788,-10.718445777893066,-15.132678985595703,19.91880989074707,-0.09488041698932648,0.815924882888794,0.4477410316467285,5.841168403625488,1.0741277933120728,0.8367923498153687,0.3761415183544159,0.6583043932914734,0.42000001668930054,-0.34240517020225525,0.8703591823577881,-0.8678219318389893,-3.000002861022949,-0.22179435193538666,-0.21267952024936676,-0.19304567575454712,-0.1714707463979721,-0.4960138499736786,-0.4359684884548187,-0.27268657088279724,-0.09347757697105408
0.4666666666666667,-0.00912548042833805,0.015179202891886234,0.0,0.7728630304336548,0.0,0.0,-0.6345729231834412,0.03844346106052399,-0.41803011298179626,0.0,0.0,0.0,-5.7870774269104,0.006248023360967636,0.8128505349159241,0.45545607805252075,0.7467714548110962,0.03823821619153023,-0.1890549212694168,-0.6364969611167908,5.77463436126709,-0.5761919617652893,0.6416451334953308,-6.54862642288208,-12.535831451416016,4.57086181640625,-7.518939673900604e-05,0.8234979510307312,0.458266943693161,5.650234222412109,-0.07671218365430832,0.564817488193512,0.3761415183544159,0.6583043932914734,0.42000001668930054,-0.32952162623405457,0.6063339710235596,-0.9178460240364075,-3.0000014305114746,-0.23026636242866516,-0.21950894594192505,-0.19707553088665009,-0.17249691486358643,-0.30279621481895447,-0.21821634471416473,-0.08756048232316971,0.0587204247713089
0.48333333333333334,-0.010745801031589508,0.01179120410233736,0.0,0.7606227993965149,0.0,0.0,-0.649194061756134,-0.14889082312583923,-0.11584924906492233,0.0,0.0,0.0,-1.1125516891479492,0.09415838867425919,0.8060078024864197,0.462776780128479,0.6936945915222168,0.012396140955388546,-0.1711069941520691,-0.6995401978492737,4.705935478210449,-1.3980681896209717,0.4416716992855072,-9.92809772491455,-0.01731630600988865,15.096864700317383,0.08983264863491058,0.8163712024688721,0.46627557277679443,5.210328102111816,-0.7962542176246643,0.47809359431266785,0.3761415183544159,0.6583043932914734,0.42000001668930054,-0.3182912766933441,0.6587463617324829,-0.9678701162338257,-3.0000014305114746,-0.23555995523929596,-0.22326743602752686,-0.1991313099861145,-0.17278411984443665,-0.2531433701515198,-0.1694919615983963,-0.10686276853084564,-0.04968739300966263
0.5,-0.00983546394854784,0.003932415507733822,0.0,0.7398772835731506,0.0,0.0,-0.6727418899536133,0.02097494713962078,-0.4686828553676605,0.0,0.0,0.0,-4.470489978790283,0.1743335723876953,0.7876796722412109,0.4638657867908478,0.6238189339637756,-0.04599572718143463,-0.18718211352825165,-0.7574278712272644,4.198916435241699,-1.8981609344482422,-0.08494943380355835,-22.441787719726562,12.977889060974121,0.08637293428182602,0.17023810744285583,0.8005382418632507,0.4705197811126709,4.572493076324463,-1.3224928379058838,0.18614880740642548,0.3761415183544159,0.6583043932914734,0.42000001668930054,-0.3061164617538452,0.702597439289093,-1.0178934335708618,-2.998481035232544,-0.23394355177879333,-0.22091469168663025,-0.19665606319904327,-0.1702398657798767,0.005090636201202869,0.09229091554880142,0.1222524493932724,0.14111082255840302
0.5166666666666666,-0.007514839991927147,0.0015157117741182446,0.0,0.7318528890609741,0.0,0.0,-0.6814627051353455,0.18605738878250122,-0.1427648663520813,0.0,0.0,0.0,-0.3291848301887512,0.24203553795814514,0.7589668035507202,0.46008598804473877,0.5472756624221802,-0.14202259480953217,-0.20451782643795013,-0.7990565896034241,3.6253459453582764,-2.1556715965270996,-0.08816999942064285,-1.8481245040893555,10.560150146484375,-2.7591094970703125,0.23928649723529816,0.7736480236053467,0.47058430314064026,3.8885555267333984,-1.8096699714660645,-0.21484751999378204,0.3761415183544159,0.6583043932914734,0.42000001668930054,-0.2936885356903076,0.7269436120986938,-1.0679155588150024,-2.9995217323303223,-0.23643708229064941,-0.22143758833408356,-0.1965591162443161,-0.1699267327785492,0.0695926696062088,0.12774185836315155,0.0967341810464859,0.043483614921569824
0.5333333333333333,-0.002306159818544984,-0.0032992386259138584,0.0,0.7161657214164734,0.0,0.0,-0.6979302763938904,0.3584495484828949,-0.39362502098083496,0.0,0.0,0.0,-3.460573673248291,0.2989875078201294,0.7311409711837769,0.4510030150413513,0.5121215581893921,-0.17101100087165833,-0.18660995364189148,-0.8207699656486511,2.992013931274414,-1.723488450050354,-0.5853270888328552,-1.8341904878616333,8.097108840942383,-6.855002403259277,0.29775944352149963,0.7452884912490845,0.4624835252761841,3.127347707748413,-1.7506064176559448,-0.6821779012680054,0.3761415183544159,0.6583043932914734,0.42000001668930054,-0.2798658311367035,0.8980070352554321,-1.117937684059143,-2.9998586177825928,-0.23297879099845886,-0.21779537200927734,-0.19432741403579712,-0.1694686859846115,0.27795398235321045,0.26142618060112,0.14262861013412476,-5.577255990374397e-08
0.55,0.0010347418719902635,-0.0056192646734416485,0.0,0.7132076025009155,0.0,0.0,-0.7009528279304504,0.12205860018730164,-0.08922592550516129,0.0,0.0,0.0,0.3355354070663452,0.3413153290748596,0.7006454467773438,0.43813011050224304,0.48038795590400696,-0.20011846721172333,-0.16125690937042236,-0.8385559320449829,1.967210292816162,-2.2285549640655518,-0.6698081493377686,-7.0219292640686035,9.688675880432129,1.5267157554626465,0.3415987491607666,0.7137457132339478,0.4500979483127594,2.2155423164367676,-1.8914039134979248,-0.8573683500289917,0.3761415183544159,0.6583043932914734,0.42000001668930054,-0.26500165462493896,0.7264351844787598,-1.1679598093032837,-3.000000238418579,-0.22988972067832947,-0.21497511863708496,-0.19354723393917084,-0.17117148637771606,0.29475247859954834,0.23360776901245117,0.06850813329219818,-0.11948863416910172
0.5666666666666667,0.005331338383257389,-0.009148647077381611,0.0,0.6998969316482544,0.0,0.0,-0.7142438292503357,0.2908027470111847,-0.1944391429424286,0.0,0.0,0.0,-3.1587488651275635,0.37105056643486023,0.6796870827674866,0.42620640993118286,0.4835176467895508,-0.15591412782669067,-0.08411884307861328,-0.8572196364402771,1.2094733715057373,-0.8924642205238342,-0.12137925624847412,7.6249799728393555,-9.50763988494873,9.863822937011719,0.3703945279121399,0.6898521184921265,0.43627941608428955,0.9687864780426025,-0.9537349343299866,-0.22494126856327057,0.3761415183544159,0.6583043932914734,0.42000001668930054,-0.2549455761909485,0.641814112663269,-1.130180835723877,2.996983289718628,-0.2200898379087448,-0.2076752781867981,-0.19028718769550323,-0.17213644087314606,0.6468373537063599,0.4737224876880646,0.21570125222206116,-0.04808242991566658
0.5833333333333334,0.011604326777160168,-0.00969253946095705,0.0,0.6993670463562012,0.0,0.0,-0.7147626876831055,0.4158564805984497,0.02243036963045597,0.0,0.0,0.0,0.7947589159011841,0.3831431567668915,0.6674275994300842,0.42457038164138794,0.4985511898994446,-0.09902346879243851,-0.028797416016459465,-0.8607041835784912,0.2393418699502945,-0.6262887716293335,0.28838682174682617,5.819733142852783,12.285160064697266,1.520987868309021,0.38182762265205383,0.6752321720123291,0.43238136172294617,0.28092724084854126,-0.6192036867141724,0.09532199800014496,0.3761415183544159,0.6583043932914734,0.42000001668930054,-0.24808010458946228,-0.02581808529794216,-1.1526341438293457,-2.998762369155884,-0.2091899812221527,-0.19996115565299988,-0.18703283369541168,-0.17336595058441162,0.7018558382987976,0.4925728738307953,0.21508504450321198,-0.05951068922877312
0.6,0.019885839894413948,-0.013337424956262112,0.0,0.688537061214447,0.0,0.0,-0.7252011299133301,0.5459033846855164,-0.25987306237220764,0.0,0.0,0.0,-2.6427724361419678,0.3860628604888916,0.6626454591751099,0.423396497964859,0.5364293456077576,-0.06806138902902603,-0.016179325059056282,-0.8410406708717346,-0.07814124971628189,-0.310524582862854,0.05847431719303131,2.326575756072998,3.53356671333313,11.538376808166504,0.3833485245704651,0.6698048114776611,0.43040627241134644,-0.14996421337127686,-0.12728025019168854,-0.08145184069871902,0.3761415183544159,0.6583043932914734,0.42000001668930054,-0.2574659287929535,-1.0851720571517944,-1.1148931980133057,3.000000476837158,-0.19548927247524261,-0.1902134269475937,-0.18224601447582245,-0.17343495786190033,0.7480435967445374,0.5255470871925354,0.24699200689792633,-0.026196792721748352
0.6166666666666667,0.02597668766975403,-0.013786165975034237,0.0,0.6898080110549927,0.0,0.0,-0.7239922881126404,0.3065049648284912,0.0021573295816779137,0.0,0.0,0.0,1.055118441581726,0.3832080662250519,0.658130943775177,0.42209362983703613,0.569997251033783,-0.0394967757165432,-0.0067936512641608715,-0.8206685781478882,-0.18910002708435059,-0.22944188117980957,-0.10227889567613602,2.0253899097442627,-3.4519753456115723,2.8824145793914795,0.37838298082351685,0.6654940247535706,0.427969366312027,-0.31021085381507874,-0.14244860410690308,0.12771904468536377,0.3761415183544159,0.6583043932914734,0.42000001668930054,-0.30129140615463257,-2.999995231628418,-1.1375402212142944,-2.998976707458496,-0.18590165674686432,-0.18375179171562195,-0.17975586652755737,-0.17485246062278748,0.5877270698547363,0.39990994334220886,0.1701301634311676,-0.052556995302438736
0.6333333333333333,0.03260807693004608,-0.01116191502660513,0.0,0.6805874705314636,0.0,0.0,-0.7326668500900269,0.4185223877429962,0.1958664059638977,0.0,0.0,0.0,-2.475355386734009,0.38141947984695435,0.6555522084236145,0.4201834797859192,0.5773593187332153,-0.0024408837780356407,0.00362247321754694,-0.8164783716201782,0.06378273665904999,0.017831264063715935,0.05278884619474411,0.9073105454444885,2.528169870376587,-0.2812274694442749,0.37795954942703247,0.6669535636901855,0.4300980269908905,0.05481880158185959,0.23726463317871094,0.1468760371208191,0.3761415183544159,0.6583043932914734,0.42000001668930054,-0.34212082624435425,-1.9208934307098389,-1.187490463256836,-2.9989211559295654,-0.17561586201190948,-0.17699186503887177,-0.17700783908367157,-0.17587628960609436,0.690805196762085,0.4664466977119446,0.22040493786334991,-0.008568638004362583
0.65,0.041295960545539856,-0.013340183533728123,0.0,0.6829297542572021,0.0,0.0,-0.7304840683937073,0.4940684139728546,-0.16176731884479523,0.0,0.0,0.0,1.2797452211380005,0.3816731572151184,0.6560618281364441,0.4200882017612457,0.5968126654624939,-0.001266462728381157,0.0016296256799250841,-0.8023778796195984,-0.0577041432261467,0.040076397359371185,-0.013501959852874279,-0.40067896246910095,-1.0700335502624512,7.510550498962402,0.3769485056400299,0.670386791229248,0.4329351782798767,-0.20565888285636902,0.18980810046195984,0.1891571581363678,0.3761415183544159,0.6583043932914734,0.42000001668930054,-0.3905693292617798,-3.0000011920928955,-1.2374868392944336,-2.9999513626098633,-0.1619870662689209,-0.16691240668296814,-0.1707983762025833,-0.17329977452754974,0.6873569488525391,0.5255181789398193,0.34393900632858276,0.17014652490615845
0.6666666666666666,0.052375201135873795,-0.01193404570221901,0.0,0.7061372399330139,0.0,0.0,-0.7080749869346619,0.7025874257087708,0.10815507918596268,0.0,0.0,0.0,4.636625289916992,0.37996187806129456,0.6563488245010376,0.42012548446655273,0.5973028540611267,0.0018802237464115024,-0.0025319347623735666,-0.8020095229148865,-0.0906074121594429,0.015070660971105099,0.009603407233953476,-0.13302087783813477,-0.4650518298149109,-2.2451040744781494,0.3743612468242645,0.6711889505386353,0.4364304542541504,-0.09612105041742325,0.09265495836734772,0.2642799913883209,0.3761415183544159,0.6583043932914734,0.42000001668930054,-0.44058674573898315,-2.998953342437744,-1.2874643802642822,-2.999992847442627,-0.1554785966873169,-0.16165532171726227,-0.16699914634227753,-0.17082136869430542,0.45184510946273804,0.3855334222316742,0.31812652945518494,0.26581332087516785
0.6833333333333333,0.06502961367368698,-0.013288438320159912,0.0,0.7154129147529602,0.0,0.0,-0.6987019181251526,0.7893480658531189,-0.14607377350330353,0.0,0.0,0.0,0.5559290051460266,0.3789374530315399,0.656505823135376,0.4200000464916229,0.5903850197792053,-8.203824819474903e-08,-2.4899367900843572e-08,-0.8071216940879822,-0.043752942234277725,0.006632177624851465,-4.235354936099611e-06,-0.0001894571032607928,-2.5611541786929592e-05,-0.5385971665382385,0.3740216791629791,0.673503041267395,0.4416956603527069,-0.024509992450475693,0.09352845698595047,0.3271560072898865,0.3761415183544159,0.6583043932914734,0.42000001668930054,-0.4905882775783539,-2.999563455581665,-1.3374497890472412,-2.999967098236084,-0.15002195537090302,-0.15639334917068481,-0.16187646985054016,-0.16559965908527374,0.26102927327156067,0.2898578643798828,0.32401683926582336,0.3702887296676636
0.7,0.07926390320062637,-0.018355008214712143,0.0,0.7032931447029114,0.0,0.0,-0.7108999490737915,0.8858664631843567,-0.3762689530849457,0.0,0.0,0.0,-2.9612863063812256,0.3788772523403168,0.6565131545066833,0.4200000762939453,0.5901579260826111,4.248761342751095e-06,-5.770048574049724e-06,-0.8072878122329712,0.0006221950752660632,-6.806392048019916e-05,-0.0002248859964311123,-0.005701273679733276,0.001975896069779992,-0.0019281996646896005,0.3807382583618164,0.6759653091430664,0.4523850381374359,0.7628355026245117,0.16118040680885315,1.0603985786437988,0.3761415183544159,0.6583043932914734,0.42000001668930054,-0.5406008362770081,-2.999981164932251,-1.3874680995941162,-3.0,-0.14839185774326324,-0.15375936031341553,-0.15809288620948792,-0.16046909987926483,0.011184616945683956,0.09537095576524734,0.19017957150936127,0.29575201869010925
0.7166666666666667,0.09671773761510849,-0.01849663257598877,0.0,0.6696121096611023,0.0,0.0,-0.7427110075950623,1.0175803899765015,-0.0285823792219162,0.0,0.0,0.0,-6.37498140335083,0.37887778878211975,0.6565131545066833,0.4200000464916229,0.5901573896408081,4.3896869783566217e-07,-3.1112597298488254e-06,-0.8072881102561951,0.00011819674546131864,-0.0002688289387151599,-9.142723865807056e-05,0.006210077088326216,-0.0013030192349106073,-0.0006587352836504579,0.4030213952064514,0.6748689413070679,0.47608885169029236,1.9563555717468262,-0.10073714703321457,1.8968491554260254,0.3761415183544159,0.6583043932914734,0.42000001668930054,-0.59061199426651,-2.999992847442627,-1.4374864101409912,-2.9999992847442627,-0.1560734510421753,-0.15858295559883118,-0.15992876887321472,-0.15925544500350952,-0.3633221983909607,-0.2108510136604309,-0.045986682176589966,0.12557637691497803
0.7333333333333333,0.11059051752090454,-0.01633540540933609,0.0,0.6491603851318359,0.0,0.0,-0.7606515288352966,0.7886850833892822,0.11509747803211212,0.0,0.0,0.0,-2.1470038890838623,0.37887778878211975,0.6565131545066833,0.4200000464916229,0.5901575684547424,4.738700170037191e-07,-3.1643830880057067e-06,-0.8072879910469055,0.00011777023610193282,-0.0002711307315621525,-9.169313125312328e-05,0.006272127386182547,-0.0013262347783893347,-0.0006607013056054711,0.4352419972419739,0.6777708530426025,0.5113161206245422,1.9418444633483887,0.4050520062446594,2.251220464706421,0.3761415183544159,0.6583043932914734,0.42000001668930054,-0.6100069284439087,0.39533209800720215,-1.4875047206878662,-3.000000476837158,-0.16117791831493378,-0.16203422844409943,-0.16159164905548096,-0.15909992158412933,-0.13571098446846008,-0.1097576692700386,-0.07715951651334763,-0.04390714317560196
0.75,0.12038110196590424,-0.012576219625771046,0.0,0.6535750031471252,0.0,0.0,-0.7568617463111877,0.5113698840141296,0.2702309191226959,0.0,0.0,0.0,1.5933330059051514,0.37887778878211975,0.6565131545066833,0.4200000464916229,0.5901573896408081,3.0556026331396424e-07,-2.9980719773448072e-06,-0.8072881102561951,0.00011452492617536336,-0.000273735640803352,-9.087612852454185e-05,0.006354674231261015,-0.0013760635629296303,-0.0006565283401869237,0.46047401428222656,0.6848049759864807,0.5442742109298706,1.0764673948287964,0.4820386469364166,1.7519172430038452,0.3761415183544159,0.6583043932914734,0.42000001668930054,-0.5815091729164124,2.792189598083496,-1.4488122463226318,3.0,-0.16215629875659943,-0.16275149583816528,-0.16196568310260773,-0.1591624617576599,0.02276630327105522,0.02533968724310398,0.030453618615865707,0.030543988570570946
0.7666666666666666,0.12557993829250336,-0.013763513416051865,0.0,0.6468331217765808,0.0,0.0,-0.7626315355300903,0.30117174983024597,-0.0914197713136673,0.0,0.0,0.0,-1.8635790348052979,0.37887778878211975,0.6565131545066833,0.4200000464916229,0.5901575684547424,4.2009739331660967e-07,-2.9398045171546983e-06,-0.8072881102561951,0.00011800702486652881,-0.0002715032605919987,-9.168148972094059e-05,0.006280319765210152,-0.0013235999504104257,-0.0006616553291678429,0.4712991714477539,0.6949681043624878,0.5672961473464966,0.13099521398544312,0.5280835032463074,1.16084623336792,0.3761415183544159,0.6583043932914734,0.42000001668930054,-0.5419556498527527,1.9921576976776123,-1.3987596035003662,2.9999990463256836,-0.15773619711399078,-0.15892106294631958,-0.1586989164352417,-0.15654979646205902,0.09092394262552261,0.09478989243507385,0.0940762460231781,0.08066120743751526
0.7833333333333333,0.12771449983119965,-0.009884724393486977,0.0,0.652492344379425,0.0,0.0,-0.7577953338623047,0.08220034092664719,0.2516302168369293,0.0,0.0,0.0,1.636000156402588,0.37887778878211975,0.6565131545066833,0.4200000464916229,0.5901573896408081,2.682503179585183e-07,-3.3113342396973167e-06,-0.8072881102561951,0.00011785377137130126,-0.00027395764482207596,-9.160651825368404e-05,0.00634174607694149,-0.0013374022673815489,-0.0006642097723670304,0.4641895890235901,0.7022939920425415,0.5830214023590088,-0.8251131772994995,0.4868001937866211,0.7417826652526855,0.3761415183544159,0.6583043932914734,0.42000001668930054,-0.4983603358268738,3.0,-1.3487451076507568,2.999999761581421,-0.16026559472084045,-0.16045324504375458,-0.15941904485225677,-0.15678946673870087,-0.0350305438041687,4.3190084397792816e-08,0.022879663854837418,0.029238171875476837
0.8,0.12690764665603638,-0.010072238743305206,0.0,0.6471895575523376,0.0,0.0,-0.7623291015625,-0.1163700595498085,-0.013094091787934303,0.0,0.0,0.0,-1.5758267641067505,0.37887778878211975,0.6565130949020386,0.4200000464916229,0.5901572704315186,6.019626539455203e-07,-3.4579600196593674e-06,-0.8072882890701294,0.00012035459076287225,-0.00026987172896042466,-9.231199510395527e-05,0.0062270816415548325,-0.0012895128456875682,-0.0006648616981692612,0.4446338713169098,0.70946204662323,0.5891710519790649,-1.5896450281143188,0.3438359498977661,0.16755670309066772,0.3761415183544159,0.6583043932914734,0.42000001668930054,-0.4842563569545746,-0.9765225648880005,-1.2986924648284912,3.0,-0.15979398787021637,-0.1595086306333542,-0.15817631781101227,-0.15550284087657928,-0.0630967989563942,-0.0124962804839015,0.026605239138007164,0.048594556748867035
0.8166666666666667,0.12760086357593536,-0.005463377572596073,0.0,0.6544173359870911,0.0,0.0,-0.7561335563659668,0.06887917220592499,0.24840210378170013,0.0,0.0,0.0,1.7620739936828613,0.37887778878211975,0.6565131545066833,0.4200000464916229,0.5901575684547424,4.312110775117617e-07,-3.0583335046685534e-06,-0.8072881102561951,0.00011865996202686802,-0.0002710165281314403,-9.186984971165657e-05,0.00626384885981679,-0.001314938417635858,-0.0006626811809837818,0.4197598099708557,0.7146932482719421,0.5892653465270996,-1.2965247631072998,0.4500969648361206,-0.1338939517736435,0.3761415183544159,0.6583043932914734,0.42000001668930054,-0.4793950021266937,1.3566622734069824,-1.318597674369812,-3.0,-0.16342610120773315,-0.16187633574008942,-0.15946055948734283,-0.15599215030670166,-1.834123395383358e-07,0.02107650227844715,0.037945207208395004,0.046492137014865875
0.8333333333333334,0.13020402193069458,-0.005625266581773758,0.0,0.6500632166862488,0.0,0.0,-0.7598801255226135,0.17900049686431885,-0.035063277930021286,0.0,0.0,0.0,-1.8370598554611206,0.37887778878211975,0.6565131545066833,0.4200000464916229,0.5901573300361633,3.1190054983198934e-07,-3.0735416203242494e-06,-0.8072881698608398,0.00011416799679864198,-0.00027381995460018516,-9.079417213797569e-05,0.00635868776589632,-0.0013807639479637146,-0.00065583799732849,0.39780259132385254,0.72083979845047,0.5827887058258057,-1.3611924648284912,0.21546903252601624,-0.4859977066516876,0.3761415183544159,0.6583043932914734,0.42000001668930054,-0.5010384917259216,-3.0000014305114746,-1.2803813219070435,3.0,-0.1613694727420807,-0.15977951884269714,-0.1573336124420166,-0.15390963852405548,0.04710163548588753,0.07244239747524261,0.09649769961833954,0.11488685011863708
0.85,0.13471458852291107,-0.008357640355825424,0.0,0.6554667353630066,0.0,0.0,-0.7552240490913391,0.31181812286376953,-0.232499897480011,0.0,0.0,0.0,1.7155259847640991,0.37887778878211975,0.6565130949020386,0.4200000464916229,0.5901572108268738,3.506909536099556e-07,-3.174334779032506e-06,-0.8072883486747742,0.0001227490429300815,-0.00027033817605115473,-9.279674850404263e-05,0.0062252613715827465,-0.0012624531518667936,-0.0006707040010951459,0.38136380910873413,0.7243099212646484,0.5778241157531738,-0.6437726020812988,0.24502640962600708,-0.07554879039525986,0.3761415183544159,0.6583043932914734,0.42000001668930054,-0.5356029272079468,-1.2694158554077148,-1.3005999326705933,-3.0000007152557373,-0.16294975578784943,-0.16031593084335327,-0.1568050980567932,-0.15238513052463531,-0.09838968515396118,-0.03172018378973007,0.03970235958695412,0.11047785729169846
0.8666666666666667,0.14130091667175293,-0.014031874015927315,0.0,0.6494225859642029,0.0,0.0,-0.760427713394165,0.43262723088264465,-0.4015125036239624,0.0,0.0,0.0,-1.84263277053833,0.37887778878211975,0.6565131545066833,0.4200000464916229,0.5901574492454529,4.438524285887979e-07,-2.956061052827863e-06,-0.8072881102561951,0.00011839229409815744,-0.00027110971859656274,-9.182654321193695e-05,0.00626740325242281,-0.0013191669713705778,-0.0006622367072850466,0.3755378723144531,0.7249822616577148,0.5719629526138306,-0.04589441791176796,-0.12814614176750183,-0.3990316689014435,0.3761415183544159,0.6583043932914734,0.42000001668930054,-0.5781187415122986,-2.999990701675415,-1.2624355554580688,2.999999523162842,-0.16614684462547302,-0.16188472509384155,-0.15661565959453583,-0.1504107564687729,-0.20331701636314392,-0.08488412946462631,0.04289396479725838,0.1735820472240448
0.8833333333333333,0.1514965146780014,-0.01493752095848322,0.0,0.6210086941719055,0.0,0.0,-0.7838036417961121,0.5742727518081665,-0.031201494857668877,0.0,0.0,0.0,-5.197137355804443,0.37887778878211975,0.6565131545066833,0.4200000464916229,0.5901573896408081,3.315698791084287e-07,-2.9560289931396255e-06,-0.8072882294654846,0.00011364780948497355,-0.0002733759756665677,-9.070988744497299e-05,0.006350662559270859,-0.001385368756018579,-0.0006540876347571611,0.3811118006706238,0.7180989384651184,0.5675756931304932,0.728843092918396,-0.43197301030158997,0.056838639080524445,0.3761415183544159,0.6583043932914734,0.42000001668930054,-0.6034684181213379,-0.2594315707683563,-1.2829526662826538,-2.999999523162842,-0.1745481640100479,-0.16784344613552094,-0.16005393862724304,-0.1513620913028717,-0.33511269092559814,-0.24752028286457062,-0.15140163898468018,-0.05223111808300018
0.9,0.15849225223064423,-0.015022982843220234,0.0,0.607962965965271,0.0,0.0,-0.7939653992652893,0.34325236082077026,0.050972044467926025,0.0,0.0,0.0,-0.8608412146568298,0.37887778878211975,0.6565131545066833,0.4200000464916229,0.5901575088500977,4.2849200099226437e-07,-2.8941269647475565e-06,-0.8072881102561951,0.00011782558431150392,-0.0002714752918109298,-9.163888171315193e-05,0.006280540022999048,-0.0013256220845505595,-0.0006612211000174284,0.39253419637680054,0.7152766585350037,0.5707962512969971,0.6309071183204651,-0.005162681918591261,0.24117502570152283,0.3761415183544159,0.6583043932914734,0.42000001668930054,-0.5841925144195557,2.3314387798309326,-1.2550073862075806,2.9999992847442627,-0.17650261521339417,-0.1694066822528839,-0.1611030548810959,-0.15183842182159424,0.011261274106800556,-0.014966381713747978,-0.035621438175439835,-0.053246308118104935
