vladlanda/robotic-transformer/data/env_000_episode_0129.csv
sim_time_s,robot_box_x,robot_box_y,robot_box_z,robot_box_quat_w,robot_box_quat_x,robot_box_quat_y,robot_box_quat_z,robot_box_linvel_x,robot_box_linvel_y,robot_box_linvel_z,robot_box_angvel_x,robot_box_angvel_y,robot_box_angvel_z,cube_world_x,cube_world_y,cube_world_z,cube_quat_w,cube_quat_x,cube_quat_y,cube_quat_z,cube_linvel_x,cube_linvel_y,cube_linvel_z,cube_angvel_x,cube_angvel_y,cube_angvel_z,endpoint_world_x,endpoint_world_y,endpoint_world_z,endpoint_linvel_x,endpoint_linvel_y,endpoint_linvel_z,target_cube_world_x,target_cube_world_y,target_cube_world_z,gripper_actual_pos_rad_gp_leftgearjoint,gripper_actual_vel_rad_s_gp_leftgearjoint,gripper_actual_pos_rad_gp_rotatingjoint,gripper_actual_vel_rad_s_gp_rotatingjoint,motor_angle_rad_joint1,motor_angle_rad_joint2,motor_angle_rad_joint3,motor_angle_rad_joint4,motor_speed_rad_s_joint1,motor_speed_rad_s_joint2,motor_speed_rad_s_joint3,motor_speed_rad_s_joint4
0.0,0.0,0.0,0.0,1.0,0.0,0.0,0.0,0.0,0.0,0.0,0.0,0.0,0.0,-0.32561665773391724,0.7704325914382935,0.41999998688697815,1.0,0.0,0.0,0.0,0.0,0.0,0.0,0.0,0.0,0.0,3.42540442943573e-06,-0.005000244826078415,1.313499927520752,0.0,0.0,0.0,0.4167429208755493,0.6465269923210144,0.42000001668930054,-1.5707999467849731,0.0,0.0,0.0,0.0,0.0,0.0,0.0,0.0,0.0,0.0,0.0
0.016666666666666666,0.0028645475395023823,0.0021620800253003836,0.0,0.9998143315315247,0.0,0.0,-0.019269268959760666,0.23893709480762482,0.18032579123973846,0.0,0.0,0.0,-3.146199941635132,-0.3256167769432068,0.7704322934150696,0.41999998688697815,1.0,3.2799905511637917e-06,-8.339794135281409e-07,8.465515577427141e-08,-1.9833774786093272e-05,0.00017983047291636467,-6.132945418357849e-05,0.0009432245860807598,-0.004689525347203016,-0.00031981084612198174,-0.006977161392569542,0.004111143760383129,1.315924882888794,-0.7930782437324524,1.0453221797943115,0.1791328340768814,0.4167429208755493,0.6465269923210144,0.42000001668930054,-1.5301092863082886,3.000002145767212,-0.045871928334236145,-3.0000009536743164,0.0008637565188109875,0.0007903938530944288,0.0007049150299280882,0.000604720669798553,0.11026070266962051,0.09683328866958618,0.0825444832444191,0.06736943125724792
0.03333333333333333,0.008885693736374378,0.006811230909079313,0.0,0.999782145023346,0.0,0.0,-0.020873872563242912,0.4022347629070282,0.31633076071739197,0.0,0.0,0.0,0.9041973352432251,-0.32561689615249634,0.7704322338104248,0.4200000464916229,1.0,3.390828396732104e-06,-2.1325054149201605e-06,-3.7090654103622e-08,0.00026357785100117326,0.00026937801158055663,-0.00010509602725505829,-0.0017707275692373514,0.004130777902901173,-0.0001354761334368959,-0.023428909480571747,0.02599123865365982,1.3171460628509521,-1.1392368078231812,1.5990090370178223,-0.01097947359085083,0.4167429208755493,0.6465269923210144,0.42000001668930054,-1.4800899028778076,3.0000040531158447,-0.09591168165206909,-3.0,0.002608829876407981,0.002154130022972822,0.0016616681823506951,0.0011284612119197845,0.120469830930233,0.08429127931594849,0.04662240669131279,0.0073846736922860146
0.05,0.017512109130620956,0.013648773543536663,0.0,0.9993641376495361,0.0,0.0,-0.03565597906708717,0.5798557996749878,0.4526374042034149,0.0,0.0,0.0,-2.606304883956909,-0.3256169259548187,0.7704322934150696,0.4200000464916229,1.0,3.7651443562936038e-06,-2.2119581899460172e-06,5.627543320230188e-09,0.0002653093251865357,0.00026691475068219006,-0.00010440428741276264,-0.0017243032343685627,0.004177392926067114,-0.00012949187657795846,-0.04281153529882431,0.0581372007727623,1.3147646188735962,-1.1818170547485352,2.20809268951416,-0.25640133023262024,0.4167429208755493,0.6465269923210144,0.42000001668930054,-1.4300715923309326,3.0000009536743164,-0.14592358469963074,-3.0000016689300537,0.004023322369903326,0.002799616428092122,0.0015117516741156578,0.0001330845698248595,0.08134454488754272,0.021624183282256126,-0.03913109004497528,-0.10342853516340256
0.06666666666666667,0.029656708240509033,0.022961150854825974,0.0,0.9970104098320007,0.0,0.0,-0.07726720720529556,0.7885270714759827,0.6035694479942322,0.0,0.0,0.0,-5.829837322235107,-0.3256169259548187,0.7704322338104248,0.4200000464916229,0.9999999403953552,3.406812083994737e-06,-2.285643404320581e-06,4.300833325032727e-07,0.00026702528703026474,0.00026791769778355956,-0.0001043803058564663,-0.001740696607157588,0.004211715888231993,-0.00012850147322751582,-0.06351672112941742,0.09765122830867767,1.30902099609375,-1.294762372970581,2.512253522872925,-0.4355410933494568,0.4167429208755493,0.6465269923210144,0.42000001668930054,-1.380051851272583,2.9999942779541016,-0.11241909861564636,3.000001907348633,0.004839897155761719,0.0025935242883861065,0.0002799505600705743,-0.0021970972884446383,0.0361594632267952,-0.03001471795141697,-0.09495501965284348,-0.16431716084480286
0.08333333333333333,0.035978831350803375,0.0370030477643013,0.0,0.9945600032806396,0.0,0.0,-0.10416516661643982,0.3264460861682892,0.8501208424568176,0.0,0.0,0.0,-1.7788622379302979,-0.3256169259548187,0.7704322338104248,0.4200000464916229,1.0,3.697316969919484e-06,-2.1889948129683034e-06,-2.6323385782234254e-07,0.00026389682898297906,0.00026586538297124207,-0.00010433932766318321,-0.0017081978730857372,0.004150201100856066,-0.0001299120340263471,-0.08830302208662033,0.137018084526062,1.2995195388793945,-1.5040096044540405,2.3918347358703613,-0.5608938932418823,0.4167429208755493,0.6465269923210144,0.42000001668930054,-1.3300580978393555,2.999643087387085,-0.1444152146577835,-2.999999523162842,-0.0007442162605002522,-0.0036524098832160234,-0.0066366130486130714,-0.009871755726635456,-0.29658427834510803,-0.3561405539512634,-0.41503962874412537,-0.47693222761154175
0.1,0.04697561264038086,0.05132473260164261,0.0,0.9902039766311646,0.0,0.0,-0.13962838053703308,0.7281739711761475,0.8934470415115356,0.0,0.0,0.0,-5.1366071701049805,-0.3256169259548187,0.7704322338104248,0.4200000464916229,0.9999999403953552,3.620435109041864e-06,-2.265243438159814e-06,1.746006148550805e-07,0.0002667687658686191,0.000267408526269719,-0.0001040794886648655,-0.001738605904392898,0.004209095146507025,-0.00012774739298038185,-0.10964063555002213,0.18060587346553802,1.2903592586517334,-1.0633195638656616,2.9143450260162354,-0.6052858829498291,0.4167429208755493,0.6465269923210144,0.42000001668930054,-1.2800357341766357,2.99999737739563,-0.12769919633865356,3.0000016689300537,-0.002005896531045437,-0.006601869594305754,-0.011233368888497353,-0.016116555780172348,-0.1305953711271286,-0.23498570919036865,-0.3372383415699005,-0.4389575719833374
0.11666666666666667,0.05625651776790619,0.06394751369953156,0.0,0.9794902801513672,0.0,0.0,-0.2014913558959961,0.5274436473846436,0.716942310333252,0.0,0.0,0.0,-8.213699340820312,-0.3256169259548187,0.7704322338104248,0.4200000464916229,1.0,3.7984009395586327e-06,-2.262809857711545e-06,-1.502175450696086e-07,0.00026373984292149544,0.00026566023007035255,-0.00010429113171994686,-0.0017054638592526317,0.00414752634242177,-0.00012979596795048565,-0.12837353348731995,0.23077288269996643,1.2786555290222168,-1.1507036685943604,3.2174134254455566,-0.7494909763336182,0.4167429208755493,0.6465269923210144,0.42000001668930054,-1.2431432008743286,1.5227664709091187,-0.15965113043785095,-3.000000476837158,-0.005208899267017841,-0.011437979526817799,-0.01766071282327175,-0.024107642471790314,-0.19856098294258118,-0.29353463649749756,-0.38554704189300537,-0.4747256934642792
0.13333333333333333,0.06226138025522232,0.07650765776634216,0.0,0.9706711769104004,0.0,0.0,-0.2404109537601471,0.28698816895484924,0.7985601425170898,0.0,0.0,0.0,-3.647125244140625,-0.3256169259548187,0.7704322934150696,0.4200000464916229,0.9999999403953552,3.550559767973027e-06,-2.2298067960946355e-06,2.928912579136522e-07,0.00026703201001510024,0.0002677933662198484,-0.00010416889563202858,-0.0017439561197534204,0.004213458392769098,-0.00012800224067177624,-0.15802010893821716,0.28537827730178833,1.2619853019714355,-1.9615706205368042,3.6002840995788574,-1.2466987371444702,0.4167429208755493,0.6465269923210144,0.42000001668930054,-1.1998329162597656,2.999992847442627,-0.1260293424129486,3.0,-0.009218660183250904,-0.016764184460043907,-0.024241356179118156,-0.03187365084886551,-0.27820900082588196,-0.3392032980918884,-0.3965621888637543,-0.44945353269577026
0.15,0.06570930033922195,0.08649066090583801,0.0,0.9570239186286926,0.0,0.0,-0.2900089919567108,0.17035409808158875,0.5161697864532471,0.0,0.0,0.0,-7.053659915924072,-0.32561689615249634,0.7704322338104248,0.4200000464916229,1.0,3.332266942379647e-06,-2.1019711766712135e-06,1.3129518094956438e-07,0.0002673064882401377,0.000268595467787236,-0.00010459520854055882,-0.0017497397493571043,0.004215703811496496,-0.00012928548676427454,-0.1852344125509262,0.34792250394821167,1.2395575046539307,-1.2035601139068604,4.0499067306518555,-1.4433560371398926,0.4167429208755493,0.6465269923210144,0.42000001668930054,-1.1498416662216187,3.0000016689300537,-0.15796968340873718,-3.000000238418579,-0.013585737906396389,-0.022429969161748886,-0.031134553253650665,-0.03990248963236809,-0.3098156750202179,-0.38942739367485046,-0.4651021957397461,-0.5353195071220398
0.16666666666666666,0.07022491842508316,0.09758983552455902,0.0,0.9467740058898926,0.0,0.0,-0.32189902663230896,0.3221239149570465,0.6805635690689087,0.0,0.0,0.0,-2.877244472503662,-0.3256169259548187,0.7704322338104248,0.4200000464916229,1.0,3.737350198207423e-06,-2.2331155378196854e-06,-1.8765908293971734e-07,0.00026433056336827576,0.0002662677434273064,-0.00010445946827530861,-0.0017118776449933648,0.004157696384936571,-0.00013001573097426444,-0.21226432919502258,0.4150998592376709,1.2058457136154175,-1.6446844339370728,4.27288818359375,-2.460376739501953,0.4167429208755493,0.6465269923210144,0.42000001668930054,-1.1238034963607788,0.3329353928565979,-0.1243566945195198,3.000000476837158,-0.021053027361631393,-0.030460357666015625,-0.03969314321875572,-0.048931390047073364,-0.5607696175575256,-0.5604666471481323,-0.5594797134399414,-0.5563169717788696
0.18333333333333332,0.07236598432064056,0.11040526628494263,0.0,0.931605339050293,0.0,0.0,-0.36347150802612305,0.04742475226521492,0.8382183909416199,0.0,0.0,0.0,-6.14525032043457,-0.3256169259548187,0.7704322934150696,0.4200000464916229,0.9999999403953552,3.660316451714607e-06,-2.302264874742832e-06,2.528443587834772e-07,0.00026690890081226826,0.00026760261971503496,-0.00010412419214844704,-0.0017412195447832346,0.004211427178233862,-0.0001278665877180174,-0.24017375707626343,0.4891281723976135,1.1594223976135254,-1.4558441638946533,4.678461074829102,-3.1245031356811523,0.4167429208755493,0.6465269923210144,0.42000001668930054,-1.0846203565597534,3.0000030994415283,-0.15631425380706787,-3.0,-0.031817592680454254,-0.0410776250064373,-0.050142910331487656,-0.059168193489313126,-0.7020214200019836,-0.6828515529632568,-0.6626478433609009,-0.6398646235466003
0.2,0.0779128447175026,0.11913466453552246,0.0,0.9219953417778015,0.0,0.0,-0.3872009217739105,0.35537099838256836,0.43025773763656616,0.0,0.0,0.0,-1.9062232971191406,-0.3256169259548187,0.7704322338104248,0.4200000464916229,1.0,3.5908831250708317e-06,-2.3004236027190927e-06,1.387233226068929e-07,0.00026654807152226567,0.0002673218259587884,-0.00010424060747027397,-0.0017326583620160818,0.004203581251204014,-0.00012820535630453378,-0.26627272367477417,0.5654982328414917,1.0980885028839111,-1.3109164237976074,4.688417434692383,-4.1891865730285645,0.4167429208755493,0.6465269923210144,0.42000001668930054,-1.034617304801941,3.0,-0.2063448280096054,-2.9999985694885254,-0.04165801405906677,-0.05033312365412712,-0.05881766602396965,-0.06724318861961365,-0.7161348462104797,-0.648831844329834,-0.5837376117706299,-0.5196099877357483
0.21666666666666667,0.07790679484605789,0.13183917105197906,0.0,0.9060919284820557,0.0,0.0,-0.4230808615684509,-0.00859967339783907,0.7263150215148926,0.0,0.0,0.0,-5.398969650268555,-0.3256169259548187,0.7704322934150696,0.4200000464916229,1.0,3.6070191526960116e-06,-2.2609888219449203e-06,1.9611301027566697e-08,0.00026447110576555133,0.0002655844727996737,-0.00010396447032690048,-0.0017087687738239765,0.004164246376603842,-0.00012832168431486934,-0.28607067465782166,0.6379685997962952,1.0157361030578613,-0.9629062414169312,4.255719184875488,-5.3206868171691895,0.4167429208755493,0.6465269923210144,0.42000001668930054,-0.9846068024635315,2.9999818801879883,-0.2563735544681549,-3.0,-0.057253871113061905,-0.06588008999824524,-0.07373599708080292,-0.0812414363026619,-0.5949567556381226,-0.6589618921279907,-0.7178682088851929,-0.7702161073684692
0.23333333333333334,0.08251424133777618,0.13824331760406494,0.0,0.8976051807403564,0.0,0.0,-0.4408003091812134,0.27086013555526733,0.31494757533073425,0.0,0.0,0.0,-1.1338883638381958,-0.32561689615249634,0.7704322338104248,0.4200000464916229,0.9999999403953552,3.7423060348373838e-06,-2.227485765615711e-06,4.589078628214338e-07,0.00026475157937966287,0.0002667118387762457,-0.00010453304275870323,-0.001718820189125836,0.004165745340287685,-0.00013018945173826069,-0.303266704082489,0.7007728815078735,0.9212084412574768,-0.7532203793525696,3.3965811729431152,-6.048346042633057,0.4167429208755493,0.6465269923210144,0.42000001668930054,-0.9345999360084534,2.999995470046997,-0.30640214681625366,-2.999997615814209,-0.06591948121786118,-0.07504075765609741,-0.08338344097137451,-0.09133631736040115,-0.7604190707206726,-0.7321785092353821,-0.7081019878387451,-0.6861911416053772
0.25,0.08183564245700836,0.14921440184116364,0.0,0.9032285809516907,0.0,0.0,-0.4291597604751587,-0.04684218391776085,0.6119062900543213,0.0,0.0,0.0,2.4626832008361816,-0.3256169259548187,0.7704322338104248,0.4200000464916229,1.0,3.3945277664315654e-06,-2.2820947833679384e-06,1.3361305661874212e-07,0.0002667930966708809,0.0002679400204215199,-0.00010439474135637283,-0.0017418584320694208,0.004206620156764984,-0.0001288379862671718,-0.3200136423110962,0.7406518459320068,0.8155269026756287,-1.1188362836837769,1.709956407546997,-6.464356899261475,0.4167429208755493,0.6465269923210144,0.42000001668930054,-0.8845908045768738,2.999708414077759,-0.35643333196640015,-2.9999945163726807,-0.08164698630571365,-0.09082169085741043,-0.0991842970252037,-0.10707291215658188,-0.6059039831161499,-0.6781006455421448,-0.7440065741539001,-0.8021985292434692
0.26666666666666666,0.08532490581274033,0.15375439822673798,0.0,0.9024267196655273,0.0,0.0,-0.43084341287612915,0.21105360984802246,0.2112526148557663,0.0,0.0,0.0,-0.9419793486595154,-0.3256169259548187,0.7704322934150696,0.4200000464916229,1.0,3.6835906485066516e-06,-2.3101322312868433e-06,2.1008021633406315e-07,0.0002647916553542018,0.00026625857572071254,-0.00010421173647046089,-0.001716896891593933,0.004168967716395855,-0.00012909203360322863,-0.33576416969299316,0.7655053734779358,0.704508900642395,-0.7832276821136475,0.9643405675888062,-6.738686561584473,0.4167429208755493,0.6465269923210144,0.42000001668930054,-0.8345816135406494,2.999995231628418,-0.40646517276763916,-2.999997615814209,-0.09210118651390076,-0.10192380100488663,-0.11090830713510513,-0.1193636879324913,-0.9010582566261292,-0.8819296360015869,-0.8659887909889221,-0.8515847325325012
0.2833333333333333,0.08498530089855194,0.15572330355644226,0.0,0.9083375334739685,0.0,0.0,-0.4182378351688385,-0.0935603454709053,0.06642236560583115,0.0,0.0,0.0,2.471571922302246,-0.3256169259548187,0.7704322338104248,0.4200000464916229,1.0,3.307126462459564e-06,-2.2125600480649155e-06,2.6254156182403676e-07,0.0002666085201781243,0.0002674504357855767,-0.00010424456559121609,-0.001735339523293078,0.0042045144364237785,-0.0001282824232475832,-0.3465837836265564,0.774208664894104,0.5963788032531738,-0.4593944251537323,-0.022470936179161072,-6.1051483154296875,0.4167429208755493,0.6465269923210144,0.42000001668930054,-0.7845727801322937,3.000002384185791,-0.4564964771270752,-2.9999992847442627,-0.10942485183477402,-0.11908712238073349,-0.12795941531658173,-0.1363237053155899,-1.0169320106506348,-1.0127596855163574,-1.0095857381820679,-1.0070573091506958
0.3,0.08087591081857681,0.15546488761901855,0.0,0.9068650007247925,0.0,0.0,-0.4214212894439697,-0.30557990074157715,-0.052061744034290314,0.0,0.0,0.0,-1.3117663860321045,-0.3256169259548187,0.7704322338104248,0.4200000464916229,1.0,3.6565893424267415e-06,-2.2970264126342954e-06,-2.449943394822185e-07,0.0002653300471138209,0.0002659510646481067,-0.00010384945198893547,-0.0017163523007184267,0.004181903786957264,-0.00012745888670906425,-0.34749242663383484,0.7715024948120117,0.49884501099586487,0.2998082637786865,-0.38001251220703125,-5.50217342376709,0.4167429208755493,0.6465269923210144,0.42000001668930054,-0.7345640063285828,2.9999992847442627,-0.5065264701843262,-3.0000011920928955,-0.12735234200954437,-0.1367279589176178,-0.14538350701332092,-0.15357618033885956,-1.0153701305389404,-1.011623740196228,-1.0087673664093018,-1.0064798593521118
0.31666666666666665,0.0749443992972374,0.1525377780199051,0.0,0.9117140769958496,0.0,0.0,-0.41082531213760376,-0.36709266901016235,-0.23729316890239716,0.0,0.0,0.0,2.219531297683716,-0.3256169259548187,0.7704322934150696,0.4200000464916229,0.9999999403953552,3.6509966321318643e-06,-2.3046329715725733e-06,1.9764988223869295e-07,0.00026691556558944285,0.0002675954019650817,-0.00010411976836621761,-0.0017412161687389016,0.00421172147616744,-0.00012784797581844032,-0.33963412046432495,0.7658782005310059,0.4105541706085205,0.6787198185920715,-0.3729431927204132,-5.203535556793213,0.4167429208755493,0.6465269923210144,0.42000001668930054,-0.6845570802688599,2.9999942779541016,-0.5565542578697205,-3.0000016689300537,-0.14389964938163757,-0.15326347947120667,-0.16193775832653046,-0.17016562819480896,-1.000923752784729,-1.0006622076034546,-1.0004677772521973,-1.0003182888031006
0.3333333333333333,0.06732476502656937,0.14696446061134338,0.0,0.9096391201019287,0.0,0.0,-0.4153994023799896,-0.49966302514076233,-0.37287044525146484,0.0,0.0,0.0,-1.5391141176223755,-0.32858923077583313,0.7650527358055115,0.4224091172218323,0.9968334436416626,0.042675457894802094,-0.020999211817979813,-0.06372387707233429,0.0168955959379673,-0.024742351844906807,0.1086897924542427,2.816694736480713,-2.9460482597351074,-0.16461651027202606,-0.33997273445129395,0.7695904970169067,0.4286193251609802,0.24946807324886322,0.3449667692184448,-0.13133034110069275,0.4167429208755493,0.6465269923210144,0.42000001668930054,-0.6346795558929443,2.9999892711639404,-0.6071937084197998,-2.999778985977173,-0.1465032696723938,-0.15637680888175964,-0.16514325141906738,-0.17294420301914215,-0.31739452481269836,-0.29785847663879395,-0.2610500752925873,-0.20213770866394043
0.35,0.05756198614835739,0.13913819193840027,0.0,0.9140125513076782,0.0,0.0,-0.4056859612464905,-0.6263110637664795,-0.5084180235862732,0.0,0.0,0.0,2.1828160285949707,-0.3269807696342468,0.7667855620384216,0.4234018623828888,0.9913747310638428,0.07407858967781067,-0.022650128230452538,-0.10571365803480148,0.0989084392786026,0.1069135069847107,0.030576348304748535,3.2685911655426025,0.6599750518798828,-5.040862083435059,-0.3352351188659668,0.7728331685066223,0.4259265661239624,0.334741473197937,0.08415128290653229,-0.17286919057369232,0.4167429208755493,0.6465269923210144,0.42000001668930054,-0.5846744179725647,2.9999773502349854,-0.6572375893592834,-2.999967336654663,-0.15370045602321625,-0.1622963547706604,-0.1695600152015686,-0.1755800098180771,-0.47058090567588806,-0.3593641519546509,-0.23795165121555328,-0.10415162146091461
0.36666666666666664,0.04558349773287773,0.1290927529335022,0.0,0.9117573499679565,0.0,0.0,-0.4107292890548706,-0.7596384882926941,-0.6422811150550842,0.0,0.0,0.0,-1.6259294748306274,-0.3249664008617401,0.7688089609146118,0.422833114862442,0.9858957529067993,0.07603389769792557,-0.011644077487289906,-0.14863601326942444,0.14021816849708557,0.13793036341667175,-0.02872847393155098,-1.6685686111450195,0.41145312786102295,-5.147083759307861,-0.32902926206588745,0.7729072570800781,0.4234655797481537,0.4415794610977173,-0.0007706470787525177,-0.1387530267238617,0.4167429208755493,0.6465269923210144,0.42000001668930054,-0.5346695780754089,2.99998140335083,-0.7072916030883789,-2.999995231628418,-0.16205663979053497,-0.16849826276302338,-0.17343975603580475,-0.17694635689258575,-0.4859083592891693,-0.3473610281944275,-0.20043064653873444,-0.04418710619211197
0.3833333333333333,0.031405381858348846,0.11672528088092804,0.0,0.9144635796546936,0.0,0.0,-0.4046682119369507,-0.889913022518158,-0.7804914712905884,0.0,0.0,0.0,2.169975757598877,-0.32066214084625244,0.7727128863334656,0.42209139466285706,0.9746375679969788,0.053874723613262177,-0.012465924955904484,-0.21684923768043518,0.3617168962955475,0.3153707981109619,-0.048995669931173325,-2.6697282791137695,0.9778628945350647,-11.706428527832031,-0.3210385739803314,0.774627685546875,0.42170435190200806,0.5594143271446228,0.21265146136283875,-0.0693678930401802,0.4167429208755493,0.6465269923210144,0.42000001668930054,-0.4846650958061218,2.999973773956299,-0.7573379874229431,-2.999924659729004,-0.17059962451457977,-0.17448417842388153,-0.1766732782125473,-0.17723654210567474,-0.46582844853401184,-0.30820751190185547,-0.13875988125801086,0.04179971665143967
0.4,0.020625470206141472,0.10160581767559052,0.0,0.9122290015220642,0.0,0.0,-0.40968066453933716,-0.5601115226745605,-0.9559760689735413,0.0,0.0,0.0,-1.5998554229736328,-0.3131304383277893,0.77897709608078,0.420650452375412,0.9574993848800659,0.015411517582833767,-0.0050850617699325085,-0.28797823190689087,0.5927736163139343,0.47112908959388733,-0.05151334032416344,-2.3563976287841797,1.3778823614120483,-5.667829513549805,-0.31045499444007874,0.7776709794998169,0.4214462637901306,0.7794467210769653,0.2028719186782837,-0.002101108431816101,0.4167429208755493,0.6465269923210144,0.42000001668930054,-0.4346615970134735,2.999986410140991,-0.8073886036872864,-2.999997138977051,-0.17738662660121918,-0.17848140001296997,-0.17761698365211487,-0.17489203810691833,-0.3366709053516388,-0.16395653784275055,0.025348428636789322,0.22890619933605194
0.4166666666666667,0.007977205328643322,0.0849800854921341,0.0,0.896939754486084,0.0,0.0,-0.4421527683734894,-0.8307225108146667,-1.0169743299484253,0.0,0.0,0.0,-5.239626884460449,-0.29458940029144287,0.7859441041946411,0.42189306020736694,0.941338837146759,-0.004458921030163765,-0.02610958367586136,-0.3364216089248657,1.5228716135025024,0.5516418218612671,0.2332020401954651,-5.136923313140869,0.8028126955032349,-4.081048965454102,-0.2919181287288666,0.7848809957504272,0.4228624701499939,1.4316225051879883,0.5431503057479858,0.18080919981002808,0.4167429208755493,0.6465269923210144,0.42000001668930054,-0.39483892917633057,1.286959171295166,-0.8574211597442627,-2.999817132949829,-0.18487760424613953,-0.18278852105140686,-0.1784754991531372,-0.17209437489509583,-0.4522534906864166,-0.2659951150417328,-0.06644299626350403,0.14278435707092285
0.43333333333333335,-0.0017425690311938524,0.06557305157184601,0.0,0.866801917552948,0.0,0.0,-0.4986526668071747,-0.5317848324775696,-1.2085394859313965,0.0,0.0,0.0,-8.495305061340332,-0.25937554240226746,0.7989723682403564,0.424964964389801,0.9178878664970398,-0.017414849251508713,-0.05302217975258827,-0.3928958773612976,3.0215303897857666,0.4832180440425873,0.3377584218978882,7.102690696716309,-8.0610990524292,12.796453475952148,-0.25686579942703247,0.7967253923416138,0.4259732663631439,2.8509302139282227,0.9083102345466614,0.35361891984939575,0.4167429208755493,0.6465269923210144,0.42000001668930054,-0.3775947690010071,1.1661961078643799,-0.9074447751045227,-3.0000016689300537,-0.19255302846431732,-0.18703138828277588,-0.17910663783550262,-0.16901618242263794,-0.5413933992385864,-0.29871952533721924,-0.049921467900276184,0.19862744212150574
0.45,-0.008983523584902287,0.051619019359350204,0.0,0.8191314339637756,0.0,0.0,-0.5736058950424194,-0.38358768820762634,-0.70802903175354,0.0,0.0,0.0,-11.464678764343262,-0.1855282038450241,0.8158940076828003,0.429095596075058,0.8913671970367432,0.010467088781297207,-0.0910988301038742,-0.4439096748828888,5.820864200592041,0.8173607587814331,0.34432828426361084,10.945969581604004,-15.188175201416016,13.202497482299805,-0.18360653519630432,0.8134372234344482,0.43059319257736206,5.659243106842041,1.27180814743042,0.37053826451301575,0.4167429208755493,0.6465269923210144,0.42000001668930054,-0.3549696207046509,1.503390908241272,-0.9052625298500061,2.715977191925049,-0.20765213668346405,-0.19800718128681183,-0.18464800715446472,-0.16950666904449463,-0.8900126218795776,-0.7406947612762451,-0.42415326833724976,-0.1414790153503418
0.4666666666666667,-0.012752341106534004,0.04098320007324219,0.0,0.7805099487304688,0.0,0.0,-0.6251433491706848,-0.16723577678203583,-0.5979943871498108,0.0,0.0,0.0,-6.532377243041992,-0.09161767363548279,0.8365075588226318,0.43814897537231445,0.848844587802887,0.04220878332853317,-0.11707966774702072,-0.5137836337089539,5.805233955383301,0.5489888191223145,0.7118853330612183,2.805769443511963,-11.751852035522461,12.417215347290039,-0.09008008241653442,0.8355070352554321,0.43981024622917175,5.756818771362305,1.144450068473816,0.6608976125717163,0.4167429208755493,0.6465269923210144,0.42000001668930054,-0.330475777387619,1.3465903997421265,-0.9332596063613892,-3.0000007152557373,-0.21684211492538452,-0.20799511671066284,-0.19111698865890503,-0.17297589778900146,-0.44548526406288147,-0.5021206736564636,-0.35410556197166443,-0.23732785880565643
0.48333333333333334,-0.018202774226665497,0.03437325358390808,0.0,0.7632619738578796,0.0,0.0,-0.6460891366004944,-0.29701098799705505,-0.30571043491363525,0.0,0.0,0.0,-1.891148567199707,0.0030092038214206696,0.844412088394165,0.4497379660606384,0.7775982618331909,0.05330225080251694,-0.11930336803197861,-0.6150338053703308,5.498531341552734,-0.7859200835227966,0.7614181637763977,10.914045333862305,-7.954312801361084,16.85342788696289,0.003294362686574459,0.8426429033279419,0.45068997144699097,5.623886585235596,-0.1313565969467163,0.7227821350097656,0.4167429208755493,0.6465269923210144,0.42000001668930054,-0.3099905252456665,1.026384949684143,-0.9832835793495178,-3.0000014305114746,-0.22704631090164185,-0.21756520867347717,-0.19751225411891937,-0.17673344910144806,-0.5757042765617371,-0.5095112323760986,-0.3290310204029083,-0.17372825741767883
0.5,-0.01874050311744213,0.022510800510644913,0.0,0.7375448942184448,0.0,0.0,-0.6752980947494507,0.0547131709754467,-0.8610222935676575,0.0,0.0,0.0,-5.701311111450195,0.09408975392580032,0.833590030670166,0.45742669701576233,0.7231736779212952,0.03834691271185875,-0.11675430834293365,-0.6796452403068542,5.118123531341553,-1.4030582904815674,0.4202961027622223,-13.526056289672852,5.849618434906006,2.5560719966888428,0.09356692433357239,0.8340418934822083,0.4592466354370117,5.32847261428833,-1.0219345092773438,0.4810658395290375,0.4167429208755493,0.6465269923210144,0.42000001668930054,-0.292349249124527,0.8092136979103088,-1.033306360244751,-3.0000009536743164,-0.23013383150100708,-0.21985258162021637,-0.1976214498281479,-0.17488346993923187,-0.03594495356082916,0.03331654891371727,0.15365634858608246,0.26606079936027527
0.5166666666666666,-0.023049257695674896,0.013978279195725918,0.0,0.7224337458610535,0.0,0.0,-0.6914401054382324,-0.3649146258831024,-0.3747504949569702,0.0,0.0,0.0,-1.6524202823638916,0.17653587460517883,0.810835599899292,0.46424412727355957,0.6481730937957764,-0.004929803311824799,-0.12663260102272034,-0.750873863697052,4.420459747314453,-1.9775890111923218,0.44380927085876465,-14.617514610290527,8.30066204071045,-1.8689872026443481,0.17473365366458893,0.8128021955490112,0.4679408669471741,4.633355140686035,-1.5214250087738037,0.598849892616272,0.4167429208755493,0.6465269923210144,0.42000001668930054,-0.27937108278274536,0.6006665229797363,-1.0833284854888916,-2.9999196529388428,-0.23425240814685822,-0.22204159200191498,-0.19779685139656067,-0.17338097095489502,-0.23056869208812714,-0.12380930781364441,-0.04582248255610466,0.008147497661411762
0.5333333333333333,-0.024608368054032326,0.008431578986346722,0.0,0.7012887001037598,0.0,0.0,-0.7128773927688599,-0.032262250781059265,-0.22227156162261963,0.0,0.0,0.0,-4.389878273010254,0.2481888234615326,0.7834914326667786,0.46554917097091675,0.5881755352020264,-0.058356013149023056,-0.13385345041751862,-0.7954416275024414,3.6212196350097656,-1.9879487752914429,0.19554036855697632,3.8074874877929688,3.982518196105957,12.74800968170166,0.2462124228477478,0.7874914407730103,0.47203969955444336,4.03328800201416,-1.7481606006622314,-0.010579615831375122,0.4167429208755493,0.6465269923210144,0.42000001668930054,-0.266522616147995,0.7222769260406494,-1.1333506107330322,-2.9989700317382812,-0.23359143733978271,-0.22094735503196716,-0.19690856337547302,-0.17284563183784485,0.10253873467445374,0.11290552467107773,0.06672462821006775,0.014027957804501057
0.55,-0.023194583132863045,0.007354347035288811,0.0,0.6946516633033752,0.0,0.0,-0.719346284866333,0.11827945709228516,-0.0009270594455301762,0.0,0.0,0.0,-0.12264066934585571,0.3053129315376282,0.7527126669883728,0.4609183371067047,0.5252913236618042,-0.13934877514839172,-0.14390626549720764,-0.8270078301429749,2.8739869594573975,-1.8471962213516235,-0.1517532765865326,3.5852630138397217,9.429978370666504,-5.39585018157959,0.3034150004386902,0.7579507827758789,0.47058558464050293,2.9726409912109375,-1.883466124534607,-0.2827993631362915,0.4167429208755493,0.6465269923210144,0.42000001668930054,-0.2543317675590515,0.712959349155426,-1.1833727359771729,-2.9999797344207764,-0.23097854852676392,-0.21846523880958557,-0.1957399994134903,-0.1730707585811615,0.25395140051841736,0.2199755758047104,0.10189559310674667,-0.02028624713420868
0.5666666666666667,-0.01916632615029812,0.0033654484432190657,0.0,0.6792007684707642,0.0,0.0,-0.733952522277832,0.2911810874938965,-0.27144354581832886,0.0,0.0,0.0,-3.352588415145874,0.3498215973377228,0.7242878675460815,0.4509126842021942,0.5015970468521118,-0.14067374169826508,-0.13615553081035614,-0.842658281326294,2.246312379837036,-1.7584062814712524,-0.5987746119499207,-8.103450775146484,5.521359443664551,4.62893533706665,0.3485139012336731,0.7300112247467041,0.46074873208999634,2.4270710945129395,-1.7067302465438843,-0.8293485045433044,0.4167429208755493,0.6465269923210144,0.42000001668930054,-0.23826666176319122,1.0011957883834839,-1.154427409172058,2.999910593032837,-0.2241600602865219,-0.21278834342956543,-0.19272519648075104,-0.1727389097213745,0.3936622142791748,0.3256406784057617,0.1576540321111679,-0.013591818511486053
0.5833333333333334,-0.012481268495321274,0.0030313630122691393,0.0,0.6766743659973145,0.0,0.0,-0.736282467842102,0.42158517241477966,0.009552396833896637,0.0,0.0,0.0,0.50139319896698,0.3832470178604126,0.6959705352783203,0.43528804183006287,0.46529892086982727,-0.16370715200901031,-0.11833406239748001,-0.8617968559265137,1.5057529211044312,-2.089003801345825,-0.8913736939430237,-5.097601890563965,7.862216949462891,6.203802585601807,0.3813987970352173,0.7008367776870728,0.44544607400894165,1.6400163173675537,-1.6877942085266113,-1.049359679222107,0.4167429208755493,0.6465269923210144,0.42000001668930054,-0.22818055748939514,0.244879350066185,-1.1765600442886353,-3.0000007152557373,-0.21922625601291656,-0.20887134969234467,-0.19154572486877441,-0.1743616908788681,0.3937387466430664,0.2992194592952728,0.10344890505075455,-0.0920349583029747
0.6,-0.0038525538984686136,-0.001151573029346764,0.0,0.6634902358055115,0.0,0.0,-0.7481849193572998,0.5557156801223755,-0.2735883295536041,0.0,0.0,0.0,-2.9675168991088867,0.40558359026908875,0.6776655316352844,0.4237724542617798,0.4828583896160126,-0.06964024901390076,-0.03413940966129303,-0.8722571730613708,0.9935672879219055,-0.8068624138832092,-0.34028446674346924,20.088790893554688,-18.150571823120117,13.679886817932129,0.40263432264328003,0.6794803142547607,0.42817312479019165,0.6536432504653931,-0.8661096096038818,-0.592009961605072,0.4167429208755493,0.6465269923210144,0.42000001668930054,-0.22422027587890625,0.3846380114555359,-1.1387466192245483,3.000004768371582,-0.20843194425106049,-0.20069503784179688,-0.18754349648952484,-0.17439104616641998,0.6229560971260071,0.4655861258506775,0.21943123638629913,-0.016083892434835434
0.6166666666666667,0.0023877103812992573,-0.0021807856392115355,0.0,0.6631429195404053,0.0,0.0,-0.7484927773475647,0.30549129843711853,-0.03631565347313881,0.0,0.0,0.0,0.8159136772155762,0.415251225233078,0.666764497756958,0.42102447152137756,0.5041948556900024,-0.0025739865377545357,0.000355948373908177,-0.8635859489440918,0.3582892417907715,-0.5762494206428528,-0.042480483651161194,2.239459276199341,4.484889507293701,1.7836573123931885,0.409963458776474,0.6668171882629395,0.42686569690704346,0.2920624315738678,-0.6347447633743286,0.11305005848407745,0.4167429208755493,0.6465269923210144,0.42000001668930054,-0.23827418684959412,-1.8752795457839966,-1.1605812311172485,-2.9998762607574463,-0.20039044320583344,-0.1948906034231186,-0.18535050749778748,-0.17561842501163483,0.5359893441200256,0.38541701436042786,0.15958331525325775,-0.05197066068649292
0.6333333333333333,0.00926936138421297,7.589630695292726e-05,0.0,0.6521182656288147,0.0,0.0,-0.7581172585487366,0.42951053380966187,0.1764400601387024,0.0,0.0,0.0,-2.6658201217651367,0.4179311692714691,0.6602432131767273,0.4205736517906189,0.5362498164176941,-0.007769784890115261,0.012122704647481441,-0.8439365029335022,0.29925090074539185,-0.031032653525471687,0.1835610419511795,3.670607328414917,8.108859062194824,1.6148098707199097,0.4146023392677307,0.6619380712509155,0.42853057384490967,0.30209019780158997,-0.137827530503273,0.11319518089294434,0.4167429208755493,0.6465269923210144,0.42000001668930054,-0.25519034266471863,-0.32867011427879333,-1.2105283737182617,-2.9954545497894287,-0.19098937511444092,-0.188576340675354,-0.18315213918685913,-0.17716911435127258,0.6729140281677246,0.4588192105293274,0.19204863905906677,-0.04911891743540764
0.65,0.017867380753159523,-0.00214161048643291,0.0,0.653373122215271,0.0,0.0,-0.757036030292511,0.5003529191017151,-0.16188140213489532,0.0,0.0,0.0,1.1039272546768188,0.4213294982910156,0.6590796113014221,0.42176586389541626,0.5482541918754578,-0.024858949705958366,0.03805596008896828,-0.8350754380226135,0.012974461540579796,-0.024669403210282326,0.09352558851242065,1.7818423509597778,4.803717613220215,0.798211932182312,0.41572174429893494,0.6597535610198975,0.4278673529624939,-0.12210769951343536,-0.08219661563634872,-0.046939242631196976,0.4167429208755493,0.6465269923210144,0.42000001668930054,-0.2940755784511566,-2.999846935272217,-1.1733050346374512,2.999897003173828,-0.17760834097862244,-0.17871001362800598,-0.17761515080928802,-0.175585076212883,0.6923456788063049,0.5225306153297424,0.3055093586444855,0.10512687265872955
0.6666666666666666,0.02907533198595047,-0.0005239489837549627,0.0,0.6758157014846802,0.0,0.0,-0.7370706796646118,0.7009696960449219,0.09574442356824875,0.0,0.0,0.0,4.493456840515137,0.42049336433410645,0.6586537957191467,0.4220130443572998,0.551505982875824,-0.029435889795422554,0.044390901923179626,-0.8324686884880066,-0.051329754292964935,-0.021325968205928802,-0.009608924388885498,-0.213577002286911,-0.4979189932346344,0.254037469625473,0.41335880756378174,0.6591266393661499,0.4293467402458191,-0.0835857167840004,0.05310951918363571,0.1607658714056015,0.4167429208755493,0.6465269923210144,0.42000001668930054,-0.3440970182418823,-2.9975249767303467,-1.1947927474975586,-2.999265432357788,-0.16965311765670776,-0.17290551960468292,-0.17464016377925873,-0.17519602179527283,0.5820346474647522,0.43306398391723633,0.25239089131355286,0.08907727897167206
0.6833333333333333,0.03715967759490013,-0.0022353006061166525,0.0,0.684333086013794,0.0,0.0,-0.7291695475578308,0.4044027328491211,-0.16509072482585907,0.0,0.0,0.0,0.3504562973976135,0.4194996953010559,0.6588217616081238,0.42093199491500854,0.5514769554138184,-0.012948297895491123,0.019595684483647346,-0.833859384059906,-0.06627160310745239,0.02039189450442791,-0.08157021552324295,-1.7456907033920288,-4.115390777587891,-0.11668206751346588,0.41270557045936584,0.660608172416687,0.43260228633880615,-0.03818934038281441,0.07009157538414001,0.23111563920974731,0.4167429208755493,0.6465269923210144,0.42000001668930054,-0.394114226102829,-2.9996743202209473,-1.2447638511657715,-2.999750852584839,-0.16193582117557526,-0.166768416762352,-0.17048336565494537,-0.17274239659309387,0.41430506110191345,0.3559117615222931,0.27888578176498413,0.21684566140174866
0.7,0.04520753026008606,-0.00756438821554184,0.0,0.6713153123855591,0.0,0.0,-0.7411718368530273,0.5237186551094055,-0.3892821967601776,0.0,0.0,0.0,-2.983201742172241,0.4182361364364624,0.6593815684318542,0.4200000464916229,0.5516054630279541,-8.562387279198447e-07,2.3694954052189132e-06,-0.8341050744056702,-0.058665987104177475,0.029988806694746017,-4.8619695007801056e-05,-0.0012347324518486857,-0.002327842405065894,0.057518746703863144,0.41409415006637573,0.6612018346786499,0.43698716163635254,0.17016297578811646,-0.04553396254777908,0.36430758237838745,0.4167429208755493,0.6465269923210144,0.42000001668930054,-0.4441268742084503,-3.0000011920928955,-1.2947829961776733,-3.0,-0.15742677450180054,-0.16233068704605103,-0.16628022491931915,-0.1685008555650711,0.18552632629871368,0.2258826643228531,0.2625253200531006,0.3152429461479187
0.7166666666666667,0.057162489742040634,-0.008235594257712364,0.0,0.6360766887664795,0.0,0.0,-0.771625816822052,0.672356903553009,-0.014947116374969482,0.0,0.0,0.0,-6.385054588317871,0.4180337190628052,0.659485399723053,0.4199999272823334,0.5516704320907593,1.3379356460063718e-05,-1.261041347788705e-06,-0.8340621590614319,0.0011014958145096898,0.0006800700793974102,-0.0003771630581468344,-0.033237993717193604,0.0161875169724226,-0.002467873739078641,0.42242586612701416,0.6575757265090942,0.4512944221496582,0.9695985317230225,-0.21119460463523865,1.4385215044021606,0.4167429208755493,0.6465269923210144,0.42000001668930054,-0.494139701128006,-2.9999756813049316,-1.3448013067245483,-2.9999985694885254,-0.16250386834144592,-0.16532427072525024,-0.16725307703018188,-0.16730235517024994,-0.21869589388370514,-0.11924614757299423,-0.015193644911050797,0.10209141671657562
0.7333333333333333,0.06992463767528534,-0.0054451762698590755,0.0,0.6151519417762756,0.0,0.0,-0.7884085774421692,0.8194441795349121,0.15092003345489502,0.0,0.0,0.0,-2.137209415435791,0.41803449392318726,0.6594857573509216,0.41999995708465576,0.5516705513000488,-1.9163981050951406e-06,-5.651772426062962e-06,-0.8340620398521423,5.674560816260055e-05,-0.0003993179416283965,-7.682316936552525e-05,0.010422096587717533,-0.003440824570134282,-0.0010430096881464124,0.44002553820610046,0.6585413217544556,0.4797816276550293,1.203072190284729,0.24854300916194916,1.9506508111953735,0.4167429208755493,0.6465269923210144,0.42000001668930054,-0.5256237387657166,-0.929124653339386,-1.3948196172714233,-2.999999761581421,-0.16620774567127228,-0.16806338727474213,-0.16893190145492554,-0.16773787140846252,-0.08174408972263336,-0.08845224976539612,-0.08658622205257416,-0.07290349155664444
0.75,0.07998175919055939,-0.0015223384834825993,0.0,0.619828999042511,0.0,0.0,-0.7847369313240051,0.5215134620666504,0.2738056778907776,0.0,0.0,0.0,1.6143443584442139,0.41803452372550964,0.6594856977462769,0.41999995708465576,0.551670253276825,-1.5083907101143268e-06,-5.308467734721489e-06,-0.8340622782707214,6.447801570175216e-05,-0.0003804658481385559,-7.25786667317152e-05,0.00995774008333683,-0.003275180235505104,-0.001015243586152792,0.46008962392807007,0.6640256643295288,0.5048316121101379,1.1163194179534912,0.40028494596481323,1.1288559436798096,0.4167429208755493,0.6465269923210144,0.42000001668930054,-0.5185564756393433,1.5547622442245483,-1.4448379278182983,-3.000000238418579,-0.16573601961135864,-0.16789475083351135,-0.16891847550868988,-0.16773460805416107,0.11165657639503479,0.08634822815656662,0.06822000443935394,0.054483022540807724
0.7666666666666666,0.08493438363075256,-0.0029858697671443224,0.0,0.6126819252967834,0.0,0.0,-0.79032963514328,0.31855693459510803,-0.09358840435743332,0.0,0.0,0.0,-1.823488712310791,0.41803452372550964,0.6594856977462769,0.41999995708465576,0.5516703128814697,-1.669087851041695e-06,-5.327216967998538e-06,-0.8340621590614319,6.405913882190362e-05,-0.0003807899192906916,-7.263966836035252e-05,0.009966045618057251,-0.003281007055193186,-0.00101513194385916,0.4723343253135681,0.6730688810348511,0.5185244083404541,0.2644408643245697,0.4509400725364685,0.6381086111068726,0.4167429208755493,0.6465269923210144,0.42000001668930054,-0.497191458940506,1.0371911525726318,-1.406265377998352,2.999999523162842,-0.1590808779001236,-0.16230934858322144,-0.16430433094501495,-0.16405346989631653,0.13775229454040527,0.13509899377822876,0.13109582662582397,0.11895008385181427
0.7833333333333333,0.08752420544624329,0.0006119109457358718,0.0,0.6188256144523621,0.0,0.0,-0.7855284214019775,0.10021576285362244,0.24114294350147247,0.0,0.0,0.0,1.702988624572754,0.41803449392318726,0.6594856977462769,0.41999995708465576,0.5516703128814697,-1.8419397065372323e-06,-5.4411107157648075e-06,-0.8340621590614319,6.359520921250805e-05,-0.00038075129850767553,-7.263314910233021e-05,0.009964625351130962,-0.003278707852587104,-0.0010138493962585926,0.4725677967071533,0.6796001195907593,0.5260751843452454,-0.11996190249919891,0.4543952941894531,0.2776159346103668,0.4167429208755493,0.6465269923210144,0.42000001668930054,-0.47768867015838623,1.2696272134780884,-1.4242578744888306,-3.0,-0.16091519594192505,-0.16326116025447845,-0.16449818015098572,-0.16377079486846924,-0.01586846448481083,0.015314390882849693,0.03945336863398552,0.04673664644360542
0.8,0.08709129691123962,-0.0005807826528325677,0.0,0.6134046912193298,0.0,0.0,-0.7897687554359436,-0.06145799905061722,-0.15317508578300476,0.0,0.0,0.0,-1.727891206741333,0.41803452372550964,0.6594856977462769,0.41999995708465576,0.5516703128814697,-1.8742465499599348e-06,-5.29573571839137e-06,-0.8340621590614319,6.422816659323871e-05,-0.0003806813037954271,-7.258029654622078e-05,0.009964565746486187,-0.003277922747656703,-0.001015029614791274,0.46582335233688354,0.6866146326065063,0.524202823638916,-0.7040258049964905,0.3930044174194336,-0.3046882748603821,0.4167429208755493,0.6465269923210144,0.42000001668930054,-0.47545722126960754,-0.8242679238319397,-1.3857431411743164,2.999999761581421,-0.15973354876041412,-0.16173137724399567,-0.16274555027484894,-0.1620888113975525,0.06995347142219543,0.09747100621461868,0.11520129442214966,0.11271200329065323
0.8166666666666667,0.08890674263238907,0.003779160790145397,0.0,0.6205483078956604,0.0,0.0,-0.7841682434082031,0.045922838151454926,0.2991454303264618,0.0,0.0,0.0,1.8805646896362305,0.41803452372550964,0.6594856977462769,0.41999995708465576,0.5516703128814697,-1.8845951217372203e-06,-5.229202997725224e-06,-0.8340621590614319,6.432730879168957e-05,-0.0003809109330177307,-7.262197323143482e-05,0.009970935992896557,-0.003282627323642373,-0.001015922287479043,0.45393097400665283,0.6909669637680054,0.5176794528961182,-0.5971866846084595,0.3601275682449341,-0.44636303186416626,0.4167429208755493,0.6465269923210144,0.42000001668930054,-0.48689302802085876,-0.5595423579216003,-1.4041402339935303,-2.999969482421875,-0.16569337248802185,-0.16587913036346436,-0.1652957797050476,-0.16346393525600433,-0.1978835016489029,-0.1313505470752716,-0.07052922248840332,-0.026967843994498253
0.8333333333333334,0.09093401581048965,0.00432835565879941,0.0,0.6154950857162476,0.0,0.0,-0.7881407141685486,0.20501254498958588,0.010267309844493866,0.0,0.0,0.0,-1.5509092807769775,0.41803449392318726,0.6594856977462769,0.41999995708465576,0.5516701340675354,-1.833058718148095e-06,-5.517777026398107e-06,-0.8340622782707214,6.384240987244993e-05,-0.0003807750472333282,-7.261964492499828e-05,0.009966112673282623,-0.0032791621051728725,-0.001014435081742704,0.4459466338157654,0.6942375898361206,0.5061580538749695,-0.4145408272743225,-0.04113534092903137,-0.767315149307251,0.4167429208755493,0.6465269923210144,0.42000001668930054,-0.5273526906967163,-3.0000009536743164,-1.3852652311325073,3.000000476837158,-0.16705523431301117,-0.1662018746137619,-0.1645459681749344,-0.16179485619068146,-0.22769653797149658,-0.11695808172225952,-0.0022263294085860252,0.10436509549617767
0.85,0.09603261202573776,0.001635271473787725,0.0,0.5903621315956116,0.0,0.0,-0.8071385025978088,0.35149750113487244,-0.22823351621627808,0.0,0.0,0.0,-4.680813312530518,0.41803452372550964,0.6594856977462769,0.41999995708465576,0.5516701340675354,-1.86962972748006e-06,-5.357101599656744e-06,-0.8340622782707214,6.440294964704663e-05,-0.00038070816663093865,-7.257401011884212e-05,0.009965918026864529,-0.0032784880604594946,-0.001015475601889193,0.4444659352302551,0.6918033361434937,0.4978255033493042,0.24090635776519775,-0.22559872269630432,-0.0862683579325676,0.4167429208755493,0.6465269923210144,0.42000001668930054,-0.5773712396621704,-2.9999587535858154,-1.4037065505981445,-2.999999523162842,-0.1720016449689865,-0.16936242580413818,-0.1657884269952774,-0.16118109226226807,-0.31374481320381165,-0.21258004009723663,-0.10128482431173325,0.00930806528776884
0.8666666666666667,0.10368817299604416,0.0010558462236076593,0.0,0.5808081030845642,0.0,0.0,-0.8140405416488647,0.49219653010368347,0.03683970496058464,0.0,0.0,0.0,-0.40449580550193787,0.41803449392318726,0.6594856977462769,0.41999995708465576,0.551670253276825,-1.8453107486493536e-06,-5.48184334547841e-06,-0.8340623378753662,6.370625487761572e-05,-0.00038081061211414635,-7.263664156198502e-05,0.00996656809002161,-0.003279806114733219,-0.0010142445098608732,0.45036906003952026,0.6931048631668091,0.5013130307197571,0.44290533661842346,0.302809476852417,0.4596737027168274,0.4167429208755493,0.6465269923210144,0.42000001668930054,-0.5971936583518982,0.3472890555858612,-1.4537248611450195,-2.999999523162842,-0.17671418190002441,-0.1732046753168106,-0.16857579350471497,-0.1628846824169159,-0.20944096148014069,-0.2032945156097412,-0.18674305081367493,-0.1672498881816864
0.8833333333333333,0.10825549811124802,-0.003622066229581833,0.0,0.5958756804466248,0.0,0.0,-0.8030766844749451,0.21106359362602234,-0.31674522161483765,0.0,0.0,0.0,2.8747103214263916,0.41803452372550964,0.6594856977462769,0.41999995708465576,0.551670253276825,-1.8646715034265071e-06,-5.330117346602492e-06,-0.8340623378753662,6.431889778468758e-05,-0.00038069827132858336,-7.257540710270405e-05,0.009965398348867893,-0.003278301563113928,-0.0010152667528018355,0.45974528789520264,0.6976905465126038,0.5049360990524292,0.5762479901313782,0.15459594130516052,-0.008767150342464447,0.4167429208755493,0.6465269923210144,0.42000001668930054,-0.5988441109657288,-0.47438472509384155,-1.4151254892349243,3.0,-0.17693395912647247,-0.173355832695961,-0.16849885880947113,-0.16253186762332916,-0.1051468476653099,-0.0637395903468132,-0.01608746126294136,0.030973633751273155
0.9,0.10946718603372574,-0.007756651379168034,0.0,0.5957719087600708,0.0,0.0,-0.8031536936759949,0.023814931511878967,-0.22838890552520752,0.0,0.0,0.0,-0.9482748508453369,0.41803452372550964,0.6594856977462769,0.41999995708465576,0.551670253276825,-1.8623412643137272e-06,-5.2543350648193154e-06,-0.8340623378753662,6.429122731788084e-05,-0.0003809263580478728,-7.261987775564194e-05,0.00997148361057043,-0.003282546065747738,-0.0010158357908949256,0.4673019051551819,0.6963828802108765,0.5008720755577087,0.34467029571533203,-0.22535745799541473,-0.3085442781448364,0.4167429208755493,0.6465269923210144,0.42000001668930054,-0.6286832094192505,-2.874021053314209,-1.432955026626587,-3.000000238418579,-0.18087680637836456,-0.17608560621738434,-0.16995397210121155,-0.1627642810344696,-0.2419978231191635,-0.16043777763843536,-0.07685259729623795,0.002517214510589838
0.9166666666666666,0.11223278939723969,-0.011807698756456375,0.0,0.5728951096534729,0.0,0.0,-0.8196287155151367,0.19870251417160034,-0.31305789947509766,0.0,0.0,0.0,-4.327762126922607,0.41803452372550964,0.6594856977462769,0.41999995708465576,0.551670253276825,-1.8413641100778477e-06,-5.564809725910891e-06,-0.8340623378753662,6.423758168239146e-05,-0.00038089894223958254,-7.262500002980232e-05,0.009970313869416714,-0.0032823376823216677,-0.0010156970238313079,0.47420671582221985,0.6913436651229858,0.49660173058509827,0.531715989112854,-0.35670527815818787,-0.05299270153045654,0.4167429208755493,0.6465269923210144,0.42000001668930054,-0.6680997610092163,-1.9064157009124756,-1.482973337173462,-3.0000007152557373,-0.1862085461616516,-0.17993783950805664,-0.1722443401813507,-0.16350950300693512,-0.2858973443508148,-0.20270290970802307,-0.11187373846769333,-0.018710441887378693
