vladlanda/robotic-transformer/data/env_000_episode_0266.csv
sim_time_s,robot_box_x,robot_box_y,robot_box_z,robot_box_quat_w,robot_box_quat_x,robot_box_quat_y,robot_box_quat_z,robot_box_linvel_x,robot_box_linvel_y,robot_box_linvel_z,robot_box_angvel_x,robot_box_angvel_y,robot_box_angvel_z,cube_world_x,cube_world_y,cube_world_z,cube_quat_w,cube_quat_x,cube_quat_y,cube_quat_z,cube_linvel_x,cube_linvel_y,cube_linvel_z,cube_angvel_x,cube_angvel_y,cube_angvel_z,endpoint_world_x,endpoint_world_y,endpoint_world_z,endpoint_linvel_x,endpoint_linvel_y,endpoint_linvel_z,target_cube_world_x,target_cube_world_y,target_cube_world_z,gripper_actual_pos_rad_gp_leftgearjoint,gripper_actual_vel_rad_s_gp_leftgearjoint,gripper_actual_pos_rad_gp_rotatingjoint,gripper_actual_vel_rad_s_gp_rotatingjoint,motor_angle_rad_joint1,motor_angle_rad_joint2,motor_angle_rad_joint3,motor_angle_rad_joint4,motor_speed_rad_s_joint1,motor_speed_rad_s_joint2,motor_speed_rad_s_joint3,motor_speed_rad_s_joint4
0.0,0.0,0.0,0.0,1.0,0.0,0.0,0.0,0.0,0.0,0.0,0.0,0.0,0.0,-0.454689085483551,0.6929827332496643,0.41999998688697815,1.0,0.0,0.0,0.0,0.0,0.0,0.0,0.0,0.0,0.0,3.42540442943573e-06,-0.005000244826078415,1.313499927520752,0.0,0.0,0.0,0.32699495553970337,0.6239594221115112,0.42000001668930054,-1.5707999467849731,0.0,0.0,0.0,0.0,0.0,0.0,0.0,0.0,0.0,0.0,0.0
0.016666666666666666,0.0028778850100934505,0.0021806680597364902,0.0,0.9998081922531128,0.0,0.0,0.019586581736803055,0.24087215960025787,0.18240931630134583,0.0,0.0,0.0,3.1418697834014893,-0.4546892046928406,0.6929824352264404,0.41999998688697815,1.0,3.2799832752061775e-06,-8.339598593920527e-07,8.465660528145236e-08,-1.9833856640616432e-05,0.00017983021098189056,-6.132945418357849e-05,0.0009432561928406358,-0.004689492750912905,-0.0003198107879143208,-0.007110234349966049,0.003379564033821225,1.3159373998641968,-0.8143353462219238,0.9868683815002441,0.18095196783542633,0.32699495553970337,0.6239594221115112,0.42000001668930054,-1.5301095247268677,3.0000011920928955,-0.04584788903594017,-2.9999992847442627,0.0008691533003002405,0.0007963840034790337,0.0007110277656465769,0.0006108740926720202,0.11094217747449875,0.09756709635257721,0.08334315568208694,0.06823883205652237
0.03333333333333333,0.008960946463048458,0.0068017966113984585,0.0,0.9997960329055786,0.0,0.0,0.0201968252658844,0.4070180356502533,0.31530293822288513,0.0,0.0,0.0,-0.8691298365592957,-0.4546893239021301,0.6929823756217957,0.4200000464916229,1.0,3.3908236218849197e-06,-2.1324740373529494e-06,-3.7087911408661967e-08,0.0002635786950122565,0.00026937879738397896,-0.00010509719140827656,-0.0017707741353660822,0.004130927845835686,-0.00013548358401749283,-0.027541138231754303,0.025756608694791794,1.3166643381118774,-1.5910577774047852,1.6002836227416992,-0.07690172642469406,0.32699495553970337,0.6239594221115112,0.42000001668930054,-1.4800903797149658,3.0000011920928955,-0.09588771313428879,-3.000000476837158,0.002990207402035594,0.002652861410751939,0.0022774715907871723,0.0018609639955684543,0.16423164308071136,0.13977877795696259,0.11384090036153793,0.08632608503103256
0.05,0.01775949075818062,0.013772769831120968,0.0,0.9993746876716614,0.0,0.0,0.03535877913236618,0.593970775604248,0.46514958143234253,0.0,0.0,0.0,2.647435426712036,-0.4546893537044525,0.6929824352264404,0.4200000464916229,1.0,3.7651166167051997e-06,-2.2119024833955336e-06,5.637348365894468e-09,0.0002653102274052799,0.00026691530365496874,-0.0001044049859046936,-0.0017243424663320184,0.004177475813776255,-0.00012949523807037622,-0.059666018933057785,0.05299026519060135,1.3119128942489624,-2.187448501586914,1.7046220302581787,-0.45474112033843994,0.32699495553970337,0.6239594221115112,0.42000001668930054,-1.4300720691680908,3.000002145767212,-0.145926371216774,-3.0,0.005713667254894972,0.004921581130474806,0.0040573375299572945,0.0031165063846856356,0.1929069608449936,0.15601548552513123,0.11724681407213211,0.07650867849588394
0.06666666666666667,0.029077347368001938,0.023067420348525047,0.0,0.9994471669197083,0.0,0.0,0.03324620798230171,0.7205213904380798,0.5952761769294739,0.0,0.0,0.0,-1.2118102312088013,-0.4546893537044525,0.6929823756217957,0.4200000464916229,0.9999999403953552,3.4067338674503844e-06,-2.2856738723930903e-06,4.301002434203838e-07,0.0002670263347681612,0.0002679180761333555,-0.00010437914170324802,-0.001740648876875639,0.004211838357150555,-0.00012851078645326197,-0.09808965772390366,0.0864463746547699,1.2997725009918213,-2.440847635269165,2.1944732666015625,-0.9778660535812378,0.32699495553970337,0.6239594221115112,0.42000001668930054,-1.3800537586212158,3.000002384185791,-0.1959516853094101,-3.000000476837158,0.008290480822324753,0.006807281635701656,0.005213064607232809,0.0035021568182855844,0.15078668296337128,0.0996914729475975,0.04656069353222847,-0.00868870597332716
0.08333333333333333,0.034437961876392365,0.035717543214559555,0.0,0.9999117851257324,0.0,0.0,0.01328212022781372,0.19089505076408386,0.8237012028694153,0.0,0.0,0.0,-2.9232611656188965,-0.4546893537044525,0.6929823756217957,0.4200000464916229,0.9999999403953552,3.6260375964047853e-06,-2.335399813091499e-06,3.0323869282256055e-07,0.0002661397447809577,0.0002668508095666766,-0.00010405457578599453,-0.0017283371416851878,0.004196438007056713,-0.00012790974869858474,-0.13859587907791138,0.1255394071340561,1.2784368991851807,-2.401273727416992,2.4477767944335938,-1.473339319229126,0.32699495553970337,0.6239594221115112,0.42000001668930054,-1.3300241231918335,2.9999992847442627,-0.16493462026119232,3.0000009536743164,0.0052893636748194695,0.003262508427724242,0.0010742520680651069,-0.001285448670387268,-0.26876306533813477,-0.30749747157096863,-0.34874963760375977,-0.39281463623046875
0.1,0.04373650997877121,0.04941656440496445,0.0,0.9999423623085022,0.0,0.0,0.010734793730080128,0.6560878157615662,0.8340147137641907,0.0,0.0,0.0,1.0489106178283691,-0.4546893537044525,0.6929823756217957,0.4200000464916229,1.0,3.4220713587274076e-06,-2.3086856799636735e-06,1.7965174947676132e-07,0.0002668143715709448,0.00026800335035659373,-0.00010440708138048649,-0.0017429604195058346,0.0042070322670042515,-0.00012891279766336083,-0.17948438227176666,0.16262206435203552,1.2555983066558838,-2.4138026237487793,2.2257041931152344,-1.3569002151489258,0.32699495553970337,0.6239594221115112,0.42000001668930054,-1.2800229787826538,3.000002384185791,-0.19660283625125885,-2.999999761581421,0.005751804914325476,0.0022043792996555567,-0.0015006931498646736,-0.005373530089855194,0.06035906448960304,-0.04711218923330307,-0.1535583734512329,-0.2589481472969055
0.11666666666666667,0.05063651129603386,0.060575637966394424,0.0,0.9999957084655762,0.0,0.0,-0.0029355804435908794,0.38764524459838867,0.6118897795677185,0.0,0.0,0.0,-2.397671937942505,-0.4546893537044525,0.6929824352264404,0.4200000464916229,1.0,3.7114145925443154e-06,-2.3327797862293664e-06,2.5745856646608445e-07,0.00026485841954126954,0.0002663533086888492,-0.0001042329240590334,-0.0017181563889607787,0.004170076455920935,-0.0001291552762268111,-0.2167203724384308,0.20770376920700073,1.230647087097168,-2.1188127994537354,3.032158851623535,-1.5824241638183594,0.32699495553970337,0.6239594221115112,0.42000001668930054,-1.2299978733062744,2.999990940093994,-0.16282781958580017,3.0000014305114746,0.004799283109605312,-0.0006409782799892128,-0.006207441911101341,-0.011909684166312218,-0.02720736339688301,-0.15630775690078735,-0.2822612524032593,-0.40493083000183105
0.13333333333333333,0.0544508658349514,0.07265346497297287,0.0,0.9990937113761902,0.0,0.0,-0.04256460443139076,0.16491737961769104,0.7734600305557251,0.0,0.0,0.0,-5.555294036865234,-0.4546893537044525,0.6929823756217957,0.4200000464916229,1.0,3.33562343257654e-06,-2.231935468444135e-06,3.113336504156905e-07,0.0002666971704456955,0.00026759487809613347,-0.00010428461246192455,-0.001737144310027361,0.004205835517495871,-0.00012839905684813857,-0.25173696875572205,0.260053813457489,1.203507900238037,-2.0984044075012207,3.1937437057495117,-1.7340967655181885,0.32699495553970337,0.6239594221115112,0.42000001668930054,-1.1873633861541748,2.1523447036743164,-0.19455969333648682,-3.0000007152557373,0.003235769458115101,-0.004324502311646938,-0.011943507939577103,-0.019628018140792847,-0.16317982971668243,-0.278999000787735,-0.3906317949295044,-0.49794062972068787
0.15,0.054750218987464905,0.08535598963499069,0.0,0.9980819821357727,0.0,0.0,-0.06190572306513786,-0.04638783261179924,0.7643980383872986,0.0,0.0,0.0,-1.2627743482589722,-0.4546893537044525,0.6929823756217957,0.4200000464916229,1.0,3.5188593301427318e-06,-2.2830813577456865e-06,-3.625297324560961e-07,0.00026618369156494737,0.0002673570706974715,-0.00010425481013953686,-0.001734902267344296,0.00419566361233592,-0.00012860818242188543,-0.2925418019294739,0.3097079396247864,1.1701812744140625,-2.465338706970215,3.060631275177002,-2.2335500717163086,0.32699495553970337,0.6239594221115112,0.42000001668930054,-1.1408770084381104,2.9999945163726807,-0.16391219198703766,2.999999523162842,-0.00043091949191875756,-0.009680685587227345,-0.01890912465751171,-0.028121745213866234,-0.281768262386322,-0.3662128448486328,-0.446001797914505,-0.5211430191993713
0.16666666666666666,0.06025858223438263,0.09491398930549622,0.0,0.995406448841095,0.0,0.0,-0.09573930501937866,0.3642229437828064,0.5719497203826904,0.0,0.0,0.0,-4.688558101654053,-0.4546893537044525,0.6929823756217957,0.4200000464916229,1.0,3.6665835523308488e-06,-2.3391182821796974e-06,-3.149922918055381e-07,0.000265958602540195,0.00026667420752346516,-0.00010403734631836414,-0.001725313370116055,0.0041927797719836235,-0.00012778645032085478,-0.33013248443603516,0.36539924144744873,1.1318819522857666,-2.0099377632141113,3.612112522125244,-2.5065784454345703,0.32699495553970337,0.6239594221115112,0.42000001668930054,-1.0924534797668457,2.7875804901123047,-0.19562572240829468,-3.0,-0.0027182651683688164,-0.013663635589182377,-0.02449711412191391,-0.035224173218011856,-0.3844776153564453,-0.4499322772026062,-0.5122706890106201,-0.5715429782867432
0.18333333333333332,0.06099904701113701,0.10713090002536774,0.0,0.987669825553894,0.0,0.0,-0.15655118227005005,0.03876552730798721,0.7196921110153198,0.0,0.0,0.0,-8.022642135620117,-0.4546893537044525,0.6929823756217957,0.4200000464916229,1.0,3.8143025449244305e-06,-2.399538061581552e-06,-2.702604433579836e-07,0.00026549160247668624,0.0002661106991581619,-0.00010391208343207836,-0.0017177729168906808,0.004184826277196407,-0.0001275383838219568,-0.3615192174911499,0.4302671551704407,1.0815205574035645,-1.697708249092102,4.168138027191162,-3.30623197555542,0.32699495553970337,0.6239594221115112,0.42000001668930054,-1.0546704530715942,1.7953935861587524,-0.24565467238426208,-3.000000476837158,-0.015539834275841713,-0.026827191933989525,-0.03799279406666756,-0.04903651401400566,-0.7091796398162842,-0.7403380870819092,-0.7702952027320862,-0.7976236939430237
0.2,0.059807188808918,0.11701208353042603,0.0,0.9806656837463379,0.0,0.0,-0.19569066166877747,-0.10495620965957642,0.47612032294273376,0.0,0.0,0.0,-3.6990630626678467,-0.4546893537044525,0.6929823756217957,0.4200000464916229,1.0,3.6000003547087545e-06,-2.291237706231186e-06,-2.2017823653186497e-07,0.00026573086506687105,0.0002664501662366092,-0.00010398100130259991,-0.0017227214993909001,0.0041888258419930935,-0.00012773244816344231,-0.3936660885810852,0.4937556982040405,1.0184026956558228,-1.6806864738464355,3.9030871391296387,-4.2408037185668945,0.32699495553970337,0.6239594221115112,0.42000001668930054,-1.0092966556549072,2.999999761581421,-0.29568159580230713,-3.0000014305114746,-0.02881736122071743,-0.03996635600924492,-0.050980906933546066,-0.06184965372085571,-0.8359438180923462,-0.8018968105316162,-0.7676683664321899,-0.7330200672149658
0.21666666666666667,0.0547206737101078,0.12728001177310944,0.0,0.9696123003959656,0.0,0.0,-0.2446465790271759,-0.3827754855155945,0.672174870967865,0.0,0.0,0.0,-6.8090362548828125,-0.4546893537044525,0.6929823756217957,0.4200000464916229,0.9999999403953552,3.6396120322024217e-06,-2.2620149593421957e-06,2.2248472930641583e-07,0.0002668747620191425,0.0002675442665349692,-0.00010411837138235569,-0.0017403680831193924,0.004211135674268007,-0.00012783527199644595,-0.42121922969818115,0.557504415512085,0.9409922957420349,-1.3541369438171387,3.824097156524658,-4.968184471130371,0.32699495553970337,0.6239594221115112,0.42000001668930054,-0.9592919945716858,3.000000238418579,-0.3457106947898865,-3.0000011920928955,-0.045166097581386566,-0.05593869090080261,-0.06653784960508347,-0.07683955132961273,-0.987493634223938,-0.9898942708969116,-0.9917290806770325,-0.9737130999565125
0.23333333333333334,0.05451306700706482,0.1340777426958084,0.0,0.9613229632377625,0.0,0.0,-0.275423526763916,0.06338600069284439,0.39948588609695435,0.0,0.0,0.0,-2.515185832977295,-0.4546893239021301,0.6929823756217957,0.4200000464916229,1.0,3.420692110012169e-06,-2.3168713596533053e-06,2.955990510145057e-07,0.00026680133305490017,0.00026803885702975094,-0.0001044226810336113,-0.001743639470078051,0.004206772428005934,-0.0001289946085307747,-0.4460594058036804,0.6127029657363892,0.8539331555366516,-1.1184500455856323,3.077791929244995,-5.5760345458984375,0.32699495553970337,0.6239594221115112,0.42000001668930054,-0.909285843372345,3.000000238418579,-0.39574143290519714,-3.000002384185791,-0.05898280441761017,-0.06949599832296371,-0.07972916960716248,-0.08942878246307373,-0.9875038862228394,-0.9682678580284119,-0.8928101658821106,-0.8099044561386108
0.25,0.042947832494974136,0.14036838710308075,0.0,0.9536163806915283,0.0,0.0,-0.30102458596229553,-0.8430193066596985,0.2821679711341858,0.0,0.0,0.0,-3.198734998703003,-0.4546893537044525,0.6929823756217957,0.4200000464916229,0.9999999403953552,3.3476046610303456e-06,-2.259236225654604e-06,1.8083763109189022e-07,0.0002668767119757831,0.0002679122262634337,-0.00010439427569508553,-0.0017404244281351566,0.004208163358271122,-0.00012870550563093275,-0.46249479055404663,0.6531977653503418,0.7572118639945984,-0.7770324945449829,2.044248580932617,-5.882748603820801,0.32699495553970337,0.6239594221115112,0.42000001668930054,-0.8592751622200012,2.9999570846557617,-0.44577309489250183,-2.999811887741089,-0.07432514429092407,-0.08489292860031128,-0.09524478018283844,-0.10508991032838821,-0.7110298871994019,-0.7512320280075073,-0.7919832468032837,-0.8304411172866821
0.26666666666666666,0.0350644625723362,0.1414584219455719,0.0,0.9524911046028137,0.0,0.0,-0.304566353559494,-0.35806381702423096,0.012897753156721592,0.0,0.0,0.0,0.5893785357475281,-0.4546893537044525,0.6929823756217957,0.4200000464916229,0.9999999403953552,3.535753194228164e-06,-2.3003594833426178e-06,-1.2686646755355468e-07,0.0002660174504853785,0.00026712234830483794,-0.00010419590398669243,-0.001731633092276752,0.004192822612822056,-0.0001284947502426803,-0.47730064392089844,0.6784147024154663,0.6580520868301392,-0.7495236396789551,1.008570909500122,-5.978770732879639,0.32699495553970337,0.6239594221115112,0.42000001668930054,-0.8092658519744873,2.9999947547912598,-0.49580448865890503,-2.9999992847442627,-0.08825556933879852,-0.09851778298616409,-0.10862641781568527,-0.11827272921800613,-0.988157331943512,-0.9285745024681091,-0.8744954466819763,-0.8261135816574097
0.2833333333333333,0.024775905534625053,0.1406146138906479,0.0,0.9469183683395386,0.0,0.0,-0.32147416472435,-0.720155656337738,-0.08244840055704117,0.0,0.0,0.0,-3.0483455657958984,-0.4546893537044525,0.6929824352264404,0.4200000464916229,1.0,3.5935188407165697e-06,-2.262744601466693e-06,-5.655506285506817e-08,0.00026704822084866464,0.000267749244812876,-0.00010416633449494839,-0.0017431654268875718,0.004214244429022074,-0.00012789323227480054,-0.4829915165901184,0.691999614238739,0.5575389266014099,0.1227814257144928,0.5147106051445007,-5.755936145782471,0.32699495553970337,0.6239594221115112,0.42000001668930054,-0.7592570781707764,2.9999990463256836,-0.5458342432975769,-3.000002145767212,-0.10590385645627975,-0.11591566354036331,-0.12584128975868225,-0.13534916937351227,-1.0146986246109009,-1.01103675365448,-1.0082515478134155,-1.006041169166565
0.3,0.018710562959313393,0.1370595395565033,0.0,0.9465943574905396,0.0,0.0,-0.322426974773407,-0.3188329339027405,-0.24967533349990845,0.0,0.0,0.0,0.6829842925071716,-0.4546893239021301,0.6929823756217957,0.4200000464916229,0.9999999403953552,3.725037913682172e-06,-2.236182581327739e-06,3.828752426215942e-07,0.0002647983201313764,0.0002667314256541431,-0.00010453932918608189,-0.001718917046673596,0.004166685976088047,-0.00013016501907259226,-0.47965219616889954,0.6984632015228271,0.4641045033931732,0.45906010270118713,0.11083383858203888,-5.486032485961914,0.32699495553970337,0.6239594221115112,0.42000001668930054,-0.7092490792274475,3.0000009536743164,-0.5958626866340637,-2.999999761581421,-0.12226127088069916,-0.13211466372013092,-0.14197605848312378,-0.15148495137691498,-1.004748821258545,-1.003584861755371,-1.0026955604553223,-1.0019855499267578
0.31666666666666665,0.009088331833481789,0.13182631134986877,0.0,0.9410596489906311,0.0,0.0,-0.3382406234741211,-0.6865383386611938,-0.3403584957122803,0.0,0.0,0.0,-2.9115335941314697,-0.4546428620815277,0.6928488612174988,0.4200930595397949,0.9999966025352478,0.0023250733502209187,-5.364576281863265e-06,-0.001143579138442874,0.003017572918906808,-0.017358141019940376,0.012805024161934853,0.647632896900177,0.004114244598895311,-0.1521170735359192,-0.4741990864276886,0.6999094486236572,0.42768049240112305,0.012089794501662254,-0.010049920529127121,-0.16693595051765442,0.32699495553970337,0.6239594221115112,0.42000001668930054,-0.6593404412269592,2.9974629878997803,-0.6463370323181152,-2.995109796524048,-0.1340504139661789,-0.14365755021572113,-0.15308727324008942,-0.1619235873222351,-0.5561820864677429,-0.5004059076309204,-0.42317602038383484,-0.3211859166622162
0.3333333333333333,-0.005163473077118397,0.1252499520778656,0.0,0.9410465359687805,0.0,0.0,-0.33827710151672363,-0.910805881023407,-0.42568764090538025,0.0,0.0,0.0,0.9448155164718628,-0.45478639006614685,0.6931489109992981,0.41999998688697815,0.9999848008155823,-6.129677103672293e-07,-1.7194353858940303e-05,-0.005511757917702198,-0.006214185617864132,0.004938136786222458,-0.0005473190103657544,0.00850784219801426,0.013574679382145405,-0.2005777209997177,-0.4755597710609436,0.7006473541259766,0.4256115257740021,0.082029327750206,-0.04598736763000488,-0.20082512497901917,0.32699495553970337,0.6239594221115112,0.42000001668930054,-0.6093341112136841,2.9999983310699463,-0.696371853351593,-2.999993324279785,-0.14747880399227142,-0.15465085208415985,-0.1613599807024002,-0.16719049215316772,-0.8790169954299927,-0.6922423243522644,-0.4909875988960266,-0.27725744247436523
0.35,-0.013490824960172176,0.1153489276766777,0.0,0.9358736872673035,0.0,0.0,-0.35233572125434875,-0.3676896095275879,-0.6552720665931702,0.0,0.0,0.0,-2.708282470703125,-0.45462334156036377,0.6934189200401306,0.4200000464916229,0.9999768733978271,-3.584168837278412e-07,-2.711831825763511e-07,-0.006793198641389608,0.003926314879208803,0.005752936936914921,-1.7446336642024107e-05,0.0002211891405750066,0.0005998268607072532,-0.03804849460721016,-0.47203966975212097,0.6999462842941284,0.4224616587162018,0.3614724278450012,-0.045923151075839996,-0.1821444183588028,0.32699495553970337,0.6239594221115112,0.42000001668930054,-0.5593292117118835,2.999985694885254,-0.7464237809181213,-2.999983310699463,-0.15833747386932373,-0.16266614198684692,-0.16625089943408966,-0.16871993243694305,-0.5765567421913147,-0.3974967896938324,-0.20290185511112213,0.0035317714791744947
0.36666666666666664,-0.02449575811624527,0.10403984040021896,0.0,0.936428427696228,0.0,0.0,-0.35085874795913696,-0.7627608180046082,-0.6944049000740051,0.0,0.0,0.0,1.1750669479370117,-0.4489009976387024,0.6971161365509033,0.42003220319747925,0.9959880113601685,0.0008467431180179119,-4.271529905963689e-05,-0.08948268741369247,0.542786717414856,0.41063573956489563,0.01282571442425251,0.7514566779136658,-0.18030835688114166,-11.871271133422852,-0.4660152196884155,0.7036827206611633,0.42081356048583984,0.3819183111190796,0.5289556384086609,-0.02588246949017048,0.32699495553970337,0.6239594221115112,0.42000001668930054,-0.5093236565589905,3.000004768371582,-0.7964674234390259,-2.99985408782959,-0.1717575341463089,-0.17263692617416382,-0.17260931432247162,-0.1713932305574417,-0.7642313241958618,-0.5851237177848816,-0.3982820212841034,-0.20912706851959229
0.3833333333333333,-0.033264365047216415,0.09037787467241287,0.0,0.9317523837089539,0.0,0.0,-0.36309438943862915,-0.40839532017707825,-0.8708946704864502,0.0,0.0,0.0,-2.462183713912964,-0.44116732478141785,0.7028137445449829,0.4199999272823334,0.9827554821968079,2.8250394734641304e-06,4.220047685521422e-06,-0.1849098950624466,0.4522356688976288,0.3246780335903168,-2.115080860676244e-06,5.1425729907350615e-05,-1.4184771316649858e-05,-11.801802635192871,-0.45677560567855835,0.7096168994903564,0.4211195707321167,0.7189062833786011,0.26724380254745483,0.1148451417684555,0.32699495553970337,0.6239594221115112,0.42000001668930054,-0.45929646492004395,2.999756336212158,-0.846493661403656,-2.999986171722412,-0.18351854383945465,-0.18097826838493347,-0.17726638913154602,-0.1722240149974823,-0.6334555745124817,-0.40768271684646606,-0.16121315956115723,0.09713513404130936
0.4,-0.043014559894800186,0.07477708160877228,0.0,0.9153581857681274,0.0,0.0,-0.40264058113098145,-0.5706586241722107,-0.9997550845146179,0.0,0.0,0.0,-6.031116008758545,-0.4281090497970581,0.7125514149665833,0.4213252663612366,0.9671777486801147,-0.018442584201693535,0.011549370363354683,-0.25316736102104187,1.8907191753387451,0.8959683179855347,0.5435208678245544,0.6834941506385803,-8.822689056396484,-13.92978286743164,-0.4394305646419525,0.7201704978942871,0.423162579536438,1.2112154960632324,0.8667216300964355,0.13398393988609314,0.32699495553970337,0.6239594221115112,0.42000001668930054,-0.40925970673561096,3.0000100135803223,-0.8965048789978027,-2.999007225036621,-0.19391319155693054,-0.18783192336559296,-0.18019193410873413,-0.17098957300186157,-0.4252869188785553,-0.2622090280056,-0.07337378710508347,0.13266028463840485
0.4166666666666667,-0.04949717968702316,0.056268688291311264,0.0,0.8854328393936157,0.0,0.0,-0.4647673964500427,-0.3185115456581116,-1.160818338394165,0.0,0.0,0.0,-9.025870323181152,-0.3906692862510681,0.7341151833534241,0.42666348814964294,0.953650712966919,0.021296117454767227,-0.029948538169264793,-0.29866352677345276,3.4831748008728027,1.9216057062149048,0.502441942691803,17.417369842529297,-12.0782470703125,8.204292297363281,-0.4015182852745056,0.74256831407547,0.427615761756897,3.1334900856018066,1.741133213043213,0.5174363255500793,0.32699495553970337,0.6239594221115112,0.42000001668930054,-0.38048240542411804,0.8374567031860352,-0.8596606254577637,2.9977355003356934,-0.20301125943660736,-0.1935424953699112,-0.18217165768146515,-0.1690671443939209,-0.5638457536697388,-0.34415966272354126,-0.10865632444620132,0.13171899318695068
0.43333333333333335,-0.052978500723838806,0.0417933352291584,0.0,0.8393288850784302,0.0,0.0,-0.5436239242553711,-0.13611268997192383,-0.8417105078697205,0.0,0.0,0.0,-11.629434585571289,-0.31402388215065,0.7686756253242493,0.434568852186203,0.9320034980773926,0.08691401779651642,-0.07547454535961151,-0.34368428587913513,6.01475191116333,1.9958233833312988,0.6328506469726562,9.936676025390625,-14.33743667602539,24.586694717407227,-0.3237546384334564,0.7785725593566895,0.4353790283203125,5.735921382904053,2.610175371170044,0.5513814091682434,0.32699495553970337,0.6239594221115112,0.42000001668930054,-0.3694762587547302,0.5764943957328796,-0.8096463680267334,2.996187925338745,-0.21606513857841492,-0.20290347933769226,-0.18705493211746216,-0.16970449686050415,-0.6018962860107422,-0.479984849691391,-0.2673795819282532,-0.07399843633174896
0.45,-0.05876649543642998,0.0322406105697155,0.0,0.801598846912384,0.0,0.0,-0.5978623032569885,-0.35143721103668213,-0.5111265778541565,0.0,0.0,0.0,-6.603719234466553,-0.21944808959960938,0.8032048940658569,0.447168231010437,0.8811556696891785,0.12960532307624817,-0.09404850751161575,-0.44488421082496643,5.973740577697754,1.2866051197052002,0.7458333969116211,2.715252637863159,-20.53091812133789,12.510563850402832,-0.22902092337608337,0.8159832954406738,0.447686105966568,5.771080017089844,1.8400099277496338,0.869149923324585,0.32699495553970337,0.6239594221115112,0.42000001668930054,-0.35761934518814087,0.8135363459587097,-0.8366764783859253,-3.0000033378601074,-0.22870030999183655,-0.2131485939025879,-0.1939132958650589,-0.17365683615207672,-0.6557926535606384,-0.539311945438385,-0.38080909848213196,-0.2515764832496643
0.4666666666666667,-0.060197338461875916,0.017513031139969826,0.0,0.7831839919090271,0.0,0.0,-0.6217899918556213,-0.10379637032747269,-0.8663535118103027,0.0,0.0,0.0,-2.456739902496338,-0.12193195521831512,0.8216553330421448,0.4589540362358093,0.8109501600265503,0.11896324157714844,-0.12864433228969574,-0.5582635402679443,5.437049388885498,-0.5752324461936951,0.6272775530815125,-20.973920822143555,-3.765821933746338,39.646427154541016,-0.13166798651218414,0.8372650146484375,0.46116286516189575,6.084048748016357,0.6007504463195801,0.9775005578994751,0.32699495553970337,0.6239594221115112,0.42000001668930054,-0.34306493401527405,0.7014473676681519,-0.886700451374054,-2.999688148498535,-0.23549261689186096,-0.21771517395973206,-0.195749431848526,-0.1731952726840973,-0.5997363924980164,-0.3866993486881256,-0.15755757689476013,0.04210936278104782
0.48333333333333334,-0.06487362831830978,0.00845861341804266,0.0,0.7565323710441589,0.0,0.0,-0.6539562344551086,-0.2840658128261566,-0.5238076448440552,0.0,0.0,0.0,-5.663305759429932,-0.027151331305503845,0.8177922368049622,0.46906784176826477,0.7508442997932434,0.11676906049251556,-0.11881839483976364,-0.6391244530677795,5.248717784881592,-1.7216322422027588,0.4735003709793091,-24.73687744140625,-4.470410346984863,32.11064910888672,-0.034752096980810165,0.8350368738174438,0.47242140769958496,6.011197090148926,-0.5520875453948975,0.5921097993850708,0.32699495553970337,0.6239594221115112,0.42000001668930054,-0.33334219455718994,0.3502110540866852,-0.9367251992225647,-3.0000014305114746,-0.2398328185081482,-0.22782431542873383,-0.20160777866840363,-0.17532970011234283,0.025347700342535973,-0.4852975010871887,-0.2734188735485077,-0.08454813063144684
0.5,-0.06688403338193893,0.0026184585876762867,0.0,0.7438854575157166,0.0,0.0,-0.6683071255683899,-0.06042513996362686,-0.2704610526561737,0.0,0.0,0.0,-1.1570682525634766,0.06322300434112549,0.7994744181632996,0.4733090400695801,0.6670107841491699,0.034179382026195526,-0.14115336537361145,-0.7307556867599487,4.992317199707031,-1.681345820426941,0.5310279726982117,-30.06473159790039,22.99681282043457,-27.425804138183594,0.05700651556253433,0.8179994821548462,0.4787694215774536,5.261544227600098,-1.5000224113464355,0.14360058307647705,0.32699495553970337,0.6239594221115112,0.42000001668930054,-0.3274683952331543,0.37611958384513855,-0.9867492914199829,-2.9984631538391113,-0.23927940428256989,-0.2340964525938034,-0.20522765815258026,-0.17668326199054718,0.08328217267990112,-0.24700279533863068,-0.14613577723503113,-0.06826620548963547
0.5166666666666666,-0.06485751271247864,-0.007466447539627552,0.0,0.7224865555763245,0.0,0.0,-0.6913849711418152,0.11815666407346725,-0.6257224678993225,0.0,0.0,0.0,-4.58212423324585,0.14377696812152863,0.7734723091125488,0.4694196879863739,0.592487096786499,-0.02138742431998253,-0.16308563947677612,-0.7886093258857727,4.485898494720459,-2.0365123748779297,-0.059537917375564575,-20.33637046813965,22.014423370361328,6.162983417510986,0.13893619179725647,0.7927473783493042,0.47888827323913574,4.530333042144775,-1.8131743669509888,-0.23046834766864777,0.32699495553970337,0.6239594221115112,0.42000001668930054,-0.3193361461162567,0.6018770337104797,-1.0367718935012817,-3.000000476837158,-0.23317644000053406,-0.2328234165906906,-0.20361976325511932,-0.17498779296875,0.31653904914855957,0.11782821267843246,0.11644270271062851,0.09921175986528397
0.5333333333333333,-0.06119050830602646,-0.012392640113830566,0.0,0.7134488821029663,0.0,0.0,-0.7007073163986206,0.2668696641921997,-0.26308631896972656,0.0,0.0,0.0,-0.49373114109039307,0.21025224030017853,0.7382093667984009,0.46325579285621643,0.5439460873603821,-0.056861668825149536,-0.12983638048171997,-0.82706218957901,3.550166368484497,-2.785508871078491,-0.1053290069103241,3.6635985374450684,13.92318058013916,1.8998937606811523,0.20788198709487915,0.7577061653137207,0.47348684072494507,3.766273021697998,-2.240154266357422,-0.5395694971084595,0.32699495553970337,0.6239594221115112,0.42000001668930054,-0.3112395107746124,0.3287811875343323,-1.0867940187454224,-2.999272108078003,-0.23175738751888275,-0.2328806072473526,-0.20363576710224152,-0.17532965540885925,0.2177480310201645,0.1389680802822113,0.07161807268857956,-0.010323898866772652
0.55,-0.059110525995492935,-0.014040124602615833,0.0,0.6970125436782837,0.0,0.0,-0.7170588970184326,0.06898847222328186,-0.03322429582476616,0.0,0.0,0.0,-3.657769203186035,0.2651311755180359,0.7019442319869995,0.45060837268829346,0.5081713199615479,-0.09462164342403412,-0.10400038957595825,-0.8497014045715332,2.7433717250823975,-2.486585855484009,-0.6750344634056091,3.9666829109191895,13.5880765914917,2.1356232166290283,0.2647397518157959,0.7211248874664307,0.46141284704208374,3.0248117446899414,-2.201707601547241,-0.9004496335983276,0.32699495553970337,0.6239594221115112,0.42000001668930054,-0.3060062825679779,0.37457945942878723,-1.136816143989563,-2.99882173538208,-0.22693440318107605,-0.22941793501377106,-0.20242230594158173,-0.1764415204524994,0.3482728898525238,0.277191698551178,0.09395873546600342,-0.08966676145792007
0.5666666666666667,-0.05526364594697952,-0.01970982924103737,0.0,0.6926910877227783,0.0,0.0,-0.7212343811988831,0.21817411482334137,-0.31696730852127075,0.0,0.0,0.0,0.2106134295463562,0.3058130741119385,0.6675193905830383,0.4341173470020294,0.47906774282455444,-0.1296708881855011,-0.07929861545562744,-0.864517867565155,1.7923638820648193,-2.197126865386963,-0.8199747204780579,1.3792221546173096,13.05798625946045,-2.27716326713562,0.3072777986526489,0.6857820749282837,0.4453287124633789,2.001776933670044,-2.0649333000183105,-1.0758581161499023,0.32699495553970337,0.6239594221115112,0.42000001668930054,-0.2957881987094879,0.7105022668838501,-1.1825213432312012,-2.4860925674438477,-0.2166336625814438,-0.22059163451194763,-0.19772034883499146,-0.17578278481960297,0.5258258581161499,0.47451120615005493,0.22190004587173462,-0.027931926771998405
0.5833333333333334,-0.04988708719611168,-0.020961299538612366,0.0,0.6789497137069702,0.0,0.0,-0.7341848015785217,0.3987775444984436,-0.06425339728593826,0.0,0.0,0.0,-3.018217086791992,0.3330753445625305,0.6462537050247192,0.42196452617645264,0.48916614055633545,-0.027138901874423027,-0.012045304290950298,-0.8716849684715271,1.2722203731536865,-1.2696717977523804,-0.14203307032585144,-0.6092473864555359,-9.29869556427002,13.487707138061523,0.3317522406578064,0.6592427492141724,0.4296150207519531,0.8449272513389587,-1.0777790546417236,-0.43089890480041504,0.32699495553970337,0.6239594221115112,0.42000001668930054,-0.2836798429489136,0.7517039179801941,-1.1426657438278198,3.0000033378601074,-0.20737752318382263,-0.21260428428649902,-0.19466398656368256,-0.1774284690618515,0.69330894947052,0.5857171416282654,0.24771422147750854,-0.06519558280706406
0.6,-0.04614461213350296,-0.025912633165717125,0.0,0.6782847046852112,0.0,0.0,-0.7347991466522217,0.1672964245080948,-0.3104535639286041,0.0,0.0,0.0,0.8329206705093384,0.3418968915939331,0.6315816044807434,0.4213916063308716,0.4961737394332886,-0.017635203897953033,0.0317833386361599,-0.8674620389938354,-0.021010810509324074,-1.166085124015808,0.24573522806167603,7.771902561187744,11.419776916503906,6.1144022941589355,0.33982574939727783,0.6432087421417236,0.4287167191505432,0.08319838345050812,-0.83936607837677,0.1603367030620575,0.32699495553970337,0.6239594221115112,0.42000001668930054,-0.28434744477272034,-0.7692452669143677,-1.1647515296936035,-2.9979827404022217,-0.19553282856941223,-0.2020174264907837,-0.18939156830310822,-0.17707684636116028,0.5748406052589417,0.541960597038269,0.25624018907546997,-0.009328155778348446
0.6166666666666667,-0.04164828732609749,-0.02695411629974842,0.0,0.6679967045783997,0.0,0.0,-0.744164228439331,0.30456429719924927,-0.036931004375219345,0.0,0.0,0.0,-2.4584531784057617,0.34317800402641296,0.6237521171569824,0.4204407036304474,0.5379825830459595,-0.005744398571550846,0.010209891013801098,-0.8428745269775391,-0.033550720661878586,-0.31385666131973267,-0.020400188863277435,-0.038196269422769547,-0.7460358142852783,8.777423858642578,0.33960163593292236,0.6345185041427612,0.42710500955581665,-0.08251159638166428,-0.21793687343597412,-0.10949970036745071,0.32699495553970337,0.6239594221115112,0.42000001668930054,-0.28682610392570496,0.375897616147995,-1.1269596815109253,2.9981400966644287,-0.1861947774887085,-0.1936211735010147,-0.18604198098182678,-0.17834004759788513,0.6606510281562805,0.5758857727050781,0.2534538507461548,-0.037878479808568954
0.6333333333333333,-0.03502626717090607,-0.031036216765642166,0.0,0.6702255010604858,0.0,0.0,-0.742157518863678,0.4296411871910095,-0.26599863171577454,0.0,0.0,0.0,1.2227977514266968,0.34056955575942993,0.6206631660461426,0.4200013279914856,0.5680090188980103,-6.27186891506426e-05,-0.00011710110265994444,-0.8230222463607788,-0.2388986200094223,-0.17039141058921814,-0.0011773016303777695,0.1376359462738037,0.031873222440481186,2.708791732788086,0.33630603551864624,0.631417989730835,0.42825424671173096,-0.34601518511772156,-0.16604956984519958,0.1375332623720169,0.32699495553970337,0.6239594221115112,0.42000001668930054,-0.3205869197845459,-2.9998323917388916,-1.1490951776504517,-2.9999401569366455,-0.1757480949163437,-0.184098020195961,-0.18128474056720734,-0.17789465188980103,0.490140438079834,0.47219860553741455,0.2309960275888443,0.011669249273836613
0.65,-0.025811225175857544,-0.032089896500110626,0.0,0.6913043856620789,0.0,0.0,-0.7225636839866638,0.597044050693512,-0.023541608825325966,0.0,0.0,0.0,4.398619174957275,0.33713409304618835,0.6184015870094299,0.41999974846839905,0.5815209746360779,-2.6675874323700555e-05,-1.5213731785479467e-05,-0.8135313987731934,-0.19117137789726257,-0.11185234040021896,-0.0007827566587366164,0.0175037682056427,-0.021260829642415047,1.6126738786697388,0.3325645625591278,0.6307684183120728,0.4304257035255432,-0.1195862665772438,0.10966174304485321,0.13685481250286102,0.32699495553970337,0.6239594221115112,0.42000001668930054,-0.36821991205215454,-2.697572708129883,-1.199045181274414,-2.997838258743286,-0.16875429451465607,-0.17738035321235657,-0.178252711892128,-0.17815031111240387,0.45677995681762695,0.42960307002067566,0.21504169702529907,0.025233536958694458
0.6666666666666666,-0.018671613186597824,-0.036606717854738235,0.0,0.6996110677719116,0.0,0.0,-0.7145238518714905,0.34103092551231384,-0.2784798741340637,0.0,0.0,0.0,0.30475112795829773,0.33480075001716614,0.6170796751976013,0.4199998080730438,0.5917824506759644,6.9767979766766075e-06,-2.0958850655006245e-05,-0.8060977458953857,-0.1322588473558426,-0.06384821981191635,-0.00025786596233956516,0.01711420528590679,0.010917412117123604,1.0258188247680664,0.3308664560317993,0.6336959600448608,0.4333987534046173,-0.11965584009885788,0.12559226155281067,0.2024429589509964,0.32699495553970337,0.6239594221115112,0.42000001668930054,-0.41816917061805725,-2.9999654293060303,-1.2490105628967285,-2.998919725418091,-0.1600703001022339,-0.16901901364326477,-0.17303399741649628,-0.17568449676036835,0.3840497136116028,0.40506815910339355,0.271232008934021,0.15538260340690613
0.6833333333333333,-0.011007342487573624,-0.03810017183423042,0.0,0.7109848856925964,0.0,0.0,-0.70320725440979,0.496957927942276,-0.03244906663894653,0.0,0.0,0.0,2.6698060035705566,0.3327716588973999,0.6164162755012512,0.42000025510787964,0.5806900858879089,-1.3814431440550834e-05,2.1531711809075205e-06,-0.814124584197998,-0.11722873151302338,-0.03709499537944794,-0.00041666009929031134,0.0034241722896695137,-0.01346295140683651,-2.5688130855560303,0.3281800150871277,0.6341843605041504,0.4382489323616028,-0.14824552834033966,-0.015835881233215332,0.42605578899383545,0.32699495553970337,0.6239594221115112,0.42000001668930054,-0.46818286180496216,-3.000002145767212,-1.2990288734436035,-3.000000476837158,-0.15644973516464233,-0.16427837312221527,-0.16935132443904877,-0.1727176010608673,0.2217254936695099,0.2995970547199249,0.27055713534355164,0.26644933223724365
0.7,-0.0014160111313685775,-0.041977137327194214,0.0,0.7100694179534912,0.0,0.0,-0.7041317224502563,0.6008101105690002,-0.27506664395332336,0.0,0.0,0.0,-1.1247156858444214,0.33173754811286926,0.6160007119178772,0.4200001657009125,0.5674961805343628,1.1101585641881684e-06,6.841750291641802e-06,-0.8233759999275208,-0.044011738151311874,-0.019337764009833336,-0.00023142679128795862,-0.012669824063777924,-0.004364647902548313,-1.7215242385864258,0.33017784357070923,0.6346838474273682,0.4464733600616455,0.296206533908844,-0.02992679551243782,0.6871063113212585,0.32699495553970337,0.6239594221115112,0.42000001668930054,-0.5181954503059387,-3.000002145767212,-1.3490471839904785,-3.0000007152557373,-0.153355672955513,-0.1595480889081955,-0.16443617641925812,-0.1672043353319168,0.08164409548044205,0.21277283132076263,0.2728470265865326,0.3551890552043915
0.7166666666666667,0.010116047225892544,-0.04952550306916237,0.0,0.6897712349891663,0.0,0.0,-0.7240273356437683,0.7340583801269531,-0.526749849319458,0.0,0.0,0.0,-4.256071090698242,0.3315940499305725,0.6159372925758362,0.4199996590614319,0.5652183890342712,2.5410065518371994e-06,-1.2420148777891882e-05,-0.8249412775039673,-2.5171017114189453e-05,-0.0009667659760452807,-2.4715671315789223e-05,0.038708169013261795,-0.020319385454058647,8.301677735289559e-05,0.3420261740684509,0.6353257298469543,0.4649485945701599,1.0763792991638184,0.061314214020967484,1.6510429382324219,0.32699495553970337,0.6239594221115112,0.42000001668930054,-0.5682078003883362,-2.9999794960021973,-1.3990654945373535,-2.9999990463256836,-0.1545184850692749,-0.15826843678951263,-0.16165287792682648,-0.16260139644145966,-0.14621089398860931,0.00872468575835228,0.11962586641311646,0.2458854764699936
0.7333333333333333,0.02496192418038845,-0.052423086017370224,0.0,0.6614781618118286,0.0,0.0,-0.7499644160270691,0.8694033026695251,-0.1584058254957199,0.0,0.0,0.0,-4.56616735458374,0.33159494400024414,0.6159374713897705,0.41999995708465576,0.5652183294296265,-1.2794831718565547e-06,-5.271742793411249e-06,-0.8249413967132568,9.281065285904333e-05,-0.00038425691309385,-7.45607540011406e-05,0.009820633567869663,-0.002973872935399413,-0.0009743394330143929,0.36371225118637085,0.636907696723938,0.4966123104095459,1.568110704421997,0.26653528213500977,2.2103610038757324,0.32699495553970337,0.6239594221115112,0.42000001668930054,-0.6083297729492188,-1.8817251920700073,-1.4490838050842285,-3.000000238418579,-0.16191703081130981,-0.1628463715314865,-0.16402438282966614,-0.16264881193637848,-0.2924625277519226,-0.18742340803146362,-0.10669772326946259,-0.01831536740064621
0.75,0.036531466990709305,-0.052944038063287735,0.0,0.6523873805999756,0.0,0.0,-0.7578856945037842,0.6312651038169861,-0.01232339721173048,0.0,0.0,0.0,-0.4139987826347351,0.33159494400024414,0.6159374713897705,0.41999995708465576,0.565218448638916,-1.5658347365388181e-06,-5.612233508145437e-06,-0.8249412775039673,8.696314034750685e-05,-0.00039001673576422036,-7.542991079390049e-05,0.009974335320293903,-0.0030790711753070354,-0.0009733261540532112,0.38739871978759766,0.6410396099090576,0.530403196811676,1.2713289260864258,0.28224417567253113,1.85331392288208,0.32699495553970337,0.6239594221115112,0.42000001668930054,-0.6114206314086914,1.242183804512024,-1.4991021156311035,-2.999999761581421,-0.16583824157714844,-0.1653236448764801,-0.16535671055316925,-0.16280531883239746,-0.11931303888559341,-0.06528162956237793,-0.023487459868192673,0.015962524339556694
0.7666666666666666,0.04397851228713989,-0.05117464438080788,0.0,0.6663628816604614,0.0,0.0,-0.7456276416778564,0.382026344537735,0.16146129369735718,0.0,0.0,0.0,3.0589377880096436,0.33159494400024414,0.6159375309944153,0.41999995708465576,0.5652183890342712,-1.6842558352436754e-06,-5.611948381556431e-06,-0.8249412775039673,8.548340701963753e-05,-0.00038980107638053596,-7.543782703578472e-05,0.00996578112244606,-0.0030781233217567205,-0.0009692725143395364,0.40169066190719604,0.6451205015182495,0.557246208190918,0.41950926184654236,0.26393812894821167,1.432323694229126,0.32699495553970337,0.6239594221115112,0.42000001668930054,-0.571872353553772,2.999988317489624,-1.460377812385559,3.000000238418579,-0.166847363114357,-0.1655997335910797,-0.16501979529857635,-0.16196972131729126,0.0034998406190425158,0.03604511171579361,0.06432004272937775,0.08148423582315445
0.7833333333333333,0.04677394777536392,-0.054305706173181534,0.0,0.667645275592804,0.0,0.0,-0.7444795370101929,0.1470639854669571,-0.14757859706878662,0.0,0.0,0.0,-0.6606428027153015,0.33159494400024414,0.6159374713897705,0.41999995708465576,0.5652183294296265,-1.6018865380829084e-06,-5.386355041991919e-06,-0.8249413371086121,8.615709521109238e-05,-0.00038982785190455616,-7.541780360043049e-05,0.009968086145818233,-0.0030788525473326445,-0.0009709350415505469,0.4026910662651062,0.6521755456924438,0.5752853155136108,-0.41781893372535706,0.282997190952301,0.8485503196716309,0.32699495553970337,0.6239594221115112,0.42000001668930054,-0.5462571978569031,0.28980883955955505,-1.410325050354004,2.999998092651367,-0.1615108847618103,-0.1606311798095703,-0.16040366888046265,-0.15788787603378296,0.06522544473409653,0.09497272223234177,0.12268904596567154,0.13001179695129395
0.8,0.0469740629196167,-0.05271659046411514,0.0,0.6793931126594543,0.0,0.0,-0.7337744832038879,-0.029735127463936806,0.15504778921604156,0.0,0.0,0.0,2.6983730792999268,0.33159494400024414,0.6159375309944153,0.41999995708465576,0.5652182698249817,-1.6931176105572376e-06,-5.595517905021552e-06,-0.8249413371086121,8.576286199968308e-05,-0.0003898224385920912,-7.544271647930145e-05,0.009966699406504631,-0.0030793764162808657,-0.0009700626833364367,0.39361587166786194,0.6552159786224365,0.5854406356811523,-0.620681881904602,0.19910459220409393,0.42070305347442627,0.32699495553970337,0.6239594221115112,0.42000001668930054,-0.5215702056884766,2.4634385108947754,-1.3602724075317383,2.999999523162842,-0.16196143627166748,-0.16029508411884308,-0.15928290784358978,-0.1563694179058075,0.028897101059556007,0.061671145260334015,0.09738220274448395,0.11032309383153915
0.8166666666666667,0.04485582560300827,-0.054131750017404556,0.0,0.678526759147644,0.0,0.0,-0.7345756888389587,-0.20391975343227386,-0.053656622767448425,0.0,0.0,0.0,-0.903258204460144,0.33159494400024414,0.6159375309944153,0.41999995708465576,0.565218448638916,-1.6911100146899116e-06,-5.573942871706095e-06,-0.8249411582946777,8.630477532278746e-05,-0.00038969764136709273,-7.539475336670876e-05,0.009964785538613796,-0.003077036002650857,-0.0009710137965157628,0.37892621755599976,0.6588544249534607,0.5879940986633301,-1.227654218673706,0.1649782806634903,0.031345561146736145,0.32699495553970337,0.6239594221115112,0.42000001668930054,-0.5125031471252441,-1.0779136419296265,-1.3102197647094727,2.999999761581421,-0.16017475724220276,-0.15830615162849426,-0.1570064276456833,-0.15417282283306122,-0.03396568447351456,-8.381903171539307e-09,0.03960581123828888,0.053169842809438705
0.8333333333333334,0.04416429251432419,-0.05559597164392471,0.0,0.6887481212615967,0.0,0.0,-0.7250006794929504,0.015060795471072197,-0.18331199884414673,0.0,0.0,0.0,2.4118447303771973,0.33159494400024414,0.6159375309944153,0.41999995708465576,0.5652182102203369,-1.6958301785052754e-06,-5.562810656556394e-06,-0.8249413967132568,8.592973608756438e-05,-0.0003896615235134959,-7.54187349230051e-05,0.009962358511984348,-0.003077514935284853,-0.0009701582603156567,0.36304667592048645,0.6604917049407959,0.5870271921157837,-0.6647570133209229,0.10332396626472473,-0.08409271389245987,0.32699495553970337,0.6239594221115112,0.42000001668930054,-0.5078752040863037,1.4138413667678833,-1.2602128982543945,3.000000238418579,-0.16189546883106232,-0.1590573489665985,-0.15663252770900726,-0.1530553698539734,-0.06728582084178925,-0.010427126660943031,0.060289617627859116,0.1129414364695549
0.85,0.04607575759291649,-0.06045173481106758,0.0,0.6870779991149902,0.0,0.0,-0.7265836596488953,0.15185214579105377,-0.3611270785331726,0.0,0.0,0.0,-1.0972964763641357,0.33159494400024414,0.6159375309944153,0.41999995708465576,0.5652183890342712,-1.7021363873936934e-06,-5.547200089495163e-06,-0.8249412178993225,8.632332901470363e-05,-0.0003896697307936847,-7.539312355220318e-05,0.009963964112102985,-0.003076901426538825,-0.0009710246231406927,0.3550492823123932,0.6612125039100647,0.5841256976127625,-0.31491705775260925,-0.07117650657892227,-0.08244894444942474,0.32699495553970337,0.6239594221115112,0.42000001668930054,-0.5244535207748413,-2.999995470046997,-1.210160255432129,3.000000238418579,-0.16431070864200592,-0.1604384332895279,-0.15668059885501862,-0.15198932588100433,-0.15244106948375702,-0.08679074794054031,4.773028194904327e-09,0.07478127628564835
0.8666666666666667,0.05064353719353676,-0.062423400580883026,0.0,0.6654335856437683,0.0,0.0,-0.746457040309906,0.3154776692390442,-0.10805413872003555,0.0,0.0,0.0,-4.28127908706665,0.33159494400024414,0.6159375309944153,0.41999995708465576,0.5652182698249817,-1.696143158369523e-06,-5.502951353264507e-06,-0.8249412775039673,8.59736610436812e-05,-0.000389789609471336,-7.54217617213726e-05,0.00996644888073206,-0.0030784180853515863,-0.000970438530202955,0.3572288751602173,0.65882408618927,0.5808581113815308,0.5642651915550232,-0.2010279893875122,-0.12757575511932373,0.32699495553970337,0.6239594221115112,0.42000001668930054,-0.5524201989173889,-0.5449785590171814,-1.2314741611480713,-3.0,-0.16871604323387146,-0.16357196867465973,-0.15810169279575348,-0.15178047120571136,-0.1670617014169693,-0.10603445768356323,-0.013358539901673794,0.08182738721370697
0.8833333333333333,0.057543423026800156,-0.06154683977365494,0.0,0.658958911895752,0.0,0.0,-0.7521789073944092,0.44466763734817505,0.11826169490814209,0.0,0.0,0.0,-0.0641588568687439,0.33159494400024414,0.6159375309944153,0.41999995708465576,0.5652185082435608,-1.6967385363386711e-06,-5.496659014170291e-06,-0.8249412178993225,8.602147863712162e-05,-0.00038962208782322705,-7.539871148765087e-05,0.00996174942702055,-0.003076240187510848,-0.0009702173992991447,0.36578691005706787,0.6579771041870117,0.5826341509819031,0.47451192140579224,0.08704715222120285,0.3223663866519928,0.32699495553970337,0.6239594221115112,0.42000001668930054,-0.5390805006027222,1.920992374420166,-1.281496286392212,-3.0000009536743164,-0.17028838396072388,-0.16500341892242432,-0.15892808139324188,-0.1519618183374405,-0.02393604815006256,-0.059256840497255325,-0.07203012704849243,-0.08381371200084686
0.9,0.06164620816707611,-0.06560786068439484,0.0,0.675471842288971,0.0,0.0,-0.7373857498168945,0.25566428899765015,-0.2813921570777893,0.0,0.0,0.0,3.336728096008301,0.33159494400024414,0.6159374713897705,0.41999995708465576,0.565218448638916,-1.5455865423064097e-06,-5.718397460441338e-06,-0.8249412775039673,8.73019962455146e-05,-0.0003899410949088633,-7.541966624557972e-05,0.009972702711820602,-0.0030785147100687027,-0.0009737431537359953,0.3705214262008667,0.658790111541748,0.585504412651062,0.07535931468009949,-0.10622505843639374,-0.0012326426804065704,0.32699495553970337,0.6239594221115112,0.42000001668930054,-0.5350872278213501,-1.1760801076889038,-1.2433831691741943,3.000000238418579,-0.16562388837337494,-0.16137541830539703,-0.15604250133037567,-0.14982181787490845,0.15875346958637238,0.13122081756591797,0.11284337192773819,0.08788666874170303
