vladlanda/robotic-transformer/data/env_000_episode_0177.csv
sim_time_s,robot_box_x,robot_box_y,robot_box_z,robot_box_quat_w,robot_box_quat_x,robot_box_quat_y,robot_box_quat_z,robot_box_linvel_x,robot_box_linvel_y,robot_box_linvel_z,robot_box_angvel_x,robot_box_angvel_y,robot_box_angvel_z,cube_world_x,cube_world_y,cube_world_z,cube_quat_w,cube_quat_x,cube_quat_y,cube_quat_z,cube_linvel_x,cube_linvel_y,cube_linvel_z,cube_angvel_x,cube_angvel_y,cube_angvel_z,endpoint_world_x,endpoint_world_y,endpoint_world_z,endpoint_linvel_x,endpoint_linvel_y,endpoint_linvel_z,target_cube_world_x,target_cube_world_y,target_cube_world_z,gripper_actual_pos_rad_gp_leftgearjoint,gripper_actual_vel_rad_s_gp_leftgearjoint,gripper_actual_pos_rad_gp_rotatingjoint,gripper_actual_vel_rad_s_gp_rotatingjoint,motor_angle_rad_joint1,motor_angle_rad_joint2,motor_angle_rad_joint3,motor_angle_rad_joint4,motor_speed_rad_s_joint1,motor_speed_rad_s_joint2,motor_speed_rad_s_joint3,motor_speed_rad_s_joint4
0.0,0.0,0.0,0.0,1.0,0.0,0.0,0.0,0.0,0.0,0.0,0.0,0.0,0.0,-0.42334866523742676,0.7525695562362671,0.41999998688697815,1.0,0.0,0.0,0.0,0.0,0.0,0.0,0.0,0.0,0.0,3.42540442943573e-06,-0.005000244826078415,1.313499927520752,0.0,0.0,0.0,0.3789120316505432,0.7315282821655273,0.42000001668930054,-1.5707999467849731,0.0,0.0,0.0,0.0,0.0,0.0,0.0,0.0,0.0,0.0,0.0
0.016666666666666666,0.0028778850100934505,0.0021806680597364902,0.0,0.9998081922531128,0.0,0.0,0.019586581736803055,0.24087215960025787,0.18240931630134583,0.0,0.0,0.0,3.1418697834014893,-0.4233487844467163,0.7525692582130432,0.41999998688697815,1.0,3.279964630564791e-06,-8.339746386809566e-07,8.465587342243452e-08,-1.9833529222523794e-05,0.00017983045836444944,-6.132945418357849e-05,0.0009432713268324733,-0.004689474124461412,-0.00031981561915017664,-0.007110234349966049,0.003379564033821225,1.3159373998641968,-0.8143353462219238,0.9868683815002441,0.18095196783542633,0.3789120316505432,0.7315282821655273,0.42000001668930054,-1.5301095247268677,3.0000011920928955,-0.04584788903594017,-2.9999992847442627,0.0008691533003002405,0.0007963840034790337,0.0007110277656465769,0.0006108740926720202,0.11094217747449875,0.09756709635257721,0.08334315568208694,0.06823883205652237
0.03333333333333333,0.008960996754467487,0.006802016869187355,0.0,0.9997960329055786,0.0,0.0,0.02019684575498104,0.40702229738235474,0.3153077960014343,0.0,0.0,0.0,-0.8691329956054688,-0.42334890365600586,0.7525691986083984,0.4200000464916229,1.0,3.390805204617209e-06,-2.132404688381939e-06,-3.708747797759315e-08,0.0002635775599628687,0.0002693787682801485,-0.0001050964929163456,-0.0017706695944070816,0.004130705259740353,-0.00013547964044846594,-0.027555888518691063,0.026282675564289093,1.3165829181671143,-1.5913159847259521,1.6162846088409424,-0.08673229813575745,0.3789120316505432,0.7315282821655273,0.42000001668930054,-1.4800904989242554,3.0000007152557373,-0.09588771313428879,-2.999999761581421,0.0029900947120040655,0.0026526954025030136,0.002277255989611149,0.0018607026431709528,0.16421279311180115,0.13975581526756287,0.11381411552429199,0.08629565685987473
0.05,0.017376676201820374,0.013697359710931778,0.0,0.9995449185371399,0.0,0.0,0.030165670439600945,0.5722340941429138,0.45663973689079285,0.0,0.0,0.0,2.3204197883605957,-0.42334893345832825,0.7525692582130432,0.4200000464916229,1.0,3.765131168620428e-06,-2.2118479137134273e-06,5.629145594099327e-09,0.00026531046023592353,0.00026691515813581645,-0.00010440382175147533,-0.001724305097013712,0.004177468363195658,-0.00012949509255122393,-0.059365347027778625,0.05510055273771286,1.3113112449645996,-2.1756696701049805,1.8318395614624023,-0.501978874206543,0.3789120316505432,0.7315282821655273,0.42000001668930054,-1.4300721883773804,3.00000262260437,-0.1459263563156128,-3.0,0.005565726663917303,0.004780511371791363,0.0039232587441802025,0.0029893715400248766,0.18517237901687622,0.14856067299842834,0.11009004712104797,0.0696607381105423
0.06666666666666667,0.028381148353219032,0.022834088653326035,0.0,0.9996747970581055,0.0,0.0,0.02550147846341133,0.7053984999656677,0.584818959236145,0.0,0.0,0.0,-1.5053844451904297,-0.42334893345832825,0.7525691986083984,0.4200000464916229,0.9999999403953552,3.406752739465446e-06,-2.2855651877762284e-06,4.3010143713217985e-07,0.0002670265967026353,0.000267917406745255,-0.00010437914170324802,-0.0017406505066901445,0.004211799707263708,-0.00012850486382376403,-0.09444881975650787,0.09143222868442535,1.2993741035461426,-2.0832886695861816,2.4003682136535645,-0.9026859998703003,0.3789120316505432,0.7315282821655273,0.42000001668930054,-1.3800538778305054,3.0000016689300537,-0.19596366584300995,-3.0000014305114746,0.0077378456480801105,0.006147975567728281,0.0044473037123680115,0.002629705239087343,0.11034074425697327,0.047156430780887604,-0.018075399100780487,-0.08540154993534088
0.08333333333333333,0.03359362110495567,0.03537914901971817,0.0,0.9999473690986633,0.0,0.0,-0.010260323993861675,0.1745830774307251,0.8223886489868164,0.0,0.0,0.0,-5.228537559509277,-0.42334893345832825,0.7525691986083984,0.4200000464916229,1.0,3.6972376165067544e-06,-2.188903863498126e-06,-2.6322030066694424e-07,0.00026389601407572627,0.0002658639568835497,-0.00010434049181640148,-0.0017081866972148418,0.004150202497839928,-0.00012991315452381968,-0.12696120142936707,0.13536150753498077,1.2808234691619873,-1.863046646118164,2.7597761154174805,-1.2425734996795654,0.3789120316505432,0.7315282821655273,0.42000001668930054,-1.3300292491912842,2.999994993209839,-0.16570086777210236,2.9999988079071045,0.0039446703158319,0.0016039879992604256,-0.0008986253524199128,-0.0035729464143514633,-0.3316596746444702,-0.38126683235168457,-0.433454692363739,-0.48847752809524536
0.1,0.0435878224670887,0.04913730174303055,0.0,0.9995331168174744,0.0,0.0,-0.030553454533219337,0.673605740070343,0.8460071682929993,0.0,0.0,0.0,-0.9020102620124817,-0.42334893345832825,0.7525691986083984,0.4200000464916229,0.9999999403953552,3.6203459785610903e-06,-2.2651347535429522e-06,1.7462500068177178e-07,0.000266767485300079,0.0002674072457011789,-0.0001040799543261528,-0.0017386269755661488,0.0042091254144907,-0.0001277512201340869,-0.16018113493919373,0.17812326550483704,1.2625150680541992,-2.007925033569336,2.603790283203125,-1.0987255573272705,0.3789120316505432,0.7315282821655273,0.42000001668930054,-1.2800339460372925,3.000000238418579,-0.19736750423908234,-2.999999761581421,0.004135379567742348,9.124907955992967e-05,-0.004106590989977121,-0.00846688449382782,-0.00734114833176136,-0.11388090252876282,-0.21951386332511902,-0.3241634964942932
0.11666666666666667,0.05124354735016823,0.06524903327226639,0.0,0.9982547163963318,0.0,0.0,-0.05905560031533241,0.45285022258758545,1.0219156742095947,0.0,0.0,0.0,-4.1144795417785645,-0.42334893345832825,0.7525691986083984,0.4200000464916229,1.0,3.7984141272318084e-06,-2.2627370981354034e-06,-1.5020638954865717e-07,0.00026374036679044366,0.0002656599972397089,-0.00010428996756672859,-0.0017054114723578095,0.004147567320615053,-0.00012979685561731458,-0.19068408012390137,0.22659516334533691,1.2439687252044678,-1.6592236757278442,3.213186264038086,-1.103844404220581,0.3789120316505432,0.7315282821655273,0.42000001668930054,-1.230010747909546,2.9999911785125732,-0.16359040141105652,2.999999523162842,0.0020982958376407623,-0.0038391214329749346,-0.009900510311126709,-0.01609288714826107,-0.09190534800291061,-0.22139571607112885,-0.3477667272090912,-0.47079506516456604
0.13333333333333333,0.056440360844135284,0.07992822676897049,0.0,0.9935792088508606,0.0,0.0,-0.11313844472169876,0.25606051087379456,0.8069519400596619,0.0,0.0,0.0,-7.343863010406494,-0.42334893345832825,0.7525692582130432,0.4200000464916229,0.9999999403953552,3.550497694959631e-06,-2.2297181203612126e-06,2.9291419423316256e-07,0.0002670333778951317,0.00026779333711601794,-0.00010416889563202858,-0.0017439303919672966,0.004213552922010422,-0.0001280046853935346,-0.21817350387573242,0.2819436192512512,1.2245457172393799,-1.6226226091384888,3.457280158996582,-1.2714779376983643,0.3789120316505432,0.7315282821655273,0.42000001668930054,-1.1973258256912231,1.0617486238479614,-0.1953154355287552,-3.0,-0.0003290429012849927,-0.008361883461475372,-0.016451723873615265,-0.024601828306913376,-0.2120952010154724,-0.3245094418525696,-0.43280187249183655,-0.5367975831031799
0.15,0.057951919734478,0.0949854850769043,0.0,0.9892646074295044,0.0,0.0,-0.14613522589206696,0.019791116937994957,0.9401302337646484,0.0,0.0,0.0,-2.918198347091675,-0.42334890365600586,0.7525691986083984,0.4200000464916229,1.0,3.332216692797374e-06,-2.1019013729528524e-06,1.313122055535132e-07,0.0002673068374861032,0.00026859444915317,-0.00010459451004862785,-0.0017497956287115812,0.004215684719383717,-0.00012927704665344208,-0.2545889914035797,0.3380222022533417,1.1974506378173828,-2.3034749031066895,3.6047797203063965,-1.97616446018219,0.3789120316505432,0.7315282821655273,0.42000001668930054,-1.1554888486862183,3.000001907348633,-0.2107292264699936,0.8281070590019226,-0.005112614948302507,-0.014616869390010834,-0.024099227041006088,-0.03356125205755234,-0.3495977520942688,-0.4132581949234009,-0.47239598631858826,-0.5270282626152039
0.16666666666666666,0.06380341202020645,0.10858482867479324,0.0,0.9812819361686707,0.0,0.0,-0.19257666170597076,0.36675918102264404,0.7402023077011108,0.0,0.0,0.0,-6.246593952178955,-0.42334893345832825,0.7525691986083984,0.4200000464916229,1.0,3.7372994938777993e-06,-2.233063014500658e-06,-1.8764163201012707e-07,0.00026432870072312653,0.0002662685001268983,-0.00010446133092045784,-0.0017119026742875576,0.004157518967986107,-0.00013001746265217662,-0.29005685448646545,0.4006131887435913,1.1627466678619385,-1.915621042251587,4.020750045776367,-2.2457621097564697,0.3789120316505432,0.7315282821655273,0.42000001668930054,-1.107048511505127,2.7879302501678467,-0.253233402967453,-3.0,-0.009563044644892216,-0.020260991528630257,-0.030861226841807365,-0.04136590659618378,-0.4931475520133972,-0.534130334854126,-0.5726274847984314,-0.6086187362670898
0.18333333333333332,0.0646832212805748,0.12360809743404388,0.0,0.9757676124572754,0.0,0.0,-0.21880942583084106,0.029775047674775124,0.9089521169662476,0.0,0.0,0.0,-2.100588083267212,-0.42334893345832825,0.7525692582130432,0.4200000464916229,0.9999999403953552,3.6603269109036773e-06,-2.3022055302135414e-06,2.5285271476604976e-07,0.00026690986123867333,0.0002676024450920522,-0.00010412652045488358,-0.0017412863671779633,0.004211564548313618,-0.0001278719719266519,-0.32578158378601074,0.46417683362960815,1.115908145904541,-2.0242114067077637,3.999526262283325,-3.1956419944763184,0.3789120316505432,0.7315282821655273,0.42000001668930054,-1.0700534582138062,1.7132542133331299,-0.30326077342033386,-3.0000007152557373,-0.02318703569471836,-0.03358568996191025,-0.04387696459889412,-0.05407324433326721,-0.7801018953323364,-0.7590802311897278,-0.7365890741348267,-0.7131596207618713
0.2,0.06554023176431656,0.13990749418735504,0.0,0.9662582874298096,0.0,0.0,-0.25757500529289246,0.031830571591854095,1.0338730812072754,0.0,0.0,0.0,-5.694624900817871,-0.42334893345832825,0.7525691986083984,0.4200000464916229,1.0,3.59091814061685e-06,-2.3004013200988993e-06,1.3872175941287423e-07,0.00026654574321582913,0.000267320079728961,-0.0001042394433170557,-0.0017326025990769267,0.004203422926366329,-0.0001282018783967942,-0.35913121700286865,0.532781720161438,1.0566818714141846,-1.7970879077911377,4.235522270202637,-3.914872407913208,0.3789120316505432,0.7315282821655273,0.42000001668930054,-1.0230047702789307,2.999999761581421,-0.3532862365245819,-2.999999761581421,-0.03683437407016754,-0.04671446233987808,-0.05646434798836708,-0.066107377409935,-0.8677158951759338,-0.8241255879402161,-0.779600203037262,-0.7348136305809021
0.21666666666666667,0.07082704454660416,0.15253864228725433,0.0,0.9602441787719727,0.0,0.0,-0.2791614532470703,0.32306432723999023,0.6619362831115723,0.0,0.0,0.0,-1.5742559432983398,-0.42334893345832825,0.7525692582130432,0.4200000464916229,1.0,3.607027110774652e-06,-2.2609576717513846e-06,1.960636986098052e-08,0.0002644723863340914,0.00026558543322607875,-0.00010396563448011875,-0.001708892290480435,0.004164312966167927,-0.0001283241290366277,-0.3905426263809204,0.5984121561050415,0.983450174331665,-1.6518924236297607,3.87642765045166,-4.8807454109191895,0.3789120316505432,0.7315282821655273,0.42000001668930054,-0.9730017185211182,3.000000238418579,-0.40331247448921204,-3.000000238418579,-0.05009292811155319,-0.05891110748052597,-0.06753475219011307,-0.0760822594165802,-0.979915201663971,-0.8946205973625183,-0.7860984206199646,-0.6821659803390503
0.23333333333333334,0.07005201280117035,0.1677914261817932,0.0,0.949441134929657,0.0,0.0,-0.31394508481025696,-0.04481854662299156,0.9102420806884766,0.0,0.0,0.0,-5.155437469482422,-0.42334890365600586,0.7525691986083984,0.4200000464916229,0.9999999403953552,3.7423217236209894e-06,-2.2274525690590963e-06,4.588922308812471e-07,0.0002647516375873238,0.00026671364321373403,-0.0001045342069119215,-0.0017189101781696081,0.004165767692029476,-0.00013019373000133783,-0.41369062662124634,0.6562819480895996,0.8945314884185791,-1.0890331268310547,3.3103652000427246,-5.5415263175964355,0.3789120316505432,0.7315282821655273,0.42000001668930054,-0.9229922890663147,2.9999260902404785,-0.45334088802337646,-3.000002861022949,-0.06635341793298721,-0.07513372600078583,-0.08376678824424744,-0.09228302538394928,-0.740855872631073,-0.7815016508102417,-0.8205228447914124,-0.8559466600418091
0.25,0.07451871037483215,0.177716463804245,0.0,0.9436364769935608,0.0,0.0,-0.3309836685657501,0.2766505181789398,0.503455400466919,0.0,0.0,0.0,-1.0630791187286377,-0.42334893345832825,0.7525691986083984,0.4200000464916229,1.0,3.39448661179631e-06,-2.2819845071353484e-06,1.3360543960061477e-07,0.00026679469738155603,0.0002679398749023676,-0.0001043959055095911,-0.0017417483031749725,0.004206670913845301,-0.0001288425992242992,-0.4329735338687897,0.7025641202926636,0.7981988191604614,-0.8757630586624146,2.3961849212646484,-6.077846527099609,0.3789120316505432,0.7315282821655273,0.42000001668930054,-0.872981607913971,2.999997854232788,-0.5033710598945618,-2.999999523162842,-0.07808573544025421,-0.08685024082660675,-0.09548936039209366,-0.10401197522878647,-0.940581202507019,-0.8820369839668274,-0.82777339220047,-0.7772457599639893
0.26666666666666666,0.07441236078739166,0.18416562676429749,0.0,0.9331057071685791,0.0,0.0,-0.35960227251052856,-0.10557401925325394,0.3434770703315735,0.0,0.0,0.0,-4.58473014831543,-0.42334893345832825,0.7525692582130432,0.4200000464916229,1.0,3.683507657115115e-06,-2.3100117232388584e-06,2.1007953421303682e-07,0.0002647930814418942,0.0002662573242560029,-0.00010421173647046089,-0.0017168023623526096,0.004168960731476545,-0.00012909334327559918,-0.44277751445770264,0.7345646619796753,0.6926296949386597,-0.20291075110435486,1.4660553932189941,-6.41103458404541,0.3789120316505432,0.7315282821655273,0.42000001668930054,-0.8229714632034302,3.000002145767212,-0.5534017086029053,-2.9999988079071045,-0.09513995796442032,-0.10377514362335205,-0.1123151034116745,-0.12072311341762543,-1.0011520385742188,-1.00086510181427,-1.0006473064422607,-1.000474214553833
0.2833333333333333,0.07054607570171356,0.18748024106025696,0.0,0.9287741780281067,0.0,0.0,-0.37064605951309204,-0.20033884048461914,0.10658110678195953,0.0,0.0,0.0,-0.4347464144229889,-0.42334893345832825,0.7525691986083984,0.4200000464916229,1.0,3.307009365016711e-06,-2.2123917915450875e-06,2.6254483032062126e-07,0.00026660889852792025,0.00026745148352347314,-0.00010424572974443436,-0.0017353077419102192,0.004204495809972286,-0.0001282844168599695,-0.4440784752368927,0.7469609379768372,0.5874671936035156,0.13757695257663727,0.26137039065361023,-6.28918981552124,0.3789120316505432,0.7315282821655273,0.42000001668930054,-0.7729626297950745,2.999997854232788,-0.6034314632415771,-2.9999969005584717,-0.11196333169937134,-0.12045850604772568,-0.12888017296791077,-0.13721458613872528,-0.9718295335769653,-0.9640365242958069,-0.9544878602027893,-0.9474563598632812
0.3,0.06577518582344055,0.18756984174251556,0.0,0.9268742799758911,0.0,0.0,-0.3753718435764313,-0.32418912649154663,-0.033803652971982956,0.0,0.0,0.0,-0.7052652835845947,-0.42334893345832825,0.7525691986083984,0.4200000464916229,1.0,3.6413346151675796e-06,-2.3777658952894853e-06,-4.194106395516428e-07,0.0002661141334101558,0.00026725803036242723,-0.00010423245839774609,-0.0017334752483293414,0.0041945013217628,-0.00012854678789153695,-0.4389248490333557,0.7515198588371277,0.48715701699256897,0.5654693841934204,0.13557693362236023,-5.625249862670898,0.3789120316505432,0.7315282821655273,0.42000001668930054,-0.7229539155960083,3.00000262260437,-0.6534596681594849,-3.0000014305114746,-0.12921865284442902,-0.1375928670167923,-0.14592783153057098,-0.15419679880142212,-1.0199031829833984,-1.0150712728500366,-1.0113930702209473,-1.008446455001831
0.31666666666666665,0.058720193803310394,0.18520814180374146,0.0,0.9326361417770386,0.0,0.0,-0.3608182370662689,-0.4706316292285919,-0.18668954074382782,0.0,0.0,0.0,2.6958770751953125,-0.42334893345832825,0.7525692582130432,0.4200000464916229,1.0,3.6219364574208157e-06,-2.288903033331735e-06,1.9688533825501509e-07,0.00026734021957963705,0.00026802706997841597,-0.00010420568287372589,-0.0017466004937887192,0.004219025373458862,-0.00012794003123417497,-0.4289531111717224,0.7504963874816895,0.39596354961395264,0.750585675239563,-0.3755767345428467,-5.361809253692627,0.3789120316505432,0.7315282821655273,0.42000001668930054,-0.6729470491409302,3.0000016689300537,-0.7034854888916016,-3.0000011920928955,-0.14633603394031525,-0.15459218621253967,-0.16284120082855225,-0.17104469239711761,-1.0014652013778687,-1.001115322113037,-1.0008479356765747,-1.000632405281067
0.3333333333333333,0.04940086603164673,0.1804014891386032,0.0,0.9320535659790039,0.0,0.0,-0.36232054233551025,-0.6006174087524414,-0.3280481994152069,0.0,0.0,0.0,-1.1348075866699219,-0.42333972454071045,0.7525255680084229,0.4200074374675751,0.9999997615814209,0.00014364911476150155,-3.087816367042251e-06,-0.0006463314639404416,-0.0013900423655286431,0.011235895566642284,-0.013083494268357754,-0.6127350330352783,-0.031046835705637932,-0.0031215220224112272,-0.43214309215545654,0.7538609504699707,0.42638716101646423,0.24622859060764313,0.5071166157722473,-0.12319903820753098,0.3789120316505432,0.7315282821655273,0.42000001668930054,-0.623202919960022,2.999588966369629,-0.7538928389549255,-2.8353471755981445,-0.1416875123977661,-0.15222802758216858,-0.16225840151309967,-0.1716054230928421,-0.013361286371946335,-0.09469058364629745,-0.15051430463790894,-0.17466798424720764
0.35,0.03794353827834129,0.1732686311006546,0.0,0.9368338584899902,0.0,0.0,-0.3497747480869293,-0.731128990650177,-0.4679028391838074,0.0,0.0,0.0,2.512972593307495,-0.4191701114177704,0.7582951188087463,0.42027053236961365,0.9993465542793274,0.0068124826066195965,-0.00019318160775583237,-0.035494375973939896,0.3644188344478607,0.476870059967041,0.016510948538780212,0.8333041667938232,-0.02363503910601139,-4.869155406951904,-0.4269312620162964,0.7612025737762451,0.42461079359054565,0.42509496212005615,0.4521641135215759,-0.10853798687458038,0.3789120316505432,0.7315282821655273,0.42000001668930054,-0.5731972455978394,2.9999959468841553,-0.8039168119430542,-2.9999892711639404,-0.14461274445056915,-0.15538665652275085,-0.16525456309318542,-0.17397703230381012,-0.26986485719680786,-0.23605157434940338,-0.18062596023082733,-0.10117386281490326
0.36666666666666664,0.02641054056584835,0.16379708051681519,0.0,0.935803234577179,0.0,0.0,-0.3525228500366211,-0.7437363266944885,-0.5971364378929138,0.0,0.0,0.0,-1.292887806892395,-0.4124533534049988,0.76693195104599,0.420000284910202,0.996525228023529,-9.264315849577542e-06,2.880332431232091e-06,-0.08329081535339355,0.4550274610519409,0.5917202234268188,-0.00037123297806829214,0.018678857013583183,-0.002489503938704729,-8.490163803100586,-0.4167135953903198,0.7697398662567139,0.42218759655952454,0.7593234777450562,0.5573555827140808,-0.10538319498300552,0.3789120316505432,0.7315282821655273,0.42000001668930054,-0.5231923460960388,2.9996066093444824,-0.8539520502090454,-2.999877452850342,-0.15058518946170807,-0.16014297306537628,-0.16846244037151337,-0.1752869039773941,-0.45979899168014526,-0.34921208024024963,-0.22133304178714752,-0.07644453644752502
0.3833333333333333,0.01187459472566843,0.15218500792980194,0.0,0.9244107604026794,0.0,0.0,-0.381398469209671,-0.9041887521743774,-0.7480143308639526,0.0,0.0,0.0,-4.564489364624023,-0.4019848108291626,0.7793877124786377,0.4200000762939453,0.9825693964958191,1.0167519576498307e-05,-3.259430513935513e-06,-0.1858956664800644,0.7185752987861633,0.8451625108718872,-0.0003272709436714649,-0.014107782393693924,0.016836194321513176,-16.783395767211914,-0.40216827392578125,0.7810350656509399,0.4211135804653168,1.0806915760040283,0.8809744119644165,-0.02725151926279068,0.3789120316505432,0.7315282821655273,0.42000001668930054,-0.47318723797798157,2.9999823570251465,-0.9039968848228455,-2.9999983310699463,-0.15887100994586945,-0.16629284620285034,-0.17209364473819733,-0.17603939771652222,-0.43774479627609253,-0.30318742990493774,-0.14358443021774292,0.03911461681127548
0.4,-4.54198379884474e-05,0.13743282854557037,0.0,0.9011943340301514,0.0,0.0,-0.4334152042865753,-0.6444602012634277,-0.941996157169342,0.0,0.0,0.0,-7.649158954620361,-0.38091105222702026,0.8010249137878418,0.4218007028102875,0.9672930836677551,0.015716368332505226,-0.023938177153468132,-0.25203976035118103,2.1774673461914062,1.6383013725280762,-0.20706161856651306,-17.591501235961914,21.35204315185547,-10.282601356506348,-0.3802909553050995,0.8016210198402405,0.4227699041366577,1.6572425365447998,1.6106287240982056,0.22874483466148376,0.3789120316505432,0.7315282821655273,0.42000001668930054,-0.42315417528152466,2.9740564823150635,-0.9540110230445862,-2.9998183250427246,-0.16607359051704407,-0.17113256454467773,-0.17412127554416656,-0.17485031485557556,-0.4262465238571167,-0.2742542624473572,-0.0967671275138855,0.10295642912387848
0.4166666666666667,-0.00797400064766407,0.1194704994559288,0.0,0.8627780079841614,0.0,0.0,-0.505582869052887,-0.40925535559654236,-1.1315388679504395,0.0,0.0,0.0,-10.60939884185791,-0.3296140730381012,0.8358032703399658,0.4258802831172943,0.9486044645309448,0.05302581563591957,-0.062323253601789474,-0.3057016432285309,4.475284099578857,2.145969867706299,0.2317955493927002,29.951297760009766,-22.664897918701172,13.965710639953613,-0.3292984962463379,0.8364999294281006,0.4266660809516907,4.217001438140869,2.5982542037963867,0.4396136701107025,0.3789120316505432,0.7315282821655273,0.42000001668930054,-0.38918212056159973,1.0139989852905273,-0.9169469475746155,2.9931342601776123,-0.17723800241947174,-0.17827652394771576,-0.17700931429862976,-0.1733534187078476,-0.7695670127868652,-0.48952949047088623,-0.20389369130134583,0.07955576479434967
0.43333333333333335,-0.013583411462605,0.10699710249900818,0.0,0.8054642677307129,0.0,0.0,-0.5926443338394165,-0.29119178652763367,-0.6132441163063049,0.0,0.0,0.0,-13.346680641174316,-0.23616687953472137,0.8765320181846619,0.433975487947464,0.9246548414230347,0.10450464487075806,-0.09932969510555267,-0.35245662927627563,6.8642659187316895,2.3074281215667725,0.6152803897857666,14.114681243896484,-13.20281982421875,-0.9512982964515686,-0.23634198307991028,0.8780725002288818,0.43515050411224365,6.74781608581543,2.5688328742980957,0.6989296078681946,0.3789120316505432,0.7315282821655273,0.42000001668930054,-0.37511569261550903,0.9076988101005554,-0.9046543836593628,-1.1161783933639526,-0.19352959096431732,-0.19301481544971466,-0.18706844747066498,-0.17741771042346954,-0.9289512634277344,-0.9224042296409607,-0.7417066097259521,-0.39241790771484375
0.45,-0.0225885771214962,0.10179071128368378,0.0,0.7534201741218567,0.0,0.0,-0.6575393676757812,-0.6586196422576904,-0.2972787916660309,0.0,0.0,0.0,-8.787604331970215,-0.1267107129096985,0.902145504951477,0.44651296734809875,0.8707122206687927,0.0647299662232399,-0.12684006989002228,-0.47072482109069824,6.3436431884765625,0.5947301387786865,0.8646642565727234,7.69820499420166,-2.4711406230926514,2.827056407928467,-0.1279226541519165,0.9050103425979614,0.44754257798194885,6.436460494995117,0.9866399765014648,0.781204104423523,0.3789120316505432,0.7315282821655273,0.42000001668930054,-0.35367298126220703,1.5822492837905884,-0.9522581696510315,-2.9994165897369385,-0.20831142365932465,-0.2078649401664734,-0.20205295085906982,-0.1888570785522461,-0.7020390033721924,-0.7286036014556885,-0.7649163007736206,-0.6906225085258484
0.4666666666666667,-0.02733871154487133,0.08924061059951782,0.0,0.7213041186332703,0.0,0.0,-0.6926184892654419,-0.1695936769247055,-0.9111737012863159,0.0,0.0,0.0,-4.700137138366699,-0.018408451229333878,0.9093446731567383,0.45790451765060425,0.8283697366714478,0.06829296797513962,-0.10947180539369583,-0.5451196432113647,6.615492343902588,-0.9642938375473022,0.7285537719726562,-11.007184028625488,8.314484596252441,1.4789763689041138,-0.019463088363409042,0.9148550629615784,0.45858222246170044,6.531560897827148,-0.06737615168094635,0.6387327909469604,0.3789120316505432,0.7315282821655273,0.42000001668930054,-0.3287394046783447,1.1600369215011597,-1.0022821426391602,-2.999183416366577,-0.21578148007392883,-0.21476835012435913,-0.2085951715707779,-0.19369913637638092,-0.40016597509384155,-0.29675498604774475,-0.20940743386745453,-0.0704173594713211
0.48333333333333334,-0.03308362513780594,0.07918047904968262,0.0,0.7122669816017151,0.0,0.0,-0.7019086480140686,-0.36175987124443054,-0.49093112349510193,0.0,0.0,0.0,-0.4808030426502228,0.08267847448587418,0.9004529714584351,0.4660927653312683,0.7349981665611267,0.05132870748639107,-0.10633746534585953,-0.6677090525627136,5.081526279449463,-1.8538758754730225,0.31177380681037903,-17.0719051361084,13.693536758422852,19.893596649169922,0.07996323704719543,0.9070174694061279,0.46732938289642334,5.607760429382324,-0.8339475393295288,0.47754988074302673,0.3789120316505432,0.7315282821655273,0.42000001668930054,-0.3152829110622406,0.3156454265117645,-1.0523043870925903,-2.9996047019958496,-0.22505277395248413,-0.22152584791183472,-0.21327683329582214,-0.19599634408950806,-0.5047944188117981,-0.3599734604358673,-0.24576987326145172,-0.13543307781219482
0.5,-0.03638165816664696,0.07016310095787048,0.0,0.6950981020927429,0.0,0.0,-0.7189148664474487,-0.13380059599876404,-0.5791562795639038,0.0,0.0,0.0,-3.7110519409179688,0.1655878722667694,0.8777309060096741,0.46865880489349365,0.6643603444099426,0.0341070294380188,-0.09855435788631439,-0.7401006817817688,4.562953472137451,-2.1590778827667236,0.07811052352190018,-3.739386558532715,-2.799900770187378,2.318519115447998,0.16200807690620422,0.8863628506660461,0.4703074097633362,4.51780891418457,-1.7658517360687256,0.036102764308452606,0.3789120316505432,0.7315282821655273,0.42000001668930054,-0.3146040141582489,-0.057406749576330185,-1.102326512336731,-3.000000476837158,-0.23369526863098145,-0.22708424925804138,-0.21629278361797333,-0.19687442481517792,-0.5593804717063904,-0.3290625512599945,-0.13517814874649048,0.014924218878149986
0.5166666666666666,-0.03609507158398628,0.06490602344274521,0.0,0.6921206712722778,0.0,0.0,-0.7217817902565002,0.06302522867918015,-0.19384387135505676,0.0,0.0,0.0,0.4591188132762909,0.23327526450157166,0.8457888960838318,0.46497830748558044,0.6081300973892212,0.00873586069792509,-0.08230564743280411,-0.7895107269287109,3.7188665866851807,-1.9766263961791992,-0.4021901786327362,1.8995072841644287,3.2546675205230713,-16.8424129486084,0.23000279068946838,0.8537918329238892,0.4669991135597229,3.5757431983947754,-2.1831727027893066,-0.3739559054374695,0.3789120316505432,0.7315282821655273,0.42000001668930054,-0.3077341318130493,0.9524700045585632,-1.1523486375808716,-2.9999964237213135,-0.23995676636695862,-0.23279030621051788,-0.21903643012046814,-0.19760122895240784,8.337981853401288e-05,-0.2908129394054413,-0.14589883387088776,-0.06741489470005035
0.5333333333333333,-0.0324452705681324,0.055826131254434586,0.0,0.6789882779121399,0.0,0.0,-0.7341490983963013,0.23004326224327087,-0.5714737772941589,0.0,0.0,0.0,-2.976414203643799,0.28883713483810425,0.8161085844039917,0.45341524481773376,0.5679184794425964,-0.020713116973638535,-0.05377485603094101,-0.8210649490356445,2.8025736808776855,-2.3902900218963623,-0.8522170782089233,-2.7268617153167725,-5.784203052520752,-9.357653617858887,0.28614795207977295,0.8207532167434692,0.4554448127746582,2.9979515075683594,-1.9804935455322266,-0.8448827266693115,0.3789120316505432,0.7315282821655273,0.42000001668930054,-0.2842012047767639,1.7944436073303223,-1.2023707628250122,-3.0000011920928955,-0.23378711938858032,-0.23167678713798523,-0.21709005534648895,-0.1959245651960373,0.3522912859916687,0.11340264230966568,0.14717501401901245,0.10580814629793167
0.55,-0.02688733860850334,0.05148322880268097,0.0,0.6783594489097595,0.0,0.0,-0.7347301840782166,0.3448188006877899,-0.17930547893047333,0.0,0.0,0.0,0.790432333946228,0.3318248391151428,0.7817773818969727,0.4380490779876709,0.5249037742614746,-0.0557803139090538,-0.04023640230298042,-0.8483782410621643,2.200631618499756,-3.0769689083099365,-0.9552909135818481,-10.121492385864258,-10.270846366882324,27.35980224609375,0.3303525447845459,0.7865535616874695,0.4401692748069763,2.2515416145324707,-1.9221844673156738,-0.8703840970993042,0.3789120316505432,0.7315282821655273,0.42000001668930054,-0.2569507658481598,0.775109052658081,-1.2523928880691528,-3.0000014305114746,-0.2305539846420288,-0.2313750684261322,-0.21644634008407593,-0.1963009238243103,0.22633500397205353,0.07071629911661148,0.04848838225007057,-0.05484166741371155
0.5666666666666667,-0.019192663952708244,0.05007172375917435,0.0,0.6685723662376404,0.0,0.0,-0.7436470985412598,0.5093440413475037,-0.023304417729377747,0.0,0.0,0.0,-2.4558098316192627,0.36410078406333923,0.7557886242866516,0.42214933037757874,0.5161665678024292,-0.04859593138098717,-0.028138358145952225,-0.8546453714370728,1.0892194509506226,-1.1906193494796753,-0.07709623128175735,0.286255806684494,-2.545553207397461,8.011494636535645,0.36125892400741577,0.759902834892273,0.4240771532058716,1.036396861076355,-0.989397406578064,-0.07547659426927567,0.3789120316505432,0.7315282821655273,0.42000001668930054,-0.2547159790992737,0.1634671688079834,-1.243303656578064,2.985485315322876,-0.22324596345424652,-0.22751811146736145,-0.2145303189754486,-0.19737814366817474,0.5343393087387085,0.3279269337654114,0.17204169929027557,-0.0350467748939991
0.5833333333333334,-0.014133946970105171,0.04818902537226677,0.0,0.6709933280944824,0.0,0.0,-0.7414633631706238,0.23298779129981995,-0.1210070252418518,0.0,0.0,0.0,1.2466769218444824,0.3761688768863678,0.7419464588165283,0.4225917160511017,0.5197777152061462,-0.052535656839609146,-0.013600795529782772,-0.8525761961936951,0.3119034171104431,-0.7782349586486816,0.16447603702545166,5.504724502563477,7.95119571685791,0.549339771270752,0.37294042110443115,0.7455037832260132,0.4251437783241272,0.3920292854309082,-0.7378816604614258,0.1258569359779358,0.3789120316505432,0.7315282821655273,0.42000001668930054,-0.24338386952877045,1.0239348411560059,-1.2638930082321167,-3.000945568084717,-0.21246127784252167,-0.2197716385126114,-0.20968037843704224,-0.1962004452943802,0.6740372180938721,0.5232496857643127,0.34296518564224243,0.11816290766000748
0.6,-0.007123603951185942,0.041532594710588455,0.0,0.6616894602775574,0.0,0.0,-0.7497780323028564,0.35415270924568176,-0.38561272621154785,0.0,0.0,0.0,-2.217949390411377,0.3817306160926819,0.7356811761856079,0.4220399260520935,0.5417618751525879,-0.04065200686454773,-0.011525969952344894,-0.8394692540168762,0.09734971821308136,-0.40835583209991455,0.017561953514814377,-7.9674506187438965,-1.8037933111190796,13.909566879272461,0.37825116515159607,0.7387299537658691,0.42451947927474976,0.08456182479858398,-0.1239745244383812,0.08969178795814514,0.3789120316505432,0.7315282821655273,0.42000001668930054,-0.23842763900756836,-0.347503662109375,-1.2258158922195435,2.999828338623047,-0.19800737500190735,-0.20786325633525848,-0.201602041721344,-0.1925712674856186,0.7086062431335449,0.6384925842285156,0.43356701731681824,0.19165921211242676
0.6166666666666667,0.0017172006191685796,0.04018697515130043,0.0,0.665009617805481,0.0,0.0,-0.7468347549438477,0.5483317971229553,-0.0889410451054573,0.0,0.0,0.0,1.2888864278793335,0.38201093673706055,0.7299537658691406,0.4212455153465271,0.5758004784584045,-0.02568626217544079,-0.018710138276219368,-0.8169724345207214,-0.03492939844727516,-0.27200016379356384,-0.05322969704866409,2.5560245513916016,-1.07785964012146,3.887014389038086,0.3780316114425659,0.7345644235610962,0.4250948429107666,-0.0182671919465065,-0.1062326431274414,0.1289750039577484,0.3789120316505432,0.7315282821655273,0.42000001668930054,-0.2791958749294281,-2.999347686767578,-1.246775507926941,-2.999683380126953,-0.19103385508060455,-0.20098590850830078,-0.19729085266590118,-0.19145561754703522,0.5035266280174255,0.48045414686203003,0.307297021150589,0.10584220290184021
0.6333333333333333,0.01173622626811266,0.04154692217707634,0.0,0.6567221879959106,0.0,0.0,-0.7541326284408569,0.6459542512893677,0.1443134844303131,0.0,0.0,0.0,-2.34900164604187,0.38136938214302063,0.7263731360435486,0.42000138759613037,0.5911571979522705,-3.35851582349278e-05,-0.00011757636093534529,-0.8065562844276428,0.0340648777782917,-0.10862122476100922,-0.0026299201417714357,0.16549545526504517,-0.007327277213335037,-0.40107595920562744,0.37827494740486145,0.7372217178344727,0.4278075098991394,0.00238172709941864,0.3129333257675171,0.20943869650363922,0.3789120316505432,0.7315282821655273,0.42000001668930054,-0.32916513085365295,-2.9992446899414062,-1.2967314720153809,-2.9964427947998047,-0.1809898018836975,-0.19196204841136932,-0.19168120622634888,-0.1895059049129486,0.6643507480621338,0.5941864848136902,0.38207659125328064,0.16113021969795227
0.65,0.023900266736745834,0.03975868597626686,0.0,0.6599588394165039,0.0,0.0,-0.7513017654418945,0.7578559517860413,-0.12621767818927765,0.0,0.0,0.0,1.4265564680099487,0.3811405599117279,0.7259100675582886,0.4200580418109894,0.5886431932449341,0.0008418799843639135,-0.0012000227579846978,-0.8083915710449219,-0.10768420994281769,0.055578120052814484,0.02102252095937729,-0.29557183384895325,-1.0422863960266113,1.3155564069747925,0.37685298919677734,0.7416762113571167,0.4311349391937256,-0.15803389251232147,0.1838092803955078,0.19952620565891266,0.3789120316505432,0.7315282821655273,0.42000001668930054,-0.37918445467948914,-2.999999761581421,-1.3467283248901367,-2.999999761581421,-0.170105442404747,-0.1817435473203659,-0.18451882898807526,-0.18558351695537567,0.4748430848121643,0.48655325174331665,0.35348352789878845,0.20494204759597778
0.6666666666666666,0.03387676551938057,0.040829919278621674,0.0,0.6842398047447205,0.0,0.0,-0.7292571067810059,0.5448421835899353,0.09062755107879639,0.0,0.0,0.0,4.807438850402832,0.37963998317718506,0.726520299911499,0.42003610730171204,0.5845749974250793,0.0005332205328159034,-0.000730282801669091,-0.8113391399383545,-0.10971907526254654,0.03014439158141613,0.013258149847388268,-0.19834762811660767,-0.6329361796379089,-3.10807728767395,0.37500935792922974,0.7426431179046631,0.43479108810424805,-0.12846295535564423,0.06607576459646225,0.25291138887405396,0.3789120316505432,0.7315282821655273,0.42000001668930054,-0.4291900396347046,-2.9999730587005615,-1.396703839302063,-2.99943470954895,-0.16519500315189362,-0.175711527466774,-0.17960207164287567,-0.18197394907474518,0.3032074272632599,0.3843875229358673,0.3427410423755646,0.29503196477890015
0.6833333333333333,0.044226303696632385,0.03889084234833717,0.0,0.694891095161438,0.0,0.0,-0.7191150188446045,0.635688841342926,-0.16404373943805695,0.0,0.0,0.0,0.6935739517211914,0.3783871531486511,0.7267830967903137,0.4200000464916229,0.5727969408035278,-4.0293207348440774e-07,-1.66312741356478e-08,-0.8196972608566284,-0.056039147078990936,0.008543724194169044,-9.087263606488705e-06,-0.0003087180375587195,-0.0002340965875191614,-1.0606940984725952,0.37394699454307556,0.744842529296875,0.4400150775909424,-0.0647156611084938,0.061881959438323975,0.3328425884246826,0.3789120316505432,0.7315282821655273,0.42000001668930054,-0.4791955351829529,-2.999823808670044,-1.446698546409607,-2.999915361404419,-0.1609088033437729,-0.16951048374176025,-0.17329323291778564,-0.17556291818618774,0.18182691931724548,0.331854909658432,0.3848112225532532,0.44003772735595703
0.7,0.055950481444597244,0.033638060092926025,0.0,0.6833860278129578,0.0,0.0,-0.7300572395324707,0.7367609143257141,-0.3858523964881897,0.0,0.0,0.0,-2.7913880348205566,0.3781314790248871,0.7267999053001404,0.4200000762939453,0.5710980296134949,1.3818608749716077e-05,-1.2965257155883592e-05,-0.8208818435668945,0.0016152838943526149,-0.0004607639566529542,-0.0007153375772759318,-0.004248678684234619,0.009716268628835678,-0.00445592263713479,0.3778977692127228,0.7477472424507141,0.4522697925567627,0.49700477719306946,0.22125999629497528,1.220042109489441,0.3789120316505432,0.7315282821655273,0.42000001668930054,-0.5292081236839294,-2.999981641769409,-1.496716856956482,-3.000000238418579,-0.16014598309993744,-0.16605715453624725,-0.16857869923114777,-0.16952018439769745,-0.02160048671066761,0.1448080837726593,0.23536546528339386,0.3308926522731781
0.7166666666666667,0.07085715979337692,0.03297930955886841,0.0,0.650168240070343,0.0,0.0,-0.759790301322937,0.870648205280304,-0.031759582459926605,0.0,0.0,0.0,-6.171697616577148,0.3781333267688751,0.7267994284629822,0.4200000464916229,0.5710965991020203,1.3004300569718907e-07,-2.831141273418325e-06,-0.8208827972412109,7.56481967982836e-05,-0.00026455539045855403,-8.241995237767696e-05,0.0065325344912707806,-0.001757698250003159,-0.0006767265149392188,0.394870787858963,0.7481286525726318,0.47860920429229736,1.5814327001571655,-0.0349464938044548,2.0336222648620605,0.3789120316505432,0.7315282821655273,0.42000001668930054,-0.5792199969291687,-2.999959707260132,-1.546735167503357,-2.9999983310699463,-0.16714632511138916,-0.16926226019859314,-0.1691332906484604,-0.16741213202476501,-0.34848955273628235,-0.14749103784561157,-0.0022512434516102076,0.1479264348745346
0.7333333333333333,0.08253950625658035,0.034215983003377914,0.0,0.6310583353042603,0.0,0.0,-0.7757353782653809,0.6403488516807556,0.08084583282470703,0.0,0.0,0.0,-1.892240285873413,0.37813329696655273,0.7267994284629822,0.4200000464916229,0.5710965991020203,1.1920447917646015e-07,-3.442420847932226e-06,-0.8208827972412109,8.474218338960782e-05,-0.00026389025151729584,-8.562556467950344e-05,0.006454393267631531,-0.0016846222570165992,-0.0006990222027525306,0.4215165376663208,0.7504274845123291,0.5149377584457397,1.5867254734039307,0.31388670206069946,2.2898075580596924,0.3789120316505432,0.7315282821655273,0.42000001668930054,-0.5989915132522583,0.35129159688949585,-1.5967527627944946,-2.9999992847442627,-0.1716431826353073,-0.1713487058877945,-0.16964998841285706,-0.1663346141576767,-0.13118276000022888,-0.052345383912324905,-0.018292782828211784,0.015617499127984047
0.75,0.08981247991323471,0.037290461361408234,0.0,0.6369526982307434,0.0,0.0,-0.7709028720855713,0.3620965778827667,0.2307366281747818,0.0,0.0,0.0,1.7839716672897339,0.3781333267688751,0.7267994284629822,0.4200000464916229,0.5710967183113098,1.4701524264637555e-07,-3.4439185583323706e-06,-0.8208826780319214,8.273316052509472e-05,-0.0002636275894474238,-8.514942601323128e-05,0.006458980031311512,-0.0017057699151337147,-0.0006938647711649537,0.44165802001953125,0.7555108070373535,0.5477378964424133,0.7993564009666443,0.3351571559906006,1.7067941427230835,0.3789120316505432,0.7315282821655273,0.42000001668930054,-0.571487307548523,2.7190866470336914,-1.5577483177185059,3.0000009536743164,-0.17245161533355713,-0.1711115539073944,-0.1690019816160202,-0.16530494391918182,0.030683431774377823,0.07763172686100006,0.0913703590631485,0.10091753304004669
0.7666666666666666,0.0928981602191925,0.03592921048402786,0.0,0.631795346736908,0.0,0.0,-0.7751352787017822,0.1758134961128235,-0.12295196950435638,0.0,0.0,0.0,-1.5982108116149902,0.37813329696655273,0.7267994284629822,0.4200000464916229,0.5710967183113098,1.6725596196920378e-07,-3.2670102427800884e-06,-0.8208827376365662,8.210953092202544e-05,-0.0002633943222463131,-8.509098552167416e-05,0.0064562526531517506,-0.0017137678805738688,-0.0006920832674950361,0.44761666655540466,0.7626007199287415,0.5693730115890503,-0.12663479149341583,0.3474234938621521,1.0416505336761475,0.3789120316505432,0.7315282821655273,0.42000001668930054,-0.5390664935112,1.2711219787597656,-1.5076918601989746,2.999999523162842,-0.16864840686321259,-0.16706790030002594,-0.16517917811870575,-0.16178612411022186,0.131172314286232,0.16823183000087738,0.1785002201795578,0.17782865464687347
0.7833333333333333,0.09309806674718857,0.03991458937525749,0.0,0.6393241882324219,0.0,0.0,-0.7689372897148132,-0.02494615688920021,0.22424249351024628,0.0,0.0,0.0,1.9053899049758911,0.3781333267688751,0.7267994284629822,0.4200000464916229,0.5710968375205994,1.602472963213586e-07,-3.265146915509831e-06,-0.8208826184272766,8.342746878042817e-05,-0.00026339932810515165,-8.531543426215649e-05,0.006449324078857899,-0.0016969538992270827,-0.0006950667011551559,0.43875038623809814,0.7662110924720764,0.582685112953186,-0.7421815991401672,0.287641704082489,0.5828752517700195,0.3789120316505432,0.7315282821655273,0.42000001668930054,-0.5052900314331055,2.638091802597046,-1.4576506614685059,3.000000476837158,-0.1714036911725998,-0.16818960011005402,-0.16515034437179565,-0.16094531118869781,0.028236689046025276,0.07437355071306229,0.09979616850614548,0.10916928201913834
0.8,0.09127435833215714,0.039769213646650314,0.0,0.6347590684890747,0.0,0.0,-0.7727100849151611,-0.18838128447532654,-0.012953147292137146,0.0,0.0,0.0,-1.4251035451889038,0.3781333267688751,0.7267994284629822,0.4200000464916229,0.5710967183113098,1.6423705062607041e-07,-3.4266363400092814e-06,-0.8208827376365662,8.26304021757096e-05,-0.00026380069903098047,-8.51836521178484e-05,0.006463413126766682,-0.0017094973009079695,-0.0006938079022802413,0.4208335876464844,0.7704858779907227,0.5862149000167847,-1.4520055055618286,0.18115511536598206,0.013997931033372879,0.3789120316505432,0.7315282821655273,0.42000001668930054,-0.4949568808078766,-1.0849695205688477,-1.4075961112976074,3.0,-0.17001280188560486,-0.16629090905189514,-0.1630096584558487,-0.15881915390491486,0.00482224253937602,0.04760332033038139,0.07626333087682724,0.08733592927455902
0.8166666666666667,0.09091686457395554,0.03818584233522415,0.0,0.6421545147895813,0.0,0.0,-0.7665752172470093,0.031894002109766006,-0.1963346302509308,0.0,0.0,0.0,1.8911755084991455,0.37813329696655273,0.7267994284629822,0.4200000464916229,0.5710967183113098,1.780532983275407e-07,-3.248930170229869e-06,-0.8208827972412109,8.197515126084909e-05,-0.00026343800709582865,-8.505652658641338e-05,0.006458045449107885,-0.0017155675450339913,-0.0006918521248735487,0.40181827545166016,0.7733582258224487,0.5852857828140259,-0.8419022560119629,0.21722155809402466,-0.07340638339519501,0.3789120316505432,0.7315282821655273,0.42000001668930054,-0.4910946190357208,1.3354243040084839,-1.4187021255493164,-2.999999761581421,-0.17089617252349854,-0.16627705097198486,-0.16223759949207306,-0.1575433909893036,-0.011847821064293385,0.030349185690283775,0.07055726647377014,0.09951476752758026
0.8333333333333334,0.09315967559814453,0.03333516791462898,0.0,0.637161910533905,0.0,0.0,-0.7707299590110779,0.17768022418022156,-0.34880906343460083,0.0,0.0,0.0,-1.6536436080932617,0.37813329696655273,0.7267994284629822,0.4200000464916229,0.571096658706665,1.8471364171546156e-07,-3.2501827718078857e-06,-0.8208827972412109,8.164012979250401e-05,-0.000263334164628759,-8.494104258716106e-05,0.006457542534917593,-0.0017177228583022952,-0.0006908349459990859,0.3907397985458374,0.7751195430755615,0.580447793006897,-0.4611743092536926,-0.006616832688450813,-0.30216604471206665,0.3789120316505432,0.7315282821655273,0.42000001668930054,-0.5125899314880371,-3.0000007152557373,-1.3802051544189453,2.999999523162842,-0.17226167023181915,-0.16677430272102356,-0.16177044808864594,-0.15621252357959747,-0.08115534484386444,-0.024177059531211853,0.04402345046401024,0.11010091006755829
0.85,0.09904038906097412,0.03295223414897919,0.0,0.6098464727401733,0.0,0.0,-0.7925195693969727,0.3178454637527466,0.02363026700913906,0.0,0.0,0.0,-4.956740379333496,0.3781333267688751,0.7267994284629822,0.4200000464916229,0.5710967779159546,1.648719489821815e-07,-3.2470909445692087e-06,-0.8208826780319214,8.330491982633248e-05,-0.0002634370175655931,-8.528889156877995e-05,0.006451006047427654,-0.0016984466928988695,-0.0006948480731807649,0.38907259702682495,0.7698155045509338,0.5751752853393555,0.32104218006134033,-0.4233076572418213,-0.15108144283294678,0.3789120316505432,0.7315282821655273,0.42000001668930054,-0.5524173378944397,-1.8458080291748047,-1.3987205028533936,-2.9999992847442627,-0.17853613197803497,-0.1713300198316574,-0.1643878072500229,-0.15693071484565735,-0.2505096197128296,-0.1803816854953766,-0.08881203830242157,0.008306574076414108
0.8666666666666667,0.10664664953947067,0.034381527453660965,0.0,0.5992592573165894,0.0,0.0,-0.8005549907684326,0.49455615878105164,0.15612314641475677,0.0,0.0,0.0,-0.5416125655174255,0.3781333267688751,0.7267994284629822,0.4200000464916229,0.571096658706665,1.624613901185512e-07,-3.407906433494645e-06,-0.8208827972412109,8.264074858743697e-05,-0.00026379787595942616,-8.518807590007782e-05,0.006463245023041964,-0.001709465286694467,-0.0006938292062841356,0.39558476209640503,0.7659854888916016,0.5751447677612305,0.3949291706085205,-0.11216485500335693,0.11034684628248215,0.3789120316505432,0.7315282821655273,0.42000001668930054,-0.5571014881134033,1.0359255075454712,-1.4487388134002686,-2.999999761581421,-0.1801365166902542,-0.17287537455558777,-0.16549690067768097,-0.15747135877609253,-0.013192436657845974,-0.05390280857682228,-0.07376610487699509,-0.08653430640697479
0.8833333333333333,0.11068801581859589,0.030605491250753403,0.0,0.6142693758010864,0.0,0.0,-0.7890963554382324,0.26465633511543274,-0.27893081307411194,0.0,0.0,0.0,2.908789873123169,0.3781333267688751,0.7267994284629822,0.4200000464916229,0.5710967779159546,1.5174498457781738e-07,-3.4116339975298615e-06,-0.8208826780319214,8.352119766641408e-05,-0.0002635733690112829,-8.537713438272476e-05,0.006452812813222408,-0.00169797008857131,-0.000695670023560524,0.40177735686302185,0.766447901725769,0.5748899579048157,0.3203355371952057,-0.05684364214539528,-0.1952279508113861,0.3789120316505432,0.7315282821655273,0.42000001668930054,-0.5512472987174988,-0.22745245695114136,-1.4101536273956299,3.0,-0.17391453683376312,-0.16821101307868958,-0.1620718538761139,-0.15516215562820435,0.24137680232524872,0.18233081698417664,0.1350266933441162,0.08772794157266617
0.9,0.11270187795162201,0.030873790383338928,0.0,0.6148945689201355,0.0,0.0,-0.7886093258857727,0.06601325422525406,0.04857281967997551,0.0,0.0,0.0,-0.7853286862373352,0.37813329696655273,0.7267994284629822,0.4200000464916229,0.5710967183113098,1.920777492614434e-07,-3.2349951197829796e-06,-0.8208826780319214,8.191535016521811e-05,-0.0002633885887917131,-8.504465222358704e-05,0.006457042880356312,-0.0017160220304504037,-0.0006916397251188755,0.4080948233604431,0.7635771036148071,0.5663405060768127,0.5093340873718262,-0.15907642245292664,-0.6590871810913086,0.3789120316505432,0.7315282821655273,0.42000001668930054,-0.5589552521705627,-0.6535196304321289,-1.3601009845733643,3.000000476837158,-0.17364370822906494,-0.16844283044338226,-0.16267389059066772,-0.15619470179080963,0.09577309340238571,0.040052372962236404,-0.006887045223265886,-0.05525267496705055
