vladlanda/robotic-transformer/data/env_000_episode_0147.csv
sim_time_s,robot_box_x,robot_box_y,robot_box_z,robot_box_quat_w,robot_box_quat_x,robot_box_quat_y,robot_box_quat_z,robot_box_linvel_x,robot_box_linvel_y,robot_box_linvel_z,robot_box_angvel_x,robot_box_angvel_y,robot_box_angvel_z,cube_world_x,cube_world_y,cube_world_z,cube_quat_w,cube_quat_x,cube_quat_y,cube_quat_z,cube_linvel_x,cube_linvel_y,cube_linvel_z,cube_angvel_x,cube_angvel_y,cube_angvel_z,endpoint_world_x,endpoint_world_y,endpoint_world_z,endpoint_linvel_x,endpoint_linvel_y,endpoint_linvel_z,target_cube_world_x,target_cube_world_y,target_cube_world_z,gripper_actual_pos_rad_gp_leftgearjoint,gripper_actual_vel_rad_s_gp_leftgearjoint,gripper_actual_pos_rad_gp_rotatingjoint,gripper_actual_vel_rad_s_gp_rotatingjoint,motor_angle_rad_joint1,motor_angle_rad_joint2,motor_angle_rad_joint3,motor_angle_rad_joint4,motor_speed_rad_s_joint1,motor_speed_rad_s_joint2,motor_speed_rad_s_joint3,motor_speed_rad_s_joint4
0.0,0.0,0.0,0.0,1.0,0.0,0.0,0.0,0.0,0.0,0.0,0.0,0.0,0.0,-0.3744114339351654,0.671561062335968,0.41999998688697815,1.0,0.0,0.0,0.0,0.0,0.0,0.0,0.0,0.0,0.0,3.42540442943573e-06,-0.005000244826078415,1.313499927520752,0.0,0.0,0.0,0.37749382853507996,0.7008125185966492,0.42000001668930054,-1.5707999467849731,0.0,0.0,0.0,0.0,0.0,0.0,0.0,0.0,0.0,0.0,0.0
0.016666666666666666,0.002879538107663393,0.0021787614095956087,0.0,0.999812126159668,0.0,0.0,0.019383812323212624,0.24092252552509308,0.18233782052993774,0.0,0.0,0.0,3.1418282985687256,-0.37441155314445496,0.6715607643127441,0.41999998688697815,1.0,3.279964630564791e-06,-8.339746386809566e-07,8.465587342243452e-08,-1.9833529222523794e-05,0.00017983045836444944,-6.132945418357849e-05,0.0009432713268324733,-0.004689474124461412,-0.00031981561915017664,-0.007109977304935455,0.003384827170521021,1.315937876701355,-0.8141577243804932,0.9870652556419373,0.18095839023590088,0.37749382853507996,0.7008125185966492,0.42000001668930054,-1.5301095247268677,3.000002384185791,-0.04584839567542076,-3.0,0.0008698918391019106,0.0007965497206896544,0.0007111060549505055,0.0006109602400101721,0.11094274371862411,0.09758078306913376,0.08335843682289124,0.06825276464223862
0.03333333333333333,0.008962975814938545,0.006798924878239632,0.0,0.9998000860214233,0.0,0.0,0.019993856549263,0.4070418179035187,0.31524235010147095,0.0,0.0,0.0,-0.8691094517707825,-0.3744116723537445,0.6715607047080994,0.4200000464916229,1.0,3.3908179375430336e-06,-2.132458348569344e-06,-3.7097745320124886e-08,0.00026357852038927376,0.00026937833172269166,-0.00010509369894862175,-0.0017707126680761576,0.004130884539335966,-0.0001354814594378695,-0.027542680501937866,0.026153001934289932,1.3166054487228394,-1.5908687114715576,1.6164799928665161,-0.0838722288608551,0.37749382853507996,0.7008125185966492,0.42000001668930054,-1.4800901412963867,3.0000038146972656,-0.09588822722434998,-3.0000007152557373,0.002990467706695199,0.0026527412701398134,0.00227728090249002,0.001860752236098051,0.16418826580047607,0.1397457867860794,0.11380861699581146,0.08629166334867477
0.05,0.018468542024493217,0.013890841044485569,0.0,0.9999779462814331,0.0,0.0,-0.006637376267462969,0.6361783146858215,0.47201499342918396,0.0,0.0,0.0,-4.075328826904297,-0.3744117021560669,0.6715607643127441,0.4200000464916229,1.0,3.7651902857760433e-06,-2.2119197637948673e-06,5.609367637049445e-09,0.00026530938339419663,0.00026691678795032203,-0.00010440615005791187,-0.0017243892652913928,0.004177466034889221,-0.00012949809024576098,-0.057218898087739944,0.057077549397945404,1.3119996786117554,-1.9541356563568115,2.02638578414917,-0.44925516843795776,0.37749382853507996,0.7008125185966492,0.42000001668930054,-1.4300718307495117,2.9999990463256836,-0.1459251344203949,-3.0000007152557373,0.0060111447237432,0.005172280594706535,0.0042610978707671165,0.0032732475083321333,0.2071428894996643,0.1668139398097992,0.12456055730581284,0.08030632883310318
0.06666666666666667,0.03077334351837635,0.02337283454835415,0.0,0.9998864531517029,0.0,0.0,-0.01506990659981966,0.7723984718322754,0.6157895922660828,0.0,0.0,0.0,-0.04081490635871887,-0.3744117021560669,0.6715607047080994,0.4200000464916229,0.9999999403953552,3.406832092878176e-06,-2.28558906201215e-06,4.300801492718165e-07,0.0002670248504728079,0.0002679176686797291,-0.0001043803058564663,-0.00174071139190346,0.00421183044090867,-0.00012850876373704523,-0.09449915587902069,0.08982056379318237,1.3012840747833252,-2.370687484741211,2.0743348598480225,-0.8264453411102295,0.37749382853507996,0.7008125185966492,0.42000001668930054,-1.3800442218780518,2.9999964237213135,-0.12959419190883636,3.000002145767212,0.00871029682457447,0.007154418621212244,0.005485688801854849,0.0036999068688601255,0.1488381028175354,0.09815919399261475,0.045345671474933624,-0.009691738523542881
0.08333333333333333,0.04063396528363228,0.033608805388212204,0.0,0.9992370009422302,0.0,0.0,-0.039056919515132904,0.4842180907726288,0.6296741962432861,0.0,0.0,0.0,-3.869873523712158,-0.3744117021560669,0.6715607047080994,0.4200000464916229,0.9999999403953552,3.626166289905086e-06,-2.3353043161478126e-06,3.032100153177453e-07,0.00026614085072651505,0.0002668516826815903,-0.00010405341163277626,-0.001728349830955267,0.004196455702185631,-0.0001279077841900289,-0.12836913764476776,0.12842996418476105,1.2858965396881104,-1.7440435886383057,2.560872793197632,-0.9733558893203735,0.37749382853507996,0.7008125185966492,0.42000001668930054,-1.3300366401672363,2.9999988079071045,-0.16152065992355347,-2.9999992847442627,0.007721531670540571,0.005156375467777252,0.002438561525195837,-0.00043905156780965626,-0.17265892028808594,-0.24817508459091187,-0.32566240429878235,-0.4053044021129608
0.1,0.05130492523312569,0.04595857858657837,0.0,0.9960176944732666,0.0,0.0,-0.0891556367278099,0.7278062105178833,0.7844242453575134,0.0,0.0,0.0,-7.012721061706543,-0.3744117021560669,0.6715607047080994,0.4200000464916229,1.0,3.4222334761579987e-06,-2.3086047349352157e-06,1.796183539681806e-07,0.0002668157103471458,0.00026800340856425464,-0.00010440708138048649,-0.0017429988365620375,0.004207124002277851,-0.00012891183723695576,-0.16065683960914612,0.17440788447856903,1.2665843963623047,-2.0459110736846924,2.958920955657959,-1.3520658016204834,0.37749382853507996,0.7008125185966492,0.42000001668930054,-1.2800202369689941,2.999992609024048,-0.12793195247650146,3.0000011920928955,0.004214147571474314,0.0005250477697700262,-0.0033495682291686535,-0.007418190594762564,-0.21379771828651428,-0.2778312861919403,-0.3432263433933258,-0.41002917289733887
0.11666666666666667,0.05934871360659599,0.05709636211395264,0.0,0.9927272200584412,0.0,0.0,-0.12038550525903702,0.5396358966827393,0.5846052765846252,0.0,0.0,0.0,-2.4678828716278076,-0.3744117021560669,0.6715607643127441,0.4200000464916229,1.0,3.7116215025889687e-06,-2.3326904283749172e-06,2.5741752551766695e-07,0.00026485833222977817,0.0002663549967110157,-0.00010423408821225166,-0.0017181988805532455,0.004170059692114592,-0.00012915713887196034,-0.1983565390110016,0.21947455406188965,1.2416846752166748,-2.2087929248809814,2.838778257369995,-1.5106956958770752,0.37749382853507996,0.7008125185966492,0.42000001668930054,-1.2300258874893188,2.999886989593506,-0.15982455015182495,-2.9999771118164062,-0.0021266310941427946,-0.0068250782787799835,-0.011721095070242882,-0.01682465523481369,-0.2179800420999527,-0.3120885491371155,-0.40426522493362427,-0.49441224336624146
0.13333333333333333,0.066209577023983,0.06588438153266907,0.0,0.9871668815612793,0.0,0.0,-0.15969201922416687,0.353666216135025,0.4995117485523224,0.0,0.0,0.0,-5.576622486114502,-0.3744117021560669,0.6715607047080994,0.4200000464916229,1.0,3.3357862321281573e-06,-2.231929329354898e-06,3.1130659294831275e-07,0.00026669795624911785,0.00026759557658806443,-0.00010428577661514282,-0.0017371183494105935,0.004205892328172922,-0.00012840361159760505,-0.2332671582698822,0.2720435857772827,1.213907241821289,-1.8810834884643555,3.5351405143737793,-1.8719546794891357,0.37749382853507996,0.7008125185966492,0.42000001668930054,-1.1800076961517334,2.999995231628418,-0.12623214721679688,3.000000476837158,-0.005831909365952015,-0.0122945886105299,-0.01889435015618801,-0.025639044120907784,-0.2779730558395386,-0.37977126240730286,-0.47754985094070435,-0.5712158679962158
0.15,0.06921457499265671,0.0762355774641037,0.0,0.9802463054656982,0.0,0.0,-0.19778063893318176,0.11136981099843979,0.6800937056541443,0.0,0.0,0.0,-4.250858783721924,-0.3744117021560669,0.6715607047080994,0.4200000464916229,1.0,3.5189802929380676e-06,-2.2830829493614146e-06,-3.625531803663762e-07,0.00026618537958711386,0.0002673575363587588,-0.00010425481013953686,-0.0017349323024973273,0.004195748828351498,-0.0001286051847273484,-0.2684061527252197,0.32887768745422363,1.1777422428131104,-2.0389270782470703,3.567667007446289,-2.499840259552002,0.37749382853507996,0.7008125185966492,0.42000001668930054,-1.1375740766525269,2.132935047149658,-0.15815849602222443,-3.000000476837158,-0.01190409529954195,-0.019833527505397797,-0.027819300070405006,-0.03586915135383606,-0.42863258719444275,-0.4995763599872589,-0.5657045245170593,-0.6270961165428162
0.16666666666666666,0.0777389332652092,0.08277241885662079,0.0,0.967009961605072,0.0,0.0,-0.2547385096549988,0.6438371539115906,0.2825324535369873,0.0,0.0,0.0,-8.101119995117188,-0.3744117021560669,0.6715607047080994,0.4200000464916229,1.0,3.666678594527184e-06,-2.3391096419800306e-06,-3.150171608012897e-07,0.00026595700182951987,0.0002666723739821464,-0.00010403268970549107,-0.0017252295510843396,0.0041927071288228035,-0.00012778618838638067,-0.30090394616127014,0.393830806016922,1.1291511058807373,-1.7036685943603516,4.1934967041015625,-3.3194897174835205,0.37749382853507996,0.7008125185966492,0.42000001668930054,-1.0894267559051514,2.9999985694885254,-0.2081885188817978,-3.000000238418579,-0.015252677723765373,-0.02450603060424328,-0.033723171800374985,-0.04291379824280739,-0.19471563398838043,-0.2569270431995392,-0.3143598437309265,-0.3672337234020233
0.18333333333333332,0.08248558640480042,0.08869240432977676,0.0,0.9563482403755188,0.0,0.0,-0.29222947359085083,0.24972708523273468,0.2577754259109497,0.0,0.0,0.0,-3.505181312561035,-0.3744117021560669,0.6715607047080994,0.4200000464916229,1.0,3.814429419435328e-06,-2.399473942205077e-06,-2.702885524286103e-07,0.0002654908748809248,0.00026611171779222786,-0.00010391091927886009,-0.0017177866538986564,0.00418477039784193,-0.00012754213821608573,-0.3299204111099243,0.45921266078948975,1.0641705989837646,-1.3928756713867188,4.043405055999756,-4.259288787841797,0.37749382853507996,0.7008125185966492,0.42000001668930054,-1.0394237041473389,2.9999988079071045,-0.24819669127464294,-1.8707280158996582,-0.027823250740766525,-0.036678824573755264,-0.04545842856168747,-0.0542231984436512,-0.7758103609085083,-0.7462029457092285,-0.7117952108383179,-0.6781320571899414
0.2,0.08333175629377365,0.09607639908790588,0.0,0.9410039186477661,0.0,0.0,-0.33839571475982666,-0.006724197883158922,0.4414127469062805,0.0,0.0,0.0,-6.530539512634277,-0.3744117021560669,0.6715607047080994,0.4200000464916229,1.0,3.600096079026116e-06,-2.2911845007911325e-06,-2.2019764855940593e-07,0.00026572897331789136,0.0002664489147718996,-0.00010398100130259991,-0.0017226696945726871,0.004188799764961004,-0.00012773496564477682,-0.3516234755516052,0.5255398154258728,0.9851844310760498,-1.0218689441680908,3.958556890487671,-5.07338809967041,0.37749382853507996,0.7008125185966492,0.42000001668930054,-0.9894137978553772,2.9999992847442627,-0.29771146178245544,-3.0000007152557373,-0.04311661049723625,-0.0520450621843338,-0.06018563732504845,-0.06802009791135788,-0.905186653137207,-0.9085338115692139,-0.8735063076019287,-0.821183443069458
0.21666666666666667,0.08713953197002411,0.10437536239624023,0.0,0.9310038089752197,0.0,0.0,-0.3650094270706177,0.19856750965118408,0.5731763243675232,0.0,0.0,0.0,-2.349094867706299,-0.3744117021560669,0.6715607047080994,0.4200000464916229,0.9999999403953552,3.6396977520780638e-06,-2.2619728952122387e-06,2.224548865115139e-07,0.000266873772488907,0.0002675457508303225,-0.00010411953553557396,-0.0017404764657840133,0.004211100284010172,-0.00012783778947778046,-0.371298223733902,0.5825163125991821,0.8961241841316223,-0.8691228628158569,3.077831745147705,-5.666907787322998,0.37749382853507996,0.7008125185966492,0.42000001668930054,-0.9394032955169678,2.9999301433563232,-0.3477416932582855,-2.9999890327453613,-0.0578194186091423,-0.06646482646465302,-0.07386383414268494,-0.08069279044866562,-0.9565403461456299,-0.9609616994857788,-0.9657917618751526,-0.9163609147071838
0.23333333333333334,0.08763115108013153,0.1103791743516922,0.0,0.9323464632034302,0.0,0.0,-0.36156609654426575,-0.014711087569594383,0.28607988357543945,0.0,0.0,0.0,1.3534438610076904,-0.3744116723537445,0.6715607047080994,0.4200000464916229,1.0,3.42080284099211e-06,-2.3168156531028217e-06,2.9557230618593167e-07,0.0002668006927706301,0.0002680390316527337,-0.00010442431084811687,-0.0017437431961297989,0.004206867888569832,-0.0001289910142077133,-0.3899487555027008,0.6215834617614746,0.7998992800712585,-1.006015658378601,1.8311076164245605,-5.900279521942139,0.37749382853507996,0.7008125185966492,0.42000001668930054,-0.889392614364624,2.999983549118042,-0.3977733254432678,-2.9999988079071045,-0.07391442358493805,-0.08253546804189682,-0.0899316668510437,-0.09672324359416962,-0.9889345765113831,-0.9910821914672852,-0.9881030917167664,-0.9792286157608032
0.25,0.08516183495521545,0.11226870864629745,0.0,0.9284886121749878,0.0,0.0,-0.3713609278202057,-0.20254622399806976,0.05833891034126282,0.0,0.0,0.0,-2.103132724761963,-0.3744117021560669,0.6715607047080994,0.4200000464916229,0.9999999403953552,3.3476630960649345e-06,-2.259201437482261e-06,1.8082572239563888e-07,0.00026687735226005316,0.00026791065465658903,-0.00010439311154186726,-0.0017403911333531141,0.004208162892609835,-0.00012870095088146627,-0.4008973240852356,0.648546576499939,0.6961686611175537,-0.36358681321144104,1.1912074089050293,-6.342552185058594,0.37749382853507996,0.7008125185966492,0.42000001668930054,-0.8393822312355042,2.9999983310699463,-0.4478049874305725,-3.0000007152557373,-0.09081245213747025,-0.099345363676548,-0.10667669773101807,-0.11341415345668793,-0.9957180023193359,-0.9961422681808472,-0.9964935183525085,-0.9967966079711914
0.26666666666666666,0.07967304438352585,0.11528432369232178,0.0,0.930334210395813,0.0,0.0,-0.3667128384113312,-0.3947673439979553,0.22194264829158783,0.0,0.0,0.0,1.3705161809921265,-0.3744117021560669,0.6715607047080994,0.4200000464916229,0.9999999403953552,3.535753194228164e-06,-2.3002676243777387e-06,-1.2687392825228017e-07,0.00026601721765473485,0.0002671221154741943,-0.00010419590398669243,-0.0017316217999905348,0.00419279420748353,-0.0001284939207835123,-0.4060351252555847,0.6605458855628967,0.5958002209663391,-0.2195121943950653,0.29348286986351013,-5.74562931060791,0.37749382853507996,0.7008125185966492,0.42000001668930054,-0.7893733978271484,3.0000016689300537,-0.4978353977203369,-2.999997138977051,-0.10782726109027863,-0.11630189418792725,-0.12360087037086487,-0.13030605018138885,-0.9836496710777283,-0.9984573125839233,-1.0000969171524048,-1.0000662803649902
0.2833333333333333,0.0777030661702156,0.11476226150989532,0.0,0.9267997145652771,0.0,0.0,-0.37555596232414246,-0.08261778205633163,-0.048392780125141144,0.0,0.0,0.0,-1.758692979812622,-0.3744117021560669,0.6715607643127441,0.4200000464916229,1.0,3.593504743548692e-06,-2.2625924884778215e-06,-5.655554602412849e-08,0.00026704728952609,0.0002677498559933156,-0.00010416866280138493,-0.0017431487794965506,0.0042141578160226345,-0.00012789281026925892,-0.40480250120162964,0.667641818523407,0.49814337491989136,0.49562978744506836,0.26667261123657227,-5.651342391967773,0.37749382853507996,0.7008125185966492,0.42000001668930054,-0.7393646240234375,3.0000014305114746,-0.5478641986846924,-2.999999761581421,-0.12379838526248932,-0.13233941793441772,-0.1397324502468109,-0.14647042751312256,-1.0152019262313843,-1.0114853382110596,-1.008643627166748,-1.0063725709915161
0.3,0.07294023036956787,0.11308389157056808,0.0,0.9299787878990173,0.0,0.0,-0.3676132261753082,-0.3668546676635742,-0.12674520909786224,0.0,0.0,0.0,1.8856287002563477,-0.3744116723537445,0.6715607047080994,0.4200000464916229,0.9999999403953552,3.7250931654853048e-06,-2.235988176835235e-06,3.8285057257780863e-07,0.0002647978253662586,0.0002667302906047553,-0.00010453863069415092,-0.0017188735073432326,0.00416669063270092,-0.00013016900629736483,-0.39256542921066284,0.6722636222839355,0.41041433811187744,1.0591267347335815,0.25043314695358276,-4.962454795837402,0.37749382853507996,0.7008125185966492,0.42000001668930054,-0.689357578754425,3.00000262260437,-0.5978909134864807,-2.9999992847442627,-0.14159372448921204,-0.14986898005008698,-0.15706290304660797,-0.1636449247598648,-1.0123525857925415,-1.0093797445297241,-1.0070987939834595,-1.0052614212036133
0.31666666666666665,0.06494544446468353,0.10935884714126587,0.0,0.9272343516349792,0.0,0.0,-0.37448152899742126,-0.4592810273170471,-0.29067161679267883,0.0,0.0,0.0,-1.7458993196487427,-0.3743649125099182,0.6715171337127686,0.41999998688697815,0.9999993443489075,-5.909103947487893e-06,-1.3885502994526178e-05,-0.0011531339259818196,0.0009744574781507254,0.0002386085398029536,-0.0005862934049218893,-0.009929560124874115,0.0029430463910102844,0.0023464555852115154,-0.3921780586242676,0.6737989187240601,0.4252210259437561,0.10373859107494354,-0.012107867747545242,-0.20113223791122437,0.37749382853507996,0.7008125185966492,0.42000001668930054,-0.6395155191421509,2.9999845027923584,-0.6484342813491821,-2.9998888969421387,-0.1477000117301941,-0.15537922084331512,-0.16159944236278534,-0.16675810515880585,-0.38995182514190674,-0.3347148895263672,-0.2640987038612366,-0.1738855540752411
0.3333333333333333,0.055818602442741394,0.10289625078439713,0.0,0.9305335879325867,0.0,0.0,-0.36620649695396423,-0.5895456075668335,-0.42714178562164307,0.0,0.0,0.0,1.9638233184814453,-0.3743641972541809,0.6715162396430969,0.42000001668930054,0.9999992847442627,3.0908690860087518e-06,-3.7075692489452194e-06,-0.0011514181969687343,0.0003505173372104764,0.0002368912537349388,-9.23078041523695e-05,-0.000998029368929565,0.006349104456603527,9.708796824270394e-06,-0.3886007070541382,0.6777600646018982,0.4218060076236725,0.3107023239135742,0.4204915165901184,-0.1695961058139801,0.37749382853507996,0.7008125185966492,0.42000001668930054,-0.5895098447799683,2.9999794960021973,-0.6984735131263733,-3.0000016689300537,-0.15514087677001953,-0.16147463023662567,-0.1661648452281952,-0.16954615712165833,-0.44069331884384155,-0.35046130418777466,-0.252758264541626,-0.143840029835701
0.35,0.044461529701948166,0.09416268020868301,0.0,0.9279394149780273,0.0,0.0,-0.3727310597896576,-0.7276816368103027,-0.5683651566505432,0.0,0.0,0.0,-1.7219328880310059,-0.37134408950805664,0.6767283082008362,0.4199994206428528,0.9975175261497498,3.6571374948835e-05,-1.6268084436887875e-05,-0.0704183503985405,0.1884208768606186,0.3154344856739044,-0.0005059696268290281,-0.025197887793183327,0.04492837190628052,-7.847691059112549,-0.3818046450614929,0.6818350553512573,0.41943180561065674,0.47134310007095337,0.2264140099287033,0.03498510271310806,0.37749382853507996,0.7008125185966492,0.42000001668930054,-0.5394983291625977,2.997797966003418,-0.7485140562057495,-2.9570741653442383,-0.16323205828666687,-0.16764280200004578,-0.1702718287706375,-0.17140480875968933,-0.48912668228149414,-0.35867074131965637,-0.21927401423454285,-0.0686025321483612
0.36666666666666664,0.036326002329587936,0.08268459141254425,0.0,0.9305419325828552,0.0,0.0,-0.36618539690971375,-0.3841322362422943,-0.7364676594734192,0.0,0.0,0.0,1.9956080913543701,-0.36562177538871765,0.6847593784332275,0.420046865940094,0.9852749705314636,-0.0011559088015928864,0.00021246320102363825,-0.17097266018390656,0.4474025368690491,0.6041509509086609,0.00703547615557909,-0.34573861956596375,0.07864440977573395,-16.623992919921875,-0.3727323114871979,0.6900469660758972,0.42030173540115356,0.6641120314598083,0.6990060806274414,0.0630512610077858,0.37749382853507996,0.7008125185966492,0.42000001668930054,-0.48947200179100037,2.9999918937683105,-0.7985315322875977,-2.9999754428863525,-0.17128027975559235,-0.17315876483917236,-0.17309385538101196,-0.17135003209114075,-0.4191367030143738,-0.266376793384552,-0.1035953164100647,0.07024691253900528
0.3833333333333333,0.026251908391714096,0.06968146562576294,0.0,0.9279240369796753,0.0,0.0,-0.37276941537857056,-0.6869394779205322,-0.805233895778656,0.0,0.0,0.0,-1.8194103240966797,-0.35414761304855347,0.6985560655593872,0.42053744196891785,0.9704580307006836,-0.010063768364489079,-0.001519495970569551,-0.2410549521446228,0.9155341386795044,1.024505615234375,0.026671618223190308,0.050697680562734604,-2.9475011825561523,-6.143098831176758,-0.3581123352050781,0.702314019203186,0.4220130145549774,1.098912000656128,0.8627644181251526,0.1106528639793396,0.37749382853507996,0.7008125185966492,0.42000001668930054,-0.4394182562828064,2.999999761581421,-0.8485420346260071,-2.99998140335083,-0.18017971515655518,-0.17901332676410675,-0.17573662102222443,-0.17061930894851685,-0.4996757209300995,-0.3159465193748474,-0.12222221493721008,0.08072034269571304
0.4,0.019420988857746124,0.053991347551345825,0.0,0.9136527180671692,0.0,0.0,-0.4064956605434418,-0.3657533526420593,-0.9815951585769653,0.0,0.0,0.0,-5.224939346313477,-0.3308719992637634,0.7155541777610779,0.4231536090373993,0.9540992975234985,-0.029043545946478844,-0.026183215901255608,-0.296926349401474,1.7377763986587524,0.7349334359169006,0.14632895588874817,34.27983093261719,-18.31890869140625,11.427877426147461,-0.33467501401901245,0.7197366952896118,0.42407697439193726,1.7401947975158691,1.1426899433135986,0.2775946259498596,0.37749382853507996,0.7008125185966492,0.42000001668930054,-0.39537832140922546,1.6001836061477661,-0.8985640406608582,-2.999845504760742,-0.18669915199279785,-0.182694673538208,-0.17636042833328247,-0.16798783838748932,-0.4157278537750244,-0.2338535040616989,-0.04029729962348938,0.1627248376607895
0.4166666666666667,0.01590043120086193,0.0365939699113369,0.0,0.8860535621643066,0.0,0.0,-0.46358293294906616,-0.13232490420341492,-1.1239722967147827,0.0,0.0,0.0,-8.38757038116455,-0.29083529114723206,0.739778459072113,0.4272712767124176,0.9354705214500427,-0.01646175980567932,-0.05895031988620758,-0.34806421399116516,3.3775787353515625,1.4969050884246826,0.41519245505332947,12.603160858154297,-11.634811401367188,10.659282684326172,-0.2941533923149109,0.7437813878059387,0.427979052066803,3.2498626708984375,1.8730134963989258,0.42524945735931396,0.37749382853507996,0.7008125185966492,0.42000001668930054,-0.3800491392612457,0.7197350859642029,-0.9485636353492737,-2.9998435974121094,-0.19463323056697845,-0.18748489022254944,-0.17791809141635895,-0.16627328097820282,-0.49285221099853516,-0.2939886152744293,-0.09612232446670532,0.09721454977989197
0.43333333333333335,0.014621452428400517,0.0235267486423254,0.0,0.8420393466949463,0.0,0.0,-0.5394161343574524,-0.040047045797109604,-0.6622913479804993,0.0,0.0,0.0,-11.334299087524414,-0.21108092367649078,0.7726872563362122,0.43301379680633545,0.9052842259407043,0.04127642512321472,-0.1046418845653534,-0.4096423387527466,6.112037181854248,1.6581306457519531,0.3810015916824341,12.635668754577637,-15.256988525390625,16.172935485839844,-0.21473634243011475,0.7768542170524597,0.4333956837654114,6.03860330581665,2.297497272491455,0.4376038908958435,0.37749382853507996,0.7008125185966492,0.42000001668930054,-0.3659377992153168,0.9206803441047668,-0.9112873077392578,2.9971272945404053,-0.20934367179870605,-0.19837647676467896,-0.18405210971832275,-0.16809485852718353,-0.9090667366981506,-0.7498707175254822,-0.4608350098133087,-0.20912662148475647
0.45,0.009335789829492569,0.017698340117931366,0.0,0.804064154624939,0.0,0.0,-0.5945425033569336,-0.43744245171546936,-0.35428863763809204,0.0,0.0,0.0,-6.769830226898193,-0.1134558841586113,0.7988719344139099,0.443406879901886,0.8619487285614014,0.07795090973377228,-0.10797817260026932,-0.4891919493675232,5.774651050567627,0.9995158910751343,0.7264187932014465,10.092098236083984,2.4798743724823,-2.8331494331359863,-0.11639134585857391,0.8055865168571472,0.4428945481777191,5.857517719268799,1.289042353630066,0.6280832290649414,0.37749382853507996,0.7008125185966492,0.42000001668930054,-0.34867024421691895,1.0802650451660156,-0.9369901418685913,-2.9985790252685547,-0.2229020893573761,-0.2124817967414856,-0.19630034267902374,-0.1759851574897766,-0.5421477556228638,-0.6277284026145935,-0.6608761548995972,-0.46578237414360046
0.4666666666666667,0.009037620387971401,0.004900831263512373,0.0,0.7856655716896057,0.0,0.0,-0.6186514496803284,0.1052083969116211,-0.9652805924415588,0.0,0.0,0.0,-2.645246982574463,-0.013836950063705444,0.812534749507904,0.45308583974838257,0.7994587421417236,0.06542721390724182,-0.10531454533338547,-0.5877872705459595,5.94539213180542,-0.5449463129043579,0.5458618998527527,2.358281135559082,-9.873929977416992,20.217565536499023,-0.01624133065342903,0.8203322887420654,0.4519239366054535,6.159965991973877,0.3577214479446411,0.6189112663269043,0.37749382853507996,0.7008125185966492,0.42000001668930054,-0.32996559143066406,0.9428804516792297,-0.9870141744613647,-2.9997925758361816,-0.22575412690639496,-0.21653401851654053,-0.20092043280601501,-0.17806822061538696,-0.045139290392398834,-0.07463453710079193,-0.08228929340839386,0.05467955023050308
0.48333333333333334,0.007429149933159351,-0.006318328436464071,0.0,0.7591193914413452,0.0,0.0,-0.6509514451026917,-0.14316803216934204,-0.6019394397735596,0.0,0.0,0.0,-5.744812488555908,0.08308130502700806,0.8102445602416992,0.459465354681015,0.7386580109596252,0.055689238011837006,-0.1163712665438652,-0.6616197824478149,5.432232856750488,-1.3024663925170898,0.6211132407188416,-0.8269948363304138,2.9473836421966553,16.030729293823242,0.08120350539684296,0.8199968338012695,0.4598091244697571,5.820807456970215,-0.3617878556251526,0.4340563714504242,0.37749382853507996,0.7008125185966492,0.42000001668930054,-0.31724897027015686,0.5089908242225647,-1.0370367765426636,-2.9999654293060303,-0.22873364388942719,-0.2196938693523407,-0.20422148704528809,-0.17982853949069977,-0.1452116221189499,-0.16206558048725128,-0.19172129034996033,-0.156353160738945
0.5,0.007278764620423317,-0.012677145190536976,0.0,0.7468808889389038,0.0,0.0,-0.6649578213691711,0.0514887236058712,-0.2942102551460266,0.0,0.0,0.0,-1.0715441703796387,0.1688825488090515,0.7954739928245544,0.46020984649658203,0.6779679656028748,-0.023099904879927635,-0.1696663200855255,-0.7148699760437012,4.344955921173096,-1.7441105842590332,0.3648715317249298,12.973577499389648,3.7308413982391357,22.746919631958008,0.1677677482366562,0.8067243099212646,0.46479684114456177,4.860928535461426,-1.2649133205413818,0.056616462767124176,0.37749382853507996,0.7008125185966492,0.42000001668930054,-0.3110882341861725,0.30256399512290955,-1.0870589017868042,-2.999941349029541,-0.23260997235774994,-0.22322632372379303,-0.20784172415733337,-0.1830333173274994,-0.2264849990606308,-0.18880365788936615,-0.18956467509269714,-0.19035319983959198
0.5166666666666666,0.010277721099555492,-0.015084749087691307,0.0,0.727765679359436,0.0,0.0,-0.6858258843421936,0.22823387384414673,-0.08541280031204224,0.0,0.0,0.0,-4.280097484588623,0.24071860313415527,0.7744566798210144,0.45460838079452515,0.6120592951774597,-0.0535171777009964,-0.17200683057308197,-0.7700213193893433,3.5705935955047607,-1.7756857872009277,-0.47601717710494995,-7.533413410186768,13.60303783416748,3.724381923675537,0.2393244504928589,0.786910355091095,0.46044468879699707,3.9964427947998047,-1.3479489088058472,-0.4643949866294861,0.37749382853507996,0.7008125185966492,0.42000001668930054,-0.30502164363861084,0.4071544110774994,-1.1370810270309448,-2.9978885650634766,-0.23422369360923767,-0.2248876690864563,-0.2101801484823227,-0.18629148602485657,-0.018090778961777687,-0.031005406752228737,-0.08643908053636551,-0.17427216470241547
0.5333333333333333,0.0130436597391963,-0.014089789241552353,0.0,0.721855103969574,0.0,0.0,-0.6920442581176758,0.11537916213274002,0.10617125779390335,0.0,0.0,0.0,-0.055840034037828445,0.29778459668159485,0.7481003999710083,0.44077935814857483,0.5531059503555298,-0.11716531962156296,-0.1843477338552475,-0.8039664030075073,2.690521240234375,-1.7762185335159302,-0.7408975958824158,8.44214916229248,3.78529953956604,7.267035961151123,0.29669511318206787,0.761086106300354,0.4491553008556366,3.067936420440674,-1.7460834980010986,-0.9059894680976868,0.37749382853507996,0.7008125185966492,0.42000001668930054,-0.2948472499847412,0.7221035361289978,-1.1871031522750854,-3.000000238418579,-0.23450250923633575,-0.2253059297800064,-0.21149706840515137,-0.1893056035041809,0.045689187943935394,0.029343193396925926,-0.03635255992412567,-0.1628420352935791
0.55,0.017842132598161697,-0.018358606845140457,0.0,0.7060122489929199,0.0,0.0,-0.7081996202468872,0.2703891098499298,-0.26726895570755005,0.0,0.0,0.0,-3.473832368850708,0.34213167428970337,0.7291111946105957,0.4250803291797638,0.5554981231689453,-0.0523839108645916,-0.07894529402256012,-0.8261024951934814,2.123835802078247,-0.7228531837463379,-0.47236964106559753,33.84284973144531,-8.693864822387695,13.171008110046387,0.3416576683521271,0.7374212145805359,0.42864173650741577,2.1601858139038086,-1.3027511835098267,-1.2388713359832764,0.37749382853507996,0.7008125185966492,0.42000001668930054,-0.27986234426498413,1.0744473934173584,-1.237125277519226,-3.0000054836273193,-0.22705192863941193,-0.2195049524307251,-0.20808373391628265,-0.1892884522676468,0.4408215880393982,0.34697794914245605,0.20789991319179535,1.624104939423887e-08
0.5666666666666667,0.02428196370601654,-0.017806362360715866,0.0,0.70285964012146,0.0,0.0,-0.7113285660743713,0.43383240699768066,0.022679755464196205,0.0,0.0,0.0,0.3726242184638977,0.368752121925354,0.7183867692947388,0.4210423231124878,0.5156697630882263,0.013545552268624306,-0.022808503359556198,-0.856376588344574,1.068664312362671,-0.4983239769935608,-0.06698120385408401,1.7060763835906982,3.267601490020752,1.766173243522644,0.36451399326324463,0.7225273847579956,0.42456719279289246,1.0891270637512207,-0.6869620084762573,0.02520335093140602,0.37749382853507996,0.7008125185966492,0.42000001668930054,-0.25547000765800476,1.8143056631088257,-1.2200133800506592,2.995788335800171,-0.22305910289287567,-0.21653974056243896,-0.2068396359682083,-0.19095759093761444,0.39016902446746826,0.27912983298301697,0.13368846476078033,-0.07814847677946091
0.5833333333333334,0.02866838127374649,-0.021041113883256912,0.0,0.6903932094573975,0.0,0.0,-0.723434329032898,0.2023361176252365,-0.23091280460357666,0.0,0.0,0.0,-2.87304425239563,0.37838050723075867,0.7119590044021606,0.4206346273422241,0.5325891971588135,0.008785014040768147,-0.014021680690348148,-0.8462121486663818,0.11040201783180237,-1.3971320390701294,0.05345377326011658,-7.813652992248535,-7.893421649932861,29.002147674560547,0.37543630599975586,0.7148650884628296,0.42422157526016235,0.18358489871025085,-0.29435640573501587,0.08505532890558243,0.37749382853507996,0.7008125185966492,0.42000001668930054,-0.22715869545936584,0.8397654294967651,-1.223666787147522,-2.8997390270233154,-0.21579353511333466,-0.21105892956256866,-0.20367544889450073,-0.1912127286195755,0.3412483036518097,0.26781079173088074,0.16191962361335754,-0.012940949760377407
0.6,0.03396453335881233,-0.020619738847017288,0.0,0.6903558373451233,0.0,0.0,-0.7234699726104736,0.3442935645580292,0.03628210723400116,0.0,0.0,0.0,0.8342888951301575,0.37812331318855286,0.704871654510498,0.42108362913131714,0.5643570423126221,0.01733333058655262,-0.012109996750950813,-0.8252599835395813,-0.17363405227661133,-0.3307599425315857,0.06619255244731903,9.319937705993652,2.821535110473633,0.5790970325469971,0.37516582012176514,0.7082176804542542,0.42481720447540283,-0.1489754319190979,-0.27198928594589233,0.05996910482645035,0.37749382853507996,0.7008125185966492,0.42000001668930054,-0.220444917678833,0.026757078245282173,-1.192676067352295,3.0000176429748535,-0.211625874042511,-0.20793814957141876,-0.2020881026983261,-0.19226336479187012,0.3791084289550781,0.2845717668533325,0.1673649400472641,-0.008150555193424225
0.6166666666666667,0.038059335201978683,-0.018502695485949516,0.0,0.6798524856567383,0.0,0.0,-0.7333489060401917,0.1831788420677185,0.2233399748802185,0.0,0.0,0.0,-2.594482660293579,0.3758234679698944,0.7036246061325073,0.42003133893013,0.5937404632568359,0.00012716735363937914,-0.00024221847706940025,-0.8046565055847168,-0.1776731014251709,-0.048200543969869614,-0.03985125571489334,1.0479382276535034,0.8446498513221741,4.602570533752441,0.3718928396701813,0.7069197297096252,0.42407912015914917,-0.2131510078907013,-0.03686407953500748,-0.10890672355890274,0.37749382853507996,0.7008125185966492,0.42000001668930054,-0.24943998456001282,-2.896414279937744,-1.2144156694412231,-2.996497869491577,-0.2035696655511856,-0.2019978165626526,-0.19851377606391907,-0.1918618232011795,0.493610680103302,0.36570289731025696,0.22501543164253235,0.03995366021990776
0.6333333333333333,0.042763471603393555,-0.02003549225628376,0.0,0.6814091801643372,0.0,0.0,-0.7319026589393616,0.28053486347198486,-0.1186196431517601,0.0,0.0,0.0,1.0659092664718628,0.3740527927875519,0.7029411196708679,0.41999998688697815,0.6145257353782654,2.020030024141306e-06,-1.6661816815144448e-08,-0.7888966798782349,-0.08651692420244217,-0.03879004344344139,-1.2572156265377998e-05,-0.00035390854463912547,0.0006086078356020153,2.805978775024414,0.3708343505859375,0.7074172496795654,0.4247642159461975,-0.0656336173415184,0.05058807507157326,0.16793249547481537,0.37749382853507996,0.7008125185966492,0.42000001668930054,-0.29895472526550293,-2.9886012077331543,-1.2643884420394897,-2.999908924102783,-0.1927272230386734,-0.19349879026412964,-0.19254031777381897,-0.18907086551189423,0.5373110175132751,0.4310319125652313,0.3120211362838745,0.15334190428256989
0.65,0.04971962794661522,-0.01737346686422825,0.0,0.6726880073547363,0.0,0.0,-0.7399262189865112,0.4387572705745697,0.14975497126579285,0.0,0.0,0.0,-2.4765820503234863,0.37340444326400757,0.7025530338287354,0.41999998688697815,0.6249203085899353,-6.157400775919086e-07,-8.382810960938514e-07,-0.7806885242462158,-0.02500763349235058,-0.015537673607468605,-1.0900548659265041e-05,-0.0029839982744306326,0.0011384967947378755,1.032712697982788,0.3704736828804016,0.7099816799163818,0.4279811978340149,0.04008818045258522,0.28965944051742554,0.22656436264514923,0.37749382853507996,0.7008125185966492,0.42000001668930054,-0.34894272685050964,-2.998697280883789,-1.3143492937088013,-2.9990553855895996,-0.18512248992919922,-0.1875995546579361,-0.18848352134227753,-0.18739846348762512,0.6144599318504333,0.478674978017807,0.340682715177536,0.17991970479488373
0.6666666666666666,0.05822877213358879,-0.018461748957633972,0.0,0.6751706600189209,0.0,0.0,-0.737661600112915,0.5360360145568848,-0.11600417643785477,0.0,0.0,0.0,1.318415641784668,0.37339505553245544,0.7025474905967712,0.4200000464916229,0.6250630021095276,-5.798015081381891e-07,-3.4064839837810723e-06,-0.7805742025375366,6.442954327212647e-05,-0.0001591367763467133,-3.399886190891266e-05,0.0008091239724308252,-0.002339255530387163,-0.00032736765570007265,0.3691996932029724,0.7131361961364746,0.43457043170928955,-0.18285995721817017,0.13433387875556946,0.6132335066795349,0.37749382853507996,0.7008125185966492,0.42000001668930054,-0.3989570438861847,-3.0000007152557373,-1.3643677234649658,-3.000000476837158,-0.17735564708709717,-0.18111586570739746,-0.18329909443855286,-0.1838514804840088,0.3230533003807068,0.2932720184326172,0.263354629278183,0.215529665350914
0.6833333333333333,0.06829848140478134,-0.02260959893465042,0.0,0.6667795777320862,0.0,0.0,-0.7452549934387207,0.633976399898529,-0.32774367928504944,0.0,0.0,0.0,-2.2726638317108154,0.37339505553245544,0.702547550201416,0.42000001668930054,0.6250629425048828,-2.0671109268732835e-06,-4.526366410573246e-06,-0.7805742621421814,9.646859689382836e-05,-0.00036870886106044054,-0.00010113953612744808,0.008219598792493343,-0.002201216761022806,-0.00042663709609769285,0.3700737953186035,0.7153774499893188,0.4422275722026825,0.2725374102592468,0.09454703330993652,0.4740543067455292,0.37749382853507996,0.7008125185966492,0.42000001668930054,-0.4489706754684448,-3.0000007152557373,-1.4143860340118408,-2.999999761581421,-0.1733739823102951,-0.17704790830612183,-0.1790524274110794,-0.17959976196289062,0.20877394080162048,0.24118195474147797,0.2828519940376282,0.31981319189071655
0.7,0.08155706524848938,-0.02296789176762104,0.0,0.6361837387084961,0.0,0.0,-0.7715375423431396,0.7702372074127197,0.03500213846564293,0.0,0.0,0.0,-5.67785120010376,0.37339505553245544,0.702547550201416,0.42000001668930054,0.6250627636909485,-2.0004883936053375e-06,-4.365056156530045e-06,-0.780574381351471,9.872711962088943e-05,-0.0003700816596392542,-0.00010092020966112614,0.008254640735685825,-0.002182220108807087,-0.00043197328341193497,0.3778393268585205,0.7144864201545715,0.45837974548339844,0.7764154076576233,-0.047442726790905,1.5259737968444824,0.37749382853507996,0.7008125185966492,0.42000001668930054,-0.498983770608902,-2.999983787536621,-1.4644043445587158,-3.000000476837158,-0.17634925246238708,-0.17839770019054413,-0.17866799235343933,-0.17759136855602264,-0.1517849713563919,-0.07133420556783676,0.019320540130138397,0.10974626243114471
0.7166666666666667,0.09152787923812866,-0.02107018046081066,0.0,0.6199726462364197,0.0,0.0,-0.7846234440803528,0.5251851081848145,0.11925951391458511,0.0,0.0,0.0,-1.4292792081832886,0.37339505553245544,0.7025476098060608,0.42000001668930054,0.6250633001327515,-2.124106913470314e-06,-4.596775397658348e-06,-0.7805740833282471,9.66414445429109e-05,-0.0003685396513901651,-0.00010113860480487347,0.008212820626795292,-0.00219844956882298,-0.0004270156496204436,0.3924676775932312,0.7167612314224243,0.4866926670074463,0.9181733131408691,0.31447577476501465,1.862231731414795,0.37749382853507996,0.7008125185966492,0.42000001668930054,-0.5306627154350281,-0.9550017714500427,-1.5144226551055908,-3.0,-0.17780311405658722,-0.1791263073682785,-0.1785283386707306,-0.17656630277633667,0.012563704513013363,0.015074023976922035,0.0240953266620636,0.03531470149755478
0.7333333333333333,0.09698411822319031,-0.017428306862711906,0.0,0.6284425258636475,0.0,0.0,-0.7778559923171997,0.2613162696361542,0.27294641733169556,0.0,0.0,0.0,2.1299126148223877,0.37339505553245544,0.7025476098060608,0.42000001668930054,0.6250633001327515,-2.133966745532234e-06,-4.674682259064866e-06,-0.7805740833282471,9.667296399129555e-05,-0.00036891631316393614,-0.00010127131827175617,0.008220122195780277,-0.0021987715736031532,-0.00042713971924968064,0.4080326557159424,0.7225295305252075,0.5103926658630371,0.8646895885467529,0.36821165680885315,1.068899154663086,0.37749382853507996,0.7008125185966492,0.42000001668930054,-0.523745596408844,1.5585085153579712,-1.483785629272461,2.999999761581421,-0.17639854550361633,-0.17773211002349854,-0.17706948518753052,-0.17501424252986908,0.13353748619556427,0.13485728204250336,0.1369474083185196,0.13855195045471191
0.75,0.09861862659454346,-0.017955293878912926,0.0,0.6241337656974792,0.0,0.0,-0.7813174724578857,0.07361913472414017,-0.1020759865641594,0.0,0.0,0.0,-1.616877555847168,0.37339505553245544,0.7025476098060608,0.42000001668930054,0.6250633001327515,-2.115768211297109e-06,-4.567935775412479e-06,-0.7805740833282471,9.64343489613384e-05,-0.00036870420444756746,-0.00010128924623131752,0.00821426697075367,-0.002200455404818058,-0.00042654763092286885,0.41614723205566406,0.7279238104820251,0.5227518677711487,0.1038181334733963,0.20601817965507507,0.565423846244812,0.37749382853507996,0.7008125185966492,0.42000001668930054,-0.5166948437690735,-0.5361437201499939,-1.4337329864501953,3.000000238418579,-0.17230720818042755,-0.17371593415737152,-0.1731831133365631,-0.17130662500858307,0.1709573119878769,0.19359275698661804,0.2067449986934662,0.2113010436296463
0.7666666666666666,0.09751243144273758,-0.013758243061602116,0.0,0.6319038271903992,0.0,0.0,-0.7750468254089355,-0.11830304563045502,0.3900405168533325,0.0,0.0,0.0,2.103182792663574,0.37339505553245544,0.7025476098060608,0.42000001668930054,0.6250633001327515,-2.134326678060461e-06,-4.6440964069915935e-06,-0.7805740833282471,9.657745249569416e-05,-0.00036886584712192416,-0.0001012878492474556,0.008218521252274513,-0.002199657494202256,-0.0004269177152309567,0.4180467128753662,0.7292446494102478,0.5298115015029907,0.12833817303180695,0.06686972081661224,0.3157569169998169,0.37749382853507996,0.7008125185966492,0.42000001668930054,-0.5164856910705566,0.4730011820793152,-1.4512052536010742,-3.000000238418579,-0.17488980293273926,-0.17476218938827515,-0.17298346757888794,-0.17014817893505096,-0.22006815671920776,-0.11816320568323135,-0.036295801401138306,0.02625936083495617
0.7833333333333333,0.09792934358119965,-0.011774607002735138,0.0,0.6281777620315552,0.0,0.0,-0.7780698537826538,0.036274708807468414,0.06139800325036049,0.0,0.0,0.0,-1.462119698524475,0.37339505553245544,0.7025476098060608,0.42000001668930054,0.6250633001327515,-2.125299261024338e-06,-4.535854714049492e-06,-0.7805740833282471,9.634012531023473e-05,-0.00036865731817670166,-0.00010130857117474079,0.008212908171117306,-0.002201284049078822,-0.00042632556869648397,0.4158468246459961,0.7289871573448181,0.5280444622039795,-0.38716477155685425,-0.12781286239624023,-0.33522969484329224,0.37749382853507996,0.7008125185966492,0.42000001668930054,-0.5325449705123901,-2.158872127532959,-1.4145163297653198,3.0000014305114746,-0.17672567069530487,-0.17521700263023376,-0.1723601073026657,-0.16871924698352814,-0.13326214253902435,-0.041207846254110336,0.0322234146296978,0.0887836217880249
0.8,0.0998992919921875,-0.013318476267158985,0.0,0.6345874667167664,0.0,0.0,-0.7728510499000549,0.16492868959903717,-0.17796944081783295,0.0,0.0,0.0,1.7852193117141724,0.37339505553245544,0.702547550201416,0.42000001668930054,0.625062882900238,-1.9782798972300952e-06,-4.407276719575748e-06,-0.7805743217468262,9.752951882546768e-05,-0.0003697560459841043,-0.00010114465840160847,0.008244968019425869,-0.0021917885169386864,-0.0004290403740014881,0.4131368398666382,0.7262628078460693,0.5245383977890015,0.009275836870074272,-0.1857214719057083,-0.02850501984357834,0.37749382853507996,0.7008125185966492,0.42000001668930054,-0.5746482014656067,-2.8040010929107666,-1.4323698282241821,-3.0000009536743164,-0.17907877266407013,-0.1759793609380722,-0.17170916497707367,-0.16680966317653656,-0.13446137309074402,-0.03720009699463844,0.054561153054237366,0.14243324100971222
0.8166666666666667,0.10426352173089981,-0.01778479292988777,0.0,0.6289157271385193,0.0,0.0,-0.777473509311676,0.30260300636291504,-0.3439536392688751,0.0,0.0,0.0,-1.7440357208251953,0.37339505553245544,0.7025476098060608,0.42000001668930054,0.6250631809234619,-2.105097564708558e-06,-4.655335033021402e-06,-0.7805740833282471,9.686859993962571e-05,-0.00036925746826454997,-0.00010134116746485233,0.008227862417697906,-0.0022007182706147432,-0.00042783693061210215,0.4170178771018982,0.7216978073120117,0.5211341977119446,0.44583970308303833,-0.36496859788894653,-0.2041938751935959,0.37749382853507996,0.7008125185966492,0.42000001668930054,-0.6244059205055237,-2.999994993209839,-1.4823881387710571,-3.0,-0.18190091848373413,-0.1770707219839096,-0.17106033861637115,-0.16439031064510345,-0.13958226144313812,-0.0343729630112648,0.07573657482862473,0.19166265428066254
0.8333333333333334,0.11141402274370193,-0.02014338970184326,0.0,0.6028773784637451,0.0,0.0,-0.7978338599205017,0.47932344675064087,-0.07770247757434845,0.0,0.0,0.0,-4.8313889503479,0.37339505553245544,0.702547550201416,0.42000001668930054,0.6250628232955933,-1.9945832718804013e-06,-4.338858161645476e-06,-0.7805744409561157,9.730934107210487e-05,-0.0003695915802381933,-0.00010116654448211193,0.008240231312811375,-0.002193027874454856,-0.0004284750611986965,0.42553168535232544,0.7155311703681946,0.5223592519760132,0.5875002145767212,-0.3679657578468323,0.47339388728141785,0.37749382853507996,0.7008125185966492,0.42000001668930054,-0.6744089722633362,-2.9999828338623047,-1.5324064493179321,-3.000000238418579,-0.18471240997314453,-0.17869310081005096,-0.17131520807743073,-0.16308137774467468,-0.135689377784729,-0.09021692723035812,-0.03166204318404198,0.04145216941833496
0.85,0.1209738552570343,-0.018790628761053085,0.0,0.5920695662498474,0.0,0.0,-0.8058868646621704,0.607940673828125,0.1479228436946869,0.0,0.0,0.0,-0.6257219314575195,0.37339505553245544,0.702547550201416,0.42000001668930054,0.6250628232955933,-2.055380036836141e-06,-4.33896821050439e-06,-0.7805744409561157,9.85182196018286e-05,-0.00036940776044502854,-0.00010072835721075535,0.00824048649519682,-0.002180212177336216,-0.00043122132774442434,0.43321865797042847,0.7142987847328186,0.5325779914855957,0.3160243630409241,0.14711180329322815,0.7424426674842834,0.37749382853507996,0.7008125185966492,0.42000001668930054,-0.6906512379646301,0.7399733066558838,-1.5824247598648071,-3.000000476837158,-0.18581824004650116,-0.17988571524620056,-0.1724146157503128,-0.16386756300926208,0.010737900622189045,-0.035608794540166855,-0.07530134171247482,-0.104706309735775
0.8666666666666667,0.12742455303668976,-0.01554215606302023,0.0,0.6059328317642212,0.0,0.0,-0.7955158352851868,0.319786012172699,0.28101810812950134,0.0,0.0,0.0,2.894447088241577,0.37339505553245544,0.702547550201416,0.42000001668930054,0.6250628232955933,-2.0539507659123046e-06,-4.3393756641307846e-06,-0.7805744409561157,9.852607763605192e-05,-0.0003694238839671016,-0.00010072789154946804,0.008240751922130585,-0.0021804135758429766,-0.0004312574164941907,0.43794184923171997,0.7194438576698303,0.5416929721832275,0.18308556079864502,0.4072551727294922,0.39239704608917236,0.37749382853507996,0.7008125185966492,0.42000001668930054,-0.6580106616020203,2.956676483154297,-1.5434620380401611,2.9999990463256836,-0.1828439086675644,-0.17829729616641998,-0.172111377120018,-0.16467735171318054,0.2140740156173706,0.12122377008199692,0.0310827549546957,-0.051778532564640045
0.8833333333333333,0.12874555587768555,-0.017173850908875465,0.0,0.6067258715629578,0.0,0.0,-0.7949111461639404,0.15195679664611816,-0.11988164484500885,0.0,0.0,0.0,-0.5524964332580566,0.37339505553245544,0.702547550201416,0.42000001668930054,0.6250628232955933,-2.0525003492366523e-06,-4.339761289884336e-06,-0.7805744409561157,9.85268852673471e-05,-0.000369426270481199,-0.00010072905570268631,0.008240933530032635,-0.0021803593263030052,-0.0004312609089538455,0.4358053207397461,0.7273814082145691,0.5453640222549438,-0.4242976903915405,0.30049964785575867,0.15452197194099426,0.37749382853507996,0.7008125185966492,0.42000001668930054,-0.6425420045852661,-0.7841740250587463,-1.4934055805206299,2.9999992847442627,-0.17377106845378876,-0.17160005867481232,-0.16773928701877594,-0.1624802052974701,0.2857822775840759,0.20627915859222412,0.12207546085119247,0.03761271387338638
0.9,0.12902654707431793,-0.014118516817688942,0.0,0.6203610301017761,0.0,0.0,-0.78431636095047,-0.0287234615534544,0.227680042386055,0.0,0.0,0.0,2.864572286605835,0.37339505553245544,0.702547550201416,0.42000001668930054,0.6250628232955933,-2.0511124603217468e-06,-4.342882675700821e-06,-0.7805744409561157,9.845239401329309e-05,-0.00036943453596904874,-0.0001007553655654192,0.008240826427936554,-0.0021808829624205828,-0.000431077613029629,0.43227118253707886,0.7312971353530884,0.5459136962890625,-0.00025134533643722534,0.3015903830528259,-0.06292257457971573,0.37749382853507996,0.7008125185966492,0.42000001668930054,-0.6320046186447144,1.8140406608581543,-1.5096782445907593,-3.0,-0.17321310937404633,-0.17138002812862396,-0.16797243058681488,-0.16323384642601013,0.07686232775449753,0.051690902560949326,0.022450758144259453,-0.008323948830366135
