vladlanda/robotic-transformer/data/env_000_episode_0018.csv
sim_time_s,robot_box_x,robot_box_y,robot_box_z,robot_box_quat_w,robot_box_quat_x,robot_box_quat_y,robot_box_quat_z,robot_box_linvel_x,robot_box_linvel_y,robot_box_linvel_z,robot_box_angvel_x,robot_box_angvel_y,robot_box_angvel_z,cube_world_x,cube_world_y,cube_world_z,cube_quat_w,cube_quat_x,cube_quat_y,cube_quat_z,cube_linvel_x,cube_linvel_y,cube_linvel_z,cube_angvel_x,cube_angvel_y,cube_angvel_z,endpoint_world_x,endpoint_world_y,endpoint_world_z,endpoint_linvel_x,endpoint_linvel_y,endpoint_linvel_z,target_cube_world_x,target_cube_world_y,target_cube_world_z,gripper_actual_pos_rad_gp_leftgearjoint,gripper_actual_vel_rad_s_gp_leftgearjoint,gripper_actual_pos_rad_gp_rotatingjoint,gripper_actual_vel_rad_s_gp_rotatingjoint,motor_angle_rad_joint1,motor_angle_rad_joint2,motor_angle_rad_joint3,motor_angle_rad_joint4,motor_speed_rad_s_joint1,motor_speed_rad_s_joint2,motor_speed_rad_s_joint3,motor_speed_rad_s_joint4
0.0,0.0,0.0,0.0,1.0,0.0,0.0,0.0,0.0,0.0,0.0,0.0,0.0,0.0,-0.3632790148258209,0.6952007412910461,0.41999998688697815,1.0,0.0,0.0,0.0,0.0,0.0,0.0,0.0,0.0,0.0,3.42540442943573e-06,-0.005000244826078415,1.313499927520752,0.0,0.0,0.0,0.45939385890960693,0.6483884453773499,0.42000001668930054,-1.5707999467849731,0.0,0.0,0.0,0.0,0.0,0.0,0.0,0.0,0.0,0.0,0.0
0.016666666666666666,0.0028909523971378803,0.0021637114696204662,0.0,0.9998371005058289,0.0,0.0,0.01805019937455654,0.2411937564611435,0.18187257647514343,0.0,0.0,0.0,3.1417298316955566,-0.3632791340351105,0.6952004432678223,0.41999998688697815,1.0,3.279964630564791e-06,-8.339746386809566e-07,8.465587342243452e-08,-1.9833529222523794e-05,0.00017983045836444944,-6.132945418357849e-05,0.0009432713268324733,-0.004689474124461412,-0.00031981561915017664,-0.0071051232516765594,0.003417444648221135,1.3159406185150146,-0.813178539276123,0.9881737232208252,0.18097470700740814,0.45939385890960693,0.6483884453773499,0.42000001668930054,-1.5301094055175781,3.0000007152557373,-0.045851219445466995,-3.000000238418579,0.0008716738084331155,0.0007984163239598274,0.0007129450095817447,0.0006133036222308874,0.11099640280008316,0.09763067960739136,0.083406001329422,0.06828586012125015
0.03333333333333333,0.008976292796432972,0.0067769261077046394,0.0,0.9998258948326111,0.0,0.0,0.0186606477946043,0.40715351700782776,0.3148234784603119,0.0,0.0,0.0,-0.8688433170318604,-0.3632792532444,0.6952003836631775,0.4200000464916229,1.0,3.3908179375430336e-06,-2.132458348569344e-06,-3.7097745320124886e-08,0.00026357852038927376,0.00026937833172269166,-0.00010509369894862175,-0.0017707126680761576,0.004130884539335966,-0.0001354814594378695,-0.027487335726618767,0.026370253413915634,1.3165866136550903,-1.586854100227356,1.6215580701828003,-0.08651871979236603,0.45939385890960693,0.6483884453773499,0.42000001668930054,-1.4800901412963867,3.0000007152557373,-0.0958910584449768,-3.0,0.002990265376865864,0.002652747556567192,0.002277407329529524,0.0018613367574289441,0.1640443503856659,0.13960838317871094,0.11367965489625931,0.08616039156913757
0.05,0.018487323075532913,0.013879936188459396,0.0,0.9999635815620422,0.0,0.0,-0.008531665429472923,0.6360300183296204,0.4720591604709625,0.0,0.0,0.0,-4.0730299949646,-0.3632792830467224,0.6952004432678223,0.4200000464916229,1.0,3.7651902857760433e-06,-2.2119197637948673e-06,5.609367637049445e-09,0.00026530938339419663,0.00026691678795032203,-0.00010440615005791187,-0.0017243892652913928,0.004177466034889221,-0.00012949809024576098,-0.057013705372810364,0.05784638226032257,1.311842441558838,-1.9443339109420776,2.079685926437378,-0.46526527404785156,0.45939385890960693,0.6483884453773499,0.42000001668930054,-1.4300718307495117,3.0000030994415283,-0.14591729640960693,-2.999999761581421,0.00600928720086813,0.005170132499188185,0.00425861356779933,0.003270618850365281,0.2067393660545349,0.1664074808359146,0.1241547092795372,0.07989425957202911
0.06666666666666667,0.03082791343331337,0.023369858041405678,0.0,0.9998485445976257,0.0,0.0,-0.017403308302164078,0.7728769779205322,0.6161824464797974,0.0,0.0,0.0,-0.03161022439599037,-0.3632792830467224,0.6952003836631775,0.4200000464916229,0.9999999403953552,3.406832092878176e-06,-2.28558906201215e-06,4.300801492718165e-07,0.0002670248504728079,0.0002679176686797291,-0.0001043803058564663,-0.00174071139190346,0.00421183044090867,-0.00012850876373704523,-0.09229344129562378,0.09182146191596985,1.3015661239624023,-2.1514735221862793,2.152775287628174,-0.7565926313400269,0.45939385890960693,0.6483884453773499,0.42000001668930054,-1.3800441026687622,2.9999985694885254,-0.12013015896081924,3.0,0.008516617119312286,0.00688615208491683,0.00514252157881856,0.0032816322054713964,0.12446326017379761,0.06611224263906479,0.0055946363136172295,-0.05716468393802643
0.08333333333333333,0.03703094273805618,0.036167751997709274,0.0,0.9991427063941956,0.0,0.0,-0.04139909893274307,0.22296209633350372,0.8793765306472778,0.0,0.0,0.0,-3.80275297164917,-0.3632792830467224,0.6952003836631775,0.4200000464916229,0.9999999403953552,3.626166289905086e-06,-2.3353043161478126e-06,3.032100153177453e-07,0.00026614085072651505,0.0002668516826815903,-0.00010405341163277626,-0.001728349830955267,0.004196455702185631,-0.0001279077841900289,-0.12312158942222595,0.13141921162605286,1.287097454071045,-1.5905382633209229,2.600771903991699,-0.9038220643997192,0.45939385890960693,0.6483884453773499,0.42000001668930054,-1.3300411701202393,3.000002145767212,-0.1521155685186386,-2.9999985694885254,0.004553518258035183,0.0020823117811232805,-0.000554469006601721,-0.0033649292308837175,-0.38572022318840027,-0.4462210536003113,-0.5095891952514648,-0.5760800838470459
0.1,0.04672233760356903,0.05120950937271118,0.0,0.9956814050674438,0.0,0.0,-0.09283579885959625,0.7349194288253784,0.9054433107376099,0.0,0.0,0.0,-6.960502624511719,-0.3632792830467224,0.6952003836631775,0.4200000464916229,1.0,3.4222334761579987e-06,-2.3086047349352157e-06,1.796183539681806e-07,0.0002668157103471458,0.00026800340856425464,-0.00010440708138048649,-0.0017429988365620375,0.004207124002277851,-0.00012891183723695576,-0.15187036991119385,0.17681844532489777,1.2713117599487305,-1.8470542430877686,2.867283821105957,-1.0367082357406616,0.45939385890960693,0.6483884453773499,0.42000001668930054,-1.2800326347351074,3.00000262260437,-0.17708855867385864,-0.21349963545799255,0.0025033142883330584,-0.0014728388050571084,-0.005620924755930901,-0.009949635714292526,-0.015373241156339645,-0.11420584470033646,-0.21206670999526978,-0.3089147210121155
0.11666666666666667,0.055342502892017365,0.06330407410860062,0.0,0.9922260642051697,0.0,0.0,-0.12444832921028137,0.5361111164093018,0.6848037838935852,0.0,0.0,0.0,-2.578439235687256,-0.3632792830467224,0.6952004432678223,0.4200000464916229,1.0,3.7116215025889687e-06,-2.3326904283749172e-06,2.5741752551766695e-07,0.00026485833222977817,0.0002663549967110157,-0.00010423408821225166,-0.0017181988805532455,0.004170059692114592,-0.00012915713887196034,-0.18596264719963074,0.2221986949443817,1.2523568868637085,-1.9785957336425781,2.9336676597595215,-1.1495320796966553,0.45939385890960693,0.6483884453773499,0.42000001668930054,-1.230029582977295,3.000000238418579,-0.17988446354866028,-0.13072974979877472,0.00024230033159255981,-0.005354088265448809,-0.011095326393842697,-0.016989856958389282,-0.0631592869758606,-0.17921897768974304,-0.29203593730926514,-0.4014495611190796
0.13333333333333333,0.061621736735105515,0.07250790297985077,0.0,0.9861602783203125,0.0,0.0,-0.16579492390155792,0.3278278708457947,0.479367733001709,0.0,0.0,0.0,-5.803772926330566,-0.3632792830467224,0.6952003836631775,0.4200000464916229,1.0,3.3357862321281573e-06,-2.231929329354898e-06,3.1130659294831275e-07,0.00026669795624911785,0.00026759557658806443,-0.00010428577661514282,-0.0017371183494105935,0.004205892328172922,-0.00012840361159760505,-0.2174224555492401,0.27552711963653564,1.2300390005111694,-1.7436859607696533,3.5272531509399414,-1.5078020095825195,0.45939385890960693,0.6483884453773499,0.42000001668930054,-1.1800906658172607,2.9757800102233887,-0.13696356117725372,3.0000007152557373,-0.002349921502172947,-0.009778104722499847,-0.017288830131292343,-0.024888616055250168,-0.20002327859401703,-0.304372102022171,-0.40464460849761963,-0.5007267594337463
0.15,0.06404616683721542,0.08255772292613983,0.0,0.9730942249298096,0.0,0.0,-0.2304074615240097,0.06977324187755585,0.670818030834198,0.0,0.0,0.0,-8.844454765319824,-0.3632792830467224,0.6952003836631775,0.4200000464916229,1.0,3.5189802929380676e-06,-2.2830829493614146e-06,-3.625531803663762e-07,0.00026618537958711386,0.0002673575363587588,-0.00010425481013953686,-0.0017349323024973273,0.004195748828351498,-0.0001286051847273484,-0.24850329756736755,0.3367094099521637,1.1997215747833252,-1.7478599548339844,3.973249673843384,-2.1525964736938477,0.45939385890960693,0.6483884453773499,0.42000001668930054,-1.1462079286575317,1.215116024017334,-0.16884887218475342,-3.00000262260437,-0.007469049654901028,-0.01639556512236595,-0.025325415655970573,-0.03426380082964897,-0.3907912075519562,-0.4610362946987152,-0.5266825556755066,-0.5877346992492676
0.16666666666666666,0.07035741209983826,0.08983933925628662,0.0,0.9613004922866821,0.0,0.0,-0.27550214529037476,0.4292539656162262,0.3512329161167145,0.0,0.0,0.0,-4.2794952392578125,-0.3632792830467224,0.6952003836631775,0.4200000464916229,1.0,3.666678594527184e-06,-2.3391096419800306e-06,-3.150171608012897e-07,0.00026595700182951987,0.0002666723739821464,-0.00010403268970549107,-0.0017252295510843396,0.0041927071288228035,-0.00012778618838638067,-0.28295302391052246,0.40224745869636536,1.1557986736297607,-1.9166748523712158,4.2531352043151855,-3.0891358852386475,0.45939385890960693,0.6483884453773499,0.42000001668930054,-1.1032742261886597,3.000000476837158,-0.21887889504432678,-2.999999761581421,-0.013133653439581394,-0.02287365309894085,-0.032550275325775146,-0.04217056557536125,-0.47179874777793884,-0.4857332110404968,-0.49727240204811096,-0.5065996646881104
0.18333333333333332,0.07126899063587189,0.10002892464399338,0.0,0.9439752697944641,0.0,0.0,-0.33001622557640076,0.05178651958703995,0.606189489364624,0.0,0.0,0.0,-7.69416618347168,-0.3632792830467224,0.6952003836631775,0.4200000464916229,1.0,3.814429419435328e-06,-2.399473942205077e-06,-2.702885524286103e-07,0.0002654908748809248,0.00026611171779222786,-0.00010391091927886009,-0.0017177866538986564,0.00418477039784193,-0.00012754213821608573,-0.3127633333206177,0.47234055399894714,1.0936870574951172,-1.4684159755706787,4.438211441040039,-4.077302932739258,0.45939385890960693,0.6483884453773499,0.42000001668930054,-1.0532711744308472,2.9998691082000732,-0.2689063251018524,-2.999995231628418,-0.02707124501466751,-0.036665238440036774,-0.04616157338023186,-0.05558188632130623,-0.6200510263442993,-0.6712828874588013,-0.7190989851951599,-0.7624533772468567
0.2,0.07774974405765533,0.10521795600652695,0.0,0.9306880235671997,0.0,0.0,-0.3658139705657959,0.3938925266265869,0.24117793142795563,0.0,0.0,0.0,-3.24066162109375,-0.3632792830467224,0.6952003836631775,0.4200000464916229,1.0,3.600096079026116e-06,-2.2911845007911325e-06,-2.2019764855940593e-07,0.00026572897331789136,0.0002664489147718996,-0.00010398100130259991,-0.0017226696945726871,0.004188799764961004,-0.00012773496564477682,-0.33883389830589294,0.5408722758293152,1.0182732343673706,-1.206259846687317,4.102930545806885,-4.992547988891602,0.45939385890960693,0.6483884453773499,0.42000001668930054,-1.0032681226730347,2.9999988079071045,-0.3189319968223572,-3.000000238418579,-0.03587440401315689,-0.045912276953458786,-0.05581670254468918,-0.06559889018535614,-0.7536048293113708,-0.7297579050064087,-0.70634526014328,-0.6831059455871582
0.21666666666666667,0.07861147820949554,0.11410756409168243,0.0,0.9288542866706848,0.0,0.0,-0.3704453408718109,0.04448508098721504,0.4908071458339691,0.0,0.0,0.0,0.5932168364524841,-0.3632792830467224,0.6952003836631775,0.4200000464916229,0.9999999403953552,3.6396977520780638e-06,-2.2619728952122387e-06,2.224548865115139e-07,0.000266873772488907,0.0002675457508303225,-0.00010411953553557396,-0.0017404764657840133,0.004211100284010172,-0.00012783778947778046,-0.3612118363380432,0.5946962833404541,0.927898645401001,-1.1793993711471558,2.8265910148620605,-5.6808576583862305,0.45939385890960693,0.6483884453773499,0.42000001668930054,-0.9532588124275208,2.9999983310699463,-0.3689606189727783,-2.9999992847442627,-0.0512704961001873,-0.06140032410621643,-0.07135521620512009,-0.08115490525960922,-0.6245476007461548,-0.6813912987709045,-0.7343320250511169,-0.7819330096244812
0.23333333333333334,0.08399422466754913,0.11711545288562775,0.0,0.9224116206169128,0.0,0.0,-0.38620829582214355,0.35628271102905273,0.11276399344205856,0.0,0.0,0.0,-2.63606595993042,-0.3632792532444,0.6952003836631775,0.4200000464916229,1.0,3.42080284099211e-06,-2.3168156531028217e-06,2.9557230618593167e-07,0.0002668006927706301,0.0002680390316527337,-0.00010442431084811687,-0.0017437431961297989,0.004206867888569832,-0.0001289910142077133,-0.3772950768470764,0.6396893262863159,0.8282381892204285,-0.7309423685073853,2.324277400970459,-6.2278900146484375,0.45939385890960693,0.6483884453773499,0.42000001668930054,-0.903248131275177,3.0,-0.41899123787879944,-3.000001907348633,-0.061590466648340225,-0.07217172533273697,-0.08255092054605484,-0.09273120760917664,-0.8681110143661499,-0.8424763679504395,-0.8180142641067505,-0.7942420840263367
0.25,0.08433978259563446,0.12433179467916489,0.0,0.9231212139129639,0.0,0.0,-0.38450902700424194,0.016956809908151627,0.3841419517993927,0.0,0.0,0.0,1.0671312808990479,-0.3632792830467224,0.6952003836631775,0.4200000464916229,0.9999999403953552,3.3476630960649345e-06,-2.259201437482261e-06,1.8082572239563888e-07,0.00026687735226005316,0.00026791065465658903,-0.00010439311154186726,-0.0017403911333531141,0.004208162892609835,-0.00012870095088146627,-0.38736575841903687,0.6649056673049927,0.7270780801773071,-0.43702054023742676,0.9149412512779236,-5.805243492126465,0.45939385890960693,0.6483884453773499,0.42000001668930054,-0.8532374501228333,2.9999985694885254,-0.46902287006378174,-3.000002384185791,-0.07857604324817657,-0.08902499079704285,-0.09934237599372864,-0.10946709662675858,-0.6995008587837219,-0.758849561214447,-0.8154757618904114,-0.867072582244873
0.26666666666666666,0.08339424431324005,0.12595319747924805,0.0,0.9180294871330261,0.0,0.0,-0.39651215076446533,-0.14466042816638947,0.11230113357305527,0.0,0.0,0.0,-2.3431410789489746,-0.3632792830467224,0.6952003836631775,0.4200000464916229,0.9999999403953552,3.535753194228164e-06,-2.3002676243777387e-06,-1.2687392825228017e-07,0.00026601721765473485,0.0002671221154741943,-0.00010419590398669243,-0.0017316217999905348,0.00419279420748353,-0.0001284939207835123,-0.3927101492881775,0.6825737953186035,0.6308294534683228,-0.05378877371549606,0.8820515275001526,-5.610936641693115,0.45939385890960693,0.6483884453773499,0.42000001668930054,-0.8032281994819641,3.000000238418579,-0.5190532207489014,-3.00000262260437,-0.09084159880876541,-0.10220953822135925,-0.11339407414197922,-0.12430698424577713,-1.0366027355194092,-1.02753746509552,-1.0206477642059326,-1.0151804685592651
0.2833333333333333,0.07955846935510635,0.12592114508152008,0.0,0.9198170304298401,0.0,0.0,-0.3923475742340088,-0.2737460136413574,-0.04464348033070564,0.0,0.0,0.0,1.3917871713638306,-0.3632792830467224,0.6952004432678223,0.4200000464916229,1.0,3.593504743548692e-06,-2.2625924884778215e-06,-5.655554602412849e-08,0.00026704728952609,0.0002677498559933156,-0.00010416866280138493,-0.0017431487794965506,0.0042141578160226345,-0.00012789281026925892,-0.3929368853569031,0.6937494874000549,0.5425296425819397,0.14716851711273193,0.4141237735748291,-5.162167549133301,0.45939385890960693,0.6483884453773499,0.42000001668930054,-0.7532249689102173,3.0000011920928955,-0.5690826773643494,-3.00000262260437,-0.10789471864700317,-0.11916088312864304,-0.13027256727218628,-0.14113129675388336,-1.0047433376312256,-1.003583312034607,-1.0027016401290894,-1.0019978284835815
0.3,0.07334011793136597,0.12343006581068039,0.0,0.9155855774879456,0.0,0.0,-0.4021231532096863,-0.42327240109443665,-0.19290484488010406,0.0,0.0,0.0,-2.140584707260132,-0.3632792532444,0.6952003836631775,0.4200000464916229,0.9999999403953552,3.7250931654853048e-06,-2.235988176835235e-06,3.8285057257780863e-07,0.0002647978253662586,0.0002667302906047553,-0.00010453863069415092,-0.0017188735073432326,0.00416669063270092,-0.00013016900629736483,-0.38390588760375977,0.6981639266014099,0.4544236660003662,0.9063405990600586,0.06859752535820007,-5.255472183227539,0.45939385890960693,0.6483884453773499,0.42000001668930054,-0.7032172083854675,2.9999990463256836,-0.6191105246543884,-3.000002145767212,-0.12522001564502716,-0.13631263375282288,-0.14729303121566772,-0.15804828703403473,-1.0010796785354614,-1.0008184909820557,-1.0006203651428223,-1.0004611015319824
0.31666666666666665,0.06488791108131409,0.11854508519172668,0.0,0.9179314374923706,0.0,0.0,-0.39673909544944763,-0.5464393496513367,-0.33301782608032227,0.0,0.0,0.0,1.5993038415908813,-0.3632792830467224,0.6952003836631775,0.4200000464916229,0.9999999403953552,3.557828677003272e-06,-2.2787926354794763e-06,2.2831554247204622e-07,0.0002659866586327553,0.0002665854699444026,-0.00010399054735898972,-0.0017240922898054123,0.004193658474832773,-0.00012769893510267138,-0.3768763542175293,0.6997928619384766,0.42297783493995667,0.32341480255126953,0.2615799903869629,-0.13465619087219238,0.45939385890960693,0.6483884453773499,0.42000001668930054,-0.6533967852592468,2.966453790664673,-0.669689953327179,-2.802279233932495,-0.13527093827724457,-0.1465006172657013,-0.15740418434143066,-0.1678110659122467,-0.3309837281703949,-0.32522380352020264,-0.29887646436691284,-0.24682635068893433
0.3333333333333333,0.05424783006310463,0.11126212775707245,0.0,0.9140498638153076,0.0,0.0,-0.4056018888950348,-0.6822755336761475,-0.4799085855484009,0.0,0.0,0.0,-2.0728919506073,-0.36184465885162354,0.6976036429405212,0.42052140831947327,0.999469518661499,0.00037835599505342543,0.01320905052125454,-0.029766514897346497,0.11612653732299805,0.1657647043466568,0.003951124846935272,0.006796347443014383,0.2021402269601822,-3.0494236946105957,-0.37365955114364624,0.7025513648986816,0.42308735847473145,0.3552427887916565,0.08276353776454926,-0.2013072371482849,0.45939385890960693,0.6483884453773499,0.42000001668930054,-0.6033904552459717,2.9999892711639404,-0.7197470664978027,-2.999997615814209,-0.14225929975509644,-0.15258382260799408,-0.1622152030467987,-0.17092853784561157,-0.5243878364562988,-0.42338138818740845,-0.3030937910079956,-0.16201864182949066
0.35,0.04144537076354027,0.101643867790699,0.0,0.9166905879974365,0.0,0.0,-0.399597704410553,-0.8073192238807678,-0.6166658997535706,0.0,0.0,0.0,1.7112187147140503,-0.3584560453891754,0.7020801901817322,0.42000091075897217,0.997541606426239,1.0054292943095788e-05,-2.7200123440707102e-05,-0.07007607817649841,0.29182562232017517,0.40233489871025085,-0.000238801323575899,0.013299061916768551,-0.00283512519672513,-9.26111125946045,-0.3667455315589905,0.7071088552474976,0.4201315641403198,0.47932958602905273,0.41168585419654846,-0.14246049523353577,0.45939385890960693,0.6483884453773499,0.42000001668930054,-0.5533854365348816,2.999967336654663,-0.7697853446006775,-2.999972105026245,-0.1521400809288025,-0.16025836765766144,-0.16736717522144318,-0.17324061691761017,-0.5811236500740051,-0.4370628297328949,-0.2747533619403839,-0.09490078687667847
0.36666666666666664,0.03209083154797554,0.08920114487409592,0.0,0.9131278991699219,0.0,0.0,-0.407673180103302,-0.47549527883529663,-0.7954936623573303,0.0,0.0,0.0,-1.970470905303955,-0.35274434089660645,0.7096844911575317,0.42000043392181396,0.9868360161781311,8.569139026803896e-06,-1.9857532151945634e-06,-0.16172385215759277,0.39402687549591064,0.5152570605278015,-0.0006391890929080546,-0.001651936094276607,0.012651077471673489,-13.247885704040527,-0.35760170221328735,0.7138009071350098,0.4200499653816223,0.6781189441680908,0.47038936614990234,0.08968521654605865,0.45939385890960693,0.6483884453773499,0.42000001668930054,-0.5033547282218933,2.999999761581421,-0.8197993636131287,-2.999971628189087,-0.16172276437282562,-0.16702723503112793,-0.17098115384578705,-0.17339292168617249,-0.5387073159217834,-0.3561250567436218,-0.15335360169410706,0.0667218416929245
0.3833333333333333,0.020682938396930695,0.07514388114213943,0.0,0.8965814709663391,0.0,0.0,-0.4428788125514984,-0.762604296207428,-0.868177056312561,0.0,0.0,0.0,-5.6112380027771,-0.3411392271518707,0.7235944867134094,0.42058199644088745,0.972748875617981,-0.014100369065999985,0.0034198611974716187,-0.23140650987625122,1.097564697265625,1.1206008195877075,0.07126446068286896,-3.2434890270233154,1.6604419946670532,-6.284755706787109,-0.34251436591148376,0.7255277633666992,0.42183491587638855,1.146148920059204,0.9808767437934875,0.12923705577850342,0.45939385890960693,0.6483884453773499,0.42000001668930054,-0.45330315828323364,2.999999761581421,-0.8698081970214844,-2.999972343444824,-0.17212985455989838,-0.17407390475273132,-0.1743200123310089,-0.1727433055639267,-0.5788065195083618,-0.38227614760398865,-0.16464906930923462,0.06972834467887878
0.4,0.012169059365987778,0.05819334089756012,0.0,0.865189790725708,0.0,0.0,-0.5014445185661316,-0.4599839746952057,-1.0578508377075195,0.0,0.0,0.0,-8.722342491149902,-0.30888253450393677,0.7471757531166077,0.4231363534927368,0.9579257369041443,-0.028484584763646126,-0.012069146148860455,-0.28534379601478577,2.995575428009033,1.716223120689392,0.13065682351589203,29.543556213378906,-19.3822078704834,2.7324764728546143,-0.30962854623794556,0.7485817670822144,0.4244680404663086,2.8188507556915283,1.7548748254776,0.4086803197860718,0.45939385890960693,0.6483884453773499,0.42000001668930054,-0.4053443968296051,2.327122211456299,-0.9198306202888489,-3.000002145767212,-0.18177974224090576,-0.1801101714372635,-0.17642423510551453,-0.17069192230701447,-0.6477991938591003,-0.3989628553390503,-0.13496285676956177,0.1370847374200821
0.4166666666666667,0.00609658332541585,0.04669768735766411,0.0,0.816448986530304,0.0,0.0,-0.5774175524711609,-0.31459325551986694,-0.562168300151825,0.0,0.0,0.0,-11.633561134338379,-0.23447425663471222,0.780718207359314,0.4280976355075836,0.9365841150283813,0.03429635241627693,-0.05715498700737953,-0.3440452218055725,5.959709167480469,1.831419825553894,0.4127919673919678,13.605642318725586,-13.253747940063477,16.040674209594727,-0.23546822369098663,0.7818886041641235,0.4297383427619934,5.691553115844727,2.376950740814209,0.42101413011550903,0.45939385890960693,0.6483884453773499,0.42000001668930054,-0.3822442293167114,1.040112018585205,-0.88262540102005,2.998380184173584,-0.19759619235992432,-0.19299206137657166,-0.18363457918167114,-0.17247378826141357,-0.8924873471260071,-0.8590525388717651,-0.5286956429481506,-0.2237260639667511
0.43333333333333335,0.003348728409036994,0.03848288580775261,0.0,0.7768690586090088,0.0,0.0,-0.6296621561050415,-0.10774321109056473,-0.4575310945510864,0.0,0.0,0.0,-6.664191246032715,-0.13924194872379303,0.816312849521637,0.4371947646141052,0.8926576972007751,0.0683077871799469,-0.0843745544552803,-0.43746688961982727,6.058999061584473,1.3811861276626587,0.6964279413223267,17.364065170288086,-4.837398529052734,14.810279846191406,-0.14050260186195374,0.8187621831893921,0.438507616519928,5.90601110458374,1.9204037189483643,0.5941293239593506,0.45939385890960693,0.6483884453773499,0.42000001668930054,-0.3647947311401367,1.074007511138916,-0.9088168144226074,-3.000002145767212,-0.2077125757932663,-0.20405970513820648,-0.1922343373298645,-0.17713649570941925,-0.5455958843231201,-0.578495979309082,-0.4608970582485199,-0.27179819345474243
0.45,-0.001433170516975224,0.02604617550969124,0.0,0.7571160197257996,0.0,0.0,-0.6532804369926453,-0.2297143191099167,-0.6871383786201477,0.0,0.0,0.0,-2.4089486598968506,-0.03863350674510002,0.8388553261756897,0.4481426477432251,0.8281888961791992,0.08020644634962082,-0.08759776502847672,-0.5477194786071777,6.025302410125732,0.052920158952474594,0.514876663684845,-4.124358654022217,-3.7255821228027344,26.530887603759766,-0.04078615829348564,0.8419628739356995,0.4486883878707886,6.32119607925415,0.7518829107284546,0.8007739782333374,0.45939385890960693,0.6483884453773499,0.42000001668930054,-0.34570246934890747,1.0779824256896973,-0.9588407874107361,-3.000001907348633,-0.21532566845417023,-0.21103884279727936,-0.19680021703243256,-0.17846421897411346,-0.7335585951805115,-0.5795285701751709,-0.35895949602127075,-0.1125977486371994
0.4666666666666667,-0.0023923416156321764,0.018309026956558228,0.0,0.7298625707626343,0.0,0.0,-0.6835939288139343,-0.03863963484764099,-0.4713934659957886,0.0,0.0,0.0,-5.596433162689209,0.06267660856246948,0.8361713886260986,0.4571644365787506,0.7770206332206726,0.09058208763599396,-0.09101080894470215,-0.6162393093109131,5.55307674407959,-1.2994558811187744,0.2915191054344177,-12.492173194885254,-7.723450660705566,44.39139938354492,0.06127481907606125,0.842423677444458,0.45774388313293457,6.229687690734863,-0.5168153643608093,0.5790892839431763,0.45939385890960693,0.6483884453773499,0.42000001668930054,-0.32755401730537415,0.7864300608634949,-1.0088645219802856,-3.0000040531158447,-0.22904975712299347,-0.22131957113742828,-0.20299775898456573,-0.18035650253295898,-0.6557636260986328,-0.45439767837524414,-0.23344843089580536,-0.0033490131609141827
0.48333333333333334,-0.0007784332847222686,0.013240590691566467,0.0,0.7173022627830505,0.0,0.0,-0.6967621445655823,0.15207131206989288,-0.24770095944404602,0.0,0.0,0.0,-1.051550269126892,0.15883409976959229,0.8203173875808716,0.4631910026073456,0.6864840388298035,0.07807398587465286,-0.07702958583831787,-0.7188257575035095,5.055935859680176,-2.1500184535980225,0.13483242690563202,-15.33459758758545,-9.581239700317383,26.05048942565918,0.15663212537765503,0.827536404132843,0.4634740352630615,5.605836868286133,-1.2741920948028564,0.38723814487457275,0.45939385890960693,0.6483884453773499,0.42000001668930054,-0.31707078218460083,0.3468850553035736,-1.0588866472244263,-3.000002861022949,-0.23884743452072144,-0.22793425619602203,-0.20658065378665924,-0.18100382387638092,-0.4951959252357483,-0.3157404065132141,-0.17070898413658142,-0.044683173298835754
0.5,-0.0006941560423001647,0.005608267616480589,0.0,0.6957226395606995,0.0,0.0,-0.718310534954071,0.00411485368385911,-0.43201857805252075,0.0,0.0,0.0,-4.516897678375244,0.24448150396347046,0.7941081523895264,0.4614722430706024,0.612123966217041,0.015037529170513153,-0.09866560995578766,-0.7844381928443909,4.635496616363525,-2.0145668983459473,-0.05739717185497284,3.4091672897338867,10.242823600769043,-4.503016471862793,0.2415832132101059,0.8031036853790283,0.4646351933479309,4.763650417327881,-1.9307878017425537,-0.13159587979316711,0.45939385890960693,0.6483884453773499,0.42000001668930054,-0.30909377336502075,0.725134015083313,-1.108908772468567,-2.9984521865844727,-0.23943836987018585,-0.2290934920310974,-0.20638881623744965,-0.17983610928058624,-0.14810699224472046,-0.12717336416244507,-0.030774643644690514,0.028290998190641403
0.5166666666666666,0.0012670770520344377,0.0022311361972242594,0.0,0.6875627040863037,0.0,0.0,-0.7261250019073486,0.1235043853521347,-0.1519671529531479,0.0,0.0,0.0,-0.27737510204315186,0.3139786720275879,0.7591065764427185,0.45692309737205505,0.5467739701271057,-0.014561534859240055,-0.06572450697422028,-0.8345695734024048,3.6262409687042236,-2.1954030990600586,-0.37606048583984375,-2.070629119873047,6.540893077850342,-8.994528770446777,0.3117852807044983,0.7679822444915771,0.46012547612190247,3.7302353382110596,-2.2241787910461426,-0.4277268052101135,0.45939385890960693,0.6483884453773499,0.42000001668930054,-0.2937638759613037,1.1732381582260132,-1.1589308977127075,-2.999971389770508,-0.23985382914543152,-0.23176483809947968,-0.20787246525287628,-0.18085218966007233,0.06388912349939346,6.009050594002474e-06,0.0042571863159537315,-0.03343575447797775
0.5333333333333333,0.0053261215798556805,-0.004468883853405714,0.0,0.6704612374305725,0.0,0.0,-0.7419445514678955,0.29472002387046814,-0.41435545682907104,0.0,0.0,0.0,-3.586946725845337,0.37036654353141785,0.7258228063583374,0.44432371854782104,0.504370391368866,-0.04234473779797554,-0.05408583581447601,-0.8607508540153503,2.9401371479034424,-2.5543174743652344,-0.7976495027542114,-7.378613471984863,2.7992284297943115,10.153599739074707,0.3693394958972931,0.7337924242019653,0.44824445247650146,3.069016933441162,-2.0858397483825684,-0.8795958161354065,0.45939385890960693,0.6483884453773499,0.42000001668930054,-0.27613338828086853,0.8264275193214417,-1.2089530229568481,-2.999999523162842,-0.23506054282188416,-0.22844931483268738,-0.20564566552639008,-0.18037103116512299,0.23424872756004333,0.175506129860878,0.09661173075437546,-0.026083793491125107
0.55,0.012004322372376919,-0.0071081118658185005,0.0,0.6665579080581665,0.0,0.0,-0.7454532384872437,0.4206794798374176,-0.11572911590337753,0.0,0.0,0.0,0.29557108879089355,0.4142383337020874,0.6906996965408325,0.42717060446739197,0.46501919627189636,-0.07129713892936707,-0.039842136204242706,-0.8815250992774963,2.1230428218841553,-2.3538901805877686,-1.0777267217636108,-3.0605905055999756,4.729942321777344,3.0950517654418945,0.41316020488739014,0.6979130506515503,0.4315609335899353,2.2527613639831543,-2.074366569519043,-1.0942139625549316,0.45939385890960693,0.6483884453773499,0.42000001668930054,-0.2648463845252991,0.5923458337783813,-1.2589750289916992,-2.999992609024048,-0.23226633667945862,-0.2264356166124344,-0.20529846847057343,-0.1824067384004593,0.2816314101219177,0.20812959969043732,0.05769902840256691,-0.12986265122890472
0.5666666666666667,0.020522095263004303,-0.006502005737274885,0.0,0.6532393097877502,0.0,0.0,-0.7571515440940857,0.556527316570282,0.09211375564336777,0.0,0.0,0.0,-3.032972574234009,0.44219911098480225,0.6714495420455933,0.4219389259815216,0.4448297321796417,-0.03549107909202576,-0.025061408057808876,-0.8945606350898743,1.3067737817764282,-0.7017989158630371,-0.0433041974902153,2.074445962905884,-3.1978068351745605,-3.587590456008911,0.4386585056781769,0.6775625944137573,0.425260066986084,1.0985498428344727,-0.8059297800064087,-0.09636372327804565,0.45939385890960693,0.6483884453773499,0.42000001668930054,-0.2513677477836609,1.1187176704406738,-1.2208842039108276,3.000342845916748,-0.2245602011680603,-0.22112871706485748,-0.20375670492649078,-0.18492724001407623,0.5807580351829529,0.40742871165275574,0.13978421688079834,-0.1379711627960205
0.5833333333333334,0.02585705742239952,-0.011095522902905941,0.0,0.6523147821426392,0.0,0.0,-0.7579481601715088,0.29637399315834045,-0.22930988669395447,0.0,0.0,0.0,0.7446922063827515,0.45430174469947815,0.662009596824646,0.42212221026420593,0.48579683899879456,-0.033743202686309814,0.02194294147193432,-0.8731445074081421,0.3054690659046173,-0.9174243807792664,0.10469464957714081,-0.8303351402282715,4.0290117263793945,8.12732219696045,0.4514423608779907,0.6661698818206787,0.42619746923446655,0.3203490972518921,-0.719506025314331,0.10427969694137573,0.45939385890960693,0.6483884453773499,0.42000001668930054,-0.2521018087863922,-1.2322947978973389,-1.2417494058609009,-3.0007879734039307,-0.21089667081832886,-0.21007344126701355,-0.19752146303653717,-0.18363575637340546,0.5112438797950745,0.4644167721271515,0.2383391410112381,-0.002799415262416005
0.6,0.033950239419937134,-0.010157319717109203,0.0,0.6402435898780823,0.0,0.0,-0.7681719064712524,0.45386338233947754,0.04147447273135185,0.0,0.0,0.0,-2.6692779064178467,0.45808088779449463,0.6544643044471741,0.4212976396083832,0.5180371403694153,-0.018490340560674667,0.023810498416423798,-0.8548266887664795,0.07364404946565628,-0.3550960123538971,0.03708554431796074,1.3163853883743286,2.0769259929656982,6.7792253494262695,0.4551023840904236,0.6585040092468262,0.4248298406600952,0.1598162204027176,-0.11628764122724533,-0.08994710445404053,0.45939385890960693,0.6483884453773499,0.42000001668930054,-0.26037657260894775,-0.01761089637875557,-1.2036917209625244,2.998307943344116,-0.20398716628551483,-0.20409956574440002,-0.195317804813385,-0.1853650063276291,0.6166257858276367,0.5054911375045776,0.23887881636619568,-0.02688097022473812
0.6166666666666667,0.04301104694604874,-0.014309213496744633,0.0,0.6415270566940308,0.0,0.0,-0.76710045337677,0.521769106388092,-0.2530239224433899,0.0,0.0,0.0,1.1032687425613403,0.4596499800682068,0.6512057781219482,0.42099884152412415,0.5462704300880432,-0.014005887322127819,0.02125827595591545,-0.8372218012809753,-0.02883065864443779,-0.2407005876302719,-0.07144152373075485,-1.5271575450897217,-3.4803576469421387,3.6290817260742188,0.4556659162044525,0.6571943759918213,0.42609572410583496,-0.10154823213815689,-0.048206303268671036,0.14685681462287903,0.45939385890960693,0.6483884453773499,0.42000001668930054,-0.3000941574573517,-3.0000009536743164,-1.2247639894485474,-2.999624490737915,-0.19133667647838593,-0.19342026114463806,-0.18903687596321106,-0.18343551456928253,0.6390566825866699,0.5598053336143494,0.340836763381958,0.12082520127296448
0.6333333333333333,0.05444297194480896,-0.014561185613274574,0.0,0.6632011532783508,0.0,0.0,-0.748441219329834,0.7251577377319336,-0.002622207859531045,0.0,0.0,0.0,4.405654430389404,0.45838576555252075,0.6489375233650208,0.4200016260147095,0.5558249354362488,5.8478857681620866e-05,-2.5474088033661246e-05,-0.831299364566803,-0.07764414697885513,-0.04691087082028389,-0.0024000073317438364,0.013804682530462742,0.10169737786054611,-1.1856424808502197,0.45388537645339966,0.6570466756820679,0.42846161127090454,-0.1050809845328331,0.09280973672866821,0.16304531693458557,0.45939385890960693,0.6483884453773499,0.42000001668930054,-0.3500915765762329,-2.9966115951538086,-1.2747321128845215,-2.9999797344207764,-0.18321259319782257,-0.1862896978855133,-0.1850021481513977,-0.1824849545955658,0.5968934297561646,0.5085656642913818,0.30946147441864014,0.1163974180817604
0.65,0.06453492492437363,-0.017583996057510376,0.0,0.6716346740722656,0.0,0.0,-0.7408825159072876,0.5345081686973572,-0.2441607415676117,0.0,0.0,0.0,0.31080085039138794,0.45789822936058044,0.6486809253692627,0.41999995708465576,0.5505435466766357,2.213961806774023e-06,-1.1608089153014589e-05,-0.8348063230514526,-0.012061149813234806,-0.006814599968492985,-0.0002371595473960042,0.018798816949129105,0.00479303952306509,-0.4902172386646271,0.4528782069683075,0.6593623161315918,0.43178561329841614,-0.06177810952067375,0.11111597716808319,0.23146550357341766,0.45939385890960693,0.6483884453773499,0.42000001668930054,-0.40011343359947205,-3.0000014305114746,-1.3247023820877075,-2.999298572540283,-0.17387333512306213,-0.1780085563659668,-0.1793927103281021,-0.17942890524864197,0.5311946272850037,0.4906366467475891,0.36428359150886536,0.24416686594486237
0.6666666666666666,0.07524669170379639,-0.020919250324368477,0.0,0.6599220037460327,0.0,0.0,-0.7513341307640076,0.6835886836051941,-0.22506730258464813,0.0,0.0,0.0,-3.268251419067383,0.4577963352203369,0.6486349105834961,0.419999897480011,0.5521214604377747,-1.973674625332933e-05,-6.845552320555726e-07,-0.8337636590003967,-0.0007666468736715615,-3.819378980551846e-05,-0.0004368972731754184,-0.019415467977523804,0.025031287223100662,0.0026000775396823883,0.45325934886932373,0.6611483097076416,0.4369692802429199,0.11466547846794128,0.07425890862941742,0.4703505039215088,0.45939385890960693,0.6483884453773499,0.42000001668930054,-0.4501272141933441,-2.999993085861206,-1.3747209310531616,-3.000000238418579,-0.1682422161102295,-0.172239288687706,-0.174654021859169,-0.1755768060684204,0.25427865982055664,0.2943933308124542,0.2783975899219513,0.2732731103897095
0.6833333333333333,0.08844441175460815,-0.023333484306931496,0.0,0.6243644952774048,0.0,0.0,-0.7811331152915955,0.831484317779541,-0.09042768180370331,0.0,0.0,0.0,-6.416260242462158,0.45779386162757874,0.6486343741416931,0.41999995708465576,0.5521232485771179,-1.3899876876166672e-06,-5.539599442272447e-06,-0.8337624073028564,7.47836020309478e-05,-0.00038598652463406324,-7.215002551674843e-05,0.010163106955587864,-0.003460897831246257,-0.0010499119525775313,0.46171629428863525,0.6612759828567505,0.45261526107788086,0.8793159127235413,-0.04195960611104965,1.5193977355957031,0.45939385890960693,0.6483884453773499,0.42000001668930054,-0.5001401305198669,-2.999969244003296,-1.4247392416000366,-2.999999761581421,-0.16668155789375305,-0.16972285509109497,-0.1718902438879013,-0.17235393822193146,0.03434982895851135,0.09186899662017822,0.11884158849716187,0.16041600704193115
0.7,0.10372817516326904,-0.022191639989614487,0.0,0.6032221913337708,0.0,0.0,-0.7975731492042542,0.9528986811637878,0.13684754073619843,0.0,0.0,0.0,-2.191148519515991,0.4577938914299011,0.6486343741416931,0.41999995708465576,0.5521234273910522,-1.5835868225622107e-06,-5.557898475672118e-06,-0.8337623476982117,6.53671013424173e-05,-0.00038078497163951397,-7.267901673913002e-05,0.00995826255530119,-0.0032661750447005033,-0.00101418886333704,0.47840768098831177,0.6654869318008423,0.4804631769657135,1.0830628871917725,0.4884694814682007,1.8208763599395752,0.45939385890960693,0.6483884453773499,0.42000001668930054,-0.5228957533836365,0.024414584040641785,-1.4747575521469116,-2.9999992847442627,-0.1664358377456665,-0.169282928109169,-0.17166632413864136,-0.17215071618556976,0.04337082430720329,0.011780217289924622,-0.0404430516064167,-0.08430036157369614
0.7166666666666667,0.1159452274441719,-0.01870451681315899,0.0,0.6076282858848572,0.0,0.0,-0.7942215204238892,0.6532531380653381,0.26158982515335083,0.0,0.0,0.0,1.5711934566497803,0.4577938914299011,0.6486343741416931,0.41999995708465576,0.5521231889724731,-1.5672927702325978e-06,-5.483746008394519e-06,-0.8337624669075012,6.68001885060221e-05,-0.0003810525522567332,-7.267948240041733e-05,0.009968272410333157,-0.003275281051173806,-0.0010183572303503752,0.4961048364639282,0.6739608645439148,0.5040856003761292,0.9610826969146729,0.5301379561424255,1.0666862726211548,0.45939385890960693,0.6483884453773499,0.42000001668930054,-0.5045064091682434,1.994307518005371,-1.4360989332199097,3.000000238418579,-0.1645655483007431,-0.16791510581970215,-0.17104628682136536,-0.17218102514743805,0.14266332983970642,0.11865559220314026,0.0832403227686882,0.04999368637800217
0.7333333333333333,0.12350617349147797,-0.019617799669504166,0.0,0.6001555919647217,0.0,0.0,-0.7998833060264587,0.41000843048095703,-0.12809360027313232,0.0,0.0,0.0,-2.0765907764434814,0.4577938914299011,0.6486344337463379,0.41999995708465576,0.5521233081817627,-1.5767960803714232e-06,-5.506716206582496e-06,-0.8337624669075012,6.570275581907481e-05,-0.0003809677145909518,-7.270742207765579e-05,0.009963756427168846,-0.0032713671680539846,-0.00101555697619915,0.5059257745742798,0.6824169754981995,0.5158044099807739,0.1657048463821411,0.4081979990005493,0.4990723133087158,0.45939385890960693,0.6483884453773499,0.42000001668930054,-0.49658629298210144,-0.8075356483459473,-1.386046290397644,3.0000014305114746,-0.1604679971933365,-0.16421881318092346,-0.16790024936199188,-0.1696113646030426,0.14119082689285278,0.15377451479434967,0.15671484172344208,0.15115678310394287
0.75,0.127649188041687,-0.015611301176249981,0.0,0.6052223443984985,0.0,0.0,-0.7960565090179443,0.1903068721294403,0.37065061926841736,0.0,0.0,0.0,1.655502200126648,0.4577938914299011,0.6486343741416931,0.41999995708465576,0.5521234273910522,-1.557589598633058e-06,-5.624457571684616e-06,-0.8337623476982117,6.70549416099675e-05,-0.00038111492176540196,-7.266132161021233e-05,0.009971177205443382,-0.0032755588181316853,-0.0010189737658947706,0.506968080997467,0.6878055334091187,0.5200161933898926,-0.0048592910170555115,0.35097968578338623,0.04401642084121704,0.45939385890960693,0.6483884453773499,0.42000001668930054,-0.48898831009864807,1.5121538639068604,-1.4044194221496582,-3.0,-0.1639050543308258,-0.1661728024482727,-0.16859416663646698,-0.16935695707798004,-0.27273207902908325,-0.1716819852590561,-0.08333243429660797,-0.017089545726776123
0.7666666666666666,0.12845811247825623,-0.01552179828286171,0.0,0.6024526953697205,0.0,0.0,-0.7981545925140381,-0.014811946079134941,-0.08335238695144653,0.0,0.0,0.0,-1.4052447080612183,0.4577938914299011,0.6486343741416931,0.41999995708465576,0.5521231889724731,-1.5770700656503323e-06,-5.532592695089988e-06,-0.8337624669075012,6.697016942780465e-05,-0.0003810772323049605,-7.267389446496964e-05,0.009969589300453663,-0.0032757199369370937,-0.0010187781881541014,0.5012965202331543,0.6920921802520752,0.5146109461784363,-0.6972779035568237,0.17273429036140442,-0.5215506553649902,0.45939385890960693,0.6483884453773499,0.42000001668930054,-0.49830231070518494,-2.2937300205230713,-1.3659616708755493,2.999999761581421,-0.16610440611839294,-0.16702485084533691,-0.1682484894990921,-0.1681634932756424,-0.13131028413772583,-0.04594569653272629,0.031439635902643204,0.08629825711250305
0.7833333333333333,0.13066552579402924,-0.011195248924195766,0.0,0.6106438636779785,0.0,0.0,-0.7919053435325623,0.14896225929260254,0.22375446557998657,0.0,0.0,0.0,1.7749497890472412,0.4577938914299011,0.6486343741416931,0.41999995708465576,0.5521233081817627,-1.5653155287509435e-06,-5.546004103962332e-06,-0.8337624669075012,6.58848657622002e-05,-0.00038100610254332423,-7.270136848092079e-05,0.00996536947786808,-0.0032721480820327997,-0.0010160512756556273,0.492176353931427,0.6942702531814575,0.50699782371521,-0.27681300044059753,0.2565445303916931,-0.4073169529438019,0.45939385890960693,0.6483884453773499,0.42000001668930054,-0.5241044759750366,-0.8993750214576721,-1.3847172260284424,-2.999999523162842,-0.17246940732002258,-0.1713956743478775,-0.17065952718257904,-0.16893896460533142,-0.16259631514549255,-0.10811236500740051,-0.04238655045628548,0.01714114286005497
0.8,0.1344674676656723,-0.011496447958052158,0.0,0.6047552824020386,0.0,0.0,-0.7964113354682922,0.2544228434562683,-0.03420348837971687,0.0,0.0,0.0,-1.825353980064392,0.4577938914299011,0.6486343741416931,0.41999995708465576,0.5521234273910522,-1.574473685650446e-06,-5.470658834383357e-06,-0.8337623476982117,6.678693171124905e-05,-0.00038103171391412616,-7.267901673913002e-05,0.009967770427465439,-0.003274778602644801,-0.0010182637488469481,0.48946207761764526,0.6972177028656006,0.4980999529361725,-0.11058341711759567,0.04629053547978401,-0.4939444661140442,0.45939385890960693,0.6483884453773499,0.42000001668930054,-0.5667076110839844,-3.000002145767212,-1.4347355365753174,-3.0,-0.17317582666873932,-0.17144113779067993,-0.16973517835140228,-0.1670326143503189,-0.124953992664814,-0.05549998581409454,0.03436620160937309,0.1257483810186386
0.8166666666666667,0.14046643674373627,-0.014525159262120724,0.0,0.5773646235466003,0.0,0.0,-0.8164864182472229,0.41154566407203674,-0.23933984339237213,0.0,0.0,0.0,-4.9858269691467285,0.4577938914299011,0.6486344337463379,0.41999995708465576,0.5521231293678284,-1.5631180758646224e-06,-5.497144684341038e-06,-0.8337624669075012,6.571921403519809e-05,-0.0003809939662460238,-7.271044887602329e-05,0.009964569471776485,-0.003271837718784809,-0.001015657908283174,0.493169903755188,0.6961924433708191,0.49501144886016846,0.5723404884338379,-0.1373007595539093,0.24903500080108643,0.45939385890960693,0.6483884453773499,0.42000001668930054,-0.6167191863059998,-2.9999396800994873,-1.4847538471221924,-2.9999966621398926,-0.1773051619529724,-0.1742444783449173,-0.17084166407585144,-0.1663908213376999,-0.2926219701766968,-0.2137092798948288,-0.11150132119655609,-0.004748700652271509
0.8333333333333334,0.14960308372974396,-0.014233794063329697,0.0,0.5643293261528015,0.0,0.0,-0.8255497217178345,0.5561313033103943,0.041368432343006134,0.0,0.0,0.0,-0.8304070234298706,0.4577938914299011,0.6486343741416931,0.41999995708465576,0.5521233081817627,-1.5741268271085573e-06,-5.6119979490176775e-06,-0.8337624669075012,6.705026316922158e-05,-0.00038110665627755225,-7.26594589650631e-05,0.00997090246528387,-0.0032754335552453995,-0.0010189433814957738,0.5022279620170593,0.6982254981994629,0.5024290680885315,0.5510126352310181,0.38733309507369995,0.5944699048995972,0.45939385890960693,0.6483884453773499,0.42000001668930054,-0.6350727081298828,0.5080136060714722,-1.5347721576690674,-3.0,-0.18332816660404205,-0.17939844727516174,-0.1748141348361969,-0.16916143894195557,-0.20669087767601013,-0.22113120555877686,-0.21745812892913818,-0.2107684165239334
0.85,0.1550084799528122,-0.018628224730491638,0.0,0.5769411325454712,0.0,0.0,-0.8167857527732849,0.24666593968868256,-0.3116806149482727,0.0,0.0,0.0,2.495100975036621,0.4577938914299011,0.6486344337463379,0.41999995708465576,0.5521231889724731,-1.5255159269145224e-06,-5.438422249426367e-06,-0.8337624669075012,6.336349179036915e-05,-0.00038070432492531836,-7.294304668903351e-05,0.009944860823452473,-0.0032606462482362986,-0.0010098264319822192,0.510877251625061,0.7047470808029175,0.5069068074226379,0.36204636096954346,0.2988191843032837,-0.02072998136281967,0.45939385890960693,0.6483884453773499,0.42000001668930054,-0.6217628121376038,1.0311269760131836,-1.4959430694580078,3.000000238418579,-0.18364396691322327,-0.17998632788658142,-0.17541441321372986,-0.16974753141403198,-0.11233558505773544,-0.08942138403654099,-0.05597424879670143,-0.02601105347275734
0.8666666666666667,0.15673348307609558,-0.021494578570127487,0.0,0.5785687565803528,0.0,0.0,-0.8156335949897766,0.0481952540576458,-0.11163128167390823,0.0,0.0,0.0,-0.856670081615448,0.4577938914299011,0.6486343741416931,0.41999995708465576,0.5521233081817627,-1.5601310678903246e-06,-5.5646628425165545e-06,-0.8337623476982117,6.687214045086876e-05,-0.000381065794499591,-7.266644388437271e-05,0.009969289414584637,-0.0032745797652751207,-0.0010184503626078367,0.5128353834152222,0.706587016582489,0.5042692422866821,-0.08268281072378159,0.0033464115113019943,-0.17559993267059326,0.45939385890960693,0.6483884453773499,0.42000001668930054,-0.6292942762374878,-1.6926031112670898,-1.4459171295166016,3.0,-0.18852683901786804,-0.18380595743656158,-0.1780478060245514,-0.17130327224731445,-0.319847047328949,-0.2469644397497177,-0.16796669363975525,-0.09569798409938812
0.8833333333333333,0.16100701689720154,-0.021085042506456375,0.0,0.5914920568466187,0.0,0.0,-0.8063108325004578,0.24530695378780365,-0.019280195236206055,0.0,0.0,0.0,2.425017833709717,0.4577938914299011,0.6486344337463379,0.41999995708465576,0.552123486995697,-1.5882227444308228e-06,-5.3887774811300915e-06,-0.8337622880935669,6.600219057872891e-05,-0.0003809999907389283,-7.269950583577156e-05,0.009965400211513042,-0.003272389993071556,-0.0010163094848394394,0.5111329555511475,0.7062157988548279,0.5035144090652466,-0.07720181345939636,0.12336118519306183,0.06197768449783325,0.45939385890960693,0.6483884453773499,0.42000001668930054,-0.6479281783103943,-0.6214413046836853,-1.4631768465042114,-3.000000238418579,-0.19517500698566437,-0.18900179862976074,-0.18164831399917603,-0.17336870729923248,-0.13858048617839813,-0.12057899683713913,-0.08250923454761505,-0.034375306218862534
