vladlanda/robotic-transformer/data/env_000_episode_0295.csv
sim_time_s,robot_box_x,robot_box_y,robot_box_z,robot_box_quat_w,robot_box_quat_x,robot_box_quat_y,robot_box_quat_z,robot_box_linvel_x,robot_box_linvel_y,robot_box_linvel_z,robot_box_angvel_x,robot_box_angvel_y,robot_box_angvel_z,cube_world_x,cube_world_y,cube_world_z,cube_quat_w,cube_quat_x,cube_quat_y,cube_quat_z,cube_linvel_x,cube_linvel_y,cube_linvel_z,cube_angvel_x,cube_angvel_y,cube_angvel_z,endpoint_world_x,endpoint_world_y,endpoint_world_z,endpoint_linvel_x,endpoint_linvel_y,endpoint_linvel_z,target_cube_world_x,target_cube_world_y,target_cube_world_z,gripper_actual_pos_rad_gp_leftgearjoint,gripper_actual_vel_rad_s_gp_leftgearjoint,gripper_actual_pos_rad_gp_rotatingjoint,gripper_actual_vel_rad_s_gp_rotatingjoint,motor_angle_rad_joint1,motor_angle_rad_joint2,motor_angle_rad_joint3,motor_angle_rad_joint4,motor_speed_rad_s_joint1,motor_speed_rad_s_joint2,motor_speed_rad_s_joint3,motor_speed_rad_s_joint4
0.0,0.0,0.0,0.0,1.0,0.0,0.0,0.0,0.0,0.0,0.0,0.0,0.0,0.0,-0.4703333079814911,0.6632924675941467,0.41999998688697815,1.0,0.0,0.0,0.0,0.0,0.0,0.0,0.0,0.0,0.0,3.42540442943573e-06,-0.005000244826078415,1.313499927520752,0.0,0.0,0.0,0.4468287527561188,0.6578525900840759,0.42000001668930054,-1.5707999467849731,0.0,0.0,0.0,0.0,0.0,0.0,0.0,0.0,0.0,0.0,0.0
0.016666666666666666,0.0028778850100934505,0.0021806680597364902,0.0,0.9998081922531128,0.0,0.0,0.019586581736803055,0.24087215960025787,0.18240931630134583,0.0,0.0,0.0,3.1418697834014893,-0.47033342719078064,0.6632921695709229,0.41999998688697815,1.0,3.2799914606584935e-06,-8.339814598912199e-07,8.465387679734704e-08,-1.9833554688375443e-05,0.00017983050202019513,-6.133061833679676e-05,0.0009432226070202887,-0.004689437802881002,-0.0003198152990080416,-0.007110234349966049,0.003379564033821225,1.3159373998641968,-0.8143353462219238,0.9868683815002441,0.18095196783542633,0.4468287527561188,0.6578525900840759,0.42000001668930054,-1.5301095247268677,3.0000011920928955,-0.04584788903594017,-2.9999992847442627,0.0008691533003002405,0.0007963840034790337,0.0007110277656465769,0.0006108740926720202,0.11094217747449875,0.09756709635257721,0.08334315568208694,0.06823883205652237
0.03333333333333333,0.008959069848060608,0.0068046036176383495,0.0,0.9997954368591309,0.0,0.0,0.02022695727646351,0.40704256296157837,0.31531766057014465,0.0,0.0,0.0,-0.8698953986167908,-0.4703335464000702,0.6632921099662781,0.4200000464916229,1.0,3.390885240150965e-06,-2.1324319732229924e-06,-3.711133800265998e-08,0.00026357753085903823,0.00026937859365716577,-0.00010509602725505829,-0.0017706351354718208,0.004130707122385502,-0.00013548039714805782,-0.027544749900698662,0.025840643793344498,1.3166505098342896,-1.5912933349609375,1.606499433517456,-0.0785311758518219,0.4468287527561188,0.6578525900840759,0.42000001668930054,-1.4800903797149658,3.00000262260437,-0.09588772058486938,-3.0000009536743164,0.00298941764049232,0.0026521349791437387,0.0022768054623156786,0.0018603570060804486,0.1642484813928604,0.13979275524616241,0.11385180056095123,0.08633401989936829
0.05,0.017757778987288475,0.013775852508842945,0.0,0.9993737936019897,0.0,0.0,0.03538360446691513,0.5939803123474121,0.4651709496974945,0.0,0.0,0.0,2.6468355655670166,-0.4703335762023926,0.6632921695709229,0.4200000464916229,1.0,3.7652134778909385e-06,-2.2118977085483493e-06,5.605784725304375e-09,0.0002653079864103347,0.00026691483799368143,-0.00010440615005791187,-0.0017242918256670237,0.0041773696430027485,-0.00012949654774274677,-0.05967811867594719,0.05342821776866913,1.3117866516113281,-2.187696933746338,1.738708734512329,-0.46655187010765076,0.4468287527561188,0.6578525900840759,0.42000001668930054,-1.4300720691680908,3.0000009536743164,-0.145926371216774,-2.999999523162842,0.005712308920919895,0.004920187871903181,0.004055914469063282,0.003115062601864338,0.19282877445220947,0.15593072772026062,0.1171564906835556,0.0764136090874672
0.06666666666666667,0.029075725004076958,0.023070765659213066,0.0,0.9994465112686157,0.0,0.0,0.03326580300927162,0.7205256223678589,0.5952781438827515,0.0,0.0,0.0,-1.2124513387680054,-0.4703335762023926,0.6632921099662781,0.4200000464916229,0.9999999403953552,3.4068298191414215e-06,-2.28560702453251e-06,4.300801776935259e-07,0.00026702682953327894,0.0002679186000023037,-0.00010437914170324802,-0.0017406968399882317,0.004211870953440666,-0.00012850748316850513,-0.09853996336460114,0.08697354048490524,1.2993069887161255,-2.4765048027038574,2.1754424571990967,-1.0020009279251099,0.4468287527561188,0.6578525900840759,0.42000001668930054,-1.3800537586212158,3.0000009536743164,-0.19596371054649353,-3.000000476837158,0.008364668115973473,0.006902581080794334,0.00532956188544631,0.003639411646872759,0.1581805795431137,0.10867196321487427,0.05713295564055443,0.003487109672278166
0.08333333333333333,0.03764726221561432,0.035292644053697586,0.0,0.9989577531814575,0.0,0.0,0.045644402503967285,0.40491703152656555,0.7982133030891418,0.0,0.0,0.0,2.5784332752227783,-0.4703335762023926,0.6632921099662781,0.4200000464916229,0.9999999403953552,3.6261494642531034e-06,-2.3353520646196557e-06,3.03220957675876e-07,0.00026613869704306126,0.00026685185730457306,-0.00010405178181827068,-0.001728373346850276,0.0041963220573961735,-0.0001279099815292284,-0.14309434592723846,0.12136754393577576,1.2774999141693115,-2.7891669273376465,2.01619815826416,-1.5451643466949463,0.4468287527561188,0.6578525900840759,0.42000001668930054,-1.3300316333770752,3.000002861022949,-0.2255561351776123,-0.7271623015403748,0.007571360561996698,0.00548061216250062,0.0032359459437429905,0.0008281487389467657,-0.13121262192726135,-0.17088326811790466,-0.2127952128648758,-0.25717654824256897
0.1,0.047879546880722046,0.04915570467710495,0.0,0.9990799427032471,0.0,0.0,0.04288725554943085,0.6976540088653564,0.8561134338378906,0.0,0.0,0.0,-1.2812296152114868,-0.4703335762023926,0.6632921099662781,0.4200000464916229,1.0,3.422180270717945e-06,-2.3086204237188213e-06,1.7963316167879384e-07,0.0002668162633199245,0.00026800515479408205,-0.00010440475307404995,-0.001743071130476892,0.0042070611380040646,-0.00012891352525912225,-0.18551304936408997,0.1600569635629654,1.2509725093841553,-2.3977603912353516,2.4821157455444336,-1.6625616550445557,0.4468287527561188,0.6578525900840759,0.42000001668930054,-1.2800207138061523,2.999999761581421,-0.2730776369571686,-2.9999992847442627,0.00610746955499053,0.002903598127886653,-0.0004787547804880887,-0.004050243645906448,-0.0908416137099266,-0.17591790854930878,-0.26175230741500854,-0.34835806488990784
0.11666666666666667,0.05614691972732544,0.06533393263816833,0.0,0.9999377727508545,0.0,0.0,0.011153275147080421,0.5499332547187805,1.0187188386917114,0.0,0.0,0.0,-4.432708263397217,-0.4703335762023926,0.6632921695709229,0.4200000464916229,1.0,3.7115075883775717e-06,-2.3327127109951107e-06,2.5744481035872013e-07,0.00026485862326808274,0.0002663535997271538,-0.00010423525236546993,-0.0017182156443595886,0.004170025233179331,-0.00012915159459225833,-0.22429126501083374,0.20548316836357117,1.2233059406280518,-2.313307285308838,2.814744710922241,-1.61155104637146,0.4468287527561188,0.6578525900840759,0.42000001668930054,-1.2299981117248535,2.9999895095825195,-0.23891553282737732,3.0000016689300537,0.0032022756058722734,-0.0015636220341548324,-0.006500415503978729,-0.011618677526712418,-0.024397915229201317,-0.14695101976394653,-0.2667619585990906,-0.383662611246109
0.13333333333333333,0.062057990580797195,0.07897204160690308,0.0,1.0,0.0,0.0,-0.00024088249483611435,0.2664300501346588,0.7346101403236389,0.0,0.0,0.0,-0.2629513144493103,-0.4703335762023926,0.6632921099662781,0.4200000464916229,1.0,3.335707560836454e-06,-2.231929784102249e-06,3.113250670594425e-07,0.00026669655926525593,0.00026759272441267967,-0.00010428344830870628,-0.0017370833083987236,0.004205867648124695,-0.00012840259296353906,-0.2659141421318054,0.24755994975566864,1.196739673614502,-2.4651877880096436,2.5722453594207764,-1.6193615198135376,0.4468287527561188,0.6578525900840759,0.42000001668930054,-1.1800129413604736,3.000000476837158,-0.270060271024704,-3.000000238418579,0.0016489110421389341,-0.00519303185865283,-0.012142974883317947,-0.01920824684202671,-0.16483262181282043,-0.285339891910553,-0.40178537368774414,-0.5139806270599365
0.15,0.06395476311445236,0.09243518114089966,0.0,0.9997268319129944,0.0,0.0,-0.02337125688791275,0.057271670550107956,0.8689706921577454,0.0,0.0,0.0,-3.608715534210205,-0.4703335762023926,0.6632921099662781,0.4200000464916229,1.0,3.518910716593382e-06,-2.283128196722828e-06,-3.6253297253097116e-07,0.00026618537958711386,0.0002673573326319456,-0.00010425900109112263,-0.001734911696985364,0.004195764660835266,-0.0001286038022954017,-0.30646049976348877,0.2955557703971863,1.1654006242752075,-2.3772048950195312,3.1128435134887695,-2.1374878883361816,0.4468287527561188,0.6578525900840759,0.42000001668930054,-1.129995346069336,2.9999935626983643,-0.23590703308582306,3.0000011920928955,-0.002550149569287896,-0.011256936937570572,-0.019991541281342506,-0.02875916101038456,-0.3280578553676605,-0.42474499344825745,-0.5166563391685486,-0.6037396192550659
0.16666666666666666,0.06344655901193619,0.10469981282949448,0.0,0.9972590804100037,0.0,0.0,-0.07398857176303864,-0.1232597678899765,0.66959148645401,0.0,0.0,0.0,-6.86992073059082,-0.4703335762023926,0.6632921099662781,0.4200000464916229,1.0,3.6666367577709025e-06,-2.339185357413953e-06,-3.1499951091973344e-07,0.00026595836970955133,0.00026667435304261744,-0.0001040350180119276,-0.001725263660773635,0.004192706663161516,-0.0001277874398510903,-0.3435431718826294,0.35318756103515625,1.1253867149353027,-2.0194499492645264,3.7459378242492676,-2.6549465656280518,0.4468287527561188,0.6578525900840759,0.42000001668930054,-1.090811848640442,1.7730640172958374,-0.2671152949333191,-3.0000014305114746,-0.009810284711420536,-0.019970906898379326,-0.0300739873200655,-0.04012562707066536,-0.5449267029762268,-0.6151518821716309,-0.6805903315544128,-0.7413679361343384
0.18333333333333332,0.06783559173345566,0.11826068162918091,0.0,0.9942622780799866,0.0,0.0,-0.10696984827518463,0.3951742351055145,0.8599843978881836,0.0,0.0,0.0,-2.891573429107666,-0.4703335762023926,0.6632921099662781,0.4200000464916229,1.0,3.81432801077608e-06,-2.3995953597477637e-06,-2.702601591408893e-07,0.00026549241738393903,0.00026611125213094056,-0.0001039144117385149,-0.001717846025712788,0.004184907767921686,-0.0001275365357287228,-0.38123297691345215,0.4114688038825989,1.074429988861084,-2.1561670303344727,3.6025524139404297,-3.449641227722168,0.4468287527561188,0.6578525900840759,0.42000001668930054,-1.047804832458496,3.000001907348633,-0.31714457273483276,-3.000000238418579,-0.016106849536299706,-0.02723591774702072,-0.03822404518723488,-0.049083273857831955,-0.37509915232658386,-0.40914440155029297,-0.4390711784362793,-0.46538078784942627
0.2,0.0691026896238327,0.12849093973636627,0.0,0.9880927801132202,0.0,0.0,-0.15385927259922028,0.10474428534507751,0.5831721425056458,0.0,0.0,0.0,-6.3853864669799805,-0.4703335762023926,0.6632921099662781,0.4200000464916229,1.0,3.600060153985396e-06,-2.291302735102363e-06,-2.201773270371632e-07,0.0002657297591213137,0.00026644914760254323,-0.00010398100130259991,-0.001722595770843327,0.004188771825283766,-0.00012773473281413317,-0.4158693552017212,0.4723094701766968,1.0105654001235962,-1.8047847747802734,3.8666906356811523,-4.083456039428711,0.4468287527561188,0.6578525900840759,0.42000001668930054,-0.9978033304214478,2.9999916553497314,-0.3671719431877136,-3.0,-0.02882823720574379,-0.039678286761045456,-0.05036770552396774,-0.06092440336942673,-0.7390737533569336,-0.727480411529541,-0.7138417363166809,-0.6988880038261414
0.21666666666666667,0.06711340695619583,0.13918977975845337,0.0,0.9838841557502747,0.0,0.0,-0.17880703508853912,-0.20668038725852966,0.6920629143714905,0.0,0.0,0.0,-1.9316478967666626,-0.4703335762023926,0.6632921099662781,0.4200000464916229,0.9999999403953552,3.639672286226414e-06,-2.2620502022618894e-06,2.2248650566325523e-07,0.000266873772488907,0.00026754458667710423,-0.00010411953553557396,-0.0017403344390913844,0.004211024381220341,-0.00012783858983311802,-0.44852399826049805,0.5280175805091858,0.9359357953071594,-1.7309510707855225,3.214730978012085,-4.826550006866455,0.4468287527561188,0.6578525900840759,0.42000001668930054,-0.9478002786636353,3.0000009536743164,-0.4172002673149109,-3.0000009536743164,-0.04406752809882164,-0.05453355610370636,-0.06459707021713257,-0.07418864965438843,-0.9662872552871704,-0.9534352421760559,-0.9136133790016174,-0.8343097567558289
0.23333333333333334,0.0676516443490982,0.1471346914768219,0.0,0.9767764210700989,0.0,0.0,-0.21426120400428772,0.10153206437826157,0.39255490899086,0.0,0.0,0.0,-5.092130661010742,-0.4703335464000702,0.6632921099662781,0.4200000464916229,1.0,3.4207396311103366e-06,-2.316890231668367e-06,2.956003868348489e-07,0.0002668009256012738,0.0002680391480680555,-0.00010442500934004784,-0.001743813743814826,0.004206887446343899,-0.00012899574358016253,-0.47546321153640747,0.5794281363487244,0.84769606590271,-1.3123555183410645,2.9250011444091797,-5.625673294067383,0.4468287527561188,0.6578525900840759,0.42000001668930054,-0.8977895975112915,2.9999990463256836,-0.4672301113605499,-3.0000007152557373,-0.06035766378045082,-0.07072216272354126,-0.08050759881734848,-0.08929011970758438,-0.9882537722587585,-0.9903357028961182,-0.9709479808807373,-0.9537914991378784
0.25,0.06373026221990585,0.15594014525413513,0.0,0.972701907157898,0.0,0.0,-0.2320581078529358,-0.20727069675922394,0.5181532502174377,0.0,0.0,0.0,-1.1157715320587158,-0.4703335762023926,0.6632921099662781,0.4200000464916229,0.9999999403953552,3.3476337648608023e-06,-2.259205075461068e-06,1.8083990482864465e-07,0.00026687842910178006,0.00026791240088641644,-0.00010439497418701649,-0.0017405577236786485,0.004208357073366642,-0.00012870198406744748,-0.4938189387321472,0.613681435585022,0.7522236108779907,-0.7611023783683777,1.6353251934051514,-5.745084762573242,0.4468287527561188,0.6578525900840759,0.42000001668930054,-0.8477789759635925,2.999877452850342,-0.5172605514526367,-2.999967575073242,-0.07741153985261917,-0.08761289715766907,-0.09729385375976562,-0.10600858926773071,-0.7507643103599548,-0.7946114540100098,-0.835791289806366,-0.8733481168746948
0.26666666666666666,0.064431332051754,0.16076235473155975,0.0,0.9654951095581055,0.0,0.0,-0.26042118668556213,0.08371768146753311,0.2260625809431076,0.0,0.0,0.0,-4.184149742126465,-0.4703335762023926,0.6632921099662781,0.4200000464916229,0.9999999403953552,3.5357140859559877e-06,-2.3003274236543803e-06,-1.2686156480867794e-07,0.00026601788704283535,0.00026712179533205926,-0.00010419590398669243,-0.0017317213350906968,0.0041928826831281185,-0.0001284949539694935,-0.5041161179542542,0.639074981212616,0.6521148681640625,-0.2666255533695221,1.2951338291168213,-6.120186805725098,0.4468287527561188,0.6578525900840759,0.42000001668930054,-0.7977697849273682,3.0000011920928955,-0.5672903060913086,-2.9999983310699463,-0.09188473224639893,-0.10234531760215759,-0.11227408051490784,-0.12121608108282089,-0.9956215023994446,-0.9962940812110901,-0.996832013130188,-0.9972714781761169
0.2833333333333333,0.061247553676366806,0.16262049973011017,0.0,0.9631010890007019,0.0,0.0,-0.26913994550704956,-0.2592489421367645,0.06563406437635422,0.0,0.0,0.0,-0.10134784877300262,-0.4703335762023926,0.6632921695709229,0.4200000464916229,1.0,3.5934606330556562e-06,-2.2626402369496645e-06,-5.653511081504803e-08,0.0002670461544767022,0.0002677498559933156,-0.00010416866280138493,-0.001743200235068798,0.004214190412312746,-0.00012789414904545993,-0.5040393471717834,0.6519607305526733,0.5567703247070312,0.3609674274921417,0.47190335392951965,-5.374907493591309,0.4468287527561188,0.6578525900840759,0.42000001668930054,-0.7477610111236572,3.0000007152557373,-0.617319643497467,-3.0000011920928955,-0.10972514003515244,-0.11989988386631012,-0.1296154260635376,-0.13839203119277954,-1.010770320892334,-1.008100986480713,-1.0060697793960571,-1.0044571161270142
0.3,0.05601806566119194,0.1614588052034378,0.0,0.9572521448135376,0.0,0.0,-0.2892548739910126,-0.3576335608959198,-0.11747553199529648,0.0,0.0,0.0,-3.363826036453247,-0.4703335464000702,0.6632921099662781,0.4200000464916229,0.9999999403953552,3.725018814293435e-06,-2.2360595721693244e-06,3.828810974937369e-07,0.0002647961082402617,0.0002667308726813644,-0.00010453863069415092,-0.0017189140198752284,0.004166588187217712,-0.00013016707089263946,-0.4939560890197754,0.6616460084915161,0.46683233976364136,0.9608726501464844,0.5654280185699463,-5.298147201538086,0.4468287527561188,0.6578525900840759,0.42000001668930054,-0.6977531909942627,3.0000011920928955,-0.6673474311828613,-2.999998092651367,-0.1264544278383255,-0.1365739405155182,-0.14627011120319366,-0.15504609048366547,-1.0086817741394043,-1.0065605640411377,-1.0049407482147217,-1.003644347190857
0.31666666666666665,0.04845401272177696,0.15788038074970245,0.0,0.9565563797950745,0.0,0.0,-0.29154732823371887,-0.48937833309173584,-0.2545524537563324,0.0,0.0,0.0,0.6464642286300659,-0.4703335762023926,0.6632921099662781,0.4200000464916229,0.9999999403953552,3.55773545379634e-06,-2.278906777064549e-06,2.2836061930320284e-07,0.00026598561089485884,0.00026658637216314673,-0.00010399054735898972,-0.001724138157442212,0.004193493630737066,-0.0001276934490306303,-0.48633047938346863,0.6675465106964111,0.4263472855091095,0.12972581386566162,-0.07716242969036102,-0.20222294330596924,0.4468287527561188,0.6578525900840759,0.42000001668930054,-0.6478301286697388,3.00030255317688,-0.7177969813346863,-3.001795768737793,-0.137091264128685,-0.14744888246059418,-0.1571868509054184,-0.1657598316669464,-0.2753608524799347,-0.2988653779029846,-0.3005106747150421,-0.27597278356552124
0.3333333333333333,0.038513123989105225,0.15198951959609985,0.0,0.9515536427497864,0.0,0.0,-0.30748283863067627,-0.6473332047462463,-0.39640292525291443,0.0,0.0,0.0,-2.872270107269287,-0.4703335762023926,0.6632921099662781,0.4200000464916229,1.0,3.782574367505731e-06,-2.2364465621649288e-06,-9.631799713361033e-08,0.02294372208416462,0.06356874108314514,-0.0003990456461906433,-0.3554043769836426,0.41516873240470886,-1.2119685411453247,-0.4855886697769165,0.6698818206787109,0.4235396385192871,0.18079744279384613,0.20777806639671326,-0.19886447489261627,0.4468287527561188,0.6578525900840759,0.42000001668930054,-0.5978243350982666,2.999297857284546,-0.7678503394126892,-2.999321222305298,-0.14279137551784515,-0.15300805866718292,-0.16224932670593262,-0.16993381083011627,-0.4059622883796692,-0.3639281094074249,-0.30364978313446045,-0.22491008043289185
0.35,0.026298752054572105,0.14376960694789886,0.0,0.9516726732254028,0.0,0.0,-0.30711421370506287,-0.7690954208374023,-0.5418586134910583,0.0,0.0,0.0,0.9533364176750183,-0.46656545996665955,0.6695950031280518,0.4200000762939453,0.9969088435173035,2.8978211048524827e-06,-5.0315629778197035e-06,-0.07856671512126923,0.2979249954223633,0.48217710852622986,-2.9749171517323703e-06,-0.0019873306155204773,0.0024313093163073063,-12.415340423583984,-0.48131436109542847,0.6767868995666504,0.42046335339546204,0.3454604148864746,0.6199535727500916,-0.1515478938817978,0.4468287527561188,0.6578525900840759,0.42000001668930054,-0.5478193163871765,2.999847650527954,-0.8178836703300476,-2.9999477863311768,-0.15090997517108917,-0.15978366136550903,-0.16738224029541016,-0.17315378785133362,-0.5092412829399109,-0.4092637896537781,-0.2910439074039459,-0.15767191350460052
0.36666666666666664,0.01747315749526024,0.13273879885673523,0.0,0.9473034739494324,0.0,0.0,-0.32033756375312805,-0.4398954510688782,-0.709354817867279,0.0,0.0,0.0,-2.5024805068969727,-0.46042776107788086,0.6792929172515869,0.4202030301094055,0.9936437010765076,-0.005060210358351469,0.0005167581257410347,-0.11245553195476532,0.4595717191696167,0.7238487601280212,0.06218929588794708,-3.0429110527038574,0.6426287293434143,-3.1099278926849365,-0.47468024492263794,0.6859022378921509,0.4203863739967346,0.5132471323013306,0.6324469447135925,0.06639857590198517,0.4468287527561188,0.6578525900840759,0.42000001668930054,-0.4977560341358185,2.999913454055786,-0.8678842782974243,-2.9999780654907227,-0.1595601588487625,-0.16627855598926544,-0.1713767796754837,-0.17438030242919922,-0.49773669242858887,-0.34835681319236755,-0.1786518394947052,0.005767689552158117
0.3833333333333333,0.005615244619548321,0.11995180696249008,0.0,0.9326697587966919,0.0,0.0,-0.3607313930988312,-0.8087696433067322,-0.7940008044242859,0.0,0.0,0.0,-6.075041770935059,-0.4485524892807007,0.6964150667190552,0.42132654786109924,0.988731861114502,-0.03374853730201721,0.004600604996085167,-0.14577066898345947,0.9984161257743835,1.388385534286499,0.07635733485221863,-3.2399144172668457,0.06322494894266129,-6.354884147644043,-0.46234333515167236,0.7017461657524109,0.4217635989189148,0.9729596376419067,1.3391139507293701,0.09796490520238876,0.4468287527561188,0.6578525900840759,0.42000001668930054,-0.44771328568458557,2.9999454021453857,-0.9178963303565979,-2.999990463256836,-0.17059141397476196,-0.17421872913837433,-0.17590199410915375,-0.17528481781482697,-0.6514326930046082,-0.4624759554862976,-0.25459760427474976,-0.0353228934109211
0.4,-0.0027682047802954912,0.10424967110157013,0.0,0.9048980474472046,0.0,0.0,-0.4256283938884735,-0.48051849007606506,-0.983246922492981,0.0,0.0,0.0,-9.165916442871094,-0.42000651359558105,0.7268660664558411,0.42310306429862976,0.9813416004180908,0.0035701943561434746,-0.0283019058406353,-0.19014409184455872,2.5705060958862305,2.2406411170959473,0.3252003788948059,13.731795310974121,-9.069052696228027,-2.741795778274536,-0.43370985984802246,0.733262300491333,0.422796368598938,2.519569158554077,2.369626045227051,0.2957216501235962,0.4468287527561188,0.6578525900840759,0.42000001668930054,-0.39966636896133423,2.2792510986328125,-0.8811417818069458,3.0002355575561523,-0.1805073320865631,-0.18064069747924805,-0.17852453887462616,-0.173947274684906,-0.7036209106445312,-0.4414612352848053,-0.1645503044128418,0.11646903306245804
0.4166666666666667,-0.009296824224293232,0.09294343739748001,0.0,0.8611707091331482,0.0,0.0,-0.5083158612251282,-0.3123569190502167,-0.6286022663116455,0.0,0.0,0.0,-11.888917922973633,-0.3533300459384918,0.7731466293334961,0.4289970397949219,0.9620683193206787,0.0706358551979065,-0.06837761402130127,-0.25447893142700195,5.5297369956970215,3.2823567390441895,0.42321640253067017,10.320795059204102,-10.255941390991211,4.85542106628418,-0.3661491274833679,0.7810642719268799,0.42831066250801086,5.131340026855469,3.4228644371032715,0.38285860419273376,0.4468287527561188,0.6578525900840759,0.42000001668930054,-0.3782520592212677,0.9281725883483887,-0.8310995697975159,3.0000038146972656,-0.19659388065338135,-0.19361910223960876,-0.18557190895080566,-0.175356924533844,-0.714546799659729,-0.7231015563011169,-0.41498494148254395,-0.1296231597661972
0.43333333333333335,-0.011610949411988258,0.08401700854301453,0.0,0.7977455258369446,0.0,0.0,-0.6029942631721497,-0.08629609644412994,-0.473773717880249,0.0,0.0,0.0,-14.46015453338623,-0.24791429936885834,0.827705442905426,0.4366682767868042,0.9354166388511658,0.12465096265077591,-0.10134187340736389,-0.31494057178497314,7.862020969390869,2.9611902236938477,0.6643182635307312,12.120019912719727,-17.80518341064453,11.728585243225098,-0.25909513235092163,0.8389278650283813,0.4361027479171753,7.438180923461914,3.392603874206543,0.6096293926239014,0.4468287527561188,0.6578525900840759,0.42000001668930054,-0.3641127347946167,0.8789395093917847,-0.8115555047988892,-0.35669752955436707,-0.21030642092227936,-0.2061602920293808,-0.19294947385787964,-0.17812113463878632,-0.866934061050415,-0.7527488470077515,-0.46326202154159546,-0.21375498175621033
0.45,-0.01708180084824562,0.0806453749537468,0.0,0.7404677271842957,0.0,0.0,-0.6720919013023376,-0.2944454252719879,-0.19059953093528748,0.0,0.0,0.0,-9.405609130859375,-0.12602822482585907,0.8644611239433289,0.44754207134246826,0.8800950050354004,0.14398883283138275,-0.10234496742486954,-0.44071024656295776,7.516198635101318,0.7347438931465149,0.5953339338302612,-3.7681756019592285,-21.290578842163086,19.613370895385742,-0.1374126374721527,0.8794650435447693,0.44675374031066895,7.389613628387451,1.764298439025879,0.7381228804588318,0.4468287527561188,0.6578525900840759,0.42000001668930054,-0.34984713792800903,0.7590256929397583,-0.8569528460502625,-3.0000035762786865,-0.22534511983394623,-0.2212916910648346,-0.20528434216976166,-0.1846885085105896,-0.6826890707015991,-0.720736026763916,-0.7095481157302856,-0.3999088704586029
0.4666666666666667,-0.023943739011883736,0.0715472474694252,0.0,0.7040315270423889,0.0,0.0,-0.710168719291687,-0.3967122733592987,-0.5208833813667297,0.0,0.0,0.0,-5.0972371101379395,-0.0033492781221866608,0.8797509670257568,0.4575639069080353,0.8010787963867188,0.1390073150396347,-0.11624173820018768,-0.5704712867736816,7.182065963745117,-0.7414543628692627,0.3443431258201599,-31.651412963867188,0.38020554184913635,3.7530412673950195,-0.015685658901929855,0.8983521461486816,0.4576120376586914,7.402804851531982,0.28305530548095703,0.7613546848297119,0.4468287527561188,0.6578525900840759,0.42000001668930054,-0.3376125395298004,0.5467017889022827,-0.9069769382476807,-2.9989116191864014,-0.2359321117401123,-0.23059898614883423,-0.21306796371936798,-0.18705040216445923,-0.8942781686782837,-0.6776797771453857,-0.4778454303741455,-0.10533066093921661
0.48333333333333334,-0.027614204213023186,0.06357250362634659,0.0,0.6915486454963684,0.0,0.0,-0.72232985496521,-0.18676909804344177,-0.42539823055267334,0.0,0.0,0.0,-1.0006709098815918,0.10450662672519684,0.866497278213501,0.4655334949493408,0.7323043942451477,0.1226312518119812,-0.10547789186239243,-0.6614878177642822,6.226998329162598,-1.7451274394989014,0.5139999389648438,1.0203245878219604,-17.682987213134766,1.5944534540176392,0.09613974392414093,0.8914443254470825,0.4669859707355499,5.912813186645508,-1.1954048871994019,0.4592529833316803,0.4468287527561188,0.6578525900840759,0.42000001668930054,-0.33380788564682007,0.07142714411020279,-0.9570010900497437,-3.000004291534424,-0.24003973603248596,-0.24003110826015472,-0.22442308068275452,-0.1916876584291458,-0.01849573850631714,-0.0132253747433424,-0.7790420651435852,-0.3939903676509857
0.5,-0.028709517791867256,0.053724247962236404,0.0,0.6709917783737183,0.0,0.0,-0.7414647936820984,0.002869956661015749,-0.6444461345672607,0.0,0.0,0.0,-4.220717906951904,0.19437405467033386,0.8377796411514282,0.4683302342891693,0.6558412313461304,0.10823119431734085,-0.10886815190315247,-0.7391250729560852,5.015603065490723,-2.618069648742676,0.4738328158855438,-19.710617065429688,17.55515480041504,-25.163131713867188,0.18925011157989502,0.8654035329818726,0.4708782434463501,5.184183120727539,-2.0820484161376953,-0.04307868704199791,0.4468287527561188,0.6578525900840759,0.42000001668930054,-0.33663907647132874,-0.4551597535610199,-1.007024884223938,-2.994669198989868,-0.24001336097717285,-0.23965151607990265,-0.23427438735961914,-0.19627101719379425,-0.026066647842526436,0.04096890985965729,-0.4156930148601532,-0.17203325033187866
0.5166666666666666,-0.02642642706632614,0.047977596521377563,0.0,0.663702130317688,0.0,0.0,-0.747996985912323,0.1539427489042282,-0.30497264862060547,0.0,0.0,0.0,-0.1364649385213852,0.269882470369339,0.7979090809822083,0.4660220444202423,0.5792617797851562,0.07807771116495132,-0.0827348604798317,-0.8071644902229309,4.000212669372559,-3.4630002975463867,-0.06115772947669029,-12.293834686279297,-9.822370529174805,-6.943272113800049,0.2675223648548126,0.8253155946731567,0.46890193223953247,4.212401390075684,-2.5549988746643066,-0.3147684335708618,0.4468287527561188,0.6578525900840759,0.42000001668930054,-0.34812816977500916,-0.919745147228241,-1.0570471286773682,-3.00000262260437,-0.23995132744312286,-0.23990073800086975,-0.23995505273342133,-0.2003612518310547,-0.02925162948668003,0.031315430998802185,-0.007375212386250496,-0.13775373995304108
0.5333333333333333,-0.022057989612221718,0.045680832117795944,0.0,0.6481996178627014,0.0,0.0,-0.7614704966545105,0.3123779296875,-0.07284603267908096,0.0,0.0,0.0,-3.3595802783966064,0.33134979009628296,0.7577071189880371,0.4557860791683197,0.5221253633499146,0.03575997054576874,-0.07634488493204117,-0.8486918210983276,3.1913788318634033,-3.3551113605499268,-0.5454738140106201,24.464279174804688,3.1300783157348633,23.142221450805664,0.33065178990364075,0.7831171154975891,0.4588986039161682,3.2635092735290527,-2.5062742233276367,-0.8176400661468506,0.4468287527561188,0.6578525900840759,0.42000001668930054,-0.36237746477127075,-0.8181629776954651,-1.1070692539215088,-2.999215602874756,-0.23821936547756195,-0.23771174252033234,-0.23854605853557587,-0.20237880945205688,0.1778174787759781,0.20348171889781952,0.17026875913143158,-0.08323036134243011
0.55,-0.015288877300918102,0.04687293618917465,0.0,0.6464791893959045,0.0,0.0,-0.7629316449165344,0.43784114718437195,0.1379694789648056,0.0,0.0,0.0,0.6114824414253235,0.37830841541290283,0.7173945307731628,0.44017866253852844,0.48048073053359985,-0.007092280313372612,-0.039711982011795044,-0.8760769963264465,2.235891819000244,-2.4379515647888184,-1.071711540222168,0.331904798746109,4.548871040344238,-5.810272693634033,0.37789201736450195,0.7406381368637085,0.44320759177207947,2.345533847808838,-2.477614402770996,-1.0293457508087158,0.4468287527561188,0.6578525900840759,0.42000001668930054,-0.3719066381454468,0.06373944878578186,-1.1570913791656494,-3.0000011920928955,-0.2343870848417282,-0.23360873758792877,-0.23486962914466858,-0.2035425305366516,0.30931374430656433,0.3110174536705017,0.28406286239624023,-0.042513158172369
0.5666666666666667,-0.005518313497304916,0.04252944514155388,0.0,0.632664144039154,0.0,0.0,-0.774426281452179,0.6453585028648376,-0.4031067490577698,0.0,0.0,0.0,-3.195991277694702,0.4135183095932007,0.6834521889686584,0.41954463720321655,0.4515421688556671,-0.03351730480790138,0.03967628628015518,-0.8907366991043091,2.0714240074157715,-1.3804429769515991,-0.9496597647666931,46.034610748291016,19.00003433227539,-6.010989189147949,0.4143211841583252,0.7054630517959595,0.4221811890602112,1.7887859344482422,-1.8559939861297607,-1.2677972316741943,0.4468287527561188,0.6578525900840759,0.42000001668930054,-0.3612118363380432,1.2267343997955322,-1.20711350440979,-2.9987285137176514,-0.22248291969299316,-0.22313903272151947,-0.22603097558021545,-0.20155051350593567,0.8888939023017883,0.7653581500053406,0.6406304240226746,0.1904827058315277
0.5833333333333334,0.0012157426681369543,0.0414193794131279,0.0,0.6307694911956787,0.0,0.0,-0.7759702801704407,0.3258807063102722,-0.07220782339572906,0.0,0.0,0.0,0.5539723038673401,0.4344927668571472,0.6667280793190002,0.4220818877220154,0.45115262269973755,-0.039454106241464615,-0.02777264453470707,-0.8911415338516235,1.3408900499343872,-1.6931591033935547,0.1355612874031067,-5.956428527832031,3.9557180404663086,26.834928512573242,0.43538299202919006,0.6877186298370361,0.42588886618614197,1.1513882875442505,-0.9571290016174316,-0.11740622669458389,0.4468287527561188,0.6578525900840759,0.42000001668930054,-0.3351813554763794,1.3928180932998657,-1.167707920074463,2.998816967010498,-0.20945827662944794,-0.2118273824453354,-0.21645846962928772,-0.19912797212600708,0.7647107243537903,0.6479994654655457,0.5351119041442871,0.09510388970375061
0.6,0.008604896254837513,0.03453155234456062,0.0,0.6167112588882446,0.0,0.0,-0.7871894240379333,0.385778546333313,-0.31356731057167053,0.0,0.0,0.0,-2.896082639694214,0.4525856375694275,0.6590169668197632,0.420014351606369,0.4839608669281006,-0.00041527088615112007,0.0006643782835453749,-0.8750892281532288,0.5145451426506042,-0.6744334697723389,-0.040652066469192505,-0.8817769885063171,-1.7301033735275269,11.557307243347168,0.4510796070098877,0.676997184753418,0.42353227734565735,0.4272470474243164,-0.34431225061416626,0.040962014347314835,0.4468287527561188,0.6578525900840759,0.42000001668930054,-0.3300495147705078,-0.46870356798171997,-1.1176934242248535,2.9999756813049316,-0.19369879364967346,-0.19694654643535614,-0.20367372035980225,-0.1941785365343094,0.5793350338935852,0.6623765826225281,0.649884045124054,0.2579757571220398
0.6166666666666667,0.017690103501081467,0.03375530615448952,0.0,0.617173433303833,0.0,0.0,-0.7868271470069885,0.5791047811508179,0.01583993062376976,0.0,0.0,0.0,1.0145955085754395,0.45830222964286804,0.6521739363670349,0.42000171542167664,0.5129571557044983,-1.1443935363786295e-05,4.4619828258873895e-05,-0.8584141731262207,0.16325132548809052,-0.2941085398197174,-0.0016287004109472036,-0.046384233981370926,-0.05668186396360397,2.017338275909424,0.45497220754623413,0.6712749004364014,0.4242187738418579,0.06624684482812881,-0.15196925401687622,0.13821248710155487,0.4468287527561188,0.6578525900840759,0.42000001668930054,-0.36663416028022766,-2.995690107345581,-1.140299916267395,-2.9991631507873535,-0.18786507844924927,-0.1897008717060089,-0.19613532721996307,-0.19217827916145325,0.3615138530731201,0.40810680389404297,0.41408175230026245,0.10302111506462097
0.6333333333333333,0.028735732659697533,0.0365690216422081,0.0,0.6401301622390747,0.0,0.0,-0.768266499042511,0.7012137770652771,0.23221373558044434,0.0,0.0,0.0,4.391942977905273,0.45870521664619446,0.6505772471427917,0.4200340509414673,0.5198604464530945,0.0004535700718406588,-0.0007150796009227633,-0.8542507290840149,-0.05904330313205719,0.010704288259148598,0.016550825908780098,-0.41355985403060913,-0.7425833344459534,0.642850935459137,0.455639123916626,0.6717445850372314,0.4263093173503876,0.058827146887779236,0.16650128364562988,0.13349828124046326,0.4468287527561188,0.6578525900840759,0.42000001668930054,-0.3963828980922699,-0.7659728527069092,-1.1902523040771484,-2.9979517459869385,-0.18143968284130096,-0.18323065340518951,-0.18986459076404572,-0.1907505989074707,0.44724613428115845,0.4137989282608032,0.3846716582775116,0.11009842157363892
0.65,0.037175681442022324,0.03485947474837303,0.0,0.6497859954833984,0.0,0.0,-0.76011723279953,0.4304845333099365,-0.14612708985805511,0.0,0.0,0.0,0.43799498677253723,0.45842427015304565,0.6506327986717224,0.4200005531311035,0.5219957828521729,-0.000281693966826424,-7.853642455302179e-05,-0.852948009967804,-0.050049781799316406,0.03396882489323616,-0.012104391120374203,0.3272115886211395,-0.33960849046707153,2.99202036857605,0.4552120566368103,0.6758030652999878,0.42572569847106934,-0.18529745936393738,0.16407684981822968,-0.055656760931015015,0.4468287527561188,0.6578525900840759,0.42000001668930054,-0.43915534019470215,-2.999993324279785,-1.1549172401428223,2.9997498989105225,-0.1706305593252182,-0.17346248030662537,-0.18082907795906067,-0.18599417805671692,0.48802217841148376,0.46109461784362793,0.4611136019229889,0.27328968048095703
0.6666666666666666,0.04588887840509415,0.031569644808769226,0.0,0.6686504483222961,0.0,0.0,-0.7435768842697144,0.5477227568626404,-0.3003336787223816,0.0,0.0,0.0,3.7385847568511963,0.45655691623687744,0.6516087651252747,0.4203178286552429,0.5206319689750671,0.004187087994068861,-0.006756174378097057,-0.8537442088127136,-0.15206098556518555,0.07191996276378632,0.03523396700620651,-0.7939601540565491,-1.578803539276123,-1.0956544876098633,0.4521859586238861,0.6773335933685303,0.4281326234340668,-0.18607568740844727,0.09617585688829422,0.262592613697052,0.4468287527561188,0.6578525900840759,0.42000001668930054,-0.4891672134399414,-2.9999845027923584,-1.1769229173660278,-2.999796152114868,-0.16613657772541046,-0.16852393746376038,-0.17476776242256165,-0.18139445781707764,0.2109927088022232,0.2572166919708252,0.3556549549102783,0.32985997200012207
0.6833333333333333,0.05634971335530281,0.024540051817893982,0.0,0.6733309626579285,0.0,0.0,-0.7393411993980408,0.6614653468132019,-0.4618760347366333,0.0,0.0,0.0,-0.2481158822774887,0.45455044507980347,0.6525499820709229,0.4200439751148224,0.514989972114563,0.0005229276139289141,-0.0009110773098655045,-0.8571954965591431,-0.10970191657543182,0.051242370158433914,-0.03341381251811981,0.7887087464332581,1.5042387247085571,-0.7144870162010193,0.4527730345726013,0.6802147626876831,0.4333602786064148,0.14161251485347748,0.16702735424041748,0.35612842440605164,0.4468287527561188,0.6578525900840759,0.42000001668930054,-0.5391757488250732,-2.999995708465576,-1.2269374132156372,-2.9999985694885254,-0.16395892202854156,-0.16523027420043945,-0.16933295130729675,-0.17538954317569733,0.10219049453735352,0.18211647868156433,0.32906585931777954,0.4068790376186371
0.7,0.068643718957901,0.014785087667405605,0.0,0.656268298625946,0.0,0.0,-0.7545275688171387,0.7717571258544922,-0.6568813920021057,0.0,0.0,0.0,-3.621845245361328,0.45385444164276123,0.6528690457344055,0.41999995708465576,0.5134500861167908,2.7018680270884943e-07,-3.886854571533149e-08,-0.8581193685531616,-0.021001605316996574,0.009426591917872429,-1.3631070032715797e-06,-9.343373676529154e-05,-0.00012887561751995236,-0.09167037904262543,0.4596579670906067,0.6846922636032104,0.44694823026657104,0.6507869958877563,0.3132101893424988,1.3749862909317017,0.4468287527561188,0.6578525900840759,0.42000001668930054,-0.5891872644424438,-2.999985933303833,-1.2769557237625122,-2.999999523162842,-0.16473141312599182,-0.164517343044281,-0.16599667072296143,-0.1702280342578888,-0.11974801123142242,-0.02647792361676693,0.1346728652715683,0.2660053074359894
0.7166666666666667,0.08498334884643555,0.010692383162677288,0.0,0.6172229647636414,0.0,0.0,-0.786788284778595,1.0604743957519531,-0.10811818391084671,0.0,0.0,0.0,-7.259850025177002,0.4538542330265045,0.6528691649436951,0.4200000464916229,0.5134501457214355,7.58185819904611e-07,-2.4137850687111495e-06,-0.8581193685531616,9.980102186091244e-05,-0.00019371927191969007,-7.624924182891846e-05,0.0049513340927660465,-0.0007656154921278358,-0.0007690509664826095,0.47954726219177246,0.6814337968826294,0.47522544860839844,1.8646767139434814,-0.6930979490280151,2.1406078338623047,0.4468287527561188,0.6578525900840759,0.42000001668930054,-0.6391903162002563,-2.9993293285369873,-1.3269740343093872,-2.9999165534973145,-0.17604096233844757,-0.17242467403411865,-0.16950930655002594,-0.16972360014915466,-0.8941338658332825,-0.6381968855857849,-0.3279564082622528,-0.03060222417116165
0.7333333333333333,0.09839268028736115,0.011594509705901146,0.0,0.5897570848464966,0.0,0.0,-0.8075807094573975,0.6881484985351562,-0.16563306748867035,0.0,0.0,0.0,-2.722970962524414,0.4538542926311493,0.6528691649436951,0.4200000464916229,0.513450026512146,-1.905439290794675e-07,-2.205841610702919e-06,-0.8581194877624512,-1.3703552212973591e-05,-0.00023426128609571606,-6.450689397752285e-05,0.006569890771061182,-0.00251384568400681,-0.0006647031987085938,0.5063868761062622,0.6736326217651367,0.5116966962814331,1.5439238548278809,-0.21391454339027405,2.155226707458496,0.4468287527561188,0.6578525900840759,0.42000001668930054,-0.6564617156982422,0.6120244860649109,-1.3769923448562622,-2.999999523162842,-0.18744051456451416,-0.18164993822574615,-0.17480818927288055,-0.17115280032157898,-0.1821855753660202,-0.19512401521205902,-0.10710210353136063,-0.0025249060709029436
0.75,0.10619254410266876,0.010623898357152939,0.0,0.5909244418144226,0.0,0.0,-0.80672687292099,0.3857997953891754,-0.006276570726186037,0.0,0.0,0.0,1.0643961429595947,0.4538542628288269,0.6528692245483398,0.4200000464916229,0.5134501457214355,-2.160174688015104e-07,-2.490467068128055e-06,-0.8581193089485168,-1.6097423213068396e-05,-0.00023608063929714262,-6.416114047169685e-05,0.006630945485085249,-0.0025517302565276623,-0.000665046798530966,0.528387725353241,0.6715456247329712,0.5423555374145508,0.9613829851150513,-0.024792615324258804,1.5549519062042236,0.4468287527561188,0.6578525900840759,0.42000001668930054,-0.6232755184173584,3.0000007152557373,-1.4270106554031372,-2.999999523162842,-0.18823836743831635,-0.1829497069120407,-0.17518942058086395,-0.17021672427654266,0.06476320326328278,0.02126440592110157,0.04673030227422714,0.10045129805803299
0.7666666666666666,0.10966970026493073,0.01158946193754673,0.0,0.6136239767074585,0.0,0.0,-0.7895984053611755,0.17607305943965912,0.18321771919727325,0.0,0.0,0.0,4.339241027832031,0.4538542926311493,0.6528692245483398,0.4200000464916229,0.5134502053260803,-2.6405089670333837e-07,-2.294315663675661e-06,-0.8581193089485168,-1.4274559362092987e-05,-0.0002362558589084074,-6.445101462304592e-05,0.006627016235142946,-0.00252943835221231,-0.0006693127215839922,0.5353392362594604,0.6733430624008179,0.5636889934539795,-0.13875308632850647,0.22821985185146332,1.0719555616378784,0.4468287527561188,0.6578525900840759,0.42000001668930054,-0.5732690095901489,2.9999988079071045,-1.3884942531585693,2.999999761581421,-0.18483035266399384,-0.18059509992599487,-0.17297622561454773,-0.16760197281837463,0.2288515716791153,0.16336776316165924,0.1381039321422577,0.1466779261827469
0.7833333333333333,0.11064662784337997,0.010559204034507275,0.0,0.6215224862098694,0.0,0.0,-0.783396303653717,0.025586644187569618,-0.09477952867746353,0.0,0.0,0.0,0.14483529329299927,0.4538542926311493,0.6528692245483398,0.4200000464916229,0.5134502649307251,-2.613874698909058e-07,-2.435372380205081e-06,-0.8581193089485168,-1.4366680261446163e-05,-0.00023613579105585814,-6.448826752603054e-05,0.006623669993132353,-0.002531624399125576,-0.0006689346046186984,0.5284245014190674,0.6764904260635376,0.5765453577041626,-0.7136108875274658,0.08615683019161224,0.6141307353973389,0.4468287527561188,0.6578525900840759,0.42000001668930054,-0.5695487856864929,-2.1130707263946533,-1.3384416103363037,2.999999523162842,-0.18023094534873962,-0.17698615789413452,-0.16989149153232574,-0.16445858776569366,0.24146053194999695,0.2024298757314682,0.1787227988243103,0.18834233283996582
0.8,0.11451001465320587,0.014991626143455505,0.0,0.6402643918991089,0.0,0.0,-0.7681546211242676,0.16428957879543304,0.27910539507865906,0.0,0.0,0.0,3.5176026821136475,0.4538542926311493,0.6528692245483398,0.4200000464916229,0.5134503245353699,-2.093724305041178e-07,-2.1922978703514673e-06,-0.8581193089485168,-1.384041206620168e-05,-0.0002359470963710919,-6.45853579044342e-05,0.0066162217408418655,-0.002524350304156542,-0.0006694516050629318,0.5204052925109863,0.6769869923591614,0.5820164680480957,-0.10700224339962006,0.23829615116119385,0.14337357878684998,0.4468287527561188,0.6578525900840759,0.42000001668930054,-0.5771589279174805,0.9421128034591675,-1.3576399087905884,-3.000000476837158,-0.18027611076831818,-0.1766754537820816,-0.16915170848369598,-0.16278769075870514,0.2868756651878357,0.25131770968437195,0.22217579185962677,0.23316267132759094
0.8166666666666667,0.11862436681985855,0.015967916697263718,0.0,0.6436774134635925,0.0,0.0,-0.7652969360351562,0.29802167415618896,0.016064492985606194,0.0,0.0,0.0,-0.42184117436408997,0.4538542926311493,0.6528692245483398,0.4200000464916229,0.5134501457214355,-1.98880314883354e-07,-2.1657790512108477e-06,-0.8581193089485168,-1.4149276466923766e-05,-0.00023597542895004153,-6.450200453400612e-05,0.006618573796004057,-0.0025275656953454018,-0.0006688397843390703,0.516632080078125,0.682129442691803,0.5803501605987549,-0.38842886686325073,0.24122408032417297,-0.21195289492607117,0.4468287527561188,0.6578525900840759,0.42000001668930054,-0.6002176403999329,-3.000000476837158,-1.319318175315857,3.000000476837158,-0.17453926801681519,-0.1719302237033844,-0.16544240713119507,-0.15949174761772156,0.23129859566688538,0.1870022714138031,0.12913267314434052,0.10175170004367828
0.8333333333333334,0.12494512647390366,0.01337162870913744,0.0,0.6572265625,0.0,0.0,-0.7536930441856384,0.42222973704338074,-0.22755742073059082,0.0,0.0,0.0,2.9350602626800537,0.4538542926311493,0.6528691649436951,0.4200000464916229,0.513450026512146,-7.146018532466769e-08,-2.318765154996072e-06,-0.8581193685531616,-8.015726052690297e-06,-0.00023439343203790486,-6.560212932527065e-05,0.006545052397996187,-0.0024476281832903624,-0.0006772412452846766,0.513239324092865,0.6849665641784668,0.5755492448806763,-0.02600301429629326,0.15560907125473022,-0.29787325859069824,0.4468287527561188,0.6578525900840759,0.42000001668930054,-0.6234267354011536,-0.023946566507220268,-1.3388571739196777,-3.000000476837158,-0.17170369625091553,-0.16916479170322418,-0.16301745176315308,-0.1569235771894455,0.1714380830526352,0.1854960024356842,0.18178541958332062,0.2065790444612503
0.85,0.12882710993289948,0.007529269903898239,0.0,0.6572310924530029,0.0,0.0,-0.7536891102790833,0.15867304801940918,-0.3918221592903137,0.0,0.0,0.0,-0.9928111433982849,0.4538542926311493,0.6528691649436951,0.4200000464916229,0.5134502649307251,-6.245649331049208e-08,-2.546868245190126e-06,-0.8581193685531616,-1.0500463758944534e-05,-0.0002331817231606692,-6.501446478068829e-05,0.0065253968350589275,-0.002469181315973401,-0.0006682666717097163,0.5137351751327515,0.6854126453399658,0.5670264959335327,0.06390922516584396,-0.09645113348960876,-0.5355505347251892,0.4468287527561188,0.6578525900840759,0.42000001668930054,-0.6514983773231506,-3.0000014305114746,-1.3008015155792236,3.000000238418579,-0.1705581396818161,-0.16742314398288727,-0.1610100418329239,-0.15421901643276215,0.04850324988365173,0.09455402940511703,0.11874759942293167,0.16617092490196228
0.8666666666666667,0.1344173401594162,0.006939887534826994,0.0,0.6343919634819031,0.0,0.0,-0.7730115056037903,0.3063271641731262,-0.0113742770627141,0.0,0.0,0.0,-4.358713626861572,0.4538542926311493,0.6528691649436951,0.4200000464916229,0.5134500861167908,-1.323882070636273e-08,-2.5309657303296262e-06,-0.8581193685531616,-1.1253794582444243e-05,-0.00023431832960341126,-6.498000584542751e-05,0.006559041328728199,-0.0024854473304003477,-0.0006702007376588881,0.51800537109375,0.6821545362472534,0.5598428845405579,0.5126160979270935,-0.164748877286911,-0.18231981992721558,0.4468287527561188,0.6578525900840759,0.42000001668930054,-0.678587019443512,-0.449206680059433,-1.320698618888855,-2.9999992847442627,-0.17496976256370544,-0.1704799383878708,-0.16310474276542664,-0.15503239631652832,-0.1408967822790146,-0.09573215991258621,-0.06917528063058853,-0.020032444968819618
0.8833333333333333,0.1415167897939682,0.008849556557834148,0.0,0.6273459196090698,0.0,0.0,-0.7787407040596008,0.4713488817214966,0.14341133832931519,0.0,0.0,0.0,-0.060568515211343765,0.4538542628288269,0.6528691649436951,0.4200000464916229,0.5134499669075012,-1.496178754223365e-07,-2.7221014988754177e-06,-0.858119547367096,-1.1285656910331454e-05,-0.00023124362633097917,-6.471225060522556e-05,0.006478471681475639,-0.002466496080160141,-0.0006603903020732105,0.5238164067268372,0.6828688383102417,0.5604723691940308,0.21664977073669434,0.24277853965759277,0.22698506712913513,0.4468287527561188,0.6578525900840759,0.42000001668930054,-0.659211277961731,2.5025460720062256,-1.37071692943573,-3.000000476837158,-0.1757655143737793,-0.17145976424217224,-0.16457900404930115,-0.15665338933467865,0.05099434778094292,-0.009849109686911106,-0.0905473530292511,-0.1529816836118698
0.9,0.1452968269586563,0.004763060249388218,0.0,0.6450061798095703,0.0,0.0,-0.7641773223876953,0.26321566104888916,-0.2716645896434784,0.0,0.0,0.0,3.37874698638916,0.4538542926311493,0.6528691649436951,0.4200000464916229,0.513450562953949,-1.7924625694831775e-07,-2.646784423632198e-06,-0.8581191897392273,-1.009390689432621e-05,-0.00023052388860378414,-6.481632590293884e-05,0.006453678477555513,-0.002446411643177271,-0.0006606664974242449,0.5229915976524353,0.6891058683395386,0.5631844997406006,-0.36638087034225464,0.32343196868896484,0.04062817245721817,0.4468287527561188,0.6578525900840759,0.42000001668930054,-0.629581868648529,1.1481014490127563,-1.3323572874069214,3.0,-0.16866740584373474,-0.16616319119930267,-0.16142842173576355,-0.1553868055343628,0.2390972375869751,0.17061421275138855,0.07567109167575836,-0.013184725306928158
