vladlanda/robotic-transformer/data/env_000_episode_0171.csv
sim_time_s,robot_box_x,robot_box_y,robot_box_z,robot_box_quat_w,robot_box_quat_x,robot_box_quat_y,robot_box_quat_z,robot_box_linvel_x,robot_box_linvel_y,robot_box_linvel_z,robot_box_angvel_x,robot_box_angvel_y,robot_box_angvel_z,cube_world_x,cube_world_y,cube_world_z,cube_quat_w,cube_quat_x,cube_quat_y,cube_quat_z,cube_linvel_x,cube_linvel_y,cube_linvel_z,cube_angvel_x,cube_angvel_y,cube_angvel_z,endpoint_world_x,endpoint_world_y,endpoint_world_z,endpoint_linvel_x,endpoint_linvel_y,endpoint_linvel_z,target_cube_world_x,target_cube_world_y,target_cube_world_z,gripper_actual_pos_rad_gp_leftgearjoint,gripper_actual_vel_rad_s_gp_leftgearjoint,gripper_actual_pos_rad_gp_rotatingjoint,gripper_actual_vel_rad_s_gp_rotatingjoint,motor_angle_rad_joint1,motor_angle_rad_joint2,motor_angle_rad_joint3,motor_angle_rad_joint4,motor_speed_rad_s_joint1,motor_speed_rad_s_joint2,motor_speed_rad_s_joint3,motor_speed_rad_s_joint4
0.0,0.0,0.0,0.0,1.0,0.0,0.0,0.0,0.0,0.0,0.0,0.0,0.0,0.0,-0.40465062856674194,0.7209854125976562,0.41999998688697815,1.0,0.0,0.0,0.0,0.0,0.0,0.0,0.0,0.0,0.0,3.42540442943573e-06,-0.005000244826078415,1.313499927520752,0.0,0.0,0.0,0.41376760601997375,0.6474677920341492,0.42000001668930054,-1.5707999467849731,0.0,0.0,0.0,0.0,0.0,0.0,0.0,0.0,0.0,0.0,0.0
0.016666666666666666,0.0028778850100934505,0.0021806680597364902,0.0,0.9998081922531128,0.0,0.0,0.019586581736803055,0.24087215960025787,0.18240931630134583,0.0,0.0,0.0,3.1418697834014893,-0.4046507477760315,0.7209851145744324,0.41999998688697815,1.0,3.279964630564791e-06,-8.339746386809566e-07,8.465587342243452e-08,-1.9833529222523794e-05,0.00017983045836444944,-6.132945418357849e-05,0.0009432713268324733,-0.004689474124461412,-0.00031981561915017664,-0.007110234349966049,0.003379564033821225,1.3159373998641968,-0.8143353462219238,0.9868683815002441,0.18095196783542633,0.41376760601997375,0.6474677920341492,0.42000001668930054,-1.5301095247268677,3.0000011920928955,-0.04584788903594017,-2.9999992847442627,0.0008691533003002405,0.0007963840034790337,0.0007110277656465769,0.0006108740926720202,0.11094217747449875,0.09756709635257721,0.08334315568208694,0.06823883205652237
0.03333333333333333,0.008960988372564316,0.006801992654800415,0.0,0.9997960329055786,0.0,0.0,0.02019684389233589,0.4070219397544861,0.3153080344200134,0.0,0.0,0.0,-0.8691323399543762,-0.40465086698532104,0.7209850549697876,0.4200000464916229,1.0,3.3908354453160428e-06,-2.1324485715012997e-06,-3.710144014235084e-08,0.00026357831666246057,0.00026937946677207947,-0.00010509486310184002,-0.0017707672668620944,0.004130808170884848,-0.000135478752781637,-0.02755371294915676,0.026221198961138725,1.3165924549102783,-1.5913875102996826,1.6160709857940674,-0.08552852272987366,0.41376760601997375,0.6474677920341492,0.42000001668930054,-1.4800903797149658,3.0000011920928955,-0.09588771313428879,-3.000000476837158,0.002990099834278226,0.0026527077425271273,0.0022772757802158594,0.0018607304664328694,0.1642143279314041,0.13975819945335388,0.11381690204143524,0.08629901707172394
0.05,0.018416373059153557,0.013833669014275074,0.0,0.99998939037323,0.0,0.0,-0.004608779679983854,0.6357054710388184,0.4700058400630951,0.0,0.0,0.0,-4.085850715637207,-0.40465089678764343,0.7209851145744324,0.4200000464916229,1.0,3.765139354072744e-06,-2.2119161258160602e-06,5.630195420991413e-09,0.0002653095289133489,0.00026691411039792,-0.00010440382175147533,-0.0017242460744455457,0.004177400842308998,-0.00012949357915204018,-0.05733676999807358,0.057192396372556686,1.3118925094604492,-1.954406499862671,2.0449178218841553,-0.45714280009269714,0.41376760601997375,0.6474677920341492,0.42000001668930054,-1.4300720691680908,3.0000033378601074,-0.14592640101909637,-3.0000007152557373,0.0059920004568994045,0.005155142396688461,0.004245837684720755,0.003259886521846056,0.20747531950473785,0.16704992949962616,0.12471099942922592,0.08037786930799484
0.06666666666666667,0.030721021816134453,0.023281091824173927,0.0,0.9999140501022339,0.0,0.0,-0.013110927306115627,0.772403359413147,0.6136660575866699,0.0,0.0,0.0,-0.05002712830901146,-0.40465089678764343,0.7209850549697876,0.4200000464916229,0.9999999403953552,3.4067325032083318e-06,-2.285616346853203e-06,4.301086846680846e-07,0.0002670263056643307,0.0002679172612261027,-0.00010437914170324802,-0.0017406872939318419,0.004211808554828167,-0.0001285045873373747,-0.09354019910097122,0.09014575928449631,1.301522970199585,-2.2493460178375244,2.0896425247192383,-0.7777116298675537,0.41376760601997375,0.6474677920341492,0.42000001668930054,-1.3800462484359741,3.0000014305114746,-0.16040648519992828,0.9292916655540466,0.008587932214140892,0.006988932378590107,0.005277221091091633,0.003447771305218339,0.1355476975440979,0.08020574599504471,0.022710397839546204,-0.03699729964137077
0.08333333333333333,0.03675483539700508,0.03659006580710411,0.0,0.9993122816085815,0.0,0.0,-0.03708041459321976,0.22694219648838043,0.8715798854827881,0.0,0.0,0.0,-3.8200337886810303,-0.40465089678764343,0.7209850549697876,0.4200000464916229,1.0,3.6972751331632026e-06,-2.188954113080399e-06,-2.6322550183977e-07,0.0002638972655404359,0.00026586506282910705,-0.00010434049181640148,-0.0017082244157791138,0.004150220658630133,-0.00012991207768209279,-0.12570562958717346,0.12950854003429413,1.2864317893981934,-1.640217661857605,2.63330340385437,-0.955707311630249,0.41376760601997375,0.6474677920341492,0.42000001668930054,-1.3300390243530273,3.0000035762786865,-0.2026568204164505,-3.0000009536743164,0.0045583914034068584,0.0021683943923562765,-0.00038847155519761145,-0.003120960434898734,-0.3688415288925171,-0.43053314089775085,-0.49499231576919556,-0.5624547004699707
0.1,0.046614233404397964,0.05148695781826973,0.0,0.9961270093917847,0.0,0.0,-0.08792618662118912,0.7374831438064575,0.9012402296066284,0.0,0.0,0.0,-6.980198383331299,-0.40465089678764343,0.7209850549697876,0.4200000464916229,0.9999999403953552,3.620343704824336e-06,-2.265245484522893e-06,1.7462637913467915e-07,0.00026676931884139776,0.000267408206127584,-0.00010407879017293453,-0.001738669816404581,0.004209199454635382,-0.00012775094364769757,-0.15426674485206604,0.17577821016311646,1.2702306509017944,-1.7669286727905273,2.9384093284606934,-1.0395550727844238,0.41376760601997375,0.6474677920341492,0.42000001668930054,-1.2800220251083374,2.9999942779541016,-0.17842534184455872,3.0000007152557373,0.002810214413329959,-0.0011655223788693547,-0.00531470961868763,-0.009643850848078728,-0.016765333712100983,-0.12098386138677597,-0.22448688745498657,-0.32694682478904724
0.11666666666666667,0.05510706454515457,0.06352350115776062,0.0,0.9927982091903687,0.0,0.0,-0.11979866772890091,0.5376889705657959,0.6843619346618652,0.0,0.0,0.0,-2.588942766189575,-0.40465089678764343,0.7209850549697876,0.4200000464916229,1.0,3.798347734118579e-06,-2.2628460101259407e-06,-1.5019826093976008e-07,0.0002637401921674609,0.00026566156884655356,-0.00010429113171994686,-0.0017054638592526317,0.004147501662373543,-0.00012979934399481863,-0.18724368512630463,0.2217305302619934,1.2514011859893799,-1.9327954053878784,2.958972930908203,-1.136598825454712,0.41376760601997375,0.6474677920341492,0.42000001668930054,-1.2300331592559814,3.0000014305114746,-0.20999754965305328,-3.000000476837158,0.00027700289501808584,-0.005345202051103115,-0.011119293980300426,-0.017047930508852005,-0.06541039794683456,-0.18342375755310059,-0.29835376143455505,-0.4098568558692932
0.13333333333333333,0.06090094521641731,0.07686213403940201,0.0,0.9870104193687439,0.0,0.0,-0.16065625846385956,0.28172537684440613,0.8528828620910645,0.0,0.0,0.0,-5.697334289550781,-0.40465089678764343,0.7209851145744324,0.4200000464916229,0.9999999403953552,3.550474502844736e-06,-2.229893652838655e-06,2.9291419423316256e-07,0.0002670332323759794,0.0002677943557500839,-0.00010417005978524685,-0.0017440859228372574,0.004213657695800066,-0.00012800388503819704,-0.2186812460422516,0.2757224142551422,1.2296998500823975,-1.7564122676849365,3.5956101417541504,-1.4576029777526855,0.41376760601997375,0.6474677920341492,0.42000001668930054,-1.1800175905227661,2.9999899864196777,-0.17615266144275665,3.000001907348633,-0.0025009310338646173,-0.010008193552494049,-0.01760241389274597,-0.02528136968612671,-0.22300544381141663,-0.3293173313140869,-0.43134382367134094,-0.5288260579109192
0.15,0.06378046423196793,0.08786677569150925,0.0,0.9833661913871765,0.0,0.0,-0.18163400888442993,0.12525811791419983,0.5708897709846497,0.0,0.0,0.0,-1.4688175916671753,-0.40465086698532104,0.7209850549697876,0.4200000464916229,1.0,3.332208052597707e-06,-2.102069856846356e-06,1.3131072762462281e-07,0.00026730578974820673,0.0002685959334485233,-0.00010459637269377708,-0.0017497800290584564,0.0042156195268034935,-0.0001292838278459385,-0.2536531686782837,0.331489235162735,1.1999982595443726,-2.134448766708374,3.410468101501465,-2.078740119934082,0.41376760601997375,0.6474677920341492,0.42000001668930054,-1.1499218940734863,0.7810218930244446,-0.20774050056934357,-2.999999761581421,-0.006352776661515236,-0.015406902879476547,-0.02446489967405796,-0.033522237092256546,-0.26884961128234863,-0.34369567036628723,-0.41371917724609375,-0.47890499234199524
0.16666666666666666,0.06915351003408432,0.09934832155704498,0.0,0.9764644503593445,0.0,0.0,-0.21567833423614502,0.3344169855117798,0.7050706148147583,0.0,0.0,0.0,-5.003221035003662,-0.40465089678764343,0.7209850549697876,0.4200000464916229,1.0,3.7372842598415446e-06,-2.2331951186060905e-06,-1.8764656317671324e-07,0.0002643293410073966,0.00026626905309967697,-0.00010446016676723957,-0.0017119543626904488,0.004157571122050285,-0.00013001477054785937,-0.28814494609832764,0.39463144540786743,1.1582987308502197,-1.9332094192504883,4.111933708190918,-2.8990421295166016,0.41376760601997375,0.6474677920341492,0.42000001668930054,-1.1072349548339844,2.9999966621398926,-0.17534223198890686,3.0000016689300537,-0.012306657619774342,-0.02214272879064083,-0.03192264586687088,-0.041645631194114685,-0.506127655506134,-0.5210021734237671,-0.5337417125701904,-0.5446979403495789
0.18333333333333332,0.07172267884016037,0.11033660918474197,0.0,0.972622811794281,0.0,0.0,-0.23238959908485413,0.11425915360450745,0.6003226041793823,0.0,0.0,0.0,-0.8129923939704895,-0.40465089678764343,0.7209851145744324,0.4200000464916229,0.9999999403953552,3.66025142284343e-06,-2.302339680682053e-06,2.528543348034873e-07,0.0002669085224624723,0.0002676025324035436,-0.0001041253563016653,-0.001741329557262361,0.004211507737636566,-0.0001278679701499641,-0.3227520287036896,0.4580378532409668,1.1043684482574463,-1.8896338939666748,3.839970350265503,-3.517937183380127,0.41376760601997375,0.6474677920341492,0.42000001668930054,-1.0594817399978638,2.7152462005615234,-0.20693688094615936,-3.0000007152557373,-0.022966481745243073,-0.03265739977359772,-0.04226512834429741,-0.05179935321211815,-0.6499394178390503,-0.6352860331535339,-0.6190210580825806,-0.6017885208129883
0.2,0.07057676464319229,0.12180696427822113,0.0,0.9657251238822937,0.0,0.0,-0.2595670223236084,-0.14247965812683105,0.7320300936698914,0.0,0.0,0.0,-4.2256550788879395,-0.40465089678764343,0.7209850549697876,0.4200000464916229,1.0,3.590832420741208e-06,-2.3005177354207262e-06,1.3873301440980867e-07,0.0002665462961886078,0.0002673219714779407,-0.00010424060747027397,-0.0017326300730928779,0.004203499294817448,-0.00012820895062759519,-0.3527625501155853,0.5235565900802612,1.0399887561798096,-1.5970072746276855,3.941181182861328,-4.174623966217041,0.41376760601997375,0.6474677920341492,0.42000001668930054,-1.00968337059021,2.9999983310699463,-0.25696316361427307,-2.9999985694885254,-0.03581075370311737,-0.04510725289583206,-0.05428771674633026,-0.06337382644414902,-0.8371568918228149,-0.8041049838066101,-0.7694076895713806,-0.7337716221809387
0.21666666666666667,0.07259248942136765,0.1333700269460678,0.0,0.9540020227432251,0.0,0.0,-0.29980024695396423,0.13369454443454742,0.7118540406227112,0.0,0.0,0.0,-5.2627739906311035,-0.40465089678764343,0.7209851145744324,0.4200000464916229,1.0,3.6069184261577902e-06,-2.2610781797993695e-06,1.9621177571593762e-08,0.00026447055279277265,0.00026558496756479144,-0.00010396679863333702,-0.001708806725218892,0.004164197016507387,-0.0001283225283259526,-0.37802720069885254,0.5886020660400391,0.9628068208694458,-1.2402217388153076,3.8381590843200684,-5.030035018920898,0.41376760601997375,0.6474677920341492,0.42000001668930054,-0.9596788287162781,3.0000011920928955,-0.3069913983345032,-3.0000007152557373,-0.049309141933918,-0.0578397698700428,-0.06624750792980194,-0.07456742972135544,-0.9385666251182556,-0.865079939365387,-0.7930607199668884,-0.723405122756958
0.23333333333333334,0.07130297273397446,0.1427619457244873,0.0,0.9485998153686523,0.0,0.0,-0.31647810339927673,-0.10401519387960434,0.4698336720466614,0.0,0.0,0.0,-1.0519524812698364,-0.40465086698532104,0.7209850549697876,0.4200000464916229,0.9999999403953552,3.742213721125154e-06,-2.2276085474004503e-06,4.5891519562246685e-07,0.00026474983314983547,0.00026671201339922845,-0.00010453304275870323,-0.0017188951605930924,0.004165791906416416,-0.0001301960292039439,-0.39981281757354736,0.6412714719772339,0.8728851079940796,-1.0584583282470703,2.850475788116455,-5.661069393157959,0.41376760601997375,0.6474677920341492,0.42000001668930054,-0.9096691012382507,2.999997854232788,-0.35702162981033325,-2.999999761581421,-0.06560926884412766,-0.07397148013114929,-0.08207415789365768,-0.09006360918283463,-0.9872195720672607,-0.9685330390930176,-0.9341602325439453,-0.9019874334335327
0.25,0.0662621259689331,0.15372033417224884,0.0,0.9389474987983704,0.0,0.0,-0.344060480594635,-0.37041932344436646,0.6859236359596252,0.0,0.0,0.0,-4.2500104904174805,-0.40465089678764343,0.7209850549697876,0.4200000464916229,1.0,3.3943799735425273e-06,-2.2821143375040265e-06,1.336297685838872e-07,0.0002667938533704728,0.00026794057339429855,-0.0001043959055095911,-0.0017417485360056162,0.004206647630780935,-0.00012884187162853777,-0.414436936378479,0.6836895942687988,0.7718073129653931,-0.6568954586982727,2.2108840942382812,-6.260650634765625,0.41376760601997375,0.6474677920341492,0.42000001668930054,-0.8596586585044861,2.999999523162842,-0.40705329179763794,-3.000000476837158,-0.08213361352682114,-0.09047697484493256,-0.09856616705656052,-0.1065339520573616,-0.9910296201705933,-0.9928535223007202,-0.9928326606750488,-0.9875492453575134
0.26666666666666666,0.06592968851327896,0.15958787500858307,0.0,0.9352019429206848,0.0,0.0,-0.3541148602962494,-0.024531111121177673,0.265299916267395,0.0,0.0,0.0,-0.13303329050540924,-0.40465089678764343,0.7209851145744324,0.4200000464916229,1.0,3.683386239572428e-06,-2.31010744755622e-06,2.1010649220443156e-07,0.000264790520304814,0.000266258284682408,-0.00010421173647046089,-0.0017168058548122644,0.004168871324509382,-0.00012909912038594484,-0.4271034896373749,0.712182879447937,0.6675781607627869,-0.5233175754547119,1.1513962745666504,-6.31607723236084,0.41376760601997375,0.6474677920341492,0.42000001668930054,-0.8096494078636169,2.9999728202819824,-0.4570849537849426,-2.9999988079071045,-0.09626604616641998,-0.10442459583282471,-0.11226840317249298,-0.11993031948804855,-0.98336261510849,-0.9855474829673767,-0.9864255785942078,-0.9767604470252991
0.2833333333333333,0.06119484454393387,0.16249606013298035,0.0,0.9270576238632202,0.0,0.0,-0.3749188184738159,-0.37780600786209106,0.14076364040374756,0.0,0.0,0.0,-3.5730230808258057,-0.40465089678764343,0.7209850549697876,0.4200000464916229,1.0,3.306838607386453e-06,-2.2125211671664147e-06,2.6258697971570655e-07,0.00026660639559850097,0.00026744938804768026,-0.00010424223728477955,-0.0017352094873785973,0.004204330034554005,-0.00012828483886551112,-0.4294407367706299,0.7232537269592285,0.5615229606628418,0.2837080955505371,0.16150180995464325,-6.158050537109375,0.41376760601997375,0.6474677920341492,0.42000001668930054,-0.759640634059906,3.000002861022949,-0.5071152448654175,-3.0000007152557373,-0.11404403299093246,-0.12191129475831985,-0.12953558564186096,-0.1370263546705246,-1.0082474946975708,-1.0062103271484375,-1.00465726852417,-1.0034205913543701
0.3,0.05314403772354126,0.16350175440311432,0.0,0.9255077242851257,0.0,0.0,-0.3787287175655365,-0.5840660333633423,0.03487358242273331,0.0,0.0,0.0,0.45865127444267273,-0.40465089678764343,0.7209850549697876,0.4200000464916229,1.0,3.641150215116795e-06,-2.37790936807869e-06,-4.193746576675039e-07,0.00026611567591317,0.00026725881616584957,-0.00010423245839774609,-0.0017335097072646022,0.004194576293230057,-0.00012854786473326385,-0.4231247305870056,0.7223373651504517,0.4671286344528198,0.6107101440429688,-0.3355830907821655,-5.199797630310059,0.41376760601997375,0.6474677920341492,0.42000001668930054,-0.7096326947212219,3.0000030994415283,-0.5571438670158386,-3.000001907348633,-0.13162408769130707,-0.13927508890628815,-0.1467387080192566,-0.15410472452640533,-1.0205219984054565,-1.0155479907989502,-1.0117460489273071,-1.0086970329284668
0.31666666666666665,0.04967759549617767,0.16101765632629395,0.0,0.9224854111671448,0.0,0.0,-0.3860319256782532,-0.04358946159482002,-0.2236422449350357,0.0,0.0,0.0,-1.6512222290039062,-0.4045240879058838,0.7208114266395569,0.42013806104660034,0.9999885559082031,0.0034403731115162373,2.9298639674379956e-06,-0.003304318990558386,0.019762545824050903,-0.021993808448314667,0.015211855992674828,0.7798159718513489,-0.0017513061175122857,-1.2003145217895508,-0.4176024794578552,0.7222840785980225,0.42778801918029785,0.055253662168979645,-0.06396645307540894,-0.14975500106811523,0.41376760601997375,0.6474677920341492,0.42000001668930054,-0.6596791744232178,2.9999663829803467,-0.6076301336288452,-3.002351999282837,-0.14011059701442719,-0.14825747907161713,-0.1559697985649109,-0.16326208412647247,-0.10400659590959549,-0.1435898244380951,-0.15562309324741364,-0.13728758692741394
0.3333333333333333,0.04408149793744087,0.1569496989250183,0.0,0.9260654449462891,0.0,0.0,-0.3773629367351532,-0.43379026651382446,-0.2609553635120392,0.0,0.0,0.0,2.014143228530884,-0.4044736623764038,0.7211351990699768,0.4200097620487213,0.9998475909233093,2.501903691154439e-05,0.0002346089022466913,-0.017457110807299614,-0.04672333970665932,0.22341790795326233,-0.0012744949199259281,0.3687363564968109,-0.4423247277736664,-16.05653190612793,-0.41997867822647095,0.7267181873321533,0.4261515140533447,-0.10589971393346786,0.40194976329803467,-0.13464227318763733,0.41376760601997375,0.6474677920341492,0.42000001668930054,-0.609673023223877,2.999948024749756,-0.6576738953590393,-2.9998927116394043,-0.14779561758041382,-0.1552802473306656,-0.16202150285243988,-0.1680198609828949,-0.5473914742469788,-0.48819205164909363,-0.41630232334136963,-0.3313162326812744
0.35,0.03529956564307213,0.15093688666820526,0.0,0.9235614538192749,0.0,0.0,-0.3834504187107086,-0.492382287979126,-0.4330098032951355,0.0,0.0,0.0,-1.6991273164749146,-0.40544256567955017,0.7244879603385925,0.4200000464916229,0.994488000869751,1.1072920358401461e-07,1.089203465198807e-06,-0.10485005378723145,-0.06207679212093353,0.19224664568901062,-2.9031652957201004e-06,-0.00014611220103688538,-4.499906572164036e-05,-8.808838844299316,-0.4183393120765686,0.7291495203971863,0.42371803522109985,0.2616764307022095,0.1102256029844284,-0.16833406686782837,0.41376760601997375,0.6474677920341492,0.42000001668930054,-0.5596681833267212,2.9999840259552,-0.7077269554138184,-2.9999632835388184,-0.1580941081047058,-0.1639202982187271,-0.16878262162208557,-0.17269264161586761,-0.5222355127334595,-0.41758349537849426,-0.2986890971660614,-0.16640323400497437
0.36666666666666664,0.025557607412338257,0.1420699954032898,0.0,0.9270797967910767,0.0,0.0,-0.3748641014099121,-0.6278142929077148,-0.5677874088287354,0.0,0.0,0.0,2.0237786769866943,-0.40505295991897583,0.7288416028022766,0.4202094078063965,0.9887628555297852,0.005159201566129923,-0.0005857340293005109,-0.14940206706523895,0.22175109386444092,0.49504178762435913,0.046156372874975204,2.349698781967163,-0.7980554103851318,-3.4854378700256348,-0.41267332434654236,0.7344131469726562,0.4210975766181946,0.4050694704055786,0.42705219984054565,-0.12097214162349701,0.41376760601997375,0.6474677920341492,0.42000001668930054,-0.5096632838249207,2.999983549118042,-0.7577750086784363,-3.000002145767212,-0.16704072058200836,-0.17083941400051117,-0.17341528832912445,-0.17480796575546265,-0.4949224889278412,-0.36790287494659424,-0.22552889585494995,-0.06969957053661346
0.3833333333333333,0.01354034710675478,0.13100330531597137,0.0,0.9245492219924927,0.0,0.0,-0.3810625672340393,-0.7631829977035522,-0.7031940221786499,0.0,0.0,0.0,-1.7516244649887085,-0.3998071253299713,0.7384570240974426,0.420104444026947,0.98377925157547,0.002650599693879485,-0.0005710581317543983,-0.1793627142906189,0.42504680156707764,0.6850087642669678,-0.024279417470097542,-1.216065526008606,0.427561491727829,-4.418844223022461,-0.40330320596694946,0.7416425943374634,0.4199065566062927,0.6659665107727051,0.5023566484451294,0.08214065432548523,0.41376760601997375,0.6474677920341492,0.42000001668930054,-0.4596589207649231,2.9990196228027344,-0.8078272938728333,-2.9548559188842773,-0.17502833902835846,-0.1765470951795578,-0.17652462422847748,-0.17504310607910156,-0.42375606298446655,-0.2829357981681824,-0.12169403582811356,0.057081013917922974
0.4,-0.0008249641978181899,0.11769840866327286,0.0,0.910233736038208,0.0,0.0,-0.41409480571746826,-0.923117458820343,-0.838617742061615,0.0,0.0,0.0,-5.214521408081055,-0.3863723576068878,0.7532762885093689,0.42157816886901855,0.9738266468048096,-0.021271342411637306,-0.007127099670469761,-0.22618217766284943,1.3520400524139404,0.9709835052490234,0.004073086194694042,18.529083251953125,-10.29226016998291,1.3156815767288208,-0.3881791830062866,0.7550198435783386,0.4218980669975281,1.194443702697754,1.1296794414520264,0.14631083607673645,0.41376760601997375,0.6474677920341492,0.42000001668930054,-0.4098694622516632,2.7767062187194824,-0.8578366041183472,-3.000098466873169,-0.1813289225101471,-0.18060803413391113,-0.17791511118412018,-0.17338764667510986,-0.3134323060512543,-0.1819332093000412,-0.023068921640515327,0.1596689075231552
0.4166666666666667,-0.013029963709414005,0.10152635723352432,0.0,0.8825811147689819,0.0,0.0,-0.4701601266860962,-0.6608805656433105,-1.026248574256897,0.0,0.0,0.0,-8.327454566955566,-0.3565490245819092,0.7769197225570679,0.42524439096450806,0.9574337005615234,-0.0188516303896904,-0.03894450142979622,-0.2853919565677643,2.8762450218200684,1.6099876165390015,0.34306052327156067,20.871112823486328,-14.172759056091309,14.400742530822754,-0.3581511080265045,0.7786856889724731,0.42533475160598755,2.320284843444824,1.7107118368148804,0.4815196096897125,0.41376760601997375,0.6474677920341492,0.42000001668930054,-0.3818894624710083,1.048034906387329,-0.9078591465950012,-3.000000238418579,-0.18738843500614166,-0.1842503547668457,-0.17873239517211914,-0.17104382812976837,-0.38696393370628357,-0.22926434874534607,-0.05138561502099037,0.14192597568035126
0.43333333333333335,-0.02145136147737503,0.08422283828258514,0.0,0.838806688785553,0.0,0.0,-0.544429361820221,-0.4309222102165222,-1.090555191040039,0.0,0.0,0.0,-11.0597505569458,-0.29260769486427307,0.812235951423645,0.4309517741203308,0.9381182789802551,0.032991282641887665,-0.08092951774597168,-0.33510610461235046,5.274471759796143,2.016679048538208,0.38771042227745056,18.3560733795166,-16.715007781982422,20.94635009765625,-0.29399245977401733,0.8141211271286011,0.43107742071151733,4.988795280456543,2.577955722808838,0.43094319105148315,0.41376760601997375,0.6474677920341492,0.42000001668930054,-0.36553576588630676,1.019338846206665,-0.870651125907898,2.995126962661743,-0.19736629724502563,-0.19051401317119598,-0.18125741183757782,-0.16991180181503296,-0.622969388961792,-0.39371243119239807,-0.17517192661762238,0.026445021852850914
0.45,-0.027011705562472343,0.07256396859884262,0.0,0.7750282883644104,0.0,0.0,-0.6319265365600586,-0.2803126275539398,-0.567383348941803,0.0,0.0,0.0,-13.92534351348877,-0.18830227851867676,0.8474674224853516,0.43964463472366333,0.9067960381507874,0.07279305905103683,-0.10529728978872299,-0.4016646444797516,7.47479772567749,1.3992966413497925,0.5076183080673218,5.3925557136535645,-21.673519134521484,13.833984375,-0.1901739537715912,0.850828230381012,0.43966174125671387,7.284890651702881,1.9661102294921875,0.6789047718048096,0.41376760601997375,0.6474677920341492,0.42000001668930054,-0.34678375720977783,1.1665288209915161,-0.8879711031913757,-3.00000262260437,-0.21341931819915771,-0.20419524610042572,-0.19031959772109985,-0.17428423464298248,-0.9219344258308411,-0.9068788886070251,-0.6639741063117981,-0.37628650665283203
0.4666666666666667,-0.03536950424313545,0.06602023541927338,0.0,0.7177530527114868,0.0,0.0,-0.6962977051734924,-0.4571963846683502,-0.42668676376342773,0.0,0.0,0.0,-8.910859107971191,-0.07195229083299637,0.8631718754768372,0.4499162435531616,0.8612319231033325,0.08933340758085251,-0.10931015759706497,-0.48821133375167847,7.031989097595215,-0.2451411336660385,0.7776626944541931,19.594669342041016,-6.235690116882324,21.283906936645508,-0.07331071048974991,0.8687394857406616,0.45014917850494385,6.915882110595703,0.4552288055419922,0.6315010786056519,0.41376760601997375,0.6474677920341492,0.42000001668930054,-0.32734909653663635,1.080287218093872,-0.9167611002922058,-0.6827942132949829,-0.22655512392520905,-0.21776093542575836,-0.20419204235076904,-0.18269000947475433,-0.596453070640564,-0.6531906723976135,-0.7033134698867798,-0.43520551919937134
0.48333333333333334,-0.03920365124940872,0.05251319706439972,0.0,0.6820598840713501,0.0,0.0,-0.7312963604927063,-0.1605277955532074,-0.9686169624328613,0.0,0.0,0.0,-4.998147487640381,0.0403965525329113,0.8628250956535339,0.45916908979415894,0.8244683742523193,0.07929714769124985,-0.10045714676380157,-0.551245927810669,6.560505390167236,-1.5337504148483276,0.7012393474578857,10.040884971618652,-5.40688943862915,22.457836151123047,0.03952518478035927,0.8686012625694275,0.4600965976715088,6.614972114562988,-0.6719129085540771,0.5808666944503784,0.41376760601997375,0.6474677920341492,0.42000001668930054,-0.3118979036808014,0.7146770358085632,-0.9631059169769287,-3.000002145767212,-0.23411470651626587,-0.22501489520072937,-0.21120892465114594,-0.18539083003997803,-0.3805796504020691,-0.3079970180988312,-0.2462339699268341,-0.00228925421833992
0.5,-0.046209726482629776,0.04215092211961746,0.0,0.6696457266807556,0.0,0.0,-0.7426806688308716,-0.38062381744384766,-0.5567379593849182,0.0,0.0,0.0,-0.8809018135070801,0.13849356770515442,0.8449621796607971,0.46645858883857727,0.7734944224357605,0.06885549426078796,-0.07873409986495972,-0.6251129508018494,5.069991588592529,-1.7431007623672485,0.35112011432647705,1.6508424282073975,4.822758197784424,1.7060785293579102,0.13822171092033386,0.8498218059539795,0.4677588641643524,5.296500205993652,-1.464838981628418,0.253044068813324,0.41376760601997375,0.6474677920341492,0.42000001668930054,-0.3002338707447052,0.6716231107711792,-1.013129472732544,-2.9988210201263428,-0.2399960607290268,-0.23343560099601746,-0.21741659939289093,-0.18753835558891296,-0.0034796851687133312,-0.39330682158470154,-0.30060699582099915,-0.14002233743667603
0.5166666666666666,-0.049498770385980606,0.03643951565027237,0.0,0.6504557728767395,0.0,0.0,-0.7595441341400146,-0.13482573628425598,-0.24286097288131714,0.0,0.0,0.0,-3.8815975189208984,0.21543507277965546,0.8174324035644531,0.4649588167667389,0.7291940450668335,0.03920936584472656,-0.08260328322649002,-0.6781705617904663,4.05718994140625,-2.5098581314086914,-0.09351983666419983,3.8223676681518555,-4.894398212432861,15.528006553649902,0.21527782082557678,0.8230956196784973,0.46772080659866333,4.305141448974609,-1.9526673555374146,-0.18432685732841492,0.41376760601997375,0.6474677920341492,0.42000001668930054,-0.2908097505569458,0.4723037779331207,-1.063151240348816,-3.0000016689300537,-0.24001164734363556,-0.2386513501405716,-0.22126920521259308,-0.18956495821475983,-0.013879000209271908,-0.22801965475082397,-0.14793062210083008,-0.07535503059625626
0.5333333333333333,-0.04947633668780327,0.02973576821386814,0.0,0.6455133557319641,0.0,0.0,-0.7637490034103394,0.05335986986756325,-0.41164499521255493,0.0,0.0,0.0,0.19640487432479858,0.27922919392585754,0.782476544380188,0.45938706398010254,0.6863826513290405,0.026599381119012833,-0.04699423164129257,-0.7252328991889954,3.150860548019409,-2.9812986850738525,-0.5850080847740173,-5.745218753814697,-3.13720703125,15.808403015136719,0.27956831455230713,0.7873268127441406,0.46142488718032837,3.484983444213867,-2.360851526260376,-0.4566078782081604,0.41376760601997375,0.6474677920341492,0.42000001668930054,-0.2820328176021576,0.4829435348510742,-1.1131733655929565,-3.000000476837158,-0.2399718016386032,-0.23994533717632294,-0.22214193642139435,-0.18991219997406006,-0.017453856766223907,-0.009754718281328678,-0.012188475579023361,-0.015121474862098694
0.55,-0.046744298189878464,0.025740545243024826,0.0,0.6323412656784058,0.0,0.0,-0.7746899724006653,0.21117949485778809,-0.17134134471416473,0.0,0.0,0.0,-2.9195072650909424,0.3303118050098419,0.745130717754364,0.44428110122680664,0.6539193391799927,-0.02420802228152752,-0.04295434430241585,-0.7549558281898499,2.4109160900115967,-2.5338144302368164,-1.0143488645553589,-3.742741823196411,0.6174229383468628,23.048175811767578,0.3308969736099243,0.7494919300079346,0.44770801067352295,2.7770984172821045,-2.2730984687805176,-1.0304702520370483,0.41376760601997375,0.6474677920341492,0.42000001668930054,-0.2718369960784912,0.6546892523765564,-1.1631954908370972,-3.0000011920928955,-0.23806820809841156,-0.23837773501873016,-0.22158531844615936,-0.19075696170330048,0.20124733448028564,0.18361318111419678,0.09487146139144897,-0.04646851867437363
0.5666666666666667,-0.04140346497297287,0.02054862305521965,0.0,0.6324566006660461,0.0,0.0,-0.7745957970619202,0.36097025871276855,-0.3581855297088623,0.0,0.0,0.0,0.9189225435256958,0.36917844414711,0.7088723182678223,0.4236510396003723,0.6076192855834961,-0.09124115854501724,-0.03486109524965286,-0.7881995439529419,1.5418732166290283,-2.434032917022705,-1.1933754682540894,0.13472439348697662,4.088383197784424,26.014423370361328,0.3698161840438843,0.7128478288650513,0.4283744990825653,2.0136895179748535,-2.1730568408966064,-1.2671175003051758,0.41376760601997375,0.6474677920341492,0.42000001668930054,-0.2603282034397125,0.6199051141738892,-1.2132176160812378,-3.0,-0.23154686391353607,-0.23236176371574402,-0.21767976880073547,-0.19018957018852234,0.43934914469718933,0.42012786865234375,0.281453937292099,0.048689208924770355
0.5833333333333334,-0.03409336879849434,0.018219351768493652,0.0,0.6224277019500732,0.0,0.0,-0.7826772928237915,0.4866771996021271,-0.0813293382525444,0.0,0.0,0.0,-2.4067702293395996,0.3912629783153534,0.6887434720993042,0.42154547572135925,0.5952935814857483,-0.027390239760279655,0.0049981470219790936,-0.8030257821083069,0.611389696598053,-1.4660261869430542,-0.0357496552169323,0.5632949471473694,-1.1168800592422485,18.682727813720703,0.3901785612106323,0.6910882592201233,0.42402583360671997,1.0693697929382324,-1.0185173749923706,-0.1088406890630722,0.41376760601997375,0.6474677920341492,0.42000001668930054,-0.24796228110790253,0.6028933525085449,-1.1768627166748047,3.0003035068511963,-0.2226724773645401,-0.22471073269844055,-0.2131989449262619,-0.19037003815174103,0.5821421146392822,0.49326571822166443,0.27948084473609924,-0.030228368937969208
0.6,-0.029382020235061646,0.013357647694647312,0.0,0.6248002648353577,0.0,0.0,-0.7807846069335938,0.20344178378582,-0.34487390518188477,0.0,0.0,0.0,1.1825417280197144,0.4034944772720337,0.6720382571220398,0.4216849207878113,0.5949516296386719,-0.028331564739346504,0.017280295491218567,-0.8030760884284973,0.4181744158267975,-1.0571858882904053,-0.0755133330821991,-0.8897708058357239,-3.621612548828125,5.481410980224609,0.4015182554721832,0.6744651794433594,0.4247692823410034,0.46341603994369507,-0.9580363035202026,0.10685873031616211,0.41376760601997375,0.6474677920341492,0.42000001668930054,-0.25691768527030945,-1.3020391464233398,-1.19832181930542,-2.9997427463531494,-0.21337296068668365,-0.216161847114563,-0.20763231813907623,-0.18955592811107635,0.4877801835536957,0.4798782467842102,0.3315429091453552,0.06926139444112778
0.6166666666666667,-0.023448314517736435,0.012698741629719734,0.0,0.6155496835708618,0.0,0.0,-0.7880980968475342,0.38046765327453613,-0.030927810817956924,0.0,0.0,0.0,-2.1969027519226074,0.40893465280532837,0.6611016392707825,0.4213518500328064,0.6026099920272827,-0.02334355004131794,0.008605128154158592,-0.7976478934288025,0.24891838431358337,-0.43228787183761597,0.11748991906642914,-2.029057264328003,3.7463204860687256,2.7237138748168945,0.40699735283851624,0.6641275882720947,0.425709068775177,0.2956451177597046,-0.3354032039642334,0.03195938095450401,0.41376760601997375,0.6474677920341492,0.42000001668930054,-0.2656417787075043,-0.026232657954096794,-1.2237415313720703,-0.27972105145454407,-0.20664936304092407,-0.2096482813358307,-0.20358237624168396,-0.18979543447494507,0.5580368638038635,0.5042447447776794,0.32371413707733154,0.042388200759887695
0.6333333333333333,-0.01578611508011818,0.0076531581580638885,0.0,0.6196779012680054,0.0,0.0,-0.7848562002182007,0.465482234954834,-0.3256072998046875,0.0,0.0,0.0,1.504027009010315,0.4124702215194702,0.6557583212852478,0.42217931151390076,0.6003296971321106,-0.03802329674363136,0.014773857779800892,-0.7987115383148193,0.11218371242284775,-0.27025970816612244,0.030024688690900803,-0.6258783936500549,0.9366927742958069,-2.167386054992676,0.4096030592918396,0.6601073145866394,0.4279424846172333,0.009502146393060684,-0.17111831903457642,0.16640733182430267,0.41376760601997375,0.6474677920341492,0.42000001668930054,-0.3033750355243683,-2.9999823570251465,-1.2675491571426392,-2.9997141361236572,-0.195264533162117,-0.19922305643558502,-0.19615548849105835,-0.18698911368846893,0.6102789640426636,0.5813196897506714,0.4317808151245117,0.18461956083774567
0.65,-0.005312734749168158,0.006191483698785305,0.0,0.6416102647781372,0.0,0.0,-0.7670307755470276,0.6658874750137329,-0.06547114998102188,0.0,0.0,0.0,4.531435966491699,0.41316285729408264,0.6526197791099548,0.42154350876808167,0.570675253868103,-0.02713501639664173,0.0055321455001831055,-0.8207086324691772,-0.02167166769504547,-0.1225077211856842,-0.06058613583445549,0.018077518790960312,-2.5471739768981934,-6.711399078369141,0.40843701362609863,0.6590818166732788,0.4308934211730957,-0.12177307903766632,0.09576419740915298,0.19188712537288666,0.41376760601997375,0.6474677920341492,0.42000001668930054,-0.35333073139190674,-2.999013662338257,-1.3175163269042969,-2.9991698265075684,-0.1873788833618164,-0.1915184110403061,-0.190480574965477,-0.18485407531261444,0.5356269478797913,0.5094618201255798,0.382792592048645,0.17465239763259888
0.6666666666666666,0.006946783047169447,0.0018594764405861497,0.0,0.6516038775444031,0.0,0.0,-0.7585594058036804,0.7705900073051453,-0.2868844270706177,0.0,0.0,0.0,0.5186542272567749,0.4118365943431854,0.6518178582191467,0.42000526189804077,0.56697016954422,2.9707380235777237e-06,6.641764684900409e-07,-0.8237382173538208,-0.06534131616353989,-0.002296913880854845,-0.001013662200421095,-0.038477201014757156,-0.014050256460905075,-0.3955742418766022,0.4075949788093567,0.6623893976211548,0.4349086880683899,-0.05697868764400482,0.17463144659996033,0.26663219928741455,0.41376760601997375,0.6474677920341492,0.42000001668930054,-0.4033322334289551,-3.00002121925354,-1.36748468875885,-2.999351978302002,-0.1771971583366394,-0.1818053126335144,-0.18272146582603455,-0.18024620413780212,0.5576193928718567,0.5522768497467041,0.4653109312057495,0.31172600388526917
0.6833333333333333,0.021018480882048607,-0.004896670114248991,0.0,0.6395300626754761,0.0,0.0,-0.7687661051750183,0.8729904890060425,-0.4801623821258545,0.0,0.0,0.0,-3.0558457374572754,0.41161203384399414,0.65180903673172,0.42000001668930054,0.5663509368896484,6.777965609217063e-06,-1.5807638192200102e-05,-0.8241642117500305,0.0008776132599450648,-0.0008046076982282102,-0.0001819138415157795,0.017547670751810074,-0.02677006833255291,-0.005515790078788996,0.4080866575241089,0.6645998954772949,0.44028425216674805,0.11431080102920532,0.05317828059196472,0.4897119104862213,0.41376760601997375,0.6474677920341492,0.42000001668930054,-0.45334628224372864,-2.9999964237213135,-1.4175028800964355,-3.0000011920928955,-0.17049363255500793,-0.17448437213897705,-0.17591987550258636,-0.17490270733833313,0.32222235202789307,0.39055436849594116,0.40197592973709106,0.36588385701179504
0.7,0.03766879811882973,-0.008766829036176205,0.0,0.6041096448898315,0.0,0.0,-0.7969012260437012,1.0294382572174072,-0.21505549550056458,0.0,0.0,0.0,-6.273685932159424,0.41161400079727173,0.6518085598945618,0.4200000464916229,0.5663490295410156,6.596394541702466e-08,-2.891876647481695e-06,-0.824165403842926,7.127271965146065e-05,-0.0002643676707521081,-8.077197708189487e-05,0.006607838440686464,-0.0017722415504977107,-0.0006921830936335027,0.41769173741340637,0.6612988114356995,0.4564318060874939,1.029548168182373,-0.3340036869049072,1.5425026416778564,0.41376760601997375,0.6474677920341492,0.42000001668930054,-0.5033589005470276,-2.9999125003814697,-1.4675211906433105,-2.9999916553497314,-0.17029716074466705,-0.17240101099014282,-0.17274363338947296,-0.17132289707660675,-0.019140582531690598,0.08607164770364761,0.15419338643550873,0.190190389752388
0.7166666666666667,0.05153068155050278,-0.010635267943143845,0.0,0.5832110643386841,0.0,0.0,-0.8123206496238708,0.7503926753997803,-0.06462223827838898,0.0,0.0,0.0,-2.08955979347229,0.41161397099494934,0.6518085598945618,0.4200000464916229,0.5663490295410156,2.426845640002284e-07,-3.308917712274706e-06,-0.8241654634475708,7.511741569032893e-05,-0.0002592813107185066,-8.366070687770844e-05,0.0064315698109567165,-0.0017680571181699634,-0.000697704846970737,0.4381933808326721,0.661583423614502,0.48511838912963867,1.333428144454956,0.2907998859882355,1.867525339126587,0.41376760601997375,0.6474677920341492,0.42000001668930054,-0.5259470343589783,0.039596620947122574,-1.5175395011901855,-3.000000238418579,-0.16947397589683533,-0.17085717618465424,-0.17103728652000427,-0.16992875933647156,0.12309800088405609,0.10953672975301743,0.06523998081684113,-0.004330168478190899
0.7333333333333333,0.06034672632813454,-0.010019872337579727,0.0,0.5882232785224915,0.0,0.0,-0.8086985349655151,0.449085533618927,0.08227206021547318,0.0,0.0,0.0,1.6245768070220947,0.41161400079727173,0.6518085598945618,0.4200000464916229,0.5663489699363708,4.1002030570780335e-07,-3.0047604013816454e-06,-0.8241655826568604,8.00387206254527e-05,-0.0002594382385723293,-8.467468433082104e-05,0.006408580578863621,-0.0017104102298617363,-0.0007088130805641413,0.45787298679351807,0.6676874160766602,0.5105578303337097,0.9585569500923157,0.4320874810218811,1.2281951904296875,0.41376760601997375,0.6474677920341492,0.42000001668930054,-0.5054749846458435,2.2105836868286133,-1.4787603616714478,2.999999761581421,-0.1664428561925888,-0.16811694204807281,-0.1690085530281067,-0.16896474361419678,0.21754519641399384,0.2001180499792099,0.16062518954277039,0.10211482644081116
0.75,0.06497715413570404,-0.013180234469473362,0.0,0.5811346769332886,0.0,0.0,-0.8138074278831482,0.22033049166202545,-0.27741146087646484,0.0,0.0,0.0,-1.9935908317565918,0.41161400079727173,0.6518085598945618,0.4200000464916229,0.5663488507270813,2.1654035720075626e-07,-3.213364152543363e-06,-0.8241656422615051,7.618245581397787e-05,-0.0002601968590170145,-8.388981223106384e-05,0.0064491997472941875,-0.0017601585714146495,-0.0007013605791144073,0.46700990200042725,0.6740354299545288,0.52435302734375,0.11454829573631287,0.35552510619163513,0.6248258352279663,0.41376760601997375,0.6474677920341492,0.42000001668930054,-0.481307715177536,0.7910155057907104,-1.4287077188491821,3.000000238418579,-0.16294775903224945,-0.16469800472259521,-0.16599887609481812,-0.16666819155216217,0.18214008212089539,0.1935575157403946,0.1856219619512558,0.159036323428154
0.7666666666666666,0.06624854356050491,-0.01133787166327238,0.0,0.5867490172386169,0.0,0.0,-0.8097688555717468,0.027707813307642937,0.24576519429683685,0.0,0.0,0.0,1.7036670446395874,0.41161397099494934,0.6518085598945618,0.4200000464916229,0.5663487315177917,3.636683345575875e-07,-3.2151597224583384e-06,-0.8241657018661499,7.784059562254697e-05,-0.0002605220943223685,-8.428841829299927e-05,0.006447280291467905,-0.0017441695090383291,-0.0007057046168483794,0.4659877419471741,0.6785550117492676,0.5308606028556824,-0.1867619901895523,0.28899770975112915,0.19099785387516022,0.41376760601997375,0.6474677920341492,0.42000001668930054,-0.4564950168132782,2.0570261478424072,-1.4060842990875244,-0.04064072668552399,-0.16586323082447052,-0.1661563664674759,-0.1663810908794403,-0.16638578474521637,-0.24532249569892883,-0.14706555008888245,-0.0704764872789383,-0.018131213262677193
0.7833333333333333,0.06527035683393478,-0.012440783903002739,0.0,0.5808247923851013,0.0,0.0,-0.8140285611152649,-0.13458192348480225,-0.07469784468412399,0.0,0.0,0.0,-1.6037030220031738,0.41161400079727173,0.6518085598945618,0.4200000464916229,0.5663490295410156,2.4777637008810416e-07,-3.023724502781988e-06,-0.8241654634475708,7.692487997701392e-05,-0.00025926457601599395,-8.402438834309578e-05,0.006421051919460297,-0.0017465341370552778,-0.0007015777518972754,0.4577661156654358,0.6820147633552551,0.5279288291931152,-0.8599086403846741,0.11807095259428024,-0.3444236218929291,0.41376760601997375,0.6474677920341492,0.42000001668930054,-0.4506968557834625,-1.0956300497055054,-1.3587523698806763,3.000000238418579,-0.1678539216518402,-0.16684606671333313,-0.16603130102157593,-0.16530464589595795,-0.19841739535331726,-0.10035306960344315,-0.01596628502011299,0.05124082416296005
0.8,0.06643632054328918,-0.010407497175037861,0.0,0.5885475873947144,0.0,0.0,-0.8084625601768494,0.01875947415828705,0.12456264346837997,0.0,0.0,0.0,1.8421367406845093,0.41161400079727173,0.6518085598945618,0.4200000464916229,0.5663490295410156,3.661192806703184e-07,-2.8076228772988543e-06,-0.824165403842926,7.390724204014987e-05,-0.0002612253010738641,-8.346349932253361e-05,0.006487446837127209,-0.0017934152856469154,-0.0006985913496464491,0.4459095001220703,0.682106614112854,0.5236082077026367,-0.5096790194511414,0.10246747732162476,-0.14371202886104584,0.41376760601997375,0.6474677920341492,0.42000001668930054,-0.479947566986084,-2.287038803100586,-1.3776344060897827,-3.0000007152557373,-0.17450158298015594,-0.17126606404781342,-0.16834956407546997,-0.1657267063856125,-0.16142638027668,-0.08991248905658722,-0.012125611305236816,0.06805150210857391
0.8166666666666667,0.06836879998445511,-0.012091947719454765,0.0,0.5832690000534058,0.0,0.0,-0.8122790455818176,0.16454076766967773,-0.14721901714801788,0.0,0.0,0.0,-1.6516361236572266,0.41161400079727173,0.6518085598945618,0.4200000464916229,0.5663489699363708,1.9898281777841476e-07,-3.160874484819942e-06,-0.8241655230522156,7.603354606544599e-05,-0.00026032724417746067,-8.38628038764e-05,0.006453223060816526,-0.0017626576591283083,-0.0007012786227278411,0.4421994090080261,0.6817793846130371,0.5178819894790649,-0.008256074041128159,-0.17361225187778473,-0.35890692472457886,0.41376760601997375,0.6474677920341492,0.42000001668930054,-0.5291617512702942,-3.0,-1.4276527166366577,-2.999999761581421,-0.17569546401500702,-0.1715191900730133,-0.16738583147525787,-0.16333872079849243,-0.1181345134973526,-0.04190900921821594,0.05535954236984253,0.1688070297241211
0.8333333333333334,0.07312347739934921,-0.016742007806897163,0.0,0.5565314888954163,0.0,0.0,-0.8308265209197998,0.3332320749759674,-0.3365907669067383,0.0,0.0,0.0,-4.838877201080322,0.41161397099494934,0.6518085598945618,0.4200000464916229,0.5663490891456604,2.233266656048727e-07,-3.0250312192947604e-06,-0.824165403842926,7.351803651545197e-05,-0.00026129549951292574,-8.336547762155533e-05,0.006491577252745628,-0.0017978777177631855,-0.0006978042656555772,0.44631242752075195,0.6763345003128052,0.5168313980102539,0.5367511510848999,-0.44466719031333923,0.3671688437461853,0.41376760601997375,0.6474677920341492,0.42000001668930054,-0.5791743397712708,-2.9999542236328125,-1.4776710271835327,-2.9999985694885254,-0.17927169799804688,-0.17377056181430817,-0.16793446242809296,-0.16189086437225342,-0.2317298948764801,-0.15845687687397003,-0.06162996590137482,0.05397171899676323
0.85,0.08059182018041611,-0.018951725214719772,0.0,0.5459957122802734,0.0,0.0,-0.8377879858016968,0.48432472348213196,-0.05342036113142967,0.0,0.0,0.0,-0.4919295907020569,0.41161400079727173,0.6518085598945618,0.4200000464916229,0.5663488507270813,2.422694933557068e-07,-3.0446501568803797e-06,-0.8241655230522156,7.497500337194651e-05,-0.00026012095622718334,-8.360762149095535e-05,0.006454022601246834,-0.0017731798579916358,-0.0006985987420193851,0.45573148131370544,0.6740865111351013,0.526473879814148,0.5597343444824219,0.09130880981683731,0.7573804259300232,0.41376760601997375,0.6474677920341492,0.42000001668930054,-0.5989640355110168,0.35059472918510437,-1.5276893377304077,-2.999999761581421,-0.18245777487754822,-0.17665472626686096,-0.1701551079750061,-0.16314758360385895,-0.11248484253883362,-0.14343257248401642,-0.15622907876968384,-0.1530257612466812
0.8666666666666667,0.08495611697435379,-0.018724968656897545,0.0,0.560825765132904,0.0,0.0,-0.8279338479042053,0.19324328005313873,0.07152581959962845,0.0,0.0,0.0,2.9476940631866455,0.41161397099494934,0.6518085598945618,0.4200000464916229,0.5663488507270813,3.7598849189635075e-07,-2.880689862649888e-06,-0.8241656422615051,7.881623605499044e-05,-0.0002600408042781055,-8.448981679975986e-05,0.006430291570723057,-0.0017297666054219007,-0.000707207596860826,0.4665260910987854,0.6763394474983215,0.5339311957359314,0.647101640701294,0.13726791739463806,0.18999417126178741,0.41376760601997375,0.6474677920341492,0.42000001668930054,-0.5834646224975586,1.4035704135894775,-1.4888797998428345,3.0,-0.18162409961223602,-0.17667272686958313,-0.17071494460105896,-0.16396968066692352,0.1070341244339943,0.056818172335624695,0.022540584206581116,0.0027340606320649385
0.8833333333333333,0.08531268686056137,-0.02281820774078369,0.0,0.5614739060401917,0.0,0.0,-0.8274944424629211,0.016666702926158905,-0.3334728479385376,0.0,0.0,0.0,-0.9145652651786804,0.41161400079727173,0.6518085598945618,0.4200000464916229,0.5663489103317261,3.453931185504189e-07,-2.9372752123890677e-06,-0.8241655230522156,7.928389823064208e-05,-0.00026044753030873835,-8.45219474285841e-05,0.006438468117266893,-0.001724417321383953,-0.0007087080157361925,0.4733814001083374,0.677768349647522,0.5338343977928162,0.16831590235233307,-0.016064651310443878,-0.05160736292600632,0.41376760601997375,0.6474677920341492,0.42000001668930054,-0.590286910533905,-1.9279848337173462,-1.4388271570205688,3.0000009536743164,-0.17715926468372345,-0.17339500784873962,-0.16839787364006042,-0.16239523887634277,0.2054997682571411,0.154321551322937,0.1112542450428009,0.07578455656766891
0.9,0.08891227841377258,-0.020860187709331512,0.0,0.573907732963562,0.0,0.0,-0.8189199566841125,0.17548248171806335,0.18197384476661682,0.0,0.0,0.0,2.531494140625,0.41161397099494934,0.6518085598945618,0.4200000464916229,0.5663488507270813,3.5860895764017187e-07,-2.9997074761922704e-06,-0.8241656422615051,7.897472096374258e-05,-0.00026018390781246126,-8.453777991235256e-05,0.0064331539906561375,-0.00172892096452415,-0.0007075608591549098,0.4772825837135315,0.6758835315704346,0.5318850874900818,0.3697338104248047,0.0011054575443267822,-0.15680626034736633,0.41376760601997375,0.6474677920341492,0.42000001668930054,-0.597297191619873,0.8513990044593811,-1.4562112092971802,-2.999999761581421,-0.1808546483516693,-0.17649954557418823,-0.17086154222488403,-0.16420936584472656,-0.08815053850412369,-0.08423154056072235,-0.07174129039049149,-0.05249251797795296
